(Exported by FreeCAD)
(Post Processor: script_module)
(Output Time:2024-08-26 20:35:04.264976)
(Begin preamble)
G17 G90
G21
(Begin operation: TC: 3.175 Z2 droite011)
(Path: TC: 3.175 Z2 droite011)
(TC: 3.175 Z2 droite011)
(Begin toolchange)
( M6 T1 )
M3 S24000
(Finish operation: TC: 3.175 Z2 droite011)
(Begin operation: Fixture)
(Path: Fixture)
G54
(Finish operation: Fixture)
(Begin operation: Profile)
(Path: Profile)
(Profile)
(Compensated Tool Path. Diameter: 3.17)
G0 Z5.000
G0 X342.601 Y313.601
G0 Z3.000
G1 X342.601 Y313.601 Z-1.585 F300.000
G2 X239.274 Y51.506 Z-1.585 I-108.601 J-108.601 K0.000 F2000.000
G2 X80.506 Y199.726 Z-1.585 I-5.274 J153.494 K0.000 F2000.000
G2 X228.726 Y358.494 Z-1.585 I153.494 J5.274 K0.000 F2000.000
G2 X342.601 Y313.601 Z-1.585 I5.274 J-153.494 K0.000 F2000.000
G1 X342.601 Y313.601 Z-3.170 F300.000
G2 X239.274 Y51.506 Z-3.170 I-108.601 J-108.601 K0.000 F2000.000
G2 X80.506 Y199.726 Z-3.170 I-5.274 J153.494 K0.000 F2000.000
G2 X228.726 Y358.494 Z-3.170 I153.494 J5.274 K0.000 F2000.000
G2 X342.601 Y313.601 Z-3.170 I5.274 J-153.494 K0.000 F2000.000
G1 X342.601 Y313.601 Z-4.755 F300.000
G2 X239.274 Y51.506 Z-4.755 I-108.601 J-108.601 K0.000 F2000.000
G2 X80.506 Y199.726 Z-4.755 I-5.274 J153.494 K0.000 F2000.000
G2 X228.726 Y358.494 Z-4.755 I153.494 J5.274 K0.000 F2000.000
G2 X342.601 Y313.601 Z-4.755 I5.274 J-153.494 K0.000 F2000.000
G1 X342.601 Y313.601 Z-6.340 F300.000
G2 X239.274 Y51.506 Z-6.340 I-108.601 J-108.601 K0.000 F2000.000
G2 X80.506 Y199.726 Z-6.340 I-5.274 J153.494 K0.000 F2000.000
G2 X228.726 Y358.494 Z-6.340 I153.494 J5.274 K0.000 F2000.000
G2 X342.601 Y313.601 Z-6.340 I5.274 J-153.494 K0.000 F2000.000
G1 X342.601 Y313.601 Z-7.925 F300.000
G2 X239.274 Y51.506 Z-7.925 I-108.601 J-108.601 K0.000 F2000.000
G2 X80.506 Y199.726 Z-7.925 I-5.274 J153.494 K0.000 F2000.000
G2 X228.726 Y358.494 Z-7.925 I153.494 J5.274 K0.000 F2000.000
G2 X342.601 Y313.601 Z-7.925 I5.274 J-153.494 K0.000 F2000.000
G1 X342.601 Y313.601 Z-9.510 F300.000
G2 X239.274 Y51.506 Z-9.510 I-108.601 J-108.601 K0.000 F2000.000
G2 X80.506 Y199.726 Z-9.510 I-5.274 J153.494 K0.000 F2000.000
G2 X228.726 Y358.494 Z-9.510 I153.494 J5.274 K0.000 F2000.000
G2 X342.601 Y313.601 Z-9.510 I5.274 J-153.494 K0.000 F2000.000
G1 X342.601 Y313.601 Z-11.095 F300.000
G2 X239.274 Y51.506 Z-11.095 I-108.601 J-108.601 K0.000 F2000.000
G2 X80.506 Y199.726 Z-11.095 I-5.274 J153.494 K0.000 F2000.000
G2 X228.726 Y358.494 Z-11.095 I153.494 J5.274 K0.000 F2000.000
G2 X342.601 Y313.601 Z-11.095 I5.274 J-153.494 K0.000 F2000.000
G1 X342.601 Y313.601 Z-12.680 F300.000
G2 X239.274 Y51.506 Z-12.680 I-108.601 J-108.601 K0.000 F2000.000
G2 X80.506 Y199.726 Z-12.680 I-5.274 J153.494 K0.000 F2000.000
G2 X228.726 Y358.494 Z-12.680 I153.494 J5.274 K0.000 F2000.000
G2 X342.601 Y313.601 Z-12.680 I5.274 J-153.494 K0.000 F2000.000
G1 X342.601 Y313.601 Z-14.265 F300.000
G2 X239.274 Y51.506 Z-14.265 I-108.601 J-108.601 K0.000 F2000.000
G2 X80.506 Y199.726 Z-14.265 I-5.274 J153.494 K0.000 F2000.000
G2 X228.726 Y358.494 Z-14.265 I153.494 J5.274 K0.000 F2000.000
G2 X342.601 Y313.601 Z-14.265 I5.274 J-153.494 K0.000 F2000.000
G1 X342.601 Y313.601 Z-15.850 F300.000
G2 X239.274 Y51.506 Z-15.850 I-108.601 J-108.601 K0.000 F2000.000
G2 X80.506 Y199.726 Z-15.850 I-5.274 J153.494 K0.000 F2000.000
G2 X228.726 Y358.494 Z-15.850 I153.494 J5.274 K0.000 F2000.000
G2 X342.601 Y313.601 Z-15.850 I5.274 J-153.494 K0.000 F2000.000
G1 X342.601 Y313.601 Z-17.435 F300.000
G2 X239.274 Y51.506 Z-17.435 I-108.601 J-108.601 K0.000 F2000.000
G2 X80.506 Y199.726 Z-17.435 I-5.274 J153.494 K0.000 F2000.000
G2 X228.726 Y358.494 Z-17.435 I153.494 J5.274 K0.000 F2000.000
G2 X342.601 Y313.601 Z-17.435 I5.274 J-153.494 K0.000 F2000.000
G1 X342.601 Y313.601 Z-18.000 F300.000
G2 X239.274 Y51.506 Z-18.000 I-108.601 J-108.601 K0.000 F2000.000
G2 X80.506 Y199.726 Z-18.000 I-5.274 J153.494 K0.000 F2000.000
G2 X228.726 Y358.494 Z-18.000 I153.494 J5.274 K0.000 F2000.000
G2 X342.601 Y313.601 Z-18.000 I5.274 J-153.494 K0.000 F2000.000
G0 Z5.000
G0 Z5.000
G0 X342.601 Y313.601
G0 Y411.585
G0 Y411.585 Z3.000
G1 X342.601 Y411.585 Z-1.585 F300.000
G1 X468.000 Y411.585 Z-1.585 F2000.000
G2 X469.585 Y410.000 Z-1.585 I-0.000 J-1.585 K0.000 F2000.000
G1 X469.585 Y0.000 Z-1.585 F2000.000
G2 X468.000 Y-1.585 Z-1.585 I-1.585 J0.000 K0.000 F2000.000
G1 X0.000 Y-1.585 Z-1.585 F2000.000
G2 X-1.585 Y0.000 Z-1.585 I0.000 J1.585 K0.000 F2000.000
G1 X-1.585 Y410.000 Z-1.585 F2000.000
G2 X-0.000 Y411.585 Z-1.585 I1.585 J-0.000 K0.000 F2000.000
G1 X342.601 Y411.585 Z-1.585 F2000.000
G1 X342.601 Y411.585 Z-3.170 F300.000
G1 X468.000 Y411.585 Z-3.170 F2000.000
G2 X469.585 Y410.000 Z-3.170 I-0.000 J-1.585 K0.000 F2000.000
G1 X469.585 Y0.000 Z-3.170 F2000.000
G2 X468.000 Y-1.585 Z-3.170 I-1.585 J0.000 K0.000 F2000.000
G1 X0.000 Y-1.585 Z-3.170 F2000.000
G2 X-1.585 Y0.000 Z-3.170 I0.000 J1.585 K0.000 F2000.000
G1 X-1.585 Y410.000 Z-3.170 F2000.000
G2 X-0.000 Y411.585 Z-3.170 I1.585 J-0.000 K0.000 F2000.000
G1 X342.601 Y411.585 Z-3.170 F2000.000
G1 X342.601 Y411.585 Z-4.755 F300.000
G1 X468.000 Y411.585 Z-4.755 F2000.000
G2 X469.585 Y410.000 Z-4.755 I-0.000 J-1.585 K0.000 F2000.000
G1 X469.585 Y0.000 Z-4.755 F2000.000
G2 X468.000 Y-1.585 Z-4.755 I-1.585 J0.000 K0.000 F2000.000
G1 X0.000 Y-1.585 Z-4.755 F2000.000
G2 X-1.585 Y0.000 Z-4.755 I0.000 J1.585 K0.000 F2000.000
G1 X-1.585 Y410.000 Z-4.755 F2000.000
G2 X-0.000 Y411.585 Z-4.755 I1.585 J-0.000 K0.000 F2000.000
G1 X342.601 Y411.585 Z-4.755 F2000.000
G1 X342.601 Y411.585 Z-6.340 F300.000
G1 X468.000 Y411.585 Z-6.340 F2000.000
G2 X469.585 Y410.000 Z-6.340 I-0.000 J-1.585 K0.000 F2000.000
G1 X469.585 Y0.000 Z-6.340 F2000.000
G2 X468.000 Y-1.585 Z-6.340 I-1.585 J0.000 K0.000 F2000.000
G1 X0.000 Y-1.585 Z-6.340 F2000.000
G2 X-1.585 Y0.000 Z-6.340 I0.000 J1.585 K0.000 F2000.000
G1 X-1.585 Y410.000 Z-6.340 F2000.000
G2 X-0.000 Y411.585 Z-6.340 I1.585 J-0.000 K0.000 F2000.000
G1 X342.601 Y411.585 Z-6.340 F2000.000
G1 X342.601 Y411.585 Z-7.925 F300.000
G1 X468.000 Y411.585 Z-7.925 F2000.000
G2 X469.585 Y410.000 Z-7.925 I-0.000 J-1.585 K0.000 F2000.000
G1 X469.585 Y0.000 Z-7.925 F2000.000
G2 X468.000 Y-1.585 Z-7.925 I-1.585 J0.000 K0.000 F2000.000
G1 X0.000 Y-1.585 Z-7.925 F2000.000
G2 X-1.585 Y0.000 Z-7.925 I0.000 J1.585 K0.000 F2000.000
G1 X-1.585 Y410.000 Z-7.925 F2000.000
G2 X-0.000 Y411.585 Z-7.925 I1.585 J-0.000 K0.000 F2000.000
G1 X342.601 Y411.585 Z-7.925 F2000.000
G1 X342.601 Y411.585 Z-9.510 F300.000
G1 X468.000 Y411.585 Z-9.510 F2000.000
G2 X469.585 Y410.000 Z-9.510 I-0.000 J-1.585 K0.000 F2000.000
G1 X469.585 Y0.000 Z-9.510 F2000.000
G2 X468.000 Y-1.585 Z-9.510 I-1.585 J0.000 K0.000 F2000.000
G1 X0.000 Y-1.585 Z-9.510 F2000.000
G2 X-1.585 Y0.000 Z-9.510 I0.000 J1.585 K0.000 F2000.000
G1 X-1.585 Y410.000 Z-9.510 F2000.000
G2 X-0.000 Y411.585 Z-9.510 I1.585 J-0.000 K0.000 F2000.000
G1 X342.601 Y411.585 Z-9.510 F2000.000
G1 X342.601 Y411.585 Z-11.095 F300.000
G1 X468.000 Y411.585 Z-11.095 F2000.000
G2 X469.585 Y410.000 Z-11.095 I-0.000 J-1.585 K0.000 F2000.000
G1 X469.585 Y0.000 Z-11.095 F2000.000
G2 X468.000 Y-1.585 Z-11.095 I-1.585 J0.000 K0.000 F2000.000
G1 X0.000 Y-1.585 Z-11.095 F2000.000
G2 X-1.585 Y0.000 Z-11.095 I0.000 J1.585 K0.000 F2000.000
G1 X-1.585 Y410.000 Z-11.095 F2000.000
G2 X-0.000 Y411.585 Z-11.095 I1.585 J-0.000 K0.000 F2000.000
G1 X342.601 Y411.585 Z-11.095 F2000.000
G1 X342.601 Y411.585 Z-12.680 F300.000
G1 X468.000 Y411.585 Z-12.680 F2000.000
G2 X469.585 Y410.000 Z-12.680 I-0.000 J-1.585 K0.000 F2000.000
G1 X469.585 Y0.000 Z-12.680 F2000.000
G2 X468.000 Y-1.585 Z-12.680 I-1.585 J0.000 K0.000 F2000.000
G1 X0.000 Y-1.585 Z-12.680 F2000.000
G2 X-1.585 Y0.000 Z-12.680 I0.000 J1.585 K0.000 F2000.000
G1 X-1.585 Y410.000 Z-12.680 F2000.000
G2 X-0.000 Y411.585 Z-12.680 I1.585 J-0.000 K0.000 F2000.000
G1 X342.601 Y411.585 Z-12.680 F2000.000
G1 X342.601 Y411.585 Z-14.265 F300.000
G1 X468.000 Y411.585 Z-14.265 F2000.000
G2 X469.585 Y410.000 Z-14.265 I-0.000 J-1.585 K0.000 F2000.000
G1 X469.585 Y0.000 Z-14.265 F2000.000
G2 X468.000 Y-1.585 Z-14.265 I-1.585 J0.000 K0.000 F2000.000
G1 X0.000 Y-1.585 Z-14.265 F2000.000
G2 X-1.585 Y0.000 Z-14.265 I0.000 J1.585 K0.000 F2000.000
G1 X-1.585 Y410.000 Z-14.265 F2000.000
G2 X-0.000 Y411.585 Z-14.265 I1.585 J-0.000 K0.000 F2000.000
G1 X342.601 Y411.585 Z-14.265 F2000.000
G1 X342.601 Y411.585 Z-15.850 F300.000
G1 X468.000 Y411.585 Z-15.850 F2000.000
G2 X469.585 Y410.000 Z-15.850 I-0.000 J-1.585 K0.000 F2000.000
G1 X469.585 Y0.000 Z-15.850 F2000.000
G2 X468.000 Y-1.585 Z-15.850 I-1.585 J0.000 K0.000 F2000.000
G1 X0.000 Y-1.585 Z-15.850 F2000.000
G2 X-1.585 Y0.000 Z-15.850 I0.000 J1.585 K0.000 F2000.000
G1 X-1.585 Y410.000 Z-15.850 F2000.000
G2 X-0.000 Y411.585 Z-15.850 I1.585 J-0.000 K0.000 F2000.000
G1 X342.601 Y411.585 Z-15.850 F2000.000
G1 X342.601 Y411.585 Z-17.435 F300.000
G1 X468.000 Y411.585 Z-17.435 F2000.000
G2 X469.585 Y410.000 Z-17.435 I-0.000 J-1.585 K0.000 F2000.000
G1 X469.585 Y0.000 Z-17.435 F2000.000
G2 X468.000 Y-1.585 Z-17.435 I-1.585 J0.000 K0.000 F2000.000
G1 X0.000 Y-1.585 Z-17.435 F2000.000
G2 X-1.585 Y0.000 Z-17.435 I0.000 J1.585 K0.000 F2000.000
G1 X-1.585 Y410.000 Z-17.435 F2000.000
G2 X-0.000 Y411.585 Z-17.435 I1.585 J-0.000 K0.000 F2000.000
G1 X342.601 Y411.585 Z-17.435 F2000.000
G1 X342.601 Y411.585 Z-18.000 F300.000
G1 X468.000 Y411.585 Z-18.000 F2000.000
G2 X469.585 Y410.000 Z-18.000 I-0.000 J-1.585 K0.000 F2000.000
G1 X469.585 Y0.000 Z-18.000 F2000.000
G2 X468.000 Y-1.585 Z-18.000 I-1.585 J0.000 K0.000 F2000.000
G1 X0.000 Y-1.585 Z-18.000 F2000.000
G2 X-1.585 Y0.000 Z-18.000 I0.000 J1.585 K0.000 F2000.000
G1 X-1.585 Y410.000 Z-18.000 F2000.000
G2 X-0.000 Y411.585 Z-18.000 I1.585 J-0.000 K0.000 F2000.000
G1 X342.601 Y411.585 Z-18.000 F2000.000
G0 Z5.000
G0 Z5.000
(Finish operation: Profile)
(Begin postamble)
M5
G17 G90
M2
