(Exported by FreeCAD)
(Post Processor: grbl_post)
(Output Time:2025-08-02 19:24:30.363300)
(Begin preamble)
G17 G90
G21
(Begin operation: TC: 3.175 Z1 UP Helicoidale007)
(Path: TC: 3.175 Z1 UP Helicoidale007)
(TC: 3.175 Z1 UP Helicoidale007)
(Begin toolchange)
( M6 T1 )
M3 S24000
(Finish operation: TC: 3.175 Z1 UP Helicoidale007)
(Begin operation: Fixture)
(Path: Fixture)
G54
(Finish operation: Fixture)
(Begin operation: Helix)
(Path: Helix)
(Helix)
(helix cut operation)
G0 Z5.000
G0 Z5.000
G0 X46.000 Y34.000 Z5.000
G0 X46.000 Y34.000 Z0.000
G0 X47.285 Y34.000
G1 Z0.000 F500.000
G3 X44.715 Y34.000 Z-1.300 I-1.285 J0.000 F2000.000
G3 X47.285 Y34.000 Z-2.600 I1.285 J0.000 F2000.000
G3 X44.715 Y34.000 Z-3.900 I-1.285 J0.000 F2000.000
G3 X47.285 Y34.000 Z-5.200 I1.285 J0.000 F2000.000
G3 X44.715 Y34.000 Z-6.500 I-1.285 J0.000 F2000.000
G3 X47.285 Y34.000 Z-7.800 I1.285 J0.000 F2000.000
G3 X44.715 Y34.000 Z-9.100 I-1.285 J0.000 F2000.000
G3 X47.285 Y34.000 Z-10.400 I1.285 J0.000 F2000.000
G3 X44.715 Y34.000 Z-11.700 I-1.285 J0.000 F2000.000
G3 X47.285 Y34.000 Z-13.000 I1.285 J0.000 F2000.000
G3 X44.715 Y34.000 Z-13.000 I-1.285 J0.000 F2000.000
G3 X47.285 Y34.000 Z-13.000 I1.285 J0.000 F2000.000
G0 Z0.000
G0 X48.505 Y34.000
G1 Z0.000 F500.000
G3 X43.495 Y34.000 Z-1.300 I-2.505 J0.000 F2000.000
G3 X48.505 Y34.000 Z-2.600 I2.505 J0.000 F2000.000
G3 X43.495 Y34.000 Z-3.900 I-2.505 J0.000 F2000.000
G3 X48.505 Y34.000 Z-5.200 I2.505 J0.000 F2000.000
G3 X43.495 Y34.000 Z-6.500 I-2.505 J0.000 F2000.000
G3 X48.505 Y34.000 Z-7.800 I2.505 J0.000 F2000.000
G3 X43.495 Y34.000 Z-9.100 I-2.505 J0.000 F2000.000
G3 X48.505 Y34.000 Z-10.400 I2.505 J0.000 F2000.000
G3 X43.495 Y34.000 Z-11.700 I-2.505 J0.000 F2000.000
G3 X48.505 Y34.000 Z-13.000 I2.505 J0.000 F2000.000
G3 X43.495 Y34.000 Z-13.000 I-2.505 J0.000 F2000.000
G3 X48.505 Y34.000 Z-13.000 I2.505 J0.000 F2000.000
G0 Z0.000
G0 X49.725 Y34.000
G1 Z0.000 F500.000
G3 X42.275 Y34.000 Z-1.300 I-3.725 J0.000 F2000.000
G3 X49.725 Y34.000 Z-2.600 I3.725 J0.000 F2000.000
G3 X42.275 Y34.000 Z-3.900 I-3.725 J0.000 F2000.000
G3 X49.725 Y34.000 Z-5.200 I3.725 J0.000 F2000.000
G3 X42.275 Y34.000 Z-6.500 I-3.725 J0.000 F2000.000
G3 X49.725 Y34.000 Z-7.800 I3.725 J0.000 F2000.000
G3 X42.275 Y34.000 Z-9.100 I-3.725 J0.000 F2000.000
G3 X49.725 Y34.000 Z-10.400 I3.725 J0.000 F2000.000
G3 X42.275 Y34.000 Z-11.700 I-3.725 J0.000 F2000.000
G3 X49.725 Y34.000 Z-13.000 I3.725 J0.000 F2000.000
G3 X42.275 Y34.000 Z-13.000 I-3.725 J0.000 F2000.000
G3 X49.725 Y34.000 Z-13.000 I3.725 J0.000 F2000.000
G0 Z0.000
G0 X50.945 Y34.000
G1 Z0.000 F500.000
G3 X41.055 Y34.000 Z-1.300 I-4.945 J0.000 F2000.000
G3 X50.945 Y34.000 Z-2.600 I4.945 J0.000 F2000.000
G3 X41.055 Y34.000 Z-3.900 I-4.945 J0.000 F2000.000
G3 X50.945 Y34.000 Z-5.200 I4.945 J0.000 F2000.000
G3 X41.055 Y34.000 Z-6.500 I-4.945 J0.000 F2000.000
G3 X50.945 Y34.000 Z-7.800 I4.945 J0.000 F2000.000
G3 X41.055 Y34.000 Z-9.100 I-4.945 J0.000 F2000.000
G3 X50.945 Y34.000 Z-10.400 I4.945 J0.000 F2000.000
G3 X41.055 Y34.000 Z-11.700 I-4.945 J0.000 F2000.000
G3 X50.945 Y34.000 Z-13.000 I4.945 J0.000 F2000.000
G3 X41.055 Y34.000 Z-13.000 I-4.945 J0.000 F2000.000
G3 X50.945 Y34.000 Z-13.000 I4.945 J0.000 F2000.000
G0 Z0.000
G0 X52.165 Y34.000
G1 Z0.000 F500.000
G3 X39.835 Y34.000 Z-1.300 I-6.165 J0.000 F2000.000
G3 X52.165 Y34.000 Z-2.600 I6.165 J0.000 F2000.000
G3 X39.835 Y34.000 Z-3.900 I-6.165 J0.000 F2000.000
G3 X52.165 Y34.000 Z-5.200 I6.165 J0.000 F2000.000
G3 X39.835 Y34.000 Z-6.500 I-6.165 J0.000 F2000.000
G3 X52.165 Y34.000 Z-7.800 I6.165 J0.000 F2000.000
G3 X39.835 Y34.000 Z-9.100 I-6.165 J0.000 F2000.000
G3 X52.165 Y34.000 Z-10.400 I6.165 J0.000 F2000.000
G3 X39.835 Y34.000 Z-11.700 I-6.165 J0.000 F2000.000
G3 X52.165 Y34.000 Z-13.000 I6.165 J0.000 F2000.000
G3 X39.835 Y34.000 Z-13.000 I-6.165 J0.000 F2000.000
G3 X52.165 Y34.000 Z-13.000 I6.165 J0.000 F2000.000
G0 Z0.000
G0 Z5.000
G0 X107.000 Y34.000 Z5.000
G0 X107.000 Y34.000 Z0.000
G0 X108.285 Y34.000
G1 Z0.000 F500.000
G3 X105.715 Y34.000 Z-1.300 I-1.285 J0.000 F2000.000
G3 X108.285 Y34.000 Z-2.600 I1.285 J0.000 F2000.000
G3 X105.715 Y34.000 Z-3.900 I-1.285 J0.000 F2000.000
G3 X108.285 Y34.000 Z-5.200 I1.285 J0.000 F2000.000
G3 X105.715 Y34.000 Z-6.500 I-1.285 J0.000 F2000.000
G3 X108.285 Y34.000 Z-7.800 I1.285 J0.000 F2000.000
G3 X105.715 Y34.000 Z-9.100 I-1.285 J0.000 F2000.000
G3 X108.285 Y34.000 Z-10.400 I1.285 J0.000 F2000.000
G3 X105.715 Y34.000 Z-11.700 I-1.285 J0.000 F2000.000
G3 X108.285 Y34.000 Z-13.000 I1.285 J0.000 F2000.000
G3 X105.715 Y34.000 Z-13.000 I-1.285 J0.000 F2000.000
G3 X108.285 Y34.000 Z-13.000 I1.285 J0.000 F2000.000
G0 Z0.000
G0 X109.505 Y34.000
G1 Z0.000 F500.000
G3 X104.495 Y34.000 Z-1.300 I-2.505 J0.000 F2000.000
G3 X109.505 Y34.000 Z-2.600 I2.505 J0.000 F2000.000
G3 X104.495 Y34.000 Z-3.900 I-2.505 J0.000 F2000.000
G3 X109.505 Y34.000 Z-5.200 I2.505 J0.000 F2000.000
G3 X104.495 Y34.000 Z-6.500 I-2.505 J0.000 F2000.000
G3 X109.505 Y34.000 Z-7.800 I2.505 J0.000 F2000.000
G3 X104.495 Y34.000 Z-9.100 I-2.505 J0.000 F2000.000
G3 X109.505 Y34.000 Z-10.400 I2.505 J0.000 F2000.000
G3 X104.495 Y34.000 Z-11.700 I-2.505 J0.000 F2000.000
G3 X109.505 Y34.000 Z-13.000 I2.505 J0.000 F2000.000
G3 X104.495 Y34.000 Z-13.000 I-2.505 J0.000 F2000.000
G3 X109.505 Y34.000 Z-13.000 I2.505 J0.000 F2000.000
G0 Z0.000
G0 X110.725 Y34.000
G1 Z0.000 F500.000
G3 X103.275 Y34.000 Z-1.300 I-3.725 J0.000 F2000.000
G3 X110.725 Y34.000 Z-2.600 I3.725 J0.000 F2000.000
G3 X103.275 Y34.000 Z-3.900 I-3.725 J0.000 F2000.000
G3 X110.725 Y34.000 Z-5.200 I3.725 J0.000 F2000.000
G3 X103.275 Y34.000 Z-6.500 I-3.725 J0.000 F2000.000
G3 X110.725 Y34.000 Z-7.800 I3.725 J0.000 F2000.000
G3 X103.275 Y34.000 Z-9.100 I-3.725 J0.000 F2000.000
G3 X110.725 Y34.000 Z-10.400 I3.725 J0.000 F2000.000
G3 X103.275 Y34.000 Z-11.700 I-3.725 J0.000 F2000.000
G3 X110.725 Y34.000 Z-13.000 I3.725 J0.000 F2000.000
G3 X103.275 Y34.000 Z-13.000 I-3.725 J0.000 F2000.000
G3 X110.725 Y34.000 Z-13.000 I3.725 J0.000 F2000.000
G0 Z0.000
G0 X111.945 Y34.000
G1 Z0.000 F500.000
G3 X102.055 Y34.000 Z-1.300 I-4.945 J0.000 F2000.000
G3 X111.945 Y34.000 Z-2.600 I4.945 J0.000 F2000.000
G3 X102.055 Y34.000 Z-3.900 I-4.945 J0.000 F2000.000
G3 X111.945 Y34.000 Z-5.200 I4.945 J0.000 F2000.000
G3 X102.055 Y34.000 Z-6.500 I-4.945 J0.000 F2000.000
G3 X111.945 Y34.000 Z-7.800 I4.945 J0.000 F2000.000
G3 X102.055 Y34.000 Z-9.100 I-4.945 J0.000 F2000.000
G3 X111.945 Y34.000 Z-10.400 I4.945 J0.000 F2000.000
G3 X102.055 Y34.000 Z-11.700 I-4.945 J0.000 F2000.000
G3 X111.945 Y34.000 Z-13.000 I4.945 J0.000 F2000.000
G3 X102.055 Y34.000 Z-13.000 I-4.945 J0.000 F2000.000
G3 X111.945 Y34.000 Z-13.000 I4.945 J0.000 F2000.000
G0 Z0.000
G0 X113.165 Y34.000
G1 Z0.000 F500.000
G3 X100.835 Y34.000 Z-1.300 I-6.165 J0.000 F2000.000
G3 X113.165 Y34.000 Z-2.600 I6.165 J0.000 F2000.000
G3 X100.835 Y34.000 Z-3.900 I-6.165 J0.000 F2000.000
G3 X113.165 Y34.000 Z-5.200 I6.165 J0.000 F2000.000
G3 X100.835 Y34.000 Z-6.500 I-6.165 J0.000 F2000.000
G3 X113.165 Y34.000 Z-7.800 I6.165 J0.000 F2000.000
G3 X100.835 Y34.000 Z-9.100 I-6.165 J0.000 F2000.000
G3 X113.165 Y34.000 Z-10.400 I6.165 J0.000 F2000.000
G3 X100.835 Y34.000 Z-11.700 I-6.165 J0.000 F2000.000
G3 X113.165 Y34.000 Z-13.000 I6.165 J0.000 F2000.000
G3 X100.835 Y34.000 Z-13.000 I-6.165 J0.000 F2000.000
G3 X113.165 Y34.000 Z-13.000 I6.165 J0.000 F2000.000
G0 Z0.000
G0 Z5.000
G0 X403.000 Y34.000 Z5.000
G0 X403.000 Y34.000 Z0.000
G0 X404.285 Y34.000
G1 Z0.000 F500.000
G3 X401.715 Y34.000 Z-1.300 I-1.285 J0.000 F2000.000
G3 X404.285 Y34.000 Z-2.600 I1.285 J0.000 F2000.000
G3 X401.715 Y34.000 Z-3.900 I-1.285 J0.000 F2000.000
G3 X404.285 Y34.000 Z-5.200 I1.285 J0.000 F2000.000
G3 X401.715 Y34.000 Z-6.500 I-1.285 J0.000 F2000.000
G3 X404.285 Y34.000 Z-7.800 I1.285 J0.000 F2000.000
G3 X401.715 Y34.000 Z-9.100 I-1.285 J0.000 F2000.000
G3 X404.285 Y34.000 Z-10.400 I1.285 J0.000 F2000.000
G3 X401.715 Y34.000 Z-11.700 I-1.285 J0.000 F2000.000
G3 X404.285 Y34.000 Z-13.000 I1.285 J0.000 F2000.000
G3 X401.715 Y34.000 Z-13.000 I-1.285 J0.000 F2000.000
G3 X404.285 Y34.000 Z-13.000 I1.285 J0.000 F2000.000
G0 Z0.000
G0 X405.505 Y34.000
G1 Z0.000 F500.000
G3 X400.495 Y34.000 Z-1.300 I-2.505 J0.000 F2000.000
G3 X405.505 Y34.000 Z-2.600 I2.505 J0.000 F2000.000
G3 X400.495 Y34.000 Z-3.900 I-2.505 J0.000 F2000.000
G3 X405.505 Y34.000 Z-5.200 I2.505 J0.000 F2000.000
G3 X400.495 Y34.000 Z-6.500 I-2.505 J0.000 F2000.000
G3 X405.505 Y34.000 Z-7.800 I2.505 J0.000 F2000.000
G3 X400.495 Y34.000 Z-9.100 I-2.505 J0.000 F2000.000
G3 X405.505 Y34.000 Z-10.400 I2.505 J0.000 F2000.000
G3 X400.495 Y34.000 Z-11.700 I-2.505 J0.000 F2000.000
G3 X405.505 Y34.000 Z-13.000 I2.505 J0.000 F2000.000
G3 X400.495 Y34.000 Z-13.000 I-2.505 J0.000 F2000.000
G3 X405.505 Y34.000 Z-13.000 I2.505 J0.000 F2000.000
G0 Z0.000
G0 X406.725 Y34.000
G1 Z0.000 F500.000
G3 X399.275 Y34.000 Z-1.300 I-3.725 J0.000 F2000.000
G3 X406.725 Y34.000 Z-2.600 I3.725 J0.000 F2000.000
G3 X399.275 Y34.000 Z-3.900 I-3.725 J0.000 F2000.000
G3 X406.725 Y34.000 Z-5.200 I3.725 J0.000 F2000.000
G3 X399.275 Y34.000 Z-6.500 I-3.725 J0.000 F2000.000
G3 X406.725 Y34.000 Z-7.800 I3.725 J0.000 F2000.000
G3 X399.275 Y34.000 Z-9.100 I-3.725 J0.000 F2000.000
G3 X406.725 Y34.000 Z-10.400 I3.725 J0.000 F2000.000
G3 X399.275 Y34.000 Z-11.700 I-3.725 J0.000 F2000.000
G3 X406.725 Y34.000 Z-13.000 I3.725 J0.000 F2000.000
G3 X399.275 Y34.000 Z-13.000 I-3.725 J0.000 F2000.000
G3 X406.725 Y34.000 Z-13.000 I3.725 J0.000 F2000.000
G0 Z0.000
G0 X407.945 Y34.000
G1 Z0.000 F500.000
G3 X398.055 Y34.000 Z-1.300 I-4.945 J0.000 F2000.000
G3 X407.945 Y34.000 Z-2.600 I4.945 J0.000 F2000.000
G3 X398.055 Y34.000 Z-3.900 I-4.945 J0.000 F2000.000
G3 X407.945 Y34.000 Z-5.200 I4.945 J0.000 F2000.000
G3 X398.055 Y34.000 Z-6.500 I-4.945 J0.000 F2000.000
G3 X407.945 Y34.000 Z-7.800 I4.945 J0.000 F2000.000
G3 X398.055 Y34.000 Z-9.100 I-4.945 J0.000 F2000.000
G3 X407.945 Y34.000 Z-10.400 I4.945 J0.000 F2000.000
G3 X398.055 Y34.000 Z-11.700 I-4.945 J0.000 F2000.000
G3 X407.945 Y34.000 Z-13.000 I4.945 J0.000 F2000.000
G3 X398.055 Y34.000 Z-13.000 I-4.945 J0.000 F2000.000
G3 X407.945 Y34.000 Z-13.000 I4.945 J0.000 F2000.000
G0 Z0.000
G0 X409.165 Y34.000
G1 Z0.000 F500.000
G3 X396.835 Y34.000 Z-1.300 I-6.165 J0.000 F2000.000
G3 X409.165 Y34.000 Z-2.600 I6.165 J0.000 F2000.000
G3 X396.835 Y34.000 Z-3.900 I-6.165 J0.000 F2000.000
G3 X409.165 Y34.000 Z-5.200 I6.165 J0.000 F2000.000
G3 X396.835 Y34.000 Z-6.500 I-6.165 J0.000 F2000.000
G3 X409.165 Y34.000 Z-7.800 I6.165 J0.000 F2000.000
G3 X396.835 Y34.000 Z-9.100 I-6.165 J0.000 F2000.000
G3 X409.165 Y34.000 Z-10.400 I6.165 J0.000 F2000.000
G3 X396.835 Y34.000 Z-11.700 I-6.165 J0.000 F2000.000
G3 X409.165 Y34.000 Z-13.000 I6.165 J0.000 F2000.000
G3 X396.835 Y34.000 Z-13.000 I-6.165 J0.000 F2000.000
G3 X409.165 Y34.000 Z-13.000 I6.165 J0.000 F2000.000
G0 Z0.000
G0 Z5.000
G0 X464.000 Y34.000 Z5.000
G0 X464.000 Y34.000 Z0.000
G0 X465.285 Y34.000
G1 Z0.000 F500.000
G3 X462.715 Y34.000 Z-1.300 I-1.285 J0.000 F2000.000
G3 X465.285 Y34.000 Z-2.600 I1.285 J0.000 F2000.000
G3 X462.715 Y34.000 Z-3.900 I-1.285 J0.000 F2000.000
G3 X465.285 Y34.000 Z-5.200 I1.285 J0.000 F2000.000
G3 X462.715 Y34.000 Z-6.500 I-1.285 J0.000 F2000.000
G3 X465.285 Y34.000 Z-7.800 I1.285 J0.000 F2000.000
G3 X462.715 Y34.000 Z-9.100 I-1.285 J0.000 F2000.000
G3 X465.285 Y34.000 Z-10.400 I1.285 J0.000 F2000.000
G3 X462.715 Y34.000 Z-11.700 I-1.285 J0.000 F2000.000
G3 X465.285 Y34.000 Z-13.000 I1.285 J0.000 F2000.000
G3 X462.715 Y34.000 Z-13.000 I-1.285 J0.000 F2000.000
G3 X465.285 Y34.000 Z-13.000 I1.285 J0.000 F2000.000
G0 Z0.000
G0 X466.505 Y34.000
G1 Z0.000 F500.000
G3 X461.495 Y34.000 Z-1.300 I-2.505 J0.000 F2000.000
G3 X466.505 Y34.000 Z-2.600 I2.505 J0.000 F2000.000
G3 X461.495 Y34.000 Z-3.900 I-2.505 J0.000 F2000.000
G3 X466.505 Y34.000 Z-5.200 I2.505 J0.000 F2000.000
G3 X461.495 Y34.000 Z-6.500 I-2.505 J0.000 F2000.000
G3 X466.505 Y34.000 Z-7.800 I2.505 J0.000 F2000.000
G3 X461.495 Y34.000 Z-9.100 I-2.505 J0.000 F2000.000
G3 X466.505 Y34.000 Z-10.400 I2.505 J0.000 F2000.000
G3 X461.495 Y34.000 Z-11.700 I-2.505 J0.000 F2000.000
G3 X466.505 Y34.000 Z-13.000 I2.505 J0.000 F2000.000
G3 X461.495 Y34.000 Z-13.000 I-2.505 J0.000 F2000.000
G3 X466.505 Y34.000 Z-13.000 I2.505 J0.000 F2000.000
G0 Z0.000
G0 X467.725 Y34.000
G1 Z0.000 F500.000
G3 X460.275 Y34.000 Z-1.300 I-3.725 J0.000 F2000.000
G3 X467.725 Y34.000 Z-2.600 I3.725 J0.000 F2000.000
G3 X460.275 Y34.000 Z-3.900 I-3.725 J0.000 F2000.000
G3 X467.725 Y34.000 Z-5.200 I3.725 J0.000 F2000.000
G3 X460.275 Y34.000 Z-6.500 I-3.725 J0.000 F2000.000
G3 X467.725 Y34.000 Z-7.800 I3.725 J0.000 F2000.000
G3 X460.275 Y34.000 Z-9.100 I-3.725 J0.000 F2000.000
G3 X467.725 Y34.000 Z-10.400 I3.725 J0.000 F2000.000
G3 X460.275 Y34.000 Z-11.700 I-3.725 J0.000 F2000.000
G3 X467.725 Y34.000 Z-13.000 I3.725 J0.000 F2000.000
G3 X460.275 Y34.000 Z-13.000 I-3.725 J0.000 F2000.000
G3 X467.725 Y34.000 Z-13.000 I3.725 J0.000 F2000.000
G0 Z0.000
G0 X468.945 Y34.000
G1 Z0.000 F500.000
G3 X459.055 Y34.000 Z-1.300 I-4.945 J0.000 F2000.000
G3 X468.945 Y34.000 Z-2.600 I4.945 J0.000 F2000.000
G3 X459.055 Y34.000 Z-3.900 I-4.945 J0.000 F2000.000
G3 X468.945 Y34.000 Z-5.200 I4.945 J0.000 F2000.000
G3 X459.055 Y34.000 Z-6.500 I-4.945 J0.000 F2000.000
G3 X468.945 Y34.000 Z-7.800 I4.945 J0.000 F2000.000
G3 X459.055 Y34.000 Z-9.100 I-4.945 J0.000 F2000.000
G3 X468.945 Y34.000 Z-10.400 I4.945 J0.000 F2000.000
G3 X459.055 Y34.000 Z-11.700 I-4.945 J0.000 F2000.000
G3 X468.945 Y34.000 Z-13.000 I4.945 J0.000 F2000.000
G3 X459.055 Y34.000 Z-13.000 I-4.945 J0.000 F2000.000
G3 X468.945 Y34.000 Z-13.000 I4.945 J0.000 F2000.000
G0 Z0.000
G0 X470.165 Y34.000
G1 Z0.000 F500.000
G3 X457.835 Y34.000 Z-1.300 I-6.165 J0.000 F2000.000
G3 X470.165 Y34.000 Z-2.600 I6.165 J0.000 F2000.000
G3 X457.835 Y34.000 Z-3.900 I-6.165 J0.000 F2000.000
G3 X470.165 Y34.000 Z-5.200 I6.165 J0.000 F2000.000
G3 X457.835 Y34.000 Z-6.500 I-6.165 J0.000 F2000.000
G3 X470.165 Y34.000 Z-7.800 I6.165 J0.000 F2000.000
G3 X457.835 Y34.000 Z-9.100 I-6.165 J0.000 F2000.000
G3 X470.165 Y34.000 Z-10.400 I6.165 J0.000 F2000.000
G3 X457.835 Y34.000 Z-11.700 I-6.165 J0.000 F2000.000
G3 X470.165 Y34.000 Z-13.000 I6.165 J0.000 F2000.000
G3 X457.835 Y34.000 Z-13.000 I-6.165 J0.000 F2000.000
G3 X470.165 Y34.000 Z-13.000 I6.165 J0.000 F2000.000
G0 Z0.000
G0 Z5.000
G0 X464.000 Y534.000 Z5.000
G0 X464.000 Y534.000 Z0.000
G0 X465.285 Y534.000
G1 Z0.000 F500.000
G3 X462.715 Y534.000 Z-1.300 I-1.285 J0.000 F2000.000
G3 X465.285 Y534.000 Z-2.600 I1.285 J0.000 F2000.000
G3 X462.715 Y534.000 Z-3.900 I-1.285 J0.000 F2000.000
G3 X465.285 Y534.000 Z-5.200 I1.285 J0.000 F2000.000
G3 X462.715 Y534.000 Z-6.500 I-1.285 J0.000 F2000.000
G3 X465.285 Y534.000 Z-7.800 I1.285 J0.000 F2000.000
G3 X462.715 Y534.000 Z-9.100 I-1.285 J0.000 F2000.000
G3 X465.285 Y534.000 Z-10.400 I1.285 J0.000 F2000.000
G3 X462.715 Y534.000 Z-11.700 I-1.285 J0.000 F2000.000
G3 X465.285 Y534.000 Z-13.000 I1.285 J0.000 F2000.000
G3 X462.715 Y534.000 Z-13.000 I-1.285 J0.000 F2000.000
G3 X465.285 Y534.000 Z-13.000 I1.285 J0.000 F2000.000
G0 Z0.000
G0 X466.505 Y534.000
G1 Z0.000 F500.000
G3 X461.495 Y534.000 Z-1.300 I-2.505 J0.000 F2000.000
G3 X466.505 Y534.000 Z-2.600 I2.505 J0.000 F2000.000
G3 X461.495 Y534.000 Z-3.900 I-2.505 J0.000 F2000.000
G3 X466.505 Y534.000 Z-5.200 I2.505 J0.000 F2000.000
G3 X461.495 Y534.000 Z-6.500 I-2.505 J0.000 F2000.000
G3 X466.505 Y534.000 Z-7.800 I2.505 J0.000 F2000.000
G3 X461.495 Y534.000 Z-9.100 I-2.505 J0.000 F2000.000
G3 X466.505 Y534.000 Z-10.400 I2.505 J0.000 F2000.000
G3 X461.495 Y534.000 Z-11.700 I-2.505 J0.000 F2000.000
G3 X466.505 Y534.000 Z-13.000 I2.505 J0.000 F2000.000
G3 X461.495 Y534.000 Z-13.000 I-2.505 J0.000 F2000.000
G3 X466.505 Y534.000 Z-13.000 I2.505 J0.000 F2000.000
G0 Z0.000
G0 X467.725 Y534.000
G1 Z0.000 F500.000
G3 X460.275 Y534.000 Z-1.300 I-3.725 J0.000 F2000.000
G3 X467.725 Y534.000 Z-2.600 I3.725 J0.000 F2000.000
G3 X460.275 Y534.000 Z-3.900 I-3.725 J0.000 F2000.000
G3 X467.725 Y534.000 Z-5.200 I3.725 J0.000 F2000.000
G3 X460.275 Y534.000 Z-6.500 I-3.725 J0.000 F2000.000
G3 X467.725 Y534.000 Z-7.800 I3.725 J0.000 F2000.000
G3 X460.275 Y534.000 Z-9.100 I-3.725 J0.000 F2000.000
G3 X467.725 Y534.000 Z-10.400 I3.725 J0.000 F2000.000
G3 X460.275 Y534.000 Z-11.700 I-3.725 J0.000 F2000.000
G3 X467.725 Y534.000 Z-13.000 I3.725 J0.000 F2000.000
G3 X460.275 Y534.000 Z-13.000 I-3.725 J0.000 F2000.000
G3 X467.725 Y534.000 Z-13.000 I3.725 J0.000 F2000.000
G0 Z0.000
G0 X468.945 Y534.000
G1 Z0.000 F500.000
G3 X459.055 Y534.000 Z-1.300 I-4.945 J0.000 F2000.000
G3 X468.945 Y534.000 Z-2.600 I4.945 J0.000 F2000.000
G3 X459.055 Y534.000 Z-3.900 I-4.945 J0.000 F2000.000
G3 X468.945 Y534.000 Z-5.200 I4.945 J0.000 F2000.000
G3 X459.055 Y534.000 Z-6.500 I-4.945 J0.000 F2000.000
G3 X468.945 Y534.000 Z-7.800 I4.945 J0.000 F2000.000
G3 X459.055 Y534.000 Z-9.100 I-4.945 J0.000 F2000.000
G3 X468.945 Y534.000 Z-10.400 I4.945 J0.000 F2000.000
G3 X459.055 Y534.000 Z-11.700 I-4.945 J0.000 F2000.000
G3 X468.945 Y534.000 Z-13.000 I4.945 J0.000 F2000.000
G3 X459.055 Y534.000 Z-13.000 I-4.945 J0.000 F2000.000
G3 X468.945 Y534.000 Z-13.000 I4.945 J0.000 F2000.000
G0 Z0.000
G0 X470.165 Y534.000
G1 Z0.000 F500.000
G3 X457.835 Y534.000 Z-1.300 I-6.165 J0.000 F2000.000
G3 X470.165 Y534.000 Z-2.600 I6.165 J0.000 F2000.000
G3 X457.835 Y534.000 Z-3.900 I-6.165 J0.000 F2000.000
G3 X470.165 Y534.000 Z-5.200 I6.165 J0.000 F2000.000
G3 X457.835 Y534.000 Z-6.500 I-6.165 J0.000 F2000.000
G3 X470.165 Y534.000 Z-7.800 I6.165 J0.000 F2000.000
G3 X457.835 Y534.000 Z-9.100 I-6.165 J0.000 F2000.000
G3 X470.165 Y534.000 Z-10.400 I6.165 J0.000 F2000.000
G3 X457.835 Y534.000 Z-11.700 I-6.165 J0.000 F2000.000
G3 X470.165 Y534.000 Z-13.000 I6.165 J0.000 F2000.000
G3 X457.835 Y534.000 Z-13.000 I-6.165 J0.000 F2000.000
G3 X470.165 Y534.000 Z-13.000 I6.165 J0.000 F2000.000
G0 Z0.000
G0 Z5.000
G0 X403.000 Y534.000 Z5.000
G0 X403.000 Y534.000 Z0.000
G0 X404.285 Y534.000
G1 Z0.000 F500.000
G3 X401.715 Y534.000 Z-1.300 I-1.285 J0.000 F2000.000
G3 X404.285 Y534.000 Z-2.600 I1.285 J0.000 F2000.000
G3 X401.715 Y534.000 Z-3.900 I-1.285 J0.000 F2000.000
G3 X404.285 Y534.000 Z-5.200 I1.285 J0.000 F2000.000
G3 X401.715 Y534.000 Z-6.500 I-1.285 J0.000 F2000.000
G3 X404.285 Y534.000 Z-7.800 I1.285 J0.000 F2000.000
G3 X401.715 Y534.000 Z-9.100 I-1.285 J0.000 F2000.000
G3 X404.285 Y534.000 Z-10.400 I1.285 J0.000 F2000.000
G3 X401.715 Y534.000 Z-11.700 I-1.285 J0.000 F2000.000
G3 X404.285 Y534.000 Z-13.000 I1.285 J0.000 F2000.000
G3 X401.715 Y534.000 Z-13.000 I-1.285 J0.000 F2000.000
G3 X404.285 Y534.000 Z-13.000 I1.285 J0.000 F2000.000
G0 Z0.000
G0 X405.505 Y534.000
G1 Z0.000 F500.000
G3 X400.495 Y534.000 Z-1.300 I-2.505 J0.000 F2000.000
G3 X405.505 Y534.000 Z-2.600 I2.505 J0.000 F2000.000
G3 X400.495 Y534.000 Z-3.900 I-2.505 J0.000 F2000.000
G3 X405.505 Y534.000 Z-5.200 I2.505 J0.000 F2000.000
G3 X400.495 Y534.000 Z-6.500 I-2.505 J0.000 F2000.000
G3 X405.505 Y534.000 Z-7.800 I2.505 J0.000 F2000.000
G3 X400.495 Y534.000 Z-9.100 I-2.505 J0.000 F2000.000
G3 X405.505 Y534.000 Z-10.400 I2.505 J0.000 F2000.000
G3 X400.495 Y534.000 Z-11.700 I-2.505 J0.000 F2000.000
G3 X405.505 Y534.000 Z-13.000 I2.505 J0.000 F2000.000
G3 X400.495 Y534.000 Z-13.000 I-2.505 J0.000 F2000.000
G3 X405.505 Y534.000 Z-13.000 I2.505 J0.000 F2000.000
G0 Z0.000
G0 X406.725 Y534.000
G1 Z0.000 F500.000
G3 X399.275 Y534.000 Z-1.300 I-3.725 J0.000 F2000.000
G3 X406.725 Y534.000 Z-2.600 I3.725 J0.000 F2000.000
G3 X399.275 Y534.000 Z-3.900 I-3.725 J0.000 F2000.000
G3 X406.725 Y534.000 Z-5.200 I3.725 J0.000 F2000.000
G3 X399.275 Y534.000 Z-6.500 I-3.725 J0.000 F2000.000
G3 X406.725 Y534.000 Z-7.800 I3.725 J0.000 F2000.000
G3 X399.275 Y534.000 Z-9.100 I-3.725 J0.000 F2000.000
G3 X406.725 Y534.000 Z-10.400 I3.725 J0.000 F2000.000
G3 X399.275 Y534.000 Z-11.700 I-3.725 J0.000 F2000.000
G3 X406.725 Y534.000 Z-13.000 I3.725 J0.000 F2000.000
G3 X399.275 Y534.000 Z-13.000 I-3.725 J0.000 F2000.000
G3 X406.725 Y534.000 Z-13.000 I3.725 J0.000 F2000.000
G0 Z0.000
G0 X407.945 Y534.000
G1 Z0.000 F500.000
G3 X398.055 Y534.000 Z-1.300 I-4.945 J0.000 F2000.000
G3 X407.945 Y534.000 Z-2.600 I4.945 J0.000 F2000.000
G3 X398.055 Y534.000 Z-3.900 I-4.945 J0.000 F2000.000
G3 X407.945 Y534.000 Z-5.200 I4.945 J0.000 F2000.000
G3 X398.055 Y534.000 Z-6.500 I-4.945 J0.000 F2000.000
G3 X407.945 Y534.000 Z-7.800 I4.945 J0.000 F2000.000
G3 X398.055 Y534.000 Z-9.100 I-4.945 J0.000 F2000.000
G3 X407.945 Y534.000 Z-10.400 I4.945 J0.000 F2000.000
G3 X398.055 Y534.000 Z-11.700 I-4.945 J0.000 F2000.000
G3 X407.945 Y534.000 Z-13.000 I4.945 J0.000 F2000.000
G3 X398.055 Y534.000 Z-13.000 I-4.945 J0.000 F2000.000
G3 X407.945 Y534.000 Z-13.000 I4.945 J0.000 F2000.000
G0 Z0.000
G0 X409.165 Y534.000
G1 Z0.000 F500.000
G3 X396.835 Y534.000 Z-1.300 I-6.165 J0.000 F2000.000
G3 X409.165 Y534.000 Z-2.600 I6.165 J0.000 F2000.000
G3 X396.835 Y534.000 Z-3.900 I-6.165 J0.000 F2000.000
G3 X409.165 Y534.000 Z-5.200 I6.165 J0.000 F2000.000
G3 X396.835 Y534.000 Z-6.500 I-6.165 J0.000 F2000.000
G3 X409.165 Y534.000 Z-7.800 I6.165 J0.000 F2000.000
G3 X396.835 Y534.000 Z-9.100 I-6.165 J0.000 F2000.000
G3 X409.165 Y534.000 Z-10.400 I6.165 J0.000 F2000.000
G3 X396.835 Y534.000 Z-11.700 I-6.165 J0.000 F2000.000
G3 X409.165 Y534.000 Z-13.000 I6.165 J0.000 F2000.000
G3 X396.835 Y534.000 Z-13.000 I-6.165 J0.000 F2000.000
G3 X409.165 Y534.000 Z-13.000 I6.165 J0.000 F2000.000
G0 Z0.000
G0 Z5.000
G0 X107.000 Y534.000 Z5.000
G0 X107.000 Y534.000 Z0.000
G0 X108.285 Y534.000
G1 Z0.000 F500.000
G3 X105.715 Y534.000 Z-1.300 I-1.285 J0.000 F2000.000
G3 X108.285 Y534.000 Z-2.600 I1.285 J0.000 F2000.000
G3 X105.715 Y534.000 Z-3.900 I-1.285 J0.000 F2000.000
G3 X108.285 Y534.000 Z-5.200 I1.285 J0.000 F2000.000
G3 X105.715 Y534.000 Z-6.500 I-1.285 J0.000 F2000.000
G3 X108.285 Y534.000 Z-7.800 I1.285 J0.000 F2000.000
G3 X105.715 Y534.000 Z-9.100 I-1.285 J0.000 F2000.000
G3 X108.285 Y534.000 Z-10.400 I1.285 J0.000 F2000.000
G3 X105.715 Y534.000 Z-11.700 I-1.285 J0.000 F2000.000
G3 X108.285 Y534.000 Z-13.000 I1.285 J0.000 F2000.000
G3 X105.715 Y534.000 Z-13.000 I-1.285 J0.000 F2000.000
G3 X108.285 Y534.000 Z-13.000 I1.285 J0.000 F2000.000
G0 Z0.000
G0 X109.505 Y534.000
G1 Z0.000 F500.000
G3 X104.495 Y534.000 Z-1.300 I-2.505 J0.000 F2000.000
G3 X109.505 Y534.000 Z-2.600 I2.505 J0.000 F2000.000
G3 X104.495 Y534.000 Z-3.900 I-2.505 J0.000 F2000.000
G3 X109.505 Y534.000 Z-5.200 I2.505 J0.000 F2000.000
G3 X104.495 Y534.000 Z-6.500 I-2.505 J0.000 F2000.000
G3 X109.505 Y534.000 Z-7.800 I2.505 J0.000 F2000.000
G3 X104.495 Y534.000 Z-9.100 I-2.505 J0.000 F2000.000
G3 X109.505 Y534.000 Z-10.400 I2.505 J0.000 F2000.000
G3 X104.495 Y534.000 Z-11.700 I-2.505 J0.000 F2000.000
G3 X109.505 Y534.000 Z-13.000 I2.505 J0.000 F2000.000
G3 X104.495 Y534.000 Z-13.000 I-2.505 J0.000 F2000.000
G3 X109.505 Y534.000 Z-13.000 I2.505 J0.000 F2000.000
G0 Z0.000
G0 X110.725 Y534.000
G1 Z0.000 F500.000
G3 X103.275 Y534.000 Z-1.300 I-3.725 J0.000 F2000.000
G3 X110.725 Y534.000 Z-2.600 I3.725 J0.000 F2000.000
G3 X103.275 Y534.000 Z-3.900 I-3.725 J0.000 F2000.000
G3 X110.725 Y534.000 Z-5.200 I3.725 J0.000 F2000.000
G3 X103.275 Y534.000 Z-6.500 I-3.725 J0.000 F2000.000
G3 X110.725 Y534.000 Z-7.800 I3.725 J0.000 F2000.000
G3 X103.275 Y534.000 Z-9.100 I-3.725 J0.000 F2000.000
G3 X110.725 Y534.000 Z-10.400 I3.725 J0.000 F2000.000
G3 X103.275 Y534.000 Z-11.700 I-3.725 J0.000 F2000.000
G3 X110.725 Y534.000 Z-13.000 I3.725 J0.000 F2000.000
G3 X103.275 Y534.000 Z-13.000 I-3.725 J0.000 F2000.000
G3 X110.725 Y534.000 Z-13.000 I3.725 J0.000 F2000.000
G0 Z0.000
G0 X111.945 Y534.000
G1 Z0.000 F500.000
G3 X102.055 Y534.000 Z-1.300 I-4.945 J0.000 F2000.000
G3 X111.945 Y534.000 Z-2.600 I4.945 J0.000 F2000.000
G3 X102.055 Y534.000 Z-3.900 I-4.945 J0.000 F2000.000
G3 X111.945 Y534.000 Z-5.200 I4.945 J0.000 F2000.000
G3 X102.055 Y534.000 Z-6.500 I-4.945 J0.000 F2000.000
G3 X111.945 Y534.000 Z-7.800 I4.945 J0.000 F2000.000
G3 X102.055 Y534.000 Z-9.100 I-4.945 J0.000 F2000.000
G3 X111.945 Y534.000 Z-10.400 I4.945 J0.000 F2000.000
G3 X102.055 Y534.000 Z-11.700 I-4.945 J0.000 F2000.000
G3 X111.945 Y534.000 Z-13.000 I4.945 J0.000 F2000.000
G3 X102.055 Y534.000 Z-13.000 I-4.945 J0.000 F2000.000
G3 X111.945 Y534.000 Z-13.000 I4.945 J0.000 F2000.000
G0 Z0.000
G0 X113.165 Y534.000
G1 Z0.000 F500.000
G3 X100.835 Y534.000 Z-1.300 I-6.165 J0.000 F2000.000
G3 X113.165 Y534.000 Z-2.600 I6.165 J0.000 F2000.000
G3 X100.835 Y534.000 Z-3.900 I-6.165 J0.000 F2000.000
G3 X113.165 Y534.000 Z-5.200 I6.165 J0.000 F2000.000
G3 X100.835 Y534.000 Z-6.500 I-6.165 J0.000 F2000.000
G3 X113.165 Y534.000 Z-7.800 I6.165 J0.000 F2000.000
G3 X100.835 Y534.000 Z-9.100 I-6.165 J0.000 F2000.000
G3 X113.165 Y534.000 Z-10.400 I6.165 J0.000 F2000.000
G3 X100.835 Y534.000 Z-11.700 I-6.165 J0.000 F2000.000
G3 X113.165 Y534.000 Z-13.000 I6.165 J0.000 F2000.000
G3 X100.835 Y534.000 Z-13.000 I-6.165 J0.000 F2000.000
G3 X113.165 Y534.000 Z-13.000 I6.165 J0.000 F2000.000
G0 Z0.000
G0 Z5.000
G0 X46.000 Y534.000 Z5.000
G0 X46.000 Y534.000 Z0.000
G0 X47.285 Y534.000
G1 Z0.000 F500.000
G3 X44.715 Y534.000 Z-1.300 I-1.285 J0.000 F2000.000
G3 X47.285 Y534.000 Z-2.600 I1.285 J0.000 F2000.000
G3 X44.715 Y534.000 Z-3.900 I-1.285 J0.000 F2000.000
G3 X47.285 Y534.000 Z-5.200 I1.285 J0.000 F2000.000
G3 X44.715 Y534.000 Z-6.500 I-1.285 J0.000 F2000.000
G3 X47.285 Y534.000 Z-7.800 I1.285 J0.000 F2000.000
G3 X44.715 Y534.000 Z-9.100 I-1.285 J0.000 F2000.000
G3 X47.285 Y534.000 Z-10.400 I1.285 J0.000 F2000.000
G3 X44.715 Y534.000 Z-11.700 I-1.285 J0.000 F2000.000
G3 X47.285 Y534.000 Z-13.000 I1.285 J0.000 F2000.000
G3 X44.715 Y534.000 Z-13.000 I-1.285 J0.000 F2000.000
G3 X47.285 Y534.000 Z-13.000 I1.285 J0.000 F2000.000
G0 Z0.000
G0 X48.505 Y534.000
G1 Z0.000 F500.000
G3 X43.495 Y534.000 Z-1.300 I-2.505 J0.000 F2000.000
G3 X48.505 Y534.000 Z-2.600 I2.505 J0.000 F2000.000
G3 X43.495 Y534.000 Z-3.900 I-2.505 J0.000 F2000.000
G3 X48.505 Y534.000 Z-5.200 I2.505 J0.000 F2000.000
G3 X43.495 Y534.000 Z-6.500 I-2.505 J0.000 F2000.000
G3 X48.505 Y534.000 Z-7.800 I2.505 J0.000 F2000.000
G3 X43.495 Y534.000 Z-9.100 I-2.505 J0.000 F2000.000
G3 X48.505 Y534.000 Z-10.400 I2.505 J0.000 F2000.000
G3 X43.495 Y534.000 Z-11.700 I-2.505 J0.000 F2000.000
G3 X48.505 Y534.000 Z-13.000 I2.505 J0.000 F2000.000
G3 X43.495 Y534.000 Z-13.000 I-2.505 J0.000 F2000.000
G3 X48.505 Y534.000 Z-13.000 I2.505 J0.000 F2000.000
G0 Z0.000
G0 X49.725 Y534.000
G1 Z0.000 F500.000
G3 X42.275 Y534.000 Z-1.300 I-3.725 J0.000 F2000.000
G3 X49.725 Y534.000 Z-2.600 I3.725 J0.000 F2000.000
G3 X42.275 Y534.000 Z-3.900 I-3.725 J0.000 F2000.000
G3 X49.725 Y534.000 Z-5.200 I3.725 J0.000 F2000.000
G3 X42.275 Y534.000 Z-6.500 I-3.725 J0.000 F2000.000
G3 X49.725 Y534.000 Z-7.800 I3.725 J0.000 F2000.000
G3 X42.275 Y534.000 Z-9.100 I-3.725 J0.000 F2000.000
G3 X49.725 Y534.000 Z-10.400 I3.725 J0.000 F2000.000
G3 X42.275 Y534.000 Z-11.700 I-3.725 J0.000 F2000.000
G3 X49.725 Y534.000 Z-13.000 I3.725 J0.000 F2000.000
G3 X42.275 Y534.000 Z-13.000 I-3.725 J0.000 F2000.000
G3 X49.725 Y534.000 Z-13.000 I3.725 J0.000 F2000.000
G0 Z0.000
G0 X50.945 Y534.000
G1 Z0.000 F500.000
G3 X41.055 Y534.000 Z-1.300 I-4.945 J0.000 F2000.000
G3 X50.945 Y534.000 Z-2.600 I4.945 J0.000 F2000.000
G3 X41.055 Y534.000 Z-3.900 I-4.945 J0.000 F2000.000
G3 X50.945 Y534.000 Z-5.200 I4.945 J0.000 F2000.000
G3 X41.055 Y534.000 Z-6.500 I-4.945 J0.000 F2000.000
G3 X50.945 Y534.000 Z-7.800 I4.945 J0.000 F2000.000
G3 X41.055 Y534.000 Z-9.100 I-4.945 J0.000 F2000.000
G3 X50.945 Y534.000 Z-10.400 I4.945 J0.000 F2000.000
G3 X41.055 Y534.000 Z-11.700 I-4.945 J0.000 F2000.000
G3 X50.945 Y534.000 Z-13.000 I4.945 J0.000 F2000.000
G3 X41.055 Y534.000 Z-13.000 I-4.945 J0.000 F2000.000
G3 X50.945 Y534.000 Z-13.000 I4.945 J0.000 F2000.000
G0 Z0.000
G0 X52.165 Y534.000
G1 Z0.000 F500.000
G3 X39.835 Y534.000 Z-1.300 I-6.165 J0.000 F2000.000
G3 X52.165 Y534.000 Z-2.600 I6.165 J0.000 F2000.000
G3 X39.835 Y534.000 Z-3.900 I-6.165 J0.000 F2000.000
G3 X52.165 Y534.000 Z-5.200 I6.165 J0.000 F2000.000
G3 X39.835 Y534.000 Z-6.500 I-6.165 J0.000 F2000.000
G3 X52.165 Y534.000 Z-7.800 I6.165 J0.000 F2000.000
G3 X39.835 Y534.000 Z-9.100 I-6.165 J0.000 F2000.000
G3 X52.165 Y534.000 Z-10.400 I6.165 J0.000 F2000.000
G3 X39.835 Y534.000 Z-11.700 I-6.165 J0.000 F2000.000
G3 X52.165 Y534.000 Z-13.000 I6.165 J0.000 F2000.000
G3 X39.835 Y534.000 Z-13.000 I-6.165 J0.000 F2000.000
G3 X52.165 Y534.000 Z-13.000 I6.165 J0.000 F2000.000
G0 Z0.000
G0 Z5.000
(Finish operation: Helix)
(Begin postamble)
M5
G17 G90
M2
