(Exported by FreeCAD)
(Post Processor: grbl_post)
(Output Time:2022-01-22 18:21:26.949234)
(Begin preamble)
G17 G90
G21
(Begin operation: Fixture)
(Path: Fixture)
G54
(Finish operation: Fixture)
(Begin operation: TC: 3.175 Z2 droite002)
(Path: TC: 3.175 Z2 droite002)
(TC: 3.175 Z2 droite002)
(Begin toolchange)
( M6 T2.0 )
M3 S0.0
(Finish operation: TC: 3.175 Z2 droite002)
(Begin operation: DogboneDressup)
(Path: DogboneDressup)
(Profile)
(Compensated Tool Path. Diameter: 3.17)
G0 Z5.000
G0 X11.997 Y53.935
G0 Z3.000
G1 X11.997 Y53.935 Z-3.170
G3 X10.564 Y54.279 Z-3.170 I-0.997 J-0.997 K0.000
G3 X11.436 Y51.597 Z-3.170 I0.436 J-1.341 K0.000
G3 X11.997 Y53.935 Z-3.170 I-0.436 J1.341 K0.000
G1 X11.997 Y53.935 Z-6.340
G3 X10.564 Y54.279 Z-6.340 I-0.997 J-0.997 K0.000
G3 X11.436 Y51.597 Z-6.340 I0.436 J-1.341 K0.000
G3 X11.997 Y53.935 Z-6.340 I-0.436 J1.341 K0.000
G1 X11.997 Y53.935 Z-8.000
G3 X10.564 Y54.279 Z-8.000 I-0.997 J-0.997 K0.000
G3 X11.436 Y51.597 Z-8.000 I0.436 J-1.341 K0.000
G3 X11.997 Y53.935 Z-8.000 I-0.436 J1.341 K0.000
G0 Z5.000
G0 X29.869 Y38.055
G0 X29.869 Y38.055 Z3.000
G1 X29.869 Y38.055 Z-3.170
G3 X39.736 Y20.935 Z-3.170 I7.785 J-6.917 K0.000
G3 X47.857 Y33.221 Z-3.170 I-2.083 J10.203 K0.000
G3 X35.570 Y41.341 Z-3.170 I-10.203 J-2.083 K0.000
G3 X29.869 Y38.055 Z-3.170 I2.083 J-10.203 K0.000
G1 X29.869 Y38.055 Z-6.340
G3 X39.736 Y20.935 Z-6.340 I7.785 J-6.917 K0.000
G3 X47.857 Y33.221 Z-6.340 I-2.083 J10.203 K0.000
G3 X35.570 Y41.341 Z-6.340 I-10.203 J-2.083 K0.000
G3 X29.869 Y38.055 Z-6.340 I2.083 J-10.203 K0.000
G1 X29.869 Y38.055 Z-8.000
G3 X39.736 Y20.935 Z-8.000 I7.785 J-6.917 K0.000
G3 X47.857 Y33.221 Z-8.000 I-2.083 J10.203 K0.000
G3 X35.570 Y41.341 Z-8.000 I-10.203 J-2.083 K0.000
G3 X29.869 Y38.055 Z-8.000 I2.083 J-10.203 K0.000
G0 Z5.000
G0 X89.618 Y32.866
G0 X89.618 Y32.866 Z3.000
G1 X89.618 Y32.866 Z-3.170
G3 X99.461 Y23.852 Z-3.170 I8.382 J-0.728 K0.000
G3 X96.539 Y40.424 Z-3.170 I-1.461 J8.286 K0.000
G3 X89.618 Y32.866 Z-3.170 I1.461 J-8.286 K0.000
G1 X89.618 Y32.866 Z-6.340
G3 X99.461 Y23.852 Z-6.340 I8.382 J-0.728 K0.000
G3 X96.539 Y40.424 Z-6.340 I-1.461 J8.286 K0.000
G3 X89.618 Y32.866 Z-6.340 I1.461 J-8.286 K0.000
G1 X89.618 Y32.866 Z-8.000
G3 X99.461 Y23.852 Z-8.000 I8.382 J-0.728 K0.000
G3 X96.539 Y40.424 Z-8.000 I-1.461 J8.286 K0.000
G3 X89.618 Y32.866 Z-8.000 I1.461 J-8.286 K0.000
G0 Z5.000
G0 X147.936 Y31.400
G0 X147.936 Y31.400 Z3.000
G1 X147.936 Y31.400 Z-3.170
G3 X160.430 Y20.935 Z-3.170 I10.410 J-0.262 K0.000
G3 X168.550 Y33.221 Z-3.170 I-2.083 J10.203 K0.000
G3 X156.263 Y41.341 Z-3.170 I-10.203 J-2.083 K0.000
G3 X147.936 Y31.400 Z-3.170 I2.083 J-10.203 K0.000
G1 X147.936 Y31.400 Z-6.340
G3 X160.430 Y20.935 Z-6.340 I10.410 J-0.262 K0.000
G3 X168.550 Y33.221 Z-6.340 I-2.083 J10.203 K0.000
G3 X156.263 Y41.341 Z-6.340 I-10.203 J-2.083 K0.000
G3 X147.936 Y31.400 Z-6.340 I2.083 J-10.203 K0.000
G1 X147.936 Y31.400 Z-8.000
G3 X160.430 Y20.935 Z-8.000 I10.410 J-0.262 K0.000
G3 X168.550 Y33.221 Z-8.000 I-2.083 J10.203 K0.000
G3 X156.263 Y41.341 Z-8.000 I-10.203 J-2.083 K0.000
G3 X147.936 Y31.400 Z-8.000 I2.083 J-10.203 K0.000
G0 Z5.000
G0 X177.847 Y31.144
G0 X177.847 Y31.144 Z3.000
G1 X177.847 Y31.144 Z-3.170
G3 X178.799 Y30.549 Z-3.170 I0.658 J-0.006 K0.000
G3 X178.212 Y31.727 Z-3.170 I-0.293 J0.589 K0.000
G3 X177.847 Y31.144 Z-3.170 I0.293 J-0.589 K0.000
G1 X177.847 Y31.144 Z-6.340
G3 X178.799 Y30.549 Z-6.340 I0.658 J-0.006 K0.000
G3 X178.212 Y31.727 Z-6.340 I-0.293 J0.589 K0.000
G3 X177.847 Y31.144 Z-6.340 I0.293 J-0.589 K0.000
G1 X177.847 Y31.144 Z-8.000
G3 X178.799 Y30.549 Z-8.000 I0.658 J-0.006 K0.000
G3 X178.212 Y31.727 Z-8.000 I-0.293 J0.589 K0.000
G3 X177.847 Y31.144 Z-8.000 I0.293 J-0.589 K0.000
G0 Z5.000
G0 X184.560 Y51.598
G0 X184.560 Y51.598 Z3.000
G1 X184.560 Y51.598 Z-3.170
G3 X185.436 Y51.597 Z-3.170 I0.440 J1.340 K0.000
G3 X184.564 Y54.279 Z-3.170 I-0.436 J1.341 K0.000
G3 X184.560 Y51.598 Z-3.170 I0.436 J-1.341 K0.000
G1 X184.560 Y51.598 Z-6.340
G3 X185.436 Y51.597 Z-6.340 I0.440 J1.340 K0.000
G3 X184.564 Y54.279 Z-6.340 I-0.436 J1.341 K0.000
G3 X184.560 Y51.598 Z-6.340 I0.436 J-1.341 K0.000
G1 X184.560 Y51.598 Z-8.000
G3 X185.436 Y51.597 Z-8.000 I0.440 J1.340 K0.000
G3 X184.564 Y54.279 Z-8.000 I-0.436 J1.341 K0.000
G3 X184.560 Y51.598 Z-8.000 I0.436 J-1.341 K0.000
G0 Z5.000
G0 X196.585
G0 X196.585 Z3.000
G1 X196.585 Y51.598 Z-3.170
G1 X196.585 Y8.440 Z-3.170
G2 X187.638 Y-0.583 Z-3.170 I-9.026 J0.003 K0.000
G1 X9.915 Y-0.585 Z-3.170
G2 X-0.583 Y9.842 Z-3.170 I0.003 J10.501 K0.000
G1 X-0.585 Y66.938 Z-3.170
G2 X1.000 Y68.523 Z-3.170 I1.585 J-0.000 K0.000
G1 X20.415 Y68.523 Z-3.170
G1 X20.879 Y68.059 Z-3.170
G1 X20.415 Y68.523 Z-3.170
G1 X20.415 Y73.138 Z-3.170
G2 X22.000 Y74.723 Z-3.170 I1.585 J-0.000 K0.000
G1 X174.000 Y74.723 Z-3.170
G2 X175.585 Y73.138 Z-3.170 I-0.000 J-1.585 K0.000
G1 X175.585 Y68.523 Z-3.170
G1 X175.121 Y68.059 Z-3.170
G1 X175.585 Y68.523 Z-3.170
G1 X195.000 Y68.523 Z-3.170
G2 X196.585 Y66.938 Z-3.170 I-0.000 J-1.585 K0.000
G1 X196.585 Y51.598 Z-3.170
G1 X196.585 Y51.598 Z-6.340
G1 X196.585 Y8.440 Z-6.340
G2 X187.638 Y-0.583 Z-6.340 I-9.026 J0.003 K0.000
G1 X9.915 Y-0.585 Z-6.340
G2 X-0.583 Y9.842 Z-6.340 I0.003 J10.501 K0.000
G1 X-0.585 Y66.938 Z-6.340
G2 X1.000 Y68.523 Z-6.340 I1.585 J-0.000 K0.000
G1 X20.415 Y68.523 Z-6.340
G1 X20.879 Y68.059 Z-6.340
G1 X20.415 Y68.523 Z-6.340
G1 X20.415 Y73.138 Z-6.340
G2 X22.000 Y74.723 Z-6.340 I1.585 J-0.000 K0.000
G1 X174.000 Y74.723 Z-6.340
G2 X175.585 Y73.138 Z-6.340 I-0.000 J-1.585 K0.000
G1 X175.585 Y68.523 Z-6.340
G1 X175.121 Y68.059 Z-6.340
G1 X175.585 Y68.523 Z-6.340
G1 X195.000 Y68.523 Z-6.340
G2 X196.585 Y66.938 Z-6.340 I-0.000 J-1.585 K0.000
G1 X196.585 Y51.598 Z-6.340
G1 X196.585 Y51.598 Z-8.000
G1 X196.585 Y8.440 Z-8.000
G2 X187.638 Y-0.583 Z-8.000 I-9.026 J0.003 K0.000
G1 X9.915 Y-0.585 Z-8.000
G2 X-0.583 Y9.842 Z-8.000 I0.003 J10.501 K0.000
G1 X-0.585 Y66.938 Z-8.000
G2 X1.000 Y68.523 Z-8.000 I1.585 J-0.000 K0.000
G1 X20.415 Y68.523 Z-8.000
G1 X20.879 Y68.059 Z-8.000
G1 X20.415 Y68.523 Z-8.000
G1 X20.415 Y73.138 Z-8.000
G2 X22.000 Y74.723 Z-8.000 I1.585 J-0.000 K0.000
G1 X174.000 Y74.723 Z-8.000
G2 X175.585 Y73.138 Z-8.000 I-0.000 J-1.585 K0.000
G1 X175.585 Y68.523 Z-8.000
G1 X175.121 Y68.059 Z-8.000
G1 X175.585 Y68.523 Z-8.000
G1 X195.000 Y68.523 Z-8.000
G2 X196.585 Y66.938 Z-8.000 I-0.000 J-1.585 K0.000
G1 X196.585 Y51.598 Z-8.000
G0 Z5.000
(Finish operation: DogboneDressup)
(Begin postamble)
M5
G17 G90
M2
