(Project base)
(Created by Estlcam version 11 build 11,244)
(Machining time about 03:34:50 hours)

(Required tools:)
(End mill 3mm)
G21
G90
G94
M03 S24000
G00 Z5.0000


(No. 1: )
G00 X-4.4000 Y-4.8000
G01 Z-1.0000 F1200 S24000
G01 X188.4000
G01 X190.2000 Y-2.2000
G01 X-6.2000
G01 X-6.6000 Y0.4000
G01 X190.6000
G01 Y3.0000
G01 X-6.6000
G01 Y5.6000
G01 X190.6000
G01 Y8.2000
G01 X-6.6000
G01 Y10.8000
G01 X190.6000
G01 Y13.4000
G01 X-6.6000
G01 Y16.0000
G01 X190.6000
G01 Y18.6000
G01 X-6.6000
G01 Y21.2000
G01 X190.6000
G01 Y23.8000
G01 X-6.6000
G01 Y26.4000
G01 X190.6000
G01 Y29.0000
G01 X-6.6000
G01 Y31.6000
G01 X22.2000
G01 X22.4000 Z0.5000
G01 X37.2000
G01 X37.4000 Z-1.0000
G01 X146.6000
G01 X146.8000 Z0.5000
G01 X161.6000
G01 X161.8000 Z-1.0000
G01 X190.6000
G01 Y34.2000
G01 X164.6000
G00 Z5.0000
G00 X190.6000 Y36.8000
G01 Z-1.0000
G01 X166.2000
G01 X166.0000 Z0.5000
G01 X158.4000
G01 X158.2000 Z-1.0000
G01 X150.2000
G01 X150.0000 Z0.5000
G01 X142.4000
G01 X142.2000 Z-1.0000
G01 X41.8000
G01 X41.6000 Z0.5000
G01 X34.0000
G01 X33.8000 Z-1.0000
G01 X25.8000
G01 X25.6000 Z0.5000
G01 X18.0000
G01 X17.8000 Z-1.0000
G01 X-6.6000
G01 Y34.2000
G01 X19.4000
G00 Z5.0000
G00 X-6.6000 Y39.4000
G01 Z-1.0000
G01 X17.0000
G01 X17.2000 Z0.5000
G01 X23.4000
G01 X23.6000 Z-1.0000
G01 X36.0000
G01 X36.2000 Z0.5000
G01 X42.4000
G01 X42.6000 Z-1.0000
G01 X89.8000
G01 Z0.0000
G01 X88.6000 Y42.0000
G01 Z-1.0000
G01 X43.0000
G01 X42.8000 Z0.5000
G01 X36.8000
G01 X36.6000 Z-1.0000
G01 X32.2000
G00 Z5.0000
G00 X-6.0000 Y44.6000
G01 Z-1.0000
G01 X16.8000
G01 X17.0000 Z0.5000
G01 X23.2000
G01 X23.4000 Z-1.0000
G01 X36.2000
G01 X36.4000 Z0.5000
G01 X42.6000
G01 X42.8000 Z-1.0000
G01 X89.8000
G00 Z5.0000
G00 X-4.0000 Y47.2000
G01 Z-1.0000
G01 X17.6000
G01 X17.8000 Z0.5000
G01 X25.0000
G01 X25.2000 Z-1.0000
G01 X34.6000
G01 X34.8000 Z0.5000
G01 X41.8000
G01 X42.0000 Z-1.0000
G01 X142.0000
G01 X142.2000 Z0.5000
G01 X149.4000
G01 X149.6000 Z-1.0000
G01 X159.0000
G01 X159.2000 Z0.5000
G01 X166.2000
G01 X166.4000 Z-1.0000
G01 X188.0000
G01 X190.0000 Y44.6000
G01 X167.2000
G01 X167.0000 Z0.5000
G01 X160.8000
G01 X160.6000 Z-1.0000
G01 X147.8000
G01 X147.6000 Z0.5000
G01 X141.4000
G01 X141.2000 Z-1.0000
G01 X94.2000
G01 Z0.0000
G01 X95.4000 Y42.0000
G01 Z-1.0000
G01 X141.0000
G01 X141.2000 Z0.5000
G01 X147.2000
G01 X147.4000 Z-1.0000
G01 X151.8000
G00 Z5.0000
G00 X190.6000 Y39.4000
G01 Z-1.0000
G01 X167.0000
G01 X166.8000 Z0.5000
G01 X160.6000
G01 X160.4000 Z-1.0000
G01 X148.0000
G01 X147.8000 Z0.5000
G01 X141.6000
G01 X141.4000 Z-1.0000
G01 X94.2000
G00 Z5.0000
G00 X143.8000 Y34.2000
G01 Z-1.0000
G01 X40.2000
G01 Z1.0000
G01 X27.4000 Y42.0000
G01 Z-1.0000
G01 X23.0000
G01 X22.8000 Z0.5000
G01 X16.8000
G01 X16.6000 Z-1.0000
G01 X-6.6000
G01 Z0.5000
G01 X3.6000 Y49.8000
G01 Z-1.0000
G01 X19.0000
G01 X21.6000 Y52.4000
G01 X4.2000
G01 Z0.0000
G01 X5.2000 Y55.0000
G01 Z-1.0000
G01 X26.4000
G01 X26.6000 Z0.5000
G01 X32.8000
G01 X33.0000 Z-1.0000
G01 X150.8000
G01 X151.0000 Z0.5000
G01 X157.2000
G01 X157.4000 Z-1.0000
G01 X178.8000
G01 X179.8000 Y52.4000
G01 X162.6000
G01 X165.0000 Y49.8000
G01 X180.4000
G01 Z0.5000
G01 X190.6000 Y42.0000
G01 Z-1.0000
G01 X167.4000
G01 X167.2000 Z0.5000
G01 X161.2000
G01 X161.0000 Z-1.0000
G01 X156.6000
G01 Z1.0000
G01 X146.0000 Y52.4000
G01 Z-1.0000
G01 X38.2000
G01 X40.6000 Y49.8000
G01 X143.4000
G00 Z5.0000
G00 X178.0000 Y57.6000
G01 Z-1.0000
G01 X6.2000
G01 X7.4000 Y60.2000
G01 X176.8000
G01 Z0.0000
G01 X175.4000 Y62.8000
G01 Z-1.0000
G01 X8.8000
G01 X10.4000 Y65.4000
G01 X173.8000
G01 Z0.0000
G01 X172.0000 Y68.0000
G01 Z-1.0000
G01 X12.0000
G01 Z0.0000
G01 X14.0000 Y70.6000
G01 Z-1.0000
G01 X170.0000
G01 X167.8000 Y73.2000
G01 X16.2000
G01 X18.8000 Y75.8000
G01 X165.2000
G01 X162.4000 Y78.4000
G01 X21.6000
G01 Z0.0000
G01 X25.0000 Y81.0000
G01 Z-1.0000
G01 X159.0000
G01 Z0.0000
G01 X154.8000 Y83.6000
G01 Z-1.0000
G01 X29.2000
G01 Z0.5000
G01 X34.6000 Y86.2000
G01 Z-1.0000
G01 X149.6000
G01 Z0.5000
G01 X142.0000 Y88.8000
G01 Z-1.0000
G01 X42.0000
G00 Z5.0000
G00 X-4.4000 Y-4.8000
G01 Z-2.0000
G01 X188.4000
G01 X190.2000 Y-2.2000
G01 X-6.2000
G01 X-6.6000 Y0.4000
G01 X190.6000
G01 Y3.0000
G01 X-6.6000
G01 Y5.6000
G01 X190.6000
G01 Y8.2000
G01 X-6.6000
G01 Y10.8000
G01 X190.6000
G01 Y13.4000
G01 X-6.6000
G01 Y16.0000
G01 X190.6000
G01 Y18.6000
G01 X-6.6000
G01 Y21.2000
G01 X190.6000
G01 Y23.8000
G01 X-6.6000
G01 Y26.4000
G01 X190.6000
G01 Y29.0000
G01 X-6.6000
G01 Y31.6000
G01 X22.2000
G01 X22.4000 Z0.5000
G01 X37.2000
G01 X37.4000 Z-2.0000
G01 X146.6000
G01 X146.8000 Z0.5000
G01 X161.6000
G01 X161.8000 Z-2.0000
G01 X190.6000
G01 Y34.2000
G01 X164.6000
G00 Z5.0000
G00 X190.6000 Y36.8000
G01 Z-2.0000
G01 X166.2000
G01 X166.0000 Z0.5000
G01 X158.4000
G01 X158.2000 Z-2.0000
G01 X150.2000
G01 X150.0000 Z0.5000
G01 X142.4000
G01 X142.2000 Z-2.0000
G01 X41.8000
G01 X41.6000 Z0.5000
G01 X34.0000
G01 X33.8000 Z-2.0000
G01 X25.8000
G01 X25.6000 Z0.5000
G01 X18.0000
G01 X17.8000 Z-2.0000
G01 X-6.6000
G01 Y34.2000
G01 X19.4000
G00 Z5.0000
G00 X-6.6000 Y39.4000
G01 Z-2.0000
G01 X17.0000
G01 X17.2000 Z0.5000
G01 X23.4000
G01 X23.6000 Z-2.0000
G01 X36.0000
G01 X36.2000 Z0.5000
G01 X42.4000
G01 X42.6000 Z-2.0000
G01 X89.8000
G01 Z0.0000
G01 X88.6000 Y42.0000
G01 Z-2.0000
G01 X43.0000
G01 X42.8000 Z0.5000
G01 X36.8000
G01 X36.6000 Z-2.0000
G01 X32.2000
G00 Z5.0000
G00 X-6.0000 Y44.6000
G01 Z-2.0000
G01 X16.8000
G01 X17.0000 Z0.5000
G01 X23.2000
G01 X23.4000 Z-2.0000
G01 X36.2000
G01 X36.4000 Z0.5000
G01 X42.6000
G01 X42.8000 Z-2.0000
G01 X89.8000
G00 Z5.0000
G00 X-4.0000 Y47.2000
G01 Z-2.0000
G01 X17.6000
G01 X17.8000 Z0.5000
G01 X25.0000
G01 X25.2000 Z-2.0000
G01 X34.6000
G01 X34.8000 Z0.5000
G01 X41.8000
G01 X42.0000 Z-2.0000
G01 X142.0000
G01 X142.2000 Z0.5000
G01 X149.4000
G01 X149.6000 Z-2.0000
G01 X159.0000
G01 X159.2000 Z0.5000
G01 X166.2000
G01 X166.4000 Z-2.0000
G01 X188.0000
G01 X190.0000 Y44.6000
G01 X167.2000
G01 X167.0000 Z0.5000
G01 X160.8000
G01 X160.6000 Z-2.0000
G01 X147.8000
G01 X147.6000 Z0.5000
G01 X141.4000
G01 X141.2000 Z-2.0000
G01 X94.2000
G01 Z0.0000
G01 X95.4000 Y42.0000
G01 Z-2.0000
G01 X141.0000
G01 X141.2000 Z0.5000
G01 X147.2000
G01 X147.4000 Z-2.0000
G01 X151.8000
G00 Z5.0000
G00 X190.6000 Y39.4000
G01 Z-2.0000
G01 X167.0000
G01 X166.8000 Z0.5000
G01 X160.6000
G01 X160.4000 Z-2.0000
G01 X148.0000
G01 X147.8000 Z0.5000
G01 X141.6000
G01 X141.4000 Z-2.0000
G01 X94.2000
G00 Z5.0000
G00 X143.8000 Y34.2000
G01 Z-2.0000
G01 X40.2000
G01 Z1.0000
G01 X27.4000 Y42.0000
G01 Z-2.0000
G01 X23.0000
G01 X22.8000 Z0.5000
G01 X16.8000
G01 X16.6000 Z-2.0000
G01 X-6.6000
G01 Z0.5000
G01 X3.6000 Y49.8000
G01 Z-2.0000
G01 X19.0000
G01 X21.6000 Y52.4000
G01 X4.2000
G01 Z0.0000
G01 X5.2000 Y55.0000
G01 Z-2.0000
G01 X26.4000
G01 X26.6000 Z0.5000
G01 X32.8000
G01 X33.0000 Z-2.0000
G01 X150.8000
G01 X151.0000 Z0.5000
G01 X157.2000
G01 X157.4000 Z-2.0000
G01 X178.8000
G01 X179.8000 Y52.4000
G01 X162.6000
G01 X165.0000 Y49.8000
G01 X180.4000
G01 Z0.5000
G01 X190.6000 Y42.0000
G01 Z-2.0000
G01 X167.4000
G01 X167.2000 Z0.5000
G01 X161.2000
G01 X161.0000 Z-2.0000
G01 X156.6000
G01 Z1.0000
G01 X146.0000 Y52.4000
G01 Z-2.0000
G01 X38.2000
G01 X40.6000 Y49.8000
G01 X143.4000
G00 Z5.0000
G00 X178.0000 Y57.6000
G01 Z-2.0000
G01 X6.2000
G01 X7.4000 Y60.2000
G01 X176.8000
G01 Z0.0000
G01 X175.4000 Y62.8000
G01 Z-2.0000
G01 X8.8000
G01 X10.4000 Y65.4000
G01 X173.8000
G01 X172.0000 Y68.0000
G01 X12.0000
G01 Z0.0000
G01 X14.0000 Y70.6000
G01 Z-2.0000
G01 X170.0000
G01 X167.8000 Y73.2000
G01 X16.2000
G01 X18.8000 Y75.8000
G01 X165.2000
G01 X162.4000 Y78.4000
G01 X21.6000
G01 Z0.0000
G01 X25.0000 Y81.0000
G01 Z-2.0000
G01 X159.0000
G01 Z0.0000
G01 X154.8000 Y83.6000
G01 Z-2.0000
G01 X29.2000
G01 Z0.5000
G01 X34.6000 Y86.2000
G01 Z-2.0000
G01 X149.6000
G01 Z0.5000
G01 X142.0000 Y88.8000
G01 Z-2.0000
G01 X42.0000
G00 Z5.0000
G00 X-4.4000 Y-4.8000
G01 Z-3.0000
G01 X188.4000
G01 X190.2000 Y-2.2000
G01 X-6.2000
G01 X-6.6000 Y0.4000
G01 X190.6000
G01 Y3.0000
G01 X-6.6000
G01 Y5.6000
G01 X190.6000
G01 Y8.2000
G01 X-6.6000
G01 Y10.8000
G01 X190.6000
G01 Y13.4000
G01 X-6.6000
G01 Y16.0000
G01 X190.6000
G01 Y18.6000
G01 X-6.6000
G01 Y21.2000
G01 X190.6000
G01 Y23.8000
G01 X-6.6000
G01 Y26.4000
G01 X190.6000
G01 Y29.0000
G01 X-6.6000
G01 Y31.6000
G01 X22.2000
G01 X22.4000 Z0.5000
G01 X37.2000
G01 X37.4000 Z-3.0000
G01 X146.6000
G01 X146.8000 Z0.5000
G01 X161.6000
G01 X161.8000 Z-3.0000
G01 X190.6000
G01 Y34.2000
G01 X164.6000
G00 Z5.0000
G00 X190.6000 Y36.8000
G01 Z-3.0000
G01 X166.2000
G01 X166.0000 Z0.5000
G01 X158.4000
G01 X158.2000 Z-3.0000
G01 X150.2000
G01 X150.0000 Z0.5000
G01 X142.4000
G01 X142.2000 Z-3.0000
G01 X41.8000
G01 X41.6000 Z0.5000
G01 X34.0000
G01 X33.8000 Z-3.0000
G01 X25.8000
G01 X25.6000 Z0.5000
G01 X18.0000
G01 X17.8000 Z-3.0000
G01 X-6.6000
G01 Y34.2000
G01 X19.4000
G00 Z5.0000
G00 X-6.6000 Y39.4000
G01 Z-3.0000
G01 X17.0000
G01 X17.2000 Z0.5000
G01 X23.4000
G01 X23.6000 Z-3.0000
G01 X36.0000
G01 X36.2000 Z0.5000
G01 X42.4000
G01 X42.6000 Z-3.0000
G01 X89.8000
G01 Z0.0000
G01 X88.6000 Y42.0000
G01 Z-3.0000
G01 X43.0000
G01 X42.8000 Z0.5000
G01 X36.8000
G01 X36.6000 Z-3.0000
G01 X32.2000
G00 Z5.0000
G00 X-6.0000 Y44.6000
G01 Z-3.0000
G01 X16.8000
G01 X17.0000 Z0.5000
G01 X23.2000
G01 X23.4000 Z-3.0000
G01 X36.2000
G01 X36.4000 Z0.5000
G01 X42.6000
G01 X42.8000 Z-3.0000
G01 X89.8000
G00 Z5.0000
G00 X-4.0000 Y47.2000
G01 Z-3.0000
G01 X17.6000
G01 X17.8000 Z0.5000
G01 X25.0000
G01 X25.2000 Z-3.0000
G01 X34.6000
G01 X34.8000 Z0.5000
G01 X41.8000
G01 X42.0000 Z-3.0000
G01 X142.0000
G01 X142.2000 Z0.5000
G01 X149.4000
G01 X149.6000 Z-3.0000
G01 X159.0000
G01 X159.2000 Z0.5000
G01 X166.2000
G01 X166.4000 Z-3.0000
G01 X188.0000
G01 X190.0000 Y44.6000
G01 X167.2000
G01 X167.0000 Z0.5000
G01 X160.8000
G01 X160.6000 Z-3.0000
G01 X147.8000
G01 X147.6000 Z0.5000
G01 X141.4000
G01 X141.2000 Z-3.0000
G01 X94.2000
G01 Z0.0000
G01 X95.4000 Y42.0000
G01 Z-3.0000
G01 X141.0000
G01 X141.2000 Z0.5000
G01 X147.2000
G01 X147.4000 Z-3.0000
G01 X151.8000
G00 Z5.0000
G00 X190.6000 Y39.4000
G01 Z-3.0000
G01 X167.0000
G01 X166.8000 Z0.5000
G01 X160.6000
G01 X160.4000 Z-3.0000
G01 X148.0000
G01 X147.8000 Z0.5000
G01 X141.6000
G01 X141.4000 Z-3.0000
G01 X94.2000
G00 Z5.0000
G00 X143.8000 Y34.2000
G01 Z-3.0000
G01 X40.2000
G01 Z1.0000
G01 X27.4000 Y42.0000
G01 Z-3.0000
G01 X23.0000
G01 X22.8000 Z0.5000
G01 X16.8000
G01 X16.6000 Z-3.0000
G01 X-6.6000
G01 Z0.5000
G01 X3.6000 Y49.8000
G01 Z-3.0000
G01 X19.0000
G01 X21.6000 Y52.4000
G01 X4.2000
G01 Z0.0000
G01 X5.2000 Y55.0000
G01 Z-3.0000
G01 X26.4000
G01 X26.6000 Z0.5000
G01 X32.8000
G01 X33.0000 Z-3.0000
G01 X150.8000
G01 X151.0000 Z0.5000
G01 X157.2000
G01 X157.4000 Z-3.0000
G01 X178.8000
G01 X179.8000 Y52.4000
G01 X162.6000
G01 X165.0000 Y49.8000
G01 X180.4000
G01 Z0.5000
G01 X190.6000 Y42.0000
G01 Z-3.0000
G01 X167.4000
G01 X167.2000 Z0.5000
G01 X161.2000
G01 X161.0000 Z-3.0000
G01 X156.6000
G01 Z1.0000
G01 X146.0000 Y52.4000
G01 Z-3.0000
G01 X38.2000
G01 X40.6000 Y49.8000
G01 X143.4000
G00 Z5.0000
G00 X178.0000 Y57.6000
G01 Z-3.0000
G01 X6.2000
G01 X7.4000 Y60.2000
G01 X176.8000
G01 Z0.0000
G01 X175.4000 Y62.8000
G01 Z-3.0000
G01 X8.8000
G01 X10.4000 Y65.4000
G01 X173.8000
G01 Z0.0000
G01 X172.0000 Y68.0000
G01 Z-3.0000
G01 X12.0000
G01 Z0.0000
G01 X14.0000 Y70.6000
G01 Z-3.0000
G01 X170.0000
G01 X167.8000 Y73.2000
G01 X16.2000
G01 X18.8000 Y75.8000
G01 X165.2000
G01 X162.4000 Y78.4000
G01 X21.6000
G01 Z0.0000
G01 X25.0000 Y81.0000
G01 Z-3.0000
G01 X159.0000
G01 Z0.0000
G01 X154.8000 Y83.6000
G01 Z-3.0000
G01 X29.2000
G01 Z0.5000
G01 X34.6000 Y86.2000
G01 Z-3.0000
G01 X149.6000
G01 Z0.5000
G01 X142.0000 Y88.8000
G01 Z-3.0000
G01 X42.0000
G00 Z5.0000
G00 X-4.4000 Y-4.8000
G01 Z-4.0000
G01 X188.4000
G01 X190.2000 Y-2.2000
G01 X-6.2000
G01 X-6.6000 Y0.4000
G01 X190.6000
G01 Y3.0000
G01 X-6.6000
G01 Y5.6000
G01 X190.6000
G01 Y8.2000
G01 X-6.6000
G01 Y10.8000
G01 X190.6000
G01 Y13.4000
G01 X-6.6000
G01 Y16.0000
G01 X190.6000
G01 Y18.6000
G01 X-6.6000
G01 Y21.2000
G01 X190.6000
G01 Y23.8000
G01 X-6.6000
G01 Y26.4000
G01 X190.6000
G01 Y29.0000
G01 X-6.6000
G01 Y31.6000
G01 X22.2000
G01 X22.4000 Z0.5000
G01 X37.2000
G01 X37.4000 Z-4.0000
G01 X146.6000
G01 X146.8000 Z0.5000
G01 X161.6000
G01 X161.8000 Z-4.0000
G01 X190.6000
G01 Y34.2000
G01 X164.6000
G00 Z5.0000
G00 X190.6000 Y36.8000
G01 Z-4.0000
G01 X166.2000
G01 X166.0000 Z0.5000
G01 X158.4000
G01 X158.2000 Z-4.0000
G01 X150.2000
G01 X150.0000 Z0.5000
G01 X142.4000
G01 X142.2000 Z-4.0000
G01 X41.8000
G01 X41.6000 Z0.5000
G01 X34.0000
G01 X33.8000 Z-4.0000
G01 X25.8000
G01 X25.6000 Z0.5000
G01 X18.0000
G01 X17.8000 Z-4.0000
G01 X-6.6000
G01 Y34.2000
G01 X19.4000
G00 Z5.0000
G00 X-6.6000 Y39.4000
G01 Z-4.0000
G01 X17.0000
G01 X17.2000 Z0.5000
G01 X23.4000
G01 X23.6000 Z-4.0000
G01 X36.0000
G01 X36.2000 Z0.5000
G01 X42.4000
G01 X42.6000 Z-4.0000
G01 X89.8000
G01 Z0.0000
G01 X88.6000 Y42.0000
G01 Z-4.0000
G01 X43.0000
G01 X42.8000 Z0.5000
G01 X36.8000
G01 X36.6000 Z-4.0000
G01 X32.2000
G00 Z5.0000
G00 X-6.0000 Y44.6000
G01 Z-4.0000
G01 X16.8000
G01 X17.0000 Z0.5000
G01 X23.2000
G01 X23.4000 Z-4.0000
G01 X36.2000
G01 X36.4000 Z0.5000
G01 X42.6000
G01 X42.8000 Z-4.0000
G01 X89.8000
G00 Z5.0000
G00 X-4.0000 Y47.2000
G01 Z-4.0000
G01 X17.6000
G01 X17.8000 Z0.5000
G01 X25.0000
G01 X25.2000 Z-4.0000
G01 X34.6000
G01 X34.8000 Z0.5000
G01 X41.8000
G01 X42.0000 Z-4.0000
G01 X142.0000
G01 X142.2000 Z0.5000
G01 X149.4000
G01 X149.6000 Z-4.0000
G01 X159.0000
G01 X159.2000 Z0.5000
G01 X166.2000
G01 X166.4000 Z-4.0000
G01 X188.0000
G01 X190.0000 Y44.6000
G01 X167.2000
G01 X167.0000 Z0.5000
G01 X160.8000
G01 X160.6000 Z-4.0000
G01 X147.8000
G01 X147.6000 Z0.5000
G01 X141.4000
G01 X141.2000 Z-4.0000
G01 X94.2000
G01 Z0.0000
G01 X95.4000 Y42.0000
G01 Z-4.0000
G01 X141.0000
G01 X141.2000 Z0.5000
G01 X147.2000
G01 X147.4000 Z-4.0000
G01 X151.8000
G00 Z5.0000
G00 X190.6000 Y39.4000
G01 Z-4.0000
G01 X167.0000
G01 X166.8000 Z0.5000
G01 X160.6000
G01 X160.4000 Z-4.0000
G01 X148.0000
G01 X147.8000 Z0.5000
G01 X141.6000
G01 X141.4000 Z-4.0000
G01 X94.2000
G00 Z5.0000
G00 X143.8000 Y34.2000
G01 Z-4.0000
G01 X40.2000
G01 Z1.0000
G01 X27.4000 Y42.0000
G01 Z-4.0000
G01 X23.0000
G01 X22.8000 Z0.5000
G01 X16.8000
G01 X16.6000 Z-4.0000
G01 X-6.6000
G01 Z0.5000
G01 X3.6000 Y49.8000
G01 Z-4.0000
G01 X19.0000
G01 X21.6000 Y52.4000
G01 X4.2000
G01 Z0.0000
G01 X5.2000 Y55.0000
G01 Z-4.0000
G01 X26.4000
G01 X26.6000 Z0.5000
G01 X32.8000
G01 X33.0000 Z-4.0000
G01 X150.8000
G01 X151.0000 Z0.5000
G01 X157.2000
G01 X157.4000 Z-4.0000
G01 X178.8000
G01 X179.8000 Y52.4000
G01 X162.6000
G01 X165.0000 Y49.8000
G01 X180.4000
G01 Z0.5000
G01 X190.6000 Y42.0000
G01 Z-4.0000
G01 X167.4000
G01 X167.2000 Z0.5000
G01 X161.2000
G01 X161.0000 Z-4.0000
G01 X156.6000
G01 Z1.0000
G01 X146.0000 Y52.4000
G01 Z-4.0000
G01 X38.2000
G01 X40.6000 Y49.8000
G01 X143.4000
G00 Z5.0000
G00 X178.0000 Y57.6000
G01 Z-4.0000
G01 X6.2000
G01 X7.4000 Y60.2000
G01 X176.8000
G01 Z0.0000
G01 X175.4000 Y62.8000
G01 Z-4.0000
G01 X8.8000
G01 X10.4000 Y65.4000
G01 X173.8000
G01 X172.0000 Y68.0000
G01 X12.0000
G01 Z0.0000
G01 X14.0000 Y70.6000
G01 Z-4.0000
G01 X170.0000
G01 X167.8000 Y73.2000
G01 X16.2000
G01 X18.8000 Y75.8000
G01 X165.2000
G01 X162.4000 Y78.4000
G01 X21.6000
G01 Z0.0000
G01 X25.0000 Y81.0000
G01 Z-4.0000
G01 X159.0000
G01 Z0.0000
G01 X154.8000 Y83.6000
G01 Z-4.0000
G01 X29.2000
G01 Z0.5000
G01 X34.6000 Y86.2000
G01 Z-4.0000
G01 X149.6000
G01 Z0.5000
G01 X142.0000 Y88.8000
G01 Z-4.0000
G01 X42.0000
G00 Z5.0000
G00 X-4.4000 Y-4.8000
G01 Z-5.0000
G01 X188.4000
G01 X190.2000 Y-2.2000
G01 X-6.2000
G01 X-6.6000 Y0.4000
G01 X190.6000
G01 Y3.0000
G01 X-6.6000
G01 Y5.6000
G01 X190.6000
G01 Y8.2000
G01 X-6.6000
G01 Y10.8000
G01 X190.6000
G01 Y13.4000
G01 X-6.6000
G01 Y16.0000
G01 X190.6000
G01 Y18.6000
G01 X-6.6000
G01 Y21.2000
G01 X190.6000
G01 Y23.8000
G01 X-6.6000
G01 Y26.4000
G01 X190.6000
G01 Y29.0000
G01 X-6.6000
G01 Y31.6000
G01 X22.2000
G01 X22.4000 Z0.5000
G01 X37.2000
G01 X37.4000 Z-5.0000
G01 X146.6000
G01 X146.8000 Z0.5000
G01 X161.6000
G01 X161.8000 Z-5.0000
G01 X190.6000
G01 Y34.2000
G01 X164.6000
G00 Z5.0000
G00 X190.6000 Y36.8000
G01 Z-5.0000
G01 X166.2000
G01 X166.0000 Z0.5000
G01 X158.4000
G01 X158.2000 Z-5.0000
G01 X150.2000
G01 X150.0000 Z0.5000
G01 X142.4000
G01 X142.2000 Z-5.0000
G01 X41.8000
G01 X41.6000 Z0.5000
G01 X34.0000
G01 X33.8000 Z-5.0000
G01 X25.8000
G01 X25.6000 Z0.5000
G01 X18.0000
G01 X17.8000 Z-5.0000
G01 X-6.6000
G01 Y34.2000
G01 X19.4000
G00 Z5.0000
G00 X-6.6000 Y39.4000
G01 Z-5.0000
G01 X17.0000
G01 X17.2000 Z0.5000
G01 X23.4000
G01 X23.6000 Z-5.0000
G01 X36.0000
G01 X36.2000 Z0.5000
G01 X42.4000
G01 X42.6000 Z-5.0000
G01 X89.8000
G01 Z0.0000
G01 X88.6000 Y42.0000
G01 Z-5.0000
G01 X43.0000
G01 X42.8000 Z0.5000
G01 X36.8000
G01 X36.6000 Z-5.0000
G01 X32.2000
G00 Z5.0000
G00 X-6.0000 Y44.6000
G01 Z-5.0000
G01 X16.8000
G01 X17.0000 Z0.5000
G01 X23.2000
G01 X23.4000 Z-5.0000
G01 X36.2000
G01 X36.4000 Z0.5000
G01 X42.6000
G01 X42.8000 Z-5.0000
G01 X89.8000
G00 Z5.0000
G00 X-4.0000 Y47.2000
G01 Z-5.0000
G01 X17.6000
G01 X17.8000 Z0.5000
G01 X25.0000
G01 X25.2000 Z-5.0000
G01 X34.6000
G01 X34.8000 Z0.5000
G01 X41.8000
G01 X42.0000 Z-5.0000
G01 X142.0000
G01 X142.2000 Z0.5000
G01 X149.4000
G01 X149.6000 Z-5.0000
G01 X159.0000
G01 X159.2000 Z0.5000
G01 X166.2000
G01 X166.4000 Z-5.0000
G01 X188.0000
G01 X190.0000 Y44.6000
G01 X167.2000
G01 X167.0000 Z0.5000
G01 X160.8000
G01 X160.6000 Z-5.0000
G01 X147.8000
G01 X147.6000 Z0.5000
G01 X141.4000
G01 X141.2000 Z-5.0000
G01 X94.2000
G01 Z0.0000
G01 X95.4000 Y42.0000
G01 Z-5.0000
G01 X141.0000
G01 X141.2000 Z0.5000
G01 X147.2000
G01 X147.4000 Z-5.0000
G01 X151.8000
G00 Z5.0000
G00 X190.6000 Y39.4000
G01 Z-5.0000
G01 X167.0000
G01 X166.8000 Z0.5000
G01 X160.6000
G01 X160.4000 Z-5.0000
G01 X148.0000
G01 X147.8000 Z0.5000
G01 X141.6000
G01 X141.4000 Z-5.0000
G01 X94.2000
G00 Z5.0000
G00 X143.8000 Y34.2000
G01 Z-5.0000
G01 X40.2000
G01 Z1.0000
G01 X27.4000 Y42.0000
G01 Z-5.0000
G01 X23.0000
G01 X22.8000 Z0.5000
G01 X16.8000
G01 X16.6000 Z-5.0000
G01 X-6.6000
G01 Z0.5000
G01 X3.6000 Y49.8000
G01 Z-5.0000
G01 X19.0000
G01 X21.6000 Y52.4000
G01 X4.2000
G01 Z0.0000
G01 X5.2000 Y55.0000
G01 Z-5.0000
G01 X26.4000
G01 X26.6000 Z0.5000
G01 X32.8000
G01 X33.0000 Z-5.0000
G01 X150.8000
G01 X151.0000 Z0.5000
G01 X157.2000
G01 X157.4000 Z-5.0000
G01 X178.8000
G01 X179.8000 Y52.4000
G01 X162.6000
G01 X165.0000 Y49.8000
G01 X180.4000
G01 Z0.5000
G01 X190.6000 Y42.0000
G01 Z-5.0000
G01 X167.4000
G01 X167.2000 Z0.5000
G01 X161.2000
G01 X161.0000 Z-5.0000
G01 X156.6000
G01 Z1.0000
G01 X146.0000 Y52.4000
G01 Z-5.0000
G01 X38.2000
G01 X40.6000 Y49.8000
G01 X143.4000
G00 Z5.0000
G00 X178.0000 Y57.6000
G01 Z-5.0000
G01 X6.2000
G01 X7.4000 Y60.2000
G01 X176.8000
G01 Z0.0000
G01 X175.4000 Y62.8000
G01 Z-5.0000
G01 X8.8000
G01 X10.4000 Y65.4000
G01 X173.8000
G01 Z0.0000
G01 X172.0000 Y68.0000
G01 Z-5.0000
G01 X12.0000
G01 Z0.0000
G01 X14.0000 Y70.6000
G01 Z-5.0000
G01 X170.0000
G01 X167.8000 Y73.2000
G01 X16.2000
G01 X18.8000 Y75.8000
G01 X165.2000
G01 X162.4000 Y78.4000
G01 X21.6000
G01 Z0.0000
G01 X25.0000 Y81.0000
G01 Z-5.0000
G01 X159.0000
G01 Z0.0000
G01 X154.8000 Y83.6000
G01 Z-5.0000
G01 X29.2000
G01 Z0.5000
G01 X34.6000 Y86.2000
G01 Z-5.0000
G01 X149.6000
G01 Z0.5000
G01 X142.0000 Y88.8000
G01 Z-5.0000
G01 X42.0000
G00 Z5.0000
G00 X-4.4000 Y-4.8000
G01 Z-6.0000
G01 X188.4000
G01 X190.2000 Y-2.2000
G01 X-6.2000
G01 X-6.6000 Y0.4000
G01 X190.6000
G01 Y3.0000
G01 X-6.6000
G01 Y5.6000
G01 X190.6000
G01 Y8.2000
G01 X-6.6000
G01 Y10.8000
G01 X190.6000
G01 Y13.4000
G01 X-6.6000
G01 Y16.0000
G01 X190.6000
G01 Y18.6000
G01 X-6.6000
G01 Y21.2000
G01 X190.6000
G01 Y23.8000
G01 X-6.6000
G01 Y26.4000
G01 X190.6000
G01 Y29.0000
G01 X-6.6000
G01 Y31.6000
G01 X22.2000
G01 X22.4000 Z0.5000
G01 X37.2000
G01 X37.4000 Z-6.0000
G01 X146.6000
G01 X146.8000 Z0.5000
G01 X161.6000
G01 X161.8000 Z-6.0000
G01 X190.6000
G01 Y34.2000
G01 X164.6000
G00 Z5.0000
G00 X190.6000 Y36.8000
G01 Z-6.0000
G01 X166.2000
G01 X166.0000 Z0.5000
G01 X158.4000
G01 X158.2000 Z-6.0000
G01 X150.2000
G01 X150.0000 Z0.5000
G01 X142.4000
G01 X142.2000 Z-6.0000
G01 X41.8000
G01 X41.6000 Z0.5000
G01 X34.0000
G01 X33.8000 Z-6.0000
G01 X25.8000
G01 X25.6000 Z0.5000
G01 X18.0000
G01 X17.8000 Z-6.0000
G01 X-6.6000
G01 Y34.2000
G01 X19.4000
G00 Z5.0000
G00 X-6.6000 Y39.4000
G01 Z-6.0000
G01 X17.0000
G01 X17.2000 Z0.5000
G01 X23.4000
G01 X23.6000 Z-6.0000
G01 X36.0000
G01 X36.2000 Z0.5000
G01 X42.4000
G01 X42.6000 Z-6.0000
G01 X89.8000
G01 Z0.0000
G01 X88.6000 Y42.0000
G01 Z-6.0000
G01 X43.0000
G01 X42.8000 Z0.5000
G01 X36.8000
G01 X36.6000 Z-6.0000
G01 X32.2000
G00 Z5.0000
G00 X-6.0000 Y44.6000
G01 Z-6.0000
G01 X16.8000
G01 X17.0000 Z0.5000
G01 X23.2000
G01 X23.4000 Z-6.0000
G01 X36.2000
G01 X36.4000 Z0.5000
G01 X42.6000
G01 X42.8000 Z-6.0000
G01 X89.8000
G00 Z5.0000
G00 X-4.0000 Y47.2000
G01 Z-6.0000
G01 X17.6000
G01 X17.8000 Z0.5000
G01 X25.0000
G01 X25.2000 Z-6.0000
G01 X34.6000
G01 X34.8000 Z0.5000
G01 X41.8000
G01 X42.0000 Z-6.0000
G01 X142.0000
G01 X142.2000 Z0.5000
G01 X149.4000
G01 X149.6000 Z-6.0000
G01 X159.0000
G01 X159.2000 Z0.5000
G01 X166.2000
G01 X166.4000 Z-6.0000
G01 X188.0000
G01 X190.0000 Y44.6000
G01 X167.2000
G01 X167.0000 Z0.5000
G01 X160.8000
G01 X160.6000 Z-6.0000
G01 X147.8000
G01 X147.6000 Z0.5000
G01 X141.4000
G01 X141.2000 Z-6.0000
G01 X94.2000
G01 Z0.0000
G01 X95.4000 Y42.0000
G01 Z-6.0000
G01 X141.0000
G01 X141.2000 Z0.5000
G01 X147.2000
G01 X147.4000 Z-6.0000
G01 X151.8000
G00 Z5.0000
G00 X190.6000 Y39.4000
G01 Z-6.0000
G01 X167.0000
G01 X166.8000 Z0.5000
G01 X160.6000
G01 X160.4000 Z-6.0000
G01 X148.0000
G01 X147.8000 Z0.5000
G01 X141.6000
G01 X141.4000 Z-6.0000
G01 X94.2000
G00 Z5.0000
G00 X143.8000 Y34.2000
G01 Z-6.0000
G01 X40.2000
G01 Z1.0000
G01 X27.4000 Y42.0000
G01 Z-6.0000
G01 X23.0000
G01 X22.8000 Z0.5000
G01 X16.8000
G01 X16.6000 Z-6.0000
G01 X-6.6000
G01 Z0.5000
G01 X3.6000 Y49.8000
G01 Z-6.0000
G01 X19.0000
G01 X21.6000 Y52.4000
G01 X4.2000
G01 Z0.0000
G01 X5.2000 Y55.0000
G01 Z-6.0000
G01 X26.4000
G01 X26.6000 Z0.5000
G01 X32.8000
G01 X33.0000 Z-6.0000
G01 X150.8000
G01 X151.0000 Z0.5000
G01 X157.2000
G01 X157.4000 Z-6.0000
G01 X178.8000
G01 X179.8000 Y52.4000
G01 X162.6000
G01 X165.0000 Y49.8000
G01 X180.4000
G01 Z0.5000
G01 X190.6000 Y42.0000
G01 Z-6.0000
G01 X167.4000
G01 X167.2000 Z0.5000
G01 X161.2000
G01 X161.0000 Z-6.0000
G01 X156.6000
G01 Z1.0000
G01 X146.0000 Y52.4000
G01 Z-6.0000
G01 X38.2000
G01 X40.6000 Y49.8000
G01 X143.4000
G00 Z5.0000
G00 X178.0000 Y57.6000
G01 Z-6.0000
G01 X6.2000
G01 X7.4000 Y60.2000
G01 X176.8000
G01 X175.4000 Y62.8000
G01 X8.8000
G01 X10.4000 Y65.4000
G01 X173.8000
G01 X172.0000 Y68.0000
G01 X12.0000
G01 Z0.0000
G01 X14.0000 Y70.6000
G01 Z-6.0000
G01 X170.0000
G01 X167.8000 Y73.2000
G01 X16.2000
G01 X18.8000 Y75.8000
G01 X165.2000
G01 X162.4000 Y78.4000
G01 X21.6000
G01 Z0.0000
G01 X25.0000 Y81.0000
G01 Z-6.0000
G01 X159.0000
G01 Z0.0000
G01 X154.8000 Y83.6000
G01 Z-6.0000
G01 X29.2000
G01 Z0.5000
G01 X34.6000 Y86.2000
G01 Z-6.0000
G01 X149.6000
G01 Z0.5000
G01 X142.0000 Y88.8000
G01 Z-6.0000
G01 X42.0000
G00 Z5.0000
G00 X-4.4000 Y-4.8000
G01 Z-7.0000
G01 X188.4000
G01 X190.2000 Y-2.2000
G01 X-6.2000
G01 X-6.6000 Y0.4000
G01 X190.6000
G01 Y3.0000
G01 X-6.6000
G01 Y5.6000
G01 X190.6000
G01 Y8.2000
G01 X-6.6000
G01 Y10.8000
G01 X190.6000
G01 Y13.4000
G01 X-6.6000
G01 Y16.0000
G01 X190.6000
G01 Y18.6000
G01 X-6.6000
G01 Y21.2000
G01 X190.6000
G01 Y23.8000
G01 X-6.6000
G01 Y26.4000
G01 X190.6000
G01 Y29.0000
G01 X-6.6000
G01 Y31.6000
G01 X22.2000
G01 X22.4000 Z0.5000
G01 X37.2000
G01 X37.4000 Z-7.0000
G01 X146.6000
G01 X146.8000 Z0.5000
G01 X161.6000
G01 X161.8000 Z-7.0000
G01 X190.6000
G01 Y34.2000
G01 X164.6000
G00 Z5.0000
G00 X190.6000 Y36.8000
G01 Z-7.0000
G01 X166.2000
G01 X166.0000 Z0.5000
G01 X158.4000
G01 X158.2000 Z-7.0000
G01 X150.2000
G01 X150.0000 Z0.5000
G01 X142.4000
G01 X142.2000 Z-7.0000
G01 X41.8000
G01 X41.6000 Z0.5000
G01 X34.0000
G01 X33.8000 Z-7.0000
G01 X25.8000
G01 X25.6000 Z0.5000
G01 X18.0000
G01 X17.8000 Z-7.0000
G01 X-6.6000
G01 Y34.2000
G01 X19.4000
G00 Z5.0000
G00 X-6.6000 Y39.4000
G01 Z-7.0000
G01 X17.0000
G01 X17.2000 Z0.5000
G01 X23.4000
G01 X23.6000 Z-7.0000
G01 X36.0000
G01 X36.2000 Z0.5000
G01 X42.4000
G01 X42.6000 Z-7.0000
G01 X89.8000
G01 Z0.0000
G01 X88.6000 Y42.0000
G01 Z-7.0000
G01 X43.0000
G01 X42.8000 Z0.5000
G01 X36.8000
G01 X36.6000 Z-7.0000
G01 X32.2000
G00 Z5.0000
G00 X-6.0000 Y44.6000
G01 Z-7.0000
G01 X16.8000
G01 X17.0000 Z0.5000
G01 X23.2000
G01 X23.4000 Z-7.0000
G01 X36.2000
G01 X36.4000 Z0.5000
G01 X42.6000
G01 X42.8000 Z-7.0000
G01 X89.8000
G00 Z5.0000
G00 X-4.0000 Y47.2000
G01 Z-7.0000
G01 X17.6000
G01 X17.8000 Z0.5000
G01 X25.0000
G01 X25.2000 Z-7.0000
G01 X34.6000
G01 X34.8000 Z0.5000
G01 X41.8000
G01 X42.0000 Z-7.0000
G01 X142.0000
G01 X142.2000 Z0.5000
G01 X149.4000
G01 X149.6000 Z-7.0000
G01 X159.0000
G01 X159.2000 Z0.5000
G01 X166.2000
G01 X166.4000 Z-7.0000
G01 X188.0000
G01 X190.0000 Y44.6000
G01 X167.2000
G01 X167.0000 Z0.5000
G01 X160.8000
G01 X160.6000 Z-7.0000
G01 X147.8000
G01 X147.6000 Z0.5000
G01 X141.4000
G01 X141.2000 Z-7.0000
G01 X94.2000
G01 Z0.0000
G01 X95.4000 Y42.0000
G01 Z-7.0000
G01 X141.0000
G01 X141.2000 Z0.5000
G01 X147.2000
G01 X147.4000 Z-7.0000
G01 X151.8000
G00 Z5.0000
G00 X190.6000 Y39.4000
G01 Z-7.0000
G01 X167.0000
G01 X166.8000 Z0.5000
G01 X160.6000
G01 X160.4000 Z-7.0000
G01 X148.0000
G01 X147.8000 Z0.5000
G01 X141.6000
G01 X141.4000 Z-7.0000
G01 X94.2000
G00 Z5.0000
G00 X143.8000 Y34.2000
G01 Z-7.0000
G01 X40.2000
G01 Z1.0000
G01 X27.4000 Y42.0000
G01 Z-7.0000
G01 X23.0000
G01 X22.8000 Z0.5000
G01 X16.8000
G01 X16.6000 Z-7.0000
G01 X-6.6000
G01 Z0.5000
G01 X3.6000 Y49.8000
G01 Z-7.0000
G01 X19.0000
G01 X21.6000 Y52.4000
G01 X4.2000
G01 Z0.0000
G01 X5.2000 Y55.0000
G01 Z-7.0000
G01 X26.4000
G01 X26.6000 Z0.5000
G01 X32.8000
G01 X33.0000 Z-7.0000
G01 X150.8000
G01 X151.0000 Z0.5000
G01 X157.2000
G01 X157.4000 Z-7.0000
G01 X178.8000
G01 X179.8000 Y52.4000
G01 X162.6000
G01 X165.0000 Y49.8000
G01 X180.4000
G01 Z0.5000
G01 X190.6000 Y42.0000
G01 Z-7.0000
G01 X167.4000
G01 X167.2000 Z0.5000
G01 X161.2000
G01 X161.0000 Z-7.0000
G01 X156.6000
G01 Z1.0000
G01 X146.0000 Y52.4000
G01 Z-7.0000
G01 X38.2000
G01 X40.6000 Y49.8000
G01 X143.4000
G00 Z5.0000
G00 X178.0000 Y57.6000
G01 Z-7.0000
G01 X6.2000
G01 X7.4000 Y60.2000
G01 X176.8000
G01 Z0.0000
G01 X175.4000 Y62.8000
G01 Z-7.0000
G01 X8.8000
G01 X10.4000 Y65.4000
G01 X173.8000
G01 X172.0000 Y68.0000
G01 X12.0000
G01 X14.0000 Y70.6000
G01 X170.0000
G01 X167.8000 Y73.2000
G01 X16.2000
G01 X18.8000 Y75.8000
G01 X165.2000
G01 X162.4000 Y78.4000
G01 X21.6000
G01 Z0.0000
G01 X25.0000 Y81.0000
G01 Z-7.0000
G01 X159.0000
G01 Z0.0000
G01 X154.8000 Y83.6000
G01 Z-7.0000
G01 X29.2000
G01 Z0.5000
G01 X34.6000 Y86.2000
G01 Z-7.0000
G01 X149.6000
G01 Z0.5000
G01 X142.0000 Y88.8000
G01 Z-7.0000
G01 X42.0000
G00 Z5.0000
G00 X-4.4000 Y-4.8000
G01 Z-8.0000
G01 X188.4000
G01 X190.2000 Y-2.2000
G01 X-6.2000
G01 X-6.6000 Y0.4000
G01 X190.6000
G01 Y3.0000
G01 X-6.6000
G01 Y5.6000
G01 X190.6000
G01 Y8.2000
G01 X-6.6000
G01 Y10.8000
G01 X190.6000
G01 Y13.4000
G01 X-6.6000
G01 Y16.0000
G01 X190.6000
G01 Y18.6000
G01 X-6.6000
G01 Y21.2000
G01 X190.6000
G01 Y23.8000
G01 X-6.6000
G01 Y26.4000
G01 X190.6000
G01 Y29.0000
G01 X-6.6000
G01 Y31.6000
G01 X22.2000
G01 X22.4000 Z0.5000
G01 X37.2000
G01 X37.4000 Z-8.0000
G01 X146.6000
G01 X146.8000 Z0.5000
G01 X161.6000
G01 X161.8000 Z-8.0000
G01 X190.6000
G01 Y34.2000
G01 X164.6000
G00 Z5.0000
G00 X190.6000 Y36.8000
G01 Z-8.0000
G01 X166.2000
G01 X166.0000 Z0.5000
G01 X158.4000
G01 X158.2000 Z-8.0000
G01 X150.2000
G01 X150.0000 Z0.5000
G01 X142.4000
G01 X142.2000 Z-8.0000
G01 X41.8000
G01 X41.6000 Z0.5000
G01 X34.0000
G01 X33.8000 Z-8.0000
G01 X25.8000
G01 X25.6000 Z0.5000
G01 X18.0000
G01 X17.8000 Z-8.0000
G01 X-6.6000
G01 Y34.2000
G01 X19.4000
G00 Z5.0000
G00 X-6.6000 Y39.4000
G01 Z-8.0000
G01 X17.0000
G01 X17.2000 Z0.5000
G01 X23.4000
G01 X23.6000 Z-8.0000
G01 X36.0000
G01 X36.2000 Z0.5000
G01 X42.4000
G01 X42.6000 Z-8.0000
G01 X89.8000
G01 Z0.0000
G01 X88.6000 Y42.0000
G01 Z-8.0000
G01 X43.0000
G01 X42.8000 Z0.5000
G01 X36.8000
G01 X36.6000 Z-8.0000
G01 X32.2000
G00 Z5.0000
G00 X-6.0000 Y44.6000
G01 Z-8.0000
G01 X16.8000
G01 X17.0000 Z0.5000
G01 X23.2000
G01 X23.4000 Z-8.0000
G01 X36.2000
G01 X36.4000 Z0.5000
G01 X42.6000
G01 X42.8000 Z-8.0000
G01 X89.8000
G00 Z5.0000
G00 X-4.0000 Y47.2000
G01 Z-8.0000
G01 X17.6000
G01 X17.8000 Z0.5000
G01 X25.0000
G01 X25.2000 Z-8.0000
G01 X34.6000
G01 X34.8000 Z0.5000
G01 X41.8000
G01 X42.0000 Z-8.0000
G01 X142.0000
G01 X142.2000 Z0.5000
G01 X149.4000
G01 X149.6000 Z-8.0000
G01 X159.0000
G01 X159.2000 Z0.5000
G01 X166.2000
G01 X166.4000 Z-8.0000
G01 X188.0000
G01 X190.0000 Y44.6000
G01 X167.2000
G01 X167.0000 Z0.5000
G01 X160.8000
G01 X160.6000 Z-8.0000
G01 X147.8000
G01 X147.6000 Z0.5000
G01 X141.4000
G01 X141.2000 Z-8.0000
G01 X94.2000
G01 Z0.0000
G01 X95.4000 Y42.0000
G01 Z-8.0000
G01 X141.0000
G01 X141.2000 Z0.5000
G01 X147.2000
G01 X147.4000 Z-8.0000
G01 X151.8000
G00 Z5.0000
G00 X190.6000 Y39.4000
G01 Z-8.0000
G01 X167.0000
G01 X166.8000 Z0.5000
G01 X160.6000
G01 X160.4000 Z-8.0000
G01 X148.0000
G01 X147.8000 Z0.5000
G01 X141.6000
G01 X141.4000 Z-8.0000
G01 X94.2000
G00 Z5.0000
G00 X143.8000 Y34.2000
G01 Z-8.0000
G01 X40.2000
G01 Z1.0000
G01 X27.4000 Y42.0000
G01 Z-8.0000
G01 X23.0000
G01 X22.8000 Z0.5000
G01 X16.8000
G01 X16.6000 Z-8.0000
G01 X-6.6000
G01 Z0.5000
G01 X3.6000 Y49.8000
G01 Z-8.0000
G01 X19.0000
G01 X21.6000 Y52.4000
G01 X4.2000
G01 Z0.0000
G01 X5.2000 Y55.0000
G01 Z-8.0000
G01 X26.4000
G01 X26.6000 Z0.5000
G01 X32.8000
G01 X33.0000 Z-8.0000
G01 X150.8000
G01 X151.0000 Z0.5000
G01 X157.2000
G01 X157.4000 Z-8.0000
G01 X178.8000
G01 X179.8000 Y52.4000
G01 X162.6000
G01 X165.0000 Y49.8000
G01 X180.4000
G01 Z0.5000
G01 X190.6000 Y42.0000
G01 Z-8.0000
G01 X167.4000
G01 X167.2000 Z0.5000
G01 X161.2000
G01 X161.0000 Z-8.0000
G01 X156.6000
G01 Z1.0000
G01 X146.0000 Y52.4000
G01 Z-8.0000
G01 X38.2000
G01 X40.6000 Y49.8000
G01 X143.4000
G00 Z5.0000
G00 X178.0000 Y57.6000
G01 Z-8.0000
G01 X6.2000
G01 X7.4000 Y60.2000
G01 X176.8000
G01 Z0.0000
G01 X175.4000 Y62.8000
G01 Z-8.0000
G01 X8.8000
G01 X10.4000 Y65.4000
G01 X173.8000
G01 Z0.0000
G01 X172.0000 Y68.0000
G01 Z-8.0000
G01 X12.0000
G01 Z0.0000
G01 X14.0000 Y70.6000
G01 Z-8.0000
G01 X170.0000
G01 Z0.0000
G01 X167.8000 Y73.2000
G01 Z-8.0000
G01 X16.2000
G01 X18.8000 Y75.8000
G01 X165.2000
G01 X162.4000 Y78.4000
G01 X21.6000
G01 Z0.0000
G01 X25.0000 Y81.0000
G01 Z-8.0000
G01 X159.0000
G01 Z0.0000
G01 X154.8000 Y83.6000
G01 Z-8.0000
G01 X29.2000
G01 Z0.5000
G01 X34.6000 Y86.2000
G01 Z-8.0000
G01 X149.6000
G01 Z0.5000
G01 X142.0000 Y88.8000
G01 Z-8.0000
G01 X42.0000
G00 Z5.0000
G00 X-4.4000 Y-4.8000
G01 Z-9.0000
G01 X188.4000
G01 X190.2000 Y-2.2000
G01 X-6.2000
G01 X-6.6000 Y0.4000
G01 X190.6000
G01 Y3.0000
G01 X-6.6000
G01 Y5.6000
G01 X190.6000
G01 Y8.2000
G01 X-6.6000
G01 Y10.8000
G01 X190.6000
G01 Y13.4000
G01 X-6.6000
G01 Y16.0000
G01 X190.6000
G01 Y18.6000
G01 X-6.6000
G01 Y21.2000
G01 X190.6000
G01 Y23.8000
G01 X-6.6000
G01 Y26.4000
G01 X190.6000
G01 Y29.0000
G01 X-6.6000
G01 Y31.6000
G01 X22.2000
G01 X22.4000 Z0.5000
G01 X37.2000
G01 X37.4000 Z-9.0000
G01 X146.6000
G01 X146.8000 Z0.5000
G01 X161.6000
G01 X161.8000 Z-9.0000
G01 X190.6000
G01 Y34.2000
G01 X164.6000
G00 Z5.0000
G00 X190.6000 Y36.8000
G01 Z-9.0000
G01 X166.2000
G01 X166.0000 Z0.5000
G01 X158.4000
G01 X158.2000 Z-9.0000
G01 X150.2000
G01 X150.0000 Z0.5000
G01 X142.4000
G01 X142.2000 Z-9.0000
G01 X41.8000
G01 X41.6000 Z0.5000
G01 X34.0000
G01 X33.8000 Z-9.0000
G01 X25.8000
G01 X25.6000 Z0.5000
G01 X18.0000
G01 X17.8000 Z-9.0000
G01 X-6.6000
G01 Y34.2000
G01 X19.4000
G00 Z5.0000
G00 X-6.6000 Y39.4000
G01 Z-9.0000
G01 X17.0000
G01 X17.2000 Z0.5000
G01 X23.4000
G01 X23.6000 Z-9.0000
G01 X36.0000
G01 X36.2000 Z0.5000
G01 X42.4000
G01 X42.6000 Z-9.0000
G01 X89.8000
G01 Z0.0000
G01 X88.6000 Y42.0000
G01 Z-9.0000
G01 X43.0000
G01 X42.8000 Z0.5000
G01 X36.8000
G01 X36.6000 Z-9.0000
G01 X32.2000
G00 Z5.0000
G00 X-6.0000 Y44.6000
G01 Z-9.0000
G01 X16.8000
G01 X17.0000 Z0.5000
G01 X23.2000
G01 X23.4000 Z-9.0000
G01 X36.2000
G01 X36.4000 Z0.5000
G01 X42.6000
G01 X42.8000 Z-9.0000
G01 X89.8000
G00 Z5.0000
G00 X-4.0000 Y47.2000
G01 Z-9.0000
G01 X17.6000
G01 X17.8000 Z0.5000
G01 X25.0000
G01 X25.2000 Z-9.0000
G01 X34.6000
G01 X34.8000 Z0.5000
G01 X41.8000
G01 X42.0000 Z-9.0000
G01 X142.0000
G01 X142.2000 Z0.5000
G01 X149.4000
G01 X149.6000 Z-9.0000
G01 X159.0000
G01 X159.2000 Z0.5000
G01 X166.2000
G01 X166.4000 Z-9.0000
G01 X188.0000
G01 X190.0000 Y44.6000
G01 X167.2000
G01 X167.0000 Z0.5000
G01 X160.8000
G01 X160.6000 Z-9.0000
G01 X147.8000
G01 X147.6000 Z0.5000
G01 X141.4000
G01 X141.2000 Z-9.0000
G01 X94.2000
G01 Z0.0000
G01 X95.4000 Y42.0000
G01 Z-9.0000
G01 X141.0000
G01 X141.2000 Z0.5000
G01 X147.2000
G01 X147.4000 Z-9.0000
G01 X151.8000
G00 Z5.0000
G00 X190.6000 Y39.4000
G01 Z-9.0000
G01 X167.0000
G01 X166.8000 Z0.5000
G01 X160.6000
G01 X160.4000 Z-9.0000
G01 X148.0000
G01 X147.8000 Z0.5000
G01 X141.6000
G01 X141.4000 Z-9.0000
G01 X94.2000
G00 Z5.0000
G00 X143.8000 Y34.2000
G01 Z-9.0000
G01 X40.2000
G01 Z1.0000
G01 X27.4000 Y42.0000
G01 Z-9.0000
G01 X23.0000
G01 X22.8000 Z0.5000
G01 X16.8000
G01 X16.6000 Z-9.0000
G01 X-6.6000
G01 Z0.5000
G01 X3.6000 Y49.8000
G01 Z-9.0000
G01 X19.0000
G01 X21.6000 Y52.4000
G01 X4.2000
G01 Z0.0000
G01 X5.2000 Y55.0000
G01 Z-9.0000
G01 X26.4000
G01 X26.6000 Z0.5000
G01 X32.8000
G01 X33.0000 Z-9.0000
G01 X150.8000
G01 X151.0000 Z0.5000
G01 X157.2000
G01 X157.4000 Z-9.0000
G01 X178.8000
G01 X179.8000 Y52.4000
G01 X162.6000
G01 X165.0000 Y49.8000
G01 X180.4000
G01 Z0.5000
G01 X190.6000 Y42.0000
G01 Z-9.0000
G01 X167.4000
G01 X167.2000 Z0.5000
G01 X161.2000
G01 X161.0000 Z-9.0000
G01 X156.6000
G01 Z1.0000
G01 X146.0000 Y52.4000
G01 Z-9.0000
G01 X38.2000
G01 X40.6000 Y49.8000
G01 X143.4000
G00 Z5.0000
G00 X178.0000 Y57.6000
G01 Z-9.0000
G01 X6.2000
G01 X7.4000 Y60.2000
G01 X176.8000
G01 Z0.0000
G01 X175.4000 Y62.8000
G01 Z-9.0000
G01 X8.8000
G01 X10.4000 Y65.4000
G01 X173.8000
G01 Z0.0000
G01 X172.0000 Y68.0000
G01 Z-9.0000
G01 X12.0000
G01 Z0.0000
G01 X14.0000 Y70.6000
G01 Z-9.0000
G01 X170.0000
G01 Z0.0000
G01 X167.8000 Y73.2000
G01 Z-9.0000
G01 X16.2000
G01 X18.8000 Y75.8000
G01 X165.2000
G01 X162.4000 Y78.4000
G01 X21.6000
G01 Z0.0000
G01 X25.0000 Y81.0000
G01 Z-9.0000
G01 X159.0000
G01 Z0.0000
G01 X154.8000 Y83.6000
G01 Z-9.0000
G01 X29.2000
G01 Z0.5000
G01 X34.6000 Y86.2000
G01 Z-9.0000
G01 X149.6000
G01 Z0.5000
G01 X142.0000 Y88.8000
G01 Z-9.0000
G01 X42.0000
G00 Z5.0000
G00 X-4.4000 Y-4.8000
G01 Z-10.0000
G01 X188.4000
G01 X190.2000 Y-2.2000
G01 X-6.2000
G01 X-6.6000 Y0.4000
G01 X190.6000
G01 Y3.0000
G01 X-6.6000
G01 Y5.6000
G01 X190.6000
G01 Y8.2000
G01 X-6.6000
G01 Y10.8000
G01 X190.6000
G01 Y13.4000
G01 X-6.6000
G01 Y16.0000
G01 X190.6000
G01 Y18.6000
G01 X-6.6000
G01 Y21.2000
G01 X190.6000
G01 Y23.8000
G01 X-6.6000
G01 Y26.4000
G01 X190.6000
G01 Y29.0000
G01 X-6.6000
G01 Y31.6000
G01 X22.2000
G01 X22.4000 Z0.5000
G01 X37.2000
G01 X37.4000 Z-10.0000
G01 X146.6000
G01 X146.8000 Z0.5000
G01 X161.6000
G01 X161.8000 Z-10.0000
G01 X190.6000
G01 Y34.2000
G01 X164.6000
G00 Z5.0000
G00 X190.6000 Y36.8000
G01 Z-10.0000
G01 X166.2000
G01 X166.0000 Z0.5000
G01 X158.4000
G01 X158.2000 Z-10.0000
G01 X150.2000
G01 X150.0000 Z0.5000
G01 X142.4000
G01 X142.2000 Z-10.0000
G01 X41.8000
G01 X41.6000 Z0.5000
G01 X34.0000
G01 X33.8000 Z-10.0000
G01 X25.8000
G01 X25.6000 Z0.5000
G01 X18.0000
G01 X17.8000 Z-10.0000
G01 X-6.6000
G01 Y34.2000
G01 X19.4000
G00 Z5.0000
G00 X-6.6000 Y39.4000
G01 Z-10.0000
G01 X17.0000
G01 X17.2000 Z0.5000
G01 X23.4000
G01 X23.6000 Z-10.0000
G01 X36.0000
G01 X36.2000 Z0.5000
G01 X42.4000
G01 X42.6000 Z-10.0000
G01 X89.8000
G01 Z0.0000
G01 X88.6000 Y42.0000
G01 Z-10.0000
G01 X43.0000
G01 X42.8000 Z0.5000
G01 X36.8000
G01 X36.6000 Z-10.0000
G01 X32.2000
G00 Z5.0000
G00 X-6.0000 Y44.6000
G01 Z-10.0000
G01 X16.8000
G01 X17.0000 Z0.5000
G01 X23.2000
G01 X23.4000 Z-10.0000
G01 X36.2000
G01 X36.4000 Z0.5000
G01 X42.6000
G01 X42.8000 Z-10.0000
G01 X89.8000
G00 Z5.0000
G00 X-4.0000 Y47.2000
G01 Z-10.0000
G01 X17.6000
G01 X17.8000 Z0.5000
G01 X25.0000
G01 X25.2000 Z-10.0000
G01 X34.6000
G01 X34.8000 Z0.5000
G01 X41.8000
G01 X42.0000 Z-10.0000
G01 X142.0000
G01 X142.2000 Z0.5000
G01 X149.4000
G01 X149.6000 Z-10.0000
G01 X159.0000
G01 X159.2000 Z0.5000
G01 X166.2000
G01 X166.4000 Z-10.0000
G01 X188.0000
G01 X190.0000 Y44.6000
G01 X167.2000
G01 X167.0000 Z0.5000
G01 X160.8000
G01 X160.6000 Z-10.0000
G01 X147.8000
G01 X147.6000 Z0.5000
G01 X141.4000
G01 X141.2000 Z-10.0000
G01 X94.2000
G01 Z0.0000
G01 X95.4000 Y42.0000
G01 Z-10.0000
G01 X141.0000
G01 X141.2000 Z0.5000
G01 X147.2000
G01 X147.4000 Z-10.0000
G01 X151.8000
G00 Z5.0000
G00 X190.6000 Y39.4000
G01 Z-10.0000
G01 X167.0000
G01 X166.8000 Z0.5000
G01 X160.6000
G01 X160.4000 Z-10.0000
G01 X148.0000
G01 X147.8000 Z0.5000
G01 X141.6000
G01 X141.4000 Z-10.0000
G01 X94.2000
G00 Z5.0000
G00 X143.8000 Y34.2000
G01 Z-10.0000
G01 X40.2000
G01 Z1.0000
G01 X27.4000 Y42.0000
G01 Z-10.0000
G01 X23.0000
G01 X22.8000 Z0.5000
G01 X16.8000
G01 X16.6000 Z-10.0000
G01 X-6.6000
G01 Z0.5000
G01 X3.6000 Y49.8000
G01 Z-10.0000
G01 X19.0000
G01 X21.6000 Y52.4000
G01 X4.2000
G01 Z0.0000
G01 X5.2000 Y55.0000
G01 Z-10.0000
G01 X26.4000
G01 X26.6000 Z0.5000
G01 X32.8000
G01 X33.0000 Z-10.0000
G01 X150.8000
G01 X151.0000 Z0.5000
G01 X157.2000
G01 X157.4000 Z-10.0000
G01 X178.8000
G01 X179.8000 Y52.4000
G01 X162.6000
G01 X165.0000 Y49.8000
G01 X180.4000
G01 Z0.5000
G01 X190.6000 Y42.0000
G01 Z-10.0000
G01 X167.4000
G01 X167.2000 Z0.5000
G01 X161.2000
G01 X161.0000 Z-10.0000
G01 X156.6000
G01 Z1.0000
G01 X146.0000 Y52.4000
G01 Z-10.0000
G01 X38.2000
G01 X40.6000 Y49.8000
G01 X143.4000
G00 Z5.0000
G00 X178.0000 Y57.6000
G01 Z-10.0000
G01 X6.2000
G01 Z0.0000
G01 X7.4000 Y60.2000
G01 Z-10.0000
G01 X176.8000
G01 Z0.0000
G01 X175.4000 Y62.8000
G01 Z-10.0000
G01 X8.8000
G01 X10.4000 Y65.4000
G01 X173.8000
G01 Z0.0000
G01 X172.0000 Y68.0000
G01 Z-10.0000
G01 X12.0000
G01 Z0.0000
G01 X14.0000 Y70.6000
G01 Z-10.0000
G01 X170.0000
G01 Z0.0000
G01 X167.8000 Y73.2000
G01 Z-10.0000
G01 X16.2000
G01 X18.8000 Y75.8000
G01 X165.2000
G01 Z0.0000
G01 X162.4000 Y78.4000
G01 Z-10.0000
G01 X21.6000
G01 X25.0000 Y81.0000
G01 X159.0000
G01 Z0.0000
G01 X154.8000 Y83.6000
G01 Z-10.0000
G01 X29.2000
G01 Z0.5000
G01 X34.6000 Y86.2000
G01 Z-10.0000
G01 X149.6000
G01 Z0.5000
G01 X142.0000 Y88.8000
G01 Z-10.0000
G01 X42.0000
G00 Z5.0000
G00 X-4.4000 Y-4.8000
G01 Z-11.0000
G01 X188.4000
G01 X190.2000 Y-2.2000
G01 X-6.2000
G01 X-6.6000 Y0.4000
G01 X190.6000
G01 Y3.0000
G01 X-6.6000
G01 Y5.6000
G01 X190.6000
G01 Y8.2000
G01 X-6.6000
G01 Y10.8000
G01 X190.6000
G01 Y13.4000
G01 X-6.6000
G01 Y16.0000
G01 X190.6000
G01 Y18.6000
G01 X-6.6000
G01 Y21.2000
G01 X190.6000
G01 Y23.8000
G01 X-6.6000
G01 Y26.4000
G01 X190.6000
G01 Y29.0000
G01 X-6.6000
G01 Y31.6000
G01 X22.2000
G01 X22.4000 Z0.5000
G01 X37.2000
G01 X37.4000 Z-11.0000
G01 X146.6000
G01 X146.8000 Z0.5000
G01 X161.6000
G01 X161.8000 Z-11.0000
G01 X190.6000
G01 Y34.2000
G01 X164.6000
G00 Z5.0000
G00 X190.6000 Y36.8000
G01 Z-11.0000
G01 X166.2000
G01 X166.0000 Z0.5000
G01 X158.4000
G01 X158.2000 Z-11.0000
G01 X150.2000
G01 X150.0000 Z0.5000
G01 X142.4000
G01 X142.2000 Z-11.0000
G01 X41.8000
G01 X41.6000 Z0.5000
G01 X34.0000
G01 X33.8000 Z-11.0000
G01 X25.8000
G01 X25.6000 Z0.5000
G01 X18.0000
G01 X17.8000 Z-11.0000
G01 X-6.6000
G01 Y34.2000
G01 X19.4000
G00 Z5.0000
G00 X-6.6000 Y39.4000
G01 Z-11.0000
G01 X17.0000
G01 X17.2000 Z0.5000
G01 X23.4000
G01 X23.6000 Z-11.0000
G01 X36.0000
G01 X36.2000 Z0.5000
G01 X42.4000
G01 X42.6000 Z-11.0000
G01 X89.8000
G01 Z0.0000
G01 X88.6000 Y42.0000
G01 Z-11.0000
G01 X43.0000
G01 X42.8000 Z0.5000
G01 X36.8000
G01 X36.6000 Z-11.0000
G01 X32.2000
G00 Z5.0000
G00 X-6.0000 Y44.6000
G01 Z-11.0000
G01 X16.8000
G01 X17.0000 Z0.5000
G01 X23.2000
G01 X23.4000 Z-11.0000
G01 X36.2000
G01 X36.4000 Z0.5000
G01 X42.6000
G01 X42.8000 Z-11.0000
G01 X89.8000
G00 Z5.0000
G00 X-4.0000 Y47.2000
G01 Z-11.0000
G01 X17.6000
G01 X17.8000 Z0.5000
G01 X25.0000
G01 X25.2000 Z-11.0000
G01 X34.6000
G01 X34.8000 Z0.5000
G01 X41.8000
G01 X42.0000 Z-11.0000
G01 X142.0000
G01 X142.2000 Z0.5000
G01 X149.4000
G01 X149.6000 Z-11.0000
G01 X159.0000
G01 X159.2000 Z0.5000
G01 X166.2000
G01 X166.4000 Z-11.0000
G01 X188.0000
G01 X190.0000 Y44.6000
G01 X167.2000
G01 X167.0000 Z0.5000
G01 X160.8000
G01 X160.6000 Z-11.0000
G01 X147.8000
G01 X147.6000 Z0.5000
G01 X141.4000
G01 X141.2000 Z-11.0000
G01 X94.2000
G01 Z0.0000
G01 X95.4000 Y42.0000
G01 Z-11.0000
G01 X141.0000
G01 X141.2000 Z0.5000
G01 X147.2000
G01 X147.4000 Z-11.0000
G01 X151.8000
G00 Z5.0000
G00 X190.6000 Y39.4000
G01 Z-11.0000
G01 X167.0000
G01 X166.8000 Z0.5000
G01 X160.6000
G01 X160.4000 Z-11.0000
G01 X148.0000
G01 X147.8000 Z0.5000
G01 X141.6000
G01 X141.4000 Z-11.0000
G01 X94.2000
G00 Z5.0000
G00 X143.8000 Y34.2000
G01 Z-11.0000
G01 X40.2000
G01 Z1.0000
G01 X27.4000 Y42.0000
G01 Z-11.0000
G01 X23.0000
G01 X22.8000 Z0.5000
G01 X16.8000
G01 X16.6000 Z-11.0000
G01 X-6.6000
G01 Z0.5000
G01 X3.6000 Y49.8000
G01 Z-11.0000
G01 X19.0000
G01 X21.6000 Y52.4000
G01 X4.2000
G01 Z0.0000
G01 X5.2000 Y55.0000
G01 Z-11.0000
G01 X26.4000
G01 X26.6000 Z0.5000
G01 X32.8000
G01 X33.0000 Z-11.0000
G01 X150.8000
G01 X151.0000 Z0.5000
G01 X157.2000
G01 X157.4000 Z-11.0000
G01 X178.8000
G01 X179.8000 Y52.4000
G01 X162.6000
G01 X165.0000 Y49.8000
G01 X180.4000
G01 Z0.5000
G01 X190.6000 Y42.0000
G01 Z-11.0000
G01 X167.4000
G01 X167.2000 Z0.5000
G01 X161.2000
G01 X161.0000 Z-11.0000
G01 X156.6000
G01 Z1.0000
G01 X146.0000 Y52.4000
G01 Z-11.0000
G01 X38.2000
G01 X40.6000 Y49.8000
G01 X143.4000
G00 Z5.0000
G00 X178.0000 Y57.6000
G01 Z-11.0000
G01 X6.2000
G01 X7.4000 Y60.2000
G01 X176.8000
G01 Z0.0000
G01 X175.4000 Y62.8000
G01 Z-11.0000
G01 X8.8000
G01 X10.4000 Y65.4000
G01 X173.8000
G01 Z0.0000
G01 X172.0000 Y68.0000
G01 Z-11.0000
G01 X12.0000
G01 Z0.0000
G01 X14.0000 Y70.6000
G01 Z-11.0000
G01 X170.0000
G01 X167.8000 Y73.2000
G01 X16.2000
G01 X18.8000 Y75.8000
G01 X165.2000
G01 Z0.0000
G01 X162.4000 Y78.4000
G01 Z-11.0000
G01 X21.6000
G01 Z0.0000
G01 X25.0000 Y81.0000
G01 Z-11.0000
G01 X159.0000
G01 X154.8000 Y83.6000
G01 X29.2000
G01 Z0.5000
G01 X34.6000 Y86.2000
G01 Z-11.0000
G01 X149.6000
G01 Z0.5000
G01 X142.0000 Y88.8000
G01 Z-11.0000
G01 X42.0000
G00 Z5.0000
G00 X-4.4000 Y-4.8000
G01 Z-12.0000
G01 X188.4000
G01 X190.2000 Y-2.2000
G01 X-6.2000
G01 X-6.6000 Y0.4000
G01 X190.6000
G01 Y3.0000
G01 X-6.6000
G01 Y5.6000
G01 X190.6000
G01 Y8.2000
G01 X-6.6000
G01 Y10.8000
G01 X190.6000
G01 Y13.4000
G01 X-6.6000
G01 Y16.0000
G01 X190.6000
G01 Y18.6000
G01 X-6.6000
G01 Y21.2000
G01 X190.6000
G01 Y23.8000
G01 X-6.6000
G01 Y26.4000
G01 X190.6000
G01 Y29.0000
G01 X-6.6000
G01 Y31.6000
G01 X22.2000
G01 X22.4000 Z0.5000
G01 X37.2000
G01 X37.4000 Z-12.0000
G01 X146.6000
G01 X146.8000 Z0.5000
G01 X161.6000
G01 X161.8000 Z-12.0000
G01 X190.6000
G01 Y34.2000
G01 X164.6000
G00 Z5.0000
G00 X190.6000 Y36.8000
G01 Z-12.0000
G01 X166.2000
G01 X166.0000 Z0.5000
G01 X158.4000
G01 X158.2000 Z-12.0000
G01 X150.2000
G01 X150.0000 Z0.5000
G01 X142.4000
G01 X142.2000 Z-12.0000
G01 X41.8000
G01 X41.6000 Z0.5000
G01 X34.0000
G01 X33.8000 Z-12.0000
G01 X25.8000
G01 X25.6000 Z0.5000
G01 X18.0000
G01 X17.8000 Z-12.0000
G01 X-6.6000
G01 Y34.2000
G01 X19.4000
G00 Z5.0000
G00 X-6.6000 Y39.4000
G01 Z-12.0000
G01 X17.0000
G01 X17.2000 Z0.5000
G01 X23.4000
G01 X23.6000 Z-12.0000
G01 X36.0000
G01 X36.2000 Z0.5000
G01 X42.4000
G01 X42.6000 Z-12.0000
G01 X89.8000
G01 Z0.0000
G01 X88.6000 Y42.0000
G01 Z-12.0000
G01 X43.0000
G01 X42.8000 Z0.5000
G01 X36.8000
G01 X36.6000 Z-12.0000
G01 X32.2000
G00 Z5.0000
G00 X-6.0000 Y44.6000
G01 Z-12.0000
G01 X16.8000
G01 X17.0000 Z0.5000
G01 X23.2000
G01 X23.4000 Z-12.0000
G01 X36.2000
G01 X36.4000 Z0.5000
G01 X42.6000
G01 X42.8000 Z-12.0000
G01 X89.8000
G00 Z5.0000
G00 X-4.0000 Y47.2000
G01 Z-12.0000
G01 X17.6000
G01 X17.8000 Z0.5000
G01 X25.0000
G01 X25.2000 Z-12.0000
G01 X34.6000
G01 X34.8000 Z0.5000
G01 X41.8000
G01 X42.0000 Z-12.0000
G01 X142.0000
G01 X142.2000 Z0.5000
G01 X149.4000
G01 X149.6000 Z-12.0000
G01 X159.0000
G01 X159.2000 Z0.5000
G01 X166.2000
G01 X166.4000 Z-12.0000
G01 X188.0000
G01 X190.0000 Y44.6000
G01 X167.2000
G01 X167.0000 Z0.5000
G01 X160.8000
G01 X160.6000 Z-12.0000
G01 X147.8000
G01 X147.6000 Z0.5000
G01 X141.4000
G01 X141.2000 Z-12.0000
G01 X94.2000
G01 Z0.0000
G01 X95.4000 Y42.0000
G01 Z-12.0000
G01 X141.0000
G01 X141.2000 Z0.5000
G01 X147.2000
G01 X147.4000 Z-12.0000
G01 X151.8000
G00 Z5.0000
G00 X190.6000 Y39.4000
G01 Z-12.0000
G01 X167.0000
G01 X166.8000 Z0.5000
G01 X160.6000
G01 X160.4000 Z-12.0000
G01 X148.0000
G01 X147.8000 Z0.5000
G01 X141.6000
G01 X141.4000 Z-12.0000
G01 X94.2000
G00 Z5.0000
G00 X143.8000 Y34.2000
G01 Z-12.0000
G01 X40.2000
G01 Z1.0000
G01 X27.4000 Y42.0000
G01 Z-12.0000
G01 X23.0000
G01 X22.8000 Z0.5000
G01 X16.8000
G01 X16.6000 Z-12.0000
G01 X-6.6000
G01 Z0.5000
G01 X3.6000 Y49.8000
G01 Z-12.0000
G01 X19.0000
G01 X21.6000 Y52.4000
G01 X4.2000
G01 Z0.0000
G01 X5.2000 Y55.0000
G01 Z-12.0000
G01 X26.4000
G01 X26.6000 Z0.5000
G01 X32.8000
G01 X33.0000 Z-12.0000
G01 X150.8000
G01 X151.0000 Z0.5000
G01 X157.2000
G01 X157.4000 Z-12.0000
G01 X178.8000
G01 X179.8000 Y52.4000
G01 X162.6000
G01 X165.0000 Y49.8000
G01 X180.4000
G01 Z0.5000
G01 X190.6000 Y42.0000
G01 Z-12.0000
G01 X167.4000
G01 X167.2000 Z0.5000
G01 X161.2000
G01 X161.0000 Z-12.0000
G01 X156.6000
G01 Z1.0000
G01 X146.0000 Y52.4000
G01 Z-12.0000
G01 X38.2000
G01 X40.6000 Y49.8000
G01 X143.4000
G00 Z5.0000
G00 X178.0000 Y57.6000
G01 Z-12.0000
G01 X6.2000
G01 X7.4000 Y60.2000
G01 X176.8000
G01 Z0.0000
G01 X175.4000 Y62.8000
G01 Z-12.0000
G01 X8.8000
G01 X10.4000 Y65.4000
G01 X173.8000
G01 Z0.0000
G01 X172.0000 Y68.0000
G01 Z-12.0000
G01 X12.0000
G01 X14.0000 Y70.6000
G01 X170.0000
G01 X167.8000 Y73.2000
G01 X16.2000
G01 X18.8000 Y75.8000
G01 X165.2000
G01 Z0.0000
G01 X162.4000 Y78.4000
G01 Z-12.0000
G01 X21.6000
G01 Z0.0000
G01 X25.0000 Y81.0000
G01 Z-12.0000
G01 X159.0000
G01 X154.8000 Y83.6000
G01 X29.2000
G01 Z0.5000
G01 X34.6000 Y86.2000
G01 Z-12.0000
G01 X149.6000
G01 Z0.5000
G01 X142.0000 Y88.8000
G01 Z-12.0000
G01 X42.0000
G00 Z5.0000
G00 X-4.4000 Y-4.8000
G01 Z-13.0000
G01 X188.4000
G01 X190.2000 Y-2.2000
G01 X-6.2000
G01 X-6.6000 Y0.4000
G01 X190.6000
G01 Y3.0000
G01 X-6.6000
G01 Y5.6000
G01 X190.6000
G01 Y8.2000
G01 X-6.6000
G01 Y10.8000
G01 X190.6000
G01 Y13.4000
G01 X-6.6000
G01 Y16.0000
G01 X190.6000
G01 Y18.6000
G01 X-6.6000
G01 Y21.2000
G01 X190.6000
G01 Y23.8000
G01 X-6.6000
G01 Y26.4000
G01 X190.6000
G01 Y29.0000
G01 X-6.6000
G01 Y31.6000
G01 X22.2000
G01 X22.4000 Z0.5000
G01 X37.2000
G01 X37.4000 Z-13.0000
G01 X146.6000
G01 X146.8000 Z0.5000
G01 X161.6000
G01 X161.8000 Z-13.0000
G01 X190.6000
G01 Y34.2000
G01 X164.6000
G00 Z5.0000
G00 X190.6000 Y36.8000
G01 Z-13.0000
G01 X166.2000
G01 X166.0000 Z0.5000
G01 X158.4000
G01 X158.2000 Z-13.0000
G01 X150.2000
G01 X150.0000 Z0.5000
G01 X142.4000
G01 X142.2000 Z-13.0000
G01 X41.8000
G01 X41.6000 Z0.5000
G01 X34.0000
G01 X33.8000 Z-13.0000
G01 X25.8000
G01 X25.6000 Z0.5000
G01 X18.0000
G01 X17.8000 Z-13.0000
G01 X-6.6000
G01 Y34.2000
G01 X19.4000
G00 Z5.0000
G00 X-6.6000 Y39.4000
G01 Z-13.0000
G01 X17.0000
G01 X17.2000 Z0.5000
G01 X23.4000
G01 X23.6000 Z-13.0000
G01 X36.0000
G01 X36.2000 Z0.5000
G01 X42.4000
G01 X42.6000 Z-13.0000
G01 X89.8000
G01 Z0.0000
G01 X88.6000 Y42.0000
G01 Z-13.0000
G01 X43.0000
G01 X42.8000 Z0.5000
G01 X36.8000
G01 X36.6000 Z-13.0000
G01 X32.2000
G00 Z5.0000
G00 X-6.0000 Y44.6000
G01 Z-13.0000
G01 X16.8000
G01 X17.0000 Z0.5000
G01 X23.2000
G01 X23.4000 Z-13.0000
G01 X36.2000
G01 X36.4000 Z0.5000
G01 X42.6000
G01 X42.8000 Z-13.0000
G01 X89.8000
G00 Z5.0000
G00 X-4.0000 Y47.2000
G01 Z-13.0000
G01 X17.6000
G01 X17.8000 Z0.5000
G01 X25.0000
G01 X25.2000 Z-13.0000
G01 X34.6000
G01 X34.8000 Z0.5000
G01 X41.8000
G01 X42.0000 Z-13.0000
G01 X142.0000
G01 X142.2000 Z0.5000
G01 X149.4000
G01 X149.6000 Z-13.0000
G01 X159.0000
G01 X159.2000 Z0.5000
G01 X166.2000
G01 X166.4000 Z-13.0000
G01 X188.0000
G01 X190.0000 Y44.6000
G01 X167.2000
G01 X167.0000 Z0.5000
G01 X160.8000
G01 X160.6000 Z-13.0000
G01 X147.8000
G01 X147.6000 Z0.5000
G01 X141.4000
G01 X141.2000 Z-13.0000
G01 X94.2000
G01 Z0.0000
G01 X95.4000 Y42.0000
G01 Z-13.0000
G01 X141.0000
G01 X141.2000 Z0.5000
G01 X147.2000
G01 X147.4000 Z-13.0000
G01 X151.8000
G00 Z5.0000
G00 X190.6000 Y39.4000
G01 Z-13.0000
G01 X167.0000
G01 X166.8000 Z0.5000
G01 X160.6000
G01 X160.4000 Z-13.0000
G01 X148.0000
G01 X147.8000 Z0.5000
G01 X141.6000
G01 X141.4000 Z-13.0000
G01 X94.2000
G00 Z5.0000
G00 X143.8000 Y34.2000
G01 Z-13.0000
G01 X40.2000
G01 Z1.0000
G01 X27.4000 Y42.0000
G01 Z-13.0000
G01 X23.0000
G01 X22.8000 Z0.5000
G01 X16.8000
G01 X16.6000 Z-13.0000
G01 X-6.6000
G01 Z0.5000
G01 X3.6000 Y49.8000
G01 Z-13.0000
G01 X19.0000
G01 X21.6000 Y52.4000
G01 X4.2000
G01 Z0.0000
G01 X5.2000 Y55.0000
G01 Z-13.0000
G01 X26.4000
G01 X26.6000 Z0.5000
G01 X32.8000
G01 X33.0000 Z-13.0000
G01 X150.8000
G01 X151.0000 Z0.5000
G01 X157.2000
G01 X157.4000 Z-13.0000
G01 X178.8000
G01 Z0.0000
G01 X179.8000 Y52.4000
G01 Z-13.0000
G01 X162.6000
G01 X165.0000 Y49.8000
G01 X180.4000
G01 Z0.5000
G01 X190.6000 Y42.0000
G01 Z-13.0000
G01 X167.4000
G01 X167.2000 Z0.5000
G01 X161.2000
G01 X161.0000 Z-13.0000
G01 X156.6000
G01 Z1.0000
G01 X146.0000 Y52.4000
G01 Z-13.0000
G01 X38.2000
G01 X40.6000 Y49.8000
G01 X143.4000
G00 Z5.0000
G00 X178.0000 Y57.6000
G01 Z-13.0000
G01 X6.2000
G01 X7.4000 Y60.2000
G01 X176.8000
G01 Z0.0000
G01 X175.4000 Y62.8000
G01 Z-13.0000
G01 X8.8000
G01 X10.4000 Y65.4000
G01 X173.8000
G01 Z0.0000
G01 X172.0000 Y68.0000
G01 Z-13.0000
G01 X12.0000
G01 X14.0000 Y70.6000
G01 X170.0000
G01 X167.8000 Y73.2000
G01 X16.2000
G01 X18.8000 Y75.8000
G01 X165.2000
G01 X162.4000 Y78.4000
G01 X21.6000
G01 Z0.0000
G01 X25.0000 Y81.0000
G01 Z-13.0000
G01 X159.0000
G01 X154.8000 Y83.6000
G01 X29.2000
G01 Z0.5000
G01 X34.6000 Y86.2000
G01 Z-13.0000
G01 X149.6000
G01 Z0.5000
G01 X142.0000 Y88.8000
G01 Z-13.0000
G01 X42.0000
G00 Z5.0000
G00 X-4.4000 Y-4.8000
G01 Z-14.0000
G01 X188.4000
G01 X190.2000 Y-2.2000
G01 X-6.2000
G01 X-6.6000 Y0.4000
G01 X190.6000
G01 Y3.0000
G01 X-6.6000
G01 Y5.6000
G01 X190.6000
G01 Y8.2000
G01 X-6.6000
G01 Y10.8000
G01 X190.6000
G01 Y13.4000
G01 X-6.6000
G01 Y16.0000
G01 X190.6000
G01 Y18.6000
G01 X-6.6000
G01 Y21.2000
G01 X190.6000
G01 Y23.8000
G01 X-6.6000
G01 Y26.4000
G01 X190.6000
G01 Y29.0000
G01 X-6.6000
G01 Y31.6000
G01 X22.2000
G01 X22.4000 Z0.5000
G01 X37.2000
G01 X37.4000 Z-14.0000
G01 X146.6000
G01 X146.8000 Z0.5000
G01 X161.6000
G01 X161.8000 Z-14.0000
G01 X190.6000
G01 Y34.2000
G01 X164.6000
G00 Z5.0000
G00 X190.6000 Y36.8000
G01 Z-14.0000
G01 X166.2000
G01 X166.0000 Z0.5000
G01 X158.4000
G01 X158.2000 Z-14.0000
G01 X150.2000
G01 X150.0000 Z0.5000
G01 X142.4000
G01 X142.2000 Z-14.0000
G01 X41.8000
G01 X41.6000 Z0.5000
G01 X34.0000
G01 X33.8000 Z-14.0000
G01 X25.8000
G01 X25.6000 Z0.5000
G01 X18.0000
G01 X17.8000 Z-14.0000
G01 X-6.6000
G01 Y34.2000
G01 X19.4000
G00 Z5.0000
G00 X-6.6000 Y39.4000
G01 Z-14.0000
G01 X17.0000
G01 X17.2000 Z0.5000
G01 X23.4000
G01 X23.6000 Z-14.0000
G01 X36.0000
G01 X36.2000 Z0.5000
G01 X42.4000
G01 X42.6000 Z-14.0000
G01 X89.8000
G01 Z0.0000
G01 X88.6000 Y42.0000
G01 Z-14.0000
G01 X43.0000
G01 X42.8000 Z0.5000
G01 X36.8000
G01 X36.6000 Z-14.0000
G01 X32.2000
G00 Z5.0000
G00 X-6.0000 Y44.6000
G01 Z-14.0000
G01 X16.8000
G01 X17.0000 Z0.5000
G01 X23.2000
G01 X23.4000 Z-14.0000
G01 X36.2000
G01 X36.4000 Z0.5000
G01 X42.6000
G01 X42.8000 Z-14.0000
G01 X89.8000
G00 Z5.0000
G00 X-4.0000 Y47.2000
G01 Z-14.0000
G01 X17.6000
G01 X17.8000 Z0.5000
G01 X25.0000
G01 X25.2000 Z-14.0000
G01 X34.6000
G01 X34.8000 Z0.5000
G01 X41.8000
G01 X42.0000 Z-14.0000
G01 X142.0000
G01 X142.2000 Z0.5000
G01 X149.4000
G01 X149.6000 Z-14.0000
G01 X159.0000
G01 X159.2000 Z0.5000
G01 X166.2000
G01 X166.4000 Z-14.0000
G01 X188.0000
G01 X190.0000 Y44.6000
G01 X167.2000
G01 X167.0000 Z0.5000
G01 X160.8000
G01 X160.6000 Z-14.0000
G01 X147.8000
G01 X147.6000 Z0.5000
G01 X141.4000
G01 X141.2000 Z-14.0000
G01 X94.2000
G01 Z0.0000
G01 X95.4000 Y42.0000
G01 Z-14.0000
G01 X141.0000
G01 X141.2000 Z0.5000
G01 X147.2000
G01 X147.4000 Z-14.0000
G01 X151.8000
G00 Z5.0000
G00 X190.6000 Y39.4000
G01 Z-14.0000
G01 X167.0000
G01 X166.8000 Z0.5000
G01 X160.6000
G01 X160.4000 Z-14.0000
G01 X148.0000
G01 X147.8000 Z0.5000
G01 X141.6000
G01 X141.4000 Z-14.0000
G01 X94.2000
G00 Z5.0000
G00 X143.8000 Y34.2000
G01 Z-14.0000
G01 X40.2000
G01 Z1.0000
G01 X27.4000 Y42.0000
G01 Z-14.0000
G01 X23.0000
G01 X22.8000 Z0.5000
G01 X16.8000
G01 X16.6000 Z-14.0000
G01 X-6.6000
G01 Z0.5000
G01 X3.6000 Y49.8000
G01 Z-14.0000
G01 X19.0000
G01 X21.6000 Y52.4000
G01 X4.2000
G01 Z0.0000
G01 X5.2000 Y55.0000
G01 Z-14.0000
G01 X26.4000
G01 X26.6000 Z0.5000
G01 X32.8000
G01 X33.0000 Z-14.0000
G01 X150.8000
G01 X151.0000 Z0.5000
G01 X157.2000
G01 X157.4000 Z-14.0000
G01 X178.8000
G01 Z0.0000
G01 X179.8000 Y52.4000
G01 Z-14.0000
G01 X162.6000
G01 X165.0000 Y49.8000
G01 X180.4000
G01 Z0.5000
G01 X190.6000 Y42.0000
G01 Z-14.0000
G01 X167.4000
G01 X167.2000 Z0.5000
G01 X161.2000
G01 X161.0000 Z-14.0000
G01 X156.6000
G01 Z1.0000
G01 X146.0000 Y52.4000
G01 Z-14.0000
G01 X38.2000
G01 X40.6000 Y49.8000
G01 X143.4000
G00 Z5.0000
G00 X178.0000 Y57.6000
G01 Z-14.0000
G01 X6.2000
G01 X7.4000 Y60.2000
G01 X176.8000
G01 Z0.0000
G01 X175.4000 Y62.8000
G01 Z-14.0000
G01 X8.8000
G01 X10.4000 Y65.4000
G01 X173.8000
G01 X172.0000 Y68.0000
G01 X12.0000
G01 X14.0000 Y70.6000
G01 X170.0000
G01 X167.8000 Y73.2000
G01 X16.2000
G01 X18.8000 Y75.8000
G01 X165.2000
G01 Z0.0000
G01 X162.4000 Y78.4000
G01 Z-14.0000
G01 X21.6000
G01 Z0.0000
G01 X25.0000 Y81.0000
G01 Z-14.0000
G01 X159.0000
G01 Z0.0000
G01 X154.8000 Y83.6000
G01 Z-14.0000
G01 X29.2000
G01 Z0.5000
G01 X34.6000 Y86.2000
G01 Z-14.0000
G01 X149.6000
G01 Z0.5000
G01 X142.0000 Y88.8000
G01 Z-14.0000
G01 X42.0000
G00 Z5.0000
G00 X-4.4000 Y-4.8000
G01 Z-15.0000
G01 X188.4000
G01 X190.2000 Y-2.2000
G01 X-6.2000
G01 X-6.6000 Y0.4000
G01 X190.6000
G01 Y3.0000
G01 X-6.6000
G01 Y5.6000
G01 X190.6000
G01 Y8.2000
G01 X-6.6000
G01 Y10.8000
G01 X190.6000
G01 Y13.4000
G01 X-6.6000
G01 Y16.0000
G01 X190.6000
G01 Y18.6000
G01 X-6.6000
G01 Y21.2000
G01 X190.6000
G01 Y23.8000
G01 X-6.6000
G01 Y26.4000
G01 X190.6000
G01 Y29.0000
G01 X-6.6000
G01 Y31.6000
G01 X22.2000
G01 X22.4000 Z0.5000
G01 X37.2000
G01 X37.4000 Z-15.0000
G01 X146.6000
G01 X146.8000 Z0.5000
G01 X161.6000
G01 X161.8000 Z-15.0000
G01 X190.6000
G01 Y34.2000
G01 X164.6000
G00 Z5.0000
G00 X190.6000 Y36.8000
G01 Z-15.0000
G01 X166.2000
G01 X166.0000 Z0.5000
G01 X158.4000
G01 X158.2000 Z-15.0000
G01 X150.2000
G01 X150.0000 Z0.5000
G01 X142.4000
G01 X142.2000 Z-15.0000
G01 X41.8000
G01 X41.6000 Z0.5000
G01 X34.0000
G01 X33.8000 Z-15.0000
G01 X25.8000
G01 X25.6000 Z0.5000
G01 X18.0000
G01 X17.8000 Z-15.0000
G01 X-6.6000
G01 Y34.2000
G01 X19.4000
G00 Z5.0000
G00 X-6.6000 Y39.4000
G01 Z-15.0000
G01 X17.0000
G01 X17.2000 Z0.5000
G01 X23.4000
G01 X23.6000 Z-15.0000
G01 X36.0000
G01 X36.2000 Z0.5000
G01 X42.4000
G01 X42.6000 Z-15.0000
G01 X89.8000
G01 Z0.0000
G01 X88.6000 Y42.0000
G01 Z-15.0000
G01 X43.0000
G01 X42.8000 Z0.5000
G01 X36.8000
G01 X36.6000 Z-15.0000
G01 X32.2000
G00 Z5.0000
G00 X-6.0000 Y44.6000
G01 Z-15.0000
G01 X16.8000
G01 X17.0000 Z0.5000
G01 X23.2000
G01 X23.4000 Z-15.0000
G01 X36.2000
G01 X36.4000 Z0.5000
G01 X42.6000
G01 X42.8000 Z-15.0000
G01 X89.8000
G00 Z5.0000
G00 X-4.0000 Y47.2000
G01 Z-15.0000
G01 X17.6000
G01 X17.8000 Z0.5000
G01 X25.0000
G01 X25.2000 Z-15.0000
G01 X34.6000
G01 X34.8000 Z0.5000
G01 X41.8000
G01 X42.0000 Z-15.0000
G01 X142.0000
G01 X142.2000 Z0.5000
G01 X149.4000
G01 X149.6000 Z-15.0000
G01 X159.0000
G01 X159.2000 Z0.5000
G01 X166.2000
G01 X166.4000 Z-15.0000
G01 X188.0000
G01 X190.0000 Y44.6000
G01 X167.2000
G01 X167.0000 Z0.5000
G01 X160.8000
G01 X160.6000 Z-15.0000
G01 X147.8000
G01 X147.6000 Z0.5000
G01 X141.4000
G01 X141.2000 Z-15.0000
G01 X94.2000
G01 Z0.0000
G01 X95.4000 Y42.0000
G01 Z-15.0000
G01 X141.0000
G01 X141.2000 Z0.5000
G01 X147.2000
G01 X147.4000 Z-15.0000
G01 X151.8000
G00 Z5.0000
G00 X190.6000 Y39.4000
G01 Z-15.0000
G01 X167.0000
G01 X166.8000 Z0.5000
G01 X160.6000
G01 X160.4000 Z-15.0000
G01 X148.0000
G01 X147.8000 Z0.5000
G01 X141.6000
G01 X141.4000 Z-15.0000
G01 X94.2000
G00 Z5.0000
G00 X143.8000 Y34.2000
G01 Z-15.0000
G01 X40.2000
G01 Z1.0000
G01 X27.4000 Y42.0000
G01 Z-15.0000
G01 X23.0000
G01 X22.8000 Z0.5000
G01 X16.8000
G01 X16.6000 Z-15.0000
G01 X-6.6000
G01 Z0.5000
G01 X3.6000 Y49.8000
G01 Z-15.0000
G01 X19.0000
G01 X21.6000 Y52.4000
G01 X4.2000
G01 Z0.0000
G01 X5.2000 Y55.0000
G01 Z-15.0000
G01 X26.4000
G01 X26.6000 Z0.5000
G01 X32.8000
G01 X33.0000 Z-15.0000
G01 X150.8000
G01 X151.0000 Z0.5000
G01 X157.2000
G01 X157.4000 Z-15.0000
G01 X178.8000
G01 X179.8000 Y52.4000
G01 X162.6000
G01 X165.0000 Y49.8000
G01 X180.4000
G01 Z0.5000
G01 X190.6000 Y42.0000
G01 Z-15.0000
G01 X167.4000
G01 X167.2000 Z0.5000
G01 X161.2000
G01 X161.0000 Z-15.0000
G01 X156.6000
G01 Z1.0000
G01 X146.0000 Y52.4000
G01 Z-15.0000
G01 X38.2000
G01 X40.6000 Y49.8000
G01 X143.4000
G00 Z5.0000
G00 X178.0000 Y57.6000
G01 Z-15.0000
G01 X6.2000
G01 X7.4000 Y60.2000
G01 X176.8000
G01 Z0.0000
G01 X175.4000 Y62.8000
G01 Z-15.0000
G01 X8.8000
G01 X10.4000 Y65.4000
G01 X173.8000
G01 X172.0000 Y68.0000
G01 X12.0000
G01 Z0.0000
G01 X14.0000 Y70.6000
G01 Z-15.0000
G01 X170.0000
G01 X167.8000 Y73.2000
G01 X16.2000
G01 X18.8000 Y75.8000
G01 X165.2000
G01 Z0.0000
G01 X162.4000 Y78.4000
G01 Z-15.0000
G01 X21.6000
G01 Z0.0000
G01 X25.0000 Y81.0000
G01 Z-15.0000
G01 X159.0000
G01 Z0.0000
G01 X154.8000 Y83.6000
G01 Z-15.0000
G01 X29.2000
G01 Z0.5000
G01 X34.6000 Y86.2000
G01 Z-15.0000
G01 X149.6000
G01 Z0.5000
G01 X142.0000 Y88.8000
G01 Z-15.0000
G01 X42.0000
G00 Z5.0000
G00 X-4.4000 Y-4.8000
G01 Z-16.0000
G01 X188.4000
G01 X190.2000 Y-2.2000
G01 X-6.2000
G01 X-6.6000 Y0.4000
G01 X190.6000
G01 Y3.0000
G01 X-6.6000
G01 Y5.6000
G01 X190.6000
G01 Y8.2000
G01 X-6.6000
G01 Y10.8000
G01 X190.6000
G01 Y13.4000
G01 X-6.6000
G01 Y16.0000
G01 X190.6000
G01 Y18.6000
G01 X-6.6000
G01 Y21.2000
G01 X190.6000
G01 Y23.8000
G01 X-6.6000
G01 Y26.4000
G01 X190.6000
G01 Y29.0000
G01 X-6.6000
G01 Y31.6000
G01 X22.2000
G01 X22.4000 Z0.5000
G01 X37.2000
G01 X37.4000 Z-16.0000
G01 X146.6000
G01 X146.8000 Z0.5000
G01 X161.6000
G01 X161.8000 Z-16.0000
G01 X190.6000
G01 Y34.2000
G01 X164.6000
G00 Z5.0000
G00 X190.6000 Y36.8000
G01 Z-16.0000
G01 X166.2000
G01 X166.0000 Z0.5000
G01 X158.4000
G01 X158.2000 Z-16.0000
G01 X150.2000
G01 X150.0000 Z0.5000
G01 X142.4000
G01 X142.2000 Z-16.0000
G01 X41.8000
G01 X41.6000 Z0.5000
G01 X34.0000
G01 X33.8000 Z-16.0000
G01 X25.8000
G01 X25.6000 Z0.5000
G01 X18.0000
G01 X17.8000 Z-16.0000
G01 X-6.6000
G01 Y34.2000
G01 X19.4000
G00 Z5.0000
G00 X-6.6000 Y39.4000
G01 Z-16.0000
G01 X17.0000
G01 X17.2000 Z0.5000
G01 X23.4000
G01 X23.6000 Z-16.0000
G01 X36.0000
G01 X36.2000 Z0.5000
G01 X42.4000
G01 X42.6000 Z-16.0000
G01 X89.8000
G01 Z0.0000
G01 X88.6000 Y42.0000
G01 Z-16.0000
G01 X43.0000
G01 X42.8000 Z0.5000
G01 X36.8000
G01 X36.6000 Z-16.0000
G01 X32.2000
G00 Z5.0000
G00 X-6.0000 Y44.6000
G01 Z-16.0000
G01 X16.8000
G01 X17.0000 Z0.5000
G01 X23.2000
G01 X23.4000 Z-16.0000
G01 X36.2000
G01 X36.4000 Z0.5000
G01 X42.6000
G01 X42.8000 Z-16.0000
G01 X89.8000
G00 Z5.0000
G00 X-4.0000 Y47.2000
G01 Z-16.0000
G01 X17.6000
G01 X17.8000 Z0.5000
G01 X25.0000
G01 X25.2000 Z-16.0000
G01 X34.6000
G01 X34.8000 Z0.5000
G01 X41.8000
G01 X42.0000 Z-16.0000
G01 X142.0000
G01 X142.2000 Z0.5000
G01 X149.4000
G01 X149.6000 Z-16.0000
G01 X159.0000
G01 X159.2000 Z0.5000
G01 X166.2000
G01 X166.4000 Z-16.0000
G01 X188.0000
G01 X190.0000 Y44.6000
G01 X167.2000
G01 X167.0000 Z0.5000
G01 X160.8000
G01 X160.6000 Z-16.0000
G01 X147.8000
G01 X147.6000 Z0.5000
G01 X141.4000
G01 X141.2000 Z-16.0000
G01 X94.2000
G01 Z0.0000
G01 X95.4000 Y42.0000
G01 Z-16.0000
G01 X141.0000
G01 X141.2000 Z0.5000
G01 X147.2000
G01 X147.4000 Z-16.0000
G01 X151.8000
G00 Z5.0000
G00 X190.6000 Y39.4000
G01 Z-16.0000
G01 X167.0000
G01 X166.8000 Z0.5000
G01 X160.6000
G01 X160.4000 Z-16.0000
G01 X148.0000
G01 X147.8000 Z0.5000
G01 X141.6000
G01 X141.4000 Z-16.0000
G01 X94.2000
G00 Z5.0000
G00 X143.8000 Y34.2000
G01 Z-16.0000
G01 X40.2000
G01 Z1.0000
G01 X27.4000 Y42.0000
G01 Z-16.0000
G01 X23.0000
G01 X22.8000 Z0.5000
G01 X16.8000
G01 X16.6000 Z-16.0000
G01 X-6.6000
G01 Z0.5000
G01 X3.6000 Y49.8000
G01 Z-16.0000
G01 X19.0000
G01 X21.6000 Y52.4000
G01 X4.2000
G01 Z0.0000
G01 X5.2000 Y55.0000
G01 Z-16.0000
G01 X26.4000
G01 X26.6000 Z0.5000
G01 X32.8000
G01 X33.0000 Z-16.0000
G01 X150.8000
G01 X151.0000 Z0.5000
G01 X157.2000
G01 X157.4000 Z-16.0000
G01 X178.8000
G01 Z0.0000
G01 X179.8000 Y52.4000
G01 Z-16.0000
G01 X162.6000
G01 X165.0000 Y49.8000
G01 X180.4000
G01 Z0.5000
G01 X190.6000 Y42.0000
G01 Z-16.0000
G01 X167.4000
G01 X167.2000 Z0.5000
G01 X161.2000
G01 X161.0000 Z-16.0000
G01 X156.6000
G01 Z1.0000
G01 X146.0000 Y52.4000
G01 Z-16.0000
G01 X38.2000
G01 X40.6000 Y49.8000
G01 X143.4000
G00 Z5.0000
G00 X178.0000 Y57.6000
G01 Z-16.0000
G01 X6.2000
G01 X7.4000 Y60.2000
G01 X176.8000
G01 Z0.0000
G01 X175.4000 Y62.8000
G01 Z-16.0000
G01 X8.8000
G01 X10.4000 Y65.4000
G01 X173.8000
G01 X172.0000 Y68.0000
G01 X12.0000
G01 Z0.0000
G01 X14.0000 Y70.6000
G01 Z-16.0000
G01 X170.0000
G01 X167.8000 Y73.2000
G01 X16.2000
G01 X18.8000 Y75.8000
G01 X165.2000
G01 X162.4000 Y78.4000
G01 X21.6000
G01 Z0.0000
G01 X25.0000 Y81.0000
G01 Z-16.0000
G01 X159.0000
G01 Z0.0000
G01 X154.8000 Y83.6000
G01 Z-16.0000
G01 X29.2000
G01 Z0.5000
G01 X34.6000 Y86.2000
G01 Z-16.0000
G01 X149.6000
G01 Z0.5000
G01 X142.0000 Y88.8000
G01 Z-16.0000
G01 X42.0000
G00 Z5.0000
G00 X-4.4000 Y-4.8000
G01 Z-17.0000
G01 X188.4000
G01 X190.2000 Y-2.2000
G01 X-6.2000
G01 X-6.6000 Y0.4000
G01 X190.6000
G01 Y3.0000
G01 X-6.6000
G01 Y5.6000
G01 X190.6000
G01 Y8.2000
G01 X-6.6000
G01 Y10.8000
G01 X190.6000
G01 Y13.4000
G01 X-6.6000
G01 Y16.0000
G01 X190.6000
G01 Y18.6000
G01 X-6.6000
G01 Y21.2000
G01 X190.6000
G01 Y23.8000
G01 X-6.6000
G01 Y26.4000
G01 X190.6000
G01 Y29.0000
G01 X-6.6000
G01 Y31.6000
G01 X22.2000
G01 X22.4000 Z0.5000
G01 X37.2000
G01 X37.4000 Z-17.0000
G01 X146.6000
G01 X146.8000 Z0.5000
G01 X161.6000
G01 X161.8000 Z-17.0000
G01 X190.6000
G01 Y34.2000
G01 X164.6000
G00 Z5.0000
G00 X190.6000 Y36.8000
G01 Z-17.0000
G01 X166.2000
G01 X166.0000 Z0.5000
G01 X158.4000
G01 X158.2000 Z-17.0000
G01 X150.2000
G01 X150.0000 Z0.5000
G01 X142.4000
G01 X142.2000 Z-17.0000
G01 X41.8000
G01 X41.6000 Z0.5000
G01 X34.0000
G01 X33.8000 Z-17.0000
G01 X25.8000
G01 X25.6000 Z0.5000
G01 X18.0000
G01 X17.8000 Z-17.0000
G01 X-6.6000
G01 Y34.2000
G01 X19.4000
G00 Z5.0000
G00 X-6.6000 Y39.4000
G01 Z-17.0000
G01 X17.0000
G01 X17.2000 Z0.5000
G01 X23.4000
G01 X23.6000 Z-17.0000
G01 X36.0000
G01 X36.2000 Z0.5000
G01 X42.4000
G01 X42.6000 Z-17.0000
G01 X89.8000
G01 Z0.0000
G01 X88.6000 Y42.0000
G01 Z-17.0000
G01 X43.0000
G01 X42.8000 Z0.5000
G01 X36.8000
G01 X36.6000 Z-17.0000
G01 X32.2000
G00 Z5.0000
G00 X-6.0000 Y44.6000
G01 Z-17.0000
G01 X16.8000
G01 X17.0000 Z0.5000
G01 X23.2000
G01 X23.4000 Z-17.0000
G01 X36.2000
G01 X36.4000 Z0.5000
G01 X42.6000
G01 X42.8000 Z-17.0000
G01 X89.8000
G00 Z5.0000
G00 X-4.0000 Y47.2000
G01 Z-17.0000
G01 X17.6000
G01 X17.8000 Z0.5000
G01 X25.0000
G01 X25.2000 Z-17.0000
G01 X34.6000
G01 X34.8000 Z0.5000
G01 X41.8000
G01 X42.0000 Z-17.0000
G01 X142.0000
G01 X142.2000 Z0.5000
G01 X149.4000
G01 X149.6000 Z-17.0000
G01 X159.0000
G01 X159.2000 Z0.5000
G01 X166.2000
G01 X166.4000 Z-17.0000
G01 X188.0000
G01 X190.0000 Y44.6000
G01 X167.2000
G01 X167.0000 Z0.5000
G01 X160.8000
G01 X160.6000 Z-17.0000
G01 X147.8000
G01 X147.6000 Z0.5000
G01 X141.4000
G01 X141.2000 Z-17.0000
G01 X94.2000
G01 Z0.0000
G01 X95.4000 Y42.0000
G01 Z-17.0000
G01 X141.0000
G01 X141.2000 Z0.5000
G01 X147.2000
G01 X147.4000 Z-17.0000
G01 X151.8000
G00 Z5.0000
G00 X190.6000 Y39.4000
G01 Z-17.0000
G01 X167.0000
G01 X166.8000 Z0.5000
G01 X160.6000
G01 X160.4000 Z-17.0000
G01 X148.0000
G01 X147.8000 Z0.5000
G01 X141.6000
G01 X141.4000 Z-17.0000
G01 X94.2000
G00 Z5.0000
G00 X143.8000 Y34.2000
G01 Z-17.0000
G01 X40.2000
G01 Z1.0000
G01 X27.4000 Y42.0000
G01 Z-17.0000
G01 X23.0000
G01 X22.8000 Z0.5000
G01 X16.8000
G01 X16.6000 Z-17.0000
G01 X-6.6000
G01 Z0.5000
G01 X3.6000 Y49.8000
G01 Z-17.0000
G01 X19.0000
G01 X21.6000 Y52.4000
G01 X4.2000
G01 Z0.0000
G01 X5.2000 Y55.0000
G01 Z-17.0000
G01 X26.4000
G01 X26.6000 Z0.5000
G01 X32.8000
G01 X33.0000 Z-17.0000
G01 X150.8000
G01 X151.0000 Z0.5000
G01 X157.2000
G01 X157.4000 Z-17.0000
G01 X178.8000
G01 Z0.0000
G01 X179.8000 Y52.4000
G01 Z-17.0000
G01 X162.6000
G01 X165.0000 Y49.8000
G01 X180.4000
G01 Z0.5000
G01 X190.6000 Y42.0000
G01 Z-17.0000
G01 X167.4000
G01 X167.2000 Z0.5000
G01 X161.2000
G01 X161.0000 Z-17.0000
G01 X156.6000
G01 Z1.0000
G01 X146.0000 Y52.4000
G01 Z-17.0000
G01 X38.2000
G01 X40.6000 Y49.8000
G01 X143.4000
G00 Z5.0000
G00 X178.0000 Y57.6000
G01 Z-17.0000
G01 X6.2000
G01 X7.4000 Y60.2000
G01 X176.8000
G01 Z0.0000
G01 X175.4000 Y62.8000
G01 Z-17.0000
G01 X8.8000
G01 X10.4000 Y65.4000
G01 X173.8000
G01 X172.0000 Y68.0000
G01 X12.0000
G01 Z0.0000
G01 X14.0000 Y70.6000
G01 Z-17.0000
G01 X170.0000
G01 X167.8000 Y73.2000
G01 X16.2000
G01 X18.8000 Y75.8000
G01 X165.2000
G01 Z0.0000
G01 X162.4000 Y78.4000
G01 Z-17.0000
G01 X21.6000
G01 Z0.0000
G01 X25.0000 Y81.0000
G01 Z-17.0000
G01 X159.0000
G01 Z0.0000
G01 X154.8000 Y83.6000
G01 Z-17.0000
G01 X29.2000
G01 Z0.5000
G01 X34.6000 Y86.2000
G01 Z-17.0000
G01 X149.6000
G01 Z0.5000
G01 X142.0000 Y88.8000
G01 Z-17.0000
G01 X42.0000
G00 Z5.0000
G00 X-4.4000 Y-4.8000
G01 Z-18.0000
G01 X188.4000
G01 X190.2000 Y-2.2000
G01 X-6.2000
G01 X-6.6000 Y0.4000
G01 X190.6000
G01 Y3.0000
G01 X-6.6000
G01 Y5.6000
G01 X190.6000
G01 Y8.2000
G01 X-6.6000
G01 Y10.8000
G01 X190.6000
G01 Y13.4000
G01 X-6.6000
G01 Y16.0000
G01 X190.6000
G01 Y18.6000
G01 X-6.6000
G01 Y21.2000
G01 X190.6000
G01 Y23.8000
G01 X-6.6000
G01 Y26.4000
G01 X190.6000
G01 Y29.0000
G01 X-6.6000
G01 Y31.6000
G01 X22.2000
G01 X22.4000 Z0.5000
G01 X37.2000
G01 X37.4000 Z-18.0000
G01 X146.6000
G01 X146.8000 Z0.5000
G01 X161.6000
G01 X161.8000 Z-18.0000
G01 X190.6000
G01 Y34.2000
G01 X164.6000
G00 Z5.0000
G00 X190.6000 Y36.8000
G01 Z-18.0000
G01 X166.2000
G01 X166.0000 Z0.5000
G01 X158.4000
G01 X158.2000 Z-18.0000
G01 X150.2000
G01 X150.0000 Z0.5000
G01 X142.4000
G01 X142.2000 Z-18.0000
G01 X41.8000
G01 X41.6000 Z0.5000
G01 X34.0000
G01 X33.8000 Z-18.0000
G01 X25.8000
G01 X25.6000 Z0.5000
G01 X18.0000
G01 X17.8000 Z-18.0000
G01 X-6.6000
G01 Y34.2000
G01 X19.4000
G00 Z5.0000
G00 X-6.6000 Y39.4000
G01 Z-18.0000
G01 X17.0000
G01 X17.2000 Z0.5000
G01 X23.4000
G01 X23.6000 Z-18.0000
G01 X36.0000
G01 X36.2000 Z0.5000
G01 X42.4000
G01 X42.6000 Z-18.0000
G01 X89.8000
G01 Z0.0000
G01 X88.6000 Y42.0000
G01 Z-18.0000
G01 X43.0000
G01 X42.8000 Z0.5000
G01 X36.8000
G01 X36.6000 Z-18.0000
G01 X32.2000
G00 Z5.0000
G00 X-6.0000 Y44.6000
G01 Z-18.0000
G01 X16.8000
G01 X17.0000 Z0.5000
G01 X23.2000
G01 X23.4000 Z-18.0000
G01 X36.2000
G01 X36.4000 Z0.5000
G01 X42.6000
G01 X42.8000 Z-18.0000
G01 X89.8000
G00 Z5.0000
G00 X-4.0000 Y47.2000
G01 Z-18.0000
G01 X17.6000
G01 X17.8000 Z0.5000
G01 X25.0000
G01 X25.2000 Z-18.0000
G01 X34.6000
G01 X34.8000 Z0.5000
G01 X41.8000
G01 X42.0000 Z-18.0000
G01 X142.0000
G01 X142.2000 Z0.5000
G01 X149.4000
G01 X149.6000 Z-18.0000
G01 X159.0000
G01 X159.2000 Z0.5000
G01 X166.2000
G01 X166.4000 Z-18.0000
G01 X188.0000
G01 X190.0000 Y44.6000
G01 X167.2000
G01 X167.0000 Z0.5000
G01 X160.8000
G01 X160.6000 Z-18.0000
G01 X147.8000
G01 X147.6000 Z0.5000
G01 X141.4000
G01 X141.2000 Z-18.0000
G01 X94.2000
G01 Z0.0000
G01 X95.4000 Y42.0000
G01 Z-18.0000
G01 X141.0000
G01 X141.2000 Z0.5000
G01 X147.2000
G01 X147.4000 Z-18.0000
G01 X151.8000
G00 Z5.0000
G00 X190.6000 Y39.4000
G01 Z-18.0000
G01 X167.0000
G01 X166.8000 Z0.5000
G01 X160.6000
G01 X160.4000 Z-18.0000
G01 X148.0000
G01 X147.8000 Z0.5000
G01 X141.6000
G01 X141.4000 Z-18.0000
G01 X94.2000
G00 Z5.0000
G00 X143.8000 Y34.2000
G01 Z-18.0000
G01 X40.2000
G01 Z1.0000
G01 X27.4000 Y42.0000
G01 Z-18.0000
G01 X23.0000
G01 X22.8000 Z0.5000
G01 X16.8000
G01 X16.6000 Z-18.0000
G01 X-6.6000
G01 Z0.5000
G01 X3.6000 Y49.8000
G01 Z-18.0000
G01 X19.0000
G01 X21.6000 Y52.4000
G01 X4.2000
G01 Z0.0000
G01 X5.2000 Y55.0000
G01 Z-18.0000
G01 X26.4000
G01 X26.6000 Z0.5000
G01 X32.8000
G01 X33.0000 Z-18.0000
G01 X150.8000
G01 X151.0000 Z0.5000
G01 X157.2000
G01 X157.4000 Z-18.0000
G01 X178.8000
G01 Z0.0000
G01 X179.8000 Y52.4000
G01 Z-18.0000
G01 X162.6000
G01 X165.0000 Y49.8000
G01 X180.4000
G01 Z0.5000
G01 X190.6000 Y42.0000
G01 Z-18.0000
G01 X167.4000
G01 X167.2000 Z0.5000
G01 X161.2000
G01 X161.0000 Z-18.0000
G01 X156.6000
G01 Z1.0000
G01 X146.0000 Y52.4000
G01 Z-18.0000
G01 X38.2000
G01 X40.6000 Y49.8000
G01 X143.4000
G00 Z5.0000
G00 X178.0000 Y57.6000
G01 Z-18.0000
G01 X6.2000
G01 X7.4000 Y60.2000
G01 X176.8000
G01 Z0.0000
G01 X175.4000 Y62.8000
G01 Z-18.0000
G01 X8.8000
G01 X10.4000 Y65.4000
G01 X173.8000
G01 X172.0000 Y68.0000
G01 X12.0000
G01 Z0.0000
G01 X14.0000 Y70.6000
G01 Z-18.0000
G01 X170.0000
G01 X167.8000 Y73.2000
G01 X16.2000
G01 X18.8000 Y75.8000
G01 X165.2000
G01 Z0.0000
G01 X162.4000 Y78.4000
G01 Z-18.0000
G01 X21.6000
G01 Z0.0000
G01 X25.0000 Y81.0000
G01 Z-18.0000
G01 X159.0000
G01 Z0.0000
G01 X154.8000 Y83.6000
G01 Z-18.0000
G01 X29.2000
G01 Z0.5000
G01 X34.6000 Y86.2000
G01 Z-18.0000
G01 X149.6000
G01 Z0.5000
G01 X142.0000 Y88.8000
G01 Z-18.0000
G01 X42.0000
G00 Z5.0000
G00 X-4.4000 Y-4.8000
G01 Z-19.0000
G01 X188.4000
G01 X190.2000 Y-2.2000
G01 X-6.2000
G01 X-6.6000 Y0.4000
G01 X190.6000
G01 Y3.0000
G01 X-6.6000
G01 Y5.6000
G01 X190.6000
G01 Y8.2000
G01 X-6.6000
G01 Y10.8000
G01 X190.6000
G01 Y13.4000
G01 X-6.6000
G01 Y16.0000
G01 X190.6000
G01 Y18.6000
G01 X-6.6000
G01 Y21.2000
G01 X190.6000
G01 Y23.8000
G01 X-6.6000
G01 Y26.4000
G01 X190.6000
G01 Y29.0000
G01 X-6.6000
G01 Y31.6000
G01 X22.2000
G01 X22.4000 Z0.5000
G01 X37.2000
G01 X37.4000 Z-19.0000
G01 X146.6000
G01 X146.8000 Z0.5000
G01 X161.6000
G01 X161.8000 Z-19.0000
G01 X190.6000
G01 Y34.2000
G01 X164.6000
G00 Z5.0000
G00 X190.6000 Y36.8000
G01 Z-19.0000
G01 X166.2000
G01 X166.0000 Z0.5000
G01 X158.4000
G01 X158.2000 Z-19.0000
G01 X150.2000
G01 X150.0000 Z0.5000
G01 X142.4000
G01 X142.2000 Z-19.0000
G01 X41.8000
G01 X41.6000 Z0.5000
G01 X34.0000
G01 X33.8000 Z-19.0000
G01 X25.8000
G01 X25.6000 Z0.5000
G01 X18.0000
G01 X17.8000 Z-19.0000
G01 X-6.6000
G01 Y34.2000
G01 X19.4000
G00 Z5.0000
G00 X-6.6000 Y39.4000
G01 Z-19.0000
G01 X17.0000
G01 X17.2000 Z0.5000
G01 X23.4000
G01 X23.6000 Z-19.0000
G01 X36.0000
G01 X36.2000 Z0.5000
G01 X42.4000
G01 X42.6000 Z-19.0000
G01 X89.8000
G01 Z0.0000
G01 X88.6000 Y42.0000
G01 Z-19.0000
G01 X43.0000
G01 X42.8000 Z0.5000
G01 X36.8000
G01 X36.6000 Z-19.0000
G01 X32.2000
G00 Z5.0000
G00 X-6.0000 Y44.6000
G01 Z-19.0000
G01 X16.8000
G01 X17.0000 Z0.5000
G01 X23.2000
G01 X23.4000 Z-19.0000
G01 X36.2000
G01 X36.4000 Z0.5000
G01 X42.6000
G01 X42.8000 Z-19.0000
G01 X89.8000
G00 Z5.0000
G00 X-4.0000 Y47.2000
G01 Z-19.0000
G01 X17.6000
G01 X17.8000 Z0.5000
G01 X25.0000
G01 X25.2000 Z-19.0000
G01 X34.6000
G01 X34.8000 Z0.5000
G01 X41.8000
G01 X42.0000 Z-19.0000
G01 X142.0000
G01 X142.2000 Z0.5000
G01 X149.4000
G01 X149.6000 Z-19.0000
G01 X159.0000
G01 X159.2000 Z0.5000
G01 X166.2000
G01 X166.4000 Z-19.0000
G01 X188.0000
G01 X190.0000 Y44.6000
G01 X167.2000
G01 X167.0000 Z0.5000
G01 X160.8000
G01 X160.6000 Z-19.0000
G01 X147.8000
G01 X147.6000 Z0.5000
G01 X141.4000
G01 X141.2000 Z-19.0000
G01 X94.2000
G01 Z0.0000
G01 X95.4000 Y42.0000
G01 Z-19.0000
G01 X141.0000
G01 X141.2000 Z0.5000
G01 X147.2000
G01 X147.4000 Z-19.0000
G01 X151.8000
G00 Z5.0000
G00 X190.6000 Y39.4000
G01 Z-19.0000
G01 X167.0000
G01 X166.8000 Z0.5000
G01 X160.6000
G01 X160.4000 Z-19.0000
G01 X148.0000
G01 X147.8000 Z0.5000
G01 X141.6000
G01 X141.4000 Z-19.0000
G01 X94.2000
G00 Z5.0000
G00 X143.8000 Y34.2000
G01 Z-19.0000
G01 X40.2000
G01 Z1.0000
G01 X27.4000 Y42.0000
G01 Z-19.0000
G01 X23.0000
G01 X22.8000 Z0.5000
G01 X16.8000
G01 X16.6000 Z-19.0000
G01 X-6.6000
G01 Z0.5000
G01 X3.6000 Y49.8000
G01 Z-19.0000
G01 X19.0000
G01 X21.6000 Y52.4000
G01 X4.2000
G01 Z0.0000
G01 X5.2000 Y55.0000
G01 Z-19.0000
G01 X26.4000
G01 X26.6000 Z0.5000
G01 X32.8000
G01 X33.0000 Z-19.0000
G01 X150.8000
G01 X151.0000 Z0.5000
G01 X157.2000
G01 X157.4000 Z-19.0000
G01 X178.8000
G01 Z0.0000
G01 X179.8000 Y52.4000
G01 Z-19.0000
G01 X162.6000
G01 X165.0000 Y49.8000
G01 X180.4000
G01 Z0.5000
G01 X190.6000 Y42.0000
G01 Z-19.0000
G01 X167.4000
G01 X167.2000 Z0.5000
G01 X161.2000
G01 X161.0000 Z-19.0000
G01 X156.6000
G01 Z1.0000
G01 X146.0000 Y52.4000
G01 Z-19.0000
G01 X38.2000
G01 X40.6000 Y49.8000
G01 X143.4000
G00 Z5.0000
G00 X178.0000 Y57.6000
G01 Z-19.0000
G01 X6.2000
G01 X7.4000 Y60.2000
G01 X176.8000
G01 Z0.0000
G01 X175.4000 Y62.8000
G01 Z-19.0000
G01 X8.8000
G01 X10.4000 Y65.4000
G01 X173.8000
G01 X172.0000 Y68.0000
G01 X12.0000
G01 Z0.0000
G01 X14.0000 Y70.6000
G01 Z-19.0000
G01 X170.0000
G01 X167.8000 Y73.2000
G01 X16.2000
G01 X18.8000 Y75.8000
G01 X165.2000
G01 X162.4000 Y78.4000
G01 X21.6000
G01 Z0.0000
G01 X25.0000 Y81.0000
G01 Z-19.0000
G01 X159.0000
G01 Z0.0000
G01 X154.8000 Y83.6000
G01 Z-19.0000
G01 X29.2000
G01 Z0.5000
G01 X34.6000 Y86.2000
G01 Z-19.0000
G01 X149.6000
G01 Z0.5000
G01 X142.0000 Y88.8000
G01 Z-19.0000
G01 X42.0000
G00 Z5.0000
G00 X-4.4000 Y-4.8000
G01 Z-20.0000
G01 X188.4000
G01 X190.2000 Y-2.2000
G01 X-6.2000
G01 X-6.6000 Y0.4000
G01 X-2.2000
G01 X-2.0000 Z-19.5000
G01 X186.0000
G01 X186.2000 Z-20.0000
G01 X190.6000
G01 Y3.0000
G01 X186.2000
G01 X186.0000 Z-19.5000
G01 X-2.0000
G01 X-2.2000 Z-20.0000
G01 X-6.6000
G01 Y5.6000
G01 X-2.2000
G01 X-2.0000 Z-19.5000
G01 X186.0000
G01 X186.2000 Z-20.0000
G01 X190.6000
G01 Y8.2000
G01 X186.2000
G01 X186.0000 Z-19.5000
G01 X-2.0000
G01 X-2.2000 Z-20.0000
G01 X-6.6000
G01 Y10.8000
G01 X-2.2000
G01 X-2.0000 Z-19.5000
G01 X186.0000
G01 X186.2000 Z-20.0000
G01 X190.6000
G01 Y13.4000
G01 X186.2000
G01 X186.0000 Z-19.5000
G01 X-2.0000
G01 X-2.2000 Z-20.0000
G01 X-6.6000
G01 Y16.0000
G01 X-2.2000
G01 X-2.0000 Z-19.5000
G01 X186.0000
G01 X186.2000 Z-20.0000
G01 X190.6000
G01 Y18.6000
G01 X186.2000
G01 X186.0000 Z-19.5000
G01 X-2.0000
G01 X-2.2000 Z-20.0000
G01 X-6.6000
G01 Y21.2000
G01 X-2.2000
G01 X-2.0000 Z-19.5000
G01 X4.0000
G01 X4.2000 Z-20.0000
G01 X5.8000
G01 X6.0000 Z-19.5000
G01 X178.0000
G01 X178.2000 Z-20.0000
G01 X186.0000 Z-19.5000
G01 X186.2000 Z-20.0000
G01 X190.6000
G01 Y23.8000
G01 X186.2000
G01 X186.0000 Z-19.5000
G01 X-2.0000
G01 X-2.2000 Z-20.0000
G01 X-6.6000
G01 Y26.4000
G01 X-2.2000
G01 X-2.0000 Z-19.5000
G01 X186.0000
G01 X186.2000 Z-20.0000
G01 X190.6000
G01 Y29.0000
G01 X186.2000
G01 X186.0000 Z-19.5000
G01 X-2.0000
G01 X-2.2000 Z-20.0000
G01 X-6.6000
G01 Y31.6000
G01 X-2.2000
G01 X-2.0000 Z-19.5000
G01 X22.2000
G01 X22.4000 Z0.5000
G01 X37.2000
G01 X37.4000 Z-19.5000
G01 X146.6000
G01 X146.8000 Z0.5000
G01 X161.6000
G01 X161.8000 Z-19.5000
G01 X186.0000
G01 X186.2000 Z-20.0000
G01 X190.6000
G01 Y34.2000
G01 X186.2000
G01 X186.0000 Z-19.5000
G01 X164.6000
G00 Z5.0000
G00 X190.6000 Y36.8000
G01 Z-20.0000
G01 X186.2000
G01 X186.0000 Z-19.5000
G01 X166.2000
G01 X166.0000 Z0.5000
G01 X158.4000
G01 X158.2000 Z-20.0000
G01 X150.2000
G01 X150.0000 Z0.5000
G01 X142.4000
G01 X142.2000 Z-19.5000
G01 X86.2000 Z-20.0000
G01 X86.0000 Z-19.5000
G01 X41.8000
G01 X41.6000 Z0.5000
G01 X34.0000
G01 X33.8000 Z-20.0000
G01 X25.8000
G01 X25.6000 Z0.5000
G01 X18.0000
G01 X17.8000 Z-19.5000
G01 X-2.0000
G01 X-2.2000 Z-20.0000
G01 X-6.6000
G01 Y34.2000
G01 X-2.2000
G01 X-2.0000 Z-19.5000
G01 X19.4000
G00 Z5.0000
G00 X-6.6000 Y39.4000
G01 Z-20.0000
G01 X-2.2000
G01 X-2.0000 Z-19.5000
G01 X17.0000
G01 X17.2000 Z0.5000
G01 X23.4000
G01 X23.6000 Z-20.0000
G01 X36.0000
G01 X36.2000 Z0.5000
G01 X42.4000
G01 X42.6000 Z-19.5000
G01 X84.4000
G01 X84.6000 Z-20.0000
G01 X89.8000
G01 Z0.0000
G01 X88.6000 Y42.0000
G01 Z-20.0000
G01 X84.2000
G01 X84.0000 Z-19.5000
G01 X43.0000
G01 X42.8000 Z0.5000
G01 X36.8000
G01 X36.6000 Z-20.0000
G01 X32.2000
G00 Z5.0000
G00 X-6.0000 Y44.6000
G01 Z-20.0000
G01 X16.8000 Z-19.5000
G01 X17.0000 Z0.5000
G01 X23.2000
G01 X23.4000 Z-20.0000
G01 X36.2000
G01 X36.4000 Z0.5000
G01 X42.6000
G01 X42.8000 Z-19.5000
G01 X84.4000
G01 X84.6000 Z-20.0000
G01 X89.8000
G00 Z5.0000
G00 X-4.0000 Y47.2000
G01 Z-20.0000
G01 X17.6000 Z-19.5000
G01 X17.8000 Z0.5000
G01 X25.0000
G01 X25.2000 Z-20.0000
G01 X34.6000
G01 X34.8000 Z0.5000
G01 X41.8000
G01 X42.0000 Z-19.5000
G01 X86.0000
G01 X86.2000 Z-20.0000
G01 X142.0000 Z-19.5000
G01 X142.2000 Z0.5000
G01 X149.4000
G01 X149.6000 Z-20.0000
G01 X159.0000
G01 X159.2000 Z0.5000
G01 X166.2000
G01 X166.4000 Z-19.5000
G01 X188.0000 Z-20.0000
G01 X190.0000 Y44.6000
G01 X167.2000 Z-19.5000
G01 X167.0000 Z0.5000
G01 X160.8000
G01 X160.6000 Z-20.0000
G01 X147.8000
G01 X147.6000 Z0.5000
G01 X141.4000
G01 X141.2000 Z-19.5000
G01 X99.6000
G01 X99.4000 Z-20.0000
G01 X94.2000
G01 Z0.0000
G01 X95.4000 Y42.0000
G01 Z-20.0000
G01 X99.8000
G01 X100.0000 Z-19.5000
G01 X141.0000
G01 X141.2000 Z0.5000
G01 X147.2000
G01 X147.4000 Z-20.0000
G01 X151.8000
G00 Z5.0000
G00 X190.6000 Y39.4000
G01 Z-20.0000
G01 X186.2000
G01 X186.0000 Z-19.5000
G01 X167.0000
G01 X166.8000 Z0.5000
G01 X160.6000
G01 X160.4000 Z-20.0000
G01 X148.0000
G01 X147.8000 Z0.5000
G01 X141.6000
G01 X141.4000 Z-19.5000
G01 X99.6000
G01 X99.4000 Z-20.0000
G01 X94.2000
G00 Z5.0000
G00 X143.8000 Y34.2000
G01 Z-19.5000
G01 X92.8000
G01 X91.6000 Z-20.0000
G01 X91.4000 Z-19.5000
G01 X40.2000
G01 Z1.0000
G01 X27.4000 Y42.0000
G01 Z-20.0000
G01 X23.0000
G01 X22.8000 Z0.5000
G01 X16.8000
G01 X16.6000 Z-19.5000
G01 X-2.0000
G01 X-2.2000 Z-20.0000
G01 X-6.6000
G01 Z0.5000
G01 X3.6000 Y49.8000
G01 Z-20.0000
G01 X19.0000 Z-19.5000
G01 X21.6000 Y52.4000
G01 X4.2000 Z-20.0000
G01 Z0.0000
G01 X5.2000 Y55.0000
G01 Z-20.0000
G01 X26.4000 Z-19.5000
G01 X26.6000 Z0.5000
G01 X32.8000
G01 X33.0000 Z-19.5000
G01 X150.8000
G01 X151.0000 Z0.5000
G01 X157.2000
G01 X157.4000 Z-19.5000
G01 X178.8000 Z-20.0000
G01 X179.8000 Y52.4000
G01 X162.6000 Z-19.5000
G01 X165.0000 Y49.8000
G01 X180.4000 Z-20.0000
G01 Z0.5000
G01 X190.6000 Y42.0000
G01 Z-20.0000
G01 X186.2000
G01 X186.0000 Z-19.5000
G01 X167.4000
G01 X167.2000 Z0.5000
G01 X161.2000
G01 X161.0000 Z-20.0000
G01 X156.6000
G01 Z1.0000
G01 X146.0000 Y52.4000
G01 Z-19.5000
G01 X38.2000
G01 X40.6000 Y49.8000
G01 X91.4000
G01 X91.6000 Z-20.0000
G01 X92.8000 Z-19.5000
G01 X143.4000
G00 Z5.0000
G00 X178.0000 Y57.6000
G01 Z-20.0000
G01 X173.0000
G01 X172.8000 Z-19.5000
G01 X11.2000
G01 X11.0000 Z-20.0000
G01 X6.2000
G01 X7.4000 Y60.2000
G01 X12.4000
G01 X12.6000 Z-19.5000
G01 X171.4000
G01 X171.6000 Z-20.0000
G01 X176.8000
G01 Z0.0000
G01 X175.4000 Y62.8000
G01 Z-20.0000
G01 X170.2000
G01 X170.0000 Z-19.5000
G01 X14.0000
G01 X13.8000 Z-20.0000
G01 X8.8000
G01 X10.4000 Y65.4000
G01 X15.6000
G01 X15.8000 Z-19.5000
G01 X168.2000
G01 X168.4000 Z-20.0000
G01 X173.8000
G01 X172.0000 Y68.0000
G01 X166.4000
G01 X166.2000 Z-19.5000
G01 X17.8000
G01 X17.6000 Z-20.0000
G01 X12.0000
G01 Z0.0000
G01 X14.0000 Y70.6000
G01 Z-20.0000
G01 X19.8000
G01 X20.0000 Z-19.5000
G01 X164.0000
G01 X164.2000 Z-20.0000
G01 X170.0000
G01 X167.8000 Y73.2000
G01 X161.6000
G01 X161.4000 Z-19.5000
G01 X22.6000
G01 X22.4000 Z-20.0000
G01 X16.2000
G01 X18.8000 Y75.8000
G01 X25.4000
G01 X25.6000 Z-19.5000
G01 X158.4000
G01 X158.6000 Z-20.0000
G01 X165.2000
G01 Z0.0000
G01 X162.4000 Y78.4000
G01 Z-20.0000
G01 X154.8000
G01 X154.6000 Z-19.5000
G01 X29.4000
G01 X29.2000 Z-20.0000
G01 X21.6000
G01 Z0.0000
G01 X25.0000 Y81.0000
G01 Z-20.0000
G01 X34.0000
G01 X34.2000 Z-19.5000
G01 X149.8000
G01 X150.0000 Z-20.0000
G01 X159.0000
G01 Z0.0000
G01 X154.8000 Y83.6000
G01 Z-20.0000
G01 X143.6000
G01 X143.4000 Z-19.5000
G01 X40.6000
G01 X40.4000 Z-20.0000
G01 X29.2000
G01 Z0.5000
G01 X34.6000 Y86.2000
G01 Z-20.0000
G01 X149.6000
G01 Z0.5000
G01 X142.0000 Y88.8000
G01 Z-20.0000
G01 X42.0000
G00 Z5.0000
G00 X-4.4000 Y-4.8000
G01 Z-21.0000
G01 X188.4000
G01 X190.2000 Y-2.2000
G01 X-6.2000
G01 X-6.6000 Y0.4000
G01 X-2.2000
G01 Y3.0000
G01 X-6.6000
G01 Y5.6000
G01 X-2.2000
G01 Y8.2000
G01 X-6.6000
G01 Y10.8000
G01 X-2.2000
G01 Y13.4000
G01 X-6.6000
G01 Y16.0000
G01 X-2.2000
G01 Y18.6000
G01 X-6.6000
G01 Y21.2000
G01 X-2.2000
G01 X-2.0000 Z-19.5000
G01 X4.0000
G01 X4.2000 Z-21.0000
G01 X5.8000
G01 Z-19.0000
G01 X-2.2000 Y23.8000
G01 Z-21.0000
G01 X-6.6000
G01 Y26.4000
G01 X-2.2000
G01 Y29.0000
G01 X-6.6000
G01 Y31.6000
G01 X-2.2000
G01 Y34.2000
G01 X-6.6000
G01 Y36.8000
G01 X-2.2000
G01 Y39.4000
G01 X-6.6000
G01 Y42.0000
G01 X-2.2000
G01 X-6.0000 Y44.6000
G01 X6.4000
G01 X7.6000 Y47.2000
G01 X-4.0000
G01 Z0.5000
G01 X3.6000 Y49.8000
G01 Z-21.0000
G01 X8.2000
G01 X9.0000 Y52.4000
G01 X4.2000
G01 Z0.0000
G01 X5.2000 Y55.0000
G01 Z-21.0000
G01 X9.8000
G01 X11.0000 Y57.6000
G01 X6.2000
G01 X7.4000 Y60.2000
G01 X12.4000
G01 X13.8000 Y62.8000
G01 X8.8000
G01 X10.4000 Y65.4000
G01 X15.6000
G01 X17.6000 Y68.0000
G01 X12.0000
G01 X14.0000 Y70.6000
G01 X19.8000
G01 X22.4000 Y73.2000
G01 X16.2000
G01 X18.8000 Y75.8000
G01 X25.4000
G01 X21.6000 Y78.4000
G01 X29.2000
G01 X25.0000 Y81.0000
G01 X34.0000
G01 Z-20.5000
G01 X29.2000 Y83.6000
G01 Z-21.0000
G01 X40.4000
G01 Z-20.5000
G01 X34.6000 Y86.2000
G01 Z-21.0000
G01 X149.6000
G01 Z0.5000
G01 X154.8000 Y83.6000
G01 Z-21.0000
G01 X143.6000
G01 Z-20.5000
G01 X142.0000 Y88.8000
G01 Z-21.0000
G01 X42.0000
G00 Z5.0000
G00 X34.6000 Y47.2000
G01 Z-21.0000
G01 X25.2000
G01 X23.4000 Y44.6000
G01 X36.2000
G01 X36.6000 Y42.0000
G01 X32.2000
G01 X36.0000 Y39.4000
G01 X23.6000
G01 X23.0000 Y42.0000
G01 X27.4000
G01 Z-20.5000
G01 X25.8000 Y36.8000
G01 Z-21.0000
G01 X33.8000
G00 Z5.0000
G00 X84.2000 Y42.0000
G01 Z-21.0000
G01 X88.6000
G01 Z0.0000
G01 X89.8000 Y39.4000
G01 Z-21.0000
G01 X84.6000
G01 X86.2000 Y36.8000
G01 X97.8000
G01 X99.4000 Y39.4000
G01 X94.2000
G01 Z0.0000
G01 X95.4000 Y42.0000
G01 Z-21.0000
G01 X99.8000
G01 X99.4000 Y44.6000
G01 X94.2000
G01 X97.8000 Y47.2000
G01 X86.2000
G01 X84.6000 Y44.6000
G01 X89.8000
G01 Z-20.5000
G01 X91.6000 Y49.8000
G01 Z-21.0000
G01 X92.6000
G01 Z0.5000
G01 Y34.2000
G01 Z-21.0000
G01 X91.6000
G00 Z5.0000
G00 X147.4000 Y42.0000
G01 Z-21.0000
G01 X151.8000
G01 X147.8000 Y44.6000
G01 X160.6000
G01 X161.0000 Y42.0000
G01 X156.6000
G01 X160.4000 Y39.4000
G01 X148.0000
G01 X150.2000 Y36.8000
G01 X158.2000
G01 Z-20.5000
G01 X159.0000 Y47.2000
G01 Z-21.0000
G01 X149.6000
G00 Z5.0000
G00 X171.6000 Y60.2000
G01 Z-20.7079
G01 X176.8000 Z-21.0000
G01 Z0.0000
G01 X178.0000 Y57.6000
G01 Z-21.0000
G01 X173.0000
G01 X174.2000 Y55.0000
G01 X178.8000
G01 Z0.0000
G01 X179.8000 Y52.4000
G01 Z-21.0000
G01 X175.0000
G01 X175.8000 Y49.8000
G01 X180.4000
G01 X176.4000 Y47.2000
G01 X188.0000
G01 X190.0000 Y44.6000
G01 X177.8000
G01 Z-20.5000
G01 X186.2000 Y42.0000
G01 Z-21.0000
G01 X190.6000
G01 Y39.4000
G01 X186.2000
G01 Y36.8000
G01 X190.6000
G01 Y34.2000
G01 X186.2000
G01 Y31.6000
G01 X190.6000
G01 Y29.0000
G01 X186.2000
G01 Y26.4000
G01 X190.6000
G01 Y23.8000
G01 X186.2000
G01 Z-20.5000
G01 X190.6000 Y21.2000
G01 Z-21.0000
G01 X186.2000
G01 X186.0000 Z-19.5000
G01 X180.0000
G01 X179.8000 Z-21.0000
G01 X178.2000
G01 Z-19.0000
G01 X186.2000 Y18.6000
G01 Z-21.0000
G01 X190.6000
G01 Y16.0000
G01 X186.2000
G01 Y13.4000
G01 X190.6000
G01 Y10.8000
G01 X186.2000
G01 Y8.2000
G01 X190.6000
G01 Y5.6000
G01 X186.2000
G01 Y3.0000
G01 X190.6000
G01 Y0.4000
G01 X186.2000
G00 Z5.0000
G00 X175.4000 Y62.8000
G01 Z-21.0000
G01 X170.2000
G01 X168.4000 Y65.4000
G01 X173.8000
G01 X172.0000 Y68.0000
G01 X166.4000
G01 X164.2000 Y70.6000
G01 X170.0000
G01 X167.8000 Y73.2000
G01 X161.6000
G01 X158.6000 Y75.8000
G01 X165.2000
G01 Z0.0000
G01 X162.4000 Y78.4000
G01 Z-21.0000
G01 X154.8000
G01 X159.0000 Y81.0000
G01 X150.0000
G00 Z5.0000
G00 X188.4000 Y-4.8000
G01 Z-22.0000
G01 X-4.4000
G01 X-6.2000 Y-2.2000
G01 X190.2000
G01 X190.6000 Y0.4000
G01 X186.2000
G01 Y3.0000
G01 X190.6000
G01 Y5.6000
G01 X186.2000
G01 Y8.2000
G01 X190.6000
G01 Y10.8000
G01 X186.2000
G01 Y13.4000
G01 X190.6000
G01 Y16.0000
G01 X186.2000
G01 Y18.6000
G01 X190.6000
G01 Y21.2000
G01 X186.2000
G01 X186.0000 Z-19.5000
G01 X180.0000
G01 X179.8000 Z-22.0000
G01 X178.2000
G01 Z-19.5000
G01 X186.2000 Y23.8000
G01 Z-22.0000
G01 X190.6000
G01 Y26.4000
G01 X186.2000
G01 Y29.0000
G01 X190.6000
G01 Y31.6000
G01 X186.2000
G01 Y34.2000
G01 X190.6000
G01 Y36.8000
G01 X186.2000
G01 Y39.4000
G01 X190.6000
G01 Y42.0000
G01 X186.2000
G01 X190.0000 Y44.6000
G01 X177.8000
G01 Z-21.7200
G01 X176.4000 Y47.2000
G01 X188.0000 Z-22.0000
G01 Z0.5000
G01 X180.4000 Y49.8000
G01 Z-22.0000
G01 X175.8000
G01 X175.0000 Y52.4000
G01 X179.8000
G01 Z0.0000
G01 X178.8000 Y55.0000
G01 Z-22.0000
G01 X174.2000
G01 X173.0000 Y57.6000
G01 X178.0000
G01 Z0.0000
G01 X176.8000 Y60.2000
G01 Z-22.0000
G01 X171.8000
G01 X170.2000 Y62.8000
G01 X175.4000
G01 Z0.0000
G01 X173.8000 Y65.4000
G01 Z-22.0000
G01 X168.4000
G01 X166.4000 Y68.0000
G01 X172.0000
G01 X170.0000 Y70.6000
G01 X164.2000
G01 X161.6000 Y73.2000
G01 X167.8000
G01 X165.2000 Y75.8000
G01 X158.6000
G01 X162.4000 Y78.4000
G01 X154.8000
G01 X159.0000 Y81.0000
G01 X150.0000
G01 Z-21.5000
G01 X154.8000 Y83.6000
G01 Z-22.0000
G01 X143.6000
G01 Z-21.5000
G01 X149.6000 Y86.2000
G01 Z-22.0000
G01 X34.6000
G01 Z0.5000
G01 X29.2000 Y83.6000
G01 Z-22.0000
G01 X40.4000
G01 Z-21.5000
G01 X42.0000 Y88.8000
G01 Z-22.0000
G01 X142.0000
G00 Z5.0000
G00 X149.6000 Y47.2000
G01 Z-22.0000
G01 X159.0000
G01 X160.6000 Y44.6000
G01 X147.8000
G01 X147.4000 Y42.0000
G01 X151.8000
G01 X148.0000 Y39.4000
G01 X160.4000
G01 X161.0000 Y42.0000
G01 X156.6000
G01 Z-21.5000
G01 X158.2000 Y36.8000
G01 Z-22.0000
G01 X150.2000
G00 Z5.0000
G00 X99.8000 Y42.0000
G01 Z-22.0000
G01 X95.4000
G01 Z0.0000
G01 X94.2000 Y44.6000
G01 Z-22.0000
G01 X99.4000
G01 X97.8000 Y47.2000
G01 X86.2000
G01 X84.6000 Y44.6000
G01 X89.8000
G01 Z0.0000
G01 X88.6000 Y42.0000
G01 Z-22.0000
G01 X84.2000
G01 X84.6000 Y39.4000
G01 X89.8000
G01 X86.2000 Y36.8000
G01 X97.8000
G01 X99.4000 Y39.4000
G01 X94.2000
G01 Z-21.5000
G01 X92.6000 Y34.2000
G01 Z-22.0000
G01 X91.6000
G01 Z0.5000
G01 Y49.8000
G01 Z-22.0000
G01 X92.6000
G00 Z5.0000
G00 X36.6000 Y42.0000
G01 Z-22.0000
G01 X32.2000
G01 X36.0000 Y39.4000
G01 X23.6000
G01 X23.0000 Y42.0000
G01 X27.4000
G01 X23.4000 Y44.6000
G01 X36.2000
G01 X34.6000 Y47.2000
G01 X25.2000
G01 Z-21.5000
G01 X25.8000 Y36.8000
G01 Z-22.0000
G01 X33.8000
G00 Z5.0000
G00 X7.6000 Y47.2000
G01 Z-22.0000
G01 X-4.0000
G01 X-6.0000 Y44.6000
G01 X6.4000
G01 Z-21.5000
G01 X8.2000 Y49.8000
G01 Z-22.0000
G01 X3.6000
G01 X4.2000 Y52.4000
G01 X9.0000
G01 X9.8000 Y55.0000
G01 X5.2000
G01 X6.2000 Y57.6000
G01 X11.0000
G01 X12.4000 Y60.2000
G01 X7.4000
G01 X8.8000 Y62.8000
G01 X13.8000
G01 X15.6000 Y65.4000
G01 X10.4000
G01 Z0.0000
G01 X12.0000 Y68.0000
G01 Z-22.0000
G01 X17.6000
G01 X19.8000 Y70.6000
G01 X14.0000
G01 X16.2000 Y73.2000
G01 X22.4000
G01 X25.4000 Y75.8000
G01 X18.8000
G01 X21.6000 Y78.4000
G01 X29.2000
G01 X25.0000 Y81.0000
G01 X34.0000
G00 Z5.0000
G00 X-2.2000 Y42.0000
G01 Z-22.0000
G01 X-6.6000
G01 Y39.4000
G01 X-2.2000
G01 Y36.8000
G01 X-6.6000
G01 Y34.2000
G01 X-2.2000
G01 Y31.6000
G01 X-6.6000
G01 Y29.0000
G01 X-2.2000
G01 Y26.4000
G01 X-6.6000
G01 Y23.8000
G01 X-2.2000
G01 Z-21.5000
G01 X-6.6000 Y21.2000
G01 Z-22.0000
G01 X-2.2000
G01 X-2.0000 Z-19.5000
G01 X4.0000
G01 X4.2000 Z-22.0000
G01 X5.8000
G01 Z-19.5000
G01 X-2.2000 Y18.6000
G01 Z-22.0000
G01 X-6.6000
G01 Y16.0000
G01 X-2.2000
G01 Y13.4000
G01 X-6.6000
G01 Y10.8000
G01 X-2.2000
G01 Y8.2000
G01 X-6.6000
G01 Y5.6000
G01 X-2.2000
G01 Y3.0000
G01 X-6.6000
G01 Y0.4000
G01 X-2.2000
G01 Z-21.5000
G01 X-4.4000 Y-4.8000
G01 Z-23.0000
G01 X188.4000
G01 X190.2000 Y-2.2000
G01 X-6.2000
G01 X-6.6000 Y0.4000
G01 X-2.2000
G01 Y3.0000
G01 X-6.6000
G01 Y5.6000
G01 X-2.2000
G01 Y8.2000
G01 X-6.6000
G01 Y10.8000
G01 X-2.2000
G01 Y13.4000
G01 X-6.6000
G01 Y16.0000
G01 X-2.2000
G01 Y18.6000
G01 X-6.6000
G01 Y21.2000
G01 X-2.2000
G01 X-2.0000 Z-19.5000
G01 X4.0000
G01 X4.2000 Z-23.0000
G01 X5.8000
G01 Z-19.5000
G01 X-2.2000 Y23.8000
G01 Z-23.0000
G01 X-6.6000
G01 Y26.4000
G01 X-2.2000
G01 Y29.0000
G01 X-6.6000
G01 Y31.6000
G01 X-2.2000
G01 Y34.2000
G01 X-6.6000
G01 Y36.8000
G01 X-2.2000
G01 Y39.4000
G01 X-6.6000
G01 Y42.0000
G01 X-2.2000
G01 X-6.0000 Y44.6000
G01 X6.4000
G01 X7.6000 Y47.2000
G01 X-4.0000
G01 Z0.5000
G01 X3.6000 Y49.8000
G01 Z-23.0000
G01 X8.2000
G01 X9.0000 Y52.4000
G01 X4.2000
G01 Z0.0000
G01 X5.2000 Y55.0000
G01 Z-23.0000
G01 X9.8000
G01 X11.0000 Y57.6000
G01 X6.2000
G01 X7.4000 Y60.2000
G01 X12.4000
G01 X13.8000 Y62.8000
G01 X8.8000
G01 X10.4000 Y65.4000
G01 X15.6000
G01 X17.6000 Y68.0000
G01 X12.0000
G01 X14.0000 Y70.6000
G01 X19.8000
G01 X22.4000 Y73.2000
G01 X16.2000
G01 X18.8000 Y75.8000
G01 X25.4000
G01 X21.6000 Y78.4000
G01 X29.2000
G01 X25.0000 Y81.0000
G01 X34.0000
G01 Z-22.5000
G01 X29.2000 Y83.6000
G01 Z-23.0000
G01 X40.4000
G01 Z-22.5000
G01 X34.6000 Y86.2000
G01 Z-23.0000
G01 X149.6000
G01 Z0.5000
G01 X154.8000 Y83.6000
G01 Z-23.0000
G01 X143.8000
G01 X143.6000 Z-22.3918
G01 Z-21.8918
G01 X142.0000 Y88.8000
G01 Z-23.0000
G01 X42.0000
G00 Z5.0000
G00 X34.6000 Y47.2000
G01 Z-23.0000
G01 X25.2000
G01 X23.4000 Y44.6000
G01 X36.2000
G01 X36.6000 Y42.0000
G01 X32.2000
G01 X36.0000 Y39.4000
G01 X23.6000
G01 X23.0000 Y42.0000
G01 X27.4000
G01 Z-22.5000
G01 X25.8000 Y36.8000
G01 Z-23.0000
G01 X33.8000
G00 Z5.0000
G00 X84.2000 Y42.0000
G01 Z-23.0000
G01 X88.6000
G01 Z0.0000
G01 X89.8000 Y39.4000
G01 Z-23.0000
G01 X84.6000
G01 X86.2000 Y36.8000
G01 X97.8000
G01 X99.4000 Y39.4000
G01 X94.2000
G01 Z0.0000
G01 X95.4000 Y42.0000
G01 Z-23.0000
G01 X99.8000
G01 X99.4000 Y44.6000
G01 X94.2000
G01 X97.8000 Y47.2000
G01 X86.2000
G01 X84.6000 Y44.6000
G01 X89.8000
G01 Z-22.5000
G01 X91.6000 Y49.8000
G01 Z-23.0000
G01 X92.6000
G01 Z0.5000
G01 Y34.2000
G01 Z-23.0000
G01 X91.6000
G00 Z5.0000
G00 X147.4000 Y42.0000
G01 Z-23.0000
G01 X151.8000
G01 X147.8000 Y44.6000
G01 X160.6000
G01 X161.0000 Y42.0000
G01 X156.6000
G01 X160.4000 Y39.4000
G01 X148.0000
G01 X150.2000 Y36.8000
G01 X158.2000
G01 Z-22.5000
G01 X159.0000 Y47.2000
G01 Z-23.0000
G01 X149.6000
G00 Z5.0000
G00 X173.0000 Y57.6000
G01 Z-23.0000
G01 X178.0000
G01 Z0.0000
G01 X178.8000 Y55.0000
G01 Z-23.0000
G01 X174.2000
G01 X175.0000 Y52.4000
G01 X179.8000
G01 Z0.0000
G01 X180.4000 Y49.8000
G01 Z-23.0000
G01 X175.8000
G01 X176.6000 Y47.2000
G01 X188.0000
G01 X190.0000 Y44.6000
G01 X177.8000
G01 Z-22.5000
G01 X186.2000 Y42.0000
G01 Z-23.0000
G01 X190.6000
G01 Y39.4000
G01 X186.2000
G01 Y36.8000
G01 X190.6000
G01 Y34.2000
G01 X186.2000
G01 Y31.6000
G01 X190.6000
G01 Y29.0000
G01 X186.2000
G01 Y26.4000
G01 X190.6000
G01 Y23.8000
G01 X186.2000
G01 Z-22.5000
G01 X190.6000 Y21.2000
G01 Z-23.0000
G01 X186.2000
G01 X186.0000 Z-19.5000
G01 X180.0000
G01 X179.8000 Z-23.0000
G01 X178.2000
G01 Z-19.5000
G01 X186.2000 Y18.6000
G01 Z-23.0000
G01 X190.6000
G01 Y16.0000
G01 X186.2000
G01 Y13.4000
G01 X190.6000
G01 Y10.8000
G01 X186.2000
G01 Y8.2000
G01 X190.6000
G01 Y5.6000
G01 X186.2000
G01 Y3.0000
G01 X190.6000
G01 Y0.4000
G01 X186.2000
G00 Z5.0000
G00 X176.8000 Y60.2000
G01 Z-23.0000
G01 X171.8000
G01 X170.2000 Y62.8000
G01 X175.4000
G01 Z0.0000
G01 X173.8000 Y65.4000
G01 Z-23.0000
G01 X168.4000
G01 X166.4000 Y68.0000
G01 X172.0000
G01 X170.0000 Y70.6000
G01 X164.2000
G01 X161.6000 Y73.2000
G01 X167.8000
G01 X165.2000 Y75.8000
G01 X158.6000
G01 X162.4000 Y78.4000
G01 X154.8000
G01 X159.0000 Y81.0000
G01 X150.2000
G01 X150.0000 Z-22.0025
G00 Z5.0000
G00 X188.4000 Y-4.8000
G01 Z-24.0000
G01 X-4.4000
G01 X-6.2000 Y-2.2000
G01 X190.2000
G01 X190.6000 Y0.4000
G01 X186.2000
G01 Y3.0000
G01 X190.6000
G01 Y5.6000
G01 X186.2000
G01 Y8.2000
G01 X190.6000
G01 Y10.8000
G01 X186.2000
G01 Y13.4000
G01 X190.6000
G01 Y16.0000
G01 X186.2000
G01 Y18.6000
G01 X190.6000
G01 Y21.2000
G01 X186.2000
G01 X186.0000 Z-19.5000
G01 X180.0000
G01 X179.8000 Z-24.0000
G01 X178.2000
G01 Z-19.5000
G01 X186.2000 Y23.8000
G01 Z-24.0000
G01 X190.6000
G01 Y26.4000
G01 X186.2000
G01 Y29.0000
G01 X190.6000
G01 Y31.6000
G01 X186.2000
G01 Y34.2000
G01 X190.6000
G01 Y36.8000
G01 X186.2000
G01 Y39.4000
G01 X190.6000
G01 Y42.0000
G01 X186.2000
G01 X190.0000 Y44.6000
G01 X177.8000
G01 X176.6000 Y47.2000
G01 X188.0000
G01 Z0.5000
G01 X180.4000 Y49.8000
G01 Z-24.0000
G01 X175.8000
G01 X175.0000 Y52.4000
G01 X179.8000
G01 Z0.0000
G01 X178.8000 Y55.0000
G01 Z-24.0000
G01 X174.2000
G01 X173.0000 Y57.6000
G01 X178.0000
G01 Z0.0000
G01 X176.8000 Y60.2000
G01 Z-24.0000
G01 X171.8000
G01 X170.2000 Y62.8000
G01 X175.4000
G01 Z0.0000
G01 X173.8000 Y65.4000
G01 Z-24.0000
G01 X168.4000
G01 X166.4000 Y68.0000
G01 X172.0000
G01 Z0.0000
G01 X170.0000 Y70.6000
G01 Z-24.0000
G01 X164.2000
G01 X161.6000 Y73.2000
G01 X167.8000
G01 X165.2000 Y75.8000
G01 X158.6000
G01 X162.4000 Y78.4000
G01 X154.8000
G01 X159.0000 Y81.0000
G01 X150.2000
G01 Z-23.5000
G01 X154.8000 Y83.6000
G01 Z-24.0000
G01 X143.8000
G01 Z-23.5000
G01 X149.6000 Y86.2000
G01 Z-24.0000
G01 X34.6000
G01 Z0.5000
G01 X29.2000 Y83.6000
G01 Z-24.0000
G01 X40.4000
G01 Z-23.5000
G01 X42.0000 Y88.8000
G01 Z-24.0000
G01 X142.0000
G00 Z5.0000
G00 X149.6000 Y47.2000
G01 Z-24.0000
G01 X159.0000
G01 X160.6000 Y44.6000
G01 X147.8000
G01 X147.4000 Y42.0000
G01 X151.8000
G01 X148.0000 Y39.4000
G01 X160.4000
G01 X161.0000 Y42.0000
G01 X156.6000
G01 Z-23.5000
G01 X158.2000 Y36.8000
G01 Z-24.0000
G01 X150.2000
G00 Z5.0000
G00 X99.8000 Y42.0000
G01 Z-24.0000
G01 X95.4000
G01 Z0.0000
G01 X94.2000 Y44.6000
G01 Z-24.0000
G01 X99.4000
G01 X97.8000 Y47.2000
G01 X86.2000
G01 X84.6000 Y44.6000
G01 X89.8000
G01 Z0.0000
G01 X88.6000 Y42.0000
G01 Z-24.0000
G01 X84.2000
G01 X84.6000 Y39.4000
G01 X89.8000
G01 X86.2000 Y36.8000
G01 X97.8000
G01 X99.4000 Y39.4000
G01 X94.2000
G01 Z-23.5000
G01 X92.6000 Y34.2000
G01 Z-24.0000
G01 X91.6000
G01 Z0.5000
G01 Y49.8000
G01 Z-24.0000
G01 X92.6000
G00 Z5.0000
G00 X36.6000 Y42.0000
G01 Z-24.0000
G01 X32.2000
G01 X36.0000 Y39.4000
G01 X23.6000
G01 X23.0000 Y42.0000
G01 X27.4000
G01 X23.4000 Y44.6000
G01 X36.2000
G01 X34.6000 Y47.2000
G01 X25.2000
G01 Z-23.5000
G01 X25.8000 Y36.8000
G01 Z-24.0000
G01 X33.8000
G00 Z5.0000
G00 X7.6000 Y47.2000
G01 Z-24.0000
G01 X-4.0000
G01 X-6.0000 Y44.6000
G01 X6.4000
G01 Z-23.5000
G01 X8.2000 Y49.8000
G01 Z-24.0000
G01 X3.6000
G01 X4.2000 Y52.4000
G01 X9.0000
G01 X9.8000 Y55.0000
G01 X5.2000
G01 X6.2000 Y57.6000
G01 X11.0000
G01 X12.4000 Y60.2000
G01 X7.4000
G01 X8.8000 Y62.8000
G01 X13.8000
G01 X15.6000 Y65.4000
G01 X10.4000
G01 X12.0000 Y68.0000
G01 X17.6000
G01 X19.8000 Y70.6000
G01 X14.0000
G01 X16.2000 Y73.2000
G01 X22.4000
G01 X25.4000 Y75.8000
G01 X18.8000
G01 Z0.0000
G01 X21.6000 Y78.4000
G01 Z-24.0000
G01 X29.2000
G01 X25.0000 Y81.0000
G01 X34.0000
G00 Z5.0000
G00 X-2.2000 Y42.0000
G01 Z-24.0000
G01 X-6.6000
G01 Y39.4000
G01 X-2.2000
G01 Y36.8000
G01 X-6.6000
G01 Y34.2000
G01 X-2.2000
G01 Y31.6000
G01 X-6.6000
G01 Y29.0000
G01 X-2.2000
G01 Y26.4000
G01 X-6.6000
G01 Y23.8000
G01 X-2.2000
G01 Z-23.5000
G01 X-6.6000 Y21.2000
G01 Z-24.0000
G01 X-2.2000
G01 X-2.0000 Z-19.5000
G01 X4.0000
G01 X4.2000 Z-24.0000
G01 X5.8000
G01 Z-19.5000
G01 X-2.2000 Y18.6000
G01 Z-24.0000
G01 X-6.6000
G01 Y16.0000
G01 X-2.2000
G01 Y13.4000
G01 X-6.6000
G01 Y10.8000
G01 X-2.2000
G01 Y8.2000
G01 X-6.6000
G01 Y5.6000
G01 X-2.2000
G01 Y3.0000
G01 X-6.6000
G01 Y0.4000
G01 X-2.2000
G01 Z-23.5000
G01 X-4.4000 Y-4.8000
G01 Z-25.0000
G01 X188.4000
G01 X190.2000 Y-2.2000
G01 X-6.2000
G01 X-6.6000 Y0.4000
G01 X-2.2000
G01 Y3.0000
G01 X-6.6000
G01 Y5.6000
G01 X-2.2000
G01 Y8.2000
G01 X-6.6000
G01 Y10.8000
G01 X-2.2000
G01 Y13.4000
G01 X-6.6000
G01 Y16.0000
G01 X-2.2000
G01 Y18.6000
G01 X-6.6000
G01 Y21.2000
G01 X-2.2000
G01 X-2.0000 Z-19.5000
G01 X4.0000
G01 X4.2000 Z-25.0000
G01 X5.8000
G01 Z-19.5000
G01 X-2.2000 Y23.8000
G01 Z-25.0000
G01 X-6.6000
G01 Y26.4000
G01 X-2.2000
G01 Y29.0000
G01 X-6.6000
G01 Y31.6000
G01 X-2.2000
G01 Y34.2000
G01 X-6.6000
G01 Y36.8000
G01 X-2.2000
G01 Y39.4000
G01 X-6.6000
G01 Y42.0000
G01 X-2.2000
G01 X-6.0000 Y44.6000
G01 X6.4000
G01 X7.6000 Y47.2000
G01 X-4.0000
G01 Z0.5000
G01 X3.6000 Y49.8000
G01 Z-25.0000
G01 X8.2000
G01 X9.0000 Y52.4000
G01 X4.2000
G01 Z0.0000
G01 X5.2000 Y55.0000
G01 Z-25.0000
G01 X9.8000
G01 X11.0000 Y57.6000
G01 X6.2000
G01 Z0.0000
G01 X7.4000 Y60.2000
G01 Z-25.0000
G01 X12.4000
G01 X13.8000 Y62.8000
G01 X8.8000
G01 X10.4000 Y65.4000
G01 X15.6000
G01 X17.6000 Y68.0000
G01 X12.0000
G01 Z0.0000
G01 X14.0000 Y70.6000
G01 Z-25.0000
G01 X19.8000
G01 X22.4000 Y73.2000
G01 X16.2000
G01 X18.8000 Y75.8000
G01 X25.4000
G01 X21.6000 Y78.4000
G01 X29.2000
G01 X25.0000 Y81.0000
G01 X34.0000
G01 Z-24.5000
G01 X29.2000 Y83.6000
G01 Z-25.0000
G01 X40.4000
G01 Z-24.5000
G01 X34.6000 Y86.2000
G01 Z-25.0000
G01 X149.6000
G01 Z0.5000
G01 X154.8000 Y83.6000
G01 Z-25.0000
G01 X143.8000
G01 Z-24.5000
G01 X142.0000 Y88.8000
G01 Z-25.0000
G01 X42.0000
G00 Z5.0000
G00 X34.6000 Y47.2000
G01 Z-25.0000
G01 X25.2000
G01 X23.4000 Y44.6000
G01 X36.2000
G01 X36.6000 Y42.0000
G01 X32.2000
G01 X36.0000 Y39.4000
G01 X23.6000
G01 X23.0000 Y42.0000
G01 X27.4000
G01 Z-24.5000
G01 X25.8000 Y36.8000
G01 Z-25.0000
G01 X33.8000
G00 Z5.0000
G00 X84.2000 Y42.0000
G01 Z-25.0000
G01 X88.6000
G01 Z0.0000
G01 X89.8000 Y39.4000
G01 Z-25.0000
G01 X84.6000
G01 X86.2000 Y36.8000
G01 X97.8000
G01 X99.4000 Y39.4000
G01 X94.2000
G01 Z0.0000
G01 X95.4000 Y42.0000
G01 Z-25.0000
G01 X99.8000
G01 X99.4000 Y44.6000
G01 X94.2000
G01 X97.8000 Y47.2000
G01 X86.2000
G01 X84.6000 Y44.6000
G01 X89.8000
G01 Z-24.5000
G01 X91.6000 Y49.8000
G01 Z-25.0000
G01 X92.6000
G01 Z0.5000
G01 Y34.2000
G01 Z-25.0000
G01 X91.6000
G00 Z5.0000
G00 X147.4000 Y42.0000
G01 Z-25.0000
G01 X151.8000
G01 X147.8000 Y44.6000
G01 X160.6000
G01 X161.0000 Y42.0000
G01 X156.6000
G01 X160.4000 Y39.4000
G01 X148.0000
G01 X150.2000 Y36.8000
G01 X158.2000
G01 Z-24.5000
G01 X159.0000 Y47.2000
G01 Z-25.0000
G01 X149.6000
G00 Z5.0000
G00 X173.0000 Y57.6000
G01 Z-25.0000
G01 X178.0000
G01 Z0.0000
G01 X178.8000 Y55.0000
G01 Z-25.0000
G01 X174.2000
G01 X175.0000 Y52.4000
G01 X179.8000
G01 X180.4000 Y49.8000
G01 X175.8000
G01 X176.6000 Y47.2000
G01 X188.0000
G01 X190.0000 Y44.6000
G01 X177.8000
G01 Z-24.5000
G01 X186.2000 Y42.0000
G01 Z-25.0000
G01 X190.6000
G01 Y39.4000
G01 X186.2000
G01 Y36.8000
G01 X190.6000
G01 Y34.2000
G01 X186.2000
G01 Y31.6000
G01 X190.6000
G01 Y29.0000
G01 X186.2000
G01 Y26.4000
G01 X190.6000
G01 Y23.8000
G01 X186.2000
G01 Z-24.5000
G01 X190.6000 Y21.2000
G01 Z-25.0000
G01 X186.2000
G01 X186.0000 Z-19.5000
G01 X180.0000
G01 X179.8000 Z-25.0000
G01 X178.2000
G01 Z-19.5000
G01 X186.2000 Y18.6000
G01 Z-25.0000
G01 X190.6000
G01 Y16.0000
G01 X186.2000
G01 Y13.4000
G01 X190.6000
G01 Y10.8000
G01 X186.2000
G01 Y8.2000
G01 X190.6000
G01 Y5.6000
G01 X186.2000
G01 Y3.0000
G01 X190.6000
G01 Y0.4000
G01 X186.2000
G00 Z5.0000
G00 X176.8000 Y60.2000
G01 Z-25.0000
G01 X171.8000
G01 X170.2000 Y62.8000
G01 X175.4000
G01 Z0.0000
G01 X173.8000 Y65.4000
G01 Z-25.0000
G01 X168.4000
G01 X166.4000 Y68.0000
G01 X172.0000
G01 Z0.0000
G01 X170.0000 Y70.6000
G01 Z-25.0000
G01 X164.2000
G01 X161.6000 Y73.2000
G01 X167.8000
G01 X165.2000 Y75.8000
G01 X158.6000
G01 X162.4000 Y78.4000
G01 X154.8000
G01 X159.0000 Y81.0000
G01 X150.2000
G00 Z5.0000
G00 X188.4000 Y-4.8000
G01 Z-26.0000
G01 X-4.4000
G01 X-6.2000 Y-2.2000
G01 X190.2000
G01 X190.6000 Y0.4000
G01 X186.2000
G01 Y3.0000
G01 X190.6000
G01 Y5.6000
G01 X186.2000
G01 Y8.2000
G01 X190.6000
G01 Y10.8000
G01 X186.2000
G01 Y13.4000
G01 X190.6000
G01 Y16.0000
G01 X186.2000
G01 Y18.6000
G01 X190.6000
G01 Y21.2000
G01 X186.2000
G01 X186.0000 Z-19.5000
G01 X180.0000
G01 X179.8000 Z-26.0000
G01 X178.2000
G01 Z-19.5000
G01 X186.2000 Y23.8000
G01 Z-26.0000
G01 X190.6000
G01 Y26.4000
G01 X186.2000
G01 Y29.0000
G01 X190.6000
G01 Y31.6000
G01 X186.2000
G01 Y34.2000
G01 X190.6000
G01 Y36.8000
G01 X186.2000
G01 Y39.4000
G01 X190.6000
G01 Y42.0000
G01 X186.2000
