(Exported by FreeCAD)
(Post Processor: grbl_post)
(Output Time:2022-01-03 21:13:34.996432)
(Begin preamble)
G17 G90
G21
(Begin operation: Fixture)
(Path: Fixture)
G54
(Finish operation: Fixture)
(Begin operation: TC: 3.175 Z2 Q3.175 end mill)
(Path: TC: 3.175 Z2 Q3.175 end mill)
(TC: 3.175 Z2 Q3.175 end mill)
(Begin toolchange)
( M6 T10.0 )
M3 S24000.0
(Finish operation: TC: 3.175 Z2 Q3.175 end mill)
(Begin operation: Profile001)
(Path: Profile001)
(Profile001)
(Uncompensated Tool Path)
G0 Z5.000
G0 X184.000 Y-0.000 Z3.000
G0 Z5.000
G1 X184.000 Y-0.000 Z-2.000 F30000.000
G1 X184.000 Y-42.000 Z-2.000 F150000.000
G1 X179.126 Y-42.000 Z-2.000 F150000.000
G3 X174.593 Y-45.738 Z-2.000 I-0.000 J-4.617 K0.000 F150000.000
G2 X128.196 Y-84.000 Z-2.000 I-46.397 J9.000 K0.000 F150000.000
G1 X55.585 Y-84.000 Z-2.000 F150000.000
G2 X9.407 Y-45.738 Z-2.000 I0.000 J46.996 K0.000 F150000.000
G3 X4.874 Y-42.000 Z-2.000 I-4.511 J-0.853 K0.000 F150000.000
G1 X0.000 Y-42.000 Z-2.000 F150000.000
G1 X0.000 Y-0.000 Z-2.000 F150000.000
G1 X184.000 Y-0.000 Z-2.000 F150000.000
G1 X184.000 Y-0.000 Z-4.000 F30000.000
G1 X184.000 Y-42.000 Z-4.000 F150000.000
G1 X179.126 Y-42.000 Z-4.000 F150000.000
G3 X174.593 Y-45.738 Z-4.000 I-0.000 J-4.617 K0.000 F150000.000
G2 X128.196 Y-84.000 Z-4.000 I-46.397 J9.000 K0.000 F150000.000
G1 X55.585 Y-84.000 Z-4.000 F150000.000
G2 X9.407 Y-45.738 Z-4.000 I0.000 J46.996 K0.000 F150000.000
G3 X4.874 Y-42.000 Z-4.000 I-4.511 J-0.853 K0.000 F150000.000
G1 X0.000 Y-42.000 Z-4.000 F150000.000
G1 X0.000 Y-0.000 Z-4.000 F150000.000
G1 X184.000 Y-0.000 Z-4.000 F150000.000
G1 X184.000 Y-0.000 Z-6.000 F30000.000
G1 X184.000 Y-42.000 Z-6.000 F150000.000
G1 X179.126 Y-42.000 Z-6.000 F150000.000
G3 X174.593 Y-45.738 Z-6.000 I-0.000 J-4.617 K0.000 F150000.000
G2 X128.196 Y-84.000 Z-6.000 I-46.397 J9.000 K0.000 F150000.000
G1 X55.585 Y-84.000 Z-6.000 F150000.000
G2 X9.407 Y-45.738 Z-6.000 I0.000 J46.996 K0.000 F150000.000
G3 X4.874 Y-42.000 Z-6.000 I-4.511 J-0.853 K0.000 F150000.000
G1 X0.000 Y-42.000 Z-6.000 F150000.000
G1 X0.000 Y-0.000 Z-6.000 F150000.000
G1 X184.000 Y-0.000 Z-6.000 F150000.000
G1 X184.000 Y-0.000 Z-8.000 F30000.000
G1 X184.000 Y-42.000 Z-8.000 F150000.000
G1 X179.126 Y-42.000 Z-8.000 F150000.000
G3 X174.593 Y-45.738 Z-8.000 I-0.000 J-4.617 K0.000 F150000.000
G2 X128.196 Y-84.000 Z-8.000 I-46.397 J9.000 K0.000 F150000.000
G1 X55.585 Y-84.000 Z-8.000 F150000.000
G2 X9.407 Y-45.738 Z-8.000 I0.000 J46.996 K0.000 F150000.000
G3 X4.874 Y-42.000 Z-8.000 I-4.511 J-0.853 K0.000 F150000.000
G1 X0.000 Y-42.000 Z-8.000 F150000.000
G1 X0.000 Y-0.000 Z-8.000 F150000.000
G1 X184.000 Y-0.000 Z-8.000 F150000.000
G1 X184.000 Y-0.000 Z-10.000 F30000.000
G1 X184.000 Y-42.000 Z-10.000 F150000.000
G1 X179.126 Y-42.000 Z-10.000 F150000.000
G3 X174.593 Y-45.738 Z-10.000 I-0.000 J-4.617 K0.000 F150000.000
G2 X128.196 Y-84.000 Z-10.000 I-46.397 J9.000 K0.000 F150000.000
G1 X55.585 Y-84.000 Z-10.000 F150000.000
G2 X9.407 Y-45.738 Z-10.000 I0.000 J46.996 K0.000 F150000.000
G3 X4.874 Y-42.000 Z-10.000 I-4.511 J-0.853 K0.000 F150000.000
G1 X0.000 Y-42.000 Z-10.000 F150000.000
G1 X0.000 Y-0.000 Z-10.000 F150000.000
G1 X184.000 Y-0.000 Z-10.000 F150000.000
G0 Z3.000
G0 Z3.000
(Finish operation: Profile001)
(Begin operation: Profile)
(Path: Profile)
(Profile)
(Compensated Tool Path. Diameter: 3.17)
G0 Z5.000
G0 X5.997 Y-20.003
G0 Z3.000
G1 X5.997 Y-20.003 Z-1.057 F30000.000
G3 X4.564 Y-19.659 Z-1.057 I-0.997 J-0.997 K0.000 F150000.000
G3 X5.436 Y-22.341 Z-1.057 I0.436 J-1.341 K0.000 F150000.000
G3 X5.997 Y-20.003 Z-1.057 I-0.436 J1.341 K0.000 F150000.000
G1 X5.997 Y-20.003 Z-2.113 F30000.000
G3 X4.564 Y-19.659 Z-2.113 I-0.997 J-0.997 K0.000 F150000.000
G3 X5.436 Y-22.341 Z-2.113 I0.436 J-1.341 K0.000 F150000.000
G3 X5.997 Y-20.003 Z-2.113 I-0.436 J1.341 K0.000 F150000.000
G1 X5.997 Y-20.003 Z-3.170 F30000.000
G3 X4.564 Y-19.659 Z-3.170 I-0.997 J-0.997 K0.000 F150000.000
G3 X5.436 Y-22.341 Z-3.170 I0.436 J-1.341 K0.000 F150000.000
G3 X5.997 Y-20.003 Z-3.170 I-0.436 J1.341 K0.000 F150000.000
G1 X5.997 Y-20.003 Z-4.227 F30000.000
G3 X4.564 Y-19.659 Z-4.227 I-0.997 J-0.997 K0.000 F150000.000
G3 X5.436 Y-22.341 Z-4.227 I0.436 J-1.341 K0.000 F150000.000
G3 X5.997 Y-20.003 Z-4.227 I-0.436 J1.341 K0.000 F150000.000
G1 X5.997 Y-20.003 Z-5.283 F30000.000
G3 X4.564 Y-19.659 Z-5.283 I-0.997 J-0.997 K0.000 F150000.000
G3 X5.436 Y-22.341 Z-5.283 I0.436 J-1.341 K0.000 F150000.000
G3 X5.997 Y-20.003 Z-5.283 I-0.436 J1.341 K0.000 F150000.000
G1 X5.997 Y-20.003 Z-6.340 F30000.000
G3 X4.564 Y-19.659 Z-6.340 I-0.997 J-0.997 K0.000 F150000.000
G3 X5.436 Y-22.341 Z-6.340 I0.436 J-1.341 K0.000 F150000.000
G3 X5.997 Y-20.003 Z-6.340 I-0.436 J1.341 K0.000 F150000.000
G1 X5.997 Y-20.003 Z-7.397 F30000.000
G3 X4.564 Y-19.659 Z-7.397 I-0.997 J-0.997 K0.000 F150000.000
G3 X5.436 Y-22.341 Z-7.397 I0.436 J-1.341 K0.000 F150000.000
G3 X5.997 Y-20.003 Z-7.397 I-0.436 J1.341 K0.000 F150000.000
G1 X5.997 Y-20.003 Z-8.453 F30000.000
G3 X4.564 Y-19.659 Z-8.453 I-0.997 J-0.997 K0.000 F150000.000
G3 X5.436 Y-22.341 Z-8.453 I0.436 J-1.341 K0.000 F150000.000
G3 X5.997 Y-20.003 Z-8.453 I-0.436 J1.341 K0.000 F150000.000
G1 X5.997 Y-20.003 Z-9.510 F30000.000
G3 X4.564 Y-19.659 Z-9.510 I-0.997 J-0.997 K0.000 F150000.000
G3 X5.436 Y-22.341 Z-9.510 I0.436 J-1.341 K0.000 F150000.000
G3 X5.997 Y-20.003 Z-9.510 I-0.436 J1.341 K0.000 F150000.000
G1 X5.997 Y-20.003 Z-10.000 F30000.000
G3 X4.564 Y-19.659 Z-10.000 I-0.997 J-0.997 K0.000 F150000.000
G3 X5.436 Y-22.341 Z-10.000 I0.436 J-1.341 K0.000 F150000.000
G3 X5.997 Y-20.003 Z-10.000 I-0.436 J1.341 K0.000 F150000.000
G0 Z5.000
G0 Z5.000
G0 X5.997 Y-20.003
G0 X22.910 Y-35.831
G0 X22.910 Y-35.831 Z3.000
G1 X22.910 Y-35.831 Z-1.057 F30000.000
G3 X31.767 Y-51.466 Z-1.057 I6.873 J-6.432 K0.000 F150000.000
G3 X38.986 Y-40.280 Z-1.057 I-1.983 J9.202 K0.000 F150000.000
G3 X27.800 Y-33.061 Z-1.057 I-9.202 J-1.983 K0.000 F150000.000
G3 X22.910 Y-35.831 Z-1.057 I1.983 J-9.202 K0.000 F150000.000
G1 X22.910 Y-35.831 Z-2.113 F30000.000
G3 X31.767 Y-51.466 Z-2.113 I6.873 J-6.432 K0.000 F150000.000
G3 X38.986 Y-40.280 Z-2.113 I-1.983 J9.202 K0.000 F150000.000
G3 X27.800 Y-33.061 Z-2.113 I-9.202 J-1.983 K0.000 F150000.000
G3 X22.910 Y-35.831 Z-2.113 I1.983 J-9.202 K0.000 F150000.000
G1 X22.910 Y-35.831 Z-3.170 F30000.000
G3 X31.767 Y-51.466 Z-3.170 I6.873 J-6.432 K0.000 F150000.000
G3 X38.986 Y-40.280 Z-3.170 I-1.983 J9.202 K0.000 F150000.000
G3 X27.800 Y-33.061 Z-3.170 I-9.202 J-1.983 K0.000 F150000.000
G3 X22.910 Y-35.831 Z-3.170 I1.983 J-9.202 K0.000 F150000.000
G1 X22.910 Y-35.831 Z-4.227 F30000.000
G3 X31.767 Y-51.466 Z-4.227 I6.873 J-6.432 K0.000 F150000.000
G3 X38.986 Y-40.280 Z-4.227 I-1.983 J9.202 K0.000 F150000.000
G3 X27.800 Y-33.061 Z-4.227 I-9.202 J-1.983 K0.000 F150000.000
G3 X22.910 Y-35.831 Z-4.227 I1.983 J-9.202 K0.000 F150000.000
G1 X22.910 Y-35.831 Z-5.283 F30000.000
G3 X31.767 Y-51.466 Z-5.283 I6.873 J-6.432 K0.000 F150000.000
G3 X38.986 Y-40.280 Z-5.283 I-1.983 J9.202 K0.000 F150000.000
G3 X27.800 Y-33.061 Z-5.283 I-9.202 J-1.983 K0.000 F150000.000
G3 X22.910 Y-35.831 Z-5.283 I1.983 J-9.202 K0.000 F150000.000
G1 X22.910 Y-35.831 Z-6.340 F30000.000
G3 X31.767 Y-51.466 Z-6.340 I6.873 J-6.432 K0.000 F150000.000
G3 X38.986 Y-40.280 Z-6.340 I-1.983 J9.202 K0.000 F150000.000
G3 X27.800 Y-33.061 Z-6.340 I-9.202 J-1.983 K0.000 F150000.000
G3 X22.910 Y-35.831 Z-6.340 I1.983 J-9.202 K0.000 F150000.000
G1 X22.910 Y-35.831 Z-7.397 F30000.000
G3 X31.767 Y-51.466 Z-7.397 I6.873 J-6.432 K0.000 F150000.000
G3 X38.986 Y-40.280 Z-7.397 I-1.983 J9.202 K0.000 F150000.000
G3 X27.800 Y-33.061 Z-7.397 I-9.202 J-1.983 K0.000 F150000.000
G3 X22.910 Y-35.831 Z-7.397 I1.983 J-9.202 K0.000 F150000.000
G1 X22.910 Y-35.831 Z-8.453 F30000.000
G3 X31.767 Y-51.466 Z-8.453 I6.873 J-6.432 K0.000 F150000.000
G3 X38.986 Y-40.280 Z-8.453 I-1.983 J9.202 K0.000 F150000.000
G3 X27.800 Y-33.061 Z-8.453 I-9.202 J-1.983 K0.000 F150000.000
G3 X22.910 Y-35.831 Z-8.453 I1.983 J-9.202 K0.000 F150000.000
G1 X22.910 Y-35.831 Z-9.510 F30000.000
G3 X31.767 Y-51.466 Z-9.510 I6.873 J-6.432 K0.000 F150000.000
G3 X38.986 Y-40.280 Z-9.510 I-1.983 J9.202 K0.000 F150000.000
G3 X27.800 Y-33.061 Z-9.510 I-9.202 J-1.983 K0.000 F150000.000
G3 X22.910 Y-35.831 Z-9.510 I1.983 J-9.202 K0.000 F150000.000
G1 X22.910 Y-35.831 Z-10.000 F30000.000
G3 X31.767 Y-51.466 Z-10.000 I6.873 J-6.432 K0.000 F150000.000
G3 X38.986 Y-40.280 Z-10.000 I-1.983 J9.202 K0.000 F150000.000
G3 X27.800 Y-33.061 Z-10.000 I-9.202 J-1.983 K0.000 F150000.000
G3 X22.910 Y-35.831 Z-10.000 I1.983 J-9.202 K0.000 F150000.000
G0 Z5.000
G0 Z5.000
G0 X22.910 Y-35.831
G0 X83.620 Y-41.252
G0 X83.620 Y-41.252 Z3.000
G1 X83.620 Y-41.252 Z-1.057 F30000.000
G3 X93.461 Y-50.286 Z-1.057 I8.380 J-0.748 K0.000 F150000.000
G3 X90.539 Y-33.714 Z-1.057 I-1.461 J8.286 K0.000 F150000.000
G3 X83.620 Y-41.252 Z-1.057 I1.461 J-8.286 K0.000 F150000.000
G1 X83.620 Y-41.252 Z-2.113 F30000.000
G3 X93.461 Y-50.286 Z-2.113 I8.380 J-0.748 K0.000 F150000.000
G3 X90.539 Y-33.714 Z-2.113 I-1.461 J8.286 K0.000 F150000.000
G3 X83.620 Y-41.252 Z-2.113 I1.461 J-8.286 K0.000 F150000.000
G1 X83.620 Y-41.252 Z-3.170 F30000.000
G3 X93.461 Y-50.286 Z-3.170 I8.380 J-0.748 K0.000 F150000.000
G3 X90.539 Y-33.714 Z-3.170 I-1.461 J8.286 K0.000 F150000.000
G3 X83.620 Y-41.252 Z-3.170 I1.461 J-8.286 K0.000 F150000.000
G1 X83.620 Y-41.252 Z-4.227 F30000.000
G3 X93.461 Y-50.286 Z-4.227 I8.380 J-0.748 K0.000 F150000.000
G3 X90.539 Y-33.714 Z-4.227 I-1.461 J8.286 K0.000 F150000.000
G3 X83.620 Y-41.252 Z-4.227 I1.461 J-8.286 K0.000 F150000.000
G1 X83.620 Y-41.252 Z-5.283 F30000.000
G3 X93.461 Y-50.286 Z-5.283 I8.380 J-0.748 K0.000 F150000.000
G3 X90.539 Y-33.714 Z-5.283 I-1.461 J8.286 K0.000 F150000.000
G3 X83.620 Y-41.252 Z-5.283 I1.461 J-8.286 K0.000 F150000.000
G1 X83.620 Y-41.252 Z-6.340 F30000.000
G3 X93.461 Y-50.286 Z-6.340 I8.380 J-0.748 K0.000 F150000.000
G3 X90.539 Y-33.714 Z-6.340 I-1.461 J8.286 K0.000 F150000.000
G3 X83.620 Y-41.252 Z-6.340 I1.461 J-8.286 K0.000 F150000.000
G1 X83.620 Y-41.252 Z-7.397 F30000.000
G3 X93.461 Y-50.286 Z-7.397 I8.380 J-0.748 K0.000 F150000.000
G3 X90.539 Y-33.714 Z-7.397 I-1.461 J8.286 K0.000 F150000.000
G3 X83.620 Y-41.252 Z-7.397 I1.461 J-8.286 K0.000 F150000.000
G1 X83.620 Y-41.252 Z-8.453 F30000.000
G3 X93.461 Y-50.286 Z-8.453 I8.380 J-0.748 K0.000 F150000.000
G3 X90.539 Y-33.714 Z-8.453 I-1.461 J8.286 K0.000 F150000.000
G3 X83.620 Y-41.252 Z-8.453 I1.461 J-8.286 K0.000 F150000.000
G1 X83.620 Y-41.252 Z-9.510 F30000.000
G3 X93.461 Y-50.286 Z-9.510 I8.380 J-0.748 K0.000 F150000.000
G3 X90.539 Y-33.714 Z-9.510 I-1.461 J8.286 K0.000 F150000.000
G3 X83.620 Y-41.252 Z-9.510 I1.461 J-8.286 K0.000 F150000.000
G1 X83.620 Y-41.252 Z-10.000 F30000.000
G3 X93.461 Y-50.286 Z-10.000 I8.380 J-0.748 K0.000 F150000.000
G3 X90.539 Y-33.714 Z-10.000 I-1.461 J8.286 K0.000 F150000.000
G3 X83.620 Y-41.252 Z-10.000 I1.461 J-8.286 K0.000 F150000.000
G0 Z5.000
G0 Z5.000
G0 X83.620 Y-41.252
G0 X144.804 Y-42.128
G0 X144.804 Y-42.128 Z3.000
G1 X144.804 Y-42.128 Z-1.057 F30000.000
G3 X156.200 Y-51.466 Z-1.057 I9.413 J-0.135 K0.000 F150000.000
G3 X163.419 Y-40.280 Z-1.057 I-1.983 J9.202 K0.000 F150000.000
G3 X152.233 Y-33.061 Z-1.057 I-9.202 J-1.983 K0.000 F150000.000
G3 X144.804 Y-42.128 Z-1.057 I1.983 J-9.202 K0.000 F150000.000
G1 X144.804 Y-42.128 Z-2.113 F30000.000
G3 X156.200 Y-51.466 Z-2.113 I9.413 J-0.135 K0.000 F150000.000
G3 X163.419 Y-40.280 Z-2.113 I-1.983 J9.202 K0.000 F150000.000
G3 X152.233 Y-33.061 Z-2.113 I-9.202 J-1.983 K0.000 F150000.000
G3 X144.804 Y-42.128 Z-2.113 I1.983 J-9.202 K0.000 F150000.000
G1 X144.804 Y-42.128 Z-3.170 F30000.000
G3 X156.200 Y-51.466 Z-3.170 I9.413 J-0.135 K0.000 F150000.000
G3 X163.419 Y-40.280 Z-3.170 I-1.983 J9.202 K0.000 F150000.000
G3 X152.233 Y-33.061 Z-3.170 I-9.202 J-1.983 K0.000 F150000.000
G3 X144.804 Y-42.128 Z-3.170 I1.983 J-9.202 K0.000 F150000.000
G1 X144.804 Y-42.128 Z-4.227 F30000.000
G3 X156.200 Y-51.466 Z-4.227 I9.413 J-0.135 K0.000 F150000.000
G3 X163.419 Y-40.280 Z-4.227 I-1.983 J9.202 K0.000 F150000.000
G3 X152.233 Y-33.061 Z-4.227 I-9.202 J-1.983 K0.000 F150000.000
G3 X144.804 Y-42.128 Z-4.227 I1.983 J-9.202 K0.000 F150000.000
G1 X144.804 Y-42.128 Z-5.283 F30000.000
G3 X156.200 Y-51.466 Z-5.283 I9.413 J-0.135 K0.000 F150000.000
G3 X163.419 Y-40.280 Z-5.283 I-1.983 J9.202 K0.000 F150000.000
G3 X152.233 Y-33.061 Z-5.283 I-9.202 J-1.983 K0.000 F150000.000
G3 X144.804 Y-42.128 Z-5.283 I1.983 J-9.202 K0.000 F150000.000
G1 X144.804 Y-42.128 Z-6.340 F30000.000
G3 X156.200 Y-51.466 Z-6.340 I9.413 J-0.135 K0.000 F150000.000
G3 X163.419 Y-40.280 Z-6.340 I-1.983 J9.202 K0.000 F150000.000
G3 X152.233 Y-33.061 Z-6.340 I-9.202 J-1.983 K0.000 F150000.000
G3 X144.804 Y-42.128 Z-6.340 I1.983 J-9.202 K0.000 F150000.000
G1 X144.804 Y-42.128 Z-7.397 F30000.000
G3 X156.200 Y-51.466 Z-7.397 I9.413 J-0.135 K0.000 F150000.000
G3 X163.419 Y-40.280 Z-7.397 I-1.983 J9.202 K0.000 F150000.000
G3 X152.233 Y-33.061 Z-7.397 I-9.202 J-1.983 K0.000 F150000.000
G3 X144.804 Y-42.128 Z-7.397 I1.983 J-9.202 K0.000 F150000.000
G1 X144.804 Y-42.128 Z-8.453 F30000.000
G3 X156.200 Y-51.466 Z-8.453 I9.413 J-0.135 K0.000 F150000.000
G3 X163.419 Y-40.280 Z-8.453 I-1.983 J9.202 K0.000 F150000.000
G3 X152.233 Y-33.061 Z-8.453 I-9.202 J-1.983 K0.000 F150000.000
G3 X144.804 Y-42.128 Z-8.453 I1.983 J-9.202 K0.000 F150000.000
G1 X144.804 Y-42.128 Z-9.510 F30000.000
G3 X156.200 Y-51.466 Z-9.510 I9.413 J-0.135 K0.000 F150000.000
G3 X163.419 Y-40.280 Z-9.510 I-1.983 J9.202 K0.000 F150000.000
G3 X152.233 Y-33.061 Z-9.510 I-9.202 J-1.983 K0.000 F150000.000
G3 X144.804 Y-42.128 Z-9.510 I1.983 J-9.202 K0.000 F150000.000
G1 X144.804 Y-42.128 Z-10.000 F30000.000
G3 X156.200 Y-51.466 Z-10.000 I9.413 J-0.135 K0.000 F150000.000
G3 X163.419 Y-40.280 Z-10.000 I-1.983 J9.202 K0.000 F150000.000
G3 X152.233 Y-33.061 Z-10.000 I-9.202 J-1.983 K0.000 F150000.000
G3 X144.804 Y-42.128 Z-10.000 I1.983 J-9.202 K0.000 F150000.000
G0 Z5.000
G0 Z5.000
G0 X144.804 Y-42.128
G0 X177.800 Y-21.741
G0 X177.800 Y-21.741 Z3.000
G1 X177.800 Y-21.741 Z-1.057 F30000.000
G3 X179.436 Y-22.341 Z-1.057 I1.200 J0.741 K0.000 F150000.000
G3 X178.564 Y-19.659 Z-1.057 I-0.436 J1.341 K0.000 F150000.000
G3 X177.800 Y-21.741 Z-1.057 I0.436 J-1.341 K0.000 F150000.000
G1 X177.800 Y-21.741 Z-2.113 F30000.000
G3 X179.436 Y-22.341 Z-2.113 I1.200 J0.741 K0.000 F150000.000
G3 X178.564 Y-19.659 Z-2.113 I-0.436 J1.341 K0.000 F150000.000
G3 X177.800 Y-21.741 Z-2.113 I0.436 J-1.341 K0.000 F150000.000
G1 X177.800 Y-21.741 Z-3.170 F30000.000
G3 X179.436 Y-22.341 Z-3.170 I1.200 J0.741 K0.000 F150000.000
G3 X178.564 Y-19.659 Z-3.170 I-0.436 J1.341 K0.000 F150000.000
G3 X177.800 Y-21.741 Z-3.170 I0.436 J-1.341 K0.000 F150000.000
G1 X177.800 Y-21.741 Z-4.227 F30000.000
G3 X179.436 Y-22.341 Z-4.227 I1.200 J0.741 K0.000 F150000.000
G3 X178.564 Y-19.659 Z-4.227 I-0.436 J1.341 K0.000 F150000.000
G3 X177.800 Y-21.741 Z-4.227 I0.436 J-1.341 K0.000 F150000.000
G1 X177.800 Y-21.741 Z-5.283 F30000.000
G3 X179.436 Y-22.341 Z-5.283 I1.200 J0.741 K0.000 F150000.000
G3 X178.564 Y-19.659 Z-5.283 I-0.436 J1.341 K0.000 F150000.000
G3 X177.800 Y-21.741 Z-5.283 I0.436 J-1.341 K0.000 F150000.000
G1 X177.800 Y-21.741 Z-6.340 F30000.000
G3 X179.436 Y-22.341 Z-6.340 I1.200 J0.741 K0.000 F150000.000
G3 X178.564 Y-19.659 Z-6.340 I-0.436 J1.341 K0.000 F150000.000
G3 X177.800 Y-21.741 Z-6.340 I0.436 J-1.341 K0.000 F150000.000
G1 X177.800 Y-21.741 Z-7.397 F30000.000
G3 X179.436 Y-22.341 Z-7.397 I1.200 J0.741 K0.000 F150000.000
G3 X178.564 Y-19.659 Z-7.397 I-0.436 J1.341 K0.000 F150000.000
G3 X177.800 Y-21.741 Z-7.397 I0.436 J-1.341 K0.000 F150000.000
G1 X177.800 Y-21.741 Z-8.453 F30000.000
G3 X179.436 Y-22.341 Z-8.453 I1.200 J0.741 K0.000 F150000.000
G3 X178.564 Y-19.659 Z-8.453 I-0.436 J1.341 K0.000 F150000.000
G3 X177.800 Y-21.741 Z-8.453 I0.436 J-1.341 K0.000 F150000.000
G1 X177.800 Y-21.741 Z-9.510 F30000.000
G3 X179.436 Y-22.341 Z-9.510 I1.200 J0.741 K0.000 F150000.000
G3 X178.564 Y-19.659 Z-9.510 I-0.436 J1.341 K0.000 F150000.000
G3 X177.800 Y-21.741 Z-9.510 I0.436 J-1.341 K0.000 F150000.000
G1 X177.800 Y-21.741 Z-10.000 F30000.000
G3 X179.436 Y-22.341 Z-10.000 I1.200 J0.741 K0.000 F150000.000
G3 X178.564 Y-19.659 Z-10.000 I-0.436 J1.341 K0.000 F150000.000
G3 X177.800 Y-21.741 Z-10.000 I0.436 J-1.341 K0.000 F150000.000
G0 Z5.000
G0 Z5.000
(Finish operation: Profile)
(Begin postamble)
M5
G17 G90
M2
