(Exported by FreeCAD)
(Post Processor: grbl_post)
(Output Time:2022-01-03 21:13:45.883025)
(Begin preamble)
G17 G90
G21
(Begin operation: Fixture)
(Path: Fixture)
G54
(Finish operation: Fixture)
(Begin operation: TC: 3.175 Z2 Q3.175 end mill002)
(Path: TC: 3.175 Z2 Q3.175 end mill002)
(TC: 3.175 Z2 Q3.175 end mill002)
(Begin toolchange)
( M6 T10.0 )
M3 S24000.0
(Finish operation: TC: 3.175 Z2 Q3.175 end mill002)
(Begin operation: Pocket_Shape)
(Path: Pocket_Shape)
(Pocket_Shape)
G0 Z25.000
G0 X160.069 Y64.023
G0 Z23.000
G1 X160.069 Y64.023 Z8.415 F30000.000
G3 X138.028 Y73.145 Z8.415 I-22.023 J-22.023 K0.000 F150000.000
G1 X45.972 Y73.145 Z8.415 F150000.000
G3 X14.809 Y42.000 Z8.415 I-0.019 J-31.145 K0.000 F150000.000
G3 X45.972 Y10.855 Z8.415 I31.145 J0.000 K0.000 F150000.000
G1 X138.028 Y10.855 Z8.415 F150000.000
G3 X169.041 Y45.053 Z8.415 I0.019 J31.145 K0.000 F150000.000
G3 X160.069 Y64.023 Z8.415 I-30.995 J-3.053 K0.000 F150000.000
G0 Z25.000
G0 X159.509 Y63.462 Z25.000
G0 X159.509 Y63.462 Z23.000
G1 X159.509 Y63.462 Z8.415 F30000.000
G3 X138.018 Y72.352 Z8.415 I-21.463 J-21.463 K0.000 F150000.000
G1 X45.982 Y72.352 Z8.415 F150000.000
G3 X15.601 Y42.000 Z8.415 I-0.028 J-30.352 K0.000 F150000.000
G3 X45.982 Y11.648 Z8.415 I30.352 J0.000 K0.000 F150000.000
G1 X138.018 Y11.648 Z8.415 F150000.000
G3 X168.252 Y44.975 Z8.415 I0.028 J30.353 K0.000 F150000.000
G3 X159.509 Y63.462 Z8.415 I-30.207 J-2.976 K0.000 F150000.000
G0 Z25.000
G0 X159.335 Y63.289 Z25.000
G0 X159.335 Y63.289 Z23.000
G1 X159.335 Y63.289 Z8.415 F30000.000
G3 X138.110 Y72.106 Z8.415 I-21.288 J-21.289 K0.000 F150000.000
G1 X45.953 Y72.107 Z8.415 F150000.000
G3 X45.890 Y11.894 Z8.415 I0.000 J-30.107 K0.000 F150000.000
G1 X138.047 Y11.893 Z8.415 F150000.000
G3 X168.052 Y39.535 Z8.415 I-0.001 J30.108 K0.000 F150000.000
G3 X159.335 Y63.289 Z8.415 I-30.005 J2.465 K0.000 F150000.000
G0 Z25.000
G0 X158.775 Y62.729 Z25.000
G0 X158.775 Y62.729 Z23.000
G1 X158.775 Y62.729 Z8.415 F30000.000
G3 X138.089 Y71.314 Z8.415 I-20.728 J-20.729 K0.000 F150000.000
G1 X45.953 Y71.315 Z8.415 F150000.000
G3 X45.911 Y12.686 Z8.415 I0.000 J-29.315 K0.000 F150000.000
G1 X138.047 Y12.685 Z8.415 F150000.000
G3 X167.264 Y39.619 Z8.415 I-0.001 J29.315 K0.000 F150000.000
G3 X158.775 Y62.729 Z8.415 I-29.217 J2.381 K0.000 F150000.000
G1 X158.775 Y62.729 Z6.830 F30000.000
G3 X138.089 Y71.314 Z6.830 I-20.728 J-20.729 K0.000 F150000.000
G1 X45.953 Y71.315 Z6.830 F150000.000
G3 X45.911 Y12.686 Z6.830 I0.000 J-29.315 K0.000 F150000.000
G1 X138.047 Y12.685 Z6.830 F150000.000
G3 X167.264 Y39.619 Z6.830 I-0.001 J29.315 K0.000 F150000.000
G3 X158.775 Y62.729 Z6.830 I-29.217 J2.381 K0.000 F150000.000
G0 Z25.000
G0 X159.335 Y63.289 Z25.000
G0 X159.335 Y63.289 Z23.000
G1 X159.335 Y63.289 Z6.830 F30000.000
G3 X138.110 Y72.106 Z6.830 I-21.288 J-21.289 K0.000 F150000.000
G1 X45.953 Y72.107 Z6.830 F150000.000
G3 X45.890 Y11.894 Z6.830 I0.000 J-30.107 K0.000 F150000.000
G1 X138.047 Y11.893 Z6.830 F150000.000
G3 X168.052 Y39.535 Z6.830 I-0.001 J30.108 K0.000 F150000.000
G3 X159.335 Y63.289 Z6.830 I-30.005 J2.465 K0.000 F150000.000
G0 Z25.000
G0 X159.509 Y63.462 Z25.000
G0 X159.509 Y63.462 Z23.000
G1 X159.509 Y63.462 Z6.830 F30000.000
G3 X138.018 Y72.352 Z6.830 I-21.463 J-21.463 K0.000 F150000.000
G1 X45.982 Y72.352 Z6.830 F150000.000
G3 X15.601 Y42.000 Z6.830 I-0.028 J-30.352 K0.000 F150000.000
G3 X45.982 Y11.648 Z6.830 I30.352 J0.000 K0.000 F150000.000
G1 X138.018 Y11.648 Z6.830 F150000.000
G3 X168.252 Y44.975 Z6.830 I0.028 J30.353 K0.000 F150000.000
G3 X159.509 Y63.462 Z6.830 I-30.207 J-2.976 K0.000 F150000.000
G0 Z25.000
G0 X160.069 Y64.023 Z25.000
G0 X160.069 Y64.023 Z23.000
G1 X160.069 Y64.023 Z6.830 F30000.000
G3 X138.028 Y73.145 Z6.830 I-22.023 J-22.023 K0.000 F150000.000
G1 X45.972 Y73.145 Z6.830 F150000.000
G3 X14.809 Y42.000 Z6.830 I-0.019 J-31.145 K0.000 F150000.000
G3 X45.972 Y10.855 Z6.830 I31.145 J0.000 K0.000 F150000.000
G1 X138.028 Y10.855 Z6.830 F150000.000
G3 X169.041 Y45.053 Z6.830 I0.019 J31.145 K0.000 F150000.000
G3 X160.069 Y64.023 Z6.830 I-30.995 J-3.053 K0.000 F150000.000
G1 X160.069 Y64.023 Z5.245 F30000.000
G3 X138.028 Y73.145 Z5.245 I-22.023 J-22.023 K0.000 F150000.000
G1 X45.972 Y73.145 Z5.245 F150000.000
G3 X14.809 Y42.000 Z5.245 I-0.019 J-31.145 K0.000 F150000.000
G3 X45.972 Y10.855 Z5.245 I31.145 J0.000 K0.000 F150000.000
G1 X138.028 Y10.855 Z5.245 F150000.000
G3 X169.041 Y45.053 Z5.245 I0.019 J31.145 K0.000 F150000.000
G3 X160.069 Y64.023 Z5.245 I-30.995 J-3.053 K0.000 F150000.000
G0 Z25.000
G0 X159.508 Y63.462 Z25.000
G0 X159.508 Y63.462 Z23.000
G1 X159.508 Y63.462 Z5.245 F30000.000
G3 X138.018 Y72.352 Z5.245 I-21.463 J-21.463 K0.000 F150000.000
G1 X45.982 Y72.352 Z5.245 F150000.000
G3 X15.601 Y42.000 Z5.245 I-0.028 J-30.352 K0.000 F150000.000
G3 X45.982 Y11.648 Z5.245 I30.352 J0.000 K0.000 F150000.000
G1 X138.018 Y11.648 Z5.245 F150000.000
G3 X168.252 Y44.975 Z5.245 I0.028 J30.353 K0.000 F150000.000
G3 X159.508 Y63.462 Z5.245 I-30.207 J-2.976 K0.000 F150000.000
G0 Z25.000
G0 X159.335 Y63.289 Z25.000
G0 X159.335 Y63.289 Z23.000
G1 X159.335 Y63.289 Z5.245 F30000.000
G3 X138.110 Y72.106 Z5.245 I-21.288 J-21.289 K0.000 F150000.000
G1 X45.953 Y72.107 Z5.245 F150000.000
G3 X45.890 Y11.894 Z5.245 I0.000 J-30.107 K0.000 F150000.000
G1 X138.047 Y11.893 Z5.245 F150000.000
G3 X168.052 Y39.535 Z5.245 I-0.001 J30.108 K0.000 F150000.000
G3 X159.335 Y63.289 Z5.245 I-30.005 J2.465 K0.000 F150000.000
G0 Z25.000
G0 X158.775 Y62.729 Z25.000
G0 X158.775 Y62.729 Z23.000
G1 X158.775 Y62.729 Z5.245 F30000.000
G3 X138.089 Y71.314 Z5.245 I-20.728 J-20.729 K0.000 F150000.000
G1 X45.953 Y71.315 Z5.245 F150000.000
G3 X45.911 Y12.686 Z5.245 I0.000 J-29.315 K0.000 F150000.000
G1 X138.047 Y12.685 Z5.245 F150000.000
G3 X167.264 Y39.619 Z5.245 I-0.001 J29.315 K0.000 F150000.000
G3 X158.775 Y62.729 Z5.245 I-29.217 J2.381 K0.000 F150000.000
G1 X158.775 Y62.729 Z5.100 F30000.000
G3 X138.089 Y71.314 Z5.100 I-20.728 J-20.729 K0.000 F150000.000
G1 X45.953 Y71.315 Z5.100 F150000.000
G3 X45.911 Y12.686 Z5.100 I0.000 J-29.315 K0.000 F150000.000
G1 X138.047 Y12.685 Z5.100 F150000.000
G3 X167.264 Y39.619 Z5.100 I-0.001 J29.315 K0.000 F150000.000
G3 X158.775 Y62.729 Z5.100 I-29.217 J2.381 K0.000 F150000.000
G0 Z25.000
G0 X159.335 Y63.289 Z25.000
G0 X159.335 Y63.289 Z23.000
G1 X159.335 Y63.289 Z5.100 F30000.000
G3 X138.110 Y72.106 Z5.100 I-21.288 J-21.289 K0.000 F150000.000
G1 X45.953 Y72.107 Z5.100 F150000.000
G3 X45.890 Y11.894 Z5.100 I0.000 J-30.107 K0.000 F150000.000
G1 X138.047 Y11.893 Z5.100 F150000.000
G3 X168.052 Y39.535 Z5.100 I-0.001 J30.108 K0.000 F150000.000
G3 X159.335 Y63.289 Z5.100 I-30.005 J2.465 K0.000 F150000.000
G0 Z25.000
G0 X159.509 Y63.462 Z25.000
G0 X159.509 Y63.462 Z23.000
G1 X159.509 Y63.462 Z5.100 F30000.000
G3 X138.018 Y72.352 Z5.100 I-21.463 J-21.463 K0.000 F150000.000
G1 X45.982 Y72.352 Z5.100 F150000.000
G3 X15.601 Y42.000 Z5.100 I-0.028 J-30.352 K0.000 F150000.000
G3 X45.982 Y11.648 Z5.100 I30.352 J0.000 K0.000 F150000.000
G1 X138.018 Y11.648 Z5.100 F150000.000
G3 X168.252 Y44.975 Z5.100 I0.028 J30.353 K0.000 F150000.000
G3 X159.509 Y63.462 Z5.100 I-30.207 J-2.976 K0.000 F150000.000
G0 Z25.000
G0 X160.069 Y64.023 Z25.000
G0 X160.069 Y64.023 Z23.000
G1 X160.069 Y64.023 Z5.100 F30000.000
G3 X138.028 Y73.145 Z5.100 I-22.023 J-22.023 K0.000 F150000.000
G1 X45.972 Y73.145 Z5.100 F150000.000
G3 X14.809 Y42.000 Z5.100 I-0.019 J-31.145 K0.000 F150000.000
G3 X45.972 Y10.855 Z5.100 I31.145 J0.000 K0.000 F150000.000
G1 X138.028 Y10.855 Z5.100 F150000.000
G3 X169.041 Y45.053 Z5.100 I0.019 J31.145 K0.000 F150000.000
G3 X160.069 Y64.023 Z5.100 I-30.995 J-3.053 K0.000 F150000.000
G1 X160.069 Y64.023 Z5.000 F30000.000
G3 X138.028 Y73.145 Z5.000 I-22.023 J-22.023 K0.000 F150000.000
G1 X45.972 Y73.145 Z5.000 F150000.000
G3 X14.809 Y42.000 Z5.000 I-0.019 J-31.145 K0.000 F150000.000
G3 X45.972 Y10.855 Z5.000 I31.145 J0.000 K0.000 F150000.000
G1 X138.028 Y10.855 Z5.000 F150000.000
G3 X169.041 Y45.053 Z5.000 I0.019 J31.145 K0.000 F150000.000
G3 X160.069 Y64.023 Z5.000 I-30.995 J-3.053 K0.000 F150000.000
G0 Z25.000
G0 X159.508 Y63.462 Z25.000
G0 X159.508 Y63.462 Z23.000
G1 X159.508 Y63.462 Z5.000 F30000.000
G3 X138.018 Y72.352 Z5.000 I-21.463 J-21.463 K0.000 F150000.000
G1 X45.982 Y72.352 Z5.000 F150000.000
G3 X15.601 Y42.000 Z5.000 I-0.028 J-30.352 K0.000 F150000.000
G3 X45.982 Y11.648 Z5.000 I30.352 J0.000 K0.000 F150000.000
G1 X138.018 Y11.648 Z5.000 F150000.000
G3 X168.252 Y44.975 Z5.000 I0.028 J30.353 K0.000 F150000.000
G3 X159.508 Y63.462 Z5.000 I-30.207 J-2.976 K0.000 F150000.000
G0 Z25.000
G0 X159.335 Y63.289 Z25.000
G0 X159.335 Y63.289 Z23.000
G1 X159.335 Y63.289 Z5.000 F30000.000
G3 X138.110 Y72.106 Z5.000 I-21.288 J-21.289 K0.000 F150000.000
G1 X45.953 Y72.107 Z5.000 F150000.000
G3 X45.890 Y11.894 Z5.000 I0.000 J-30.107 K0.000 F150000.000
G1 X138.047 Y11.893 Z5.000 F150000.000
G3 X168.052 Y39.535 Z5.000 I-0.001 J30.108 K0.000 F150000.000
G3 X159.335 Y63.289 Z5.000 I-30.005 J2.465 K0.000 F150000.000
G0 Z25.000
G0 X158.775 Y62.729 Z25.000
G0 X158.775 Y62.729 Z23.000
G1 X158.775 Y62.729 Z5.000 F30000.000
G3 X138.089 Y71.314 Z5.000 I-20.728 J-20.729 K0.000 F150000.000
G1 X45.953 Y71.315 Z5.000 F150000.000
G3 X45.911 Y12.686 Z5.000 I0.000 J-29.315 K0.000 F150000.000
G1 X138.047 Y12.685 Z5.000 F150000.000
G3 X167.264 Y39.619 Z5.000 I-0.001 J29.315 K0.000 F150000.000
G3 X158.775 Y62.729 Z5.000 I-29.217 J2.381 K0.000 F150000.000
G0 Z25.000
G0 Z25.000
(Finish operation: Pocket_Shape)
(Begin postamble)
M5
G17 G90
M2
