;FLAVOR:Marlin
;TIME:13707
;Filament used: 10.2865m
;Layer height: 0.2
;MINX:46.7
;MINY:88.056
;MINZ:0.2
;MAXX:173.3
;MAXY:131.976
;MAXZ:25
;TARGET_MACHINE.NAME:Creality Ender-3
;Generated with Cura_SteamEngine 5.7.0
M140 S70
M105
M190 S70
M104 S240
M105
M109 S240
M82 ;absolute extrusion mode
; Ender 3 Custom Start G-code
G92 E0 ; Reset Extruder
G28 ; Home all axes
M420 S1 ; Rappel du Bed levelling sauvegardé
;G29 ; pour refaire un bed levelling à chaque print
G1 Z2.0 F3000 ; Move Z Axis up little to prevent scratching of Heat Bed
G1 X0.1 Y20 Z0.3 F5000.0 ; Move to start position
G1 X0.1 Y200.0 Z0.3 F1500.0 E15 ; Draw the first line
G1 X0.4 Y200.0 Z0.3 F5000.0 ; Move to side a little
G1 X0.4 Y20 Z0.3 F1500.0 E30 ; Draw the second line
G92 E0 ; Reset Extruder
G1 Z2.0 F3000 ; Move Z Axis up little to prevent scratching of Heat Bed
G1 X5 Y20 Z0.3 F5000.0 ; Move over to prevent blob squish
G92 E0
G92 E0
G1 F2700 E-5
;LAYER_COUNT:125
;LAYER:0
M107
;MESH:support controleur-Body.3mf
G0 F6000 X73.793 Y106.225 Z0.2
;TYPE:WALL-INNER
G1 F2700 E0
G1 F900 X72.926 Y106.432 E0.02965
G1 X72.059 Y106.432 E0.05848
G1 X71.198 Y106.223 E0.08795
G1 X70.42 Y105.812 E0.11722
G1 X69.761 Y105.224 E0.14659
G1 X69.244 Y104.476 E0.17684
G1 X68.948 Y103.667 E0.20549
G1 X68.839 Y102.8 E0.23455
G1 X68.953 Y101.898 E0.26479
G1 X69.266 Y101.083 E0.29383
G1 X69.761 Y100.372 E0.32264
G1 X70.421 Y99.783 E0.35206
G1 X71.203 Y99.375 E0.3814
G1 X72.068 Y99.164 E0.41101
G1 X72.948 Y99.164 E0.44028
G1 X73.797 Y99.378 E0.4694
G1 X74.578 Y99.783 E0.49867
G1 X75.245 Y100.376 E0.52835
G1 X75.741 Y101.11 E0.55781
G1 X76.053 Y101.944 E0.58743
G1 X76.156 Y102.803 E0.61621
G1 X76.053 Y103.654 E0.64472
G1 X75.74 Y104.492 E0.67447
G1 X75.246 Y105.218 E0.70368
G1 X74.58 Y105.811 E0.73334
G1 X73.793 Y106.225 E0.76291
G0 F6000 X73.653 Y105.847
G1 F900 X72.925 Y106.025 E0.78784
G1 X72.142 Y106.033 E0.81388
G1 X71.376 Y105.856 E0.84003
G1 X70.653 Y105.483 E0.86709
G1 X70.062 Y104.956 E0.89343
G1 X69.606 Y104.299 E0.92003
G1 X69.336 Y103.567 E0.94598
G1 X69.241 Y102.799 E0.97171
G1 X69.34 Y102.021 E0.9978
G1 X69.605 Y101.302 E1.02329
G1 X70.065 Y100.646 E1.04993
G1 X70.649 Y100.114 E1.07621
G1 X71.375 Y99.745 E1.1033
G1 X72.112 Y99.564 E1.12854
G1 X72.889 Y99.564 E1.15438
G1 X73.623 Y99.746 E1.17953
G1 X74.345 Y100.11 E1.20643
G1 X74.944 Y100.646 E1.23316
G1 X75.393 Y101.307 E1.25974
G1 X75.661 Y102.032 E1.28545
G1 X75.755 Y102.803 E1.31128
G1 X75.656 Y103.578 E1.33727
G1 X75.384 Y104.308 E1.36318
G1 X74.94 Y104.955 E1.38928
G1 X74.352 Y105.48 E1.41549
G1 X73.653 Y105.847 E1.44175
G0 F6000 X73.512 Y105.47
G1 F900 X72.844 Y105.628 E1.46458
G1 X72.156 Y105.628 E1.48747
G1 X71.486 Y105.471 E1.51035
G1 X70.88 Y105.144 E1.53326
G1 X70.366 Y104.686 E1.55615
G1 X69.96 Y104.099 E1.57989
G1 X69.732 Y103.494 E1.6014
G1 X69.644 Y102.8 E1.62466
G1 X69.731 Y102.102 E1.64806
G1 X69.983 Y101.457 E1.67109
G1 X70.365 Y100.911 E1.69325
G1 X70.881 Y100.451 E1.71625
G1 X71.483 Y100.131 E1.73892
G1 X72.156 Y99.964 E1.76198
G1 X72.845 Y99.964 E1.7849
G1 X73.51 Y100.135 E1.80774
G1 X74.118 Y100.45 E1.83051
G1 X74.636 Y100.912 E1.8536
G1 X75.032 Y101.485 E1.87677
G1 X75.269 Y102.121 E1.89934
G1 X75.352 Y102.809 E1.92239
G1 X75.265 Y103.491 E1.94526
G1 X75.033 Y104.113 E1.96734
G1 X74.639 Y104.687 E1.99049
G1 X74.119 Y105.145 E2.01354
G1 X73.512 Y105.47 E2.03644
G1 F2700 E-2.96356
G0 F6000 X73.65 Y105.735
G0 X75.383 Y105.337
G0 X144.62 Y105.341
G0 X146.198 Y106.223
G1 F2700 E2.03644
G1 F900 X145.42 Y105.812 E2.06571
G1 X144.759 Y105.223 E2.09515
G1 X144.243 Y104.475 E2.12538
G1 X143.943 Y103.651 E2.15454
G1 X143.84 Y102.804 E2.18292
G1 X143.943 Y101.944 E2.21173
G1 X144.264 Y101.085 E2.24223
G1 X144.761 Y100.372 E2.27114
G1 X145.421 Y99.783 E2.30056
G1 X146.203 Y99.375 E2.3299
G1 X147.068 Y99.164 E2.35951
G1 X147.948 Y99.164 E2.38878
G1 X148.797 Y99.378 E2.4179
G1 X149.578 Y99.783 E2.44716
G1 X150.245 Y100.376 E2.47684
G1 X150.741 Y101.11 E2.50631
G1 X151.046 Y101.924 E2.53522
G1 X151.157 Y102.8 E2.56459
G1 X151.048 Y103.669 E2.59372
G1 X150.74 Y104.492 E2.62295
G1 X150.246 Y105.218 E2.65215
G1 X149.58 Y105.811 E2.68181
G1 X148.793 Y106.225 E2.71139
G1 X147.926 Y106.432 E2.74104
G1 X147.059 Y106.432 E2.76987
G1 X146.198 Y106.223 E2.79934
G0 F6000 X146.376 Y105.856
G1 F900 X145.653 Y105.483 E2.8264
G1 X145.061 Y104.956 E2.85276
G1 X144.614 Y104.311 E2.87886
G1 X144.335 Y103.564 E2.90538
G1 X144.241 Y102.801 E2.93095
G1 X144.34 Y102.018 E2.9572
G1 X144.605 Y101.301 E2.98263
G1 X145.065 Y100.646 E3.00925
G1 X145.649 Y100.114 E3.03552
G1 X146.375 Y99.745 E3.06261
G1 X147.112 Y99.564 E3.08785
G1 X147.889 Y99.564 E3.11369
G1 X148.623 Y99.746 E3.13885
G1 X149.345 Y100.11 E3.16574
G1 X149.944 Y100.646 E3.19247
G1 X150.393 Y101.307 E3.21905
G1 X150.656 Y102.021 E3.24436
G1 X150.755 Y102.799 E3.27044
G1 X150.66 Y103.568 E3.29622
G1 X150.384 Y104.308 E3.32248
G1 X149.94 Y104.955 E3.34858
G1 X149.352 Y105.48 E3.3748
G1 X148.653 Y105.847 E3.40106
G1 X147.925 Y106.025 E3.42599
G1 X147.142 Y106.033 E3.45203
G1 X146.376 Y105.856 E3.47818
G0 F6000 X146.486 Y105.471
G1 F900 X145.88 Y105.144 E3.50108
G1 X145.366 Y104.686 E3.52398
G1 X144.96 Y104.099 E3.54772
G1 X144.731 Y103.492 E3.5693
G1 X144.648 Y102.803 E3.59238
G1 X144.731 Y102.103 E3.61582
G1 X144.983 Y101.457 E3.63889
G1 X145.365 Y100.911 E3.66105
G1 X145.881 Y100.451 E3.68404
G1 X146.483 Y100.131 E3.70672
G1 X147.156 Y99.964 E3.72978
G1 X147.845 Y99.964 E3.7527
G1 X148.51 Y100.135 E3.77553
G1 X149.118 Y100.45 E3.79831
G1 X149.636 Y100.912 E3.82139
G1 X150.032 Y101.485 E3.84456
G1 X150.269 Y102.12 E3.8671
G1 X150.352 Y102.801 E3.88992
G1 X150.268 Y103.464 E3.91215
G1 X150.035 Y104.11 E3.93499
G1 X149.64 Y104.687 E3.95825
G1 X149.119 Y105.145 E3.98132
G1 X148.512 Y105.47 E4.00422
G1 X147.844 Y105.628 E4.02705
G1 X147.156 Y105.628 E4.04993
G1 X146.486 Y105.471 E4.07282
G1 F2700 E-0.92718
G0 F6000 X146.348 Y105.733
G0 X148.92 Y106.362
G0 X148.92 Y116.256
G0 X172.1 Y116.456
G1 F2700 E4.07282
G1 F900 X172.1 Y89.256 E4.9775
G1 X47.9 Y89.256 E9.10841
G1 X47.9 Y116.456 E10.01308
G1 X172.1 Y116.456 E14.14399
G0 F6000 X172.416 Y116.856
G1 F900 X172.466 Y116.818 E14.14608
G1 X172.5 Y116.644 E14.15198
G1 X172.5 Y89.034 E15.07029
G1 X172.432 Y88.856 E15.07663
G1 X47.567 Y88.856 E19.22965
G1 X47.5 Y89.034 E19.23598
G1 X47.5 Y116.72 E20.15682
G1 X47.565 Y116.856 E20.16183
G1 X172.416 Y116.856 E24.31439
G0 F6000 X172.44 Y117.256
G1 F900 X172.597 Y117.221 E24.31974
G1 X172.768 Y117.091 E24.32689
G1 X172.9 Y116.807 E24.3373
G1 X172.9 Y88.981 E25.2628
G1 X172.831 Y88.73 E25.27146
G1 X172.671 Y88.519 E25.28027
G1 X172.425 Y88.456 E25.28871
G1 X47.571 Y88.456 E29.44137
G1 X47.322 Y88.522 E29.44994
G1 X47.169 Y88.728 E29.45848
G1 X47.1 Y88.981 E29.4672
G1 X47.1 Y116.807 E30.39269
G1 X47.23 Y117.086 E30.40293
G1 X47.366 Y117.204 E30.40892
G1 X47.57 Y117.256 E30.41592
G1 X172.44 Y117.256 E34.56912
G1 F2700 E29.56912
G0 F6000 X172.405 Y116.958
G0 X146.485 Y116.256
G0 X147.025 Y106.601
G0 X146.485 Y105.776
G0 X146.652 Y105.099
;TYPE:WALL-OUTER
G1 F2700 E34.56912
G1 F900 X146.09 Y104.802 E34.59026
G1 X145.666 Y104.421 E34.60922
G1 X145.33 Y103.944 E34.62862
G1 X145.123 Y103.395 E34.64814
G1 X145.048 Y102.813 E34.66766
G1 X145.119 Y102.216 E34.68765
G1 X145.322 Y101.671 E34.70699
G1 X145.665 Y101.175 E34.72705
G1 X146.109 Y100.779 E34.74684
G1 X146.651 Y100.501 E34.7671
G1 X147.193 Y100.366 E34.78568
G1 X147.807 Y100.366 E34.8061
G1 X148.368 Y100.509 E34.82536
G1 X148.89 Y100.779 E34.8449
G1 X149.318 Y101.158 E34.86392
G1 X149.674 Y101.671 E34.88468
G1 X149.873 Y102.201 E34.90351
G1 X149.948 Y102.787 E34.92316
G1 X149.876 Y103.382 E34.9431
G1 X149.674 Y103.929 E34.96249
G1 X149.335 Y104.421 E34.98236
G1 X148.891 Y104.817 E35.00215
G1 X148.344 Y105.099 E35.02262
G1 X147.796 Y105.231 E35.04137
G1 X147.204 Y105.231 E35.06106
G1 X146.652 Y105.099 E35.07994
G1 F2700 E30.07994
G0 F6000 X146.485 Y105.776
G0 X144.62 Y105.341
G0 X75.383 Y105.337
G0 X73.51 Y105.778
G0 X73.344 Y105.099
G1 F2700 E35.07994
G1 F900 X72.796 Y105.231 E35.09868
G1 X72.204 Y105.231 E35.11837
G1 X71.652 Y105.099 E35.13725
G1 X71.09 Y104.802 E35.15839
G1 X70.666 Y104.421 E35.17735
G1 X70.33 Y103.944 E35.19676
G1 X70.123 Y103.396 E35.21624
G1 X70.048 Y102.813 E35.23579
G1 X70.119 Y102.216 E35.25579
G1 X70.322 Y101.671 E35.27513
G1 X70.665 Y101.175 E35.29519
G1 X71.109 Y100.779 E35.31498
G1 X71.651 Y100.501 E35.33524
G1 X72.193 Y100.366 E35.35381
G1 X72.807 Y100.366 E35.37424
G1 X73.368 Y100.509 E35.39349
G1 X73.89 Y100.779 E35.41304
G1 X74.318 Y101.158 E35.43205
G1 X74.674 Y101.671 E35.45282
G1 X74.873 Y102.201 E35.47165
G1 X74.948 Y102.788 E35.49133
G1 X74.877 Y103.38 E35.51116
G1 X74.674 Y103.929 E35.53063
G1 X74.335 Y104.421 E35.5505
G1 X73.891 Y104.817 E35.57029
G1 X73.344 Y105.099 E35.59076
G1 F2700 E30.59076
G0 F6000 X73.51 Y105.778
G0 X71.075 Y106.363
G0 X71.075 Y116.256
G0 X47.612 Y116.958
G0 X47.521 Y117.656
G1 F2700 E35.59076
G1 F900 X172.482 Y117.656 E39.74698
G1 X172.769 Y117.593 E39.75675
G1 X173.066 Y117.366 E39.76919
G1 X173.187 Y117.179 E39.7766
G1 X173.271 Y116.942 E39.78496
G1 X173.3 Y116.688 E39.79346
G1 X173.3 Y88.927 E40.7168
G1 X173.197 Y88.55 E40.72979
G1 X172.959 Y88.235 E40.74293
G1 X172.828 Y88.146 E40.74819
G1 X172.475 Y88.056 E40.76031
G1 X47.521 Y88.056 E44.9163
G1 X47.164 Y88.146 E44.92854
G1 X47.041 Y88.23 E44.9335
G1 X46.803 Y88.55 E44.94676
G1 X46.7 Y88.927 E44.95976
G1 X46.7 Y116.684 E45.88296
G1 X46.735 Y116.972 E45.89261
G1 X46.904 Y117.332 E45.90584
G1 X47.176 Y117.569 E45.91784
G1 X47.521 Y117.656 E45.92967
G1 F2700 E40.92967
G0 F6000 X47.612 Y116.958
G0 X171.928 Y116.284
G0 X171.74 Y116.096
;TYPE:SKIN
G1 F2700 E45.92967
G1 F900 X48.261 Y116.095 E50.0366
G1 X48.26 Y89.616 E50.91729
G1 X171.74 Y89.616 E55.02426
G1 X171.74 Y116.096 E55.90498
G1 F2700 E50.90498
G0 F6000 X172 Y116.096
G0 X146.163 Y116.256
G0 X146.979 Y106.599
G0 X146.168 Y106.308
G0 X146.088 Y106.567
G1 F2700 E55.90498
G1 F900 X146.992 Y106.787 E55.93593
G1 X147.995 Y106.79 E55.96929
G1 X148.717 Y106.611 E55.99403
G1 X149.005 Y106.518 E56.0041
G1 X149.589 Y106.214 E56.02599
G1 X149.817 Y106.075 E56.03487
G1 X150.519 Y105.452 E56.06609
G1 X151.018 Y104.72 E56.09556
G1 X151.133 Y104.478 E56.10447
G1 X151.406 Y103.723 E56.13117
G1 X151.516 Y102.791 E56.16238
G1 X151.397 Y101.846 E56.19406
G1 X151.071 Y100.953 E56.22568
G1 X150.519 Y100.14 E56.25837
G1 X149.845 Y99.542 E56.28834
G1 X149.581 Y99.378 E56.29867
G1 X148.919 Y99.036 E56.32346
G1 X148.092 Y98.833 E56.35178
G1 X147.782 Y98.804 E56.36213
G1 X147.214 Y98.804 E56.38103
G1 X146.938 Y98.828 E56.39024
G1 X146.073 Y99.036 E56.41983
G1 X145.411 Y99.378 E56.44461
G1 X145.178 Y99.521 E56.45371
G1 X144.481 Y100.136 E56.48462
G1 X143.946 Y100.919 E56.51616
G1 X143.603 Y101.821 E56.54826
G1 X143.476 Y102.813 E56.58152
G1 X143.587 Y103.675 E56.61043
G1 X143.658 Y103.944 E56.61968
G1 X143.934 Y104.657 E56.64511
G1 X144.481 Y105.456 E56.67732
G1 X145.209 Y106.104 E56.70973
G1 X146.088 Y106.567 E56.74278
G1 F2700 E51.74278
G0 F6000 X146.168 Y106.308
G0 X144.62 Y105.341
G0 X75.383 Y105.337
G0 X73.65 Y106.362
G0 X73.717 Y106.611
G1 F2700 E56.74278
G1 F900 X74.005 Y106.518 E56.75284
G1 X74.589 Y106.214 E56.77474
G1 X74.817 Y106.075 E56.78362
G1 X75.519 Y105.452 E56.81484
G1 X76.058 Y104.657 E56.84679
G1 X76.327 Y103.965 E56.87148
G1 X76.405 Y103.675 E56.88147
G1 X76.516 Y102.792 E56.91107
G1 X76.401 Y101.85 E56.94263
G1 X76.071 Y100.957 E56.9743
G1 X75.519 Y100.14 E57.00709
G1 X74.845 Y99.542 E57.03706
G1 X74.581 Y99.378 E57.0474
G1 X73.919 Y99.036 E57.07218
G1 X73.092 Y98.833 E57.1005
G1 X72.782 Y98.804 E57.11086
G1 X72.214 Y98.804 E57.12975
G1 X71.938 Y98.828 E57.13896
G1 X71.073 Y99.036 E57.16855
G1 X70.411 Y99.378 E57.19334
G1 X70.178 Y99.521 E57.20243
G1 X69.481 Y100.136 E57.23335
G1 X68.946 Y100.919 E57.26489
G1 X68.608 Y101.805 E57.29643
G1 X68.474 Y102.796 E57.32969
G1 X68.607 Y103.804 E57.36351
G1 X68.934 Y104.657 E57.39389
G1 X69.481 Y105.456 E57.4261
G1 X70.209 Y106.104 E57.45851
G1 X71.088 Y106.567 E57.49156
G1 X71.992 Y106.787 E57.5225
G1 X72.995 Y106.79 E57.55586
G1 X73.717 Y106.611 E57.5806
G1 F2700 E52.5806
G0 F6000 X73.65 Y106.362
G0 X71.075 Y106.363
G0 X71.075 Y116.256
G0 X48.578 Y116.356
G0 X48.578 Y115.895
G1 F2700 E57.5806
G1 F900 X48.46 Y115.777 E57.58615
G0 F6000 X48.46 Y115.211
G1 F900 X49.144 Y115.895 E57.61832
G0 F6000 X49.71 Y115.895
G1 F900 X48.46 Y114.645 E57.67712
G0 F6000 X48.46 Y114.08
G1 F900 X50.275 Y115.895 E57.76249
G0 F6000 X50.841 Y115.895
G1 F900 X48.46 Y113.514 E57.87449
G0 F6000 X48.46 Y112.948
G1 F900 X51.407 Y115.895 E58.01311
G0 F6000 X51.972 Y115.895
G1 F900 X48.46 Y112.383 E58.1783
G0 F6000 X48.46 Y111.817
G1 F900 X52.538 Y115.895 E58.37012
G0 F6000 X53.104 Y115.895
G1 F900 X48.46 Y111.251 E58.58856
G0 F6000 X48.46 Y110.686
G1 F900 X53.669 Y115.895 E58.83357
G0 F6000 X54.235 Y115.895
G1 F900 X48.46 Y110.12 E59.10521
G0 F6000 X48.46 Y109.554
G1 F900 X54.801 Y115.895 E59.40347
G0 F6000 X55.366 Y115.895
G1 F900 X48.46 Y108.988 E59.72833
G0 F6000 X48.46 Y108.423
G1 F900 X55.932 Y115.895 E60.07979
G0 F6000 X56.498 Y115.895
G1 F900 X48.46 Y107.857 E60.45787
G0 F6000 X48.46 Y107.291
G1 F900 X57.064 Y115.895 E60.86258
G0 F6000 X57.629 Y115.895
G1 F900 X48.46 Y106.726 E61.29386
G0 F6000 X48.46 Y106.16
G1 F900 X58.195 Y115.895 E61.75177
G0 F6000 X58.761 Y115.895
G1 F900 X48.46 Y105.594 E62.23629
G0 F6000 X48.46 Y105.029
G1 F900 X59.326 Y115.895 E62.7474
G0 F6000 X59.892 Y115.895
G1 F900 X48.46 Y104.463 E63.28512
G0 F6000 X48.46 Y103.897
G1 F900 X60.458 Y115.895 E63.84947
G0 F6000 X61.023 Y115.895
G1 F900 X48.46 Y103.332 E64.4404
G0 F6000 X48.46 Y102.766
G1 F900 X61.589 Y115.895 E65.05794
G0 F6000 X62.155 Y115.895
G1 F900 X48.46 Y102.2 E65.70212
G0 F6000 X48.46 Y101.635
G1 F900 X62.72 Y115.895 E66.37286
G0 F6000 X63.286 Y115.895
G1 F900 X48.46 Y101.069 E67.07023
G0 F6000 X48.46 Y100.503
G1 F900 X63.852 Y115.895 E67.79422
G0 F6000 X64.417 Y115.895
G1 F900 X48.46 Y99.938 E68.54479
G0 F6000 X48.46 Y99.372
G1 F900 X64.983 Y115.895 E69.32198
G0 F6000 X65.549 Y115.895
G1 F900 X48.46 Y98.806 E70.1258
G0 F6000 X48.46 Y98.24
G1 F900 X66.114 Y115.895 E70.95621
G0 F6000 X66.68 Y115.895
G1 F900 X48.46 Y97.675 E71.81322
G0 F6000 X48.46 Y97.109
G1 F900 X67.246 Y115.895 E72.69686
G0 F6000 X67.812 Y115.895
G1 F900 X48.46 Y96.543 E73.60712
G0 F6000 X48.46 Y95.978
G1 F900 X68.377 Y115.895 E74.54395
G0 F6000 X68.943 Y115.895
G1 F900 X48.46 Y95.412 E75.50741
G0 F6000 X48.46 Y94.846
G1 F900 X69.509 Y115.895 E76.49749
G0 F6000 X70.074 Y115.895
G1 F900 X48.46 Y94.281 E77.51415
G0 F6000 X48.46 Y93.715
G1 F900 X70.64 Y115.895 E78.55743
G0 F6000 X71.206 Y115.895
G1 F900 X48.46 Y93.149 E79.62733
G0 F6000 X48.46 Y92.584
G1 F900 X71.771 Y115.895 E80.72381
G0 F6000 X72.337 Y115.895
G1 F900 X48.46 Y92.018 E81.84691
G0 F6000 X48.46 Y91.452
G1 F900 X72.903 Y115.895 E82.99663
G0 F6000 X73.468 Y115.895
G1 F900 X48.46 Y90.887 E84.17293
G0 F6000 X48.46 Y90.321
G1 F900 X74.034 Y115.895 E85.37585
G0 F6000 X74.6 Y115.895
G1 F900 X48.521 Y89.816 E86.60253
G0 F6000 X49.087 Y89.816
G1 F900 X75.165 Y115.895 E87.82918
G0 F6000 X75.731 Y115.895
G1 F900 X49.652 Y89.816 E89.05586
G0 F6000 X50.218 Y89.816
G1 F900 X76.297 Y115.895 E90.28254
G0 F6000 X76.863 Y115.895
G1 F900 X50.784 Y89.816 E91.50921
G0 F6000 X51.349 Y89.816
G1 F900 X77.428 Y115.895 E92.73589
G0 F6000 X77.994 Y115.895
G1 F900 X51.915 Y89.816 E93.96256
G0 F6000 X52.481 Y89.816
G1 F900 X78.56 Y115.895 E95.18924
G0 F6000 X79.125 Y115.895
G1 F900 X53.046 Y89.816 E96.41592
G0 F6000 X53.612 Y89.816
G1 F900 X69.214 Y105.418 E97.14979
G0 F6000 X69.84 Y106.044
G1 F900 X79.691 Y115.895 E97.61315
G0 F6000 X80.257 Y115.895
G1 F900 X71.15 Y106.788 E98.04151
G0 F6000 X71.896 Y106.969
G1 F900 X80.822 Y115.895 E98.46136
G0 F6000 X81.388 Y115.895
G1 F900 X72.483 Y106.989 E98.88025
G0 F6000 X73.043 Y106.984
G1 F900 X81.954 Y115.895 E99.2994
G0 F6000 X82.519 Y115.895
G1 F900 X73.496 Y106.871 E99.72384
G0 F6000 X73.938 Y106.748
G1 F900 X83.085 Y115.895 E100.15408
G0 F6000 X83.651 Y115.895
G1 F900 X74.33 Y106.574 E100.59251
