;FLAVOR:Marlin
;TIME:228
;Filament used: 0.17949m
;Layer height: 0.25
;MINX:108.595
;MINY:107.721
;MINZ:0.2
;MAXX:139.505
;MAXY:127.279
;MAXZ:6.45
;Generated with Cura_SteamEngine 5.2.1
M140 S60
M105
M190 S60
M104 S205
M105
M109 S205
M82 ;absolute extrusion mode
; Ender 3 Custom Start G-code
G92 E0 ; Reset Extruder
G28 ; Home all axes
M420 S1 ; Rappel du bed levelling
G1 Z2.0 F3000 ; Move Z Axis up little to prevent scratching of Heat Bed
G1 X0.1 Y20 Z0.3 F5000.0 ; Move to start position
G1 X0.1 Y200.0 Z0.3 F1500.0 E15 ; Draw the first line
G1 X0.4 Y200.0 Z0.3 F5000.0 ; Move to side a little
G1 X0.4 Y20 Z0.3 F1500.0 E30 ; Draw the second line
G92 E0 ; Reset Extruder
G1 Z2.0 F3000 ; Move Z Axis up little to prevent scratching of Heat Bed
G1 X5 Y20 Z0.3 F5000.0 ; Move over to prevent blob squish
G92 E0
G92 E0
G1 F2700 E-6.5
;LAYER_COUNT:26
;LAYER:0
M107
M204 S1000
M205 X20 Y20
G0 F1285.7 X138.122 Y123.441 Z0.2
;TYPE:SKIRT
G1 F2700 E0
G1 F600 X131.87 Y127.049 E0.2881
G1 X131.229 Y127.236 E0.31475
G1 X130.235 Y127.279 E0.35446
G1 X129.745 Y127.181 E0.37441
G1 X129.215 Y126.982 E0.397
G1 X124.05 Y124.002 E0.635
G1 X118.77 Y127.049 E0.87831
G1 X118.129 Y127.236 E0.90496
G1 X117.135 Y127.279 E0.94467
G1 X116.645 Y127.181 E0.96461
G1 X116.115 Y126.982 E0.98721
G1 X109.866 Y123.377 E1.27515
G1 X109.384 Y122.916 E1.30177
G1 X109.083 Y122.518 E1.32168
G1 X108.689 Y121.604 E1.36141
G1 X108.595 Y121.039 E1.38427
G1 X108.595 Y113.823 E1.67227
G1 X108.754 Y113.176 E1.69886
G1 X108.948 Y112.716 E1.71879
G1 X109.543 Y111.918 E1.75852
G1 X109.978 Y111.559 E1.78103
G1 X116.23 Y107.951 E2.06913
G1 X116.871 Y107.764 E2.09578
G1 X117.865 Y107.721 E2.13549
G1 X118.355 Y107.819 E2.15544
G1 X118.885 Y108.018 E2.17803
G1 X124.05 Y110.998 E2.41603
G1 X129.33 Y107.951 E2.65934
G1 X129.971 Y107.764 E2.68599
G1 X130.965 Y107.721 E2.7257
G1 X131.455 Y107.819 E2.74564
G1 X131.985 Y108.018 E2.76824
G1 X138.234 Y111.623 E3.05617
G1 X138.716 Y112.084 E3.08279
G1 X139.017 Y112.482 E3.10271
G1 X139.411 Y113.396 E3.14244
G1 X139.505 Y113.961 E3.1653
G1 X139.505 Y121.177 E3.4533
G1 X139.346 Y121.824 E3.47989
G1 X139.152 Y122.284 E3.49982
G1 X138.557 Y123.082 E3.53955
G1 X138.122 Y123.441 E3.56206
G0 F1285.7 X137.974 Y122.973
G1 F600 X131.652 Y126.621 E3.85338
G1 X131.06 Y126.78 E3.87784
G1 X130.145 Y126.781 E3.91436
G1 X129.548 Y126.621 E3.93903
G1 X124.05 Y123.449 E4.19237
G1 X118.552 Y126.621 E4.44571
G1 X117.96 Y126.78 E4.47017
G1 X117.045 Y126.781 E4.50669
G1 X116.448 Y126.621 E4.53136
G1 X110.13 Y122.975 E4.8225
G1 X109.694 Y122.541 E4.84706
G1 X109.236 Y121.75 E4.88354
G1 X109.075 Y121.154 E4.90818
G1 X109.075 Y113.852 E5.19962
G1 X109.233 Y113.257 E5.22419
G1 X109.69 Y112.464 E5.26072
G1 X110.126 Y112.027 E5.28536
G1 X116.448 Y108.379 E5.57667
G1 X117.04 Y108.22 E5.60114
G1 X117.955 Y108.219 E5.63766
G1 X118.552 Y108.379 E5.66233
G1 X124.05 Y111.551 E5.91567
G1 X129.548 Y108.379 E6.16901
G1 X130.14 Y108.22 E6.19347
G1 X131.055 Y108.219 E6.22999
G1 X131.652 Y108.379 E6.25466
G1 X137.97 Y112.025 E6.5458
G1 X138.406 Y112.459 E6.57035
G1 X138.864 Y113.25 E6.60683
G1 X139.025 Y113.846 E6.63147
G1 X139.025 Y121.148 E6.92291
G1 X138.867 Y121.743 E6.94748
G1 X138.41 Y122.536 E6.98401
G1 X137.974 Y122.973 E7.00865
G0 F1285.7 X137.465 Y122.713
G1 F600 X131.438 Y126.191 E7.28638
G1 X130.898 Y126.319 E7.30853
G1 X130.483 Y126.337 E7.32511
G1 X130.072 Y126.275 E7.3417
G1 X129.52 Y126.051 E7.36548
G1 X124.05 Y122.895 E7.61753
G1 X118.338 Y126.191 E7.88074
G1 X117.798 Y126.319 E7.90289
G1 X117.383 Y126.337 E7.91947
G1 X116.972 Y126.275 E7.93606
G1 X116.42 Y126.051 E7.95983
G1 X110.392 Y122.573 E8.2376
G1 X110.012 Y122.17 E8.25971
G1 X109.789 Y121.82 E8.27627
G1 X109.638 Y121.433 E8.29285
G1 X109.555 Y120.842 E8.31667
G1 X109.555 Y113.88 E8.59454
G1 X109.713 Y113.347 E8.61673
G1 X110.164 Y112.654 E8.64973
G1 X110.635 Y112.287 E8.67356
G1 X116.662 Y108.809 E8.95129
G1 X117.202 Y108.681 E8.97344
G1 X117.617 Y108.663 E8.99002
G1 X118.028 Y108.725 E9.00661
G1 X118.58 Y108.949 E9.03038
G1 X124.05 Y112.105 E9.28244
G1 X129.762 Y108.809 E9.54565
G1 X130.302 Y108.681 E9.5678
G1 X130.717 Y108.663 E9.58437
G1 X131.128 Y108.725 E9.60096
G1 X131.68 Y108.949 E9.62474
G1 X137.708 Y112.427 E9.9025
G1 X138.088 Y112.83 E9.92461
G1 X138.311 Y113.18 E9.94118
G1 X138.462 Y113.567 E9.95776
G1 X138.545 Y114.158 E9.98158
G1 X138.545 Y121.12 E10.25944
G1 X138.387 Y121.653 E10.28163
G1 X137.936 Y122.346 E10.31463
G1 X137.465 Y122.713 E10.33846
G0 F1285.7 X137.402 Y122.195
G1 F600 X131.228 Y125.757 E10.62295
G1 X130.745 Y125.854 E10.64261
G1 X130.379 Y125.845 E10.65723
G1 X129.936 Y125.736 E10.67544
G1 X124.05 Y122.34 E10.94666
G1 X118.128 Y125.757 E11.21954
G1 X117.645 Y125.854 E11.2392
G1 X117.279 Y125.845 E11.25381
G1 X116.836 Y125.736 E11.27202
G1 X110.661 Y122.174 E11.55654
G1 X110.339 Y121.806 E11.57606
G1 X110.163 Y121.485 E11.59067
G1 X110.035 Y121.048 E11.60885
G1 X110.035 Y113.911 E11.8937
G1 X110.193 Y113.448 E11.91323
G1 X110.383 Y113.135 E11.92784
G1 X110.698 Y112.805 E11.94605
G1 X116.872 Y109.243 E12.23054
G1 X117.355 Y109.146 E12.2502
G1 X117.721 Y109.155 E12.26481
G1 X118.164 Y109.264 E12.28302
G1 X124.05 Y112.66 E12.55424
G1 X129.972 Y109.243 E12.82712
G1 X130.455 Y109.146 E12.84678
G1 X130.821 Y109.155 E12.8614
G1 X131.264 Y109.264 E12.87961
G1 X137.439 Y112.826 E13.16413
G1 X137.761 Y113.194 E13.18364
G1 X137.937 Y113.515 E13.19825
G1 X138.065 Y113.952 E13.21643
G1 X138.065 Y121.089 E13.50128
G1 X137.907 Y121.552 E13.52081
G1 X137.717 Y121.865 E13.53542
G1 X137.402 Y122.195 E13.55363
G0 F1285.7 X136.985 Y121.881
G1 F600 X131.019 Y125.324 E13.82855
G1 X130.608 Y125.38 E13.84511
G1 X130.301 Y125.342 E13.85746
G1 X130 Y125.219 E13.87043
G1 X124.05 Y121.786 E14.1446
G1 X117.919 Y125.324 E14.42713
G1 X117.508 Y125.38 E14.44368
G1 X117.201 Y125.342 E14.45603
G1 X116.9 Y125.219 E14.46901
G1 X110.934 Y121.777 E14.74391
G1 X110.68 Y121.449 E14.76047
G1 X110.559 Y121.165 E14.77279
G1 X110.515 Y120.842 E14.7858
G1 X110.515 Y113.949 E15.06091
G1 X110.672 Y113.565 E15.07747
G1 X110.858 Y113.318 E15.08981
G1 X111.115 Y113.119 E15.10279
G1 X117.081 Y109.676 E15.37771
G1 X117.492 Y109.62 E15.39426
G1 X117.799 Y109.658 E15.40661
G1 X118.1 Y109.781 E15.41959
G1 X124.05 Y113.214 E15.69376
G1 X130.181 Y109.676 E15.97628
G1 X130.592 Y109.62 E15.99284
G1 X130.899 Y109.658 E16.00518
G1 X131.2 Y109.781 E16.01816
G1 X137.166 Y113.223 E16.29306
G1 X137.42 Y113.551 E16.30962
G1 X137.541 Y113.835 E16.32194
G1 X137.585 Y114.158 E16.33495
G1 X137.585 Y121.051 E16.61007
G1 X137.428 Y121.435 E16.62663
G1 X137.242 Y121.682 E16.63897
G1 X136.985 Y121.881 E16.65194
G0 F1285.7 X136.745 Y121.466
G1 F600 X130.82 Y124.885 E16.92497
G1 X130.497 Y124.893 E16.93786
G1 X130.24 Y124.804 E16.94872
G1 X124.455 Y121.466 E17.21529
G1 X124.146 Y121.109 E17.23413
G1 X124.095 Y120.842 E17.24498
G1 X124.095 Y113.995 E17.51826
G1 X124.25 Y113.712 E17.53114
G1 X124.455 Y113.534 E17.54198
G1 X130.38 Y110.115 E17.815
G1 X130.703 Y110.107 E17.8279
G1 X130.96 Y110.196 E17.83875
G1 X136.745 Y113.534 E18.10533
G1 X137.054 Y113.891 E18.12417
G1 X137.105 Y114.158 E18.13502
G1 X137.105 Y121.005 E18.4083
G1 X136.95 Y121.288 E18.42118
G1 X136.745 Y121.466 E18.43201
G0 F1285.7 X136.575 Y121.01
G1 F600 X130.72 Y124.388 E18.7018
G1 X130.551 Y124.429 E18.70874
G1 X124.695 Y121.05 E18.97859
G1 X124.575 Y120.922 E18.98559
G1 X124.575 Y114.158 E19.25555
G1 X124.625 Y113.99 E19.26255
G1 X130.48 Y110.612 E19.53234
G1 X130.649 Y110.571 E19.53928
G1 X136.505 Y113.95 E19.80912
G1 X136.625 Y114.078 E19.81613
G1 X136.625 Y120.842 E20.08609
G1 X136.575 Y121.01 E20.09309
G1 F2700 E13.59309
G0 F1285.7 X124.005 Y121.005
G1 F2700 E20.09309
G1 F600 X123.85 Y121.288 E20.10597
G1 X123.645 Y121.466 E20.1168
G1 X117.72 Y124.885 E20.38983
G1 X117.397 Y124.893 E20.40273
G1 X117.14 Y124.804 E20.41358
G1 X111.355 Y121.466 E20.68015
G1 X111.046 Y121.109 E20.699
G1 X110.995 Y120.842 E20.70985
G1 X110.995 Y113.995 E20.98313
G1 X111.15 Y113.712 E20.996
G1 X111.355 Y113.534 E21.00684
G1 X117.28 Y110.115 E21.27987
G1 X117.603 Y110.107 E21.29276
G1 X117.86 Y110.196 E21.30362
G1 X123.645 Y113.534 E21.57019
G1 X123.954 Y113.891 E21.58903
G1 X124.005 Y114.158 E21.59988
G1 X124.005 Y121.005 E21.87316
G0 F1285.7 X123.525 Y120.842
G1 F600 X123.475 Y121.01 E21.88016
G1 X117.62 Y124.388 E22.14995
G1 X117.451 Y124.429 E22.15689
G1 X111.595 Y121.05 E22.42673
G1 X111.475 Y120.922 E22.43373
G1 X111.475 Y114.158 E22.7037
G1 X111.525 Y113.99 E22.7107
G1 X117.38 Y110.612 E22.98049
G1 X117.549 Y110.571 E22.98743
G1 X123.405 Y113.95 E23.25727
G1 X123.525 Y114.078 E23.26427
G1 X123.525 Y120.842 E23.53424
G1 F2700 E17.03424
;MESH:insert M6.stl(1)
G0 F1285.7 X125.192 Y114.378
G0 X125.195 Y114.379
;TYPE:WALL-OUTER
G1 F2700 E23.53424
G1 F346.2 X125.197 Y120.625 E23.93934
G1 F344.1 X130.6 Y123.742 E24.34597
G1 F345.1 X136.003 Y120.623 E24.75163
G1 F353 X136.005 Y114.597 E25.13594
G1 F342 X135.977 Y114.392 E25.1495
G1 X135.815 Y114.267 E25.16291
G1 F350.4 X130.6 Y111.257 E25.54943
G1 F344.6 X125.195 Y114.379 E25.95582
G1 F2700 E19.45582
;MESH:insert M6.stl
G0 F1285.7 X125.192 Y114.378
G0 X112.092 Y114.378
G0 X112.095 Y114.379
;TYPE:WALL-OUTER
G1 F2700 E25.95582
G1 F346.2 X112.097 Y120.625 E26.36091
G1 F344.1 X117.5 Y123.742 E26.76754
G1 F345.1 X122.903 Y120.623 E27.1732
G1 F353 X122.905 Y114.597 E27.55752
G1 F342 X122.877 Y114.392 E27.57108
G1 X122.715 Y114.267 E27.58448
G1 F350.4 X117.5 Y111.257 E27.971
G1 F344.6 X112.095 Y114.379 E28.37739
M204 S1500
G1 F2700 E21.87739
;MESH:NONMESH
G0 F600 X112.095 Y114.379 Z0.45
G0 F1285.7 X112.092 Y114.378
G0 X125.232 Y114.399
G0 X125.277 Y114.379
;TIME_ELAPSED:85.618927
;LAYER:1
M106 S63.8
;TYPE:WALL-OUTER
;MESH:insert M6.stl(1)
G1 F2700 E28.37739
G1 F1871.8 X130.43 Y111.401 E28.61617
G1 X130.644 Y111.328 E28.62524
G1 X135.795 Y114.301 E28.86385
G1 F1866.5 X135.965 Y114.449 E28.87292
G1 F1861.2 X135.963 Y120.462 E29.11541
G1 X135.92 Y120.623 E29.12213
G1 F1866.5 X130.719 Y123.627 E29.36372
G1 F1887.9 X130.482 Y123.626 E29.37316
G1 F1893.3 X125.405 Y120.699 E29.60584
G1 F1871.8 X125.238 Y120.554 E29.61471
G1 X125.235 Y114.597 E29.85371
G1 X125.277 Y114.379 E29.86261
G0 F5142.9 X125.45 Y114.279
G0 X125.155 Y114.355
G1 F1850.8 X125.156 Y120.646 E30.11762
G1 F1840.4 X130.599 Y123.79 E30.37373
G1 F1845.6 X136.044 Y120.646 E30.62925
G1 F1887.9 X136.045 Y114.597 E30.87005
G1 F1871.8 X136.03 Y114.346 E30.88014
G1 F1830.2 X130.6 Y111.212 E31.13689
G1 F1835.3 X125.155 Y114.355 E31.3937
G0 F5142.9 X125.155 Y114.555
G1 F2700 E24.8937
;MESH:insert M6.stl
G0 F5142.9 X125.22 Y114.403
G0 X112.141 Y114.381
G0 X112.177 Y114.379
;TYPE:WALL-OUTER
G1 F2700 E31.3937
G1 F1871.8 X117.33 Y111.401 E31.63248
G1 X117.544 Y111.328 E31.64155
G1 X122.695 Y114.301 E31.88016
G1 F1850.8 X122.865 Y114.449 E31.88929
G1 F1815 X122.863 Y120.549 E32.141
G1 F1856 X122.745 Y120.666 E32.14772
G1 F1893.3 X117.619 Y123.627 E32.38276
G1 F1866.5 X117.457 Y123.669 E32.38949
G1 X112.305 Y120.699 E32.62869
G1 F1871.8 X112.138 Y120.554 E32.63757
G1 X112.135 Y114.597 E32.87656
G1 X112.177 Y114.379 E32.88547
G0 F5142.9 X112.35 Y114.279
G0 X112.055 Y114.355
G1 F1850.8 X112.056 Y120.646 E33.14048
G1 F1840.4 X117.499 Y123.79 E33.39658
G1 F1845.6 X122.944 Y120.646 E33.65211
G1 F1887.9 X122.945 Y114.597 E33.89291
G1 F1830.2 X122.931 Y114.392 E33.90132
G1 F1800 X122.931 Y114.346 E33.90323
G1 F1830.2 X117.5 Y111.212 E34.16001
G1 F1835.3 X112.055 Y114.355 E34.41682
M204 S2000
G0 F5142.9 X112.055 Y114.555
G1 F2700 E27.91682
;MESH:NONMESH
G0 F600 X112.055 Y114.555 Z0.7
G0 F5142.9 X112.12 Y114.403
G0 X125.232 Y114.399
G0 X125.277 Y114.379
;TIME_ELAPSED:91.749561
;LAYER:2
M106 S127.5
;TYPE:WALL-OUTER
;MESH:insert M6.stl(1)
G1 F2700 E34.41682
G1 F1998.3 X130.43 Y111.401 E34.6556
G1 X130.644 Y111.328 E34.66468
G1 X135.795 Y114.301 E34.90329
G1 F1975.8 X135.965 Y114.449 E34.91242
G1 F1937.6 X135.963 Y120.549 E35.16413
G1 F1981.4 X135.845 Y120.666 E35.17085
G1 F2021.2 X130.719 Y123.627 E35.40589
G1 F1992.6 X130.557 Y123.669 E35.41262
G1 X125.405 Y120.699 E35.65182
G1 F1998.3 X125.238 Y120.554 E35.66069
G1 X125.235 Y114.597 E35.89969
G1 X125.277 Y114.379 E35.9086
G0 F9000 X125.45 Y114.279
G0 X125.155 Y114.355
G1 F1975.8 X125.156 Y120.646 E36.16361
G1 F1964.7 X130.599 Y123.79 E36.41971
G1 F1970.2 X136.044 Y120.646 E36.67523
G1 F2015.4 X136.045 Y114.597 E36.91603
G1 F1953.8 X136.031 Y114.392 E36.92445
G1 F1921.6 X136.031 Y114.346 E36.92636
G1 F1953.8 X130.6 Y111.212 E37.18314
G1 F1959.2 X125.155 Y114.355 E37.43995
G0 F9000 X125.155 Y114.555
G1 F2700 E30.93995
;MESH:insert M6.stl
G0 F9000 X125.22 Y114.403
G0 X112.141 Y114.381
G0 X112.177 Y114.379
;TYPE:WALL-OUTER
G1 F2700 E37.43995
G1 F1998.3 X117.33 Y111.401 E37.67873
G1 X117.544 Y111.328 E37.6878
G1 X122.695 Y114.301 E37.92641
G1 F1992.6 X122.865 Y114.449 E37.93548
G1 F1987 X122.863 Y120.462 E38.17797
G1 X122.82 Y120.623 E38.18469
G1 F1992.6 X117.67 Y123.599 E38.42395
G1 X117.461 Y123.672 E38.43285
G1 X112.305 Y120.699 E38.67225
G1 F1998.3 X112.138 Y120.554 E38.68113
G1 X112.135 Y114.597 E38.92012
G1 X112.177 Y114.379 E38.92903
G0 F9000 X112.35 Y114.279
G0 X112.055 Y114.355
G1 F1975.8 X112.056 Y120.646 E39.18404
G1 F1964.7 X117.499 Y123.79 E39.44014
G1 F1970.2 X122.944 Y120.646 E39.69567
G1 F2015.4 X122.945 Y114.597 E39.93647
G1 F1953.8 X122.931 Y114.392 E39.94488
G1 F1921.6 X122.931 Y114.346 E39.94679
G1 F1953.8 X117.5 Y111.212 E40.20358
G1 F1959.2 X112.055 Y114.355 E40.46038
G0 F9000 X112.055 Y114.555
G1 F2700 E33.96038
;MESH:NONMESH
G0 F600 X112.055 Y114.555 Z0.95
G0 F9000 X112.12 Y114.403
G0 X125.232 Y114.399
G0 X125.277 Y114.379
;TIME_ELAPSED:97.467185
;LAYER:3
;TYPE:WALL-OUTER
;MESH:insert M6.stl(1)
G1 F2700 E40.46038
G1 F1998.2 X130.43 Y111.401 E40.69916
G1 X130.644 Y111.328 E40.70824
G1 X135.795 Y114.301 E40.94685
G1 F1975.8 X135.965 Y114.449 E40.95598
G1 F1937.5 X135.963 Y120.549 E41.20769
G1 F1981.3 X135.845 Y120.666 E41.21441
G1 F2021.2 X130.719 Y123.627 E41.44945
G1 F1992.6 X130.557 Y123.669 E41.45618
G1 X125.405 Y120.699 E41.69538
G1 F1998.2 X125.238 Y120.554 E41.70425
G1 X125.235 Y114.597 E41.94325
G1 X125.277 Y114.379 E41.95216
G0 F9000 X125.45 Y114.279
G0 X125.155 Y114.355
G1 F1975.8 X125.156 Y120.646 E42.20717
G1 F1964.7 X130.599 Y123.79 E42.46327
G1 F1970.2 X136.044 Y120.646 E42.71879
G1 F2015.4 X136.045 Y114.597 E42.95959
G1 F1953.8 X136.031 Y114.392 E42.96801
G1 F1921.6 X136.031 Y114.346 E42.96992
G1 F1953.8 X130.6 Y111.212 E43.2267
G1 F1959.2 X125.155 Y114.355 E43.48351
G0 F9000 X125.155 Y114.555
G1 F2700 E36.98351
;MESH:insert M6.stl
G0 F9000 X125.22 Y114.403
G0 X112.141 Y114.381
G0 X112.177 Y114.379
;TYPE:WALL-OUTER
G1 F2700 E43.48351
G1 F1998.2 X117.33 Y111.401 E43.72229
G1 X117.544 Y111.328 E43.73136
G1 X122.695 Y114.301 E43.96997
G1 F1975.8 X122.865 Y114.449 E43.97911
G1 F1937.5 X122.863 Y120.549 E44.23082
G1 F1981.3 X122.745 Y120.666 E44.23754
G1 F2021.2 X117.619 Y123.627 E44.47258
G1 F1992.6 X117.457 Y123.669 E44.47931
G1 X112.305 Y120.699 E44.71851
G1 F1998.2 X112.138 Y120.554 E44.72738
G1 X112.135 Y114.597 E44.96638
G1 X112.177 Y114.379 E44.97528
G0 F9000 X112.35 Y114.279
G0 X112.055 Y114.355
G1 F1975.8 X112.056 Y120.646 E45.2303
G1 F1964.7 X117.499 Y123.79 E45.4864
G1 F1970.2 X122.944 Y120.646 E45.74192
G1 F2015.4 X122.945 Y114.597 E45.98272
G1 F1953.8 X122.931 Y114.392 E45.99114
G1 F1921.6 X122.931 Y114.346 E45.99305
G1 F1953.8 X117.5 Y111.212 E46.24983
G1 F1959.2 X112.055 Y114.355 E46.50664
G0 F9000 X112.055 Y114.555
G1 F2700 E40.00664
;MESH:NONMESH
G0 F600 X112.055 Y114.555 Z1.2
G0 F9000 X112.12 Y114.403
G0 X125.232 Y114.399
G0 X125.277 Y114.379
;TIME_ELAPSED:103.186300
;LAYER:4
;TYPE:WALL-OUTER
;MESH:insert M6.stl(1)
G1 F2700 E46.50664
G1 F1998.2 X130.43 Y111.401 E46.74542
G1 X130.644 Y111.328 E46.75449
G1 X135.795 Y114.301 E46.9931
G1 F1975.8 X135.965 Y114.449 E47.00224
G1 F1937.5 X135.963 Y120.549 E47.25395
G1 F1981.3 X135.845 Y120.666 E47.26066
G1 F2021.2 X130.719 Y123.627 E47.4957
G1 F1992.6 X130.557 Y123.669 E47.50244
G1 X125.405 Y120.699 E47.74164
G1 F1998.2 X125.238 Y120.554 E47.75051
