(Exported by FreeCAD)
(Post Processor: grbl_post)
(Output Time:2023-01-07 20:24:49.289736)
(Begin preamble)
G17 G90
G21
(Begin operation: Fixture)
(Path: Fixture)
G54
(Finish operation: Fixture)
(Begin operation: 6D L42 Corn End Mill001)
(Path: 6D L42 Corn End Mill001)
(6D L42 Corn End Mill001)
(Begin toolchange)
( M6 T2.0 )
M3 S24000.0
(Finish operation: 6D L42 Corn End Mill001)
(Begin operation: Profile)
(Path: Profile)
(Profile)
(Compensated Tool Path. Diameter: 6.0)
G0 Z35.000
G0 X482.561 Y715.631
G0 Z33.000
G1 X482.561 Y715.631 Z13.000 F1000.000
G1 X486.797 Y712.880 Z13.000 F2000.000
G2 X487.750 Y708.845 Z13.000 I-1.634 J-2.516 K0.000 F2000.000
G2 X19.214 Y-12.638 Z13.000 I-8011.285 J4689.713 K0.000 F2000.000
G2 X17.916 Y-13.667 Z13.000 I-2.440 J1.745 K0.000 F2000.000
G2 X15.139 Y-13.409 Z13.000 I-1.142 J2.774 K0.000 F2000.000
G1 X-1.634 Y-2.516 Z13.000 F2000.000
G2 X-2.440 Y1.745 Z13.000 I1.634 J2.516 K0.000 F2000.000
G3 X465.803 Y722.776 Z13.000 I-7537.873 J5407.708 K0.000 F2000.000
G2 X470.023 Y723.773 Z13.000 I2.587 J-1.519 K0.000 F2000.000
G1 X482.561 Y715.631 Z13.000 F2000.000
G1 X482.561 Y715.631 Z11.000 F1000.000
G1 X486.797 Y712.880 Z11.000 F2000.000
G2 X487.750 Y708.845 Z11.000 I-1.634 J-2.516 K0.000 F2000.000
G2 X19.214 Y-12.638 Z11.000 I-8011.285 J4689.713 K0.000 F2000.000
G2 X17.916 Y-13.667 Z11.000 I-2.440 J1.745 K0.000 F2000.000
G2 X15.139 Y-13.409 Z11.000 I-1.142 J2.774 K0.000 F2000.000
G1 X-1.634 Y-2.516 Z11.000 F2000.000
G2 X-2.440 Y1.745 Z11.000 I1.634 J2.516 K0.000 F2000.000
G3 X465.803 Y722.776 Z11.000 I-7537.873 J5407.708 K0.000 F2000.000
G2 X470.023 Y723.773 Z11.000 I2.587 J-1.519 K0.000 F2000.000
G1 X482.561 Y715.631 Z11.000 F2000.000
G1 X482.561 Y715.631 Z9.000 F1000.000
G1 X486.797 Y712.880 Z9.000 F2000.000
G2 X487.750 Y708.845 Z9.000 I-1.634 J-2.516 K0.000 F2000.000
G2 X19.214 Y-12.638 Z9.000 I-8011.285 J4689.713 K0.000 F2000.000
G2 X17.916 Y-13.667 Z9.000 I-2.440 J1.745 K0.000 F2000.000
G2 X15.139 Y-13.409 Z9.000 I-1.142 J2.774 K0.000 F2000.000
G1 X-1.634 Y-2.516 Z9.000 F2000.000
G2 X-2.440 Y1.745 Z9.000 I1.634 J2.516 K0.000 F2000.000
G3 X465.803 Y722.776 Z9.000 I-7537.873 J5407.708 K0.000 F2000.000
G2 X470.023 Y723.773 Z9.000 I2.587 J-1.519 K0.000 F2000.000
G1 X482.561 Y715.631 Z9.000 F2000.000
G1 X482.561 Y715.631 Z7.000 F1000.000
G1 X486.797 Y712.880 Z7.000 F2000.000
G2 X487.750 Y708.845 Z7.000 I-1.634 J-2.516 K0.000 F2000.000
G2 X19.214 Y-12.638 Z7.000 I-8011.285 J4689.713 K0.000 F2000.000
G2 X17.916 Y-13.667 Z7.000 I-2.440 J1.745 K0.000 F2000.000
G2 X15.139 Y-13.409 Z7.000 I-1.142 J2.774 K0.000 F2000.000
G1 X-1.634 Y-2.516 Z7.000 F2000.000
G2 X-2.440 Y1.745 Z7.000 I1.634 J2.516 K0.000 F2000.000
G3 X465.803 Y722.776 Z7.000 I-7537.873 J5407.708 K0.000 F2000.000
G2 X470.023 Y723.773 Z7.000 I2.587 J-1.519 K0.000 F2000.000
G1 X482.561 Y715.631 Z7.000 F2000.000
G1 X482.561 Y715.631 Z5.000 F1000.000
G1 X486.797 Y712.880 Z5.000 F2000.000
G2 X487.750 Y708.845 Z5.000 I-1.634 J-2.516 K0.000 F2000.000
G2 X19.214 Y-12.638 Z5.000 I-8011.285 J4689.713 K0.000 F2000.000
G2 X17.916 Y-13.667 Z5.000 I-2.440 J1.745 K0.000 F2000.000
G2 X15.139 Y-13.409 Z5.000 I-1.142 J2.774 K0.000 F2000.000
G1 X-1.634 Y-2.516 Z5.000 F2000.000
G2 X-2.440 Y1.745 Z5.000 I1.634 J2.516 K0.000 F2000.000
G3 X465.803 Y722.776 Z5.000 I-7537.873 J5407.708 K0.000 F2000.000
G2 X470.023 Y723.773 Z5.000 I2.587 J-1.519 K0.000 F2000.000
G1 X482.561 Y715.631 Z5.000 F2000.000
G1 X482.561 Y715.631 Z3.000 F1000.000
G1 X486.797 Y712.880 Z3.000 F2000.000
G2 X487.750 Y708.845 Z3.000 I-1.634 J-2.516 K0.000 F2000.000
G2 X19.214 Y-12.638 Z3.000 I-8011.285 J4689.713 K0.000 F2000.000
G2 X17.916 Y-13.667 Z3.000 I-2.440 J1.745 K0.000 F2000.000
G2 X15.139 Y-13.409 Z3.000 I-1.142 J2.774 K0.000 F2000.000
G1 X-1.634 Y-2.516 Z3.000 F2000.000
G2 X-2.440 Y1.745 Z3.000 I1.634 J2.516 K0.000 F2000.000
G3 X465.803 Y722.776 Z3.000 I-7537.873 J5407.708 K0.000 F2000.000
G2 X470.023 Y723.773 Z3.000 I2.587 J-1.519 K0.000 F2000.000
G1 X482.561 Y715.631 Z3.000 F2000.000
G1 X482.561 Y715.631 Z1.000 F1000.000
G1 X486.797 Y712.880 Z1.000 F2000.000
G2 X487.750 Y708.845 Z1.000 I-1.634 J-2.516 K0.000 F2000.000
G2 X19.214 Y-12.638 Z1.000 I-8011.285 J4689.713 K0.000 F2000.000
G2 X17.916 Y-13.667 Z1.000 I-2.440 J1.745 K0.000 F2000.000
G2 X15.139 Y-13.409 Z1.000 I-1.142 J2.774 K0.000 F2000.000
G1 X-1.634 Y-2.516 Z1.000 F2000.000
G2 X-2.440 Y1.745 Z1.000 I1.634 J2.516 K0.000 F2000.000
G3 X465.803 Y722.776 Z1.000 I-7537.873 J5407.708 K0.000 F2000.000
G2 X470.023 Y723.773 Z1.000 I2.587 J-1.519 K0.000 F2000.000
G1 X482.561 Y715.631 Z1.000 F2000.000
G0 Z35.000
G0 Z35.000
(Finish operation: Profile)
(Begin postamble)
M5
G17 G90
M2
