(Exported by FreeCAD)
(Post Processor: grbl_post)
(Output Time:2025-08-20 21:10:33.656500)
(Begin preamble)
G17 G90
G21
(Begin operation: TC: 1.5 z2 Q009)
(Path: TC: 1.5 z2 Q009)
(TC: 1.5 z2 Q009)
(Begin toolchange)
( M6 T4 )
M3 S24000
(Finish operation: TC: 1.5 z2 Q009)
(Begin operation: Fixture)
(Path: Fixture)
G54
(Finish operation: Fixture)
(Begin operation: Profile)
(Path: Profile)
(Profile)
(Uncompensated Tool Path)
G0 Z6.000
G0 X188.572 Y143.564
G0 Z4.000
G1 X188.572 Y143.564 Z-0.200 F500.000
G2 X193.965 Y134.919 Z-0.200 I-16.282 J-16.161 K0.000 F1000.000
G2 X195.056 Y127.892 Z-0.200 I-21.100 J-6.874 K0.000 F1000.000
G1 X195.056 Y22.116 Z-0.200 F1000.000
G2 X189.863 Y7.845 Z-0.200 I-21.442 J-0.278 K0.000 F1000.000
G2 X181.414 Y1.561 Z-0.200 I-17.472 J14.669 K0.000 F1000.000
G2 X173.200 Y0.000 Z-0.200 I-7.981 J19.602 K0.000 F1000.000
G1 X153.218 Y0.000 Z-0.200 F1000.000
G1 X153.218 Y26.375 Z-0.200 F1000.000
G1 X168.673 Y26.375 Z-0.200 F1000.000
G1 X168.673 Y123.625 Z-0.200 F1000.000
G1 X153.218 Y123.625 Z-0.200 F1000.000
G1 X153.218 Y150.000 Z-0.200 F1000.000
G1 X173.200 Y150.000 Z-0.200 F1000.000
G2 X186.259 Y145.601 Z-0.200 I0.318 J-20.638 K0.000 F1000.000
G2 X188.572 Y143.564 Z-0.200 I-13.969 J-18.198 K0.000 F1000.000
G0 Z6.000
G0 X148.959 Z6.000
G0 X148.959 Z4.000
G1 X148.959 Y143.564 Z-0.200 F500.000
G1 X148.959 Y123.625 Z-0.200 F1000.000
G1 X133.504 Y123.625 Z-0.200 F1000.000
G1 X133.504 Y26.375 Z-0.200 F1000.000
G1 X148.959 Y26.375 Z-0.200 F1000.000
G1 X148.959 Y0.000 Z-0.200 F1000.000
G1 X129.245 Y0.000 Z-0.200 F1000.000
G2 X114.743 Y5.479 Z-0.200 I-0.237 J21.306 K0.000 F1000.000
G2 X108.379 Y14.683 Z-0.200 I15.129 J17.262 K0.000 F1000.000
G2 X107.129 Y22.116 Z-0.200 I20.438 J7.258 K0.000 F1000.000
G1 X107.129 Y127.892 Z-0.200 F1000.000
G2 X109.842 Y138.668 Z-0.200 I21.392 J0.343 K0.000 F1000.000
G2 X121.747 Y148.752 Z-0.200 I19.843 J-11.358 K0.000 F1000.000
G2 X129.245 Y150.000 Z-0.200 I7.317 J-20.807 K0.000 F1000.000
G1 X148.959 Y150.000 Z-0.200 F1000.000
G1 X148.959 Y143.564 Z-0.200 F1000.000
G0 Z6.000
G0 X87.552 Y132.113 Z6.000
G0 X87.552 Y132.113 Z4.000
G1 X87.552 Y132.113 Z-0.200 F500.000
G2 X87.927 Y127.892 Z-0.200 I-21.815 J-4.068 K0.000 F1000.000
G1 X87.927 Y101.249 Z-0.200 F1000.000
G2 X79.147 Y76.397 Z-0.200 I-38.275 J-0.454 K0.000 F1000.000
G1 X78.066 Y75.134 Z-0.200 F1000.000
G2 X87.647 Y53.723 Z-0.200 I-29.530 J-26.064 K0.000 F1000.000
G2 X87.927 Y48.760 Z-0.200 I-39.779 J-4.734 K0.000 F1000.000
G1 X87.927 Y22.116 Z-0.200 F1000.000
G2 X82.734 Y7.845 Z-0.200 I-21.442 J-0.278 K0.000 F1000.000
G2 X74.285 Y1.561 Z-0.200 I-17.472 J14.669 K0.000 F1000.000
G2 X66.071 Y0.000 Z-0.200 I-7.981 J19.602 K0.000 F1000.000
G1 X46.088 Y0.000 Z-0.200 F1000.000
G1 X46.088 Y26.375 Z-0.200 F1000.000
G1 X61.544 Y26.375 Z-0.200 F1000.000
G1 X61.544 Y61.813 Z-0.200 F1000.000
G1 X26.375 Y61.813 Z-0.200 F1000.000
G1 X26.375 Y88.187 Z-0.200 F1000.000
G1 X61.544 Y88.187 Z-0.200 F1000.000
G1 X61.544 Y123.625 Z-0.200 F1000.000
G1 X46.088 Y123.625 Z-0.200 F1000.000
G1 X46.088 Y150.000 Z-0.200 F1000.000
G1 X66.071 Y150.000 Z-0.200 F1000.000
G2 X79.130 Y145.601 Z-0.200 I0.318 J-20.638 K0.000 F1000.000
G2 X86.836 Y134.919 Z-0.200 I-13.969 J-18.198 K0.000 F1000.000
G2 X87.552 Y132.113 Z-0.200 I-21.100 J-6.874 K0.000 F1000.000
G0 Z6.000
G0 X41.830 Z6.000
G0 X41.830 Z4.000
G1 X41.830 Y132.113 Z-0.200 F500.000
G1 X41.830 Y123.625 Z-0.200 F1000.000
G1 X26.375 Y123.625 Z-0.200 F1000.000
G1 X26.375 Y105.776 Z-0.200 F1000.000
G1 X0.000 Y105.776 Z-0.200 F1000.000
G1 X0.000 Y127.892 Z-0.200 F1000.000
G2 X2.713 Y138.668 Z-0.200 I21.392 J0.343 K0.000 F1000.000
G2 X14.618 Y148.752 Z-0.200 I19.843 J-11.358 K0.000 F1000.000
G2 X22.116 Y150.000 Z-0.200 I7.317 J-20.807 K0.000 F1000.000
G1 X41.830 Y150.000 Z-0.200 F1000.000
G1 X41.830 Y132.113 Z-0.200 F1000.000
G0 Z6.000
G0 X26.375 Y44.232 Z6.000
G0 X26.375 Y44.232 Z4.000
G1 X26.375 Y44.232 Z-0.200 F500.000
G1 X26.375 Y26.375 Z-0.200 F1000.000
G1 X41.830 Y26.375 Z-0.200 F1000.000
G1 X41.830 Y0.000 Z-0.200 F1000.000
G1 X22.116 Y0.000 Z-0.200 F1000.000
G2 X7.284 Y5.784 Z-0.200 I-0.242 J21.289 K0.000 F1000.000
G2 X1.550 Y13.895 Z-0.200 I15.660 J17.155 K0.000 F1000.000
G2 X0.000 Y22.116 Z-0.200 I19.904 J8.009 K0.000 F1000.000
G1 X0.000 Y44.232 Z-0.200 F1000.000
G1 X26.375 Y44.232 Z-0.200 F1000.000
G0 Z6.000
G0 Z6.000
(Finish operation: Profile)
(Begin operation: DragknifeDressup)
(Path: DragknifeDressup)
(Profile)
(Uncompensated Tool Path)
G0 X0.000 Y0.000 Z6.000
G0 X188.572 Y143.564 Z6.000
G0 X188.572 Y143.564 Z4.000
G1 X188.572 Y143.564 Z-0.200 F500.000
G2 X193.965 Y134.919 Z-0.200 I-16.282 J-16.161 K0.000 F1000.000
G2 X195.056 Y127.892 Z-0.200 I-21.100 J-6.874 K0.000 F1000.000
G1 X195.056 Y22.116 Z-0.200 F1000.000
G2 X189.863 Y7.845 Z-0.200 I-21.442 J-0.278 K0.000 F1000.000
G2 X181.414 Y1.561 Z-0.200 I-17.472 J14.669 K0.000 F1000.000
G2 X173.200 Y0.000 Z-0.200 I-7.981 J19.602 K0.000 F1000.000
G1 X153.218 Y0.000 Z-0.200 F1000.000
G1 X151.218 Y0.000
G0 Z4.000
G2 X153.218 Y2.000 I2.000 J0.000
G1 Z-0.200
G1 X153.218 Y26.375 Z-0.200 F1000.000
G1 X153.218 Y28.375
G0 Z4.000
G2 X155.218 Y26.375 I0.000 J-2.000
G1 Z-0.200
G1 X168.673 Y26.375 Z-0.200 F1000.000
G1 X170.673 Y26.375
G0 Z4.000
G3 X168.673 Y28.375 I-2.000 J0.000
G1 Z-0.200
G1 X168.673 Y123.625 Z-0.200 F1000.000
G1 X168.673 Y125.625
G0 Z4.000
G3 X166.673 Y123.625 I0.000 J-2.000
G1 Z-0.200
G1 X153.218 Y123.625 Z-0.200 F1000.000
G1 X151.218 Y123.625
G0 Z4.000
G2 X153.218 Y125.625 I2.000 J0.000
G1 Z-0.200
G1 X153.218 Y150.000 Z-0.200 F1000.000
G1 X153.218 Y152.000
G0 Z4.000
G2 X155.218 Y150.000 I0.000 J-2.000
G1 Z-0.200
G1 X173.200 Y150.000 Z-0.200 F1000.000
G2 X186.259 Y145.601 Z-0.200 I0.318 J-20.638 K0.000 F1000.000
G2 X188.572 Y143.564 Z-0.200 I-13.969 J-18.198 K0.000 F1000.000
G2 X189.918 Y142.085 I-16.282 J-16.161
G0 X188.572 Y143.564 Z6.000
G0 X148.959 Y143.564 Z6.000
G0 X148.959 Y143.564 Z4.000
G1 X148.959 Y143.564 Z-0.200 F500.000
G1 X148.959 Y123.625 Z-0.200 F1000.000
G1 X148.959 Y121.625
G0 Z4.000
G2 X146.959 Y123.625 I0.000 J2.000
G1 Z-0.200
G1 X133.504 Y123.625 Z-0.200 F1000.000
G1 X131.504 Y123.625
G0 Z4.000
G3 X133.504 Y121.625 I2.000 J0.000
G1 Z-0.200
G1 X133.504 Y26.375 Z-0.200 F1000.000
G1 X133.504 Y24.375
G0 Z4.000
G3 X135.504 Y26.375 I0.000 J2.000
G1 Z-0.200
G1 X148.959 Y26.375 Z-0.200 F1000.000
G1 X150.959 Y26.375
G0 Z4.000
G2 X148.959 Y24.375 I-2.000 J0.000
G1 Z-0.200
G1 X148.959 Y0.000 Z-0.200 F1000.000
G1 X148.959 Y-2.000
G0 Z4.000
G2 X146.959 Y0.000 I0.000 J2.000
G1 Z-0.200
G1 X129.245 Y0.000 Z-0.200 F1000.000
G2 X114.743 Y5.479 Z-0.200 I-0.237 J21.306 K0.000 F1000.000
G2 X108.379 Y14.683 Z-0.200 I15.129 J17.262 K0.000 F1000.000
G2 X107.129 Y22.116 Z-0.200 I20.438 J7.258 K0.000 F1000.000
G1 X107.129 Y127.892 Z-0.200 F1000.000
G2 X109.842 Y138.668 Z-0.200 I21.392 J0.343 K0.000 F1000.000
G2 X121.747 Y148.752 Z-0.200 I19.843 J-11.358 K0.000 F1000.000
G2 X129.245 Y150.000 Z-0.200 I7.317 J-20.807 K0.000 F1000.000
G2 X131.242 Y149.893 I-0.181 J-22.055
G0 Z4.000
G2 X131.245 Y150.000 I-1.996 J0.107
G1 Z-0.200
G1 X148.959 Y150.000 Z-0.200 F1000.000
G1 X150.959 Y150.000
G0 Z4.000
G2 X148.959 Y148.000 I-2.000 J0.000
G1 Z-0.200
G1 X148.959 Y143.564 Z-0.200 F1000.000
G1 X148.959 Y141.564
G0 X148.959 Y143.564 Z6.000
G0 X87.552 Y132.113 Z6.000
G0 X87.552 Y132.113 Z4.000
G1 X87.552 Y132.113 Z-0.200 F500.000
G2 X87.927 Y127.892 Z-0.200 I-21.815 J-4.068 K0.000 F1000.000
G1 X87.927 Y101.249 Z-0.200 F1000.000
G2 X79.147 Y76.397 Z-0.200 I-38.275 J-0.454 K0.000 F1000.000
G1 X78.066 Y75.134 Z-0.200 F1000.000
G1 X76.765 Y73.615
G0 Z4.000
G3 X79.194 Y73.798 I1.301 J1.519
G1 Z-0.200
G2 X87.647 Y53.723 I-30.658 J-24.727
G2 X87.927 Y48.760 Z-0.200 I-39.779 J-4.734 K0.000 F1000.000
G1 X87.927 Y22.116 Z-0.200 F1000.000
G2 X82.734 Y7.845 Z-0.200 I-21.442 J-0.278 K0.000 F1000.000
G2 X74.285 Y1.561 Z-0.200 I-17.472 J14.669 K0.000 F1000.000
G2 X66.071 Y0.000 Z-0.200 I-7.981 J19.602 K0.000 F1000.000
G1 X46.088 Y0.000 Z-0.200 F1000.000
G1 X44.088 Y0.000
G0 Z4.000
G2 X46.088 Y2.000 I2.000 J-0.000
G1 Z-0.200
G1 X46.088 Y26.375 Z-0.200 F1000.000
G1 X46.088 Y28.375
G0 Z4.000
G2 X48.088 Y26.375 I0.000 J-2.000
G1 Z-0.200
G1 X61.544 Y26.375 Z-0.200 F1000.000
G1 X63.544 Y26.375
G0 Z4.000
G3 X61.544 Y28.375 I-2.000 J0.000
G1 Z-0.200
G1 X61.544 Y61.813 Z-0.200 F1000.000
G1 X61.544 Y63.813
G0 Z4.000
G3 X59.544 Y61.813 I0.000 J-2.000
G1 Z-0.200
G1 X26.375 Y61.813 Z-0.200 F1000.000
G1 X24.375 Y61.813
G0 Z4.000
G2 X26.375 Y63.813 I2.000 J0.000
G1 Z-0.200
G1 X26.375 Y88.187 Z-0.200 F1000.000
G1 X26.375 Y90.187
G0 Z4.000
G2 X28.375 Y88.187 I0.000 J-2.000
G1 Z-0.200
G1 X61.544 Y88.187 Z-0.200 F1000.000
G1 X63.544 Y88.187
G0 Z4.000
G3 X61.544 Y90.187 I-2.000 J0.000
G1 Z-0.200
G1 X61.544 Y123.625 Z-0.200 F1000.000
G1 X61.544 Y125.625
G0 Z4.000
G3 X59.544 Y123.625 I0.000 J-2.000
G1 Z-0.200
G1 X46.088 Y123.625 Z-0.200 F1000.000
G1 X44.088 Y123.625
G0 Z4.000
G2 X46.088 Y125.625 I2.000 J0.000
G1 Z-0.200
G1 X46.088 Y150.000 Z-0.200 F1000.000
G1 X46.088 Y152.000
G0 Z4.000
G2 X48.088 Y150.000 I0.000 J-2.000
G1 Z-0.200
G1 X66.071 Y150.000 Z-0.200 F1000.000
G2 X79.130 Y145.601 Z-0.200 I0.318 J-20.638 K0.000 F1000.000
G2 X86.836 Y134.919 Z-0.200 I-13.969 J-18.198 K0.000 F1000.000
G2 X87.552 Y132.113 Z-0.200 I-21.100 J-6.874 K0.000 F1000.000
G2 X87.829 Y130.133 I-21.815 J-4.068
G0 X87.552 Y132.113 Z6.000
G0 X41.830 Y132.113 Z6.000
G0 X41.830 Y132.113 Z4.000
G1 X41.830 Y132.113 Z-0.200 F500.000
G1 X41.830 Y123.625 Z-0.200 F1000.000
G1 X41.830 Y121.625
G0 Z4.000
G2 X39.830 Y123.625 I0.000 J2.000
G1 Z-0.200
G1 X26.375 Y123.625 Z-0.200 F1000.000
G1 X24.375 Y123.625
G0 Z4.000
G3 X26.375 Y121.625 I2.000 J0.000
G1 Z-0.200
G1 X26.375 Y105.776 Z-0.200 F1000.000
G1 X26.375 Y103.776
G0 Z4.000
G2 X24.375 Y105.776 I0.000 J2.000
G1 Z-0.200
G1 X0.000 Y105.776 Z-0.200 F1000.000
G1 X-2.000 Y105.776
G0 Z4.000
G2 X0.000 Y107.776 I2.000 J0.000
G1 Z-0.200
G1 X0.000 Y127.892 Z-0.200 F1000.000
G2 X2.713 Y138.668 Z-0.200 I21.392 J0.343 K0.000 F1000.000
G2 X14.618 Y148.752 Z-0.200 I19.843 J-11.358 K0.000 F1000.000
G2 X22.116 Y150.000 Z-0.200 I7.317 J-20.807 K0.000 F1000.000
G2 X24.113 Y149.893 I-0.181 J-22.055
G0 Z4.000
G2 X24.116 Y150.000 I-1.996 J0.107
G1 Z-0.200
G1 X41.830 Y150.000 Z-0.200 F1000.000
G1 X43.830 Y150.000
G0 Z4.000
G2 X41.830 Y148.000 I-2.000 J0.000
G1 Z-0.200
G1 X41.830 Y132.113 Z-0.200 F1000.000
G1 X41.830 Y130.113
G0 X41.830 Y132.113 Z6.000
G0 X26.375 Y44.232 Z6.000
G0 X26.375 Y44.232 Z4.000
G1 X26.375 Y44.232 Z-0.200 F500.000
G1 X26.375 Y26.375 Z-0.200 F1000.000
G1 X26.375 Y24.375
G0 Z4.000
G3 X28.375 Y26.375 I0.000 J2.000
G1 Z-0.200
G1 X41.830 Y26.375 Z-0.200 F1000.000
G1 X43.830 Y26.375
G0 Z4.000
G2 X41.830 Y24.375 I-2.000 J0.000
G1 Z-0.200
G1 X41.830 Y0.000 Z-0.200 F1000.000
G1 X41.830 Y-2.000
G0 Z4.000
G2 X39.830 Y0.000 I0.000 J2.000
G1 Z-0.200
G1 X22.116 Y0.000 Z-0.200 F1000.000
G2 X7.284 Y5.784 Z-0.200 I-0.242 J21.289 K0.000 F1000.000
G2 X1.550 Y13.895 Z-0.200 I15.660 J17.155 K0.000 F1000.000
G2 X0.000 Y22.116 Z-0.200 I19.904 J8.009 K0.000 F1000.000
G1 X0.000 Y44.232 Z-0.200 F1000.000
G1 X0.000 Y46.232
G0 Z4.000
G2 X2.000 Y44.232 I-0.000 J-2.000
G1 Z-0.200
G1 X26.375 Y44.232 Z-0.200 F1000.000
G1 X28.375 Y44.232
G0 X26.375 Y44.232 Z6.000
G0 X26.375 Y44.232 Z6.000
(Finish operation: DragknifeDressup)
(Begin postamble)
M5
G17 G90
M2
