(Exported by FreeCAD)
(Post Processor: grbl_post)
(Output Time:2023-03-12 20:45:00.300773)
(Begin preamble)
G17 G90
G21
(Begin operation: 0,5mm002)
(Path: 0,5mm002)
(0,5mm002)
(Begin toolchange)
( M6 T17.0 )
M3 S24000.0
(Finish operation: 0,5mm002)
(Begin operation: Fixture)
(Path: Fixture)
G54
G0 Z5.000
(Finish operation: Fixture)
(Begin operation: Slot)
(Path: Slot)
(Slot)
(Slot)
(Tool type: endmill)
(Compensated Tool Path. Diameter: 0.5 mm)
()
G0 Z5.000
G0 X7.985 Y36.482
G1 Z-0.167 F100.000
G1 X64.108 Y36.482 F200.000
G1 Z-0.333 F100.000
G1 X7.985 Y36.482 F200.000
G1 Z-0.500 F100.000
G1 X64.108 Y36.482 F200.000
G1 Z-0.667 F100.000
G1 X7.985 Y36.482 F200.000
G1 Z-0.833 F100.000
G1 X64.108 Y36.482 F200.000
G1 Z-1.000 F100.000
G1 X7.985 Y36.482 F200.000
G1 Z-1.167 F100.000
G1 X64.108 Y36.482 F200.000
G1 Z-1.333 F100.000
G1 X7.985 Y36.482 F200.000
G1 Z-1.500 F100.000
G1 X64.108 Y36.482 F200.000
G1 Z-1.667 F100.000
G1 X7.985 Y36.482 F200.000
G1 Z-1.833 F100.000
G1 X64.108 Y36.482 F200.000
G1 Z-1.850 F100.000
G1 X7.985 Y36.482 F200.000
G0 Z3.000
G0 Z5.000
G0 Z5.000
(Finish operation: Slot)
(Begin operation: Slot001)
(Path: Slot001)
(Slot001)
(Slot001)
(Tool type: endmill)
(Compensated Tool Path. Diameter: 0.5 mm)
()
G0 Z5.000
G0 X64.637 Y70.916
G1 Z-0.100 F100.000
G1 X7.455 Y70.916 F200.000
G1 Z-0.200 F100.000
G1 X64.637 Y70.916 F200.000
G1 Z-0.300 F100.000
G1 X7.455 Y70.916 F200.000
G1 Z-0.400 F100.000
G1 X64.637 Y70.916 F200.000
G1 Z-0.500 F100.000
G1 X7.455 Y70.916 F200.000
G1 Z-0.600 F100.000
G1 X64.637 Y70.916 F200.000
G1 Z-0.700 F100.000
G1 X7.455 Y70.916 F200.000
G1 Z-0.800 F100.000
G1 X64.637 Y70.916 F200.000
G1 Z-0.900 F100.000
G1 X7.455 Y70.916 F200.000
G1 Z-1.000 F100.000
G1 X64.637 Y70.916 F200.000
G1 Z-1.100 F100.000
G1 X7.455 Y70.916 F200.000
G1 Z-1.200 F100.000
G1 X64.637 Y70.916 F200.000
G1 Z-1.300 F100.000
G1 X7.455 Y70.916 F200.000
G1 Z-1.400 F100.000
G1 X64.637 Y70.916 F200.000
G1 Z-1.500 F100.000
G1 X7.455 Y70.916 F200.000
G1 Z-1.600 F100.000
G1 X64.637 Y70.916 F200.000
G1 Z-1.700 F100.000
G1 X7.455 Y70.916 F200.000
G1 Z-1.800 F100.000
G1 X64.637 Y70.916 F200.000
G1 Z-1.850 F100.000
G1 X7.455 Y70.916 F200.000
G0 Z3.000
G0 Z5.000
G0 Z5.000
(Finish operation: Slot001)
(Begin operation: Slot002)
(Path: Slot002)
(Slot002)
(Slot002)
(Tool type: endmill)
(Compensated Tool Path. Diameter: 0.5 mm)
()
G0 Z5.000
G0 X65.137 Y103.417
G1 Z-0.100 F100.000
G1 X6.955 Y103.417 F200.000
G1 Z-0.200 F100.000
G1 X65.137 Y103.417 F200.000
G1 Z-0.300 F100.000
G1 X6.955 Y103.417 F200.000
G1 Z-0.400 F100.000
G1 X65.137 Y103.417 F200.000
G1 Z-0.500 F100.000
G1 X6.955 Y103.417 F200.000
G1 Z-0.600 F100.000
G1 X65.137 Y103.417 F200.000
G1 Z-0.700 F100.000
G1 X6.955 Y103.417 F200.000
G1 Z-0.800 F100.000
G1 X65.137 Y103.417 F200.000
G1 Z-0.900 F100.000
G1 X6.955 Y103.417 F200.000
G1 Z-1.000 F100.000
G1 X65.137 Y103.417 F200.000
G1 Z-1.100 F100.000
G1 X6.955 Y103.417 F200.000
G1 Z-1.200 F100.000
G1 X65.137 Y103.417 F200.000
G1 Z-1.300 F100.000
G1 X6.955 Y103.417 F200.000
G1 Z-1.400 F100.000
G1 X65.137 Y103.417 F200.000
G1 Z-1.500 F100.000
G1 X6.955 Y103.417 F200.000
G1 Z-1.600 F100.000
G1 X65.137 Y103.417 F200.000
G1 Z-1.700 F100.000
G1 X6.955 Y103.417 F200.000
G1 Z-1.800 F100.000
G1 X65.137 Y103.417 F200.000
G1 Z-1.850 F100.000
G1 X6.955 Y103.417 F200.000
G0 Z3.000
G0 Z5.000
G0 Z5.000
(Finish operation: Slot002)
(Begin operation: Slot003)
(Path: Slot003)
(Slot003)
(Slot003)
(Tool type: endmill)
(Compensated Tool Path. Diameter: 0.5 mm)
()
G0 Z5.000
G0 X65.609 Y134.095
G1 Z-0.100 F100.000
G1 X6.483 Y134.095 F200.000
G1 Z-0.200 F100.000
G1 X65.609 Y134.095 F200.000
G1 Z-0.300 F100.000
G1 X6.483 Y134.095 F200.000
G1 Z-0.400 F100.000
G1 X65.609 Y134.095 F200.000
G1 Z-0.500 F100.000
G1 X6.483 Y134.095 F200.000
G1 Z-0.600 F100.000
G1 X65.609 Y134.095 F200.000
G1 Z-0.700 F100.000
G1 X6.483 Y134.095 F200.000
G1 Z-0.800 F100.000
G1 X65.609 Y134.095 F200.000
G1 Z-0.900 F100.000
G1 X6.483 Y134.095 F200.000
G1 Z-1.000 F100.000
G1 X65.609 Y134.095 F200.000
G1 Z-1.100 F100.000
G1 X6.483 Y134.095 F200.000
G1 Z-1.200 F100.000
G1 X65.609 Y134.095 F200.000
G1 Z-1.300 F100.000
G1 X6.483 Y134.095 F200.000
G1 Z-1.400 F100.000
G1 X65.609 Y134.095 F200.000
G1 Z-1.500 F100.000
G1 X6.483 Y134.095 F200.000
G1 Z-1.600 F100.000
G1 X65.609 Y134.095 F200.000
G1 Z-1.700 F100.000
G1 X6.483 Y134.095 F200.000
G1 Z-1.800 F100.000
G1 X65.609 Y134.095 F200.000
G1 Z-1.850 F100.000
G1 X6.483 Y134.095 F200.000
G0 Z3.000
G0 Z5.000
G0 Z5.000
(Finish operation: Slot003)
(Begin operation: Slot004)
(Path: Slot004)
(Slot004)
(Slot004)
(Tool type: endmill)
(Compensated Tool Path. Diameter: 0.5 mm)
()
G0 Z5.000
G0 Z5.000
G0 Z5.000
(Finish operation: Slot004)
(Begin operation: Slot005)
(Path: Slot005)
(Slot005)
(Slot005)
(Tool type: endmill)
(Compensated Tool Path. Diameter: 0.5 mm)
()
G0 Z5.000
G0 X66.055 Y163.050
G1 Z-0.100 F100.000
G1 X6.038 Y163.050 F200.000
G1 Z-0.200 F100.000
G1 X66.055 Y163.050 F200.000
G1 Z-0.300 F100.000
G1 X6.038 Y163.050 F200.000
G1 Z-0.400 F100.000
G1 X66.055 Y163.050 F200.000
G1 Z-0.500 F100.000
G1 X6.038 Y163.050 F200.000
G1 Z-0.600 F100.000
G1 X66.055 Y163.050 F200.000
G1 Z-0.700 F100.000
G1 X6.038 Y163.050 F200.000
G1 Z-0.800 F100.000
G1 X66.055 Y163.050 F200.000
G1 Z-0.900 F100.000
G1 X6.038 Y163.050 F200.000
G1 Z-1.000 F100.000
G1 X66.055 Y163.050 F200.000
G1 Z-1.100 F100.000
G1 X6.038 Y163.050 F200.000
G1 Z-1.200 F100.000
G1 X66.055 Y163.050 F200.000
G1 Z-1.300 F100.000
G1 X6.038 Y163.050 F200.000
G1 Z-1.400 F100.000
G1 X66.055 Y163.050 F200.000
G1 Z-1.500 F100.000
G1 X6.038 Y163.050 F200.000
G1 Z-1.600 F100.000
G1 X66.055 Y163.050 F200.000
G1 Z-1.700 F100.000
G1 X6.038 Y163.050 F200.000
G1 Z-1.800 F100.000
G1 X66.055 Y163.050 F200.000
G1 Z-1.850 F100.000
G1 X6.038 Y163.050 F200.000
G0 Z3.000
G0 Z5.000
G0 Z5.000
(Finish operation: Slot005)
(Begin operation: Slot006)
(Path: Slot006)
(Slot006)
(Slot006)
(Tool type: endmill)
(Compensated Tool Path. Diameter: 0.5 mm)
()
G0 Z5.000
G0 X66.475 Y190.381
G1 Z-0.100 F100.000
G1 X5.617 Y190.381 F200.000
G1 Z-0.200 F100.000
G1 X66.475 Y190.381 F200.000
G1 Z-0.300 F100.000
G1 X5.617 Y190.381 F200.000
G1 Z-0.400 F100.000
G1 X66.475 Y190.381 F200.000
G1 Z-0.500 F100.000
G1 X5.617 Y190.381 F200.000
G1 Z-0.600 F100.000
G1 X66.475 Y190.381 F200.000
G1 Z-0.700 F100.000
G1 X5.617 Y190.381 F200.000
G1 Z-0.800 F100.000
G1 X66.475 Y190.381 F200.000
G1 Z-0.900 F100.000
G1 X5.617 Y190.381 F200.000
G1 Z-1.000 F100.000
G1 X66.475 Y190.381 F200.000
G1 Z-1.100 F100.000
G1 X5.617 Y190.381 F200.000
G1 Z-1.200 F100.000
G1 X66.475 Y190.381 F200.000
G1 Z-1.300 F100.000
G1 X5.617 Y190.381 F200.000
G1 Z-1.400 F100.000
G1 X66.475 Y190.381 F200.000
G1 Z-1.500 F100.000
G1 X5.617 Y190.381 F200.000
G1 Z-1.600 F100.000
G1 X66.475 Y190.381 F200.000
G1 Z-1.700 F100.000
G1 X5.617 Y190.381 F200.000
G1 Z-1.800 F100.000
G1 X66.475 Y190.381 F200.000
G1 Z-1.850 F100.000
G1 X5.617 Y190.381 F200.000
G0 Z3.000
G0 Z5.000
G0 Z5.000
(Finish operation: Slot006)
(Begin operation: Slot007)
(Path: Slot007)
(Slot007)
(Slot007)
(Tool type: endmill)
(Compensated Tool Path. Diameter: 0.5 mm)
()
G0 Z5.000
G0 X66.872 Y216.177
G1 Z-0.100 F100.000
G1 X5.221 Y216.177 F200.000
G1 Z-0.200 F100.000
G1 X66.872 Y216.177 F200.000
G1 Z-0.300 F100.000
G1 X5.221 Y216.177 F200.000
G1 Z-0.400 F100.000
G1 X66.872 Y216.177 F200.000
G1 Z-0.500 F100.000
G1 X5.221 Y216.177 F200.000
G1 Z-0.600 F100.000
G1 X66.872 Y216.177 F200.000
G1 Z-0.700 F100.000
G1 X5.221 Y216.177 F200.000
G1 Z-0.800 F100.000
G1 X66.872 Y216.177 F200.000
G1 Z-0.900 F100.000
G1 X5.221 Y216.177 F200.000
G1 Z-1.000 F100.000
G1 X66.872 Y216.177 F200.000
G1 Z-1.100 F100.000
G1 X5.221 Y216.177 F200.000
G1 Z-1.200 F100.000
G1 X66.872 Y216.177 F200.000
G1 Z-1.300 F100.000
G1 X5.221 Y216.177 F200.000
G1 Z-1.400 F100.000
G1 X66.872 Y216.177 F200.000
G1 Z-1.500 F100.000
G1 X5.221 Y216.177 F200.000
G1 Z-1.600 F100.000
G1 X66.872 Y216.177 F200.000
G1 Z-1.700 F100.000
G1 X5.221 Y216.177 F200.000
G1 Z-1.800 F100.000
G1 X66.872 Y216.177 F200.000
G1 Z-1.850 F100.000
G1 X5.221 Y216.177 F200.000
G0 Z3.000
G0 Z5.000
G0 Z5.000
(Finish operation: Slot007)
(Begin operation: Slot008)
(Path: Slot008)
(Slot008)
(Slot008)
(Tool type: endmill)
(Compensated Tool Path. Diameter: 0.5 mm)
()
G0 Z5.000
G0 X67.247 Y240.526
G1 Z-0.100 F100.000
G1 X4.846 Y240.526 F200.000
G1 Z-0.200 F100.000
G1 X67.247 Y240.526 F200.000
G1 Z-0.300 F100.000
G1 X4.846 Y240.526 F200.000
G1 Z-0.400 F100.000
G1 X67.247 Y240.526 F200.000
G1 Z-0.500 F100.000
G1 X4.846 Y240.526 F200.000
G1 Z-0.600 F100.000
G1 X67.247 Y240.526 F200.000
G1 Z-0.700 F100.000
G1 X4.846 Y240.526 F200.000
G1 Z-0.800 F100.000
G1 X67.247 Y240.526 F200.000
G1 Z-0.900 F100.000
G1 X4.846 Y240.526 F200.000
G1 Z-1.000 F100.000
G1 X67.247 Y240.526 F200.000
G1 Z-1.100 F100.000
G1 X4.846 Y240.526 F200.000
G1 Z-1.200 F100.000
G1 X67.247 Y240.526 F200.000
G1 Z-1.300 F100.000
G1 X4.846 Y240.526 F200.000
G1 Z-1.400 F100.000
G1 X67.247 Y240.526 F200.000
G1 Z-1.500 F100.000
G1 X4.846 Y240.526 F200.000
G1 Z-1.600 F100.000
G1 X67.247 Y240.526 F200.000
G1 Z-1.700 F100.000
G1 X4.846 Y240.526 F200.000
G1 Z-1.800 F100.000
G1 X67.247 Y240.526 F200.000
G1 Z-1.850 F100.000
G1 X4.846 Y240.526 F200.000
G0 Z3.000
G0 Z5.000
G0 Z5.000
(Finish operation: Slot008)
(Begin operation: Slot009)
(Path: Slot009)
(Slot009)
(Slot009)
(Tool type: endmill)
(Compensated Tool Path. Diameter: 0.5 mm)
()
G0 Z5.000
G0 X67.600 Y263.508
G1 Z-0.100 F100.000
G1 X4.492 Y263.508 F200.000
G1 Z-0.200 F100.000
G1 X67.600 Y263.508 F200.000
G1 Z-0.300 F100.000
G1 X4.492 Y263.508 F200.000
G1 Z-0.400 F100.000
G1 X67.600 Y263.508 F200.000
G1 Z-0.500 F100.000
G1 X4.492 Y263.508 F200.000
G1 Z-0.600 F100.000
G1 X67.600 Y263.508 F200.000
G1 Z-0.700 F100.000
G1 X4.492 Y263.508 F200.000
G1 Z-0.800 F100.000
G1 X67.600 Y263.508 F200.000
G1 Z-0.900 F100.000
G1 X4.492 Y263.508 F200.000
G1 Z-1.000 F100.000
G1 X67.600 Y263.508 F200.000
G1 Z-1.100 F100.000
G1 X4.492 Y263.508 F200.000
G1 Z-1.200 F100.000
G1 X67.600 Y263.508 F200.000
G1 Z-1.300 F100.000
G1 X4.492 Y263.508 F200.000
G1 Z-1.400 F100.000
G1 X67.600 Y263.508 F200.000
G1 Z-1.500 F100.000
G1 X4.492 Y263.508 F200.000
G1 Z-1.600 F100.000
G1 X67.600 Y263.508 F200.000
G1 Z-1.700 F100.000
G1 X4.492 Y263.508 F200.000
G1 Z-1.800 F100.000
G1 X67.600 Y263.508 F200.000
G1 Z-1.850 F100.000
G1 X4.492 Y263.508 F200.000
G0 Z3.000
G0 Z5.000
G0 Z5.000
(Finish operation: Slot009)
(Begin operation: Slot010)
(Path: Slot010)
(Slot010)
(Slot010)
(Tool type: endmill)
(Compensated Tool Path. Diameter: 0.5 mm)
()
G0 Z5.000
G0 X4.159 Y285.200
G1 Z-0.100 F100.000
G1 X67.934 Y285.200 F200.000
G1 Z-0.200 F100.000
G1 X4.159 Y285.200 F200.000
G1 Z-0.300 F100.000
G1 X67.934 Y285.200 F200.000
G1 Z-0.400 F100.000
G1 X4.159 Y285.200 F200.000
G1 Z-0.500 F100.000
G1 X67.934 Y285.200 F200.000
G1 Z-0.600 F100.000
G1 X4.159 Y285.200 F200.000
G1 Z-0.700 F100.000
G1 X67.934 Y285.200 F200.000
G1 Z-0.800 F100.000
G1 X4.159 Y285.200 F200.000
G1 Z-0.900 F100.000
G1 X67.934 Y285.200 F200.000
G1 Z-1.000 F100.000
G1 X4.159 Y285.200 F200.000
G1 Z-1.100 F100.000
G1 X67.934 Y285.200 F200.000
G1 Z-1.200 F100.000
G1 X4.159 Y285.200 F200.000
G1 Z-1.300 F100.000
G1 X67.934 Y285.200 F200.000
G1 Z-1.400 F100.000
G1 X4.159 Y285.200 F200.000
G1 Z-1.500 F100.000
G1 X67.934 Y285.200 F200.000
G1 Z-1.600 F100.000
G1 X4.159 Y285.200 F200.000
G1 Z-1.700 F100.000
G1 X67.934 Y285.200 F200.000
G1 Z-1.800 F100.000
G1 X4.159 Y285.200 F200.000
G1 Z-1.850 F100.000
G1 X67.934 Y285.200 F200.000
G0 Z3.000
G0 Z5.000
G0 Z5.000
(Finish operation: Slot010)
(Begin operation: Slot011)
(Path: Slot011)
(Slot011)
(Slot011)
(Tool type: endmill)
(Compensated Tool Path. Diameter: 0.5 mm)
()
G0 Z5.000
G0 X68.249 Y305.674
G1 Z-0.100 F100.000
G1 X3.844 Y305.674 F200.000
G1 Z-0.200 F100.000
G1 X68.249 Y305.674 F200.000
G1 Z-0.300 F100.000
G1 X3.844 Y305.674 F200.000
G1 Z-0.400 F100.000
G1 X68.249 Y305.674 F200.000
G1 Z-0.500 F100.000
G1 X3.844 Y305.674 F200.000
G1 Z-0.600 F100.000
G1 X68.249 Y305.674 F200.000
G1 Z-0.700 F100.000
G1 X3.844 Y305.674 F200.000
G1 Z-0.800 F100.000
G1 X68.249 Y305.674 F200.000
G1 Z-0.900 F100.000
G1 X3.844 Y305.674 F200.000
G1 Z-1.000 F100.000
G1 X68.249 Y305.674 F200.000
G1 Z-1.100 F100.000
G1 X3.844 Y305.674 F200.000
G1 Z-1.200 F100.000
G1 X68.249 Y305.674 F200.000
G1 Z-1.300 F100.000
G1 X3.844 Y305.674 F200.000
G1 Z-1.400 F100.000
G1 X68.249 Y305.674 F200.000
G1 Z-1.500 F100.000
G1 X3.844 Y305.674 F200.000
G1 Z-1.600 F100.000
G1 X68.249 Y305.674 F200.000
G1 Z-1.700 F100.000
G1 X3.844 Y305.674 F200.000
G1 Z-1.800 F100.000
G1 X68.249 Y305.674 F200.000
G1 Z-1.850 F100.000
G1 X3.844 Y305.674 F200.000
G0 Z3.000
G0 Z5.000
G0 Z5.000
(Finish operation: Slot011)
(Begin operation: Slot012)
(Path: Slot012)
(Slot012)
(Slot012)
(Tool type: endmill)
(Compensated Tool Path. Diameter: 0.5 mm)
()
G0 Z5.000
G0 X3.546 Y325.000
G1 Z-0.100 F100.000
G1 X68.546 Y325.000 F200.000
G1 Z-0.200 F100.000
G1 X3.546 Y325.000 F200.000
G1 Z-0.300 F100.000
G1 X68.546 Y325.000 F200.000
G1 Z-0.400 F100.000
G1 X3.546 Y325.000 F200.000
G1 Z-0.500 F100.000
G1 X68.546 Y325.000 F200.000
G1 Z-0.600 F100.000
G1 X3.546 Y325.000 F200.000
G1 Z-0.700 F100.000
G1 X68.546 Y325.000 F200.000
G1 Z-0.800 F100.000
G1 X3.546 Y325.000 F200.000
G1 Z-0.900 F100.000
G1 X68.546 Y325.000 F200.000
G1 Z-1.000 F100.000
G1 X3.546 Y325.000 F200.000
G1 Z-1.100 F100.000
G1 X68.546 Y325.000 F200.000
G1 Z-1.200 F100.000
G1 X3.546 Y325.000 F200.000
G1 Z-1.300 F100.000
G1 X68.546 Y325.000 F200.000
G1 Z-1.400 F100.000
G1 X3.546 Y325.000 F200.000
G1 Z-1.500 F100.000
G1 X68.546 Y325.000 F200.000
G1 Z-1.600 F100.000
G1 X3.546 Y325.000 F200.000
G1 Z-1.700 F100.000
G1 X68.546 Y325.000 F200.000
G1 Z-1.800 F100.000
G1 X3.546 Y325.000 F200.000
G1 Z-1.850 F100.000
G1 X68.546 Y325.000 F200.000
G0 Z3.000
G0 Z5.000
G0 Z5.000
(Finish operation: Slot012)
(Begin operation: Slot013)
(Path: Slot013)
(Slot013)
(Slot013)
(Tool type: endmill)
(Compensated Tool Path. Diameter: 0.5 mm)
()
G0 Z5.000
G0 X68.827 Y343.241
G1 Z-0.100 F100.000
G1 X3.266 Y343.241 F200.000
G1 Z-0.200 F100.000
G1 X68.827 Y343.241 F200.000
G1 Z-0.300 F100.000
G1 X3.266 Y343.241 F200.000
G1 Z-0.400 F100.000
G1 X68.827 Y343.241 F200.000
G1 Z-0.500 F100.000
G1 X3.266 Y343.241 F200.000
G1 Z-0.600 F100.000
G1 X68.827 Y343.241 F200.000
G1 Z-0.700 F100.000
G1 X3.266 Y343.241 F200.000
G1 Z-0.800 F100.000
G1 X68.827 Y343.241 F200.000
G1 Z-0.900 F100.000
G1 X3.266 Y343.241 F200.000
G1 Z-1.000 F100.000
G1 X68.827 Y343.241 F200.000
G1 Z-1.100 F100.000
G1 X3.266 Y343.241 F200.000
G1 Z-1.200 F100.000
G1 X68.827 Y343.241 F200.000
G1 Z-1.300 F100.000
G1 X3.266 Y343.241 F200.000
G1 Z-1.400 F100.000
G1 X68.827 Y343.241 F200.000
G1 Z-1.500 F100.000
G1 X3.266 Y343.241 F200.000
G1 Z-1.600 F100.000
G1 X68.827 Y343.241 F200.000
G1 Z-1.700 F100.000
G1 X3.266 Y343.241 F200.000
G1 Z-1.800 F100.000
G1 X68.827 Y343.241 F200.000
G1 Z-1.850 F100.000
G1 X3.266 Y343.241 F200.000
G0 Z3.000
G0 Z5.000
G0 Z5.000
(Finish operation: Slot013)
(Begin operation: Slot014)
(Path: Slot014)
(Slot014)
(Slot014)
(Tool type: endmill)
(Compensated Tool Path. Diameter: 0.5 mm)
()
G0 Z5.000
G0 X3.001 Y360.458
G1 Z-0.100 F100.000
G1 X69.092 Y360.458 F200.000
G1 Z-0.200 F100.000
G1 X3.001 Y360.458 F200.000
G1 Z-0.300 F100.000
G1 X69.092 Y360.458 F200.000
G1 Z-0.400 F100.000
G1 X3.001 Y360.458 F200.000
G1 Z-0.500 F100.000
G1 X69.092 Y360.458 F200.000
G1 Z-0.600 F100.000
G1 X3.001 Y360.458 F200.000
G1 Z-0.700 F100.000
G1 X69.092 Y360.458 F200.000
G1 Z-0.800 F100.000
G1 X3.001 Y360.458 F200.000
G1 Z-0.900 F100.000
G1 X69.092 Y360.458 F200.000
G1 Z-1.000 F100.000
G1 X3.001 Y360.458 F200.000
G1 Z-1.100 F100.000
G1 X69.092 Y360.458 F200.000
G1 Z-1.200 F100.000
G1 X3.001 Y360.458 F200.000
G1 Z-1.300 F100.000
G1 X69.092 Y360.458 F200.000
G1 Z-1.400 F100.000
G1 X3.001 Y360.458 F200.000
G1 Z-1.500 F100.000
G1 X69.092 Y360.458 F200.000
G1 Z-1.600 F100.000
G1 X3.001 Y360.458 F200.000
G1 Z-1.700 F100.000
G1 X69.092 Y360.458 F200.000
G1 Z-1.800 F100.000
G1 X3.001 Y360.458 F200.000
G1 Z-1.850 F100.000
G1 X69.092 Y360.458 F200.000
G0 Z3.000
G0 Z5.000
G0 Z5.000
(Finish operation: Slot014)
(Begin operation: Slot015)
(Path: Slot015)
(Slot015)
(Slot015)
(Tool type: endmill)
(Compensated Tool Path. Diameter: 0.5 mm)
()
G0 Z5.000
G0 X2.751 Y376.709
G1 Z-0.100 F100.000
G1 X69.342 Y376.709 F200.000
G1 Z-0.200 F100.000
G1 X2.751 Y376.709 F200.000
G1 Z-0.300 F100.000
G1 X69.342 Y376.709 F200.000
G1 Z-0.400 F100.000
G1 X2.751 Y376.709 F200.000
G1 Z-0.500 F100.000
G1 X69.342 Y376.709 F200.000
G1 Z-0.600 F100.000
G1 X2.751 Y376.709 F200.000
G1 Z-0.700 F100.000
G1 X69.342 Y376.709 F200.000
G1 Z-0.800 F100.000
G1 X2.751 Y376.709 F200.000
G1 Z-0.900 F100.000
G1 X69.342 Y376.709 F200.000
G1 Z-1.000 F100.000
G1 X2.751 Y376.709 F200.000
G1 Z-1.100 F100.000
G1 X69.342 Y376.709 F200.000
G1 Z-1.200 F100.000
G1 X2.751 Y376.709 F200.000
G1 Z-1.300 F100.000
G1 X69.342 Y376.709 F200.000
G1 Z-1.400 F100.000
G1 X2.751 Y376.709 F200.000
G1 Z-1.500 F100.000
G1 X69.342 Y376.709 F200.000
G1 Z-1.600 F100.000
G1 X2.751 Y376.709 F200.000
G1 Z-1.700 F100.000
G1 X69.342 Y376.709 F200.000
G1 Z-1.800 F100.000
G1 X2.751 Y376.709 F200.000
G1 Z-1.850 F100.000
G1 X69.342 Y376.709 F200.000
G0 Z3.000
G0 Z5.000
G0 Z5.000
(Finish operation: Slot015)
(Begin operation: Slot016)
(Path: Slot016)
(Slot016)
(Slot016)
(Tool type: endmill)
(Compensated Tool Path. Diameter: 0.5 mm)
()
G0 Z5.000
G0 X2.515 Y392.047
G1 Z-0.100 F100.000
G1 X69.578 Y392.047 F200.000
G1 Z-0.200 F100.000
G1 X2.515 Y392.047 F200.000
G1 Z-0.300 F100.000
G1 X69.578 Y392.047 F200.000
G1 Z-0.400 F100.000
G1 X2.515 Y392.047 F200.000
G1 Z-0.500 F100.000
G1 X69.578 Y392.047 F200.000
G1 Z-0.600 F100.000
G1 X2.515 Y392.047 F200.000
G1 Z-0.700 F100.000
G1 X69.578 Y392.047 F200.000
G1 Z-0.800 F100.000
G1 X2.515 Y392.047 F200.000
G1 Z-0.900 F100.000
G1 X69.578 Y392.047 F200.000
G1 Z-1.000 F100.000
G1 X2.515 Y392.047 F200.000
G1 Z-1.100 F100.000
G1 X69.578 Y392.047 F200.000
G1 Z-1.200 F100.000
G1 X2.515 Y392.047 F200.000
G1 Z-1.300 F100.000
G1 X69.578 Y392.047 F200.000
G1 Z-1.400 F100.000
G1 X2.515 Y392.047 F200.000
G1 Z-1.500 F100.000
G1 X69.578 Y392.047 F200.000
G1 Z-1.600 F100.000
G1 X2.515 Y392.047 F200.000
G1 Z-1.700 F100.000
G1 X69.578 Y392.047 F200.000
G1 Z-1.800 F100.000
G1 X2.515 Y392.047 F200.000
G1 Z-1.850 F100.000
G1 X69.578 Y392.047 F200.000
G0 Z3.000
G0 Z5.000
G0 Z5.000
(Finish operation: Slot016)
(Begin operation: Slot017)
(Path: Slot017)
(Slot017)
(Slot017)
(Tool type: endmill)
(Compensated Tool Path. Diameter: 0.5 mm)
()
G0 Z5.000
G0 X2.292 Y406.525
G1 Z-0.100 F100.000
G1 X69.801 Y406.525 F200.000
G1 Z-0.200 F100.000
G1 X2.292 Y406.525 F200.000
G1 Z-0.300 F100.000
G1 X69.801 Y406.525 F200.000
G1 Z-0.400 F100.000
G1 X2.292 Y406.525 F200.000
G1 Z-0.500 F100.000
G1 X69.801 Y406.525 F200.000
G1 Z-0.600 F100.000
G1 X2.292 Y406.525 F200.000
G1 Z-0.700 F100.000
G1 X69.801 Y406.525 F200.000
G1 Z-0.800 F100.000
G1 X2.292 Y406.525 F200.000
G1 Z-0.900 F100.000
G1 X69.801 Y406.525 F200.000
G1 Z-1.000 F100.000
G1 X2.292 Y406.525 F200.000
G1 Z-1.100 F100.000
G1 X69.801 Y406.525 F200.000
G1 Z-1.200 F100.000
G1 X2.292 Y406.525 F200.000
G1 Z-1.300 F100.000
G1 X69.801 Y406.525 F200.000
G1 Z-1.400 F100.000
G1 X2.292 Y406.525 F200.000
G1 Z-1.500 F100.000
G1 X69.801 Y406.525 F200.000
G1 Z-1.600 F100.000
G1 X2.292 Y406.525 F200.000
G1 Z-1.700 F100.000
G1 X69.801 Y406.525 F200.000
G1 Z-1.800 F100.000
G1 X2.292 Y406.525 F200.000
G1 Z-1.850 F100.000
G1 X69.801 Y406.525 F200.000
G0 Z3.000
G0 Z5.000
G0 Z5.000
(Finish operation: Slot017)
(Begin operation: Slot018)
(Path: Slot018)
(Slot018)
(Slot018)
(Tool type: endmill)
(Compensated Tool Path. Diameter: 0.5 mm)
()
G0 Z5.000
G0 X70.011 Y420.190
G1 Z-0.100 F100.000
G1 X2.082 Y420.190 F200.000
G1 Z-0.200 F100.000
G1 X70.011 Y420.190 F200.000
G1 Z-0.300 F100.000
G1 X2.082 Y420.190 F200.000
G1 Z-0.400 F100.000
G1 X70.011 Y420.190 F200.000
G1 Z-0.500 F100.000
G1 X2.082 Y420.190 F200.000
G1 Z-0.600 F100.000
G1 X70.011 Y420.190 F200.000
G1 Z-0.700 F100.000
G1 X2.082 Y420.190 F200.000
G1 Z-0.800 F100.000
G1 X70.011 Y420.190 F200.000
G1 Z-0.900 F100.000
G1 X2.082 Y420.190 F200.000
G1 Z-1.000 F100.000
G1 X70.011 Y420.190 F200.000
G1 Z-1.100 F100.000
G1 X2.082 Y420.190 F200.000
G1 Z-1.200 F100.000
G1 X70.011 Y420.190 F200.000
G1 Z-1.300 F100.000
G1 X2.082 Y420.190 F200.000
G1 Z-1.400 F100.000
G1 X70.011 Y420.190 F200.000
G1 Z-1.500 F100.000
G1 X2.082 Y420.190 F200.000
G1 Z-1.600 F100.000
G1 X70.011 Y420.190 F200.000
G1 Z-1.700 F100.000
G1 X2.082 Y420.190 F200.000
G1 Z-1.800 F100.000
G1 X70.011 Y420.190 F200.000
G1 Z-1.850 F100.000
G1 X2.082 Y420.190 F200.000
G0 Z3.000
G0 Z5.000
G0 Z5.000
(Finish operation: Slot018)
(Begin operation: Slot019)
(Path: Slot019)
(Slot019)
(Slot019)
(Tool type: endmill)
(Compensated Tool Path. Diameter: 0.5 mm)
()
G0 Z5.000
G0 X70.209 Y433.089
G1 Z-0.100 F100.000
G1 X1.883 Y433.089 F200.000
G1 Z-0.200 F100.000
G1 X70.209 Y433.089 F200.000
G1 Z-0.300 F100.000
G1 X1.883 Y433.089 F200.000
G1 Z-0.400 F100.000
G1 X70.209 Y433.089 F200.000
G1 Z-0.500 F100.000
G1 X1.883 Y433.089 F200.000
G1 Z-0.600 F100.000
G1 X70.209 Y433.089 F200.000
G1 Z-0.700 F100.000
G1 X1.883 Y433.089 F200.000
G1 Z-0.800 F100.000
G1 X70.209 Y433.089 F200.000
G1 Z-0.900 F100.000
G1 X1.883 Y433.089 F200.000
G1 Z-1.000 F100.000
G1 X70.209 Y433.089 F200.000
G1 Z-1.100 F100.000
G1 X1.883 Y433.089 F200.000
G1 Z-1.200 F100.000
G1 X70.209 Y433.089 F200.000
G1 Z-1.300 F100.000
G1 X1.883 Y433.089 F200.000
G1 Z-1.400 F100.000
G1 X70.209 Y433.089 F200.000
G1 Z-1.500 F100.000
G1 X1.883 Y433.089 F200.000
G1 Z-1.600 F100.000
G1 X70.209 Y433.089 F200.000
G1 Z-1.700 F100.000
G1 X1.883 Y433.089 F200.000
G1 Z-1.800 F100.000
G1 X70.209 Y433.089 F200.000
G1 Z-1.850 F100.000
G1 X1.883 Y433.089 F200.000
G0 Z3.000
G0 Z5.000
G0 Z5.000
(Finish operation: Slot019)
(Begin operation: Slot020)
(Path: Slot020)
(Slot020)
(Slot020)
(Tool type: endmill)
(Compensated Tool Path. Diameter: 0.5 mm)
()
G0 Z5.000
G0 X70.397 Y445.263
G1 Z-0.100 F100.000
G1 X58.441 Y445.262 F200.000
G1 Z-0.200 F100.000
G1 X70.397 Y445.263 F200.000
G1 Z-0.300 F100.000
G1 X58.441 Y445.262 F200.000
G1 Z-0.400 F100.000
G1 X70.397 Y445.263 F200.000
G1 Z-0.500 F100.000
G1 X58.441 Y445.262 F200.000
G1 Z-0.600 F100.000
G1 X70.397 Y445.263 F200.000
G1 Z-0.700 F100.000
G1 X58.441 Y445.262 F200.000
G1 Z-0.800 F100.000
G1 X70.397 Y445.263 F200.000
G1 Z-0.900 F100.000
G1 X58.441 Y445.262 F200.000
G1 Z-1.000 F100.000
G1 X70.397 Y445.263 F200.000
G1 Z-1.100 F100.000
G1 X58.441 Y445.262 F200.000
G1 Z-1.200 F100.000
G1 X70.397 Y445.263 F200.000
G1 Z-1.300 F100.000
G1 X58.441 Y445.262 F200.000
G1 Z-1.400 F100.000
G1 X70.397 Y445.263 F200.000
G1 Z-1.500 F100.000
G1 X58.441 Y445.262 F200.000
G1 Z-1.600 F100.000
G1 X70.397 Y445.263 F200.000
G1 Z-1.700 F100.000
G1 X58.441 Y445.262 F200.000
G1 Z-1.800 F100.000
G1 X70.397 Y445.263 F200.000
G1 Z-1.850 F100.000
G1 X58.441 Y445.262 F200.000
G0 Z3.000
G0 Z5.000
G0 Z5.000
(Finish operation: Slot020)
(Begin operation: Slot021)
(Path: Slot021)
(Slot021)
(Slot021)
(Tool type: endmill)
(Compensated Tool Path. Diameter: 0.5 mm)
()
G0 Z5.000
G0 X34.776 Y445.263
G1 Z-0.100 F100.000
G1 X1.696 Y445.263 F200.000
G1 Z-0.200 F100.000
G1 X34.776 Y445.263 F200.000
G1 Z-0.300 F100.000
G1 X1.696 Y445.263 F200.000
G1 Z-0.400 F100.000
G1 X34.776 Y445.263 F200.000
G1 Z-0.500 F100.000
G1 X1.696 Y445.263 F200.000
G1 Z-0.600 F100.000
G1 X34.776 Y445.263 F200.000
G1 Z-0.700 F100.000
G1 X1.696 Y445.263 F200.000
G1 Z-0.800 F100.000
G1 X34.776 Y445.263 F200.000
G1 Z-0.900 F100.000
G1 X1.696 Y445.263 F200.000
G1 Z-1.000 F100.000
G1 X34.776 Y445.263 F200.000
G1 Z-1.100 F100.000
G1 X1.696 Y445.263 F200.000
G1 Z-1.200 F100.000
G1 X34.776 Y445.263 F200.000
G1 Z-1.300 F100.000
G1 X1.696 Y445.263 F200.000
G1 Z-1.400 F100.000
G1 X34.776 Y445.263 F200.000
G1 Z-1.500 F100.000
G1 X1.696 Y445.263 F200.000
G1 Z-1.600 F100.000
G1 X34.776 Y445.263 F200.000
G1 Z-1.700 F100.000
G1 X1.696 Y445.263 F200.000
G1 Z-1.800 F100.000
G1 X34.776 Y445.263 F200.000
G1 Z-1.850 F100.000
G1 X1.696 Y445.263 F200.000
G0 Z3.000
G0 Z5.000
G0 Z5.000
(Finish operation: Slot021)
(Begin postamble)
M5
G17 G90
M2
