(Exported by FreeCAD)
(Post Processor: grbl_post)
(Output Time:2023-03-12 20:44:42.597495)
(Begin preamble)
G17 G90
G21
(Begin operation: 3.175 Z1 UP Helicoidale009)
(Path: 3.175 Z1 UP Helicoidale009)
(3.175 Z1 UP Helicoidale009)
(Begin toolchange)
( M6 T1.0 )
M3 S24000.0
(Finish operation: 3.175 Z1 UP Helicoidale009)
(Begin operation: Fixture)
(Path: Fixture)
G54
G0 Z5.000
(Finish operation: Fixture)
(Begin operation: Profile)
(Path: Profile)
(Profile)
(Compensated Tool Path. Diameter: 3.17)
G0 Z5.000
G0 X70.713 Y459.134
G0 Z3.000
G1 X70.713 Y459.134 Z-1.585 F1000.000
G3 X68.264 Y458.877 Z-1.585 I-1.121 J-1.121 K0.000 F2500.000
G2 X62.595 Y451.030 Z-1.585 I-70.131 J44.688 K0.000 F2500.000
G2 X57.534 Y445.666 Z-1.585 I-42.814 J35.334 K0.000 F2500.000
G2 X52.670 Y442.000 Z-1.585 I-20.145 J21.662 K0.000 F2500.000
G2 X49.030 Y440.410 Z-1.585 I-7.924 J13.185 K0.000 F2500.000
G2 X42.824 Y440.859 Z-1.585 I-2.438 J9.418 K0.000 F2500.000
G2 X40.211 Y442.210 Z-1.585 I4.904 J12.685 K0.000 F2500.000
G2 X34.130 Y447.074 Z-1.585 I26.609 J39.500 K0.000 F2500.000
G3 X25.547 Y454.052 Z-1.585 I-51.497 J-54.578 K0.000 F2500.000
G3 X14.642 Y458.489 Z-1.585 I-16.407 J-24.706 K0.000 F2500.000
G3 X2.523 Y459.598 Z-1.585 I-12.078 J-65.223 K0.000 F2500.000
G3 X0.915 Y457.989 Z-1.585 I-0.023 J-1.585 K0.000 F2500.000
G1 X7.962 Y-0.024 Z-1.585 F2500.000
G3 X9.546 Y-1.585 Z-1.585 I1.585 J0.024 K0.000 F2500.000
G1 X62.546 Y-1.585 Z-1.585 F2500.000
G3 X64.131 Y-0.024 Z-1.585 I-0.000 J1.585 K0.000 F2500.000
G1 X71.178 Y457.989 Z-1.585 F2500.000
G3 X70.713 Y459.134 Z-1.585 I-1.585 J0.024 K0.000 F2500.000
G1 X70.713 Y459.134 Z-3.170 F1000.000
G3 X68.264 Y458.877 Z-3.170 I-1.121 J-1.121 K0.000 F2500.000
G2 X62.595 Y451.030 Z-3.170 I-70.131 J44.688 K0.000 F2500.000
G2 X57.534 Y445.666 Z-3.170 I-42.814 J35.334 K0.000 F2500.000
G2 X52.670 Y442.000 Z-3.170 I-20.145 J21.662 K0.000 F2500.000
G2 X49.030 Y440.410 Z-3.170 I-7.924 J13.185 K0.000 F2500.000
G2 X42.824 Y440.859 Z-3.170 I-2.438 J9.418 K0.000 F2500.000
G2 X40.211 Y442.210 Z-3.170 I4.904 J12.685 K0.000 F2500.000
G2 X34.130 Y447.074 Z-3.170 I26.609 J39.500 K0.000 F2500.000
G3 X25.547 Y454.052 Z-3.170 I-51.497 J-54.578 K0.000 F2500.000
G3 X14.642 Y458.489 Z-3.170 I-16.407 J-24.706 K0.000 F2500.000
G3 X2.523 Y459.598 Z-3.170 I-12.078 J-65.223 K0.000 F2500.000
G3 X0.915 Y457.989 Z-3.170 I-0.023 J-1.585 K0.000 F2500.000
G1 X7.962 Y-0.024 Z-3.170 F2500.000
G3 X9.546 Y-1.585 Z-3.170 I1.585 J0.024 K0.000 F2500.000
G1 X62.546 Y-1.585 Z-3.170 F2500.000
G3 X64.131 Y-0.024 Z-3.170 I-0.000 J1.585 K0.000 F2500.000
G1 X71.178 Y457.989 Z-3.170 F2500.000
G3 X70.713 Y459.134 Z-3.170 I-1.585 J0.024 K0.000 F2500.000
G1 X70.713 Y459.134 Z-4.755 F1000.000
G3 X68.264 Y458.877 Z-4.755 I-1.121 J-1.121 K0.000 F2500.000
G2 X62.595 Y451.030 Z-4.755 I-70.131 J44.688 K0.000 F2500.000
G2 X57.534 Y445.666 Z-4.755 I-42.814 J35.334 K0.000 F2500.000
G2 X52.670 Y442.000 Z-4.755 I-20.145 J21.662 K0.000 F2500.000
G2 X49.030 Y440.410 Z-4.755 I-7.924 J13.185 K0.000 F2500.000
G2 X42.824 Y440.859 Z-4.755 I-2.438 J9.418 K0.000 F2500.000
G2 X40.211 Y442.210 Z-4.755 I4.904 J12.685 K0.000 F2500.000
G2 X34.130 Y447.074 Z-4.755 I26.609 J39.500 K0.000 F2500.000
G3 X25.547 Y454.052 Z-4.755 I-51.497 J-54.578 K0.000 F2500.000
G3 X14.642 Y458.489 Z-4.755 I-16.407 J-24.706 K0.000 F2500.000
G3 X2.523 Y459.598 Z-4.755 I-12.078 J-65.223 K0.000 F2500.000
G3 X0.915 Y457.989 Z-4.755 I-0.023 J-1.585 K0.000 F2500.000
G1 X7.962 Y-0.024 Z-4.755 F2500.000
G3 X9.546 Y-1.585 Z-4.755 I1.585 J0.024 K0.000 F2500.000
G1 X62.546 Y-1.585 Z-4.755 F2500.000
G3 X64.131 Y-0.024 Z-4.755 I-0.000 J1.585 K0.000 F2500.000
G1 X71.178 Y457.989 Z-4.755 F2500.000
G3 X70.713 Y459.134 Z-4.755 I-1.585 J0.024 K0.000 F2500.000
G1 X70.713 Y459.134 Z-6.340 F1000.000
G3 X68.264 Y458.877 Z-6.340 I-1.121 J-1.121 K0.000 F2500.000
G2 X62.595 Y451.030 Z-6.340 I-70.131 J44.688 K0.000 F2500.000
G2 X57.534 Y445.666 Z-6.340 I-42.814 J35.334 K0.000 F2500.000
G2 X52.670 Y442.000 Z-6.340 I-20.145 J21.662 K0.000 F2500.000
G2 X49.030 Y440.410 Z-6.340 I-7.924 J13.185 K0.000 F2500.000
G2 X42.824 Y440.859 Z-6.340 I-2.438 J9.418 K0.000 F2500.000
G2 X40.211 Y442.210 Z-6.340 I4.904 J12.685 K0.000 F2500.000
G2 X34.130 Y447.074 Z-6.340 I26.609 J39.500 K0.000 F2500.000
G3 X25.547 Y454.052 Z-6.340 I-51.497 J-54.578 K0.000 F2500.000
G3 X14.642 Y458.489 Z-6.340 I-16.407 J-24.706 K0.000 F2500.000
G3 X2.523 Y459.598 Z-6.340 I-12.078 J-65.223 K0.000 F2500.000
G3 X0.915 Y457.989 Z-6.340 I-0.023 J-1.585 K0.000 F2500.000
G1 X7.962 Y-0.024 Z-6.340 F2500.000
G3 X9.546 Y-1.585 Z-6.340 I1.585 J0.024 K0.000 F2500.000
G1 X62.546 Y-1.585 Z-6.340 F2500.000
G3 X64.131 Y-0.024 Z-6.340 I-0.000 J1.585 K0.000 F2500.000
G1 X71.178 Y457.989 Z-6.340 F2500.000
G3 X70.713 Y459.134 Z-6.340 I-1.585 J0.024 K0.000 F2500.000
G1 X70.713 Y459.134 Z-7.000 F1000.000
G3 X68.264 Y458.877 Z-7.000 I-1.121 J-1.121 K0.000 F2500.000
G2 X62.595 Y451.030 Z-7.000 I-70.131 J44.688 K0.000 F2500.000
G2 X57.534 Y445.666 Z-7.000 I-42.814 J35.334 K0.000 F2500.000
G2 X52.670 Y442.000 Z-7.000 I-20.145 J21.662 K0.000 F2500.000
G2 X49.030 Y440.410 Z-7.000 I-7.924 J13.185 K0.000 F2500.000
G2 X42.824 Y440.859 Z-7.000 I-2.438 J9.418 K0.000 F2500.000
G2 X40.211 Y442.210 Z-7.000 I4.904 J12.685 K0.000 F2500.000
G2 X34.130 Y447.074 Z-7.000 I26.609 J39.500 K0.000 F2500.000
G3 X25.547 Y454.052 Z-7.000 I-51.497 J-54.578 K0.000 F2500.000
G3 X14.642 Y458.489 Z-7.000 I-16.407 J-24.706 K0.000 F2500.000
G3 X2.523 Y459.598 Z-7.000 I-12.078 J-65.223 K0.000 F2500.000
G3 X0.915 Y457.989 Z-7.000 I-0.023 J-1.585 K0.000 F2500.000
G1 X7.962 Y-0.024 Z-7.000 F2500.000
G3 X9.546 Y-1.585 Z-7.000 I1.585 J0.024 K0.000 F2500.000
G1 X62.546 Y-1.585 Z-7.000 F2500.000
G3 X64.131 Y-0.024 Z-7.000 I-0.000 J1.585 K0.000 F2500.000
G1 X71.178 Y457.989 Z-7.000 F2500.000
G3 X70.713 Y459.134 Z-7.000 I-1.585 J0.024 K0.000 F2500.000
G0 Z5.000
G0 Z5.000
(Finish operation: Profile)
(Begin postamble)
M5
G17 G90
M2
