(Exported by FreeCAD)
(Post Processor: grbl_post)
(Output Time:2022-12-17 10:44:42.306303)
(Begin preamble)
G17 G90
G21
(Begin operation: Fixture)
(Path: Fixture)
G54
(Finish operation: Fixture)
(Begin operation: 3.175 Z1 UP Helicoidale004)
(Path: 3.175 Z1 UP Helicoidale004)
(3.175 Z1 UP Helicoidale004)
(Begin toolchange)
( M6 T2.0 )
M3 S24000.0
(Finish operation: 3.175 Z1 UP Helicoidale004)
(Begin operation: Profile)
(Path: Profile)
(Profile)
(Compensated Tool Path. Diameter: 3.17)
G0 Z5.000
G0 X25.041 Y142.567
G0 Z3.000
G1 X25.041 Y142.567 Z-3.170 F1000.000
G2 X26.431 Y138.619 Z-3.170 I-5.157 J-4.035 K0.000 F2500.000
G1 X28.251 Y43.918 Z-3.170 F2500.000
G2 X23.119 Y37.375 Z-3.170 I-6.532 J-0.160 K0.000 F2500.000
G2 X15.191 Y43.664 Z-3.170 I-1.397 J6.381 K0.000 F2500.000
G1 X13.336 Y138.365 Z-3.170 F2500.000
G1 X13.356 Y139.047 Z-3.170 F2500.000
G2 X25.041 Y142.567 Z-3.170 I6.528 J-0.515 K0.000 F2500.000
G1 X25.041 Y142.567 Z-6.340 F1000.000
G2 X26.431 Y138.619 Z-6.340 I-5.157 J-4.035 K0.000 F2500.000
G1 X28.251 Y43.918 Z-6.340 F2500.000
G2 X23.119 Y37.375 Z-6.340 I-6.532 J-0.160 K0.000 F2500.000
G2 X15.191 Y43.664 Z-6.340 I-1.397 J6.381 K0.000 F2500.000
G1 X13.336 Y138.365 Z-6.340 F2500.000
G1 X13.356 Y139.047 Z-6.340 F2500.000
G2 X25.041 Y142.567 Z-6.340 I6.528 J-0.515 K0.000 F2500.000
G1 X25.041 Y142.567 Z-9.510 F1000.000
G2 X26.431 Y138.619 Z-9.510 I-5.157 J-4.035 K0.000 F2500.000
G1 X28.251 Y43.918 Z-9.510 F2500.000
G2 X23.119 Y37.375 Z-9.510 I-6.532 J-0.160 K0.000 F2500.000
G2 X15.191 Y43.664 Z-9.510 I-1.397 J6.381 K0.000 F2500.000
G1 X13.336 Y138.365 Z-9.510 F2500.000
G1 X13.356 Y139.047 Z-9.510 F2500.000
G2 X25.041 Y142.567 Z-9.510 I6.528 J-0.515 K0.000 F2500.000
G1 X25.041 Y142.567 Z-10.000 F1000.000
G2 X26.431 Y138.619 Z-10.000 I-5.157 J-4.035 K0.000 F2500.000
G1 X28.251 Y43.918 Z-10.000 F2500.000
G2 X23.119 Y37.375 Z-10.000 I-6.532 J-0.160 K0.000 F2500.000
G2 X15.191 Y43.664 Z-10.000 I-1.397 J6.381 K0.000 F2500.000
G1 X13.336 Y138.365 Z-10.000 F2500.000
G1 X13.356 Y139.047 Z-10.000 F2500.000
G2 X25.041 Y142.567 Z-10.000 I6.528 J-0.515 K0.000 F2500.000
G0 Z5.000
G0 Z5.000
G0 X25.041 Y142.567
G0 X49.825 Y139.408
G0 X49.825 Y139.408 Z3.000
G1 X49.825 Y139.408 Z-3.170 F1000.000
G2 X62.867 Y138.431 Z-3.170 I6.496 J-0.828 K0.000 F2500.000
G1 X61.263 Y43.725 Z-3.170 F2500.000
G2 X55.899 Y37.373 Z-3.170 I-6.533 J0.076 K0.000 F2500.000
G2 X48.203 Y43.944 Z-3.170 I-1.165 J6.427 K0.000 F2500.000
G1 X49.771 Y138.650 Z-3.170 F2500.000
G1 X49.816 Y139.330 Z-3.170 F2500.000
G2 X49.825 Y139.408 Z-3.170 I6.505 J-0.751 K0.000 F2500.000
G1 X49.825 Y139.408 Z-6.340 F1000.000
G2 X62.867 Y138.431 Z-6.340 I6.496 J-0.828 K0.000 F2500.000
G1 X61.263 Y43.725 Z-6.340 F2500.000
G2 X55.899 Y37.373 Z-6.340 I-6.533 J0.076 K0.000 F2500.000
G2 X48.203 Y43.944 Z-6.340 I-1.165 J6.427 K0.000 F2500.000
G1 X49.771 Y138.650 Z-6.340 F2500.000
G1 X49.816 Y139.330 Z-6.340 F2500.000
G2 X49.825 Y139.408 Z-6.340 I6.505 J-0.751 K0.000 F2500.000
G1 X49.825 Y139.408 Z-9.510 F1000.000
G2 X62.867 Y138.431 Z-9.510 I6.496 J-0.828 K0.000 F2500.000
G1 X61.263 Y43.725 Z-9.510 F2500.000
G2 X55.899 Y37.373 Z-9.510 I-6.533 J0.076 K0.000 F2500.000
G2 X48.203 Y43.944 Z-9.510 I-1.165 J6.427 K0.000 F2500.000
G1 X49.771 Y138.650 Z-9.510 F2500.000
G1 X49.816 Y139.330 Z-9.510 F2500.000
G2 X49.825 Y139.408 Z-9.510 I6.505 J-0.751 K0.000 F2500.000
G1 X49.825 Y139.408 Z-10.000 F1000.000
G2 X62.867 Y138.431 Z-10.000 I6.496 J-0.828 K0.000 F2500.000
G1 X61.263 Y43.725 Z-10.000 F2500.000
G2 X55.899 Y37.373 Z-10.000 I-6.533 J0.076 K0.000 F2500.000
G2 X48.203 Y43.944 Z-10.000 I-1.165 J6.427 K0.000 F2500.000
G1 X49.771 Y138.650 Z-10.000 F2500.000
G1 X49.816 Y139.330 Z-10.000 F2500.000
G2 X49.825 Y139.408 Z-10.000 I6.505 J-0.751 K0.000 F2500.000
G0 Z5.000
G0 Z5.000
G0 X49.825 Y139.408
G0 X74.775 Y138.891
G0 X74.775 Y138.891 Z3.000
G1 X74.775 Y138.891 Z-3.170 F1000.000
G1 X75.114 Y155.254 Z-3.170 F2500.000
G3 X74.516 Y156.523 Z-3.170 I-1.556 J0.042 K0.000 F2500.000
G3 X77.481 Y163.086 Z-3.170 I-25.441 J15.447 K0.000 F2500.000
G3 X77.620 Y165.535 Z-3.170 I-4.866 J1.505 K0.000 F2500.000
G3 X75.371 Y167.377 Z-3.170 I-2.387 J-0.621 K0.000 F2500.000
G3 X73.533 Y167.210 Z-3.170 I-0.406 J-5.735 K0.000 F2500.000
G2 X70.581 Y166.851 Z-3.170 I-5.572 J33.510 K0.000 F2500.000
G2 X66.856 Y168.554 Z-3.170 I-0.069 J4.775 K0.000 F2500.000
G2 X66.034 Y169.640 Z-3.170 I5.458 J4.983 K0.000 F2500.000
G3 X64.252 Y170.250 Z-3.170 I-1.304 J-0.900 K0.000 F2500.000
G2 X62.447 Y169.731 Z-3.170 I-4.078 J10.772 K0.000 F2500.000
G2 X59.224 Y170.010 Z-3.170 I-1.077 J6.312 K0.000 F2500.000
G2 X54.305 Y172.708 Z-3.170 I4.968 J14.888 K0.000 F2500.000
G2 X51.852 Y174.922 Z-3.170 I22.422 J27.317 K0.000 F2500.000
G3 X47.826 Y178.171 Z-3.170 I-23.154 J-24.570 K0.000 F2500.000
G3 X42.301 Y180.121 Z-3.170 I-6.827 J-10.540 K0.000 F2500.000
G3 X38.048 Y179.067 Z-3.170 I-0.464 J-7.239 K0.000 F2500.000
G3 X32.818 Y179.982 Z-3.170 I-3.787 J-6.240 K0.000 F2500.000
G3 X28.178 Y178.069 Z-3.170 I2.572 J-12.819 K0.000 F2500.000
G3 X24.594 Y175.165 Z-3.170 I12.044 J-18.533 K0.000 F2500.000
G2 X21.319 Y172.287 Z-3.170 I-44.565 J47.400 K0.000 F2500.000
G2 X16.156 Y169.737 Z-3.170 I-9.200 J12.124 K0.000 F2500.000
G2 X11.918 Y170.164 Z-3.170 I-1.433 J7.016 K0.000 F2500.000
G3 X10.077 Y169.552 Z-3.170 I-0.525 J-1.495 K0.000 F2500.000
G2 X8.010 Y167.403 Z-3.170 I-5.834 J3.542 K0.000 F2500.000
G2 X5.630 Y166.780 Z-3.170 I-2.301 J3.930 K0.000 F2500.000
G2 X1.593 Y167.269 Z-3.170 I1.566 J29.823 K0.000 F2500.000
G3 X-0.772 Y166.626 Z-3.170 I-0.506 J-2.806 K0.000 F2500.000
G3 X-1.549 Y164.021 Z-3.170 I2.025 J-2.023 K0.000 F2500.000
G3 X-1.310 Y162.869 Z-3.170 I6.420 J0.733 K0.000 F2500.000
G3 X1.640 Y156.424 Z-3.170 I28.597 J9.195 K0.000 F2500.000
G3 X1.044 Y155.155 Z-3.170 I0.960 J-1.225 K0.000 F2500.000
G1 X4.213 Y19.584 Z-3.170 F2500.000
G3 X4.486 Y18.731 Z-3.170 I1.585 J0.037 K0.000 F2500.000
G2 X8.303 Y11.433 Z-3.170 I-21.572 J-15.931 K0.000 F2500.000
G2 X9.641 Y4.656 Z-3.170 I-27.360 J-8.923 K0.000 F2500.000
G2 X10.022 Y-0.102 Z-3.170 I-99.688 J-10.386 K0.000 F2500.000
G3 X11.609 Y-1.585 Z-3.170 I1.582 J0.102 K0.000 F2500.000
G2 X64.965 Y-1.514 Z-3.170 I40.017 J-10044.979 K0.000 F2500.000
G3 X66.547 Y-0.044 Z-3.170 I0.001 J1.585 K0.000 F2500.000
G2 X67.050 Y6.060 Z-3.170 I192.154 J-12.739 K0.000 F2500.000
G2 X69.237 Y14.029 Z-3.170 I26.619 J-3.023 K0.000 F2500.000
G2 X72.027 Y18.808 Z-3.170 I25.099 J-11.445 K0.000 F2500.000
G3 X72.306 Y19.674 Z-3.170 I-1.306 J0.899 K0.000 F2500.000
G1 X74.775 Y138.891 Z-3.170 F2500.000
G1 X74.775 Y138.891 Z-6.340 F1000.000
G1 X75.114 Y155.254 Z-6.340 F2500.000
G3 X74.516 Y156.523 Z-6.340 I-1.556 J0.042 K0.000 F2500.000
G3 X77.481 Y163.086 Z-6.340 I-25.441 J15.447 K0.000 F2500.000
G3 X77.620 Y165.535 Z-6.340 I-4.866 J1.505 K0.000 F2500.000
G3 X75.371 Y167.377 Z-6.340 I-2.387 J-0.621 K0.000 F2500.000
G3 X73.533 Y167.210 Z-6.340 I-0.406 J-5.735 K0.000 F2500.000
G2 X70.581 Y166.851 Z-6.340 I-5.572 J33.510 K0.000 F2500.000
G2 X66.856 Y168.554 Z-6.340 I-0.069 J4.775 K0.000 F2500.000
G2 X66.034 Y169.640 Z-6.340 I5.458 J4.983 K0.000 F2500.000
G3 X64.252 Y170.250 Z-6.340 I-1.304 J-0.900 K0.000 F2500.000
G2 X62.447 Y169.731 Z-6.340 I-4.078 J10.772 K0.000 F2500.000
G2 X59.224 Y170.010 Z-6.340 I-1.077 J6.312 K0.000 F2500.000
G2 X54.305 Y172.708 Z-6.340 I4.968 J14.888 K0.000 F2500.000
G2 X51.852 Y174.922 Z-6.340 I22.422 J27.317 K0.000 F2500.000
G3 X47.826 Y178.171 Z-6.340 I-23.154 J-24.570 K0.000 F2500.000
G3 X42.301 Y180.121 Z-6.340 I-6.827 J-10.540 K0.000 F2500.000
G3 X38.048 Y179.067 Z-6.340 I-0.464 J-7.239 K0.000 F2500.000
G3 X32.818 Y179.982 Z-6.340 I-3.787 J-6.240 K0.000 F2500.000
G3 X28.178 Y178.069 Z-6.340 I2.572 J-12.819 K0.000 F2500.000
G3 X24.594 Y175.165 Z-6.340 I12.044 J-18.533 K0.000 F2500.000
G2 X21.319 Y172.287 Z-6.340 I-44.565 J47.400 K0.000 F2500.000
G2 X16.156 Y169.737 Z-6.340 I-9.200 J12.124 K0.000 F2500.000
G2 X11.918 Y170.164 Z-6.340 I-1.433 J7.016 K0.000 F2500.000
G3 X10.077 Y169.552 Z-6.340 I-0.525 J-1.495 K0.000 F2500.000
G2 X8.010 Y167.403 Z-6.340 I-5.834 J3.542 K0.000 F2500.000
G2 X5.630 Y166.780 Z-6.340 I-2.301 J3.930 K0.000 F2500.000
G2 X1.593 Y167.269 Z-6.340 I1.566 J29.823 K0.000 F2500.000
G3 X-0.772 Y166.626 Z-6.340 I-0.506 J-2.806 K0.000 F2500.000
G3 X-1.549 Y164.021 Z-6.340 I2.025 J-2.023 K0.000 F2500.000
G3 X-1.310 Y162.869 Z-6.340 I6.420 J0.733 K0.000 F2500.000
G3 X1.640 Y156.424 Z-6.340 I28.597 J9.195 K0.000 F2500.000
G3 X1.044 Y155.155 Z-6.340 I0.960 J-1.225 K0.000 F2500.000
G1 X4.213 Y19.584 Z-6.340 F2500.000
G3 X4.486 Y18.731 Z-6.340 I1.585 J0.037 K0.000 F2500.000
G2 X8.303 Y11.433 Z-6.340 I-21.572 J-15.931 K0.000 F2500.000
G2 X9.641 Y4.656 Z-6.340 I-27.360 J-8.923 K0.000 F2500.000
G2 X10.022 Y-0.102 Z-6.340 I-99.688 J-10.386 K0.000 F2500.000
G3 X11.609 Y-1.585 Z-6.340 I1.582 J0.102 K0.000 F2500.000
G2 X64.965 Y-1.514 Z-6.340 I40.017 J-10044.979 K0.000 F2500.000
G3 X66.547 Y-0.044 Z-6.340 I0.001 J1.585 K0.000 F2500.000
G2 X67.050 Y6.060 Z-6.340 I192.154 J-12.739 K0.000 F2500.000
G2 X69.237 Y14.029 Z-6.340 I26.619 J-3.023 K0.000 F2500.000
G2 X72.027 Y18.808 Z-6.340 I25.099 J-11.445 K0.000 F2500.000
G3 X72.306 Y19.674 Z-6.340 I-1.306 J0.899 K0.000 F2500.000
G1 X74.775 Y138.891 Z-6.340 F2500.000
G1 X74.775 Y138.891 Z-9.510 F1000.000
G1 X75.114 Y155.254 Z-9.510 F2500.000
G3 X74.516 Y156.523 Z-9.510 I-1.556 J0.042 K0.000 F2500.000
G3 X77.481 Y163.086 Z-9.510 I-25.441 J15.447 K0.000 F2500.000
G3 X77.620 Y165.535 Z-9.510 I-4.866 J1.505 K0.000 F2500.000
G3 X75.371 Y167.377 Z-9.510 I-2.387 J-0.621 K0.000 F2500.000
G3 X73.533 Y167.210 Z-9.510 I-0.406 J-5.735 K0.000 F2500.000
G2 X70.581 Y166.851 Z-9.510 I-5.572 J33.510 K0.000 F2500.000
G2 X66.856 Y168.554 Z-9.510 I-0.069 J4.775 K0.000 F2500.000
G2 X66.034 Y169.640 Z-9.510 I5.458 J4.983 K0.000 F2500.000
G3 X64.252 Y170.250 Z-9.510 I-1.304 J-0.900 K0.000 F2500.000
G2 X62.447 Y169.731 Z-9.510 I-4.078 J10.772 K0.000 F2500.000
G2 X59.224 Y170.010 Z-9.510 I-1.077 J6.312 K0.000 F2500.000
G2 X54.305 Y172.708 Z-9.510 I4.968 J14.888 K0.000 F2500.000
G2 X51.852 Y174.922 Z-9.510 I22.422 J27.317 K0.000 F2500.000
G3 X47.826 Y178.171 Z-9.510 I-23.154 J-24.570 K0.000 F2500.000
G3 X42.301 Y180.121 Z-9.510 I-6.827 J-10.540 K0.000 F2500.000
G3 X38.048 Y179.067 Z-9.510 I-0.464 J-7.239 K0.000 F2500.000
G3 X32.818 Y179.982 Z-9.510 I-3.787 J-6.240 K0.000 F2500.000
G3 X28.178 Y178.069 Z-9.510 I2.572 J-12.819 K0.000 F2500.000
G3 X24.594 Y175.165 Z-9.510 I12.044 J-18.533 K0.000 F2500.000
G2 X21.319 Y172.287 Z-9.510 I-44.565 J47.400 K0.000 F2500.000
G2 X16.156 Y169.737 Z-9.510 I-9.200 J12.124 K0.000 F2500.000
G2 X11.918 Y170.164 Z-9.510 I-1.433 J7.016 K0.000 F2500.000
G3 X10.077 Y169.552 Z-9.510 I-0.525 J-1.495 K0.000 F2500.000
G2 X8.010 Y167.403 Z-9.510 I-5.834 J3.542 K0.000 F2500.000
G2 X5.630 Y166.780 Z-9.510 I-2.301 J3.930 K0.000 F2500.000
G2 X1.593 Y167.269 Z-9.510 I1.566 J29.823 K0.000 F2500.000
G3 X-0.772 Y166.626 Z-9.510 I-0.506 J-2.806 K0.000 F2500.000
G3 X-1.549 Y164.021 Z-9.510 I2.025 J-2.023 K0.000 F2500.000
G3 X-1.310 Y162.869 Z-9.510 I6.420 J0.733 K0.000 F2500.000
G3 X1.640 Y156.424 Z-9.510 I28.597 J9.195 K0.000 F2500.000
G3 X1.044 Y155.155 Z-9.510 I0.960 J-1.225 K0.000 F2500.000
G1 X4.213 Y19.584 Z-9.510 F2500.000
G3 X4.486 Y18.731 Z-9.510 I1.585 J0.037 K0.000 F2500.000
G2 X8.303 Y11.433 Z-9.510 I-21.572 J-15.931 K0.000 F2500.000
G2 X9.641 Y4.656 Z-9.510 I-27.360 J-8.923 K0.000 F2500.000
G2 X10.022 Y-0.102 Z-9.510 I-99.688 J-10.386 K0.000 F2500.000
G3 X11.609 Y-1.585 Z-9.510 I1.582 J0.102 K0.000 F2500.000
G2 X64.965 Y-1.514 Z-9.510 I40.017 J-10044.979 K0.000 F2500.000
G3 X66.547 Y-0.044 Z-9.510 I0.001 J1.585 K0.000 F2500.000
G2 X67.050 Y6.060 Z-9.510 I192.154 J-12.739 K0.000 F2500.000
G2 X69.237 Y14.029 Z-9.510 I26.619 J-3.023 K0.000 F2500.000
G2 X72.027 Y18.808 Z-9.510 I25.099 J-11.445 K0.000 F2500.000
G3 X72.306 Y19.674 Z-9.510 I-1.306 J0.899 K0.000 F2500.000
G1 X74.775 Y138.891 Z-9.510 F2500.000
G1 X74.775 Y138.891 Z-10.000 F1000.000
G1 X75.114 Y155.254 Z-10.000 F2500.000
G3 X74.516 Y156.523 Z-10.000 I-1.556 J0.042 K0.000 F2500.000
G3 X77.481 Y163.086 Z-10.000 I-25.441 J15.447 K0.000 F2500.000
G3 X77.620 Y165.535 Z-10.000 I-4.866 J1.505 K0.000 F2500.000
G3 X75.371 Y167.377 Z-10.000 I-2.387 J-0.621 K0.000 F2500.000
G3 X73.533 Y167.210 Z-10.000 I-0.406 J-5.735 K0.000 F2500.000
G2 X70.581 Y166.851 Z-10.000 I-5.572 J33.510 K0.000 F2500.000
G2 X66.856 Y168.554 Z-10.000 I-0.069 J4.775 K0.000 F2500.000
G2 X66.034 Y169.640 Z-10.000 I5.458 J4.983 K0.000 F2500.000
G3 X64.252 Y170.250 Z-10.000 I-1.304 J-0.900 K0.000 F2500.000
G2 X62.447 Y169.731 Z-10.000 I-4.078 J10.772 K0.000 F2500.000
G2 X59.224 Y170.010 Z-10.000 I-1.077 J6.312 K0.000 F2500.000
G2 X54.305 Y172.708 Z-10.000 I4.968 J14.888 K0.000 F2500.000
G2 X51.852 Y174.922 Z-10.000 I22.422 J27.317 K0.000 F2500.000
G3 X47.826 Y178.171 Z-10.000 I-23.154 J-24.570 K0.000 F2500.000
G3 X42.301 Y180.121 Z-10.000 I-6.827 J-10.540 K0.000 F2500.000
G3 X38.048 Y179.067 Z-10.000 I-0.464 J-7.239 K0.000 F2500.000
G3 X32.818 Y179.982 Z-10.000 I-3.787 J-6.240 K0.000 F2500.000
G3 X28.178 Y178.069 Z-10.000 I2.572 J-12.819 K0.000 F2500.000
G3 X24.594 Y175.165 Z-10.000 I12.044 J-18.533 K0.000 F2500.000
G2 X21.319 Y172.287 Z-10.000 I-44.565 J47.400 K0.000 F2500.000
G2 X16.156 Y169.737 Z-10.000 I-9.200 J12.124 K0.000 F2500.000
G2 X11.918 Y170.164 Z-10.000 I-1.433 J7.016 K0.000 F2500.000
G3 X10.077 Y169.552 Z-10.000 I-0.525 J-1.495 K0.000 F2500.000
G2 X8.010 Y167.403 Z-10.000 I-5.834 J3.542 K0.000 F2500.000
G2 X5.630 Y166.780 Z-10.000 I-2.301 J3.930 K0.000 F2500.000
G2 X1.593 Y167.269 Z-10.000 I1.566 J29.823 K0.000 F2500.000
G3 X-0.772 Y166.626 Z-10.000 I-0.506 J-2.806 K0.000 F2500.000
G3 X-1.549 Y164.021 Z-10.000 I2.025 J-2.023 K0.000 F2500.000
G3 X-1.310 Y162.869 Z-10.000 I6.420 J0.733 K0.000 F2500.000
G3 X1.640 Y156.424 Z-10.000 I28.597 J9.195 K0.000 F2500.000
G3 X1.044 Y155.155 Z-10.000 I0.960 J-1.225 K0.000 F2500.000
G1 X4.213 Y19.584 Z-10.000 F2500.000
G3 X4.486 Y18.731 Z-10.000 I1.585 J0.037 K0.000 F2500.000
G2 X8.303 Y11.433 Z-10.000 I-21.572 J-15.931 K0.000 F2500.000
G2 X9.641 Y4.656 Z-10.000 I-27.360 J-8.923 K0.000 F2500.000
G2 X10.022 Y-0.102 Z-10.000 I-99.688 J-10.386 K0.000 F2500.000
G3 X11.609 Y-1.585 Z-10.000 I1.582 J0.102 K0.000 F2500.000
G2 X64.965 Y-1.514 Z-10.000 I40.017 J-10044.979 K0.000 F2500.000
G3 X66.547 Y-0.044 Z-10.000 I0.001 J1.585 K0.000 F2500.000
G2 X67.050 Y6.060 Z-10.000 I192.154 J-12.739 K0.000 F2500.000
G2 X69.237 Y14.029 Z-10.000 I26.619 J-3.023 K0.000 F2500.000
G2 X72.027 Y18.808 Z-10.000 I25.099 J-11.445 K0.000 F2500.000
G3 X72.306 Y19.674 Z-10.000 I-1.306 J0.899 K0.000 F2500.000
G1 X74.775 Y138.891 Z-10.000 F2500.000
G0 Z5.000
G0 Z5.000
(Finish operation: Profile)
(Begin postamble)
M5
G17 G90
M2
