(Exported by FreeCAD)
(Post Processor: grbl_post)
(Output Time:2023-02-20 20:19:32.035056)
(Begin preamble)
G17 G90
G21
(Begin operation: Fixture)
(Path: Fixture)
G54
(Finish operation: Fixture)
(Begin operation: 3.175 Z1 UP Helicoidale004)
(Path: 3.175 Z1 UP Helicoidale004)
(3.175 Z1 UP Helicoidale004)
(Begin toolchange)
( M6 T2.0 )
M3 S24000.0
(Finish operation: 3.175 Z1 UP Helicoidale004)
(Begin operation: Profile)
(Path: Profile)
(Profile)
(Compensated Tool Path. Diameter: 3.17)
G0 Z5.000
G0 X42.800 Y58.760
G0 Z3.000
G1 X42.800 Y58.760 Z-3.170 F500.000
G3 X21.747 Y48.132 Z-3.170 I-8.778 J-8.778 K0.000 F2500.000
G3 X46.298 Y51.832 Z-3.170 I12.275 J1.850 K0.000 F2500.000
G3 X42.800 Y58.760 Z-3.170 I-12.275 J-1.850 K0.000 F2500.000
G1 X42.800 Y58.760 Z-6.340 F500.000
G3 X21.747 Y48.132 Z-6.340 I-8.778 J-8.778 K0.000 F2500.000
G3 X46.298 Y51.832 Z-6.340 I12.275 J1.850 K0.000 F2500.000
G3 X42.800 Y58.760 Z-6.340 I-12.275 J-1.850 K0.000 F2500.000
G1 X42.800 Y58.760 Z-9.510 F500.000
G3 X21.747 Y48.132 Z-9.510 I-8.778 J-8.778 K0.000 F2500.000
G3 X46.298 Y51.832 Z-9.510 I12.275 J1.850 K0.000 F2500.000
G3 X42.800 Y58.760 Z-9.510 I-12.275 J-1.850 K0.000 F2500.000
G1 X42.800 Y58.760 Z-12.680 F500.000
G3 X21.747 Y48.132 Z-12.680 I-8.778 J-8.778 K0.000 F2500.000
G3 X46.298 Y51.832 Z-12.680 I12.275 J1.850 K0.000 F2500.000
G3 X42.800 Y58.760 Z-12.680 I-12.275 J-1.850 K0.000 F2500.000
G1 X42.800 Y58.760 Z-15.000 F500.000
G3 X21.747 Y48.132 Z-15.000 I-8.778 J-8.778 K0.000 F2500.000
G3 X46.298 Y51.832 Z-15.000 I12.275 J1.850 K0.000 F2500.000
G3 X42.800 Y58.760 Z-15.000 I-12.275 J-1.850 K0.000 F2500.000
G0 Z5.000
G0 Z5.000
G0 X42.800 Y58.760
G0 X75.390 Y33.083
G0 X75.390 Y33.083 Z3.000
G1 X75.390 Y33.083 Z-3.170 F500.000
G3 X86.991 Y13.125 Z-3.170 I9.751 J-7.683 K0.000 F2500.000
G3 X83.291 Y37.676 Z-3.170 I-1.850 J12.275 K0.000 F2500.000
G3 X75.390 Y33.083 Z-3.170 I1.850 J-12.275 K0.000 F2500.000
G1 X75.390 Y33.083 Z-6.340 F500.000
G3 X86.991 Y13.125 Z-6.340 I9.751 J-7.683 K0.000 F2500.000
G3 X83.291 Y37.676 Z-6.340 I-1.850 J12.275 K0.000 F2500.000
G3 X75.390 Y33.083 Z-6.340 I1.850 J-12.275 K0.000 F2500.000
G1 X75.390 Y33.083 Z-9.510 F500.000
G3 X86.991 Y13.125 Z-9.510 I9.751 J-7.683 K0.000 F2500.000
G3 X83.291 Y37.676 Z-9.510 I-1.850 J12.275 K0.000 F2500.000
G3 X75.390 Y33.083 Z-9.510 I1.850 J-12.275 K0.000 F2500.000
G1 X75.390 Y33.083 Z-12.680 F500.000
G3 X86.991 Y13.125 Z-12.680 I9.751 J-7.683 K0.000 F2500.000
G3 X83.291 Y37.676 Z-12.680 I-1.850 J12.275 K0.000 F2500.000
G3 X75.390 Y33.083 Z-12.680 I1.850 J-12.275 K0.000 F2500.000
G1 X75.390 Y33.083 Z-15.000 F500.000
G3 X86.991 Y13.125 Z-15.000 I9.751 J-7.683 K0.000 F2500.000
G3 X83.291 Y37.676 Z-15.000 I-1.850 J12.275 K0.000 F2500.000
G3 X75.390 Y33.083 Z-15.000 I1.850 J-12.275 K0.000 F2500.000
G0 Z5.000
G0 Z5.000
G0 X75.390 Y33.083
G0 X124.298 Y46.661
G0 X124.298 Y46.661 Z3.000
G1 X124.298 Y46.661 Z-3.170 F500.000
G3 X148.535 Y51.832 Z-3.170 I11.961 J3.321 K0.000 F2500.000
G3 X123.984 Y48.132 Z-3.170 I-12.275 J-1.850 K0.000 F2500.000
G3 X124.298 Y46.661 Z-3.170 I12.275 J1.850 K0.000 F2500.000
G1 X124.298 Y46.661 Z-6.340 F500.000
G3 X148.535 Y51.832 Z-6.340 I11.961 J3.321 K0.000 F2500.000
G3 X123.984 Y48.132 Z-6.340 I-12.275 J-1.850 K0.000 F2500.000
G3 X124.298 Y46.661 Z-6.340 I12.275 J1.850 K0.000 F2500.000
G1 X124.298 Y46.661 Z-9.510 F500.000
G3 X148.535 Y51.832 Z-9.510 I11.961 J3.321 K0.000 F2500.000
G3 X123.984 Y48.132 Z-9.510 I-12.275 J-1.850 K0.000 F2500.000
G3 X124.298 Y46.661 Z-9.510 I12.275 J1.850 K0.000 F2500.000
G1 X124.298 Y46.661 Z-12.680 F500.000
G3 X148.535 Y51.832 Z-12.680 I11.961 J3.321 K0.000 F2500.000
G3 X123.984 Y48.132 Z-12.680 I-12.275 J-1.850 K0.000 F2500.000
G3 X124.298 Y46.661 Z-12.680 I12.275 J1.850 K0.000 F2500.000
G1 X124.298 Y46.661 Z-15.000 F500.000
G3 X148.535 Y51.832 Z-15.000 I11.961 J3.321 K0.000 F2500.000
G3 X123.984 Y48.132 Z-15.000 I-12.275 J-1.850 K0.000 F2500.000
G3 X124.298 Y46.661 Z-15.000 I12.275 J1.850 K0.000 F2500.000
G0 Z5.000
G0 Z5.000
G0 X124.298 Y46.661
G0 X140.315 Y91.171
G0 X140.315 Y91.171 Z3.000
G1 X140.315 Y91.171 Z-3.170 F500.000
G3 X146.083 Y90.536 Z-3.170 I4.204 J11.682 K0.000 F2500.000
G3 X156.854 Y104.247 Z-3.170 I-1.566 J12.317 K0.000 F2500.000
G1 X145.468 Y207.059 Z-3.170 F2500.000
G3 X132.672 Y206.388 Z-3.170 I-6.380 J-0.670 K0.000 F2500.000
G1 X132.103 Y102.949 Z-3.170 F2500.000
G3 X140.315 Y91.171 Z-3.170 I12.415 J-0.096 K0.000 F2500.000
G1 X140.315 Y91.171 Z-6.340 F500.000
G3 X146.083 Y90.536 Z-6.340 I4.204 J11.682 K0.000 F2500.000
G3 X156.854 Y104.247 Z-6.340 I-1.566 J12.317 K0.000 F2500.000
G1 X145.468 Y207.059 Z-6.340 F2500.000
G3 X132.672 Y206.388 Z-6.340 I-6.380 J-0.670 K0.000 F2500.000
G1 X132.103 Y102.949 Z-6.340 F2500.000
G3 X140.315 Y91.171 Z-6.340 I12.415 J-0.096 K0.000 F2500.000
G1 X140.315 Y91.171 Z-9.510 F500.000
G3 X146.083 Y90.536 Z-9.510 I4.204 J11.682 K0.000 F2500.000
G3 X156.854 Y104.247 Z-9.510 I-1.566 J12.317 K0.000 F2500.000
G1 X145.468 Y207.059 Z-9.510 F2500.000
G3 X132.672 Y206.388 Z-9.510 I-6.380 J-0.670 K0.000 F2500.000
G1 X132.103 Y102.949 Z-9.510 F2500.000
G3 X140.315 Y91.171 Z-9.510 I12.415 J-0.096 K0.000 F2500.000
G1 X140.315 Y91.171 Z-12.680 F500.000
G3 X146.083 Y90.536 Z-12.680 I4.204 J11.682 K0.000 F2500.000
G3 X156.854 Y104.247 Z-12.680 I-1.566 J12.317 K0.000 F2500.000
G1 X145.468 Y207.059 Z-12.680 F2500.000
G3 X132.672 Y206.388 Z-12.680 I-6.380 J-0.670 K0.000 F2500.000
G1 X132.103 Y102.949 Z-12.680 F2500.000
G3 X140.315 Y91.171 Z-12.680 I12.415 J-0.096 K0.000 F2500.000
G1 X140.315 Y91.171 Z-15.000 F500.000
G3 X146.083 Y90.536 Z-15.000 I4.204 J11.682 K0.000 F2500.000
G3 X156.854 Y104.247 Z-15.000 I-1.566 J12.317 K0.000 F2500.000
G1 X145.468 Y207.059 Z-15.000 F2500.000
G3 X132.672 Y206.388 Z-15.000 I-6.380 J-0.670 K0.000 F2500.000
G1 X132.103 Y102.949 Z-15.000 F2500.000
G3 X140.315 Y91.171 Z-15.000 I12.415 J-0.096 K0.000 F2500.000
G0 Z5.000
G0 Z5.000
G0 X140.315 Y91.171
G0 X135.189 Y262.345
G0 X135.189 Y262.345 Z3.000
G1 X135.189 Y262.345 Z-3.170 F500.000
G3 X136.672 Y264.451 Z-3.170 I-0.048 J1.609 K0.000 F2500.000
G3 X133.610 Y263.456 Z-3.170 I-1.531 J-0.498 K0.000 F2500.000
G3 X135.189 Y262.345 Z-3.170 I1.531 J0.498 K0.000 F2500.000
G1 X135.189 Y262.345 Z-6.340 F500.000
G3 X136.672 Y264.451 Z-6.340 I-0.048 J1.609 K0.000 F2500.000
G3 X133.610 Y263.456 Z-6.340 I-1.531 J-0.498 K0.000 F2500.000
G3 X135.189 Y262.345 Z-6.340 I1.531 J0.498 K0.000 F2500.000
G1 X135.189 Y262.345 Z-9.510 F500.000
G3 X136.672 Y264.451 Z-9.510 I-0.048 J1.609 K0.000 F2500.000
G3 X133.610 Y263.456 Z-9.510 I-1.531 J-0.498 K0.000 F2500.000
G3 X135.189 Y262.345 Z-9.510 I1.531 J0.498 K0.000 F2500.000
G1 X135.189 Y262.345 Z-12.680 F500.000
G3 X136.672 Y264.451 Z-12.680 I-0.048 J1.609 K0.000 F2500.000
G3 X133.610 Y263.456 Z-12.680 I-1.531 J-0.498 K0.000 F2500.000
G3 X135.189 Y262.345 Z-12.680 I1.531 J0.498 K0.000 F2500.000
G1 X135.189 Y262.345 Z-15.000 F500.000
G3 X136.672 Y264.451 Z-15.000 I-0.048 J1.609 K0.000 F2500.000
G3 X133.610 Y263.456 Z-15.000 I-1.531 J-0.498 K0.000 F2500.000
G3 X135.189 Y262.345 Z-15.000 I1.531 J0.498 K0.000 F2500.000
G0 Z5.000
G0 Z5.000
G0 X135.189 Y262.345
G0 X135.142 Y335.444
G0 X135.142 Y335.444 Z3.000
G1 X135.142 Y335.444 Z-3.170 F500.000
G3 X135.639 Y335.523 Z-3.170 I-0.001 J1.610 K0.000 F2500.000
G3 X134.644 Y338.585 Z-3.170 I-0.498 J1.531 K0.000 F2500.000
G3 X135.142 Y335.444 Z-3.170 I0.498 J-1.531 K0.000 F2500.000
G1 X135.142 Y335.444 Z-6.340 F500.000
G3 X135.639 Y335.523 Z-6.340 I-0.001 J1.610 K0.000 F2500.000
G3 X134.644 Y338.585 Z-6.340 I-0.498 J1.531 K0.000 F2500.000
G3 X135.142 Y335.444 Z-6.340 I0.498 J-1.531 K0.000 F2500.000
G1 X135.142 Y335.444 Z-9.510 F500.000
G3 X135.639 Y335.523 Z-9.510 I-0.001 J1.610 K0.000 F2500.000
G3 X134.644 Y338.585 Z-9.510 I-0.498 J1.531 K0.000 F2500.000
G3 X135.142 Y335.444 Z-9.510 I0.498 J-1.531 K0.000 F2500.000
G1 X135.142 Y335.444 Z-12.680 F500.000
G3 X135.639 Y335.523 Z-12.680 I-0.001 J1.610 K0.000 F2500.000
G3 X134.644 Y338.585 Z-12.680 I-0.498 J1.531 K0.000 F2500.000
G3 X135.142 Y335.444 Z-12.680 I0.498 J-1.531 K0.000 F2500.000
G1 X135.142 Y335.444 Z-15.000 F500.000
G3 X135.639 Y335.523 Z-15.000 I-0.001 J1.610 K0.000 F2500.000
G3 X134.644 Y338.585 Z-15.000 I-0.498 J1.531 K0.000 F2500.000
G3 X135.142 Y335.444 Z-15.000 I0.498 J-1.531 K0.000 F2500.000
G0 Z5.000
G0 Z5.000
G0 X135.142 Y335.444
G0 X38.321 Y211.446
G0 X38.321 Y211.446 Z3.000
G1 X38.321 Y211.446 Z-3.170 F500.000
G3 X28.026 Y207.323 Z-3.170 I-3.948 J-5.056 K0.000 F2500.000
G1 X12.345 Y104.757 Z-3.170 F2500.000
G3 X26.198 Y90.539 Z-3.170 I12.268 J-1.904 K0.000 F2500.000
G3 X37.021 Y102.430 Z-3.170 I-1.587 J12.315 K0.000 F2500.000
G1 X40.783 Y206.120 Z-3.170 F2500.000
G3 X38.321 Y211.446 Z-3.170 I-6.410 J0.269 K0.000 F2500.000
G1 X38.321 Y211.446 Z-6.340 F500.000
G3 X28.026 Y207.323 Z-6.340 I-3.948 J-5.056 K0.000 F2500.000
G1 X12.345 Y104.757 Z-6.340 F2500.000
G3 X26.198 Y90.539 Z-6.340 I12.268 J-1.904 K0.000 F2500.000
G3 X37.021 Y102.430 Z-6.340 I-1.587 J12.315 K0.000 F2500.000
G1 X40.783 Y206.120 Z-6.340 F2500.000
G3 X38.321 Y211.446 Z-6.340 I-6.410 J0.269 K0.000 F2500.000
G1 X38.321 Y211.446 Z-9.510 F500.000
G3 X28.026 Y207.323 Z-9.510 I-3.948 J-5.056 K0.000 F2500.000
G1 X12.345 Y104.757 Z-9.510 F2500.000
G3 X26.198 Y90.539 Z-9.510 I12.268 J-1.904 K0.000 F2500.000
G3 X37.021 Y102.430 Z-9.510 I-1.587 J12.315 K0.000 F2500.000
G1 X40.783 Y206.120 Z-9.510 F2500.000
G3 X38.321 Y211.446 Z-9.510 I-6.410 J0.269 K0.000 F2500.000
G1 X38.321 Y211.446 Z-12.680 F500.000
G3 X28.026 Y207.323 Z-12.680 I-3.948 J-5.056 K0.000 F2500.000
G1 X12.345 Y104.757 Z-12.680 F2500.000
G3 X26.198 Y90.539 Z-12.680 I12.268 J-1.904 K0.000 F2500.000
G3 X37.021 Y102.430 Z-12.680 I-1.587 J12.315 K0.000 F2500.000
G1 X40.783 Y206.120 Z-12.680 F2500.000
G3 X38.321 Y211.446 Z-12.680 I-6.410 J0.269 K0.000 F2500.000
G1 X38.321 Y211.446 Z-15.000 F500.000
G3 X28.026 Y207.323 Z-15.000 I-3.948 J-5.056 K0.000 F2500.000
G1 X12.345 Y104.757 Z-15.000 F2500.000
G3 X26.198 Y90.539 Z-15.000 I12.268 J-1.904 K0.000 F2500.000
G3 X37.021 Y102.430 Z-15.000 I-1.587 J12.315 K0.000 F2500.000
G1 X40.783 Y206.120 Z-15.000 F2500.000
G3 X38.321 Y211.446 Z-15.000 I-6.410 J0.269 K0.000 F2500.000
G0 Z5.000
G0 Z5.000
G0 X38.321 Y211.446
G0 X34.512 Y388.205
G0 X34.512 Y388.205 Z3.000
G1 X34.512 Y388.205 Z-3.170 F500.000
G3 X35.901 Y388.387 Z-3.170 I-0.138 J6.415 K0.000 F2500.000
G3 X40.783 Y394.887 Z-3.170 I-1.530 J6.233 K0.000 F2500.000
G1 X37.021 Y498.577 Z-3.170 F2500.000
G3 X12.199 Y498.111 Z-3.170 I-12.407 J-0.421 K0.000 F2500.000
G3 X12.345 Y496.251 Z-3.170 I12.612 J0.054 K0.000 F2500.000
G1 X28.026 Y393.685 Z-3.170 F2500.000
G3 X34.512 Y388.205 Z-3.170 I6.348 J0.934 K0.000 F2500.000
G1 X34.512 Y388.205 Z-6.340 F500.000
G3 X35.901 Y388.387 Z-6.340 I-0.138 J6.415 K0.000 F2500.000
G3 X40.783 Y394.887 Z-6.340 I-1.530 J6.233 K0.000 F2500.000
G1 X37.021 Y498.577 Z-6.340 F2500.000
G3 X12.199 Y498.111 Z-6.340 I-12.407 J-0.421 K0.000 F2500.000
G3 X12.345 Y496.251 Z-6.340 I12.612 J0.054 K0.000 F2500.000
G1 X28.026 Y393.685 Z-6.340 F2500.000
G3 X34.512 Y388.205 Z-6.340 I6.348 J0.934 K0.000 F2500.000
G1 X34.512 Y388.205 Z-9.510 F500.000
G3 X35.901 Y388.387 Z-9.510 I-0.138 J6.415 K0.000 F2500.000
G3 X40.783 Y394.887 Z-9.510 I-1.530 J6.233 K0.000 F2500.000
G1 X37.021 Y498.577 Z-9.510 F2500.000
G3 X12.199 Y498.111 Z-9.510 I-12.407 J-0.421 K0.000 F2500.000
G3 X12.345 Y496.251 Z-9.510 I12.612 J0.054 K0.000 F2500.000
G1 X28.026 Y393.685 Z-9.510 F2500.000
G3 X34.512 Y388.205 Z-9.510 I6.348 J0.934 K0.000 F2500.000
G1 X34.512 Y388.205 Z-12.680 F500.000
G3 X35.901 Y388.387 Z-12.680 I-0.138 J6.415 K0.000 F2500.000
G3 X40.783 Y394.887 Z-12.680 I-1.530 J6.233 K0.000 F2500.000
G1 X37.021 Y498.577 Z-12.680 F2500.000
G3 X12.199 Y498.111 Z-12.680 I-12.407 J-0.421 K0.000 F2500.000
G3 X12.345 Y496.251 Z-12.680 I12.612 J0.054 K0.000 F2500.000
G1 X28.026 Y393.685 Z-12.680 F2500.000
G3 X34.512 Y388.205 Z-12.680 I6.348 J0.934 K0.000 F2500.000
G1 X34.512 Y388.205 Z-15.000 F500.000
G3 X35.901 Y388.387 Z-15.000 I-0.138 J6.415 K0.000 F2500.000
G3 X40.783 Y394.887 Z-15.000 I-1.530 J6.233 K0.000 F2500.000
G1 X37.021 Y498.577 Z-15.000 F2500.000
G3 X12.199 Y498.111 Z-15.000 I-12.407 J-0.421 K0.000 F2500.000
G3 X12.345 Y496.251 Z-15.000 I12.612 J0.054 K0.000 F2500.000
G1 X28.026 Y393.685 Z-15.000 F2500.000
G3 X34.512 Y388.205 Z-15.000 I6.348 J0.934 K0.000 F2500.000
G0 Z5.000
G0 Z5.000
G0 X34.512 Y388.205
G0 X34.060 Y538.612
G0 X34.060 Y538.612 Z3.000
G1 X34.060 Y538.612 Z-3.170 F500.000
G3 X35.873 Y538.751 Z-3.170 I-0.037 J12.414 K0.000 F2500.000
G3 X32.172 Y563.301 Z-3.170 I-1.850 J12.275 K0.000 F2500.000
G3 X34.060 Y538.612 Z-3.170 I1.850 J-12.275 K0.000 F2500.000
G1 X34.060 Y538.612 Z-6.340 F500.000
G3 X35.873 Y538.751 Z-6.340 I-0.037 J12.414 K0.000 F2500.000
G3 X32.172 Y563.301 Z-6.340 I-1.850 J12.275 K0.000 F2500.000
G3 X34.060 Y538.612 Z-6.340 I1.850 J-12.275 K0.000 F2500.000
G1 X34.060 Y538.612 Z-9.510 F500.000
G3 X35.873 Y538.751 Z-9.510 I-0.037 J12.414 K0.000 F2500.000
G3 X32.172 Y563.301 Z-9.510 I-1.850 J12.275 K0.000 F2500.000
G3 X34.060 Y538.612 Z-9.510 I1.850 J-12.275 K0.000 F2500.000
G1 X34.060 Y538.612 Z-12.680 F500.000
G3 X35.873 Y538.751 Z-12.680 I-0.037 J12.414 K0.000 F2500.000
G3 X32.172 Y563.301 Z-12.680 I-1.850 J12.275 K0.000 F2500.000
G3 X34.060 Y538.612 Z-12.680 I1.850 J-12.275 K0.000 F2500.000
G1 X34.060 Y538.612 Z-15.000 F500.000
G3 X35.873 Y538.751 Z-15.000 I-0.037 J12.414 K0.000 F2500.000
G3 X32.172 Y563.301 Z-15.000 I-1.850 J12.275 K0.000 F2500.000
G3 X34.060 Y538.612 Z-15.000 I1.850 J-12.275 K0.000 F2500.000
G0 Z5.000
G0 Z5.000
G0 X34.060 Y538.612
G0 X75.087 Y568.326
G0 X75.087 Y568.326 Z3.000
G1 X75.087 Y568.326 Z-3.170 F500.000
G3 X86.991 Y563.332 Z-3.170 I10.054 J7.282 K0.000 F2500.000
G3 X83.291 Y587.882 Z-3.170 I-1.850 J12.275 K0.000 F2500.000
G3 X75.087 Y568.326 Z-3.170 I1.850 J-12.275 K0.000 F2500.000
G1 X75.087 Y568.326 Z-6.340 F500.000
G3 X86.991 Y563.332 Z-6.340 I10.054 J7.282 K0.000 F2500.000
G3 X83.291 Y587.882 Z-6.340 I-1.850 J12.275 K0.000 F2500.000
G3 X75.087 Y568.326 Z-6.340 I1.850 J-12.275 K0.000 F2500.000
G1 X75.087 Y568.326 Z-9.510 F500.000
G3 X86.991 Y563.332 Z-9.510 I10.054 J7.282 K0.000 F2500.000
G3 X83.291 Y587.882 Z-9.510 I-1.850 J12.275 K0.000 F2500.000
G3 X75.087 Y568.326 Z-9.510 I1.850 J-12.275 K0.000 F2500.000
G1 X75.087 Y568.326 Z-12.680 F500.000
G3 X86.991 Y563.332 Z-12.680 I10.054 J7.282 K0.000 F2500.000
G3 X83.291 Y587.882 Z-12.680 I-1.850 J12.275 K0.000 F2500.000
G3 X75.087 Y568.326 Z-12.680 I1.850 J-12.275 K0.000 F2500.000
G1 X75.087 Y568.326 Z-15.000 F500.000
G3 X86.991 Y563.332 Z-15.000 I10.054 J7.282 K0.000 F2500.000
G3 X83.291 Y587.882 Z-15.000 I-1.850 J12.275 K0.000 F2500.000
G3 X75.087 Y568.326 Z-15.000 I1.850 J-12.275 K0.000 F2500.000
G0 Z5.000
G0 Z5.000
G0 X75.087 Y568.326
G0 X124.314 Y554.404
G0 X124.314 Y554.404 Z3.000
G1 X124.314 Y554.404 Z-3.170 F500.000
G3 X138.110 Y538.751 Z-3.170 I11.945 J-3.378 K0.000 F2500.000
G3 X134.409 Y563.301 Z-3.170 I-1.850 J12.275 K0.000 F2500.000
G3 X124.314 Y554.404 Z-3.170 I1.850 J-12.275 K0.000 F2500.000
G1 X124.314 Y554.404 Z-6.340 F500.000
G3 X138.110 Y538.751 Z-6.340 I11.945 J-3.378 K0.000 F2500.000
G3 X134.409 Y563.301 Z-6.340 I-1.850 J12.275 K0.000 F2500.000
G3 X124.314 Y554.404 Z-6.340 I1.850 J-12.275 K0.000 F2500.000
G1 X124.314 Y554.404 Z-9.510 F500.000
G3 X138.110 Y538.751 Z-9.510 I11.945 J-3.378 K0.000 F2500.000
G3 X134.409 Y563.301 Z-9.510 I-1.850 J12.275 K0.000 F2500.000
G3 X124.314 Y554.404 Z-9.510 I1.850 J-12.275 K0.000 F2500.000
G1 X124.314 Y554.404 Z-12.680 F500.000
G3 X138.110 Y538.751 Z-12.680 I11.945 J-3.378 K0.000 F2500.000
G3 X134.409 Y563.301 Z-12.680 I-1.850 J12.275 K0.000 F2500.000
G3 X124.314 Y554.404 Z-12.680 I1.850 J-12.275 K0.000 F2500.000
G1 X124.314 Y554.404 Z-15.000 F500.000
G3 X138.110 Y538.751 Z-15.000 I11.945 J-3.378 K0.000 F2500.000
G3 X134.409 Y563.301 Z-15.000 I-1.850 J12.275 K0.000 F2500.000
G3 X124.314 Y554.404 Z-15.000 I1.850 J-12.275 K0.000 F2500.000
G0 Z5.000
G0 Z5.000
G0 X124.314 Y554.404
G0 X108.851 Y539.049
G0 X108.851 Y539.049 Z3.000
G1 X108.851 Y539.049 Z-3.170 F500.000
G3 X51.726 Y515.485 Z-3.170 I-23.710 J-23.545 K0.000 F2500.000
G1 X51.726 Y305.504 Z-3.170 F2500.000
G2 X50.141 Y303.919 Z-3.170 I-1.585 J0.000 K0.000 F2500.000
G1 X30.141 Y303.919 Z-3.170 F2500.000
G2 X28.574 Y305.269 Z-3.170 I-0.000 J1.585 K0.000 F2500.000
G1 X-1.001 Y502.593 Z-3.170 F2500.000
G2 X-1.292 Y526.296 Z-3.170 I86.153 J12.911 K0.000 F2500.000
G2 X171.719 Y505.940 Z-3.170 I86.433 J-10.792 K0.000 F2500.000
G1 X151.716 Y325.329 Z-3.170 F2500.000
G2 X150.141 Y323.919 Z-3.170 I-1.575 J0.174 K0.000 F2500.000
G1 X120.141 Y323.919 Z-3.170 F2500.000
G2 X118.556 Y325.504 Z-3.170 I0.000 J1.585 K0.000 F2500.000
G1 X118.556 Y515.485 Z-3.170 F2500.000
G3 X108.851 Y539.049 Z-3.170 I-33.415 J0.018 K0.000 F2500.000
G0 Z5.000
G0 X50.513 Y297.045 Z5.000
G0 X50.513 Y297.045 Z3.000
G1 X50.513 Y297.045 Z-3.170 F500.000
G2 X51.726 Y295.504 Z-3.170 I-0.371 J-1.541 K0.000 F2500.000
G1 X51.726 Y85.523 Z-3.170 F2500.000
G3 X85.141 Y52.089 Z-3.170 I33.415 J-0.018 K0.000 F2500.000
G3 X118.556 Y85.523 Z-3.170 I0.000 J33.415 K0.000 F2500.000
G1 X118.556 Y275.504 Z-3.170 F2500.000
G2 X120.141 Y277.089 Z-3.170 I1.585 J-0.000 K0.000 F2500.000
G1 X150.141 Y277.089 Z-3.170 F2500.000
G2 X151.716 Y275.678 Z-3.170 I-0.000 J-1.585 K0.000 F2500.000
G1 X171.716 Y95.092 Z-3.170 F2500.000
G2 X91.418 Y-1.374 Z-3.170 I-86.576 J-9.588 K0.000 F2500.000
G2 X-1.005 Y98.391 Z-3.170 I-6.277 J86.878 K0.000 F2500.000
G1 X28.574 Y295.739 Z-3.170 F2500.000
G2 X30.141 Y297.089 Z-3.170 I1.567 J-0.235 K0.000 F2500.000
G1 X50.141 Y297.089 Z-3.170 F2500.000
G2 X50.513 Y297.045 Z-3.170 I-0.000 J-1.585 K0.000 F2500.000
G1 X50.513 Y297.045 Z-6.340 F500.000
G2 X51.726 Y295.504 Z-6.340 I-0.371 J-1.541 K0.000 F2500.000
G1 X51.726 Y85.523 Z-6.340 F2500.000
G3 X85.141 Y52.089 Z-6.340 I33.415 J-0.018 K0.000 F2500.000
G3 X118.556 Y85.523 Z-6.340 I0.000 J33.415 K0.000 F2500.000
G1 X118.556 Y275.504 Z-6.340 F2500.000
G2 X120.141 Y277.089 Z-6.340 I1.585 J-0.000 K0.000 F2500.000
G1 X150.141 Y277.089 Z-6.340 F2500.000
G2 X151.716 Y275.678 Z-6.340 I-0.000 J-1.585 K0.000 F2500.000
G1 X171.716 Y95.092 Z-6.340 F2500.000
G2 X91.418 Y-1.374 Z-6.340 I-86.576 J-9.588 K0.000 F2500.000
G2 X-1.005 Y98.391 Z-6.340 I-6.277 J86.878 K0.000 F2500.000
G1 X28.574 Y295.739 Z-6.340 F2500.000
G2 X30.141 Y297.089 Z-6.340 I1.567 J-0.235 K0.000 F2500.000
G1 X50.141 Y297.089 Z-6.340 F2500.000
G2 X50.513 Y297.045 Z-6.340 I-0.000 J-1.585 K0.000 F2500.000
G0 Z5.000
G0 X50.211 Y303.920 Z5.000
G0 X50.211 Y303.920 Z3.000
G1 X50.211 Y303.920 Z-6.340 F500.000
G2 X50.141 Y303.919 Z-6.340 I-0.070 J1.583 K0.000 F2500.000
G1 X30.141 Y303.919 Z-6.340 F2500.000
G2 X28.574 Y305.269 Z-6.340 I-0.000 J1.585 K0.000 F2500.000
G1 X-1.001 Y502.593 Z-6.340 F2500.000
G2 X-1.292 Y526.296 Z-6.340 I86.153 J12.911 K0.000 F2500.000
G2 X171.719 Y505.940 Z-6.340 I86.433 J-10.792 K0.000 F2500.000
G1 X151.716 Y325.329 Z-6.340 F2500.000
G2 X150.141 Y323.919 Z-6.340 I-1.575 J0.174 K0.000 F2500.000
G1 X120.141 Y323.919 Z-6.340 F2500.000
G2 X118.556 Y325.504 Z-6.340 I0.000 J1.585 K0.000 F2500.000
G1 X118.556 Y515.485 Z-6.340 F2500.000
G3 X85.141 Y548.918 Z-6.340 I-33.415 J0.018 K0.000 F2500.000
G3 X51.726 Y515.485 Z-6.340 I0.000 J-33.415 K0.000 F2500.000
G1 X51.726 Y305.504 Z-6.340 F2500.000
G2 X50.211 Y303.920 Z-6.340 I-1.585 J0.000 K0.000 F2500.000
G1 X50.211 Y303.920 Z-9.510 F500.000
G2 X50.141 Y303.919 Z-9.510 I-0.070 J1.583 K0.000 F2500.000
G1 X30.141 Y303.919 Z-9.510 F2500.000
G2 X28.574 Y305.269 Z-9.510 I-0.000 J1.585 K0.000 F2500.000
G1 X-1.001 Y502.593 Z-9.510 F2500.000
G2 X-1.292 Y526.296 Z-9.510 I86.153 J12.911 K0.000 F2500.000
G2 X171.719 Y505.940 Z-9.510 I86.433 J-10.792 K0.000 F2500.000
G1 X151.716 Y325.329 Z-9.510 F2500.000
G2 X150.141 Y323.919 Z-9.510 I-1.575 J0.174 K0.000 F2500.000
G1 X120.141 Y323.919 Z-9.510 F2500.000
G2 X118.556 Y325.504 Z-9.510 I0.000 J1.585 K0.000 F2500.000
G1 X118.556 Y515.485 Z-9.510 F2500.000
G3 X85.141 Y548.918 Z-9.510 I-33.415 J0.018 K0.000 F2500.000
G3 X51.726 Y515.485 Z-9.510 I0.000 J-33.415 K0.000 F2500.000
G1 X51.726 Y305.504 Z-9.510 F2500.000
G2 X50.211 Y303.920 Z-9.510 I-1.585 J0.000 K0.000 F2500.000
G0 Z5.000
G0 X50.154 Y297.089 Z5.000
G0 X50.154 Y297.089 Z3.000
G1 X50.154 Y297.089 Z-9.510 F500.000
G2 X51.726 Y295.504 Z-9.510 I-0.013 J-1.585 K0.000 F2500.000
G1 X51.726 Y85.523 Z-9.510 F2500.000
G3 X85.141 Y52.089 Z-9.510 I33.415 J-0.018 K0.000 F2500.000
G3 X118.556 Y85.523 Z-9.510 I0.000 J33.415 K0.000 F2500.000
G1 X118.556 Y275.504 Z-9.510 F2500.000
G2 X120.141 Y277.089 Z-9.510 I1.585 J-0.000 K0.000 F2500.000
G1 X150.141 Y277.089 Z-9.510 F2500.000
G2 X151.716 Y275.678 Z-9.510 I-0.000 J-1.585 K0.000 F2500.000
G1 X171.716 Y95.092 Z-9.510 F2500.000
G2 X91.418 Y-1.374 Z-9.510 I-86.576 J-9.588 K0.000 F2500.000
G2 X-1.005 Y98.391 Z-9.510 I-6.277 J86.878 K0.000 F2500.000
G1 X28.574 Y295.739 Z-9.510 F2500.000
G2 X30.141 Y297.089 Z-9.510 I1.567 J-0.235 K0.000 F2500.000
G1 X50.141 Y297.089 Z-9.510 F2500.000
G2 X50.154 Y297.089 Z-9.510 I-0.000 J-1.585 K0.000 F2500.000
G1 X50.154 Y297.089 Z-12.680 F500.000
G2 X51.726 Y295.504 Z-12.680 I-0.013 J-1.585 K0.000 F2500.000
G1 X51.726 Y85.523 Z-12.680 F2500.000
G3 X85.141 Y52.089 Z-12.680 I33.415 J-0.018 K0.000 F2500.000
G3 X118.556 Y85.523 Z-12.680 I0.000 J33.415 K0.000 F2500.000
G1 X118.556 Y275.504 Z-12.680 F2500.000
G2 X120.141 Y277.089 Z-12.680 I1.585 J-0.000 K0.000 F2500.000
G1 X150.141 Y277.089 Z-12.680 F2500.000
G2 X151.716 Y275.678 Z-12.680 I-0.000 J-1.585 K0.000 F2500.000
G1 X171.716 Y95.092 Z-12.680 F2500.000
G2 X91.418 Y-1.374 Z-12.680 I-86.576 J-9.588 K0.000 F2500.000
G2 X-1.005 Y98.391 Z-12.680 I-6.277 J86.878 K0.000 F2500.000
G1 X28.574 Y295.739 Z-12.680 F2500.000
G2 X30.141 Y297.089 Z-12.680 I1.567 J-0.235 K0.000 F2500.000
G1 X50.141 Y297.089 Z-12.680 F2500.000
G2 X50.154 Y297.089 Z-12.680 I-0.000 J-1.585 K0.000 F2500.000
G0 Z5.000
G0 X50.141 Y303.919 Z5.000
G0 X50.141 Y303.919 Z3.000
G1 X50.141 Y303.919 Z-12.680 F500.000
G1 X30.141 Y303.919 Z-12.680 F2500.000
G2 X28.574 Y305.269 Z-12.680 I-0.000 J1.585 K0.000 F2500.000
G1 X-1.001 Y502.593 Z-12.680 F2500.000
G2 X-1.292 Y526.296 Z-12.680 I86.153 J12.911 K0.000 F2500.000
G2 X171.719 Y505.940 Z-12.680 I86.433 J-10.792 K0.000 F2500.000
G1 X151.716 Y325.329 Z-12.680 F2500.000
G2 X150.141 Y323.919 Z-12.680 I-1.575 J0.174 K0.000 F2500.000
G1 X120.141 Y323.919 Z-12.680 F2500.000
G2 X118.556 Y325.504 Z-12.680 I0.000 J1.585 K0.000 F2500.000
G1 X118.556 Y515.485 Z-12.680 F2500.000
G3 X85.141 Y548.918 Z-12.680 I-33.415 J0.018 K0.000 F2500.000
G3 X51.726 Y515.485 Z-12.680 I0.000 J-33.415 K0.000 F2500.000
G1 X51.726 Y305.504 Z-12.680 F2500.000
G2 X50.141 Y303.919 Z-12.680 I-1.585 J0.000 K0.000 F2500.000
G1 X50.141 Y303.919 Z-15.000 F500.000
G1 X30.141 Y303.919 Z-15.000 F2500.000
G2 X28.574 Y305.269 Z-15.000 I-0.000 J1.585 K0.000 F2500.000
G1 X-1.001 Y502.593 Z-15.000 F2500.000
G2 X-1.292 Y526.296 Z-15.000 I86.153 J12.911 K0.000 F2500.000
G2 X171.719 Y505.940 Z-15.000 I86.433 J-10.792 K0.000 F2500.000
G1 X151.716 Y325.329 Z-15.000 F2500.000
G2 X150.141 Y323.919 Z-15.000 I-1.575 J0.174 K0.000 F2500.000
G1 X120.141 Y323.919 Z-15.000 F2500.000
G2 X118.556 Y325.504 Z-15.000 I0.000 J1.585 K0.000 F2500.000
G1 X118.556 Y515.485 Z-15.000 F2500.000
G3 X85.141 Y548.918 Z-15.000 I-33.415 J0.018 K0.000 F2500.000
G3 X51.726 Y515.485 Z-15.000 I0.000 J-33.415 K0.000 F2500.000
G1 X51.726 Y305.504 Z-15.000 F2500.000
G2 X50.141 Y303.919 Z-15.000 I-1.585 J0.000 K0.000 F2500.000
G0 Z5.000
G0 Y297.089 Z5.000
G0 Y297.089 Z3.000
G1 X50.141 Y297.089 Z-15.000 F500.000
G2 X51.726 Y295.504 Z-15.000 I-0.000 J-1.585 K0.000 F2500.000
G1 X51.726 Y85.523 Z-15.000 F2500.000
G3 X85.141 Y52.089 Z-15.000 I33.415 J-0.018 K0.000 F2500.000
G3 X118.556 Y85.523 Z-15.000 I0.000 J33.415 K0.000 F2500.000
G1 X118.556 Y275.504 Z-15.000 F2500.000
G2 X120.141 Y277.089 Z-15.000 I1.585 J-0.000 K0.000 F2500.000
G1 X150.141 Y277.089 Z-15.000 F2500.000
G2 X151.716 Y275.678 Z-15.000 I-0.000 J-1.585 K0.000 F2500.000
G1 X171.716 Y95.092 Z-15.000 F2500.000
G2 X91.418 Y-1.374 Z-15.000 I-86.576 J-9.588 K0.000 F2500.000
G2 X-1.005 Y98.391 Z-15.000 I-6.277 J86.878 K0.000 F2500.000
G1 X28.574 Y295.739 Z-15.000 F2500.000
G2 X30.141 Y297.089 Z-15.000 I1.567 J-0.235 K0.000 F2500.000
G1 X50.141 Y297.089 Z-15.000 F2500.000
G0 Z5.000
G0 Z5.000
G0 X50.141 Y297.089
G0 X134.765 Y389.878
G0 X134.765 Y389.878 Z3.000
G1 X134.765 Y389.878 Z-3.170 F500.000
G3 X140.309 Y388.320 Z-3.170 I4.323 J4.740 K0.000 F2500.000
G3 X145.468 Y393.948 Z-3.170 I-1.224 J6.301 K0.000 F2500.000
G1 X156.854 Y496.761 Z-3.170 F2500.000
G3 X132.230 Y499.920 Z-3.170 I-12.336 J1.395 K0.000 F2500.000
G3 X132.103 Y498.059 Z-3.170 I12.485 J-1.785 K0.000 F2500.000
G1 X132.672 Y394.619 Z-3.170 F2500.000
G3 X134.765 Y389.878 Z-3.170 I6.416 J-0.000 K0.000 F2500.000
G1 X134.765 Y389.878 Z-6.340 F500.000
G3 X140.309 Y388.320 Z-6.340 I4.323 J4.740 K0.000 F2500.000
G3 X145.468 Y393.948 Z-6.340 I-1.224 J6.301 K0.000 F2500.000
G1 X156.854 Y496.761 Z-6.340 F2500.000
G3 X132.230 Y499.920 Z-6.340 I-12.336 J1.395 K0.000 F2500.000
G3 X132.103 Y498.059 Z-6.340 I12.485 J-1.785 K0.000 F2500.000
G1 X132.672 Y394.619 Z-6.340 F2500.000
G3 X134.765 Y389.878 Z-6.340 I6.416 J-0.000 K0.000 F2500.000
G1 X134.765 Y389.878 Z-9.510 F500.000
G3 X140.309 Y388.320 Z-9.510 I4.323 J4.740 K0.000 F2500.000
G3 X145.468 Y393.948 Z-9.510 I-1.224 J6.301 K0.000 F2500.000
G1 X156.854 Y496.761 Z-9.510 F2500.000
G3 X132.230 Y499.920 Z-9.510 I-12.336 J1.395 K0.000 F2500.000
G3 X132.103 Y498.059 Z-9.510 I12.485 J-1.785 K0.000 F2500.000
G1 X132.672 Y394.619 Z-9.510 F2500.000
G3 X134.765 Y389.878 Z-9.510 I6.416 J-0.000 K0.000 F2500.000
G1 X134.765 Y389.878 Z-12.680 F500.000
G3 X140.309 Y388.320 Z-12.680 I4.323 J4.740 K0.000 F2500.000
G3 X145.468 Y393.948 Z-12.680 I-1.224 J6.301 K0.000 F2500.000
G1 X156.854 Y496.761 Z-12.680 F2500.000
G3 X132.230 Y499.920 Z-12.680 I-12.336 J1.395 K0.000 F2500.000
G3 X132.103 Y498.059 Z-12.680 I12.485 J-1.785 K0.000 F2500.000
G1 X132.672 Y394.619 Z-12.680 F2500.000
G3 X134.765 Y389.878 Z-12.680 I6.416 J-0.000 K0.000 F2500.000
G1 X134.765 Y389.878 Z-15.000 F500.000
G3 X140.309 Y388.320 Z-15.000 I4.323 J4.740 K0.000 F2500.000
G3 X145.468 Y393.948 Z-15.000 I-1.224 J6.301 K0.000 F2500.000
G1 X156.854 Y496.761 Z-15.000 F2500.000
G3 X132.230 Y499.920 Z-15.000 I-12.336 J1.395 K0.000 F2500.000
G3 X132.103 Y498.059 Z-15.000 I12.485 J-1.785 K0.000 F2500.000
G1 X132.672 Y394.619 Z-15.000 F2500.000
G3 X134.765 Y389.878 Z-15.000 I6.416 J-0.000 K0.000 F2500.000
G0 Z5.000
G0 Z5.000
(Finish operation: Profile)
(Begin operation: Pocket_Shape)
(Path: Pocket_Shape)
(Pocket_Shape)
G0 Z5.000
G0 X142.806 Y273.919
G0 Z3.000
G1 X142.806 Y273.919 Z-2.800 F500.000
G1 X127.476 Y273.919 Z-2.800 F2500.000
G1 X127.476 Y257.089 Z-2.800 F2500.000
G1 X142.806 Y257.089 Z-2.800 F2500.000
G1 X142.806 Y273.919 Z-2.800 F2500.000
G0 Z5.000
G0 X140.904 Y272.017 Z5.000
G0 X140.904 Y272.017 Z3.000
G1 X140.904 Y272.017 Z-2.800 F500.000
G1 X129.378 Y272.017 Z-2.800 F2500.000
G1 X129.378 Y267.329 Z-2.800 F2500.000
G2 X140.904 Y267.329 Z-2.800 I5.763 J-3.368 K0.000 F2500.000
G1 X140.904 Y272.017 Z-2.800 F2500.000
G0 Z5.000
G0 X140.112 Y271.224 Z5.000
G0 X140.112 Y271.224 Z3.000
G1 X140.112 Y271.224 Z-2.800 F500.000
G1 X136.855 Y271.224 Z-2.800 F2500.000
G2 X140.112 Y269.532 Z-2.800 I-1.661 J-7.177 K0.000 F2500.000
G1 X140.112 Y271.224 Z-2.800 F2500.000
G0 Z5.000
G0 X137.840 Y267.901 Z5.000
G0 X137.840 Y267.901 Z3.000
G1 X137.840 Y267.901 Z-2.800 F500.000
G3 X130.400 Y264.579 Z-2.800 I-2.699 J-3.947 K0.000 F2500.000
G3 X134.516 Y259.213 Z-2.800 I4.741 J-0.625 K0.000 F2500.000
G3 X139.882 Y263.329 Z-2.800 I0.625 J4.741 K0.000 F2500.000
G3 X137.840 Y267.901 Z-2.800 I-4.741 J0.625 K0.000 F2500.000
G0 Z5.000
G0 X133.428 Y271.224 Z5.000
G0 X133.428 Y271.224 Z3.000
G1 X133.428 Y271.224 Z-2.800 F500.000
G1 X130.171 Y271.224 Z-2.800 F2500.000
G1 X130.171 Y269.532 Z-2.800 F2500.000
G2 X133.428 Y271.224 Z-2.800 I4.913 J-5.474 K0.000 F2500.000
G0 Z5.000
G0 X129.378 Y260.579 Z5.000
G0 X129.378 Y260.579 Z3.000
G1 X129.378 Y260.579 Z-2.800 F500.000
G1 X129.378 Y258.991 Z-2.800 F2500.000
G1 X130.671 Y258.991 Z-2.800 F2500.000
G2 X129.378 Y260.579 Z-2.800 I4.285 J4.808 K0.000 F2500.000
G0 Z5.000
G0 X139.611 Y258.991 Z5.000
G0 X139.611 Y258.991 Z3.000
G1 X139.611 Y258.991 Z-2.800 F500.000
G1 X140.904 Y258.991 Z-2.800 F2500.000
G1 X140.904 Y260.579 Z-2.800 F2500.000
G2 X139.611 Y258.991 Z-2.800 I-5.564 J3.208 K0.000 F2500.000
G1 X139.611 Y258.991 Z-2.900 F500.000
G1 X140.904 Y258.991 Z-2.900 F2500.000
G1 X140.904 Y260.579 Z-2.900 F2500.000
G2 X139.611 Y258.991 Z-2.900 I-5.564 J3.208 K0.000 F2500.000
G0 Z5.000
G0 X138.341 Y260.401 Z5.000
G0 X138.341 Y260.401 Z3.000
G1 X138.341 Y260.401 Z-2.900 F500.000
G3 X139.882 Y263.329 Z-2.900 I-3.200 J3.553 K0.000 F2500.000
G3 X130.400 Y264.579 Z-2.900 I-4.741 J0.625 K0.000 F2500.000
G3 X138.341 Y260.401 Z-2.900 I4.741 J-0.625 K0.000 F2500.000
G0 Z5.000
G0 Y257.089 Z5.000
G0 Y257.089 Z3.000
G1 X138.341 Y257.089 Z-2.900 F500.000
G1 X142.806 Y257.089 Z-2.900 F2500.000
G1 X142.806 Y273.919 Z-2.900 F2500.000
G1 X127.476 Y273.919 Z-2.900 F2500.000
G1 X127.476 Y257.089 Z-2.900 F2500.000
G1 X138.341 Y257.089 Z-2.900 F2500.000
G0 Z5.000
G0 X130.671 Y258.991 Z5.000
G0 X130.671 Y258.991 Z3.000
G1 X130.671 Y258.991 Z-2.900 F500.000
G2 X129.378 Y260.579 Z-2.900 I4.285 J4.808 K0.000 F2500.000
G1 X129.378 Y258.991 Z-2.900 F2500.000
G1 X130.671 Y258.991 Z-2.900 F2500.000
G0 Z5.000
G0 X129.378 Y267.329 Z5.000
G0 X129.378 Y267.329 Z3.000
G1 X129.378 Y267.329 Z-2.900 F500.000
G2 X140.904 Y267.329 Z-2.900 I5.763 J-3.368 K0.000 F2500.000
G1 X140.904 Y272.017 Z-2.900 F2500.000
G1 X129.378 Y272.017 Z-2.900 F2500.000
G1 X129.378 Y267.329 Z-2.900 F2500.000
G0 Z5.000
G0 X130.171 Y269.532 Z5.000
G0 X130.171 Y269.532 Z3.000
G1 X130.171 Y269.532 Z-2.900 F500.000
G2 X133.428 Y271.224 Z-2.900 I4.913 J-5.474 K0.000 F2500.000
G1 X130.171 Y271.224 Z-2.900 F2500.000
G1 X130.171 Y269.532 Z-2.900 F2500.000
G0 Z5.000
G0 X136.855 Y271.224 Z5.000
G0 X136.855 Y271.224 Z3.000
G1 X136.855 Y271.224 Z-2.900 F500.000
G2 X140.112 Y269.532 Z-2.900 I-1.661 J-7.177 K0.000 F2500.000
G1 X140.112 Y271.224 Z-2.900 F2500.000
G1 X136.855 Y271.224 Z-2.900 F2500.000
G0 Z5.000
G0 Z5.000
G0 X136.855 Y271.224
G0 Y327.089
G0 Y327.089 Z3.000
G1 X136.855 Y327.089 Z-2.800 F500.000
G1 X142.806 Y327.089 Z-2.800 F2500.000
G1 X142.806 Y343.919 Z-2.800 F2500.000
G1 X127.476 Y343.919 Z-2.800 F2500.000
G1 X127.476 Y327.089 Z-2.800 F2500.000
G1 X136.855 Y327.089 Z-2.800 F2500.000
G0 Z5.000
G0 Y328.991 Z5.000
G0 Y328.991 Z3.000
G1 X136.855 Y328.991 Z-2.800 F500.000
G1 X140.904 Y328.991 Z-2.800 F2500.000
G1 X140.904 Y333.679 Z-2.800 F2500.000
G2 X129.378 Y333.679 Z-2.800 I-5.763 J3.368 K0.000 F2500.000
G1 X129.378 Y328.991 Z-2.800 F2500.000
G1 X136.855 Y328.991 Z-2.800 F2500.000
G0 Z5.000
G0 X136.855 Y329.783 Z5.000
G0 X136.855 Y329.783 Z3.000
G1 X136.855 Y329.783 Z-2.800 F500.000
G1 X140.112 Y329.783 Z-2.800 F2500.000
G1 X140.112 Y331.476 Z-2.800 F2500.000
G2 X136.855 Y329.783 Z-2.800 I-4.913 J5.474 K0.000 F2500.000
G0 Z5.000
G0 X136.238 Y332.400 Z5.000
G0 X136.238 Y332.400 Z3.000
G1 X136.238 Y332.400 Z-2.800 F500.000
G3 X135.766 Y341.795 Z-2.800 I-1.097 J4.654 K0.000 F2500.000
G3 X130.400 Y337.679 Z-2.800 I-0.625 J-4.741 K0.000 F2500.000
G3 X134.516 Y332.313 Z-2.800 I4.741 J-0.625 K0.000 F2500.000
G3 X136.238 Y332.400 Z-2.800 I0.625 J4.741 K0.000 F2500.000
G0 Z5.000
G0 X133.428 Y329.783 Z5.000
G0 X133.428 Y329.783 Z3.000
G1 X133.428 Y329.783 Z-2.800 F500.000
G2 X130.171 Y331.476 Z-2.800 I1.661 J7.177 K0.000 F2500.000
G1 X130.171 Y329.783 Z-2.800 F2500.000
G1 X133.428 Y329.783 Z-2.800 F2500.000
G0 Z5.000
G0 X129.378 Y340.429 Z5.000
G0 X129.378 Y340.429 Z3.000
G1 X129.378 Y340.429 Z-2.800 F500.000
G2 X130.671 Y342.017 Z-2.800 I5.564 J-3.208 K0.000 F2500.000
G1 X129.378 Y342.017 Z-2.800 F2500.000
G1 X129.378 Y340.429 Z-2.800 F2500.000
G0 Z5.000
G0 X139.611 Y342.017 Z5.000
G0 X139.611 Y342.017 Z3.000
G1 X139.611 Y342.017 Z-2.800 F500.000
G2 X140.904 Y340.429 Z-2.800 I-4.285 J-4.808 K0.000 F2500.000
G1 X140.904 Y342.017 Z-2.800 F2500.000
G1 X139.611 Y342.017 Z-2.800 F2500.000
G1 X139.611 Y342.017 Z-2.900 F500.000
G2 X140.904 Y340.429 Z-2.900 I-4.285 J-4.808 K0.000 F2500.000
G1 X140.904 Y342.017 Z-2.900 F2500.000
G1 X139.611 Y342.017 Z-2.900 F2500.000
G0 Z5.000
G0 X138.341 Y340.607 Z5.000
G0 X138.341 Y340.607 Z3.000
G1 X138.341 Y340.607 Z-2.900 F500.000
G3 X135.766 Y341.795 Z-2.900 I-3.200 J-3.553 K0.000 F2500.000
G3 X130.400 Y337.679 Z-2.900 I-0.625 J-4.741 K0.000 F2500.000
G3 X134.516 Y332.313 Z-2.900 I4.741 J-0.625 K0.000 F2500.000
G3 X138.341 Y340.607 Z-2.900 I0.625 J4.741 K0.000 F2500.000
G0 Z5.000
G0 Y343.919 Z5.000
G0 Y343.919 Z3.000
G1 X138.341 Y343.919 Z-2.900 F500.000
G1 X127.476 Y343.919 Z-2.900 F2500.000
G1 X127.476 Y327.089 Z-2.900 F2500.000
G1 X142.806 Y327.089 Z-2.900 F2500.000
G1 X142.806 Y343.919 Z-2.900 F2500.000
G1 X138.341 Y343.919 Z-2.900 F2500.000
G0 Z5.000
G0 X130.671 Y342.017 Z5.000
G0 X130.671 Y342.017 Z3.000
G1 X130.671 Y342.017 Z-2.900 F500.000
G1 X129.378 Y342.017 Z-2.900 F2500.000
G1 X129.378 Y340.429 Z-2.900 F2500.000
G2 X130.671 Y342.017 Z-2.900 I5.564 J-3.208 K0.000 F2500.000
G0 Z5.000
G0 X129.378 Y333.679 Z5.000
G0 X129.378 Y333.679 Z3.000
G1 X129.378 Y333.679 Z-2.900 F500.000
G1 X129.378 Y328.991 Z-2.900 F2500.000
G1 X140.904 Y328.991 Z-2.900 F2500.000
G1 X140.904 Y333.679 Z-2.900 F2500.000
G2 X129.378 Y333.679 Z-2.900 I-5.763 J3.368 K0.000 F2500.000
G0 Z5.000
G0 X130.171 Y331.476 Z5.000
G0 X130.171 Y331.476 Z3.000
G1 X130.171 Y331.476 Z-2.900 F500.000
G1 X130.171 Y329.783 Z-2.900 F2500.000
G1 X133.428 Y329.783 Z-2.900 F2500.000
G2 X130.171 Y331.476 Z-2.900 I1.661 J7.177 K0.000 F2500.000
G0 Z5.000
G0 X136.855 Y329.783 Z5.000
G0 X136.855 Y329.783 Z3.000
G1 X136.855 Y329.783 Z-2.900 F500.000
G1 X140.112 Y329.783 Z-2.900 F2500.000
G1 X140.112 Y331.476 Z-2.900 F2500.000
G2 X136.855 Y329.783 Z-2.900 I-4.913 J5.474 K0.000 F2500.000
G0 Z5.000
G0 Z5.000
(Finish operation: Pocket_Shape)
(Begin postamble)
M5
G17 G90
M2
