
(Exported by FreeCAD)
(Post Processor: grbl_post)
(Output Time:2023-03-05 18:02:12.440970)
(Begin preamble)
G17 G90
G21
(Begin operation: Fixture)
(Path: Fixture)
G54
(Finish operation: Fixture)
(Begin operation: 3.175 Z1 UP Helicoidale004)
(Path: 3.175 Z1 UP Helicoidale004)
(3.175 Z1 UP Helicoidale004)
(Begin toolchange)
( M6 T2.0 )
M3 S24000.0
(Finish operation: 3.175 Z1 UP Helicoidale004)
(Begin operation: Helix)
(Path: Helix)
(Helix)
(helix cut operation)
G0 Z5.000
G0 X19.415 Y17.372
G0 Z3.000
G1 Z0.000 F500.000
G2 X15.585 Y17.372 Z-1.583 I-1.915 J0.000 F2500.000
G2 X19.415 Y17.372 Z-3.167 I1.915 J0.000 F2500.000
G2 X15.585 Y17.372 Z-4.750 I-1.915 J0.000 F2500.000
G2 X19.415 Y17.372 Z-6.333 I1.915 J0.000 F2500.000
G2 X15.585 Y17.372 Z-7.917 I-1.915 J0.000 F2500.000
G2 X19.415 Y17.372 Z-9.500 I1.915 J0.000 F2500.000
G2 X15.585 Y17.372 Z-11.083 I-1.915 J0.000 F2500.000
G2 X19.415 Y17.372 Z-12.667 I1.915 J0.000 F2500.000
G2 X15.585 Y17.372 Z-14.250 I-1.915 J0.000 F2500.000
G2 X19.415 Y17.372 Z-15.833 I1.915 J0.000 F2500.000
G2 X15.585 Y17.372 Z-17.417 I-1.915 J0.000 F2500.000
G2 X19.415 Y17.372 Z-19.000 I1.915 J0.000 F2500.000
G2 X15.585 Y17.372 Z-19.000 I-1.915 J0.000 F2500.000
G2 X19.415 Y17.372 Z-19.000 I1.915 J0.000 F2500.000
G0 Z3.000
G0 X19.415 Y58.372
G0 Z3.000
G1 Z0.000 F500.000
G2 X15.585 Y58.372 Z-1.583 I-1.915 J0.000 F2500.000
G2 X19.415 Y58.372 Z-3.167 I1.915 J0.000 F2500.000
G2 X15.585 Y58.372 Z-4.750 I-1.915 J0.000 F2500.000
G2 X19.415 Y58.372 Z-6.333 I1.915 J0.000 F2500.000
G2 X15.585 Y58.372 Z-7.917 I-1.915 J0.000 F2500.000
G2 X19.415 Y58.372 Z-9.500 I1.915 J0.000 F2500.000
G2 X15.585 Y58.372 Z-11.083 I-1.915 J0.000 F2500.000
G2 X19.415 Y58.372 Z-12.667 I1.915 J0.000 F2500.000
G2 X15.585 Y58.372 Z-14.250 I-1.915 J0.000 F2500.000
G2 X19.415 Y58.372 Z-15.833 I1.915 J0.000 F2500.000
G2 X15.585 Y58.372 Z-17.417 I-1.915 J0.000 F2500.000
G2 X19.415 Y58.372 Z-19.000 I1.915 J0.000 F2500.000
G2 X15.585 Y58.372 Z-19.000 I-1.915 J0.000 F2500.000
G2 X19.415 Y58.372 Z-19.000 I1.915 J0.000 F2500.000
G0 Z3.000
G0 X19.415 Y99.372
G0 Z3.000
G1 Z0.000 F500.000
G2 X15.585 Y99.372 Z-1.583 I-1.915 J0.000 F2500.000
G2 X19.415 Y99.372 Z-3.167 I1.915 J0.000 F2500.000
G2 X15.585 Y99.372 Z-4.750 I-1.915 J0.000 F2500.000
G2 X19.415 Y99.372 Z-6.333 I1.915 J0.000 F2500.000
G2 X15.585 Y99.372 Z-7.917 I-1.915 J0.000 F2500.000
G2 X19.415 Y99.372 Z-9.500 I1.915 J0.000 F2500.000
G2 X15.585 Y99.372 Z-11.083 I-1.915 J0.000 F2500.000
G2 X19.415 Y99.372 Z-12.667 I1.915 J0.000 F2500.000
G2 X15.585 Y99.372 Z-14.250 I-1.915 J0.000 F2500.000
G2 X19.415 Y99.372 Z-15.833 I1.915 J0.000 F2500.000
G2 X15.585 Y99.372 Z-17.417 I-1.915 J0.000 F2500.000
G2 X19.415 Y99.372 Z-19.000 I1.915 J0.000 F2500.000
G2 X15.585 Y99.372 Z-19.000 I-1.915 J0.000 F2500.000
G2 X19.415 Y99.372 Z-19.000 I1.915 J0.000 F2500.000
G0 Z3.000
G0 X19.415 Y140.372
G0 Z3.000
G1 Z0.000 F500.000
G2 X15.585 Y140.372 Z-1.583 I-1.915 J0.000 F2500.000
G2 X19.415 Y140.372 Z-3.167 I1.915 J0.000 F2500.000
G2 X15.585 Y140.372 Z-4.750 I-1.915 J0.000 F2500.000
G2 X19.415 Y140.372 Z-6.333 I1.915 J0.000 F2500.000
G2 X15.585 Y140.372 Z-7.917 I-1.915 J0.000 F2500.000
G2 X19.415 Y140.372 Z-9.500 I1.915 J0.000 F2500.000
G2 X15.585 Y140.372 Z-11.083 I-1.915 J0.000 F2500.000
G2 X19.415 Y140.372 Z-12.667 I1.915 J0.000 F2500.000
G2 X15.585 Y140.372 Z-14.250 I-1.915 J0.000 F2500.000
G2 X19.415 Y140.372 Z-15.833 I1.915 J0.000 F2500.000
G2 X15.585 Y140.372 Z-17.417 I-1.915 J0.000 F2500.000
G2 X19.415 Y140.372 Z-19.000 I1.915 J0.000 F2500.000
G2 X15.585 Y140.372 Z-19.000 I-1.915 J0.000 F2500.000
G2 X19.415 Y140.372 Z-19.000 I1.915 J0.000 F2500.000
G0 Z3.000
G0 X19.415 Y181.372
G0 Z3.000
G1 Z0.000 F500.000
G2 X15.585 Y181.372 Z-1.583 I-1.915 J0.000 F2500.000
G2 X19.415 Y181.372 Z-3.167 I1.915 J0.000 F2500.000
G2 X15.585 Y181.372 Z-4.750 I-1.915 J0.000 F2500.000
G2 X19.415 Y181.372 Z-6.333 I1.915 J0.000 F2500.000
G2 X15.585 Y181.372 Z-7.917 I-1.915 J0.000 F2500.000
G2 X19.415 Y181.372 Z-9.500 I1.915 J0.000 F2500.000
G2 X15.585 Y181.372 Z-11.083 I-1.915 J0.000 F2500.000
G2 X19.415 Y181.372 Z-12.667 I1.915 J0.000 F2500.000
G2 X15.585 Y181.372 Z-14.250 I-1.915 J0.000 F2500.000
G2 X19.415 Y181.372 Z-15.833 I1.915 J0.000 F2500.000
G2 X15.585 Y181.372 Z-17.417 I-1.915 J0.000 F2500.000
G2 X19.415 Y181.372 Z-19.000 I1.915 J0.000 F2500.000
G2 X15.585 Y181.372 Z-19.000 I-1.915 J0.000 F2500.000
G2 X19.415 Y181.372 Z-19.000 I1.915 J0.000 F2500.000
G0 Z3.000
G0 X19.415 Y222.372
G0 Z3.000
G1 Z0.000 F500.000
G2 X15.585 Y222.372 Z-1.583 I-1.915 J0.000 F2500.000
G2 X19.415 Y222.372 Z-3.167 I1.915 J0.000 F2500.000
G2 X15.585 Y222.372 Z-4.750 I-1.915 J0.000 F2500.000
G2 X19.415 Y222.372 Z-6.333 I1.915 J0.000 F2500.000
G2 X15.585 Y222.372 Z-7.917 I-1.915 J0.000 F2500.000
G2 X19.415 Y222.372 Z-9.500 I1.915 J0.000 F2500.000
G2 X15.585 Y222.372 Z-11.083 I-1.915 J0.000 F2500.000
G2 X19.415 Y222.372 Z-12.667 I1.915 J0.000 F2500.000
G2 X15.585 Y222.372 Z-14.250 I-1.915 J0.000 F2500.000
G2 X19.415 Y222.372 Z-15.833 I1.915 J0.000 F2500.000
G2 X15.585 Y222.372 Z-17.417 I-1.915 J0.000 F2500.000
G2 X19.415 Y222.372 Z-19.000 I1.915 J0.000 F2500.000
G2 X15.585 Y222.372 Z-19.000 I-1.915 J0.000 F2500.000
G2 X19.415 Y222.372 Z-19.000 I1.915 J0.000 F2500.000
G0 Z3.000
G0 X19.415 Y263.372
G0 Z3.000
G1 Z0.000 F500.000
G2 X15.585 Y263.372 Z-1.583 I-1.915 J0.000 F2500.000
G2 X19.415 Y263.372 Z-3.167 I1.915 J0.000 F2500.000
G2 X15.585 Y263.372 Z-4.750 I-1.915 J0.000 F2500.000
G2 X19.415 Y263.372 Z-6.333 I1.915 J0.000 F2500.000
G2 X15.585 Y263.372 Z-7.917 I-1.915 J0.000 F2500.000
G2 X19.415 Y263.372 Z-9.500 I1.915 J0.000 F2500.000
G2 X15.585 Y263.372 Z-11.083 I-1.915 J0.000 F2500.000
G2 X19.415 Y263.372 Z-12.667 I1.915 J0.000 F2500.000
G2 X15.585 Y263.372 Z-14.250 I-1.915 J0.000 F2500.000
G2 X19.415 Y263.372 Z-15.833 I1.915 J0.000 F2500.000
G2 X15.585 Y263.372 Z-17.417 I-1.915 J0.000 F2500.000
G2 X19.415 Y263.372 Z-19.000 I1.915 J0.000 F2500.000
G2 X15.585 Y263.372 Z-19.000 I-1.915 J0.000 F2500.000
G2 X19.415 Y263.372 Z-19.000 I1.915 J0.000 F2500.000
G0 Z3.000
G0 X19.415 Y304.372
G0 Z3.000
G1 Z0.000 F500.000
G2 X15.585 Y304.372 Z-1.583 I-1.915 J0.000 F2500.000
G2 X19.415 Y304.372 Z-3.167 I1.915 J0.000 F2500.000
G2 X15.585 Y304.372 Z-4.750 I-1.915 J0.000 F2500.000
G2 X19.415 Y304.372 Z-6.333 I1.915 J0.000 F2500.000
G2 X15.585 Y304.372 Z-7.917 I-1.915 J0.000 F2500.000
G2 X19.415 Y304.372 Z-9.500 I1.915 J0.000 F2500.000
G2 X15.585 Y304.372 Z-11.083 I-1.915 J0.000 F2500.000
G2 X19.415 Y304.372 Z-12.667 I1.915 J0.000 F2500.000
G2 X15.585 Y304.372 Z-14.250 I-1.915 J0.000 F2500.000
G2 X19.415 Y304.372 Z-15.833 I1.915 J0.000 F2500.000
G2 X15.585 Y304.372 Z-17.417 I-1.915 J0.000 F2500.000
G2 X19.415 Y304.372 Z-19.000 I1.915 J0.000 F2500.000
G2 X15.585 Y304.372 Z-19.000 I-1.915 J0.000 F2500.000
G2 X19.415 Y304.372 Z-19.000 I1.915 J0.000 F2500.000
G0 Z3.000
G0 X19.415 Y345.372
G0 Z3.000
G1 Z0.000 F500.000
G2 X15.585 Y345.372 Z-1.583 I-1.915 J0.000 F2500.000
G2 X19.415 Y345.372 Z-3.167 I1.915 J0.000 F2500.000
G2 X15.585 Y345.372 Z-4.750 I-1.915 J0.000 F2500.000
G2 X19.415 Y345.372 Z-6.333 I1.915 J0.000 F2500.000
G2 X15.585 Y345.372 Z-7.917 I-1.915 J0.000 F2500.000
G2 X19.415 Y345.372 Z-9.500 I1.915 J0.000 F2500.000
G2 X15.585 Y345.372 Z-11.083 I-1.915 J0.000 F2500.000
G2 X19.415 Y345.372 Z-12.667 I1.915 J0.000 F2500.000
G2 X15.585 Y345.372 Z-14.250 I-1.915 J0.000 F2500.000
G2 X19.415 Y345.372 Z-15.833 I1.915 J0.000 F2500.000
G2 X15.585 Y345.372 Z-17.417 I-1.915 J0.000 F2500.000
G2 X19.415 Y345.372 Z-19.000 I1.915 J0.000 F2500.000
G2 X15.585 Y345.372 Z-19.000 I-1.915 J0.000 F2500.000
G2 X19.415 Y345.372 Z-19.000 I1.915 J0.000 F2500.000
G0 Z3.000
G0 X19.415 Y386.372
G0 Z3.000
G1 Z0.000 F500.000
G2 X15.585 Y386.372 Z-1.583 I-1.915 J0.000 F2500.000
G2 X19.415 Y386.372 Z-3.167 I1.915 J0.000 F2500.000
G2 X15.585 Y386.372 Z-4.750 I-1.915 J0.000 F2500.000
G2 X19.415 Y386.372 Z-6.333 I1.915 J0.000 F2500.000
G2 X15.585 Y386.372 Z-7.917 I-1.915 J0.000 F2500.000
G2 X19.415 Y386.372 Z-9.500 I1.915 J0.000 F2500.000
G2 X15.585 Y386.372 Z-11.083 I-1.915 J0.000 F2500.000
G2 X19.415 Y386.372 Z-12.667 I1.915 J0.000 F2500.000
G2 X15.585 Y386.372 Z-14.250 I-1.915 J0.000 F2500.000
G2 X19.415 Y386.372 Z-15.833 I1.915 J0.000 F2500.000
G2 X15.585 Y386.372 Z-17.417 I-1.915 J0.000 F2500.000
G2 X19.415 Y386.372 Z-19.000 I1.915 J0.000 F2500.000
G2 X15.585 Y386.372 Z-19.000 I-1.915 J0.000 F2500.000
G2 X19.415 Y386.372 Z-19.000 I1.915 J0.000 F2500.000
G0 Z3.000
G0 X19.415 Y427.372
G0 Z3.000
G1 Z0.000 F500.000
G2 X15.585 Y427.372 Z-1.583 I-1.915 J0.000 F2500.000
G2 X19.415 Y427.372 Z-3.167 I1.915 J0.000 F2500.000
G2 X15.585 Y427.372 Z-4.750 I-1.915 J0.000 F2500.000
G2 X19.415 Y427.372 Z-6.333 I1.915 J0.000 F2500.000
G2 X15.585 Y427.372 Z-7.917 I-1.915 J0.000 F2500.000
G2 X19.415 Y427.372 Z-9.500 I1.915 J0.000 F2500.000
G2 X15.585 Y427.372 Z-11.083 I-1.915 J0.000 F2500.000
G2 X19.415 Y427.372 Z-12.667 I1.915 J0.000 F2500.000
G2 X15.585 Y427.372 Z-14.250 I-1.915 J0.000 F2500.000
G2 X19.415 Y427.372 Z-15.833 I1.915 J0.000 F2500.000
G2 X15.585 Y427.372 Z-17.417 I-1.915 J0.000 F2500.000
G2 X19.415 Y427.372 Z-19.000 I1.915 J0.000 F2500.000
G2 X15.585 Y427.372 Z-19.000 I-1.915 J0.000 F2500.000
G2 X19.415 Y427.372 Z-19.000 I1.915 J0.000 F2500.000
G0 Z3.000
G0 X19.415 Y468.372
G0 Z3.000
G1 Z0.000 F500.000
G2 X15.585 Y468.372 Z-1.583 I-1.915 J0.000 F2500.000
G2 X19.415 Y468.372 Z-3.167 I1.915 J0.000 F2500.000
G2 X15.585 Y468.372 Z-4.750 I-1.915 J0.000 F2500.000
G2 X19.415 Y468.372 Z-6.333 I1.915 J0.000 F2500.000
G2 X15.585 Y468.372 Z-7.917 I-1.915 J0.000 F2500.000
G2 X19.415 Y468.372 Z-9.500 I1.915 J0.000 F2500.000
G2 X15.585 Y468.372 Z-11.083 I-1.915 J0.000 F2500.000
G2 X19.415 Y468.372 Z-12.667 I1.915 J0.000 F2500.000
G2 X15.585 Y468.372 Z-14.250 I-1.915 J0.000 F2500.000
G2 X19.415 Y468.372 Z-15.833 I1.915 J0.000 F2500.000
G2 X15.585 Y468.372 Z-17.417 I-1.915 J0.000 F2500.000
G2 X19.415 Y468.372 Z-19.000 I1.915 J0.000 F2500.000
G2 X15.585 Y468.372 Z-19.000 I-1.915 J0.000 F2500.000
G2 X19.415 Y468.372 Z-19.000 I1.915 J0.000 F2500.000
G0 Z3.000
G0 X19.415 Y509.372
G0 Z3.000
G1 Z0.000 F500.000
G2 X15.585 Y509.372 Z-1.583 I-1.915 J0.000 F2500.000
G2 X19.415 Y509.372 Z-3.167 I1.915 J0.000 F2500.000
G2 X15.585 Y509.372 Z-4.750 I-1.915 J0.000 F2500.000
G2 X19.415 Y509.372 Z-6.333 I1.915 J0.000 F2500.000
G2 X15.585 Y509.372 Z-7.917 I-1.915 J0.000 F2500.000
G2 X19.415 Y509.372 Z-9.500 I1.915 J0.000 F2500.000
G2 X15.585 Y509.372 Z-11.083 I-1.915 J0.000 F2500.000
G2 X19.415 Y509.372 Z-12.667 I1.915 J0.000 F2500.000
G2 X15.585 Y509.372 Z-14.250 I-1.915 J0.000 F2500.000
G2 X19.415 Y509.372 Z-15.833 I1.915 J0.000 F2500.000
G2 X15.585 Y509.372 Z-17.417 I-1.915 J0.000 F2500.000
G2 X19.415 Y509.372 Z-19.000 I1.915 J0.000 F2500.000
G2 X15.585 Y509.372 Z-19.000 I-1.915 J0.000 F2500.000
G2 X19.415 Y509.372 Z-19.000 I1.915 J0.000 F2500.000
G0 Z3.000
G0 X19.415 Y550.372
G0 Z3.000
G1 Z0.000 F500.000
G2 X15.585 Y550.372 Z-1.583 I-1.915 J0.000 F2500.000
G2 X19.415 Y550.372 Z-3.167 I1.915 J0.000 F2500.000
G2 X15.585 Y550.372 Z-4.750 I-1.915 J0.000 F2500.000
G2 X19.415 Y550.372 Z-6.333 I1.915 J0.000 F2500.000
G2 X15.585 Y550.372 Z-7.917 I-1.915 J0.000 F2500.000
G2 X19.415 Y550.372 Z-9.500 I1.915 J0.000 F2500.000
G2 X15.585 Y550.372 Z-11.083 I-1.915 J0.000 F2500.000
G2 X19.415 Y550.372 Z-12.667 I1.915 J0.000 F2500.000
G2 X15.585 Y550.372 Z-14.250 I-1.915 J0.000 F2500.000
G2 X19.415 Y550.372 Z-15.833 I1.915 J0.000 F2500.000
G2 X15.585 Y550.372 Z-17.417 I-1.915 J0.000 F2500.000
G2 X19.415 Y550.372 Z-19.000 I1.915 J0.000 F2500.000
G2 X15.585 Y550.372 Z-19.000 I-1.915 J0.000 F2500.000
G2 X19.415 Y550.372 Z-19.000 I1.915 J0.000 F2500.000
G0 Z3.000
G0 X19.415 Y591.372
G0 Z3.000
G1 Z0.000 F500.000
G2 X15.585 Y591.372 Z-1.583 I-1.915 J0.000 F2500.000
G2 X19.415 Y591.372 Z-3.167 I1.915 J0.000 F2500.000
G2 X15.585 Y591.372 Z-4.750 I-1.915 J0.000 F2500.000
G2 X19.415 Y591.372 Z-6.333 I1.915 J0.000 F2500.000
G2 X15.585 Y591.372 Z-7.917 I-1.915 J0.000 F2500.000
G2 X19.415 Y591.372 Z-9.500 I1.915 J0.000 F2500.000
G2 X15.585 Y591.372 Z-11.083 I-1.915 J0.000 F2500.000
G2 X19.415 Y591.372 Z-12.667 I1.915 J0.000 F2500.000
G2 X15.585 Y591.372 Z-14.250 I-1.915 J0.000 F2500.000
G2 X19.415 Y591.372 Z-15.833 I1.915 J0.000 F2500.000
G2 X15.585 Y591.372 Z-17.417 I-1.915 J0.000 F2500.000
G2 X19.415 Y591.372 Z-19.000 I1.915 J0.000 F2500.000
G2 X15.585 Y591.372 Z-19.000 I-1.915 J0.000 F2500.000
G2 X19.415 Y591.372 Z-19.000 I1.915 J0.000 F2500.000
G0 Z3.000
G0 X19.415 Y632.372
G0 Z3.000
G1 Z0.000 F500.000
G2 X15.585 Y632.372 Z-1.583 I-1.915 J0.000 F2500.000
G2 X19.415 Y632.372 Z-3.167 I1.915 J0.000 F2500.000
G2 X15.585 Y632.372 Z-4.750 I-1.915 J0.000 F2500.000
G2 X19.415 Y632.372 Z-6.333 I1.915 J0.000 F2500.000
G2 X15.585 Y632.372 Z-7.917 I-1.915 J0.000 F2500.000
G2 X19.415 Y632.372 Z-9.500 I1.915 J0.000 F2500.000
G2 X15.585 Y632.372 Z-11.083 I-1.915 J0.000 F2500.000
G2 X19.415 Y632.372 Z-12.667 I1.915 J0.000 F2500.000
G2 X15.585 Y632.372 Z-14.250 I-1.915 J0.000 F2500.000
G2 X19.415 Y632.372 Z-15.833 I1.915 J0.000 F2500.000
G2 X15.585 Y632.372 Z-17.417 I-1.915 J0.000 F2500.000
G2 X19.415 Y632.372 Z-19.000 I1.915 J0.000 F2500.000
G2 X15.585 Y632.372 Z-19.000 I-1.915 J0.000 F2500.000
G2 X19.415 Y632.372 Z-19.000 I1.915 J0.000 F2500.000
G0 Z3.000
G0 X66.082 Y632.372
G0 Z3.000
G1 Z0.000 F500.000
G2 X62.252 Y632.372 Z-1.583 I-1.915 J0.000 F2500.000
G2 X66.082 Y632.372 Z-3.167 I1.915 J0.000 F2500.000
G2 X62.252 Y632.372 Z-4.750 I-1.915 J0.000 F2500.000
G2 X66.082 Y632.372 Z-6.333 I1.915 J0.000 F2500.000
G2 X62.252 Y632.372 Z-7.917 I-1.915 J0.000 F2500.000
G2 X66.082 Y632.372 Z-9.500 I1.915 J0.000 F2500.000
G2 X62.252 Y632.372 Z-11.083 I-1.915 J0.000 F2500.000
G2 X66.082 Y632.372 Z-12.667 I1.915 J0.000 F2500.000
G2 X62.252 Y632.372 Z-14.250 I-1.915 J0.000 F2500.000
G2 X66.082 Y632.372 Z-15.833 I1.915 J0.000 F2500.000
G2 X62.252 Y632.372 Z-17.417 I-1.915 J0.000 F2500.000
G2 X66.082 Y632.372 Z-19.000 I1.915 J0.000 F2500.000
G2 X62.252 Y632.372 Z-19.000 I-1.915 J0.000 F2500.000
G2 X66.082 Y632.372 Z-19.000 I1.915 J0.000 F2500.000
G0 Z3.000
G0 X66.082 Y591.372
G0 Z3.000
G1 Z0.000 F500.000
G2 X62.252 Y591.372 Z-1.583 I-1.915 J0.000 F2500.000
G2 X66.082 Y591.372 Z-3.167 I1.915 J0.000 F2500.000
G2 X62.252 Y591.372 Z-4.750 I-1.915 J0.000 F2500.000
G2 X66.082 Y591.372 Z-6.333 I1.915 J0.000 F2500.000
G2 X62.252 Y591.372 Z-7.917 I-1.915 J0.000 F2500.000
G2 X66.082 Y591.372 Z-9.500 I1.915 J0.000 F2500.000
G2 X62.252 Y591.372 Z-11.083 I-1.915 J0.000 F2500.000
G2 X66.082 Y591.372 Z-12.667 I1.915 J0.000 F2500.000
G2 X62.252 Y591.372 Z-14.250 I-1.915 J0.000 F2500.000
G2 X66.082 Y591.372 Z-15.833 I1.915 J0.000 F2500.000
G2 X62.252 Y591.372 Z-17.417 I-1.915 J0.000 F2500.000
G2 X66.082 Y591.372 Z-19.000 I1.915 J0.000 F2500.000
G2 X62.252 Y591.372 Z-19.000 I-1.915 J0.000 F2500.000
G2 X66.082 Y591.372 Z-19.000 I1.915 J0.000 F2500.000
G0 Z3.000
G0 X66.082 Y550.372
G0 Z3.000
G1 Z0.000 F500.000
G2 X62.252 Y550.372 Z-1.583 I-1.915 J0.000 F2500.000
G2 X66.082 Y550.372 Z-3.167 I1.915 J0.000 F2500.000
G2 X62.252 Y550.372 Z-4.750 I-1.915 J0.000 F2500.000
G2 X66.082 Y550.372 Z-6.333 I1.915 J0.000 F2500.000
G2 X62.252 Y550.372 Z-7.917 I-1.915 J0.000 F2500.000
G2 X66.082 Y550.372 Z-9.500 I1.915 J0.000 F2500.000
G2 X62.252 Y550.372 Z-11.083 I-1.915 J0.000 F2500.000
G2 X66.082 Y550.372 Z-12.667 I1.915 J0.000 F2500.000
G2 X62.252 Y550.372 Z-14.250 I-1.915 J0.000 F2500.000
G2 X66.082 Y550.372 Z-15.833 I1.915 J0.000 F2500.000
G2 X62.252 Y550.372 Z-17.417 I-1.915 J0.000 F2500.000
G2 X66.082 Y550.372 Z-19.000 I1.915 J0.000 F2500.000
G2 X62.252 Y550.372 Z-19.000 I-1.915 J0.000 F2500.000
G2 X66.082 Y550.372 Z-19.000 I1.915 J0.000 F2500.000
G0 Z3.000
G0 X66.082 Y509.372
G0 Z3.000
G1 Z0.000 F500.000
G2 X62.252 Y509.372 Z-1.583 I-1.915 J0.000 F2500.000
G2 X66.082 Y509.372 Z-3.167 I1.915 J0.000 F2500.000
G2 X62.252 Y509.372 Z-4.750 I-1.915 J0.000 F2500.000
G2 X66.082 Y509.372 Z-6.333 I1.915 J0.000 F2500.000
G2 X62.252 Y509.372 Z-7.917 I-1.915 J0.000 F2500.000
G2 X66.082 Y509.372 Z-9.500 I1.915 J0.000 F2500.000
G2 X62.252 Y509.372 Z-11.083 I-1.915 J0.000 F2500.000
G2 X66.082 Y509.372 Z-12.667 I1.915 J0.000 F2500.000
G2 X62.252 Y509.372 Z-14.250 I-1.915 J0.000 F2500.000
G2 X66.082 Y509.372 Z-15.833 I1.915 J0.000 F2500.000
G2 X62.252 Y509.372 Z-17.417 I-1.915 J0.000 F2500.000
G2 X66.082 Y509.372 Z-19.000 I1.915 J0.000 F2500.000
G2 X62.252 Y509.372 Z-19.000 I-1.915 J0.000 F2500.000
G2 X66.082 Y509.372 Z-19.000 I1.915 J0.000 F2500.000
G0 Z3.000
G0 X66.082 Y468.372
G0 Z3.000
G1 Z0.000 F500.000
G2 X62.252 Y468.372 Z-1.583 I-1.915 J0.000 F2500.000
G2 X66.082 Y468.372 Z-3.167 I1.915 J0.000 F2500.000
G2 X62.252 Y468.372 Z-4.750 I-1.915 J0.000 F2500.000
G2 X66.082 Y468.372 Z-6.333 I1.915 J0.000 F2500.000
G2 X62.252 Y468.372 Z-7.917 I-1.915 J0.000 F2500.000
G2 X66.082 Y468.372 Z-9.500 I1.915 J0.000 F2500.000
G2 X62.252 Y468.372 Z-11.083 I-1.915 J0.000 F2500.000
G2 X66.082 Y468.372 Z-12.667 I1.915 J0.000 F2500.000
G2 X62.252 Y468.372 Z-14.250 I-1.915 J0.000 F2500.000
G2 X66.082 Y468.372 Z-15.833 I1.915 J0.000 F2500.000
G2 X62.252 Y468.372 Z-17.417 I-1.915 J0.000 F2500.000
G2 X66.082 Y468.372 Z-19.000 I1.915 J0.000 F2500.000
G2 X62.252 Y468.372 Z-19.000 I-1.915 J0.000 F2500.000
G2 X66.082 Y468.372 Z-19.000 I1.915 J0.000 F2500.000
G0 Z3.000
G0 X66.082 Y427.372
G0 Z3.000
G1 Z0.000 F500.000
G2 X62.252 Y427.372 Z-1.583 I-1.915 J0.000 F2500.000
G2 X66.082 Y427.372 Z-3.167 I1.915 J0.000 F2500.000
G2 X62.252 Y427.372 Z-4.750 I-1.915 J0.000 F2500.000
G2 X66.082 Y427.372 Z-6.333 I1.915 J0.000 F2500.000
G2 X62.252 Y427.372 Z-7.917 I-1.915 J0.000 F2500.000
G2 X66.082 Y427.372 Z-9.500 I1.915 J0.000 F2500.000
G2 X62.252 Y427.372 Z-11.083 I-1.915 J0.000 F2500.000
G2 X66.082 Y427.372 Z-12.667 I1.915 J0.000 F2500.000
G2 X62.252 Y427.372 Z-14.250 I-1.915 J0.000 F2500.000
G2 X66.082 Y427.372 Z-15.833 I1.915 J0.000 F2500.000
G2 X62.252 Y427.372 Z-17.417 I-1.915 J0.000 F2500.000
G2 X66.082 Y427.372 Z-19.000 I1.915 J0.000 F2500.000
G2 X62.252 Y427.372 Z-19.000 I-1.915 J0.000 F2500.000
G2 X66.082 Y427.372 Z-19.000 I1.915 J0.000 F2500.000
G0 Z3.000
G0 X66.082 Y386.372
G0 Z3.000
G1 Z0.000 F500.000
G2 X62.252 Y386.372 Z-1.583 I-1.915 J0.000 F2500.000
G2 X66.082 Y386.372 Z-3.167 I1.915 J0.000 F2500.000
G2 X62.252 Y386.372 Z-4.750 I-1.915 J0.000 F2500.000
G2 X66.082 Y386.372 Z-6.333 I1.915 J0.000 F2500.000
G2 X62.252 Y386.372 Z-7.917 I-1.915 J0.000 F2500.000
G2 X66.082 Y386.372 Z-9.500 I1.915 J0.000 F2500.000
G2 X62.252 Y386.372 Z-11.083 I-1.915 J0.000 F2500.000
G2 X66.082 Y386.372 Z-12.667 I1.915 J0.000 F2500.000
G2 X62.252 Y386.372 Z-14.250 I-1.915 J0.000 F2500.000
G2 X66.082 Y386.372 Z-15.833 I1.915 J0.000 F2500.000
G2 X62.252 Y386.372 Z-17.417 I-1.915 J0.000 F2500.000
G2 X66.082 Y386.372 Z-19.000 I1.915 J0.000 F2500.000
G2 X62.252 Y386.372 Z-19.000 I-1.915 J0.000 F2500.000
G2 X66.082 Y386.372 Z-19.000 I1.915 J0.000 F2500.000
G0 Z3.000
G0 X66.082 Y345.372
G0 Z3.000
G1 Z0.000 F500.000
G2 X62.252 Y345.372 Z-1.583 I-1.915 J0.000 F2500.000
G2 X66.082 Y345.372 Z-3.167 I1.915 J0.000 F2500.000
G2 X62.252 Y345.372 Z-4.750 I-1.915 J0.000 F2500.000
G2 X66.082 Y345.372 Z-6.333 I1.915 J0.000 F2500.000
G2 X62.252 Y345.372 Z-7.917 I-1.915 J0.000 F2500.000
G2 X66.082 Y345.372 Z-9.500 I1.915 J0.000 F2500.000
G2 X62.252 Y345.372 Z-11.083 I-1.915 J0.000 F2500.000
G2 X66.082 Y345.372 Z-12.667 I1.915 J0.000 F2500.000
G2 X62.252 Y345.372 Z-14.250 I-1.915 J0.000 F2500.000
G2 X66.082 Y345.372 Z-15.833 I1.915 J0.000 F2500.000
G2 X62.252 Y345.372 Z-17.417 I-1.915 J0.000 F2500.000
G2 X66.082 Y345.372 Z-19.000 I1.915 J0.000 F2500.000
G2 X62.252 Y345.372 Z-19.000 I-1.915 J0.000 F2500.000
G2 X66.082 Y345.372 Z-19.000 I1.915 J0.000 F2500.000
G0 Z3.000
G0 X66.082 Y304.372
G0 Z3.000
G1 Z0.000 F500.000
G2 X62.252 Y304.372 Z-1.583 I-1.915 J0.000 F2500.000
G2 X66.082 Y304.372 Z-3.167 I1.915 J0.000 F2500.000
G2 X62.252 Y304.372 Z-4.750 I-1.915 J0.000 F2500.000
G2 X66.082 Y304.372 Z-6.333 I1.915 J0.000 F2500.000
G2 X62.252 Y304.372 Z-7.917 I-1.915 J0.000 F2500.000
G2 X66.082 Y304.372 Z-9.500 I1.915 J0.000 F2500.000
G2 X62.252 Y304.372 Z-11.083 I-1.915 J0.000 F2500.000
G2 X66.082 Y304.372 Z-12.667 I1.915 J0.000 F2500.000
G2 X62.252 Y304.372 Z-14.250 I-1.915 J0.000 F2500.000
G2 X66.082 Y304.372 Z-15.833 I1.915 J0.000 F2500.000
G2 X62.252 Y304.372 Z-17.417 I-1.915 J0.000 F2500.000
G2 X66.082 Y304.372 Z-19.000 I1.915 J0.000 F2500.000
G2 X62.252 Y304.372 Z-19.000 I-1.915 J0.000 F2500.000
G2 X66.082 Y304.372 Z-19.000 I1.915 J0.000 F2500.000
G0 Z3.000
G0 X66.082 Y263.372
G0 Z3.000
G1 Z0.000 F500.000
G2 X62.252 Y263.372 Z-1.583 I-1.915 J0.000 F2500.000
G2 X66.082 Y263.372 Z-3.167 I1.915 J0.000 F2500.000
G2 X62.252 Y263.372 Z-4.750 I-1.915 J0.000 F2500.000
G2 X66.082 Y263.372 Z-6.333 I1.915 J0.000 F2500.000
G2 X62.252 Y263.372 Z-7.917 I-1.915 J0.000 F2500.000
G2 X66.082 Y263.372 Z-9.500 I1.915 J0.000 F2500.000
G2 X62.252 Y263.372 Z-11.083 I-1.915 J0.000 F2500.000
G2 X66.082 Y263.372 Z-12.667 I1.915 J0.000 F2500.000
G2 X62.252 Y263.372 Z-14.250 I-1.915 J0.000 F2500.000
G2 X66.082 Y263.372 Z-15.833 I1.915 J0.000 F2500.000
G2 X62.252 Y263.372 Z-17.417 I-1.915 J0.000 F2500.000
G2 X66.082 Y263.372 Z-19.000 I1.915 J0.000 F2500.000
G2 X62.252 Y263.372 Z-19.000 I-1.915 J0.000 F2500.000
G2 X66.082 Y263.372 Z-19.000 I1.915 J0.000 F2500.000
G0 Z3.000
G0 X66.082 Y222.372
G0 Z3.000
G1 Z0.000 F500.000
G2 X62.252 Y222.372 Z-1.583 I-1.915 J0.000 F2500.000
G2 X66.082 Y222.372 Z-3.167 I1.915 J0.000 F2500.000
G2 X62.252 Y222.372 Z-4.750 I-1.915 J0.000 F2500.000
G2 X66.082 Y222.372 Z-6.333 I1.915 J0.000 F2500.000
G2 X62.252 Y222.372 Z-7.917 I-1.915 J0.000 F2500.000
G2 X66.082 Y222.372 Z-9.500 I1.915 J0.000 F2500.000
G2 X62.252 Y222.372 Z-11.083 I-1.915 J0.000 F2500.000
G2 X66.082 Y222.372 Z-12.667 I1.915 J0.000 F2500.000
G2 X62.252 Y222.372 Z-14.250 I-1.915 J0.000 F2500.000
G2 X66.082 Y222.372 Z-15.833 I1.915 J0.000 F2500.000
G2 X62.252 Y222.372 Z-17.417 I-1.915 J0.000 F2500.000
G2 X66.082 Y222.372 Z-19.000 I1.915 J0.000 F2500.000
G2 X62.252 Y222.372 Z-19.000 I-1.915 J0.000 F2500.000
G2 X66.082 Y222.372 Z-19.000 I1.915 J0.000 F2500.000
G0 Z3.000
G0 X66.082 Y181.372
G0 Z3.000
G1 Z0.000 F500.000
G2 X62.252 Y181.372 Z-1.583 I-1.915 J0.000 F2500.000
G2 X66.082 Y181.372 Z-3.167 I1.915 J0.000 F2500.000
G2 X62.252 Y181.372 Z-4.750 I-1.915 J0.000 F2500.000
G2 X66.082 Y181.372 Z-6.333 I1.915 J0.000 F2500.000
G2 X62.252 Y181.372 Z-7.917 I-1.915 J0.000 F2500.000
G2 X66.082 Y181.372 Z-9.500 I1.915 J0.000 F2500.000
G2 X62.252 Y181.372 Z-11.083 I-1.915 J0.000 F2500.000
G2 X66.082 Y181.372 Z-12.667 I1.915 J0.000 F2500.000
G2 X62.252 Y181.372 Z-14.250 I-1.915 J0.000 F2500.000
G2 X66.082 Y181.372 Z-15.833 I1.915 J0.000 F2500.000
G2 X62.252 Y181.372 Z-17.417 I-1.915 J0.000 F2500.000
G2 X66.082 Y181.372 Z-19.000 I1.915 J0.000 F2500.000
G2 X62.252 Y181.372 Z-19.000 I-1.915 J0.000 F2500.000
G2 X66.082 Y181.372 Z-19.000 I1.915 J0.000 F2500.000
G0 Z3.000
G0 X66.082 Y140.372
G0 Z3.000
G1 Z0.000 F500.000
G2 X62.252 Y140.372 Z-1.583 I-1.915 J0.000 F2500.000
G2 X66.082 Y140.372 Z-3.167 I1.915 J0.000 F2500.000
G2 X62.252 Y140.372 Z-4.750 I-1.915 J0.000 F2500.000
G2 X66.082 Y140.372 Z-6.333 I1.915 J0.000 F2500.000
G2 X62.252 Y140.372 Z-7.917 I-1.915 J0.000 F2500.000
G2 X66.082 Y140.372 Z-9.500 I1.915 J0.000 F2500.000
G2 X62.252 Y140.372 Z-11.083 I-1.915 J0.000 F2500.000
G2 X66.082 Y140.372 Z-12.667 I1.915 J0.000 F2500.000
G2 X62.252 Y140.372 Z-14.250 I-1.915 J0.000 F2500.000
G2 X66.082 Y140.372 Z-15.833 I1.915 J0.000 F2500.000
G2 X62.252 Y140.372 Z-17.417 I-1.915 J0.000 F2500.000
G2 X66.082 Y140.372 Z-19.000 I1.915 J0.000 F2500.000
G2 X62.252 Y140.372 Z-19.000 I-1.915 J0.000 F2500.000
G2 X66.082 Y140.372 Z-19.000 I1.915 J0.000 F2500.000
G0 Z3.000
G0 X66.082 Y99.372
G0 Z3.000
G1 Z0.000 F500.000
G2 X62.252 Y99.372 Z-1.583 I-1.915 J0.000 F2500.000
G2 X66.082 Y99.372 Z-3.167 I1.915 J0.000 F2500.000
G2 X62.252 Y99.372 Z-4.750 I-1.915 J0.000 F2500.000
G2 X66.082 Y99.372 Z-6.333 I1.915 J0.000 F2500.000
G2 X62.252 Y99.372 Z-7.917 I-1.915 J0.000 F2500.000
G2 X66.082 Y99.372 Z-9.500 I1.915 J0.000 F2500.000
G2 X62.252 Y99.372 Z-11.083 I-1.915 J0.000 F2500.000
G2 X66.082 Y99.372 Z-12.667 I1.915 J0.000 F2500.000
G2 X62.252 Y99.372 Z-14.250 I-1.915 J0.000 F2500.000
G2 X66.082 Y99.372 Z-15.833 I1.915 J0.000 F2500.000
G2 X62.252 Y99.372 Z-17.417 I-1.915 J0.000 F2500.000
G2 X66.082 Y99.372 Z-19.000 I1.915 J0.000 F2500.000
G2 X62.252 Y99.372 Z-19.000 I-1.915 J0.000 F2500.000
G2 X66.082 Y99.372 Z-19.000 I1.915 J0.000 F2500.000
G0 Z3.000
G0 X66.082 Y58.372
G0 Z3.000
G1 Z0.000 F500.000
G2 X62.252 Y58.372 Z-1.583 I-1.915 J0.000 F2500.000
G2 X66.082 Y58.372 Z-3.167 I1.915 J0.000 F2500.000
G2 X62.252 Y58.372 Z-4.750 I-1.915 J0.000 F2500.000
G2 X66.082 Y58.372 Z-6.333 I1.915 J0.000 F2500.000
G2 X62.252 Y58.372 Z-7.917 I-1.915 J0.000 F2500.000
G2 X66.082 Y58.372 Z-9.500 I1.915 J0.000 F2500.000
G2 X62.252 Y58.372 Z-11.083 I-1.915 J0.000 F2500.000
G2 X66.082 Y58.372 Z-12.667 I1.915 J0.000 F2500.000
G2 X62.252 Y58.372 Z-14.250 I-1.915 J0.000 F2500.000
G2 X66.082 Y58.372 Z-15.833 I1.915 J0.000 F2500.000
G2 X62.252 Y58.372 Z-17.417 I-1.915 J0.000 F2500.000
G2 X66.082 Y58.372 Z-19.000 I1.915 J0.000 F2500.000
G2 X62.252 Y58.372 Z-19.000 I-1.915 J0.000 F2500.000
G2 X66.082 Y58.372 Z-19.000 I1.915 J0.000 F2500.000
G0 Z3.000
G0 X66.082 Y17.372
G0 Z3.000
G1 Z0.000 F500.000
G2 X62.252 Y17.372 Z-1.583 I-1.915 J0.000 F2500.000
G2 X66.082 Y17.372 Z-3.167 I1.915 J0.000 F2500.000
G2 X62.252 Y17.372 Z-4.750 I-1.915 J0.000 F2500.000
G2 X66.082 Y17.372 Z-6.333 I1.915 J0.000 F2500.000
G2 X62.252 Y17.372 Z-7.917 I-1.915 J0.000 F2500.000
G2 X66.082 Y17.372 Z-9.500 I1.915 J0.000 F2500.000
G2 X62.252 Y17.372 Z-11.083 I-1.915 J0.000 F2500.000
G2 X66.082 Y17.372 Z-12.667 I1.915 J0.000 F2500.000
G2 X62.252 Y17.372 Z-14.250 I-1.915 J0.000 F2500.000
G2 X66.082 Y17.372 Z-15.833 I1.915 J0.000 F2500.000
G2 X62.252 Y17.372 Z-17.417 I-1.915 J0.000 F2500.000
G2 X66.082 Y17.372 Z-19.000 I1.915 J0.000 F2500.000
G2 X62.252 Y17.372 Z-19.000 I-1.915 J0.000 F2500.000
G2 X66.082 Y17.372 Z-19.000 I1.915 J0.000 F2500.000
G0 Z3.000
G0 X112.748 Y17.372
G0 Z3.000
G1 Z0.000 F500.000
G2 X108.918 Y17.372 Z-1.583 I-1.915 J0.000 F2500.000
G2 X112.748 Y17.372 Z-3.167 I1.915 J0.000 F2500.000
G2 X108.918 Y17.372 Z-4.750 I-1.915 J0.000 F2500.000
G2 X112.748 Y17.372 Z-6.333 I1.915 J0.000 F2500.000
G2 X108.918 Y17.372 Z-7.917 I-1.915 J0.000 F2500.000
G2 X112.748 Y17.372 Z-9.500 I1.915 J0.000 F2500.000
G2 X108.918 Y17.372 Z-11.083 I-1.915 J0.000 F2500.000
G2 X112.748 Y17.372 Z-12.667 I1.915 J0.000 F2500.000
G2 X108.918 Y17.372 Z-14.250 I-1.915 J0.000 F2500.000
G2 X112.748 Y17.372 Z-15.833 I1.915 J0.000 F2500.000
G2 X108.918 Y17.372 Z-17.417 I-1.915 J0.000 F2500.000
G2 X112.748 Y17.372 Z-19.000 I1.915 J0.000 F2500.000
G2 X108.918 Y17.372 Z-19.000 I-1.915 J0.000 F2500.000
G2 X112.748 Y17.372 Z-19.000 I1.915 J0.000 F2500.000
G0 Z3.000
G0 X112.748 Y58.372
G0 Z3.000
G1 Z0.000 F500.000
G2 X108.918 Y58.372 Z-1.583 I-1.915 J0.000 F2500.000
G2 X112.748 Y58.372 Z-3.167 I1.915 J0.000 F2500.000
G2 X108.918 Y58.372 Z-4.750 I-1.915 J0.000 F2500.000
G2 X112.748 Y58.372 Z-6.333 I1.915 J0.000 F2500.000
G2 X108.918 Y58.372 Z-7.917 I-1.915 J0.000 F2500.000
G2 X112.748 Y58.372 Z-9.500 I1.915 J0.000 F2500.000
G2 X108.918 Y58.372 Z-11.083 I-1.915 J0.000 F2500.000
G2 X112.748 Y58.372 Z-12.667 I1.915 J0.000 F2500.000
G2 X108.918 Y58.372 Z-14.250 I-1.915 J0.000 F2500.000
G2 X112.748 Y58.372 Z-15.833 I1.915 J0.000 F2500.000
G2 X108.918 Y58.372 Z-17.417 I-1.915 J0.000 F2500.000
G2 X112.748 Y58.372 Z-19.000 I1.915 J0.000 F2500.000
G2 X108.918 Y58.372 Z-19.000 I-1.915 J0.000 F2500.000
G2 X112.748 Y58.372 Z-19.000 I1.915 J0.000 F2500.000
G0 Z3.000
G0 X112.748 Y99.372
G0 Z3.000
G1 Z0.000 F500.000
G2 X108.918 Y99.372 Z-1.583 I-1.915 J0.000 F2500.000
G2 X112.748 Y99.372 Z-3.167 I1.915 J0.000 F2500.000
G2 X108.918 Y99.372 Z-4.750 I-1.915 J0.000 F2500.000
G2 X112.748 Y99.372 Z-6.333 I1.915 J0.000 F2500.000
G2 X108.918 Y99.372 Z-7.917 I-1.915 J0.000 F2500.000
G2 X112.748 Y99.372 Z-9.500 I1.915 J0.000 F2500.000
G2 X108.918 Y99.372 Z-11.083 I-1.915 J0.000 F2500.000
G2 X112.748 Y99.372 Z-12.667 I1.915 J0.000 F2500.000
G2 X108.918 Y99.372 Z-14.250 I-1.915 J0.000 F2500.000
G2 X112.748 Y99.372 Z-15.833 I1.915 J0.000 F2500.000
G2 X108.918 Y99.372 Z-17.417 I-1.915 J0.000 F2500.000
G2 X112.748 Y99.372 Z-19.000 I1.915 J0.000 F2500.000
G2 X108.918 Y99.372 Z-19.000 I-1.915 J0.000 F2500.000
G2 X112.748 Y99.372 Z-19.000 I1.915 J0.000 F2500.000
G0 Z3.000
G0 X112.748 Y140.372
G0 Z3.000
G1 Z0.000 F500.000
G2 X108.918 Y140.372 Z-1.583 I-1.915 J0.000 F2500.000
G2 X112.748 Y140.372 Z-3.167 I1.915 J0.000 F2500.000
G2 X108.918 Y140.372 Z-4.750 I-1.915 J0.000 F2500.000
G2 X112.748 Y140.372 Z-6.333 I1.915 J0.000 F2500.000
G2 X108.918 Y140.372 Z-7.917 I-1.915 J0.000 F2500.000
G2 X112.748 Y140.372 Z-9.500 I1.915 J0.000 F2500.000
G2 X108.918 Y140.372 Z-11.083 I-1.915 J0.000 F2500.000
G2 X112.748 Y140.372 Z-12.667 I1.915 J0.000 F2500.000
G2 X108.918 Y140.372 Z-14.250 I-1.915 J0.000 F2500.000
G2 X112.748 Y140.372 Z-15.833 I1.915 J0.000 F2500.000
G2 X108.918 Y140.372 Z-17.417 I-1.915 J0.000 F2500.000
G2 X112.748 Y140.372 Z-19.000 I1.915 J0.000 F2500.000
G2 X108.918 Y140.372 Z-19.000 I-1.915 J0.000 F2500.000
G2 X112.748 Y140.372 Z-19.000 I1.915 J0.000 F2500.000
G0 Z3.000
G0 X112.748 Y181.372
G0 Z3.000
G1 Z0.000 F500.000
G2 X108.918 Y181.372 Z-1.583 I-1.915 J0.000 F2500.000
G2 X112.748 Y181.372 Z-3.167 I1.915 J0.000 F2500.000
G2 X108.918 Y181.372 Z-4.750 I-1.915 J0.000 F2500.000
G2 X112.748 Y181.372 Z-6.333 I1.915 J0.000 F2500.000
G2 X108.918 Y181.372 Z-7.917 I-1.915 J0.000 F2500.000
G2 X112.748 Y181.372 Z-9.500 I1.915 J0.000 F2500.000
G2 X108.918 Y181.372 Z-11.083 I-1.915 J0.000 F2500.000
G2 X112.748 Y181.372 Z-12.667 I1.915 J0.000 F2500.000
G2 X108.918 Y181.372 Z-14.250 I-1.915 J0.000 F2500.000
G2 X112.748 Y181.372 Z-15.833 I1.915 J0.000 F2500.000
G2 X108.918 Y181.372 Z-17.417 I-1.915 J0.000 F2500.000
G2 X112.748 Y181.372 Z-19.000 I1.915 J0.000 F2500.000
G2 X108.918 Y181.372 Z-19.000 I-1.915 J0.000 F2500.000
G2 X112.748 Y181.372 Z-19.000 I1.915 J0.000 F2500.000
G0 Z3.000
G0 X112.748 Y222.372
G0 Z3.000
G1 Z0.000 F500.000
G2 X108.918 Y222.372 Z-1.583 I-1.915 J0.000 F2500.000
G2 X112.748 Y222.372 Z-3.167 I1.915 J0.000 F2500.000
G2 X108.918 Y222.372 Z-4.750 I-1.915 J0.000 F2500.000
G2 X112.748 Y222.372 Z-6.333 I1.915 J0.000 F2500.000
G2 X108.918 Y222.372 Z-7.917 I-1.915 J0.000 F2500.000
G2 X112.748 Y222.372 Z-9.500 I1.915 J0.000 F2500.000
G2 X108.918 Y222.372 Z-11.083 I-1.915 J0.000 F2500.000
G2 X112.748 Y222.372 Z-12.667 I1.915 J0.000 F2500.000
G2 X108.918 Y222.372 Z-14.250 I-1.915 J0.000 F2500.000
G2 X112.748 Y222.372 Z-15.833 I1.915 J0.000 F2500.000
G2 X108.918 Y222.372 Z-17.417 I-1.915 J0.000 F2500.000
G2 X112.748 Y222.372 Z-19.000 I1.915 J0.000 F2500.000
G2 X108.918 Y222.372 Z-19.000 I-1.915 J0.000 F2500.000
G2 X112.748 Y222.372 Z-19.000 I1.915 J0.000 F2500.000
G0 Z3.000
G0 X112.748 Y263.372
G0 Z3.000
G1 Z0.000 F500.000
G2 X108.918 Y263.372 Z-1.583 I-1.915 J0.000 F2500.000
G2 X112.748 Y263.372 Z-3.167 I1.915 J0.000 F2500.000
G2 X108.918 Y263.372 Z-4.750 I-1.915 J0.000 F2500.000
G2 X112.748 Y263.372 Z-6.333 I1.915 J0.000 F2500.000
G2 X108.918 Y263.372 Z-7.917 I-1.915 J0.000 F2500.000
G2 X112.748 Y263.372 Z-9.500 I1.915 J0.000 F2500.000
G2 X108.918 Y263.372 Z-11.083 I-1.915 J0.000 F2500.000
G2 X112.748 Y263.372 Z-12.667 I1.915 J0.000 F2500.000
G2 X108.918 Y263.372 Z-14.250 I-1.915 J0.000 F2500.000
G2 X112.748 Y263.372 Z-15.833 I1.915 J0.000 F2500.000
G2 X108.918 Y263.372 Z-17.417 I-1.915 J0.000 F2500.000
G2 X112.748 Y263.372 Z-19.000 I1.915 J0.000 F2500.000
G2 X108.918 Y263.372 Z-19.000 I-1.915 J0.000 F2500.000
G2 X112.748 Y263.372 Z-19.000 I1.915 J0.000 F2500.000
G0 Z3.000
G0 X112.748 Y304.372
G0 Z3.000
G1 Z0.000 F500.000
G2 X108.918 Y304.372 Z-1.583 I-1.915 J0.000 F2500.000
G2 X112.748 Y304.372 Z-3.167 I1.915 J0.000 F2500.000
G2 X108.918 Y304.372 Z-4.750 I-1.915 J0.000 F2500.000
G2 X112.748 Y304.372 Z-6.333 I1.915 J0.000 F2500.000
G2 X108.918 Y304.372 Z-7.917 I-1.915 J0.000 F2500.000
G2 X112.748 Y304.372 Z-9.500 I1.915 J0.000 F2500.000
G2 X108.918 Y304.372 Z-11.083 I-1.915 J0.000 F2500.000
G2 X112.748 Y304.372 Z-12.667 I1.915 J0.000 F2500.000
G2 X108.918 Y304.372 Z-14.250 I-1.915 J0.000 F2500.000
G2 X112.748 Y304.372 Z-15.833 I1.915 J0.000 F2500.000
G2 X108.918 Y304.372 Z-17.417 I-1.915 J0.000 F2500.000
G2 X112.748 Y304.372 Z-19.000 I1.915 J0.000 F2500.000
G2 X108.918 Y304.372 Z-19.000 I-1.915 J0.000 F2500.000
G2 X112.748 Y304.372 Z-19.000 I1.915 J0.000 F2500.000
G0 Z3.000
G0 X112.748 Y345.372
G0 Z3.000
G1 Z0.000 F500.000
G2 X108.918 Y345.372 Z-1.583 I-1.915 J0.000 F2500.000
G2 X112.748 Y345.372 Z-3.167 I1.915 J0.000 F2500.000
G2 X108.918 Y345.372 Z-4.750 I-1.915 J0.000 F2500.000
G2 X112.748 Y345.372 Z-6.333 I1.915 J0.000 F2500.000
G2 X108.918 Y345.372 Z-7.917 I-1.915 J0.000 F2500.000
G2 X112.748 Y345.372 Z-9.500 I1.915 J0.000 F2500.000
G2 X108.918 Y345.372 Z-11.083 I-1.915 J0.000 F2500.000
G2 X112.748 Y345.372 Z-12.667 I1.915 J0.000 F2500.000
G2 X108.918 Y345.372 Z-14.250 I-1.915 J0.000 F2500.000
G2 X112.748 Y345.372 Z-15.833 I1.915 J0.000 F2500.000
G2 X108.918 Y345.372 Z-17.417 I-1.915 J0.000 F2500.000
G2 X112.748 Y345.372 Z-19.000 I1.915 J0.000 F2500.000
G2 X108.918 Y345.372 Z-19.000 I-1.915 J0.000 F2500.000
G2 X112.748 Y345.372 Z-19.000 I1.915 J0.000 F2500.000
G0 Z3.000
G0 X112.748 Y386.372
G0 Z3.000
G1 Z0.000 F500.000
G2 X108.918 Y386.372 Z-1.583 I-1.915 J0.000 F2500.000
G2 X112.748 Y386.372 Z-3.167 I1.915 J0.000 F2500.000
G2 X108.918 Y386.372 Z-4.750 I-1.915 J0.000 F2500.000
G2 X112.748 Y386.372 Z-6.333 I1.915 J0.000 F2500.000
G2 X108.918 Y386.372 Z-7.917 I-1.915 J0.000 F2500.000
G2 X112.748 Y386.372 Z-9.500 I1.915 J0.000 F2500.000
G2 X108.918 Y386.372 Z-11.083 I-1.915 J0.000 F2500.000
G2 X112.748 Y386.372 Z-12.667 I1.915 J0.000 F2500.000
G2 X108.918 Y386.372 Z-14.250 I-1.915 J0.000 F2500.000
G2 X112.748 Y386.372 Z-15.833 I1.915 J0.000 F2500.000
G2 X108.918 Y386.372 Z-17.417 I-1.915 J0.000 F2500.000
G2 X112.748 Y386.372 Z-19.000 I1.915 J0.000 F2500.000
G2 X108.918 Y386.372 Z-19.000 I-1.915 J0.000 F2500.000
G2 X112.748 Y386.372 Z-19.000 I1.915 J0.000 F2500.000
G0 Z3.000
G0 X112.748 Y427.372
G0 Z3.000
G1 Z0.000 F500.000
G2 X108.918 Y427.372 Z-1.583 I-1.915 J0.000 F2500.000
G2 X112.748 Y427.372 Z-3.167 I1.915 J0.000 F2500.000
G2 X108.918 Y427.372 Z-4.750 I-1.915 J0.000 F2500.000
G2 X112.748 Y427.372 Z-6.333 I1.915 J0.000 F2500.000
G2 X108.918 Y427.372 Z-7.917 I-1.915 J0.000 F2500.000
G2 X112.748 Y427.372 Z-9.500 I1.915 J0.000 F2500.000
G2 X108.918 Y427.372 Z-11.083 I-1.915 J0.000 F2500.000
G2 X112.748 Y427.372 Z-12.667 I1.915 J0.000 F2500.000
G2 X108.918 Y427.372 Z-14.250 I-1.915 J0.000 F2500.000
G2 X112.748 Y427.372 Z-15.833 I1.915 J0.000 F2500.000
G2 X108.918 Y427.372 Z-17.417 I-1.915 J0.000 F2500.000
G2 X112.748 Y427.372 Z-19.000 I1.915 J0.000 F2500.000
G2 X108.918 Y427.372 Z-19.000 I-1.915 J0.000 F2500.000
G2 X112.748 Y427.372 Z-19.000 I1.915 J0.000 F2500.000
G0 Z3.000
G0 X112.748 Y468.372
G0 Z3.000
G1 Z0.000 F500.000
G2 X108.918 Y468.372 Z-1.583 I-1.915 J0.000 F2500.000
G2 X112.748 Y468.372 Z-3.167 I1.915 J0.000 F2500.000
G2 X108.918 Y468.372 Z-4.750 I-1.915 J0.000 F2500.000
G2 X112.748 Y468.372 Z-6.333 I1.915 J0.000 F2500.000
G2 X108.918 Y468.372 Z-7.917 I-1.915 J0.000 F2500.000
G2 X112.748 Y468.372 Z-9.500 I1.915 J0.000 F2500.000
G2 X108.918 Y468.372 Z-11.083 I-1.915 J0.000 F2500.000
G2 X112.748 Y468.372 Z-12.667 I1.915 J0.000 F2500.000
G2 X108.918 Y468.372 Z-14.250 I-1.915 J0.000 F2500.000
G2 X112.748 Y468.372 Z-15.833 I1.915 J0.000 F2500.000
G2 X108.918 Y468.372 Z-17.417 I-1.915 J0.000 F2500.000
G2 X112.748 Y468.372 Z-19.000 I1.915 J0.000 F2500.000
G2 X108.918 Y468.372 Z-19.000 I-1.915 J0.000 F2500.000
G2 X112.748 Y468.372 Z-19.000 I1.915 J0.000 F2500.000
G0 Z3.000
G0 X112.748 Y509.372
G0 Z3.000
G1 Z0.000 F500.000
G2 X108.918 Y509.372 Z-1.583 I-1.915 J0.000 F2500.000
G2 X112.748 Y509.372 Z-3.167 I1.915 J0.000 F2500.000
G2 X108.918 Y509.372 Z-4.750 I-1.915 J0.000 F2500.000
G2 X112.748 Y509.372 Z-6.333 I1.915 J0.000 F2500.000
G2 X108.918 Y509.372 Z-7.917 I-1.915 J0.000 F2500.000
G2 X112.748 Y509.372 Z-9.500 I1.915 J0.000 F2500.000
G2 X108.918 Y509.372 Z-11.083 I-1.915 J0.000 F2500.000
G2 X112.748 Y509.372 Z-12.667 I1.915 J0.000 F2500.000
G2 X108.918 Y509.372 Z-14.250 I-1.915 J0.000 F2500.000
G2 X112.748 Y509.372 Z-15.833 I1.915 J0.000 F2500.000
G2 X108.918 Y509.372 Z-17.417 I-1.915 J0.000 F2500.000
G2 X112.748 Y509.372 Z-19.000 I1.915 J0.000 F2500.000
G2 X108.918 Y509.372 Z-19.000 I-1.915 J0.000 F2500.000
G2 X112.748 Y509.372 Z-19.000 I1.915 J0.000 F2500.000
G0 Z3.000
G0 X112.748 Y550.372
G0 Z3.000
G1 Z0.000 F500.000
G2 X108.918 Y550.372 Z-1.583 I-1.915 J0.000 F2500.000
G2 X112.748 Y550.372 Z-3.167 I1.915 J0.000 F2500.000
G2 X108.918 Y550.372 Z-4.750 I-1.915 J0.000 F2500.000
G2 X112.748 Y550.372 Z-6.333 I1.915 J0.000 F2500.000
G2 X108.918 Y550.372 Z-7.917 I-1.915 J0.000 F2500.000
G2 X112.748 Y550.372 Z-9.500 I1.915 J0.000 F2500.000
G2 X108.918 Y550.372 Z-11.083 I-1.915 J0.000 F2500.000
G2 X112.748 Y550.372 Z-12.667 I1.915 J0.000 F2500.000
G2 X108.918 Y550.372 Z-14.250 I-1.915 J0.000 F2500.000
G2 X112.748 Y550.372 Z-15.833 I1.915 J0.000 F2500.000
G2 X108.918 Y550.372 Z-17.417 I-1.915 J0.000 F2500.000
G2 X112.748 Y550.372 Z-19.000 I1.915 J0.000 F2500.000
G2 X108.918 Y550.372 Z-19.000 I-1.915 J0.000 F2500.000
G2 X112.748 Y550.372 Z-19.000 I1.915 J0.000 F2500.000
G0 Z3.000
G0 X112.748 Y591.372
G0 Z3.000
G1 Z0.000 F500.000
G2 X108.918 Y591.372 Z-1.583 I-1.915 J0.000 F2500.000
G2 X112.748 Y591.372 Z-3.167 I1.915 J0.000 F2500.000
G2 X108.918 Y591.372 Z-4.750 I-1.915 J0.000 F2500.000
G2 X112.748 Y591.372 Z-6.333 I1.915 J0.000 F2500.000
G2 X108.918 Y591.372 Z-7.917 I-1.915 J0.000 F2500.000
G2 X112.748 Y591.372 Z-9.500 I1.915 J0.000 F2500.000
G2 X108.918 Y591.372 Z-11.083 I-1.915 J0.000 F2500.000
G2 X112.748 Y591.372 Z-12.667 I1.915 J0.000 F2500.000
G2 X108.918 Y591.372 Z-14.250 I-1.915 J0.000 F2500.000
G2 X112.748 Y591.372 Z-15.833 I1.915 J0.000 F2500.000
G2 X108.918 Y591.372 Z-17.417 I-1.915 J0.000 F2500.000
G2 X112.748 Y591.372 Z-19.000 I1.915 J0.000 F2500.000
G2 X108.918 Y591.372 Z-19.000 I-1.915 J0.000 F2500.000
G2 X112.748 Y591.372 Z-19.000 I1.915 J0.000 F2500.000
G0 Z3.000
G0 X112.748 Y632.372
G0 Z3.000
G1 Z0.000 F500.000
G2 X108.918 Y632.372 Z-1.583 I-1.915 J0.000 F2500.000
G2 X112.748 Y632.372 Z-3.167 I1.915 J0.000 F2500.000
G2 X108.918 Y632.372 Z-4.750 I-1.915 J0.000 F2500.000
G2 X112.748 Y632.372 Z-6.333 I1.915 J0.000 F2500.000
G2 X108.918 Y632.372 Z-7.917 I-1.915 J0.000 F2500.000
G2 X112.748 Y632.372 Z-9.500 I1.915 J0.000 F2500.000
G2 X108.918 Y632.372 Z-11.083 I-1.915 J0.000 F2500.000
G2 X112.748 Y632.372 Z-12.667 I1.915 J0.000 F2500.000
G2 X108.918 Y632.372 Z-14.250 I-1.915 J0.000 F2500.000
G2 X112.748 Y632.372 Z-15.833 I1.915 J0.000 F2500.000
G2 X108.918 Y632.372 Z-17.417 I-1.915 J0.000 F2500.000
G2 X112.748 Y632.372 Z-19.000 I1.915 J0.000 F2500.000
G2 X108.918 Y632.372 Z-19.000 I-1.915 J0.000 F2500.000
G2 X112.748 Y632.372 Z-19.000 I1.915 J0.000 F2500.000
G0 Z3.000
G0 X159.415 Y632.372
G0 Z3.000
G1 Z0.000 F500.000
G2 X155.585 Y632.372 Z-1.583 I-1.915 J0.000 F2500.000
G2 X159.415 Y632.372 Z-3.167 I1.915 J0.000 F2500.000
G2 X155.585 Y632.372 Z-4.750 I-1.915 J0.000 F2500.000
G2 X159.415 Y632.372 Z-6.333 I1.915 J0.000 F2500.000
G2 X155.585 Y632.372 Z-7.917 I-1.915 J0.000 F2500.000
G2 X159.415 Y632.372 Z-9.500 I1.915 J0.000 F2500.000
G2 X155.585 Y632.372 Z-11.083 I-1.915 J0.000 F2500.000
G2 X159.415 Y632.372 Z-12.667 I1.915 J0.000 F2500.000
G2 X155.585 Y632.372 Z-14.250 I-1.915 J0.000 F2500.000
G2 X159.415 Y632.372 Z-15.833 I1.915 J0.000 F2500.000
G2 X155.585 Y632.372 Z-17.417 I-1.915 J0.000 F2500.000
G2 X159.415 Y632.372 Z-19.000 I1.915 J0.000 F2500.000
G2 X155.585 Y632.372 Z-19.000 I-1.915 J0.000 F2500.000
G2 X159.415 Y632.372 Z-19.000 I1.915 J0.000 F2500.000
G0 Z3.000
G0 X159.415 Y591.372
G0 Z3.000
G1 Z0.000 F500.000
G2 X155.585 Y591.372 Z-1.583 I-1.915 J0.000 F2500.000
G2 X159.415 Y591.372 Z-3.167 I1.915 J0.000 F2500.000
G2 X155.585 Y591.372 Z-4.750 I-1.915 J0.000 F2500.000
G2 X159.415 Y591.372 Z-6.333 I1.915 J0.000 F2500.000
G2 X155.585 Y591.372 Z-7.917 I-1.915 J0.000 F2500.000
G2 X159.415 Y591.372 Z-9.500 I1.915 J0.000 F2500.000
G2 X155.585 Y591.372 Z-11.083 I-1.915 J0.000 F2500.000
G2 X159.415 Y591.372 Z-12.667 I1.915 J0.000 F2500.000
G2 X155.585 Y591.372 Z-14.250 I-1.915 J0.000 F2500.000
G2 X159.415 Y591.372 Z-15.833 I1.915 J0.000 F2500.000
G2 X155.585 Y591.372 Z-17.417 I-1.915 J0.000 F2500.000
G2 X159.415 Y591.372 Z-19.000 I1.915 J0.000 F2500.000
G2 X155.585 Y591.372 Z-19.000 I-1.915 J0.000 F2500.000
G2 X159.415 Y591.372 Z-19.000 I1.915 J0.000 F2500.000
G0 Z3.000
G0 X159.415 Y550.372
G0 Z3.000
G1 Z0.000 F500.000
G2 X155.585 Y550.372 Z-1.583 I-1.915 J0.000 F2500.000
G2 X159.415 Y550.372 Z-3.167 I1.915 J0.000 F2500.000
G2 X155.585 Y550.372 Z-4.750 I-1.915 J0.000 F2500.000
G2 X159.415 Y550.372 Z-6.333 I1.915 J0.000 F2500.000
G2 X155.585 Y550.372 Z-7.917 I-1.915 J0.000 F2500.000
G2 X159.415 Y550.372 Z-9.500 I1.915 J0.000 F2500.000
G2 X155.585 Y550.372 Z-11.083 I-1.915 J0.000 F2500.000
G2 X159.415 Y550.372 Z-12.667 I1.915 J0.000 F2500.000
G2 X155.585 Y550.372 Z-14.250 I-1.915 J0.000 F2500.000
G2 X159.415 Y550.372 Z-15.833 I1.915 J0.000 F2500.000
G2 X155.585 Y550.372 Z-17.417 I-1.915 J0.000 F2500.000
G2 X159.415 Y550.372 Z-19.000 I1.915 J0.000 F2500.000
G2 X155.585 Y550.372 Z-19.000 I-1.915 J0.000 F2500.000
G2 X159.415 Y550.372 Z-19.000 I1.915 J0.000 F2500.000
G0 Z3.000
G0 X159.415 Y509.372
G0 Z3.000
G1 Z0.000 F500.000
G2 X155.585 Y509.372 Z-1.583 I-1.915 J0.000 F2500.000
G2 X159.415 Y509.372 Z-3.167 I1.915 J0.000 F2500.000
G2 X155.585 Y509.372 Z-4.750 I-1.915 J0.000 F2500.000
G2 X159.415 Y509.372 Z-6.333 I1.915 J0.000 F2500.000
G2 X155.585 Y509.372 Z-7.917 I-1.915 J0.000 F2500.000
G2 X159.415 Y509.372 Z-9.500 I1.915 J0.000 F2500.000
G2 X155.585 Y509.372 Z-11.083 I-1.915 J0.000 F2500.000
G2 X159.415 Y509.372 Z-12.667 I1.915 J0.000 F2500.000
G2 X155.585 Y509.372 Z-14.250 I-1.915 J0.000 F2500.000
G2 X159.415 Y509.372 Z-15.833 I1.915 J0.000 F2500.000
G2 X155.585 Y509.372 Z-17.417 I-1.915 J0.000 F2500.000
G2 X159.415 Y509.372 Z-19.000 I1.915 J0.000 F2500.000
G2 X155.585 Y509.372 Z-19.000 I-1.915 J0.000 F2500.000
G2 X159.415 Y509.372 Z-19.000 I1.915 J0.000 F2500.000
G0 Z3.000
G0 X159.415 Y468.372
G0 Z3.000
G1 Z0.000 F500.000
G2 X155.585 Y468.372 Z-1.583 I-1.915 J0.000 F2500.000
G2 X159.415 Y468.372 Z-3.167 I1.915 J0.000 F2500.000
G2 X155.585 Y468.372 Z-4.750 I-1.915 J0.000 F2500.000
G2 X159.415 Y468.372 Z-6.333 I1.915 J0.000 F2500.000
G2 X155.585 Y468.372 Z-7.917 I-1.915 J0.000 F2500.000
G2 X159.415 Y468.372 Z-9.500 I1.915 J0.000 F2500.000
G2 X155.585 Y468.372 Z-11.083 I-1.915 J0.000 F2500.000
G2 X159.415 Y468.372 Z-12.667 I1.915 J0.000 F2500.000
G2 X155.585 Y468.372 Z-14.250 I-1.915 J0.000 F2500.000
G2 X159.415 Y468.372 Z-15.833 I1.915 J0.000 F2500.000
G2 X155.585 Y468.372 Z-17.417 I-1.915 J0.000 F2500.000
G2 X159.415 Y468.372 Z-19.000 I1.915 J0.000 F2500.000
G2 X155.585 Y468.372 Z-19.000 I-1.915 J0.000 F2500.000
G2 X159.415 Y468.372 Z-19.000 I1.915 J0.000 F2500.000
G0 Z3.000
G0 X159.415 Y427.372
G0 Z3.000
G1 Z0.000 F500.000
G2 X155.585 Y427.372 Z-1.583 I-1.915 J0.000 F2500.000
G2 X159.415 Y427.372 Z-3.167 I1.915 J0.000 F2500.000
G2 X155.585 Y427.372 Z-4.750 I-1.915 J0.000 F2500.000
G2 X159.415 Y427.372 Z-6.333 I1.915 J0.000 F2500.000
G2 X155.585 Y427.372 Z-7.917 I-1.915 J0.000 F2500.000
G2 X159.415 Y427.372 Z-9.500 I1.915 J0.000 F2500.000
G2 X155.585 Y427.372 Z-11.083 I-1.915 J0.000 F2500.000
G2 X159.415 Y427.372 Z-12.667 I1.915 J0.000 F2500.000
G2 X155.585 Y427.372 Z-14.250 I-1.915 J0.000 F2500.000
G2 X159.415 Y427.372 Z-15.833 I1.915 J0.000 F2500.000
G2 X155.585 Y427.372 Z-17.417 I-1.915 J0.000 F2500.000
G2 X159.415 Y427.372 Z-19.000 I1.915 J0.000 F2500.000
G2 X155.585 Y427.372 Z-19.000 I-1.915 J0.000 F2500.000
G2 X159.415 Y427.372 Z-19.000 I1.915 J0.000 F2500.000
G0 Z3.000
G0 X159.415 Y386.372
G0 Z3.000
G1 Z0.000 F500.000
G2 X155.585 Y386.372 Z-1.583 I-1.915 J0.000 F2500.000
G2 X159.415 Y386.372 Z-3.167 I1.915 J0.000 F2500.000
G2 X155.585 Y386.372 Z-4.750 I-1.915 J0.000 F2500.000
G2 X159.415 Y386.372 Z-6.333 I1.915 J0.000 F2500.000
G2 X155.585 Y386.372 Z-7.917 I-1.915 J0.000 F2500.000
G2 X159.415 Y386.372 Z-9.500 I1.915 J0.000 F2500.000
G2 X155.585 Y386.372 Z-11.083 I-1.915 J0.000 F2500.000
G2 X159.415 Y386.372 Z-12.667 I1.915 J0.000 F2500.000
G2 X155.585 Y386.372 Z-14.250 I-1.915 J0.000 F2500.000
G2 X159.415 Y386.372 Z-15.833 I1.915 J0.000 F2500.000
G2 X155.585 Y386.372 Z-17.417 I-1.915 J0.000 F2500.000
G2 X159.415 Y386.372 Z-19.000 I1.915 J0.000 F2500.000
G2 X155.585 Y386.372 Z-19.000 I-1.915 J0.000 F2500.000
G2 X159.415 Y386.372 Z-19.000 I1.915 J0.000 F2500.000
G0 Z3.000
G0 X159.415 Y345.372
G0 Z3.000
G1 Z0.000 F500.000
G2 X155.585 Y345.372 Z-1.583 I-1.915 J0.000 F2500.000
G2 X159.415 Y345.372 Z-3.167 I1.915 J0.000 F2500.000
G2 X155.585 Y345.372 Z-4.750 I-1.915 J0.000 F2500.000
G2 X159.415 Y345.372 Z-6.333 I1.915 J0.000 F2500.000
G2 X155.585 Y345.372 Z-7.917 I-1.915 J0.000 F2500.000
G2 X159.415 Y345.372 Z-9.500 I1.915 J0.000 F2500.000
G2 X155.585 Y345.372 Z-11.083 I-1.915 J0.000 F2500.000
G2 X159.415 Y345.372 Z-12.667 I1.915 J0.000 F2500.000
G2 X155.585 Y345.372 Z-14.250 I-1.915 J0.000 F2500.000
G2 X159.415 Y345.372 Z-15.833 I1.915 J0.000 F2500.000
G2 X155.585 Y345.372 Z-17.417 I-1.915 J0.000 F2500.000
G2 X159.415 Y345.372 Z-19.000 I1.915 J0.000 F2500.000
G2 X155.585 Y345.372 Z-19.000 I-1.915 J0.000 F2500.000
G2 X159.415 Y345.372 Z-19.000 I1.915 J0.000 F2500.000
G0 Z3.000
G0 X159.415 Y304.372
G0 Z3.000
G1 Z0.000 F500.000
G2 X155.585 Y304.372 Z-1.583 I-1.915 J0.000 F2500.000
G2 X159.415 Y304.372 Z-3.167 I1.915 J0.000 F2500.000
G2 X155.585 Y304.372 Z-4.750 I-1.915 J0.000 F2500.000
G2 X159.415 Y304.372 Z-6.333 I1.915 J0.000 F2500.000
G2 X155.585 Y304.372 Z-7.917 I-1.915 J0.000 F2500.000
G2 X159.415 Y304.372 Z-9.500 I1.915 J0.000 F2500.000
G2 X155.585 Y304.372 Z-11.083 I-1.915 J0.000 F2500.000
G2 X159.415 Y304.372 Z-12.667 I1.915 J0.000 F2500.000
G2 X155.585 Y304.372 Z-14.250 I-1.915 J0.000 F2500.000
G2 X159.415 Y304.372 Z-15.833 I1.915 J0.000 F2500.000
G2 X155.585 Y304.372 Z-17.417 I-1.915 J0.000 F2500.000
G2 X159.415 Y304.372 Z-19.000 I1.915 J0.000 F2500.000
G2 X155.585 Y304.372 Z-19.000 I-1.915 J0.000 F2500.000
G2 X159.415 Y304.372 Z-19.000 I1.915 J0.000 F2500.000
G0 Z3.000
G0 X159.415 Y263.372
G0 Z3.000
G1 Z0.000 F500.000
G2 X155.585 Y263.372 Z-1.583 I-1.915 J0.000 F2500.000
G2 X159.415 Y263.372 Z-3.167 I1.915 J0.000 F2500.000
G2 X155.585 Y263.372 Z-4.750 I-1.915 J0.000 F2500.000
G2 X159.415 Y263.372 Z-6.333 I1.915 J0.000 F2500.000
G2 X155.585 Y263.372 Z-7.917 I-1.915 J0.000 F2500.000
G2 X159.415 Y263.372 Z-9.500 I1.915 J0.000 F2500.000
G2 X155.585 Y263.372 Z-11.083 I-1.915 J0.000 F2500.000
G2 X159.415 Y263.372 Z-12.667 I1.915 J0.000 F2500.000
G2 X155.585 Y263.372 Z-14.250 I-1.915 J0.000 F2500.000
G2 X159.415 Y263.372 Z-15.833 I1.915 J0.000 F2500.000
G2 X155.585 Y263.372 Z-17.417 I-1.915 J0.000 F2500.000
G2 X159.415 Y263.372 Z-19.000 I1.915 J0.000 F2500.000
G2 X155.585 Y263.372 Z-19.000 I-1.915 J0.000 F2500.000
G2 X159.415 Y263.372 Z-19.000 I1.915 J0.000 F2500.000
G0 Z3.000
G0 X159.415 Y222.372
G0 Z3.000
G1 Z0.000 F500.000
G2 X155.585 Y222.372 Z-1.583 I-1.915 J0.000 F2500.000
G2 X159.415 Y222.372 Z-3.167 I1.915 J0.000 F2500.000
G2 X155.585 Y222.372 Z-4.750 I-1.915 J0.000 F2500.000
G2 X159.415 Y222.372 Z-6.333 I1.915 J0.000 F2500.000
G2 X155.585 Y222.372 Z-7.917 I-1.915 J0.000 F2500.000
G2 X159.415 Y222.372 Z-9.500 I1.915 J0.000 F2500.000
G2 X155.585 Y222.372 Z-11.083 I-1.915 J0.000 F2500.000
G2 X159.415 Y222.372 Z-12.667 I1.915 J0.000 F2500.000
G2 X155.585 Y222.372 Z-14.250 I-1.915 J0.000 F2500.000
G2 X159.415 Y222.372 Z-15.833 I1.915 J0.000 F2500.000
G2 X155.585 Y222.372 Z-17.417 I-1.915 J0.000 F2500.000
G2 X159.415 Y222.372 Z-19.000 I1.915 J0.000 F2500.000
G2 X155.585 Y222.372 Z-19.000 I-1.915 J0.000 F2500.000
G2 X159.415 Y222.372 Z-19.000 I1.915 J0.000 F2500.000
G0 Z3.000
G0 X159.415 Y181.372
G0 Z3.000
G1 Z0.000 F500.000
G2 X155.585 Y181.372 Z-1.583 I-1.915 J0.000 F2500.000
G2 X159.415 Y181.372 Z-3.167 I1.915 J0.000 F2500.000
G2 X155.585 Y181.372 Z-4.750 I-1.915 J0.000 F2500.000
G2 X159.415 Y181.372 Z-6.333 I1.915 J0.000 F2500.000
G2 X155.585 Y181.372 Z-7.917 I-1.915 J0.000 F2500.000
G2 X159.415 Y181.372 Z-9.500 I1.915 J0.000 F2500.000
G2 X155.585 Y181.372 Z-11.083 I-1.915 J0.000 F2500.000
G2 X159.415 Y181.372 Z-12.667 I1.915 J0.000 F2500.000
G2 X155.585 Y181.372 Z-14.250 I-1.915 J0.000 F2500.000
G2 X159.415 Y181.372 Z-15.833 I1.915 J0.000 F2500.000
G2 X155.585 Y181.372 Z-17.417 I-1.915 J0.000 F2500.000
G2 X159.415 Y181.372 Z-19.000 I1.915 J0.000 F2500.000
G2 X155.585 Y181.372 Z-19.000 I-1.915 J0.000 F2500.000
G2 X159.415 Y181.372 Z-19.000 I1.915 J0.000 F2500.000
G0 Z3.000
G0 X159.415 Y140.372
G0 Z3.000
G1 Z0.000 F500.000
G2 X155.585 Y140.372 Z-1.583 I-1.915 J0.000 F2500.000
G2 X159.415 Y140.372 Z-3.167 I1.915 J0.000 F2500.000
G2 X155.585 Y140.372 Z-4.750 I-1.915 J0.000 F2500.000
G2 X159.415 Y140.372 Z-6.333 I1.915 J0.000 F2500.000
G2 X155.585 Y140.372 Z-7.917 I-1.915 J0.000 F2500.000
G2 X159.415 Y140.372 Z-9.500 I1.915 J0.000 F2500.000
G2 X155.585 Y140.372 Z-11.083 I-1.915 J0.000 F2500.000
G2 X159.415 Y140.372 Z-12.667 I1.915 J0.000 F2500.000
G2 X155.585 Y140.372 Z-14.250 I-1.915 J0.000 F2500.000
G2 X159.415 Y140.372 Z-15.833 I1.915 J0.000 F2500.000
G2 X155.585 Y140.372 Z-17.417 I-1.915 J0.000 F2500.000
G2 X159.415 Y140.372 Z-19.000 I1.915 J0.000 F2500.000
G2 X155.585 Y140.372 Z-19.000 I-1.915 J0.000 F2500.000
G2 X159.415 Y140.372 Z-19.000 I1.915 J0.000 F2500.000
G0 Z3.000
G0 X159.415 Y99.372
G0 Z3.000
G1 Z0.000 F500.000
G2 X155.585 Y99.372 Z-1.583 I-1.915 J0.000 F2500.000
G2 X159.415 Y99.372 Z-3.167 I1.915 J0.000 F2500.000
G2 X155.585 Y99.372 Z-4.750 I-1.915 J0.000 F2500.000
G2 X159.415 Y99.372 Z-6.333 I1.915 J0.000 F2500.000
G2 X155.585 Y99.372 Z-7.917 I-1.915 J0.000 F2500.000
G2 X159.415 Y99.372 Z-9.500 I1.915 J0.000 F2500.000
G2 X155.585 Y99.372 Z-11.083 I-1.915 J0.000 F2500.000
G2 X159.415 Y99.372 Z-12.667 I1.915 J0.000 F2500.000
G2 X155.585 Y99.372 Z-14.250 I-1.915 J0.000 F2500.000
G2 X159.415 Y99.372 Z-15.833 I1.915 J0.000 F2500.000
G2 X155.585 Y99.372 Z-17.417 I-1.915 J0.000 F2500.000
G2 X159.415 Y99.372 Z-19.000 I1.915 J0.000 F2500.000
G2 X155.585 Y99.372 Z-19.000 I-1.915 J0.000 F2500.000
G2 X159.415 Y99.372 Z-19.000 I1.915 J0.000 F2500.000
G0 Z3.000
G0 X159.415 Y58.372
G0 Z3.000
G1 Z0.000 F500.000
G2 X155.585 Y58.372 Z-1.583 I-1.915 J0.000 F2500.000
G2 X159.415 Y58.372 Z-3.167 I1.915 J0.000 F2500.000
G2 X155.585 Y58.372 Z-4.750 I-1.915 J0.000 F2500.000
G2 X159.415 Y58.372 Z-6.333 I1.915 J0.000 F2500.000
G2 X155.585 Y58.372 Z-7.917 I-1.915 J0.000 F2500.000
G2 X159.415 Y58.372 Z-9.500 I1.915 J0.000 F2500.000
G2 X155.585 Y58.372 Z-11.083 I-1.915 J0.000 F2500.000
G2 X159.415 Y58.372 Z-12.667 I1.915 J0.000 F2500.000
G2 X155.585 Y58.372 Z-14.250 I-1.915 J0.000 F2500.000
G2 X159.415 Y58.372 Z-15.833 I1.915 J0.000 F2500.000
G2 X155.585 Y58.372 Z-17.417 I-1.915 J0.000 F2500.000
G2 X159.415 Y58.372 Z-19.000 I1.915 J0.000 F2500.000
G2 X155.585 Y58.372 Z-19.000 I-1.915 J0.000 F2500.000
G2 X159.415 Y58.372 Z-19.000 I1.915 J0.000 F2500.000
G0 Z3.000
G0 X159.415 Y17.372
G0 Z3.000
G1 Z0.000 F500.000
G2 X155.585 Y17.372 Z-1.583 I-1.915 J0.000 F2500.000
G2 X159.415 Y17.372 Z-3.167 I1.915 J0.000 F2500.000
G2 X155.585 Y17.372 Z-4.750 I-1.915 J0.000 F2500.000
G2 X159.415 Y17.372 Z-6.333 I1.915 J0.000 F2500.000
G2 X155.585 Y17.372 Z-7.917 I-1.915 J0.000 F2500.000
G2 X159.415 Y17.372 Z-9.500 I1.915 J0.000 F2500.000
G2 X155.585 Y17.372 Z-11.083 I-1.915 J0.000 F2500.000
G2 X159.415 Y17.372 Z-12.667 I1.915 J0.000 F2500.000
G2 X155.585 Y17.372 Z-14.250 I-1.915 J0.000 F2500.000
G2 X159.415 Y17.372 Z-15.833 I1.915 J0.000 F2500.000
G2 X155.585 Y17.372 Z-17.417 I-1.915 J0.000 F2500.000
G2 X159.415 Y17.372 Z-19.000 I1.915 J0.000 F2500.000
G2 X155.585 Y17.372 Z-19.000 I-1.915 J0.000 F2500.000
G2 X159.415 Y17.372 Z-19.000 I1.915 J0.000 F2500.000
G0 Z3.000
G0 Z5.000
(Finish operation: Helix)
(Begin postamble)
M5
G17 G90
M2
