(Exported by FreeCAD)
(Post Processor: grbl_post)
(Output Time:2023-03-05 18:02:27.207249)
(Begin preamble)
G17 G90
G21
(Begin operation: Fixture)
(Path: Fixture)
G54
G0 Z5.000
(Finish operation: Fixture)
(Begin operation: 3.175 Z1 UP Helicoidale004)
(Path: 3.175 Z1 UP Helicoidale004)
(3.175 Z1 UP Helicoidale004)
(Begin toolchange)
( M6 T2.0 )
M3 S24000.0
(Finish operation: 3.175 Z1 UP Helicoidale004)
(Begin operation: Profile)
(Path: Profile)
(Profile)
(Compensated Tool Path. Diameter: 3.17)
G0 Z5.000
G0 X170.995 Y645.867
G0 Z3.000
G1 X170.995 Y645.867 Z-6.170 F500.000
G2 X159.435 Y613.387 Z-6.170 I-13.495 J-13.495 K0.000 F2500.000
G2 X155.537 Y651.355 Z-6.170 I-1.935 J18.986 K0.000 F2500.000
G2 X170.995 Y645.867 Z-6.170 I1.963 J-18.983 K0.000 F2500.000
G0 Z5.000
G0 X162.087 Y609.897 Z5.000
G0 X162.087 Y609.897 Z3.000
G1 X162.087 Y609.897 Z-6.170 F500.000
G2 X159.435 Y572.387 Z-6.170 I-4.587 J-18.525 K0.000 F2500.000
G2 X155.537 Y610.355 Z-6.170 I-1.935 J18.986 K0.000 F2500.000
G2 X162.087 Y609.897 Z-6.170 I1.963 J-18.983 K0.000 F2500.000
G0 Z5.000
G0 X128.781 Y597.859 Z5.000
G0 X128.781 Y597.859 Z3.000
G1 X128.781 Y597.859 Z-6.170 F500.000
G2 X112.769 Y572.387 Z-6.170 I-17.948 J-6.487 K0.000 F2500.000
G2 X91.848 Y589.437 Z-6.170 I-1.935 J18.986 K0.000 F2500.000
G2 X108.898 Y610.358 Z-6.170 I18.986 J1.935 K0.000 F2500.000
G2 X128.781 Y597.859 Z-6.170 I1.935 J-18.986 K0.000 F2500.000
G0 Z5.000
G0 X119.638 Y615.441 Z5.000
G0 X119.638 Y615.441 Z3.000
G1 X119.638 Y615.441 Z-6.170 F500.000
G2 X112.769 Y613.387 Z-6.170 I-8.805 J16.932 K0.000 F2500.000
G2 X91.848 Y630.437 Z-6.170 I-1.935 J18.986 K0.000 F2500.000
G2 X108.898 Y651.358 Z-6.170 I18.986 J1.935 K0.000 F2500.000
G2 X119.638 Y615.441 Z-6.170 I1.935 J-18.986 K0.000 F2500.000
G0 Z5.000
G0 X82.420 Y626.801 Z5.000
G0 X82.420 Y626.801 Z3.000
G1 X82.420 Y626.801 Z-6.170 F500.000
G2 X66.102 Y613.387 Z-6.170 I-18.253 J5.571 K0.000 F2500.000
G2 X62.231 Y651.358 Z-6.170 I-1.935 J18.986 K0.000 F2500.000
G2 X82.420 Y626.801 Z-6.170 I1.935 J-18.986 K0.000 F2500.000
G0 Z5.000
G0 X72.907 Y608.337 Z5.000
G0 X72.907 Y608.337 Z3.000
G1 X72.907 Y608.337 Z-6.170 F500.000
G2 X66.102 Y572.387 Z-6.170 I-8.740 J-16.965 K0.000 F2500.000
G2 X62.231 Y610.358 Z-6.170 I-1.935 J18.986 K0.000 F2500.000
G2 X72.907 Y608.337 Z-6.170 I1.935 J-18.986 K0.000 F2500.000
G0 Z5.000
G0 X35.748 Y596.960 Z5.000
G0 X35.748 Y596.960 Z3.000
G1 X35.748 Y596.960 Z-6.170 F500.000
G2 X19.435 Y572.387 Z-6.170 I-18.248 J-5.587 K0.000 F2500.000
G2 X15.565 Y610.358 Z-6.170 I-1.935 J18.986 K0.000 F2500.000
G2 X35.748 Y596.960 Z-6.170 I1.935 J-18.986 K0.000 F2500.000
G0 Z5.000
G0 X26.242 Y615.408 Z5.000
G0 X26.242 Y615.408 Z3.000
G1 X26.242 Y615.408 Z-6.170 F500.000
G2 X19.435 Y613.387 Z-6.170 I-8.742 J16.964 K0.000 F2500.000
G2 X15.565 Y651.358 Z-6.170 I-1.935 J18.986 K0.000 F2500.000
G2 X26.242 Y615.408 Z-6.170 I1.935 J-18.986 K0.000 F2500.000
G0 Z5.000
G0 X20.042 Y569.287 Z5.000
G0 X20.042 Y569.287 Z3.000
G1 X20.042 Y569.287 Z-6.170 F500.000
G2 X19.435 Y531.387 Z-6.170 I-2.542 J-18.914 K0.000 F2500.000
G2 X-1.486 Y548.437 Z-6.170 I-1.935 J18.986 K0.000 F2500.000
G2 X15.565 Y569.358 Z-6.170 I18.986 J1.935 K0.000 F2500.000
G2 X20.042 Y569.287 Z-6.170 I1.935 J-18.986 K0.000 F2500.000
G0 Z5.000
G0 X46.626 Y557.891 Z5.000
G0 X46.626 Y557.891 Z3.000
G1 X46.626 Y557.891 Z-6.170 F500.000
G2 X62.231 Y569.358 Z-6.170 I17.541 J-7.519 K0.000 F2500.000
G2 X66.102 Y531.387 Z-6.170 I1.935 J-18.986 K0.000 F2500.000
G2 X46.626 Y557.891 Z-6.170 I-1.935 J18.986 K0.000 F2500.000
G0 Z5.000
G0 X57.678 Y527.320 Z5.000
G0 X57.678 Y527.320 Z3.000
G1 X57.678 Y527.320 Z-6.170 F500.000
G2 X62.231 Y528.358 Z-6.170 I6.488 J-17.947 K0.000 F2500.000
G2 X66.102 Y490.387 Z-6.170 I1.935 J-18.986 K0.000 F2500.000
G2 X57.678 Y527.320 Z-6.170 I-1.935 J18.986 K0.000 F2500.000
G0 Z5.000
G0 X34.925 Y517.156 Z5.000
G0 X34.925 Y517.156 Z3.000
G1 X34.925 Y517.156 Z-6.170 F500.000
G2 X19.435 Y490.387 Z-6.170 I-17.425 J-7.784 K0.000 F2500.000
G2 X-1.486 Y507.437 Z-6.170 I-1.935 J18.986 K0.000 F2500.000
G2 X15.565 Y528.358 Z-6.170 I18.986 J1.935 K0.000 F2500.000
G2 X34.925 Y517.156 Z-6.170 I1.935 J-18.986 K0.000 F2500.000
G0 Z5.000
G0 X23.919 Y486.345 Z5.000
G0 X23.919 Y486.345 Z3.000
G1 X23.919 Y486.345 Z-6.170 F500.000
G2 X19.435 Y449.387 Z-6.170 I-6.419 J-17.972 K0.000 F2500.000
G2 X-1.486 Y466.437 Z-6.170 I-1.935 J18.986 K0.000 F2500.000
G2 X15.565 Y487.358 Z-6.170 I18.986 J1.935 K0.000 F2500.000
G2 X23.919 Y486.345 Z-6.170 I1.935 J-18.986 K0.000 F2500.000
G0 Z5.000
G0 X46.741 Y476.154 Z5.000
G0 X46.741 Y476.154 Z3.000
G1 X46.741 Y476.154 Z-6.170 F500.000
G2 X62.231 Y487.358 Z-6.170 I17.426 J-7.781 K0.000 F2500.000
G2 X83.152 Y470.308 Z-6.170 I1.935 J-18.986 K0.000 F2500.000
G2 X66.102 Y449.387 Z-6.170 I-18.986 J-1.935 K0.000 F2500.000
G2 X46.741 Y476.154 Z-6.170 I-1.935 J18.986 K0.000 F2500.000
G0 Z5.000
G0 X57.747 Y445.344 Z5.000
G0 X57.747 Y445.344 Z3.000
G1 X57.747 Y445.344 Z-6.170 F500.000
G2 X62.231 Y446.358 Z-6.170 I6.420 J-17.972 K0.000 F2500.000
G2 X66.102 Y408.387 Z-6.170 I1.935 J-18.986 K0.000 F2500.000
G2 X57.747 Y445.344 Z-6.170 I-1.935 J18.986 K0.000 F2500.000
G0 Z5.000
G0 X34.926 Y435.154 Z5.000
G0 X34.926 Y435.154 Z3.000
G1 X34.926 Y435.154 Z-6.170 F500.000
G2 X19.435 Y408.387 Z-6.170 I-17.426 J-7.781 K0.000 F2500.000
G2 X-1.486 Y425.437 Z-6.170 I-1.935 J18.986 K0.000 F2500.000
G2 X15.565 Y446.358 Z-6.170 I18.986 J1.935 K0.000 F2500.000
G2 X34.926 Y435.154 Z-6.170 I1.935 J-18.986 K0.000 F2500.000
G0 Z5.000
G0 X23.920 Y404.344 Z5.000
G0 X23.920 Y404.344 Z3.000
G1 X23.920 Y404.344 Z-6.170 F500.000
G2 X19.435 Y367.387 Z-6.170 I-6.420 J-17.972 K0.000 F2500.000
G2 X15.565 Y405.358 Z-6.170 I-1.935 J18.986 K0.000 F2500.000
G2 X23.920 Y404.344 Z-6.170 I1.935 J-18.986 K0.000 F2500.000
G0 Z5.000
G0 X46.741 Y394.154 Z5.000
G0 X46.741 Y394.154 Z3.000
G1 X46.741 Y394.154 Z-6.170 F500.000
G2 X62.231 Y405.358 Z-6.170 I17.426 J-7.781 K0.000 F2500.000
G2 X83.152 Y388.308 Z-6.170 I1.935 J-18.986 K0.000 F2500.000
G2 X66.102 Y367.387 Z-6.170 I-18.986 J-1.935 K0.000 F2500.000
G2 X46.741 Y394.154 Z-6.170 I-1.935 J18.986 K0.000 F2500.000
G0 Z5.000
G0 X57.747 Y363.344 Z5.000
G0 X57.747 Y363.344 Z3.000
G1 X57.747 Y363.344 Z-6.170 F500.000
G2 X62.204 Y364.355 Z-6.170 I6.420 J-17.972 K0.000 F2500.000
G2 X83.151 Y347.322 Z-6.170 I1.963 J-18.983 K0.000 F2500.000
G2 X66.102 Y326.387 Z-6.170 I-18.984 J-1.949 K0.000 F2500.000
G2 X57.747 Y363.344 Z-6.170 I-1.935 J18.986 K0.000 F2500.000
G0 Z5.000
G0 X34.926 Y353.154 Z5.000
G0 X34.926 Y353.154 Z3.000
G1 X34.926 Y353.154 Z-6.170 F500.000
G2 X19.463 Y326.389 Z-6.170 I-17.426 J-7.781 K0.000 F2500.000
G2 X-1.483 Y343.409 Z-6.170 I-1.963 J18.983 K0.000 F2500.000
G2 X15.537 Y364.355 Z-6.170 I18.983 J1.963 K0.000 F2500.000
G2 X34.926 Y353.154 Z-6.170 I1.963 J-18.983 K0.000 F2500.000
G0 Z5.000
G0 X23.920 Y322.344 Z5.000
G0 X23.920 Y322.344 Z3.000
G1 X23.920 Y322.344 Z-6.170 F500.000
G2 X19.463 Y285.389 Z-6.170 I-6.420 J-17.972 K0.000 F2500.000
G2 X-1.484 Y302.423 Z-6.170 I-1.963 J18.983 K0.000 F2500.000
G2 X15.565 Y323.358 Z-6.170 I18.984 J1.949 K0.000 F2500.000
G2 X23.920 Y322.344 Z-6.170 I1.935 J-18.986 K0.000 F2500.000
G0 Z5.000
G0 X46.741 Y312.154 Z5.000
G0 X46.741 Y312.154 Z3.000
G1 X46.741 Y312.154 Z-6.170 F500.000
G2 X62.204 Y323.355 Z-6.170 I17.426 J-7.781 K0.000 F2500.000
G2 X83.151 Y306.322 Z-6.170 I1.963 J-18.983 K0.000 F2500.000
G2 X66.102 Y285.387 Z-6.170 I-18.984 J-1.949 K0.000 F2500.000
G2 X46.741 Y312.154 Z-6.170 I-1.935 J18.986 K0.000 F2500.000
G0 Z5.000
G0 X57.747 Y281.344 Z5.000
G0 X57.747 Y281.344 Z3.000
G1 X57.747 Y281.344 Z-6.170 F500.000
G2 X62.231 Y282.358 Z-6.170 I6.420 J-17.972 K0.000 F2500.000
G2 X66.102 Y244.387 Z-6.170 I1.935 J-18.986 K0.000 F2500.000
G2 X57.747 Y281.344 Z-6.170 I-1.935 J18.986 K0.000 F2500.000
G0 Z5.000
G0 X34.926 Y271.154 Z5.000
G0 X34.926 Y271.154 Z3.000
G1 X34.926 Y271.154 Z-6.170 F500.000
G2 X19.463 Y244.389 Z-6.170 I-17.426 J-7.781 K0.000 F2500.000
G2 X-1.484 Y261.423 Z-6.170 I-1.963 J18.983 K0.000 F2500.000
G2 X15.565 Y282.358 Z-6.170 I18.984 J1.949 K0.000 F2500.000
G2 X34.926 Y271.154 Z-6.170 I1.935 J-18.986 K0.000 F2500.000
G0 Z5.000
G0 X23.920 Y240.344 Z5.000
G0 X23.920 Y240.344 Z3.000
G1 X23.920 Y240.344 Z-6.170 F500.000
G2 X19.463 Y203.389 Z-6.170 I-6.420 J-17.972 K0.000 F2500.000
G2 X-1.484 Y220.423 Z-6.170 I-1.963 J18.983 K0.000 F2500.000
G2 X15.565 Y241.358 Z-6.170 I18.984 J1.949 K0.000 F2500.000
G2 X23.920 Y240.344 Z-6.170 I1.935 J-18.986 K0.000 F2500.000
G0 Z5.000
G0 X46.741 Y230.154 Z5.000
G0 X46.741 Y230.154 Z3.000
G1 X46.741 Y230.154 Z-6.170 F500.000
G2 X62.231 Y241.358 Z-6.170 I17.426 J-7.781 K0.000 F2500.000
G2 X83.152 Y224.308 Z-6.170 I1.935 J-18.986 K0.000 F2500.000
G2 X66.102 Y203.387 Z-6.170 I-18.986 J-1.935 K0.000 F2500.000
G2 X46.741 Y230.154 Z-6.170 I-1.935 J18.986 K0.000 F2500.000
G0 Z5.000
G0 X57.747 Y199.344 Z5.000
G0 X57.747 Y199.344 Z3.000
G1 X57.747 Y199.344 Z-6.170 F500.000
G2 X62.231 Y200.358 Z-6.170 I6.420 J-17.972 K0.000 F2500.000
G2 X83.152 Y183.308 Z-6.170 I1.935 J-18.986 K0.000 F2500.000
G2 X66.102 Y162.387 Z-6.170 I-18.986 J-1.935 K0.000 F2500.000
G2 X57.747 Y199.344 Z-6.170 I-1.935 J18.986 K0.000 F2500.000
G0 Z5.000
G0 X34.926 Y189.154 Z5.000
G0 X34.926 Y189.154 Z3.000
G1 X34.926 Y189.154 Z-6.170 F500.000
G2 X19.463 Y162.389 Z-6.170 I-17.426 J-7.781 K0.000 F2500.000
G2 X-1.484 Y179.423 Z-6.170 I-1.963 J18.983 K0.000 F2500.000
G2 X15.565 Y200.358 Z-6.170 I18.984 J1.949 K0.000 F2500.000
G2 X34.926 Y189.154 Z-6.170 I1.935 J-18.986 K0.000 F2500.000
G0 Z5.000
G0 X23.920 Y158.344 Z5.000
G0 X23.920 Y158.344 Z3.000
G1 X23.920 Y158.344 Z-6.170 F500.000
G2 X19.463 Y121.389 Z-6.170 I-6.420 J-17.972 K0.000 F2500.000
G2 X-1.484 Y138.423 Z-6.170 I-1.963 J18.983 K0.000 F2500.000
G2 X15.565 Y159.358 Z-6.170 I18.984 J1.949 K0.000 F2500.000
G2 X23.920 Y158.344 Z-6.170 I1.935 J-18.986 K0.000 F2500.000
G0 Z5.000
G0 X46.741 Y148.154 Z5.000
G0 X46.741 Y148.154 Z3.000
G1 X46.741 Y148.154 Z-6.170 F500.000
G2 X62.231 Y159.358 Z-6.170 I17.426 J-7.781 K0.000 F2500.000
G2 X83.152 Y142.308 Z-6.170 I1.935 J-18.986 K0.000 F2500.000
G2 X66.102 Y121.387 Z-6.170 I-18.986 J-1.935 K0.000 F2500.000
G2 X46.741 Y148.154 Z-6.170 I-1.935 J18.986 K0.000 F2500.000
G0 Z5.000
G0 X57.747 Y117.344 Z5.000
G0 X57.747 Y117.344 Z3.000
G1 X57.747 Y117.344 Z-6.170 F500.000
G2 X62.231 Y118.358 Z-6.170 I6.420 J-17.972 K0.000 F2500.000
G2 X83.152 Y101.308 Z-6.170 I1.935 J-18.986 K0.000 F2500.000
G2 X66.102 Y80.387 Z-6.170 I-18.986 J-1.935 K0.000 F2500.000
G2 X57.747 Y117.344 Z-6.170 I-1.935 J18.986 K0.000 F2500.000
G0 Z5.000
G0 X34.926 Y107.154 Z5.000
G0 X34.926 Y107.154 Z3.000
G1 X34.926 Y107.154 Z-6.170 F500.000
G2 X19.463 Y80.389 Z-6.170 I-17.426 J-7.781 K0.000 F2500.000
G2 X-1.484 Y97.423 Z-6.170 I-1.963 J18.983 K0.000 F2500.000
G2 X15.565 Y118.358 Z-6.170 I18.984 J1.949 K0.000 F2500.000
G2 X34.926 Y107.154 Z-6.170 I1.935 J-18.986 K0.000 F2500.000
G0 Z5.000
G0 X23.920 Y76.344 Z5.000
G0 X23.920 Y76.344 Z3.000
G1 X23.920 Y76.344 Z-6.170 F500.000
G2 X19.463 Y39.389 Z-6.170 I-6.420 J-17.972 K0.000 F2500.000
G2 X-1.484 Y56.423 Z-6.170 I-1.963 J18.983 K0.000 F2500.000
G2 X15.565 Y77.358 Z-6.170 I18.984 J1.949 K0.000 F2500.000
G2 X23.920 Y76.344 Z-6.170 I1.935 J-18.986 K0.000 F2500.000
G0 Z5.000
G0 X46.741 Y66.154 Z5.000
G0 X46.741 Y66.154 Z3.000
G1 X46.741 Y66.154 Z-6.170 F500.000
G2 X62.231 Y77.358 Z-6.170 I17.426 J-7.781 K0.000 F2500.000
G2 X83.152 Y60.308 Z-6.170 I1.935 J-18.986 K0.000 F2500.000
G2 X66.102 Y39.387 Z-6.170 I-18.986 J-1.935 K0.000 F2500.000
G2 X46.741 Y66.154 Z-6.170 I-1.935 J18.986 K0.000 F2500.000
G0 Z5.000
G0 X57.747 Y35.344 Z5.000
G0 X57.747 Y35.344 Z3.000
G1 X57.747 Y35.344 Z-6.170 F500.000
G2 X62.231 Y36.358 Z-6.170 I6.420 J-17.972 K0.000 F2500.000
G2 X83.152 Y19.308 Z-6.170 I1.935 J-18.986 K0.000 F2500.000
G2 X66.102 Y-1.613 Z-6.170 I-18.986 J-1.935 K0.000 F2500.000
G2 X57.747 Y35.344 Z-6.170 I-1.935 J18.986 K0.000 F2500.000
G0 Z5.000
G0 X34.926 Y25.154 Z5.000
G0 X34.926 Y25.154 Z3.000
G1 X34.926 Y25.154 Z-6.170 F500.000
G2 X19.463 Y-1.611 Z-6.170 I-17.426 J-7.781 K0.000 F2500.000
G2 X-1.484 Y15.423 Z-6.170 I-1.963 J18.983 K0.000 F2500.000
G2 X15.565 Y36.358 Z-6.170 I18.984 J1.949 K0.000 F2500.000
G2 X34.926 Y25.154 Z-6.170 I1.935 J-18.986 K0.000 F2500.000
G0 Z5.000
G0 X91.849 Y19.319 Z5.000
G0 X91.849 Y19.319 Z3.000
G1 X91.849 Y19.319 Z-6.170 F500.000
G2 X108.898 Y36.358 Z-6.170 I18.985 J-1.946 K0.000 F2500.000
G2 X112.769 Y-1.613 Z-6.170 I1.935 J-18.986 K0.000 F2500.000
G2 X91.849 Y19.319 Z-6.170 I-1.935 J18.986 K0.000 F2500.000
G0 Z5.000
G0 X102.490 Y41.209 Z5.000
G0 X102.490 Y41.209 Z3.000
G1 X102.490 Y41.209 Z-6.170 F500.000
G2 X108.898 Y77.358 Z-6.170 I8.344 J17.164 K0.000 F2500.000
G2 X112.769 Y39.387 Z-6.170 I1.935 J-18.986 K0.000 F2500.000
G2 X102.490 Y41.209 Z-6.170 I-1.935 J18.986 K0.000 F2500.000
G0 Z5.000
G0 X139.282 Y52.688 Z5.000
G0 X139.282 Y52.688 Z3.000
G1 X139.282 Y52.688 Z-6.170 F500.000
G2 X155.565 Y77.358 Z-6.170 I18.218 J5.684 K0.000 F2500.000
G2 X159.435 Y39.387 Z-6.170 I1.935 J-18.986 K0.000 F2500.000
G2 X139.282 Y52.688 Z-6.170 I-1.935 J18.986 K0.000 F2500.000
G0 Z5.000
G0 X148.751 Y34.333 Z5.000
G0 X148.751 Y34.333 Z3.000
G1 X148.751 Y34.333 Z-6.170 F500.000
G2 X155.565 Y36.358 Z-6.170 I8.749 J-16.960 K0.000 F2500.000
G2 X159.435 Y-1.613 Z-6.170 I1.935 J-18.986 K0.000 F2500.000
G2 X148.751 Y34.333 Z-6.170 I-1.935 J18.986 K0.000 F2500.000
G0 Z5.000
G0 X154.956 Y80.459 Z5.000
G0 X154.956 Y80.459 Z3.000
G1 X154.956 Y80.459 Z-6.170 F500.000
G2 X155.565 Y118.358 Z-6.170 I2.544 J18.914 K0.000 F2500.000
G2 X176.486 Y101.308 Z-6.170 I1.935 J-18.986 K0.000 F2500.000
G2 X159.435 Y80.387 Z-6.170 I-18.986 J-1.935 K0.000 F2500.000
G2 X154.956 Y80.459 Z-6.170 I-1.935 J18.986 K0.000 F2500.000
G0 Z5.000
G0 X128.374 Y91.853 Z5.000
G0 X128.374 Y91.853 Z3.000
G1 X128.374 Y91.853 Z-6.170 F500.000
G2 X112.769 Y80.387 Z-6.170 I-17.541 J7.519 K0.000 F2500.000
G2 X108.898 Y118.358 Z-6.170 I-1.935 J18.986 K0.000 F2500.000
G2 X128.374 Y91.853 Z-6.170 I1.935 J-18.986 K0.000 F2500.000
G0 Z5.000
G0 X117.322 Y122.425 Z5.000
G0 X117.322 Y122.425 Z3.000
G1 X117.322 Y122.425 Z-6.170 F500.000
G2 X112.769 Y121.387 Z-6.170 I-6.488 J17.947 K0.000 F2500.000
G2 X108.898 Y159.358 Z-6.170 I-1.935 J18.986 K0.000 F2500.000
G2 X117.322 Y122.425 Z-6.170 I1.935 J-18.986 K0.000 F2500.000
G0 Z5.000
G0 X140.075 Y132.589 Z5.000
G0 X140.075 Y132.589 Z3.000
G1 X140.075 Y132.589 Z-6.170 F500.000
G2 X155.565 Y159.358 Z-6.170 I17.425 J7.784 K0.000 F2500.000
G2 X176.486 Y142.308 Z-6.170 I1.935 J-18.986 K0.000 F2500.000
G2 X159.435 Y121.387 Z-6.170 I-18.986 J-1.935 K0.000 F2500.000
G2 X140.075 Y132.589 Z-6.170 I-1.935 J18.986 K0.000 F2500.000
G0 Z5.000
G0 X151.081 Y163.400 Z5.000
G0 X151.081 Y163.400 Z3.000
G1 X151.081 Y163.400 Z-6.170 F500.000
G2 X155.565 Y200.358 Z-6.170 I6.419 J17.972 K0.000 F2500.000
G2 X176.486 Y183.308 Z-6.170 I1.935 J-18.986 K0.000 F2500.000
G2 X159.435 Y162.387 Z-6.170 I-18.986 J-1.935 K0.000 F2500.000
G2 X151.081 Y163.400 Z-6.170 I-1.935 J18.986 K0.000 F2500.000
G0 Z5.000
G0 X128.259 Y173.591 Z5.000
G0 X128.259 Y173.591 Z3.000
G1 X128.259 Y173.591 Z-6.170 F500.000
G2 X112.769 Y162.387 Z-6.170 I-17.426 J7.781 K0.000 F2500.000
G2 X91.848 Y179.437 Z-6.170 I-1.935 J18.986 K0.000 F2500.000
G2 X108.898 Y200.358 Z-6.170 I18.986 J1.935 K0.000 F2500.000
G2 X128.259 Y173.591 Z-6.170 I1.935 J-18.986 K0.000 F2500.000
G0 Z5.000
G0 X117.253 Y204.400 Z5.000
G0 X117.253 Y204.400 Z3.000
G1 X117.253 Y204.400 Z-6.170 F500.000
G2 X112.769 Y203.387 Z-6.170 I-6.420 J17.972 K0.000 F2500.000
G2 X108.898 Y241.358 Z-6.170 I-1.935 J18.986 K0.000 F2500.000
G2 X117.253 Y204.400 Z-6.170 I1.935 J-18.986 K0.000 F2500.000
G0 Z5.000
G0 X140.074 Y214.591 Z5.000
G0 X140.074 Y214.591 Z3.000
G1 X140.074 Y214.591 Z-6.170 F500.000
G2 X155.537 Y241.355 Z-6.170 I17.426 J7.781 K0.000 F2500.000
G2 X176.484 Y224.322 Z-6.170 I1.963 J-18.983 K0.000 F2500.000
G2 X159.435 Y203.387 Z-6.170 I-18.984 J-1.949 K0.000 F2500.000
G2 X140.074 Y214.591 Z-6.170 I-1.935 J18.986 K0.000 F2500.000
G0 Z5.000
G0 X151.080 Y245.400 Z5.000
G0 X151.080 Y245.400 Z3.000
G1 X151.080 Y245.400 Z-6.170 F500.000
G2 X155.537 Y282.355 Z-6.170 I6.420 J17.972 K0.000 F2500.000
G2 X176.484 Y265.322 Z-6.170 I1.963 J-18.983 K0.000 F2500.000
G2 X159.435 Y244.387 Z-6.170 I-18.984 J-1.949 K0.000 F2500.000
G2 X151.080 Y245.400 Z-6.170 I-1.935 J18.986 K0.000 F2500.000
G0 Z5.000
G0 X128.259 Y255.591 Z5.000
G0 X128.259 Y255.591 Z3.000
G1 X128.259 Y255.591 Z-6.170 F500.000
G2 X112.769 Y244.387 Z-6.170 I-17.426 J7.781 K0.000 F2500.000
G2 X91.848 Y261.437 Z-6.170 I-1.935 J18.986 K0.000 F2500.000
G2 X108.898 Y282.358 Z-6.170 I18.986 J1.935 K0.000 F2500.000
G2 X128.259 Y255.591 Z-6.170 I1.935 J-18.986 K0.000 F2500.000
G0 Z5.000
G0 X117.253 Y286.400 Z5.000
G0 X117.253 Y286.400 Z3.000
G1 X117.253 Y286.400 Z-6.170 F500.000
G2 X112.796 Y285.389 Z-6.170 I-6.420 J17.972 K0.000 F2500.000
G2 X91.849 Y302.423 Z-6.170 I-1.963 J18.983 K0.000 F2500.000
G2 X108.898 Y323.358 Z-6.170 I18.984 J1.949 K0.000 F2500.000
G2 X117.253 Y286.400 Z-6.170 I1.935 J-18.986 K0.000 F2500.000
G0 Z5.000
G0 X140.074 Y296.591 Z5.000
G0 X140.074 Y296.591 Z3.000
G1 X140.074 Y296.591 Z-6.170 F500.000
G2 X155.537 Y323.355 Z-6.170 I17.426 J7.781 K0.000 F2500.000
G2 X176.484 Y306.322 Z-6.170 I1.963 J-18.983 K0.000 F2500.000
G2 X159.435 Y285.387 Z-6.170 I-18.984 J-1.949 K0.000 F2500.000
G2 X140.074 Y296.591 Z-6.170 I-1.935 J18.986 K0.000 F2500.000
G0 Z5.000
G0 X151.080 Y327.400 Z5.000
G0 X151.080 Y327.400 Z3.000
G1 X151.080 Y327.400 Z-6.170 F500.000
G2 X155.537 Y364.355 Z-6.170 I6.420 J17.972 K0.000 F2500.000
G2 X176.484 Y347.322 Z-6.170 I1.963 J-18.983 K0.000 F2500.000
G2 X159.435 Y326.387 Z-6.170 I-18.984 J-1.949 K0.000 F2500.000
G2 X151.080 Y327.400 Z-6.170 I-1.935 J18.986 K0.000 F2500.000
G0 Z5.000
G0 X128.259 Y337.591 Z5.000
G0 X128.259 Y337.591 Z3.000
G1 X128.259 Y337.591 Z-6.170 F500.000
G2 X112.796 Y326.389 Z-6.170 I-17.426 J7.781 K0.000 F2500.000
G2 X91.849 Y343.423 Z-6.170 I-1.963 J18.983 K0.000 F2500.000
G2 X108.898 Y364.358 Z-6.170 I18.984 J1.949 K0.000 F2500.000
G2 X128.259 Y337.591 Z-6.170 I1.935 J-18.986 K0.000 F2500.000
G0 Z5.000
G0 X117.253 Y368.400 Z5.000
G0 X117.253 Y368.400 Z3.000
G1 X117.253 Y368.400 Z-6.170 F500.000
G2 X112.769 Y367.387 Z-6.170 I-6.420 J17.972 K0.000 F2500.000
G2 X108.898 Y405.358 Z-6.170 I-1.935 J18.986 K0.000 F2500.000
G2 X117.253 Y368.400 Z-6.170 I1.935 J-18.986 K0.000 F2500.000
G0 Z5.000
G0 X140.074 Y378.591 Z5.000
G0 X140.074 Y378.591 Z3.000
G1 X140.074 Y378.591 Z-6.170 F500.000
G2 X155.537 Y405.355 Z-6.170 I17.426 J7.781 K0.000 F2500.000
G2 X176.484 Y388.322 Z-6.170 I1.963 J-18.983 K0.000 F2500.000
G2 X159.435 Y367.387 Z-6.170 I-18.984 J-1.949 K0.000 F2500.000
G2 X140.074 Y378.591 Z-6.170 I-1.935 J18.986 K0.000 F2500.000
G0 Z5.000
G0 X151.080 Y409.400 Z5.000
G0 X151.080 Y409.400 Z3.000
G1 X151.080 Y409.400 Z-6.170 F500.000
G2 X155.537 Y446.355 Z-6.170 I6.420 J17.972 K0.000 F2500.000
G2 X176.484 Y429.322 Z-6.170 I1.963 J-18.983 K0.000 F2500.000
G2 X159.435 Y408.387 Z-6.170 I-18.984 J-1.949 K0.000 F2500.000
G2 X151.080 Y409.400 Z-6.170 I-1.935 J18.986 K0.000 F2500.000
G0 Z5.000
G0 X128.259 Y419.591 Z5.000
G0 X128.259 Y419.591 Z3.000
G1 X128.259 Y419.591 Z-6.170 F500.000
G2 X112.769 Y408.387 Z-6.170 I-17.426 J7.781 K0.000 F2500.000
G2 X91.848 Y425.437 Z-6.170 I-1.935 J18.986 K0.000 F2500.000
G2 X108.898 Y446.358 Z-6.170 I18.986 J1.935 K0.000 F2500.000
G2 X128.259 Y419.591 Z-6.170 I1.935 J-18.986 K0.000 F2500.000
G0 Z5.000
G0 X117.253 Y450.400 Z5.000
G0 X117.253 Y450.400 Z3.000
G1 X117.253 Y450.400 Z-6.170 F500.000
G2 X112.769 Y449.387 Z-6.170 I-6.420 J17.972 K0.000 F2500.000
G2 X91.848 Y466.437 Z-6.170 I-1.935 J18.986 K0.000 F2500.000
G2 X108.898 Y487.358 Z-6.170 I18.986 J1.935 K0.000 F2500.000
G2 X117.253 Y450.400 Z-6.170 I1.935 J-18.986 K0.000 F2500.000
G0 Z5.000
G0 X140.074 Y460.591 Z5.000
G0 X140.074 Y460.591 Z3.000
G1 X140.074 Y460.591 Z-6.170 F500.000
G2 X155.537 Y487.355 Z-6.170 I17.426 J7.781 K0.000 F2500.000
G2 X176.484 Y470.322 Z-6.170 I1.963 J-18.983 K0.000 F2500.000
G2 X159.435 Y449.387 Z-6.170 I-18.984 J-1.949 K0.000 F2500.000
G2 X140.074 Y460.591 Z-6.170 I-1.935 J18.986 K0.000 F2500.000
G0 Z5.000
G0 X151.080 Y491.400 Z5.000
G0 X151.080 Y491.400 Z3.000
G1 X151.080 Y491.400 Z-6.170 F500.000
G2 X155.537 Y528.355 Z-6.170 I6.420 J17.972 K0.000 F2500.000
G2 X176.484 Y511.322 Z-6.170 I1.963 J-18.983 K0.000 F2500.000
G2 X159.435 Y490.387 Z-6.170 I-18.984 J-1.949 K0.000 F2500.000
G2 X151.080 Y491.400 Z-6.170 I-1.935 J18.986 K0.000 F2500.000
G0 Z5.000
G0 X128.259 Y501.591 Z5.000
G0 X128.259 Y501.591 Z3.000
G1 X128.259 Y501.591 Z-6.170 F500.000
G2 X112.769 Y490.387 Z-6.170 I-17.426 J7.781 K0.000 F2500.000
G2 X91.848 Y507.437 Z-6.170 I-1.935 J18.986 K0.000 F2500.000
G2 X108.898 Y528.358 Z-6.170 I18.986 J1.935 K0.000 F2500.000
G2 X128.259 Y501.591 Z-6.170 I1.935 J-18.986 K0.000 F2500.000
G0 Z5.000
G0 X117.253 Y532.400 Z5.000
G0 X117.253 Y532.400 Z3.000
G1 X117.253 Y532.400 Z-6.170 F500.000
G2 X112.769 Y531.387 Z-6.170 I-6.420 J17.972 K0.000 F2500.000
G2 X91.848 Y548.437 Z-6.170 I-1.935 J18.986 K0.000 F2500.000
G2 X108.898 Y569.358 Z-6.170 I18.986 J1.935 K0.000 F2500.000
G2 X117.253 Y532.400 Z-6.170 I1.935 J-18.986 K0.000 F2500.000
G0 Z5.000
G0 X140.074 Y542.591 Z5.000
G0 X140.074 Y542.591 Z3.000
G1 X140.074 Y542.591 Z-6.170 F500.000
G2 X155.537 Y569.355 Z-6.170 I17.426 J7.781 K0.000 F2500.000
G2 X176.484 Y552.322 Z-6.170 I1.963 J-18.983 K0.000 F2500.000
G2 X159.435 Y531.387 Z-6.170 I-18.984 J-1.949 K0.000 F2500.000
G2 X140.074 Y542.591 Z-6.170 I-1.935 J18.986 K0.000 F2500.000
G1 X140.074 Y542.591 Z-9.340 F500.000
G2 X155.537 Y569.355 Z-9.340 I17.426 J7.781 K0.000 F2500.000
G2 X176.484 Y552.322 Z-9.340 I1.963 J-18.983 K0.000 F2500.000
G2 X159.435 Y531.387 Z-9.340 I-18.984 J-1.949 K0.000 F2500.000
G2 X140.074 Y542.591 Z-9.340 I-1.935 J18.986 K0.000 F2500.000
G0 Z5.000
G0 X129.276 Y545.465 Z5.000
G0 X129.276 Y545.465 Z3.000
G1 X129.276 Y545.465 Z-9.340 F500.000
G2 X112.769 Y531.387 Z-9.340 I-18.442 J4.908 K0.000 F2500.000
G2 X91.848 Y548.437 Z-9.340 I-1.935 J18.986 K0.000 F2500.000
G2 X108.898 Y569.358 Z-9.340 I18.986 J1.935 K0.000 F2500.000
G2 X129.276 Y545.465 Z-9.340 I1.935 J-18.986 K0.000 F2500.000
G0 Z5.000
G0 X119.517 Y526.367 Z5.000
G0 X119.517 Y526.367 Z3.000
G1 X119.517 Y526.367 Z-9.340 F500.000
G2 X112.769 Y490.387 Z-9.340 I-8.684 J-16.994 K0.000 F2500.000
G2 X91.848 Y507.437 Z-9.340 I-1.935 J18.986 K0.000 F2500.000
G2 X108.898 Y528.358 Z-9.340 I18.986 J1.935 K0.000 F2500.000
G2 X119.517 Y526.367 Z-9.340 I1.935 J-18.986 K0.000 F2500.000
G0 Z5.000
G0 X140.080 Y517.166 Z5.000
G0 X140.080 Y517.166 Z3.000
G1 X140.080 Y517.166 Z-9.340 F500.000
G2 X155.537 Y528.355 Z-9.340 I17.420 J-7.794 K0.000 F2500.000
G2 X176.484 Y511.322 Z-9.340 I1.963 J-18.983 K0.000 F2500.000
G2 X159.435 Y490.387 Z-9.340 I-18.984 J-1.949 K0.000 F2500.000
G2 X140.080 Y517.166 Z-9.340 I-1.935 J18.986 K0.000 F2500.000
G0 Z5.000
G0 X151.083 Y486.346 Z5.000
G0 X151.083 Y486.346 Z3.000
G1 X151.083 Y486.346 Z-9.340 F500.000
G2 X155.537 Y487.355 Z-9.340 I6.417 J-17.973 K0.000 F2500.000
G2 X176.484 Y470.322 Z-9.340 I1.963 J-18.983 K0.000 F2500.000
G2 X159.435 Y449.387 Z-9.340 I-18.984 J-1.949 K0.000 F2500.000
G2 X151.083 Y486.346 Z-9.340 I-1.935 J18.986 K0.000 F2500.000
G0 Z5.000
G0 X128.259 Y476.154 Z5.000
G0 X128.259 Y476.154 Z3.000
G1 X128.259 Y476.154 Z-9.340 F500.000
G2 X112.769 Y449.387 Z-9.340 I-17.426 J-7.781 K0.000 F2500.000
G2 X91.848 Y466.437 Z-9.340 I-1.935 J18.986 K0.000 F2500.000
G2 X108.898 Y487.358 Z-9.340 I18.986 J1.935 K0.000 F2500.000
G2 X128.259 Y476.154 Z-9.340 I1.935 J-18.986 K0.000 F2500.000
G0 Z5.000
G0 X117.253 Y445.344 Z5.000
G0 X117.253 Y445.344 Z3.000
G1 X117.253 Y445.344 Z-9.340 F500.000
G2 X112.769 Y408.387 Z-9.340 I-6.420 J-17.972 K0.000 F2500.000
G2 X91.848 Y425.437 Z-9.340 I-1.935 J18.986 K0.000 F2500.000
G2 X108.898 Y446.358 Z-9.340 I18.986 J1.935 K0.000 F2500.000
G2 X117.253 Y445.344 Z-9.340 I1.935 J-18.986 K0.000 F2500.000
G0 Z5.000
G0 X140.074 Y435.154 Z5.000
G0 X140.074 Y435.154 Z3.000
G1 X140.074 Y435.154 Z-9.340 F500.000
G2 X155.537 Y446.355 Z-9.340 I17.426 J-7.781 K0.000 F2500.000
G2 X176.484 Y429.322 Z-9.340 I1.963 J-18.983 K0.000 F2500.000
G2 X159.435 Y408.387 Z-9.340 I-18.984 J-1.949 K0.000 F2500.000
G2 X140.074 Y435.154 Z-9.340 I-1.935 J18.986 K0.000 F2500.000
G0 Z5.000
G0 X151.080 Y404.344 Z5.000
G0 X151.080 Y404.344 Z3.000
G1 X151.080 Y404.344 Z-9.340 F500.000
G2 X155.537 Y405.355 Z-9.340 I6.420 J-17.972 K0.000 F2500.000
G2 X176.484 Y388.322 Z-9.340 I1.963 J-18.983 K0.000 F2500.000
G2 X159.435 Y367.387 Z-9.340 I-18.984 J-1.949 K0.000 F2500.000
G2 X151.080 Y404.344 Z-9.340 I-1.935 J18.986 K0.000 F2500.000
G0 Z5.000
G0 X128.259 Y394.154 Z5.000
G0 X128.259 Y394.154 Z3.000
G1 X128.259 Y394.154 Z-9.340 F500.000
G2 X112.769 Y367.387 Z-9.340 I-17.426 J-7.781 K0.000 F2500.000
G2 X108.898 Y405.358 Z-9.340 I-1.935 J18.986 K0.000 F2500.000
G2 X128.259 Y394.154 Z-9.340 I1.935 J-18.986 K0.000 F2500.000
G0 Z5.000
G0 X117.253 Y363.344 Z5.000
G0 X117.253 Y363.344 Z3.000
G1 X117.253 Y363.344 Z-9.340 F500.000
G2 X112.796 Y326.389 Z-9.340 I-6.420 J-17.972 K0.000 F2500.000
G2 X91.849 Y343.423 Z-9.340 I-1.963 J18.983 K0.000 F2500.000
G2 X108.898 Y364.358 Z-9.340 I18.984 J1.949 K0.000 F2500.000
G2 X117.253 Y363.344 Z-9.340 I1.935 J-18.986 K0.000 F2500.000
G0 Z5.000
G0 X140.074 Y353.154 Z5.000
G0 X140.074 Y353.154 Z3.000
G1 X140.074 Y353.154 Z-9.340 F500.000
G2 X155.537 Y364.355 Z-9.340 I17.426 J-7.781 K0.000 F2500.000
G2 X176.484 Y347.322 Z-9.340 I1.963 J-18.983 K0.000 F2500.000
G2 X159.435 Y326.387 Z-9.340 I-18.984 J-1.949 K0.000 F2500.000
G2 X140.074 Y353.154 Z-9.340 I-1.935 J18.986 K0.000 F2500.000
G0 Z5.000
G0 X151.080 Y322.344 Z5.000
G0 X151.080 Y322.344 Z3.000
G1 X151.080 Y322.344 Z-9.340 F500.000
G2 X155.537 Y323.355 Z-9.340 I6.420 J-17.972 K0.000 F2500.000
G2 X176.484 Y306.322 Z-9.340 I1.963 J-18.983 K0.000 F2500.000
G2 X159.435 Y285.387 Z-9.340 I-18.984 J-1.949 K0.000 F2500.000
G2 X151.080 Y322.344 Z-9.340 I-1.935 J18.986 K0.000 F2500.000
G0 Z5.000
G0 X128.259 Y312.154 Z5.000
G0 X128.259 Y312.154 Z3.000
G1 X128.259 Y312.154 Z-9.340 F500.000
G2 X112.796 Y285.389 Z-9.340 I-17.426 J-7.781 K0.000 F2500.000
G2 X91.849 Y302.423 Z-9.340 I-1.963 J18.983 K0.000 F2500.000
G2 X108.898 Y323.358 Z-9.340 I18.984 J1.949 K0.000 F2500.000
G2 X128.259 Y312.154 Z-9.340 I1.935 J-18.986 K0.000 F2500.000
G0 Z5.000
G0 X117.253 Y281.344 Z5.000
G0 X117.253 Y281.344 Z3.000
G1 X117.253 Y281.344 Z-9.340 F500.000
G2 X112.769 Y244.387 Z-9.340 I-6.420 J-17.972 K0.000 F2500.000
G2 X91.848 Y261.437 Z-9.340 I-1.935 J18.986 K0.000 F2500.000
G2 X108.898 Y282.358 Z-9.340 I18.986 J1.935 K0.000 F2500.000
G2 X117.253 Y281.344 Z-9.340 I1.935 J-18.986 K0.000 F2500.000
G0 Z5.000
G0 X140.074 Y271.154 Z5.000
G0 X140.074 Y271.154 Z3.000
G1 X140.074 Y271.154 Z-9.340 F500.000
G2 X155.537 Y282.355 Z-9.340 I17.426 J-7.781 K0.000 F2500.000
G2 X176.484 Y265.322 Z-9.340 I1.963 J-18.983 K0.000 F2500.000
G2 X159.435 Y244.387 Z-9.340 I-18.984 J-1.949 K0.000 F2500.000
G2 X140.074 Y271.154 Z-9.340 I-1.935 J18.986 K0.000 F2500.000
G0 Z5.000
G0 X151.080 Y240.344 Z5.000
G0 X151.080 Y240.344 Z3.000
G1 X151.080 Y240.344 Z-9.340 F500.000
G2 X155.537 Y241.355 Z-9.340 I6.420 J-17.972 K0.000 F2500.000
G2 X176.484 Y224.322 Z-9.340 I1.963 J-18.983 K0.000 F2500.000
G2 X159.435 Y203.387 Z-9.340 I-18.984 J-1.949 K0.000 F2500.000
G2 X151.080 Y240.344 Z-9.340 I-1.935 J18.986 K0.000 F2500.000
G0 Z5.000
G0 X128.259 Y230.154 Z5.000
G0 X128.259 Y230.154 Z3.000
G1 X128.259 Y230.154 Z-9.340 F500.000
G2 X112.769 Y203.387 Z-9.340 I-17.426 J-7.781 K0.000 F2500.000
G2 X108.898 Y241.358 Z-9.340 I-1.935 J18.986 K0.000 F2500.000
G2 X128.259 Y230.154 Z-9.340 I1.935 J-18.986 K0.000 F2500.000
G0 Z5.000
G0 X117.253 Y199.344 Z5.000
G0 X117.253 Y199.344 Z3.000
G1 X117.253 Y199.344 Z-9.340 F500.000
G2 X112.769 Y162.387 Z-9.340 I-6.420 J-17.972 K0.000 F2500.000
G2 X91.848 Y179.437 Z-9.340 I-1.935 J18.986 K0.000 F2500.000
G2 X108.898 Y200.358 Z-9.340 I18.986 J1.935 K0.000 F2500.000
G2 X117.253 Y199.344 Z-9.340 I1.935 J-18.986 K0.000 F2500.000
G0 Z5.000
G0 X140.074 Y189.154 Z5.000
G0 X140.074 Y189.154 Z3.000
G1 X140.074 Y189.154 Z-9.340 F500.000
G2 X155.565 Y200.358 Z-9.340 I17.426 J-7.781 K0.000 F2500.000
G2 X176.486 Y183.308 Z-9.340 I1.935 J-18.986 K0.000 F2500.000
G2 X159.435 Y162.387 Z-9.340 I-18.986 J-1.935 K0.000 F2500.000
G2 X140.074 Y189.154 Z-9.340 I-1.935 J18.986 K0.000 F2500.000
G0 Z5.000
G0 X151.080 Y158.344 Z5.000
G0 X151.080 Y158.344 Z3.000
G1 X151.080 Y158.344 Z-9.340 F500.000
G2 X155.565 Y159.358 Z-9.340 I6.420 J-17.972 K0.000 F2500.000
G2 X176.486 Y142.308 Z-9.340 I1.935 J-18.986 K0.000 F2500.000
G2 X159.435 Y121.387 Z-9.340 I-18.986 J-1.935 K0.000 F2500.000
G2 X151.080 Y158.344 Z-9.340 I-1.935 J18.986 K0.000 F2500.000
G0 Z5.000
G0 X128.259 Y148.154 Z5.000
G0 X128.259 Y148.154 Z3.000
G1 X128.259 Y148.154 Z-9.340 F500.000
G2 X112.769 Y121.387 Z-9.340 I-17.426 J-7.781 K0.000 F2500.000
G2 X108.898 Y159.358 Z-9.340 I-1.935 J18.986 K0.000 F2500.000
G2 X128.259 Y148.154 Z-9.340 I1.935 J-18.986 K0.000 F2500.000
G0 Z5.000
G0 X117.253 Y117.344 Z5.000
G0 X117.253 Y117.344 Z3.000
G1 X117.253 Y117.344 Z-9.340 F500.000
G2 X112.769 Y80.387 Z-9.340 I-6.420 J-17.972 K0.000 F2500.000
G2 X108.898 Y118.358 Z-9.340 I-1.935 J18.986 K0.000 F2500.000
G2 X117.253 Y117.344 Z-9.340 I1.935 J-18.986 K0.000 F2500.000
G0 Z5.000
G0 X140.074 Y107.154 Z5.000
G0 X140.074 Y107.154 Z3.000
G1 X140.074 Y107.154 Z-9.340 F500.000
G2 X155.565 Y118.358 Z-9.340 I17.426 J-7.781 K0.000 F2500.000
G2 X176.486 Y101.308 Z-9.340 I1.935 J-18.986 K0.000 F2500.000
G2 X159.435 Y80.387 Z-9.340 I-18.986 J-1.935 K0.000 F2500.000
G2 X140.074 Y107.154 Z-9.340 I-1.935 J18.986 K0.000 F2500.000
G0 Z5.000
G0 X151.080 Y76.344 Z5.000
G0 X151.080 Y76.344 Z3.000
G1 X151.080 Y76.344 Z-9.340 F500.000
G2 X155.565 Y77.358 Z-9.340 I6.420 J-17.972 K0.000 F2500.000
G2 X159.435 Y39.387 Z-9.340 I1.935 J-18.986 K0.000 F2500.000
G2 X151.080 Y76.344 Z-9.340 I-1.935 J18.986 K0.000 F2500.000
G0 Z5.000
G0 X128.259 Y66.154 Z5.000
G0 X128.259 Y66.154 Z3.000
G1 X128.259 Y66.154 Z-9.340 F500.000
G2 X112.769 Y39.387 Z-9.340 I-17.426 J-7.781 K0.000 F2500.000
G2 X91.848 Y56.437 Z-9.340 I-1.935 J18.986 K0.000 F2500.000
G2 X108.898 Y77.358 Z-9.340 I18.986 J1.935 K0.000 F2500.000
G2 X128.259 Y66.154 Z-9.340 I1.935 J-18.986 K0.000 F2500.000
G0 Z5.000
G0 X117.253 Y35.344 Z5.000
G0 X117.253 Y35.344 Z3.000
G1 X117.253 Y35.344 Z-9.340 F500.000
G2 X112.769 Y-1.613 Z-9.340 I-6.420 J-17.972 K0.000 F2500.000
G2 X91.848 Y15.437 Z-9.340 I-1.935 J18.986 K0.000 F2500.000
G2 X108.898 Y36.358 Z-9.340 I18.986 J1.935 K0.000 F2500.000
G2 X117.253 Y35.344 Z-9.340 I1.935 J-18.986 K0.000 F2500.000
G0 Z5.000
G0 X140.074 Y25.154 Z5.000
G0 X140.074 Y25.154 Z3.000
G1 X140.074 Y25.154 Z-9.340 F500.000
G2 X155.565 Y36.358 Z-9.340 I17.426 J-7.781 K0.000 F2500.000
G2 X159.435 Y-1.613 Z-9.340 I1.935 J-18.986 K0.000 F2500.000
G2 X140.074 Y25.154 Z-9.340 I-1.935 J18.986 K0.000 F2500.000
G0 Z5.000
G0 X83.151 Y19.319 Z5.000
G0 X83.151 Y19.319 Z3.000
G1 X83.151 Y19.319 Z-9.340 F500.000
G2 X66.102 Y-1.613 Z-9.340 I-18.985 J-1.946 K0.000 F2500.000
G2 X62.231 Y36.358 Z-9.340 I-1.935 J18.986 K0.000 F2500.000
G2 X83.151 Y19.319 Z-9.340 I1.935 J-18.986 K0.000 F2500.000
G0 Z5.000
G0 X72.510 Y41.209 Z5.000
G0 X72.510 Y41.209 Z3.000
G1 X72.510 Y41.209 Z-9.340 F500.000
G2 X66.102 Y39.387 Z-9.340 I-8.344 J17.164 K0.000 F2500.000
G2 X62.231 Y77.358 Z-9.340 I-1.935 J18.986 K0.000 F2500.000
G2 X72.510 Y41.209 Z-9.340 I1.935 J-18.986 K0.000 F2500.000
G0 Z5.000
G0 X35.718 Y52.688 Z5.000
G0 X35.718 Y52.688 Z3.000
G1 X35.718 Y52.688 Z-9.340 F500.000
G2 X19.463 Y39.389 Z-9.340 I-18.218 J5.684 K0.000 F2500.000
G2 X-1.484 Y56.423 Z-9.340 I-1.963 J18.983 K0.000 F2500.000
G2 X15.565 Y77.358 Z-9.340 I18.984 J1.949 K0.000 F2500.000
G2 X35.718 Y52.688 Z-9.340 I1.935 J-18.986 K0.000 F2500.000
G0 Z5.000
G0 X26.249 Y34.333 Z5.000
G0 X26.249 Y34.333 Z3.000
G1 X26.249 Y34.333 Z-9.340 F500.000
G2 X19.463 Y-1.611 Z-9.340 I-8.749 J-16.960 K0.000 F2500.000
G2 X-1.484 Y15.423 Z-9.340 I-1.963 J18.983 K0.000 F2500.000
G2 X15.565 Y36.358 Z-9.340 I18.984 J1.949 K0.000 F2500.000
G2 X26.249 Y34.333 Z-9.340 I1.935 J-18.986 K0.000 F2500.000
G0 Z5.000
G0 X20.044 Y80.459 Z5.000
G0 X20.044 Y80.459 Z3.000
G1 X20.044 Y80.459 Z-9.340 F500.000
G2 X19.463 Y80.389 Z-9.340 I-2.544 J18.914 K0.000 F2500.000
G2 X-1.484 Y97.423 Z-9.340 I-1.963 J18.983 K0.000 F2500.000
G2 X15.565 Y118.358 Z-9.340 I18.984 J1.949 K0.000 F2500.000
G2 X20.044 Y80.459 Z-9.340 I1.935 J-18.986 K0.000 F2500.000
G0 Z5.000
G0 X46.626 Y91.853 Z5.000
G0 X46.626 Y91.853 Z3.000
G1 X46.626 Y91.853 Z-9.340 F500.000
G2 X62.231 Y118.358 Z-9.340 I17.541 J7.519 K0.000 F2500.000
G2 X83.152 Y101.308 Z-9.340 I1.935 J-18.986 K0.000 F2500.000
G2 X66.102 Y80.387 Z-9.340 I-18.986 J-1.935 K0.000 F2500.000
G2 X46.626 Y91.853 Z-9.340 I-1.935 J18.986 K0.000 F2500.000
G0 Z5.000
G0 X57.678 Y122.425 Z5.000
G0 X57.678 Y122.425 Z3.000
G1 X57.678 Y122.425 Z-9.340 F500.000
G2 X62.231 Y159.358 Z-9.340 I6.488 J17.947 K0.000 F2500.000
G2 X83.152 Y142.308 Z-9.340 I1.935 J-18.986 K0.000 F2500.000
G2 X66.102 Y121.387 Z-9.340 I-18.986 J-1.935 K0.000 F2500.000
G2 X57.678 Y122.425 Z-9.340 I-1.935 J18.986 K0.000 F2500.000
G0 Z5.000
G0 X34.925 Y132.589 Z5.000
G0 X34.925 Y132.589 Z3.000
G1 X34.925 Y132.589 Z-9.340 F500.000
G2 X19.463 Y121.389 Z-9.340 I-17.425 J7.784 K0.000 F2500.000
G2 X-1.484 Y138.423 Z-9.340 I-1.963 J18.983 K0.000 F2500.000
G2 X15.565 Y159.358 Z-9.340 I18.984 J1.949 K0.000 F2500.000
G2 X34.925 Y132.589 Z-9.340 I1.935 J-18.986 K0.000 F2500.000
G0 Z5.000
G0 X23.919 Y163.400 Z5.000
G0 X23.919 Y163.400 Z3.000
G1 X23.919 Y163.400 Z-9.340 F500.000
G2 X19.463 Y162.389 Z-9.340 I-6.419 J17.972 K0.000 F2500.000
G2 X-1.484 Y179.423 Z-9.340 I-1.963 J18.983 K0.000 F2500.000
G2 X15.565 Y200.358 Z-9.340 I18.984 J1.949 K0.000 F2500.000
G2 X23.919 Y163.400 Z-9.340 I1.935 J-18.986 K0.000 F2500.000
G0 Z5.000
G0 X46.741 Y173.591 Z5.000
G0 X46.741 Y173.591 Z3.000
G1 X46.741 Y173.591 Z-9.340 F500.000
G2 X62.231 Y200.358 Z-9.340 I17.426 J7.781 K0.000 F2500.000
G2 X83.152 Y183.308 Z-9.340 I1.935 J-18.986 K0.000 F2500.000
G2 X66.102 Y162.387 Z-9.340 I-18.986 J-1.935 K0.000 F2500.000
G2 X46.741 Y173.591 Z-9.340 I-1.935 J18.986 K0.000 F2500.000
G0 Z5.000
G0 X57.747 Y204.400 Z5.000
G0 X57.747 Y204.400 Z3.000
G1 X57.747 Y204.400 Z-9.340 F500.000
G2 X62.231 Y241.358 Z-9.340 I6.420 J17.972 K0.000 F2500.000
G2 X83.152 Y224.308 Z-9.340 I1.935 J-18.986 K0.000 F2500.000
G2 X66.102 Y203.387 Z-9.340 I-18.986 J-1.935 K0.000 F2500.000
G2 X57.747 Y204.400 Z-9.340 I-1.935 J18.986 K0.000 F2500.000
G0 Z5.000
G0 X34.926 Y214.591 Z5.000
G0 X34.926 Y214.591 Z3.000
G1 X34.926 Y214.591 Z-9.340 F500.000
G2 X19.463 Y203.389 Z-9.340 I-17.426 J7.781 K0.000 F2500.000
G2 X-1.484 Y220.423 Z-9.340 I-1.963 J18.983 K0.000 F2500.000
G2 X15.565 Y241.358 Z-9.340 I18.984 J1.949 K0.000 F2500.000
G2 X34.926 Y214.591 Z-9.340 I1.935 J-18.986 K0.000 F2500.000
G0 Z5.000
G0 X23.920 Y245.400 Z5.000
G0 X23.920 Y245.400 Z3.000
G1 X23.920 Y245.400 Z-9.340 F500.000
G2 X19.463 Y244.389 Z-9.340 I-6.420 J17.972 K0.000 F2500.000
G2 X-1.484 Y261.423 Z-9.340 I-1.963 J18.983 K0.000 F2500.000
G2 X15.565 Y282.358 Z-9.340 I18.984 J1.949 K0.000 F2500.000
G2 X23.920 Y245.400 Z-9.340 I1.935 J-18.986 K0.000 F2500.000
G0 Z5.000
G0 X46.741 Y255.591 Z5.000
G0 X46.741 Y255.591 Z3.000
G1 X46.741 Y255.591 Z-9.340 F500.000
G2 X62.231 Y282.358 Z-9.340 I17.426 J7.781 K0.000 F2500.000
G2 X66.102 Y244.387 Z-9.340 I1.935 J-18.986 K0.000 F2500.000
G2 X46.741 Y255.591 Z-9.340 I-1.935 J18.986 K0.000 F2500.000
G0 Z5.000
G0 X57.747 Y286.400 Z5.000
G0 X57.747 Y286.400 Z3.000
G1 X57.747 Y286.400 Z-9.340 F500.000
G2 X62.204 Y323.355 Z-9.340 I6.420 J17.972 K0.000 F2500.000
G2 X83.151 Y306.322 Z-9.340 I1.963 J-18.983 K0.000 F2500.000
G2 X66.102 Y285.387 Z-9.340 I-18.984 J-1.949 K0.000 F2500.000
G2 X57.747 Y286.400 Z-9.340 I-1.935 J18.986 K0.000 F2500.000
G0 Z5.000
G0 X34.926 Y296.591 Z5.000
G0 X34.926 Y296.591 Z3.000
G1 X34.926 Y296.591 Z-9.340 F500.000
G2 X19.463 Y285.389 Z-9.340 I-17.426 J7.781 K0.000 F2500.000
G2 X-1.484 Y302.423 Z-9.340 I-1.963 J18.983 K0.000 F2500.000
G2 X15.565 Y323.358 Z-9.340 I18.984 J1.949 K0.000 F2500.000
G2 X34.926 Y296.591 Z-9.340 I1.935 J-18.986 K0.000 F2500.000
G0 Z5.000
G0 X23.920 Y327.400 Z5.000
G0 X23.920 Y327.400 Z3.000
G1 X23.920 Y327.400 Z-9.340 F500.000
G2 X19.463 Y326.389 Z-9.340 I-6.420 J17.972 K0.000 F2500.000
G2 X-1.483 Y343.409 Z-9.340 I-1.963 J18.983 K0.000 F2500.000
G2 X15.537 Y364.355 Z-9.340 I18.983 J1.963 K0.000 F2500.000
G2 X23.920 Y327.400 Z-9.340 I1.963 J-18.983 K0.000 F2500.000
G0 Z5.000
G0 X46.741 Y337.591 Z5.000
G0 X46.741 Y337.591 Z3.000
G1 X46.741 Y337.591 Z-9.340 F500.000
G2 X62.204 Y364.355 Z-9.340 I17.426 J7.781 K0.000 F2500.000
G2 X83.151 Y347.322 Z-9.340 I1.963 J-18.983 K0.000 F2500.000
G2 X66.102 Y326.387 Z-9.340 I-18.984 J-1.949 K0.000 F2500.000
G2 X46.741 Y337.591 Z-9.340 I-1.935 J18.986 K0.000 F2500.000
G0 Z5.000
G0 X57.747 Y368.400 Z5.000
G0 X57.747 Y368.400 Z3.000
G1 X57.747 Y368.400 Z-9.340 F500.000
G2 X62.231 Y405.358 Z-9.340 I6.420 J17.972 K0.000 F2500.000
G2 X83.152 Y388.308 Z-9.340 I1.935 J-18.986 K0.000 F2500.000
G2 X66.102 Y367.387 Z-9.340 I-18.986 J-1.935 K0.000 F2500.000
G2 X57.747 Y368.400 Z-9.340 I-1.935 J18.986 K0.000 F2500.000
G0 Z5.000
G0 X34.926 Y378.591 Z5.000
G0 X34.926 Y378.591 Z3.000
G1 X34.926 Y378.591 Z-9.340 F500.000
G2 X19.435 Y367.387 Z-9.340 I-17.426 J7.781 K0.000 F2500.000
G2 X15.565 Y405.358 Z-9.340 I-1.935 J18.986 K0.000 F2500.000
G2 X34.926 Y378.591 Z-9.340 I1.935 J-18.986 K0.000 F2500.000
G0 Z5.000
G0 X23.920 Y409.400 Z5.000
G0 X23.920 Y409.400 Z3.000
G1 X23.920 Y409.400 Z-9.340 F500.000
G2 X19.435 Y408.387 Z-9.340 I-6.420 J17.972 K0.000 F2500.000
G2 X-1.486 Y425.437 Z-9.340 I-1.935 J18.986 K0.000 F2500.000
G2 X15.565 Y446.358 Z-9.340 I18.986 J1.935 K0.000 F2500.000
G2 X23.920 Y409.400 Z-9.340 I1.935 J-18.986 K0.000 F2500.000
G0 Z5.000
G0 X46.741 Y419.591 Z5.000
G0 X46.741 Y419.591 Z3.000
G1 X46.741 Y419.591 Z-9.340 F500.000
G2 X62.231 Y446.358 Z-9.340 I17.426 J7.781 K0.000 F2500.000
G2 X66.102 Y408.387 Z-9.340 I1.935 J-18.986 K0.000 F2500.000
G2 X46.741 Y419.591 Z-9.340 I-1.935 J18.986 K0.000 F2500.000
G0 Z5.000
G0 X57.747 Y450.400 Z5.000
G0 X57.747 Y450.400 Z3.000
G1 X57.747 Y450.400 Z-9.340 F500.000
G2 X62.231 Y487.358 Z-9.340 I6.420 J17.972 K0.000 F2500.000
G2 X83.152 Y470.308 Z-9.340 I1.935 J-18.986 K0.000 F2500.000
G2 X66.102 Y449.387 Z-9.340 I-18.986 J-1.935 K0.000 F2500.000
G2 X57.747 Y450.400 Z-9.340 I-1.935 J18.986 K0.000 F2500.000
G0 Z5.000
G0 X34.926 Y460.591 Z5.000
G0 X34.926 Y460.591 Z3.000
G1 X34.926 Y460.591 Z-9.340 F500.000
G2 X19.435 Y449.387 Z-9.340 I-17.426 J7.781 K0.000 F2500.000
G2 X-1.486 Y466.437 Z-9.340 I-1.935 J18.986 K0.000 F2500.000
G2 X15.565 Y487.358 Z-9.340 I18.986 J1.935 K0.000 F2500.000
G2 X34.926 Y460.591 Z-9.340 I1.935 J-18.986 K0.000 F2500.000
G0 Z5.000
G0 X23.920 Y491.400 Z5.000
G0 X23.920 Y491.400 Z3.000
G1 X23.920 Y491.400 Z-9.340 F500.000
G2 X19.435 Y490.387 Z-9.340 I-6.420 J17.972 K0.000 F2500.000
G2 X-1.486 Y507.437 Z-9.340 I-1.935 J18.986 K0.000 F2500.000
G2 X15.565 Y528.358 Z-9.340 I18.986 J1.935 K0.000 F2500.000
G2 X23.920 Y491.400 Z-9.340 I1.935 J-18.986 K0.000 F2500.000
G0 Z5.000
G0 X46.741 Y501.591 Z5.000
G0 X46.741 Y501.591 Z3.000
G1 X46.741 Y501.591 Z-9.340 F500.000
G2 X62.231 Y528.358 Z-9.340 I17.426 J7.781 K0.000 F2500.000
G2 X66.102 Y490.387 Z-9.340 I1.935 J-18.986 K0.000 F2500.000
G2 X46.741 Y501.591 Z-9.340 I-1.935 J18.986 K0.000 F2500.000
G0 Z5.000
G0 X57.747 Y532.400 Z5.000
G0 X57.747 Y532.400 Z3.000
G1 X57.747 Y532.400 Z-9.340 F500.000
G2 X62.231 Y569.358 Z-9.340 I6.420 J17.972 K0.000 F2500.000
G2 X66.102 Y531.387 Z-9.340 I1.935 J-18.986 K0.000 F2500.000
G2 X57.747 Y532.400 Z-9.340 I-1.935 J18.986 K0.000 F2500.000
G0 Z5.000
G0 X34.926 Y542.591 Z5.000
G0 X34.926 Y542.591 Z3.000
G1 X34.926 Y542.591 Z-9.340 F500.000
G2 X19.435 Y531.387 Z-9.340 I-17.426 J7.781 K0.000 F2500.000
G2 X-1.486 Y548.437 Z-9.340 I-1.935 J18.986 K0.000 F2500.000
G2 X15.565 Y569.358 Z-9.340 I18.986 J1.935 K0.000 F2500.000
G2 X34.926 Y542.591 Z-9.340 I1.935 J-18.986 K0.000 F2500.000
G0 Z5.000
G0 X23.920 Y573.400 Z5.000
G0 X23.920 Y573.400 Z3.000
G1 X23.920 Y573.400 Z-9.340 F500.000
G2 X19.435 Y572.387 Z-9.340 I-6.420 J17.972 K0.000 F2500.000
G2 X15.565 Y610.358 Z-9.340 I-1.935 J18.986 K0.000 F2500.000
G2 X23.920 Y573.400 Z-9.340 I1.935 J-18.986 K0.000 F2500.000
G0 Z5.000
G0 X46.741 Y583.591 Z5.000
G0 X46.741 Y583.591 Z3.000
G1 X46.741 Y583.591 Z-9.340 F500.000
G2 X62.231 Y610.358 Z-9.340 I17.426 J7.781 K0.000 F2500.000
G2 X83.152 Y593.308 Z-9.340 I1.935 J-18.986 K0.000 F2500.000
G2 X66.102 Y572.387 Z-9.340 I-18.986 J-1.935 K0.000 F2500.000
G2 X46.741 Y583.591 Z-9.340 I-1.935 J18.986 K0.000 F2500.000
G0 Z5.000
G0 X57.747 Y614.400 Z5.000
G0 X57.747 Y614.400 Z3.000
G1 X57.747 Y614.400 Z-9.340 F500.000
G2 X62.231 Y651.358 Z-9.340 I6.420 J17.972 K0.000 F2500.000
G2 X83.152 Y634.308 Z-9.340 I1.935 J-18.986 K0.000 F2500.000
G2 X66.102 Y613.387 Z-9.340 I-18.986 J-1.935 K0.000 F2500.000
G2 X57.747 Y614.400 Z-9.340 I-1.935 J18.986 K0.000 F2500.000
G0 Z5.000
G0 X34.926 Y624.591 Z5.000
G0 X34.926 Y624.591 Z3.000
G1 X34.926 Y624.591 Z-9.340 F500.000
G2 X19.435 Y613.387 Z-9.340 I-17.426 J7.781 K0.000 F2500.000
G2 X15.565 Y651.358 Z-9.340 I-1.935 J18.986 K0.000 F2500.000
G2 X34.926 Y624.591 Z-9.340 I1.935 J-18.986 K0.000 F2500.000
G0 Z5.000
G0 X91.849 Y630.426 Z5.000
G0 X91.849 Y630.426 Z3.000
G1 X91.849 Y630.426 Z-9.340 F500.000
G2 X108.898 Y651.358 Z-9.340 I18.985 J1.946 K0.000 F2500.000
G2 X112.769 Y613.387 Z-9.340 I1.935 J-18.986 K0.000 F2500.000
G2 X91.849 Y630.426 Z-9.340 I-1.935 J18.986 K0.000 F2500.000
G0 Z5.000
G0 X102.490 Y608.536 Z5.000
G0 X102.490 Y608.536 Z3.000
G1 X102.490 Y608.536 Z-9.340 F500.000
G2 X108.898 Y610.358 Z-9.340 I8.344 J-17.164 K0.000 F2500.000
G2 X112.769 Y572.387 Z-9.340 I1.935 J-18.986 K0.000 F2500.000
G2 X102.490 Y608.536 Z-9.340 I-1.935 J18.986 K0.000 F2500.000
G0 Z5.000
G0 X139.282 Y597.057 Z5.000
G0 X139.282 Y597.057 Z3.000
G1 X139.282 Y597.057 Z-9.340 F500.000
G2 X155.537 Y610.355 Z-9.340 I18.218 J-5.684 K0.000 F2500.000
G2 X176.484 Y593.322 Z-9.340 I1.963 J-18.983 K0.000 F2500.000
G2 X159.435 Y572.387 Z-9.340 I-18.984 J-1.949 K0.000 F2500.000
G2 X139.282 Y597.057 Z-9.340 I-1.935 J18.986 K0.000 F2500.000
G0 Z5.000
G0 X148.751 Y615.412 Z5.000
G0 X148.751 Y615.412 Z3.000
G1 X148.751 Y615.412 Z-9.340 F500.000
G2 X155.537 Y651.355 Z-9.340 I8.749 J16.960 K0.000 F2500.000
G2 X176.484 Y634.322 Z-9.340 I1.963 J-18.983 K0.000 F2500.000
G2 X159.435 Y613.387 Z-9.340 I-18.984 J-1.949 K0.000 F2500.000
G2 X148.751 Y615.412 Z-9.340 I-1.935 J18.986 K0.000 F2500.000
G1 X148.751 Y615.412 Z-12.510 F500.000
G2 X155.537 Y651.355 Z-12.510 I8.749 J16.960 K0.000 F2500.000
G2 X176.484 Y634.322 Z-12.510 I1.963 J-18.983 K0.000 F2500.000
G2 X159.435 Y613.387 Z-12.510 I-18.984 J-1.949 K0.000 F2500.000
G2 X148.751 Y615.412 Z-12.510 I-1.935 J18.986 K0.000 F2500.000
G0 Z5.000
G0 X150.973 Y609.306 Z5.000
G0 X150.973 Y609.306 Z3.000
G1 X150.973 Y609.306 Z-12.510 F500.000
G2 X155.537 Y610.355 Z-12.510 I6.527 J-17.933 K0.000 F2500.000
G2 X176.484 Y593.322 Z-12.510 I1.963 J-18.983 K0.000 F2500.000
G2 X159.435 Y572.387 Z-12.510 I-18.984 J-1.949 K0.000 F2500.000
G2 X150.973 Y609.306 Z-12.510 I-1.935 J18.986 K0.000 F2500.000
G0 Z5.000
G0 X128.258 Y599.157 Z5.000
G0 X128.258 Y599.157 Z3.000
G1 X128.258 Y599.157 Z-12.510 F500.000
G2 X112.769 Y572.387 Z-12.510 I-17.424 J-7.785 K0.000 F2500.000
G2 X91.848 Y589.437 Z-12.510 I-1.935 J18.986 K0.000 F2500.000
G2 X108.898 Y610.358 Z-12.510 I18.986 J1.935 K0.000 F2500.000
G2 X128.258 Y599.157 Z-12.510 I1.935 J-18.986 K0.000 F2500.000
G0 Z5.000
G0 X119.699 Y615.472 Z5.000
G0 X119.699 Y615.472 Z3.000
G1 X119.699 Y615.472 Z-12.510 F500.000
G2 X112.769 Y613.387 Z-12.510 I-8.866 J16.900 K0.000 F2500.000
G2 X91.848 Y630.437 Z-12.510 I-1.935 J18.986 K0.000 F2500.000
G2 X108.898 Y651.358 Z-12.510 I18.986 J1.935 K0.000 F2500.000
G2 X119.699 Y615.472 Z-12.510 I1.935 J-18.986 K0.000 F2500.000
G0 Z5.000
G0 X82.424 Y626.816 Z5.000
G0 X82.424 Y626.816 Z3.000
G1 X82.424 Y626.816 Z-12.510 F500.000
G2 X66.102 Y613.387 Z-12.510 I-18.257 J5.556 K0.000 F2500.000
G2 X62.231 Y651.358 Z-12.510 I-1.935 J18.986 K0.000 F2500.000
G2 X82.424 Y626.816 Z-12.510 I1.935 J-18.986 K0.000 F2500.000
G0 Z5.000
G0 X72.906 Y608.338 Z5.000
G0 X72.906 Y608.338 Z3.000
G1 X72.906 Y608.338 Z-12.510 F500.000
G2 X66.102 Y572.387 Z-12.510 I-8.739 J-16.966 K0.000 F2500.000
G2 X62.231 Y610.358 Z-12.510 I-1.935 J18.986 K0.000 F2500.000
G2 X72.906 Y608.338 Z-12.510 I1.935 J-18.986 K0.000 F2500.000
G0 Z5.000
G0 X35.748 Y596.960 Z5.000
G0 X35.748 Y596.960 Z3.000
G1 X35.748 Y596.960 Z-12.510 F500.000
G2 X19.435 Y572.387 Z-12.510 I-18.248 J-5.588 K0.000 F2500.000
G2 X15.565 Y610.358 Z-12.510 I-1.935 J18.986 K0.000 F2500.000
G2 X35.748 Y596.960 Z-12.510 I1.935 J-18.986 K0.000 F2500.000
G0 Z5.000
G0 X26.242 Y615.408 Z5.000
G0 X26.242 Y615.408 Z3.000
G1 X26.242 Y615.408 Z-12.510 F500.000
G2 X19.435 Y613.387 Z-12.510 I-8.742 J16.964 K0.000 F2500.000
G2 X15.565 Y651.358 Z-12.510 I-1.935 J18.986 K0.000 F2500.000
G2 X26.242 Y615.408 Z-12.510 I1.935 J-18.986 K0.000 F2500.000
G0 Z5.000
G0 X20.042 Y569.287 Z5.000
G0 X20.042 Y569.287 Z3.000
G1 X20.042 Y569.287 Z-12.510 F500.000
G2 X19.435 Y531.387 Z-12.510 I-2.542 J-18.914 K0.000 F2500.000
G2 X-1.486 Y548.437 Z-12.510 I-1.935 J18.986 K0.000 F2500.000
G2 X15.565 Y569.358 Z-12.510 I18.986 J1.935 K0.000 F2500.000
G2 X20.042 Y569.287 Z-12.510 I1.935 J-18.986 K0.000 F2500.000
G0 Z5.000
G0 X46.626 Y557.891 Z5.000
G0 X46.626 Y557.891 Z3.000
G1 X46.626 Y557.891 Z-12.510 F500.000
G2 X62.231 Y569.358 Z-12.510 I17.541 J-7.519 K0.000 F2500.000
G2 X66.102 Y531.387 Z-12.510 I1.935 J-18.986 K0.000 F2500.000
G2 X46.626 Y557.891 Z-12.510 I-1.935 J18.986 K0.000 F2500.000
G0 Z5.000
G0 X57.678 Y527.320 Z5.000
G0 X57.678 Y527.320 Z3.000
G1 X57.678 Y527.320 Z-12.510 F500.000
G2 X62.231 Y528.358 Z-12.510 I6.488 J-17.947 K0.000 F2500.000
G2 X66.102 Y490.387 Z-12.510 I1.935 J-18.986 K0.000 F2500.000
G2 X57.678 Y527.320 Z-12.510 I-1.935 J18.986 K0.000 F2500.000
G0 Z5.000
G0 X34.925 Y517.156 Z5.000
G0 X34.925 Y517.156 Z3.000
G1 X34.925 Y517.156 Z-12.510 F500.000
G2 X19.435 Y490.387 Z-12.510 I-17.425 J-7.784 K0.000 F2500.000
G2 X-1.486 Y507.437 Z-12.510 I-1.935 J18.986 K0.000 F2500.000
G2 X15.565 Y528.358 Z-12.510 I18.986 J1.935 K0.000 F2500.000
G2 X34.925 Y517.156 Z-12.510 I1.935 J-18.986 K0.000 F2500.000
G0 Z5.000
G0 X23.919 Y486.345 Z5.000
G0 X23.919 Y486.345 Z3.000
G1 X23.919 Y486.345 Z-12.510 F500.000
G2 X19.435 Y449.387 Z-12.510 I-6.419 J-17.972 K0.000 F2500.000
G2 X-1.486 Y466.437 Z-12.510 I-1.935 J18.986 K0.000 F2500.000
G2 X15.565 Y487.358 Z-12.510 I18.986 J1.935 K0.000 F2500.000
G2 X23.919 Y486.345 Z-12.510 I1.935 J-18.986 K0.000 F2500.000
G0 Z5.000
G0 X46.741 Y476.154 Z5.000
G0 X46.741 Y476.154 Z3.000
G1 X46.741 Y476.154 Z-12.510 F500.000
G2 X62.231 Y487.358 Z-12.510 I17.426 J-7.781 K0.000 F2500.000
G2 X83.152 Y470.308 Z-12.510 I1.935 J-18.986 K0.000 F2500.000
G2 X66.102 Y449.387 Z-12.510 I-18.986 J-1.935 K0.000 F2500.000
G2 X46.741 Y476.154 Z-12.510 I-1.935 J18.986 K0.000 F2500.000
G0 Z5.000
G0 X57.747 Y445.344 Z5.000
G0 X57.747 Y445.344 Z3.000
G1 X57.747 Y445.344 Z-12.510 F500.000
G2 X62.231 Y446.358 Z-12.510 I6.420 J-17.972 K0.000 F2500.000
G2 X66.102 Y408.387 Z-12.510 I1.935 J-18.986 K0.000 F2500.000
G2 X57.747 Y445.344 Z-12.510 I-1.935 J18.986 K0.000 F2500.000
G0 Z5.000
G0 X34.926 Y435.154 Z5.000
G0 X34.926 Y435.154 Z3.000
G1 X34.926 Y435.154 Z-12.510 F500.000
G2 X19.435 Y408.387 Z-12.510 I-17.426 J-7.781 K0.000 F2500.000
G2 X-1.486 Y425.437 Z-12.510 I-1.935 J18.986 K0.000 F2500.000
G2 X15.565 Y446.358 Z-12.510 I18.986 J1.935 K0.000 F2500.000
G2 X34.926 Y435.154 Z-12.510 I1.935 J-18.986 K0.000 F2500.000
G0 Z5.000
G0 X23.920 Y404.344 Z5.000
G0 X23.920 Y404.344 Z3.000
G1 X23.920 Y404.344 Z-12.510 F500.000
G2 X19.435 Y367.387 Z-12.510 I-6.420 J-17.972 K0.000 F2500.000
G2 X15.565 Y405.358 Z-12.510 I-1.935 J18.986 K0.000 F2500.000
G2 X23.920 Y404.344 Z-12.510 I1.935 J-18.986 K0.000 F2500.000
G0 Z5.000
G0 X46.741 Y394.154 Z5.000
G0 X46.741 Y394.154 Z3.000
G1 X46.741 Y394.154 Z-12.510 F500.000
G2 X62.231 Y405.358 Z-12.510 I17.426 J-7.781 K0.000 F2500.000
G2 X83.152 Y388.308 Z-12.510 I1.935 J-18.986 K0.000 F2500.000
G2 X66.102 Y367.387 Z-12.510 I-18.986 J-1.935 K0.000 F2500.000
G2 X46.741 Y394.154 Z-12.510 I-1.935 J18.986 K0.000 F2500.000
G0 Z5.000
G0 X57.747 Y363.344 Z5.000
G0 X57.747 Y363.344 Z3.000
G1 X57.747 Y363.344 Z-12.510 F500.000
G2 X62.204 Y364.355 Z-12.510 I6.420 J-17.972 K0.000 F2500.000
G2 X83.151 Y347.322 Z-12.510 I1.963 J-18.983 K0.000 F2500.000
G2 X66.102 Y326.387 Z-12.510 I-18.984 J-1.949 K0.000 F2500.000
G2 X57.747 Y363.344 Z-12.510 I-1.935 J18.986 K0.000 F2500.000
G0 Z5.000
G0 X34.926 Y353.154 Z5.000
G0 X34.926 Y353.154 Z3.000
G1 X34.926 Y353.154 Z-12.510 F500.000
G2 X19.463 Y326.389 Z-12.510 I-17.426 J-7.781 K0.000 F2500.000
G2 X-1.483 Y343.409 Z-12.510 I-1.963 J18.983 K0.000 F2500.000
G2 X15.537 Y364.355 Z-12.510 I18.983 J1.963 K0.000 F2500.000
G2 X34.926 Y353.154 Z-12.510 I1.963 J-18.983 K0.000 F2500.000
G0 Z5.000
G0 X23.920 Y322.344 Z5.000
G0 X23.920 Y322.344 Z3.000
G1 X23.920 Y322.344 Z-12.510 F500.000
G2 X19.463 Y285.389 Z-12.510 I-6.420 J-17.972 K0.000 F2500.000
G2 X-1.484 Y302.423 Z-12.510 I-1.963 J18.983 K0.000 F2500.000
G2 X15.565 Y323.358 Z-12.510 I18.984 J1.949 K0.000 F2500.000
G2 X23.920 Y322.344 Z-12.510 I1.935 J-18.986 K0.000 F2500.000
G0 Z5.000
G0 X46.741 Y312.154 Z5.000
G0 X46.741 Y312.154 Z3.000
G1 X46.741 Y312.154 Z-12.510 F500.000
G2 X62.204 Y323.355 Z-12.510 I17.426 J-7.781 K0.000 F2500.000
G2 X83.151 Y306.322 Z-12.510 I1.963 J-18.983 K0.000 F2500.000
G2 X66.102 Y285.387 Z-12.510 I-18.984 J-1.949 K0.000 F2500.000
G2 X46.741 Y312.154 Z-12.510 I-1.935 J18.986 K0.000 F2500.000
G0 Z5.000
G0 X57.747 Y281.344 Z5.000
G0 X57.747 Y281.344 Z3.000
G1 X57.747 Y281.344 Z-12.510 F500.000
G2 X62.231 Y282.358 Z-12.510 I6.420 J-17.972 K0.000 F2500.000
G2 X66.102 Y244.387 Z-12.510 I1.935 J-18.986 K0.000 F2500.000
G2 X57.747 Y281.344 Z-12.510 I-1.935 J18.986 K0.000 F2500.000
G0 Z5.000
G0 X34.926 Y271.154 Z5.000
G0 X34.926 Y271.154 Z3.000
G1 X34.926 Y271.154 Z-12.510 F500.000
G2 X19.463 Y244.389 Z-12.510 I-17.426 J-7.781 K0.000 F2500.000
G2 X-1.484 Y261.423 Z-12.510 I-1.963 J18.983 K0.000 F2500.000
G2 X15.565 Y282.358 Z-12.510 I18.984 J1.949 K0.000 F2500.000
G2 X34.926 Y271.154 Z-12.510 I1.935 J-18.986 K0.000 F2500.000
G0 Z5.000
G0 X23.920 Y240.344 Z5.000
G0 X23.920 Y240.344 Z3.000
G1 X23.920 Y240.344 Z-12.510 F500.000
G2 X19.463 Y203.389 Z-12.510 I-6.420 J-17.972 K0.000 F2500.000
G2 X-1.484 Y220.423 Z-12.510 I-1.963 J18.983 K0.000 F2500.000
G2 X15.565 Y241.358 Z-12.510 I18.984 J1.949 K0.000 F2500.000
G2 X23.920 Y240.344 Z-12.510 I1.935 J-18.986 K0.000 F2500.000
G0 Z5.000
G0 X46.741 Y230.154 Z5.000
G0 X46.741 Y230.154 Z3.000
G1 X46.741 Y230.154 Z-12.510 F500.000
G2 X62.231 Y241.358 Z-12.510 I17.426 J-7.781 K0.000 F2500.000
G2 X83.152 Y224.308 Z-12.510 I1.935 J-18.986 K0.000 F2500.000
G2 X66.102 Y203.387 Z-12.510 I-18.986 J-1.935 K0.000 F2500.000
G2 X46.741 Y230.154 Z-12.510 I-1.935 J18.986 K0.000 F2500.000
G0 Z5.000
G0 X57.747 Y199.344 Z5.000
G0 X57.747 Y199.344 Z3.000
G1 X57.747 Y199.344 Z-12.510 F500.000
G2 X62.231 Y200.358 Z-12.510 I6.420 J-17.972 K0.000 F2500.000
G2 X83.152 Y183.308 Z-12.510 I1.935 J-18.986 K0.000 F2500.000
G2 X66.102 Y162.387 Z-12.510 I-18.986 J-1.935 K0.000 F2500.000
G2 X57.747 Y199.344 Z-12.510 I-1.935 J18.986 K0.000 F2500.000
G0 Z5.000
G0 X34.926 Y189.154 Z5.000
G0 X34.926 Y189.154 Z3.000
G1 X34.926 Y189.154 Z-12.510 F500.000
G2 X19.463 Y162.389 Z-12.510 I-17.426 J-7.781 K0.000 F2500.000
G2 X-1.484 Y179.423 Z-12.510 I-1.963 J18.983 K0.000 F2500.000
G2 X15.565 Y200.358 Z-12.510 I18.984 J1.949 K0.000 F2500.000
G2 X34.926 Y189.154 Z-12.510 I1.935 J-18.986 K0.000 F2500.000
G0 Z5.000
G0 X23.920 Y158.344 Z5.000
G0 X23.920 Y158.344 Z3.000
G1 X23.920 Y158.344 Z-12.510 F500.000
G2 X19.463 Y121.389 Z-12.510 I-6.420 J-17.972 K0.000 F2500.000
G2 X-1.484 Y138.423 Z-12.510 I-1.963 J18.983 K0.000 F2500.000
G2 X15.565 Y159.358 Z-12.510 I18.984 J1.949 K0.000 F2500.000
G2 X23.920 Y158.344 Z-12.510 I1.935 J-18.986 K0.000 F2500.000
G0 Z5.000
G0 X46.741 Y148.154 Z5.000
G0 X46.741 Y148.154 Z3.000
G1 X46.741 Y148.154 Z-12.510 F500.000
G2 X62.231 Y159.358 Z-12.510 I17.426 J-7.781 K0.000 F2500.000
G2 X83.152 Y142.308 Z-12.510 I1.935 J-18.986 K0.000 F2500.000
G2 X66.102 Y121.387 Z-12.510 I-18.986 J-1.935 K0.000 F2500.000
G2 X46.741 Y148.154 Z-12.510 I-1.935 J18.986 K0.000 F2500.000
G0 Z5.000
G0 X57.747 Y117.344 Z5.000
G0 X57.747 Y117.344 Z3.000
G1 X57.747 Y117.344 Z-12.510 F500.000
G2 X62.231 Y118.358 Z-12.510 I6.420 J-17.972 K0.000 F2500.000
G2 X83.152 Y101.308 Z-12.510 I1.935 J-18.986 K0.000 F2500.000
G2 X66.102 Y80.387 Z-12.510 I-18.986 J-1.935 K0.000 F2500.000
G2 X57.747 Y117.344 Z-12.510 I-1.935 J18.986 K0.000 F2500.000
G0 Z5.000
G0 X34.926 Y107.154 Z5.000
G0 X34.926 Y107.154 Z3.000
G1 X34.926 Y107.154 Z-12.510 F500.000
G2 X19.463 Y80.389 Z-12.510 I-17.426 J-7.781 K0.000 F2500.000
G2 X-1.484 Y97.423 Z-12.510 I-1.963 J18.983 K0.000 F2500.000
G2 X15.565 Y118.358 Z-12.510 I18.984 J1.949 K0.000 F2500.000
G2 X34.926 Y107.154 Z-12.510 I1.935 J-18.986 K0.000 F2500.000
G0 Z5.000
G0 X23.920 Y76.344 Z5.000
G0 X23.920 Y76.344 Z3.000
G1 X23.920 Y76.344 Z-12.510 F500.000
G2 X19.463 Y39.389 Z-12.510 I-6.420 J-17.972 K0.000 F2500.000
G2 X-1.484 Y56.423 Z-12.510 I-1.963 J18.983 K0.000 F2500.000
G2 X15.565 Y77.358 Z-12.510 I18.984 J1.949 K0.000 F2500.000
G2 X23.920 Y76.344 Z-12.510 I1.935 J-18.986 K0.000 F2500.000
G0 Z5.000
G0 X46.741 Y66.154 Z5.000
G0 X46.741 Y66.154 Z3.000
G1 X46.741 Y66.154 Z-12.510 F500.000
G2 X62.231 Y77.358 Z-12.510 I17.426 J-7.781 K0.000 F2500.000
G2 X83.152 Y60.308 Z-12.510 I1.935 J-18.986 K0.000 F2500.000
G2 X66.102 Y39.387 Z-12.510 I-18.986 J-1.935 K0.000 F2500.000
G2 X46.741 Y66.154 Z-12.510 I-1.935 J18.986 K0.000 F2500.000
G0 Z5.000
G0 X57.747 Y35.344 Z5.000
G0 X57.747 Y35.344 Z3.000
G1 X57.747 Y35.344 Z-12.510 F500.000
G2 X62.231 Y36.358 Z-12.510 I6.420 J-17.972 K0.000 F2500.000
G2 X83.152 Y19.308 Z-12.510 I1.935 J-18.986 K0.000 F2500.000
G2 X66.102 Y-1.613 Z-12.510 I-18.986 J-1.935 K0.000 F2500.000
G2 X57.747 Y35.344 Z-12.510 I-1.935 J18.986 K0.000 F2500.000
G0 Z5.000
G0 X34.926 Y25.154 Z5.000
G0 X34.926 Y25.154 Z3.000
G1 X34.926 Y25.154 Z-12.510 F500.000
G2 X19.463 Y-1.611 Z-12.510 I-17.426 J-7.781 K0.000 F2500.000
G2 X-1.484 Y15.423 Z-12.510 I-1.963 J18.983 K0.000 F2500.000
G2 X15.565 Y36.358 Z-12.510 I18.984 J1.949 K0.000 F2500.000
G2 X34.926 Y25.154 Z-12.510 I1.935 J-18.986 K0.000 F2500.000
G0 Z5.000
G0 X91.849 Y19.319 Z5.000
G0 X91.849 Y19.319 Z3.000
G1 X91.849 Y19.319 Z-12.510 F500.000
G2 X108.898 Y36.358 Z-12.510 I18.985 J-1.946 K0.000 F2500.000
G2 X112.769 Y-1.613 Z-12.510 I1.935 J-18.986 K0.000 F2500.000
G2 X91.849 Y19.319 Z-12.510 I-1.935 J18.986 K0.000 F2500.000
G0 Z5.000
G0 X102.490 Y41.209 Z5.000
G0 X102.490 Y41.209 Z3.000
G1 X102.490 Y41.209 Z-12.510 F500.000
G2 X108.898 Y77.358 Z-12.510 I8.344 J17.164 K0.000 F2500.000
G2 X112.769 Y39.387 Z-12.510 I1.935 J-18.986 K0.000 F2500.000
G2 X102.490 Y41.209 Z-12.510 I-1.935 J18.986 K0.000 F2500.000
G0 Z5.000
G0 X139.282 Y52.688 Z5.000
G0 X139.282 Y52.688 Z3.000
G1 X139.282 Y52.688 Z-12.510 F500.000
G2 X155.565 Y77.358 Z-12.510 I18.218 J5.684 K0.000 F2500.000
G2 X159.435 Y39.387 Z-12.510 I1.935 J-18.986 K0.000 F2500.000
G2 X139.282 Y52.688 Z-12.510 I-1.935 J18.986 K0.000 F2500.000
G0 Z5.000
G0 X148.751 Y34.333 Z5.000
G0 X148.751 Y34.333 Z3.000
G1 X148.751 Y34.333 Z-12.510 F500.000
G2 X155.565 Y36.358 Z-12.510 I8.749 J-16.960 K0.000 F2500.000
G2 X159.435 Y-1.613 Z-12.510 I1.935 J-18.986 K0.000 F2500.000
G2 X148.751 Y34.333 Z-12.510 I-1.935 J18.986 K0.000 F2500.000
G0 Z5.000
G0 X154.956 Y80.459 Z5.000
G0 X154.956 Y80.459 Z3.000
G1 X154.956 Y80.459 Z-12.510 F500.000
G2 X155.565 Y118.358 Z-12.510 I2.544 J18.914 K0.000 F2500.000
G2 X176.486 Y101.308 Z-12.510 I1.935 J-18.986 K0.000 F2500.000
G2 X159.435 Y80.387 Z-12.510 I-18.986 J-1.935 K0.000 F2500.000
G2 X154.956 Y80.459 Z-12.510 I-1.935 J18.986 K0.000 F2500.000
G0 Z5.000
G0 X128.374 Y91.853 Z5.000
G0 X128.374 Y91.853 Z3.000
G1 X128.374 Y91.853 Z-12.510 F500.000
G2 X112.769 Y80.387 Z-12.510 I-17.541 J7.519 K0.000 F2500.000
G2 X108.898 Y118.358 Z-12.510 I-1.935 J18.986 K0.000 F2500.000
G2 X128.374 Y91.853 Z-12.510 I1.935 J-18.986 K0.000 F2500.000
G0 Z5.000
G0 X117.322 Y122.425 Z5.000
G0 X117.322 Y122.425 Z3.000
G1 X117.322 Y122.425 Z-12.510 F500.000
G2 X112.769 Y121.387 Z-12.510 I-6.488 J17.947 K0.000 F2500.000
G2 X108.898 Y159.358 Z-12.510 I-1.935 J18.986 K0.000 F2500.000
G2 X117.322 Y122.425 Z-12.510 I1.935 J-18.986 K0.000 F2500.000
G0 Z5.000
G0 X140.075 Y132.589 Z5.000
G0 X140.075 Y132.589 Z3.000
G1 X140.075 Y132.589 Z-12.510 F500.000
G2 X155.565 Y159.358 Z-12.510 I17.425 J7.784 K0.000 F2500.000
G2 X176.486 Y142.308 Z-12.510 I1.935 J-18.986 K0.000 F2500.000
G2 X159.435 Y121.387 Z-12.510 I-18.986 J-1.935 K0.000 F2500.000
G2 X140.075 Y132.589 Z-12.510 I-1.935 J18.986 K0.000 F2500.000
G0 Z5.000
G0 X151.081 Y163.400 Z5.000
G0 X151.081 Y163.400 Z3.000
G1 X151.081 Y163.400 Z-12.510 F500.000
G2 X155.565 Y200.358 Z-12.510 I6.419 J17.972 K0.000 F2500.000
G2 X176.486 Y183.308 Z-12.510 I1.935 J-18.986 K0.000 F2500.000
G2 X159.435 Y162.387 Z-12.510 I-18.986 J-1.935 K0.000 F2500.000
G2 X151.081 Y163.400 Z-12.510 I-1.935 J18.986 K0.000 F2500.000
G0 Z5.000
G0 X128.259 Y173.591 Z5.000
G0 X128.259 Y173.591 Z3.000
G1 X128.259 Y173.591 Z-12.510 F500.000
G2 X112.769 Y162.387 Z-12.510 I-17.426 J7.781 K0.000 F2500.000
G2 X91.848 Y179.437 Z-12.510 I-1.935 J18.986 K0.000 F2500.000
G2 X108.898 Y200.358 Z-12.510 I18.986 J1.935 K0.000 F2500.000
G2 X128.259 Y173.591 Z-12.510 I1.935 J-18.986 K0.000 F2500.000
G0 Z5.000
G0 X117.253 Y204.400 Z5.000
G0 X117.253 Y204.400 Z3.000
G1 X117.253 Y204.400 Z-12.510 F500.000
G2 X112.769 Y203.387 Z-12.510 I-6.420 J17.972 K0.000 F2500.000
G2 X108.898 Y241.358 Z-12.510 I-1.935 J18.986 K0.000 F2500.000
G2 X117.253 Y204.400 Z-12.510 I1.935 J-18.986 K0.000 F2500.000
G0 Z5.000
G0 X140.074 Y214.591 Z5.000
G0 X140.074 Y214.591 Z3.000
G1 X140.074 Y214.591 Z-12.510 F500.000
G2 X155.537 Y241.355 Z-12.510 I17.426 J7.781 K0.000 F2500.000
G2 X176.484 Y224.322 Z-12.510 I1.963 J-18.983 K0.000 F2500.000
G2 X159.435 Y203.387 Z-12.510 I-18.984 J-1.949 K0.000 F2500.000
G2 X140.074 Y214.591 Z-12.510 I-1.935 J18.986 K0.000 F2500.000
G0 Z5.000
G0 X151.080 Y245.400 Z5.000
G0 X151.080 Y245.400 Z3.000
G1 X151.080 Y245.400 Z-12.510 F500.000
G2 X155.537 Y282.355 Z-12.510 I6.420 J17.972 K0.000 F2500.000
G2 X176.484 Y265.322 Z-12.510 I1.963 J-18.983 K0.000 F2500.000
G2 X159.435 Y244.387 Z-12.510 I-18.984 J-1.949 K0.000 F2500.000
G2 X151.080 Y245.400 Z-12.510 I-1.935 J18.986 K0.000 F2500.000
G0 Z5.000
G0 X128.259 Y255.591 Z5.000
G0 X128.259 Y255.591 Z3.000
G1 X128.259 Y255.591 Z-12.510 F500.000
G2 X112.769 Y244.387 Z-12.510 I-17.426 J7.781 K0.000 F2500.000
G2 X91.848 Y261.437 Z-12.510 I-1.935 J18.986 K0.000 F2500.000
G2 X108.898 Y282.358 Z-12.510 I18.986 J1.935 K0.000 F2500.000
G2 X128.259 Y255.591 Z-12.510 I1.935 J-18.986 K0.000 F2500.000
G0 Z5.000
G0 X117.253 Y286.400 Z5.000
G0 X117.253 Y286.400 Z3.000
G1 X117.253 Y286.400 Z-12.510 F500.000
G2 X112.796 Y285.389 Z-12.510 I-6.420 J17.972 K0.000 F2500.000
G2 X91.849 Y302.423 Z-12.510 I-1.963 J18.983 K0.000 F2500.000
G2 X108.898 Y323.358 Z-12.510 I18.984 J1.949 K0.000 F2500.000
G2 X117.253 Y286.400 Z-12.510 I1.935 J-18.986 K0.000 F2500.000
G0 Z5.000
G0 X140.074 Y296.591 Z5.000
G0 X140.074 Y296.591 Z3.000
G1 X140.074 Y296.591 Z-12.510 F500.000
G2 X155.537 Y323.355 Z-12.510 I17.426 J7.781 K0.000 F2500.000
G2 X176.484 Y306.322 Z-12.510 I1.963 J-18.983 K0.000 F2500.000
G2 X159.435 Y285.387 Z-12.510 I-18.984 J-1.949 K0.000 F2500.000
G2 X140.074 Y296.591 Z-12.510 I-1.935 J18.986 K0.000 F2500.000
G0 Z5.000
G0 X151.080 Y327.400 Z5.000
G0 X151.080 Y327.400 Z3.000
G1 X151.080 Y327.400 Z-12.510 F500.000
G2 X155.537 Y364.355 Z-12.510 I6.420 J17.972 K0.000 F2500.000
G2 X176.484 Y347.322 Z-12.510 I1.963 J-18.983 K0.000 F2500.000
G2 X159.435 Y326.387 Z-12.510 I-18.984 J-1.949 K0.000 F2500.000
G2 X151.080 Y327.400 Z-12.510 I-1.935 J18.986 K0.000 F2500.000
G0 Z5.000
G0 X128.259 Y337.591 Z5.000
G0 X128.259 Y337.591 Z3.000
G1 X128.259 Y337.591 Z-12.510 F500.000
G2 X112.796 Y326.389 Z-12.510 I-17.426 J7.781 K0.000 F2500.000
G2 X91.849 Y343.423 Z-12.510 I-1.963 J18.983 K0.000 F2500.000
G2 X108.898 Y364.358 Z-12.510 I18.984 J1.949 K0.000 F2500.000
G2 X128.259 Y337.591 Z-12.510 I1.935 J-18.986 K0.000 F2500.000
G0 Z5.000
G0 X117.253 Y368.400 Z5.000
G0 X117.253 Y368.400 Z3.000
G1 X117.253 Y368.400 Z-12.510 F500.000
G2 X112.769 Y367.387 Z-12.510 I-6.420 J17.972 K0.000 F2500.000
G2 X108.898 Y405.358 Z-12.510 I-1.935 J18.986 K0.000 F2500.000
G2 X117.253 Y368.400 Z-12.510 I1.935 J-18.986 K0.000 F2500.000
G0 Z5.000
G0 X140.074 Y378.591 Z5.000
G0 X140.074 Y378.591 Z3.000
G1 X140.074 Y378.591 Z-12.510 F500.000
G2 X155.537 Y405.355 Z-12.510 I17.426 J7.781 K0.000 F2500.000
G2 X176.484 Y388.322 Z-12.510 I1.963 J-18.983 K0.000 F2500.000
G2 X159.435 Y367.387 Z-12.510 I-18.984 J-1.949 K0.000 F2500.000
G2 X140.074 Y378.591 Z-12.510 I-1.935 J18.986 K0.000 F2500.000
G0 Z5.000
G0 X151.080 Y409.400 Z5.000
G0 X151.080 Y409.400 Z3.000
G1 X151.080 Y409.400 Z-12.510 F500.000
G2 X155.537 Y446.355 Z-12.510 I6.420 J17.972 K0.000 F2500.000
G2 X176.484 Y429.322 Z-12.510 I1.963 J-18.983 K0.000 F2500.000
G2 X159.435 Y408.387 Z-12.510 I-18.984 J-1.949 K0.000 F2500.000
G2 X151.080 Y409.400 Z-12.510 I-1.935 J18.986 K0.000 F2500.000
G0 Z5.000
G0 X128.259 Y419.591 Z5.000
G0 X128.259 Y419.591 Z3.000
G1 X128.259 Y419.591 Z-12.510 F500.000
G2 X112.769 Y408.387 Z-12.510 I-17.426 J7.781 K0.000 F2500.000
G2 X91.848 Y425.437 Z-12.510 I-1.935 J18.986 K0.000 F2500.000
G2 X108.898 Y446.358 Z-12.510 I18.986 J1.935 K0.000 F2500.000
G2 X128.259 Y419.591 Z-12.510 I1.935 J-18.986 K0.000 F2500.000
G0 Z5.000
G0 X117.253 Y450.400 Z5.000
G0 X117.253 Y450.400 Z3.000
G1 X117.253 Y450.400 Z-12.510 F500.000
G2 X112.769 Y449.387 Z-12.510 I-6.420 J17.972 K0.000 F2500.000
G2 X91.848 Y466.437 Z-12.510 I-1.935 J18.986 K0.000 F2500.000
G2 X108.898 Y487.358 Z-12.510 I18.986 J1.935 K0.000 F2500.000
G2 X117.253 Y450.400 Z-12.510 I1.935 J-18.986 K0.000 F2500.000
G0 Z5.000
G0 X140.074 Y460.591 Z5.000
G0 X140.074 Y460.591 Z3.000
G1 X140.074 Y460.591 Z-12.510 F500.000
G2 X155.537 Y487.355 Z-12.510 I17.426 J7.781 K0.000 F2500.000
G2 X176.484 Y470.322 Z-12.510 I1.963 J-18.983 K0.000 F2500.000
G2 X159.435 Y449.387 Z-12.510 I-18.984 J-1.949 K0.000 F2500.000
G2 X140.074 Y460.591 Z-12.510 I-1.935 J18.986 K0.000 F2500.000
G0 Z5.000
G0 X151.080 Y491.400 Z5.000
G0 X151.080 Y491.400 Z3.000
G1 X151.080 Y491.400 Z-12.510 F500.000
G2 X155.537 Y528.355 Z-12.510 I6.420 J17.972 K0.000 F2500.000
G2 X176.484 Y511.322 Z-12.510 I1.963 J-18.983 K0.000 F2500.000
G2 X159.435 Y490.387 Z-12.510 I-18.984 J-1.949 K0.000 F2500.000
G2 X151.080 Y491.400 Z-12.510 I-1.935 J18.986 K0.000 F2500.000
G0 Z5.000
G0 X128.259 Y501.591 Z5.000
G0 X128.259 Y501.591 Z3.000
G1 X128.259 Y501.591 Z-12.510 F500.000
G2 X112.769 Y490.387 Z-12.510 I-17.426 J7.781 K0.000 F2500.000
G2 X91.848 Y507.437 Z-12.510 I-1.935 J18.986 K0.000 F2500.000
G2 X108.898 Y528.358 Z-12.510 I18.986 J1.935 K0.000 F2500.000
G2 X128.259 Y501.591 Z-12.510 I1.935 J-18.986 K0.000 F2500.000
G0 Z5.000
G0 X117.253 Y532.400 Z5.000
G0 X117.253 Y532.400 Z3.000
G1 X117.253 Y532.400 Z-12.510 F500.000
G2 X112.769 Y531.387 Z-12.510 I-6.420 J17.972 K0.000 F2500.000
G2 X91.848 Y548.437 Z-12.510 I-1.935 J18.986 K0.000 F2500.000
G2 X108.898 Y569.358 Z-12.510 I18.986 J1.935 K0.000 F2500.000
G2 X117.253 Y532.400 Z-12.510 I1.935 J-18.986 K0.000 F2500.000
G0 Z5.000
G0 X140.074 Y542.591 Z5.000
G0 X140.074 Y542.591 Z3.000
G1 X140.074 Y542.591 Z-12.510 F500.000
G2 X155.537 Y569.355 Z-12.510 I17.426 J7.781 K0.000 F2500.000
G2 X176.484 Y552.322 Z-12.510 I1.963 J-18.983 K0.000 F2500.000
G2 X159.435 Y531.387 Z-12.510 I-18.984 J-1.949 K0.000 F2500.000
G2 X140.074 Y542.591 Z-12.510 I-1.935 J18.986 K0.000 F2500.000
G1 X140.074 Y542.591 Z-15.680 F500.000
G2 X155.537 Y569.355 Z-15.680 I17.426 J7.781 K0.000 F2500.000
G2 X176.484 Y552.322 Z-15.680 I1.963 J-18.983 K0.000 F2500.000
G2 X159.435 Y531.387 Z-15.680 I-18.984 J-1.949 K0.000 F2500.000
G2 X140.074 Y542.591 Z-15.680 I-1.935 J18.986 K0.000 F2500.000
G0 Z5.000
G0 X129.276 Y545.465 Z5.000
G0 X129.276 Y545.465 Z3.000
G1 X129.276 Y545.465 Z-15.680 F500.000
G2 X112.769 Y531.387 Z-15.680 I-18.442 J4.908 K0.000 F2500.000
G2 X91.848 Y548.437 Z-15.680 I-1.935 J18.986 K0.000 F2500.000
G2 X108.898 Y569.358 Z-15.680 I18.986 J1.935 K0.000 F2500.000
G2 X129.276 Y545.465 Z-15.680 I1.935 J-18.986 K0.000 F2500.000
G0 Z5.000
G0 X119.517 Y526.367 Z5.000
G0 X119.517 Y526.367 Z3.000
G1 X119.517 Y526.367 Z-15.680 F500.000
G2 X112.769 Y490.387 Z-15.680 I-8.684 J-16.994 K0.000 F2500.000
G2 X91.848 Y507.437 Z-15.680 I-1.935 J18.986 K0.000 F2500.000
G2 X108.898 Y528.358 Z-15.680 I18.986 J1.935 K0.000 F2500.000
G2 X119.517 Y526.367 Z-15.680 I1.935 J-18.986 K0.000 F2500.000
G0 Z5.000
G0 X140.080 Y517.166 Z5.000
G0 X140.080 Y517.166 Z3.000
G1 X140.080 Y517.166 Z-15.680 F500.000
G2 X155.537 Y528.355 Z-15.680 I17.420 J-7.794 K0.000 F2500.000
G2 X176.484 Y511.322 Z-15.680 I1.963 J-18.983 K0.000 F2500.000
G2 X159.435 Y490.387 Z-15.680 I-18.984 J-1.949 K0.000 F2500.000
G2 X140.080 Y517.166 Z-15.680 I-1.935 J18.986 K0.000 F2500.000
G0 Z5.000
G0 X151.083 Y486.346 Z5.000
G0 X151.083 Y486.346 Z3.000
G1 X151.083 Y486.346 Z-15.680 F500.000
G2 X155.537 Y487.355 Z-15.680 I6.417 J-17.973 K0.000 F2500.000
G2 X176.484 Y470.322 Z-15.680 I1.963 J-18.983 K0.000 F2500.000
G2 X159.435 Y449.387 Z-15.680 I-18.984 J-1.949 K0.000 F2500.000
G2 X151.083 Y486.346 Z-15.680 I-1.935 J18.986 K0.000 F2500.000
G0 Z5.000
G0 X128.259 Y476.154 Z5.000
G0 X128.259 Y476.154 Z3.000
G1 X128.259 Y476.154 Z-15.680 F500.000
G2 X112.769 Y449.387 Z-15.680 I-17.426 J-7.781 K0.000 F2500.000
G2 X91.848 Y466.437 Z-15.680 I-1.935 J18.986 K0.000 F2500.000
G2 X108.898 Y487.358 Z-15.680 I18.986 J1.935 K0.000 F2500.000
G2 X128.259 Y476.154 Z-15.680 I1.935 J-18.986 K0.000 F2500.000
G0 Z5.000
G0 X117.253 Y445.344 Z5.000
G0 X117.253 Y445.344 Z3.000
G1 X117.253 Y445.344 Z-15.680 F500.000
G2 X112.769 Y408.387 Z-15.680 I-6.420 J-17.972 K0.000 F2500.000
G2 X91.848 Y425.437 Z-15.680 I-1.935 J18.986 K0.000 F2500.000
G2 X108.898 Y446.358 Z-15.680 I18.986 J1.935 K0.000 F2500.000
G2 X117.253 Y445.344 Z-15.680 I1.935 J-18.986 K0.000 F2500.000
G0 Z5.000
G0 X140.074 Y435.154 Z5.000
G0 X140.074 Y435.154 Z3.000
G1 X140.074 Y435.154 Z-15.680 F500.000
G2 X155.537 Y446.355 Z-15.680 I17.426 J-7.781 K0.000 F2500.000
G2 X176.484 Y429.322 Z-15.680 I1.963 J-18.983 K0.000 F2500.000
G2 X159.435 Y408.387 Z-15.680 I-18.984 J-1.949 K0.000 F2500.000
G2 X140.074 Y435.154 Z-15.680 I-1.935 J18.986 K0.000 F2500.000
G0 Z5.000
G0 X151.080 Y404.344 Z5.000
G0 X151.080 Y404.344 Z3.000
G1 X151.080 Y404.344 Z-15.680 F500.000
G2 X155.537 Y405.355 Z-15.680 I6.420 J-17.972 K0.000 F2500.000
G2 X176.484 Y388.322 Z-15.680 I1.963 J-18.983 K0.000 F2500.000
G2 X159.435 Y367.387 Z-15.680 I-18.984 J-1.949 K0.000 F2500.000
G2 X151.080 Y404.344 Z-15.680 I-1.935 J18.986 K0.000 F2500.000
G0 Z5.000
G0 X128.259 Y394.154 Z5.000
G0 X128.259 Y394.154 Z3.000
G1 X128.259 Y394.154 Z-15.680 F500.000
G2 X112.769 Y367.387 Z-15.680 I-17.426 J-7.781 K0.000 F2500.000
G2 X108.898 Y405.358 Z-15.680 I-1.935 J18.986 K0.000 F2500.000
G2 X128.259 Y394.154 Z-15.680 I1.935 J-18.986 K0.000 F2500.000
G0 Z5.000
G0 X117.253 Y363.344 Z5.000
G0 X117.253 Y363.344 Z3.000
G1 X117.253 Y363.344 Z-15.680 F500.000
G2 X112.796 Y326.389 Z-15.680 I-6.420 J-17.972 K0.000 F2500.000
G2 X91.849 Y343.423 Z-15.680 I-1.963 J18.983 K0.000 F2500.000
G2 X108.898 Y364.358 Z-15.680 I18.984 J1.949 K0.000 F2500.000
G2 X117.253 Y363.344 Z-15.680 I1.935 J-18.986 K0.000 F2500.000
G0 Z5.000
G0 X140.074 Y353.154 Z5.000
G0 X140.074 Y353.154 Z3.000
G1 X140.074 Y353.154 Z-15.680 F500.000
G2 X155.537 Y364.355 Z-15.680 I17.426 J-7.781 K0.000 F2500.000
G2 X176.484 Y347.322 Z-15.680 I1.963 J-18.983 K0.000 F2500.000
G2 X159.435 Y326.387 Z-15.680 I-18.984 J-1.949 K0.000 F2500.000
G2 X140.074 Y353.154 Z-15.680 I-1.935 J18.986 K0.000 F2500.000
G0 Z5.000
G0 X151.080 Y322.344 Z5.000
G0 X151.080 Y322.344 Z3.000
G1 X151.080 Y322.344 Z-15.680 F500.000
G2 X155.537 Y323.355 Z-15.680 I6.420 J-17.972 K0.000 F2500.000
G2 X176.484 Y306.322 Z-15.680 I1.963 J-18.983 K0.000 F2500.000
G2 X159.435 Y285.387 Z-15.680 I-18.984 J-1.949 K0.000 F2500.000
G2 X151.080 Y322.344 Z-15.680 I-1.935 J18.986 K0.000 F2500.000
G0 Z5.000
G0 X128.259 Y312.154 Z5.000
G0 X128.259 Y312.154 Z3.000
G1 X128.259 Y312.154 Z-15.680 F500.000
G2 X112.796 Y285.389 Z-15.680 I-17.426 J-7.781 K0.000 F2500.000
G2 X91.849 Y302.423 Z-15.680 I-1.963 J18.983 K0.000 F2500.000
G2 X108.898 Y323.358 Z-15.680 I18.984 J1.949 K0.000 F2500.000
G2 X128.259 Y312.154 Z-15.680 I1.935 J-18.986 K0.000 F2500.000
G0 Z5.000
G0 X117.253 Y281.344 Z5.000
G0 X117.253 Y281.344 Z3.000
G1 X117.253 Y281.344 Z-15.680 F500.000
G2 X112.769 Y244.387 Z-15.680 I-6.420 J-17.972 K0.000 F2500.000
G2 X91.848 Y261.437 Z-15.680 I-1.935 J18.986 K0.000 F2500.000
G2 X108.898 Y282.358 Z-15.680 I18.986 J1.935 K0.000 F2500.000
G2 X117.253 Y281.344 Z-15.680 I1.935 J-18.986 K0.000 F2500.000
G0 Z5.000
G0 X140.074 Y271.154 Z5.000
G0 X140.074 Y271.154 Z3.000
G1 X140.074 Y271.154 Z-15.680 F500.000
G2 X155.537 Y282.355 Z-15.680 I17.426 J-7.781 K0.000 F2500.000
G2 X176.484 Y265.322 Z-15.680 I1.963 J-18.983 K0.000 F2500.000
G2 X159.435 Y244.387 Z-15.680 I-18.984 J-1.949 K0.000 F2500.000
G2 X140.074 Y271.154 Z-15.680 I-1.935 J18.986 K0.000 F2500.000
G0 Z5.000
G0 X151.080 Y240.344 Z5.000
G0 X151.080 Y240.344 Z3.000
G1 X151.080 Y240.344 Z-15.680 F500.000
G2 X155.537 Y241.355 Z-15.680 I6.420 J-17.972 K0.000 F2500.000
G2 X176.484 Y224.322 Z-15.680 I1.963 J-18.983 K0.000 F2500.000
G2 X159.435 Y203.387 Z-15.680 I-18.984 J-1.949 K0.000 F2500.000
G2 X151.080 Y240.344 Z-15.680 I-1.935 J18.986 K0.000 F2500.000
G0 Z5.000
G0 X128.259 Y230.154 Z5.000
G0 X128.259 Y230.154 Z3.000
G1 X128.259 Y230.154 Z-15.680 F500.000
G2 X112.769 Y203.387 Z-15.680 I-17.426 J-7.781 K0.000 F2500.000
G2 X108.898 Y241.358 Z-15.680 I-1.935 J18.986 K0.000 F2500.000
G2 X128.259 Y230.154 Z-15.680 I1.935 J-18.986 K0.000 F2500.000
G0 Z5.000
G0 X117.253 Y199.344 Z5.000
G0 X117.253 Y199.344 Z3.000
G1 X117.253 Y199.344 Z-15.680 F500.000
G2 X112.769 Y162.387 Z-15.680 I-6.420 J-17.972 K0.000 F2500.000
G2 X91.848 Y179.437 Z-15.680 I-1.935 J18.986 K0.000 F2500.000
G2 X108.898 Y200.358 Z-15.680 I18.986 J1.935 K0.000 F2500.000
G2 X117.253 Y199.344 Z-15.680 I1.935 J-18.986 K0.000 F2500.000
G0 Z5.000
G0 X140.074 Y189.154 Z5.000
G0 X140.074 Y189.154 Z3.000
G1 X140.074 Y189.154 Z-15.680 F500.000
G2 X155.565 Y200.358 Z-15.680 I17.426 J-7.781 K0.000 F2500.000
G2 X176.486 Y183.308 Z-15.680 I1.935 J-18.986 K0.000 F2500.000
G2 X159.435 Y162.387 Z-15.680 I-18.986 J-1.935 K0.000 F2500.000
G2 X140.074 Y189.154 Z-15.680 I-1.935 J18.986 K0.000 F2500.000
G0 Z5.000
G0 X151.080 Y158.344 Z5.000
G0 X151.080 Y158.344 Z3.000
G1 X151.080 Y158.344 Z-15.680 F500.000
G2 X155.565 Y159.358 Z-15.680 I6.420 J-17.972 K0.000 F2500.000
G2 X176.486 Y142.308 Z-15.680 I1.935 J-18.986 K0.000 F2500.000
G2 X159.435 Y121.387 Z-15.680 I-18.986 J-1.935 K0.000 F2500.000
G2 X151.080 Y158.344 Z-15.680 I-1.935 J18.986 K0.000 F2500.000
G0 Z5.000
G0 X128.259 Y148.154 Z5.000
G0 X128.259 Y148.154 Z3.000
G1 X128.259 Y148.154 Z-15.680 F500.000
G2 X112.769 Y121.387 Z-15.680 I-17.426 J-7.781 K0.000 F2500.000
G2 X108.898 Y159.358 Z-15.680 I-1.935 J18.986 K0.000 F2500.000
G2 X128.259 Y148.154 Z-15.680 I1.935 J-18.986 K0.000 F2500.000
G0 Z5.000
G0 X117.253 Y117.344 Z5.000
G0 X117.253 Y117.344 Z3.000
G1 X117.253 Y117.344 Z-15.680 F500.000
G2 X112.769 Y80.387 Z-15.680 I-6.420 J-17.972 K0.000 F2500.000
G2 X108.898 Y118.358 Z-15.680 I-1.935 J18.986 K0.000 F2500.000
G2 X117.253 Y117.344 Z-15.680 I1.935 J-18.986 K0.000 F2500.000
G0 Z5.000
G0 X140.074 Y107.154 Z5.000
G0 X140.074 Y107.154 Z3.000
G1 X140.074 Y107.154 Z-15.680 F500.000
G2 X155.565 Y118.358 Z-15.680 I17.426 J-7.781 K0.000 F2500.000
G2 X176.486 Y101.308 Z-15.680 I1.935 J-18.986 K0.000 F2500.000
G2 X159.435 Y80.387 Z-15.680 I-18.986 J-1.935 K0.000 F2500.000
G2 X140.074 Y107.154 Z-15.680 I-1.935 J18.986 K0.000 F2500.000
G0 Z5.000
G0 X151.080 Y76.344 Z5.000
G0 X151.080 Y76.344 Z3.000
G1 X151.080 Y76.344 Z-15.680 F500.000
G2 X155.565 Y77.358 Z-15.680 I6.420 J-17.972 K0.000 F2500.000
G2 X159.435 Y39.387 Z-15.680 I1.935 J-18.986 K0.000 F2500.000
G2 X151.080 Y76.344 Z-15.680 I-1.935 J18.986 K0.000 F2500.000
G0 Z5.000
G0 X128.259 Y66.154 Z5.000
G0 X128.259 Y66.154 Z3.000
G1 X128.259 Y66.154 Z-15.680 F500.000
G2 X112.769 Y39.387 Z-15.680 I-17.426 J-7.781 K0.000 F2500.000
G2 X91.848 Y56.437 Z-15.680 I-1.935 J18.986 K0.000 F2500.000
G2 X108.898 Y77.358 Z-15.680 I18.986 J1.935 K0.000 F2500.000
G2 X128.259 Y66.154 Z-15.680 I1.935 J-18.986 K0.000 F2500.000
G0 Z5.000
G0 X117.253 Y35.344 Z5.000
G0 X117.253 Y35.344 Z3.000
G1 X117.253 Y35.344 Z-15.680 F500.000
G2 X112.769 Y-1.613 Z-15.680 I-6.420 J-17.972 K0.000 F2500.000
G2 X91.848 Y15.437 Z-15.680 I-1.935 J18.986 K0.000 F2500.000
G2 X108.898 Y36.358 Z-15.680 I18.986 J1.935 K0.000 F2500.000
G2 X117.253 Y35.344 Z-15.680 I1.935 J-18.986 K0.000 F2500.000
G0 Z5.000
G0 X140.074 Y25.154 Z5.000
G0 X140.074 Y25.154 Z3.000
G1 X140.074 Y25.154 Z-15.680 F500.000
G2 X155.565 Y36.358 Z-15.680 I17.426 J-7.781 K0.000 F2500.000
G2 X159.435 Y-1.613 Z-15.680 I1.935 J-18.986 K0.000 F2500.000
G2 X140.074 Y25.154 Z-15.680 I-1.935 J18.986 K0.000 F2500.000
G0 Z5.000
G0 X83.151 Y19.319 Z5.000
G0 X83.151 Y19.319 Z3.000
G1 X83.151 Y19.319 Z-15.680 F500.000
G2 X66.102 Y-1.613 Z-15.680 I-18.985 J-1.946 K0.000 F2500.000
G2 X62.231 Y36.358 Z-15.680 I-1.935 J18.986 K0.000 F2500.000
G2 X83.151 Y19.319 Z-15.680 I1.935 J-18.986 K0.000 F2500.000
G0 Z5.000
G0 X72.510 Y41.209 Z5.000
G0 X72.510 Y41.209 Z3.000
G1 X72.510 Y41.209 Z-15.680 F500.000
G2 X66.102 Y39.387 Z-15.680 I-8.344 J17.164 K0.000 F2500.000
G2 X62.231 Y77.358 Z-15.680 I-1.935 J18.986 K0.000 F2500.000
G2 X72.510 Y41.209 Z-15.680 I1.935 J-18.986 K0.000 F2500.000
G0 Z5.000
G0 X35.718 Y52.688 Z5.000
G0 X35.718 Y52.688 Z3.000
G1 X35.718 Y52.688 Z-15.680 F500.000
G2 X19.463 Y39.389 Z-15.680 I-18.218 J5.684 K0.000 F2500.000
G2 X-1.484 Y56.423 Z-15.680 I-1.963 J18.983 K0.000 F2500.000
G2 X15.565 Y77.358 Z-15.680 I18.984 J1.949 K0.000 F2500.000
G2 X35.718 Y52.688 Z-15.680 I1.935 J-18.986 K0.000 F2500.000
G0 Z5.000
G0 X26.249 Y34.333 Z5.000
G0 X26.249 Y34.333 Z3.000
G1 X26.249 Y34.333 Z-15.680 F500.000
G2 X19.463 Y-1.611 Z-15.680 I-8.749 J-16.960 K0.000 F2500.000
G2 X-1.484 Y15.423 Z-15.680 I-1.963 J18.983 K0.000 F2500.000
G2 X15.565 Y36.358 Z-15.680 I18.984 J1.949 K0.000 F2500.000
G2 X26.249 Y34.333 Z-15.680 I1.935 J-18.986 K0.000 F2500.000
G0 Z5.000
G0 X20.044 Y80.459 Z5.000
G0 X20.044 Y80.459 Z3.000
G1 X20.044 Y80.459 Z-15.680 F500.000
G2 X19.463 Y80.389 Z-15.680 I-2.544 J18.914 K0.000 F2500.000
G2 X-1.484 Y97.423 Z-15.680 I-1.963 J18.983 K0.000 F2500.000
G2 X15.565 Y118.358 Z-15.680 I18.984 J1.949 K0.000 F2500.000
G2 X20.044 Y80.459 Z-15.680 I1.935 J-18.986 K0.000 F2500.000
G0 Z5.000
G0 X46.626 Y91.853 Z5.000
G0 X46.626 Y91.853 Z3.000
G1 X46.626 Y91.853 Z-15.680 F500.000
G2 X62.231 Y118.358 Z-15.680 I17.541 J7.519 K0.000 F2500.000
G2 X83.152 Y101.308 Z-15.680 I1.935 J-18.986 K0.000 F2500.000
G2 X66.102 Y80.387 Z-15.680 I-18.986 J-1.935 K0.000 F2500.000
G2 X46.626 Y91.853 Z-15.680 I-1.935 J18.986 K0.000 F2500.000
G0 Z5.000
G0 X57.678 Y122.425 Z5.000
G0 X57.678 Y122.425 Z3.000
G1 X57.678 Y122.425 Z-15.680 F500.000
G2 X62.231 Y159.358 Z-15.680 I6.488 J17.947 K0.000 F2500.000
G2 X83.152 Y142.308 Z-15.680 I1.935 J-18.986 K0.000 F2500.000
G2 X66.102 Y121.387 Z-15.680 I-18.986 J-1.935 K0.000 F2500.000
G2 X57.678 Y122.425 Z-15.680 I-1.935 J18.986 K0.000 F2500.000
G0 Z5.000
G0 X34.925 Y132.589 Z5.000
G0 X34.925 Y132.589 Z3.000
G1 X34.925 Y132.589 Z-15.680 F500.000
G2 X19.463 Y121.389 Z-15.680 I-17.425 J7.784 K0.000 F2500.000
G2 X-1.484 Y138.423 Z-15.680 I-1.963 J18.983 K0.000 F2500.000
G2 X15.565 Y159.358 Z-15.680 I18.984 J1.949 K0.000 F2500.000
G2 X34.925 Y132.589 Z-15.680 I1.935 J-18.986 K0.000 F2500.000
G0 Z5.000
G0 X23.919 Y163.400 Z5.000
G0 X23.919 Y163.400 Z3.000
G1 X23.919 Y163.400 Z-15.680 F500.000
G2 X19.463 Y162.389 Z-15.680 I-6.419 J17.972 K0.000 F2500.000
G2 X-1.484 Y179.423 Z-15.680 I-1.963 J18.983 K0.000 F2500.000
G2 X15.565 Y200.358 Z-15.680 I18.984 J1.949 K0.000 F2500.000
G2 X23.919 Y163.400 Z-15.680 I1.935 J-18.986 K0.000 F2500.000
G0 Z5.000
G0 X46.741 Y173.591 Z5.000
G0 X46.741 Y173.591 Z3.000
G1 X46.741 Y173.591 Z-15.680 F500.000
G2 X62.231 Y200.358 Z-15.680 I17.426 J7.781 K0.000 F2500.000
G2 X83.152 Y183.308 Z-15.680 I1.935 J-18.986 K0.000 F2500.000
G2 X66.102 Y162.387 Z-15.680 I-18.986 J-1.935 K0.000 F2500.000
G2 X46.741 Y173.591 Z-15.680 I-1.935 J18.986 K0.000 F2500.000
G0 Z5.000
G0 X57.747 Y204.400 Z5.000
G0 X57.747 Y204.400 Z3.000
G1 X57.747 Y204.400 Z-15.680 F500.000
G2 X62.231 Y241.358 Z-15.680 I6.420 J17.972 K0.000 F2500.000
G2 X83.152 Y224.308 Z-15.680 I1.935 J-18.986 K0.000 F2500.000
G2 X66.102 Y203.387 Z-15.680 I-18.986 J-1.935 K0.000 F2500.000
G2 X57.747 Y204.400 Z-15.680 I-1.935 J18.986 K0.000 F2500.000
G0 Z5.000
G0 X34.926 Y214.591 Z5.000
G0 X34.926 Y214.591 Z3.000
G1 X34.926 Y214.591 Z-15.680 F500.000
G2 X19.463 Y203.389 Z-15.680 I-17.426 J7.781 K0.000 F2500.000
G2 X-1.484 Y220.423 Z-15.680 I-1.963 J18.983 K0.000 F2500.000
G2 X15.565 Y241.358 Z-15.680 I18.984 J1.949 K0.000 F2500.000
G2 X34.926 Y214.591 Z-15.680 I1.935 J-18.986 K0.000 F2500.000
G0 Z5.000
G0 X23.920 Y245.400 Z5.000
G0 X23.920 Y245.400 Z3.000
G1 X23.920 Y245.400 Z-15.680 F500.000
G2 X19.463 Y244.389 Z-15.680 I-6.420 J17.972 K0.000 F2500.000
G2 X-1.484 Y261.423 Z-15.680 I-1.963 J18.983 K0.000 F2500.000
G2 X15.565 Y282.358 Z-15.680 I18.984 J1.949 K0.000 F2500.000
G2 X23.920 Y245.400 Z-15.680 I1.935 J-18.986 K0.000 F2500.000
G0 Z5.000
G0 X46.741 Y255.591 Z5.000
G0 X46.741 Y255.591 Z3.000
G1 X46.741 Y255.591 Z-15.680 F500.000
G2 X62.231 Y282.358 Z-15.680 I17.426 J7.781 K0.000 F2500.000
G2 X66.102 Y244.387 Z-15.680 I1.935 J-18.986 K0.000 F2500.000
G2 X46.741 Y255.591 Z-15.680 I-1.935 J18.986 K0.000 F2500.000
G0 Z5.000
G0 X57.747 Y286.400 Z5.000
G0 X57.747 Y286.400 Z3.000
G1 X57.747 Y286.400 Z-15.680 F500.000
G2 X62.204 Y323.355 Z-15.680 I6.420 J17.972 K0.000 F2500.000
G2 X83.151 Y306.322 Z-15.680 I1.963 J-18.983 K0.000 F2500.000
G2 X66.102 Y285.387 Z-15.680 I-18.984 J-1.949 K0.000 F2500.000
G2 X57.747 Y286.400 Z-15.680 I-1.935 J18.986 K0.000 F2500.000
G0 Z5.000
G0 X34.926 Y296.591 Z5.000
G0 X34.926 Y296.591 Z3.000
G1 X34.926 Y296.591 Z-15.680 F500.000
G2 X19.463 Y285.389 Z-15.680 I-17.426 J7.781 K0.000 F2500.000
G2 X-1.484 Y302.423 Z-15.680 I-1.963 J18.983 K0.000 F2500.000
G2 X15.565 Y323.358 Z-15.680 I18.984 J1.949 K0.000 F2500.000
G2 X34.926 Y296.591 Z-15.680 I1.935 J-18.986 K0.000 F2500.000
G0 Z5.000
G0 X23.920 Y327.400 Z5.000
G0 X23.920 Y327.400 Z3.000
G1 X23.920 Y327.400 Z-15.680 F500.000
G2 X19.463 Y326.389 Z-15.680 I-6.420 J17.972 K0.000 F2500.000
G2 X-1.483 Y343.409 Z-15.680 I-1.963 J18.983 K0.000 F2500.000
G2 X15.537 Y364.355 Z-15.680 I18.983 J1.963 K0.000 F2500.000
G2 X23.920 Y327.400 Z-15.680 I1.963 J-18.983 K0.000 F2500.000
G0 Z5.000
G0 X46.741 Y337.591 Z5.000
G0 X46.741 Y337.591 Z3.000
G1 X46.741 Y337.591 Z-15.680 F500.000
G2 X62.204 Y364.355 Z-15.680 I17.426 J7.781 K0.000 F2500.000
G2 X83.151 Y347.322 Z-15.680 I1.963 J-18.983 K0.000 F2500.000
G2 X66.102 Y326.387 Z-15.680 I-18.984 J-1.949 K0.000 F2500.000
G2 X46.741 Y337.591 Z-15.680 I-1.935 J18.986 K0.000 F2500.000
G0 Z5.000
G0 X57.747 Y368.400 Z5.000
G0 X57.747 Y368.400 Z3.000
G1 X57.747 Y368.400 Z-15.680 F500.000
G2 X62.231 Y405.358 Z-15.680 I6.420 J17.972 K0.000 F2500.000
G2 X83.152 Y388.308 Z-15.680 I1.935 J-18.986 K0.000 F2500.000
G2 X66.102 Y367.387 Z-15.680 I-18.986 J-1.935 K0.000 F2500.000
G2 X57.747 Y368.400 Z-15.680 I-1.935 J18.986 K0.000 F2500.000
G0 Z5.000
G0 X34.926 Y378.591 Z5.000
G0 X34.926 Y378.591 Z3.000
G1 X34.926 Y378.591 Z-15.680 F500.000
G2 X19.435 Y367.387 Z-15.680 I-17.426 J7.781 K0.000 F2500.000
G2 X15.565 Y405.358 Z-15.680 I-1.935 J18.986 K0.000 F2500.000
G2 X34.926 Y378.591 Z-15.680 I1.935 J-18.986 K0.000 F2500.000
G0 Z5.000
G0 X23.920 Y409.400 Z5.000
G0 X23.920 Y409.400 Z3.000
G1 X23.920 Y409.400 Z-15.680 F500.000
G2 X19.435 Y408.387 Z-15.680 I-6.420 J17.972 K0.000 F2500.000
G2 X-1.486 Y425.437 Z-15.680 I-1.935 J18.986 K0.000 F2500.000
G2 X15.565 Y446.358 Z-15.680 I18.986 J1.935 K0.000 F2500.000
G2 X23.920 Y409.400 Z-15.680 I1.935 J-18.986 K0.000 F2500.000
G0 Z5.000
G0 X46.741 Y419.591 Z5.000
G0 X46.741 Y419.591 Z3.000
G1 X46.741 Y419.591 Z-15.680 F500.000
G2 X62.231 Y446.358 Z-15.680 I17.426 J7.781 K0.000 F2500.000
G2 X66.102 Y408.387 Z-15.680 I1.935 J-18.986 K0.000 F2500.000
G2 X46.741 Y419.591 Z-15.680 I-1.935 J18.986 K0.000 F2500.000
G0 Z5.000
G0 X57.747 Y450.400 Z5.000
G0 X57.747 Y450.400 Z3.000
G1 X57.747 Y450.400 Z-15.680 F500.000
G2 X62.231 Y487.358 Z-15.680 I6.420 J17.972 K0.000 F2500.000
G2 X83.152 Y470.308 Z-15.680 I1.935 J-18.986 K0.000 F2500.000
G2 X66.102 Y449.387 Z-15.680 I-18.986 J-1.935 K0.000 F2500.000
G2 X57.747 Y450.400 Z-15.680 I-1.935 J18.986 K0.000 F2500.000
G0 Z5.000
G0 X34.926 Y460.591 Z5.000
G0 X34.926 Y460.591 Z3.000
G1 X34.926 Y460.591 Z-15.680 F500.000
G2 X19.435 Y449.387 Z-15.680 I-17.426 J7.781 K0.000 F2500.000
G2 X-1.486 Y466.437 Z-15.680 I-1.935 J18.986 K0.000 F2500.000
G2 X15.565 Y487.358 Z-15.680 I18.986 J1.935 K0.000 F2500.000
G2 X34.926 Y460.591 Z-15.680 I1.935 J-18.986 K0.000 F2500.000
G0 Z5.000
G0 X23.920 Y491.400 Z5.000
G0 X23.920 Y491.400 Z3.000
G1 X23.920 Y491.400 Z-15.680 F500.000
G2 X19.435 Y490.387 Z-15.680 I-6.420 J17.972 K0.000 F2500.000
G2 X-1.486 Y507.437 Z-15.680 I-1.935 J18.986 K0.000 F2500.000
G2 X15.565 Y528.358 Z-15.680 I18.986 J1.935 K0.000 F2500.000
G2 X23.920 Y491.400 Z-15.680 I1.935 J-18.986 K0.000 F2500.000
G0 Z5.000
G0 X46.741 Y501.591 Z5.000
G0 X46.741 Y501.591 Z3.000
G1 X46.741 Y501.591 Z-15.680 F500.000
G2 X62.231 Y528.358 Z-15.680 I17.426 J7.781 K0.000 F2500.000
G2 X66.102 Y490.387 Z-15.680 I1.935 J-18.986 K0.000 F2500.000
G2 X46.741 Y501.591 Z-15.680 I-1.935 J18.986 K0.000 F2500.000
G0 Z5.000
G0 X57.747 Y532.400 Z5.000
G0 X57.747 Y532.400 Z3.000
G1 X57.747 Y532.400 Z-15.680 F500.000
G2 X62.231 Y569.358 Z-15.680 I6.420 J17.972 K0.000 F2500.000
G2 X66.102 Y531.387 Z-15.680 I1.935 J-18.986 K0.000 F2500.000
G2 X57.747 Y532.400 Z-15.680 I-1.935 J18.986 K0.000 F2500.000
G0 Z5.000
G0 X34.926 Y542.591 Z5.000
G0 X34.926 Y542.591 Z3.000
G1 X34.926 Y542.591 Z-15.680 F500.000
G2 X19.435 Y531.387 Z-15.680 I-17.426 J7.781 K0.000 F2500.000
G2 X-1.486 Y548.437 Z-15.680 I-1.935 J18.986 K0.000 F2500.000
G2 X15.565 Y569.358 Z-15.680 I18.986 J1.935 K0.000 F2500.000
G2 X34.926 Y542.591 Z-15.680 I1.935 J-18.986 K0.000 F2500.000
G0 Z5.000
G0 X23.920 Y573.400 Z5.000
G0 X23.920 Y573.400 Z3.000
G1 X23.920 Y573.400 Z-15.680 F500.000
G2 X19.435 Y572.387 Z-15.680 I-6.420 J17.972 K0.000 F2500.000
G2 X15.565 Y610.358 Z-15.680 I-1.935 J18.986 K0.000 F2500.000
G2 X23.920 Y573.400 Z-15.680 I1.935 J-18.986 K0.000 F2500.000
G0 Z5.000
G0 X46.741 Y583.591 Z5.000
G0 X46.741 Y583.591 Z3.000
G1 X46.741 Y583.591 Z-15.680 F500.000
G2 X62.231 Y610.358 Z-15.680 I17.426 J7.781 K0.000 F2500.000
G2 X83.152 Y593.308 Z-15.680 I1.935 J-18.986 K0.000 F2500.000
G2 X66.102 Y572.387 Z-15.680 I-18.986 J-1.935 K0.000 F2500.000
G2 X46.741 Y583.591 Z-15.680 I-1.935 J18.986 K0.000 F2500.000
G0 Z5.000
G0 X57.747 Y614.400 Z5.000
G0 X57.747 Y614.400 Z3.000
G1 X57.747 Y614.400 Z-15.680 F500.000
G2 X62.231 Y651.358 Z-15.680 I6.420 J17.972 K0.000 F2500.000
G2 X83.152 Y634.308 Z-15.680 I1.935 J-18.986 K0.000 F2500.000
G2 X66.102 Y613.387 Z-15.680 I-18.986 J-1.935 K0.000 F2500.000
G2 X57.747 Y614.400 Z-15.680 I-1.935 J18.986 K0.000 F2500.000
G0 Z5.000
G0 X34.926 Y624.591 Z5.000
G0 X34.926 Y624.591 Z3.000
G1 X34.926 Y624.591 Z-15.680 F500.000
G2 X19.435 Y613.387 Z-15.680 I-17.426 J7.781 K0.000 F2500.000
G2 X15.565 Y651.358 Z-15.680 I-1.935 J18.986 K0.000 F2500.000
G2 X34.926 Y624.591 Z-15.680 I1.935 J-18.986 K0.000 F2500.000
G0 Z5.000
G0 X91.849 Y630.426 Z5.000
G0 X91.849 Y630.426 Z3.000
G1 X91.849 Y630.426 Z-15.680 F500.000
G2 X108.898 Y651.358 Z-15.680 I18.985 J1.946 K0.000 F2500.000
G2 X112.769 Y613.387 Z-15.680 I1.935 J-18.986 K0.000 F2500.000
G2 X91.849 Y630.426 Z-15.680 I-1.935 J18.986 K0.000 F2500.000
G0 Z5.000
G0 X102.490 Y608.536 Z5.000
G0 X102.490 Y608.536 Z3.000
G1 X102.490 Y608.536 Z-15.680 F500.000
G2 X108.898 Y610.358 Z-15.680 I8.344 J-17.164 K0.000 F2500.000
G2 X112.769 Y572.387 Z-15.680 I1.935 J-18.986 K0.000 F2500.000
G2 X102.490 Y608.536 Z-15.680 I-1.935 J18.986 K0.000 F2500.000
G0 Z5.000
G0 X139.282 Y597.057 Z5.000
G0 X139.282 Y597.057 Z3.000
G1 X139.282 Y597.057 Z-15.680 F500.000
G2 X155.537 Y610.355 Z-15.680 I18.218 J-5.684 K0.000 F2500.000
G2 X176.484 Y593.322 Z-15.680 I1.963 J-18.983 K0.000 F2500.000
G2 X159.435 Y572.387 Z-15.680 I-18.984 J-1.949 K0.000 F2500.000
G2 X139.282 Y597.057 Z-15.680 I-1.935 J18.986 K0.000 F2500.000
G0 Z5.000
G0 X148.751 Y615.412 Z5.000
G0 X148.751 Y615.412 Z3.000
G1 X148.751 Y615.412 Z-15.680 F500.000
G2 X155.537 Y651.355 Z-15.680 I8.749 J16.960 K0.000 F2500.000
G2 X176.484 Y634.322 Z-15.680 I1.963 J-18.983 K0.000 F2500.000
G2 X159.435 Y613.387 Z-15.680 I-18.984 J-1.949 K0.000 F2500.000
G2 X148.751 Y615.412 Z-15.680 I-1.935 J18.986 K0.000 F2500.000
G1 X148.751 Y615.412 Z-18.850 F500.000
G2 X155.537 Y651.355 Z-18.850 I8.749 J16.960 K0.000 F2500.000
G2 X176.484 Y634.322 Z-18.850 I1.963 J-18.983 K0.000 F2500.000
G2 X159.435 Y613.387 Z-18.850 I-18.984 J-1.949 K0.000 F2500.000
G2 X148.751 Y615.412 Z-18.850 I-1.935 J18.986 K0.000 F2500.000
G0 Z5.000
G0 X150.973 Y609.306 Z5.000
G0 X150.973 Y609.306 Z3.000
G1 X150.973 Y609.306 Z-18.850 F500.000
G2 X155.537 Y610.355 Z-18.850 I6.527 J-17.933 K0.000 F2500.000
G2 X176.484 Y593.322 Z-18.850 I1.963 J-18.983 K0.000 F2500.000
G2 X159.435 Y572.387 Z-18.850 I-18.984 J-1.949 K0.000 F2500.000
G2 X150.973 Y609.306 Z-18.850 I-1.935 J18.986 K0.000 F2500.000
G0 Z5.000
G0 X128.258 Y599.157 Z5.000
G0 X128.258 Y599.157 Z3.000
G1 X128.258 Y599.157 Z-18.850 F500.000
G2 X112.769 Y572.387 Z-18.850 I-17.424 J-7.785 K0.000 F2500.000
G2 X91.848 Y589.437 Z-18.850 I-1.935 J18.986 K0.000 F2500.000
G2 X108.898 Y610.358 Z-18.850 I18.986 J1.935 K0.000 F2500.000
G2 X128.258 Y599.157 Z-18.850 I1.935 J-18.986 K0.000 F2500.000
G0 Z5.000
G0 X119.699 Y615.472 Z5.000
G0 X119.699 Y615.472 Z3.000
G1 X119.699 Y615.472 Z-18.850 F500.000
G2 X112.769 Y613.387 Z-18.850 I-8.866 J16.900 K0.000 F2500.000
G2 X91.848 Y630.437 Z-18.850 I-1.935 J18.986 K0.000 F2500.000
G2 X108.898 Y651.358 Z-18.850 I18.986 J1.935 K0.000 F2500.000
G2 X119.699 Y615.472 Z-18.850 I1.935 J-18.986 K0.000 F2500.000
G0 Z5.000
G0 X82.424 Y626.816 Z5.000
G0 X82.424 Y626.816 Z3.000
G1 X82.424 Y626.816 Z-18.850 F500.000
G2 X66.102 Y613.387 Z-18.850 I-18.257 J5.556 K0.000 F2500.000
G2 X62.231 Y651.358 Z-18.850 I-1.935 J18.986 K0.000 F2500.000
G2 X82.424 Y626.816 Z-18.850 I1.935 J-18.986 K0.000 F2500.000
G0 Z5.000
G0 X72.906 Y608.338 Z5.000
G0 X72.906 Y608.338 Z3.000
G1 X72.906 Y608.338 Z-18.850 F500.000
G2 X66.102 Y572.387 Z-18.850 I-8.739 J-16.966 K0.000 F2500.000
G2 X62.231 Y610.358 Z-18.850 I-1.935 J18.986 K0.000 F2500.000
G2 X72.906 Y608.338 Z-18.850 I1.935 J-18.986 K0.000 F2500.000
G0 Z5.000
G0 X35.748 Y596.960 Z5.000
G0 X35.748 Y596.960 Z3.000
G1 X35.748 Y596.960 Z-18.850 F500.000
G2 X19.435 Y572.387 Z-18.850 I-18.248 J-5.588 K0.000 F2500.000
G2 X15.565 Y610.358 Z-18.850 I-1.935 J18.986 K0.000 F2500.000
G2 X35.748 Y596.960 Z-18.850 I1.935 J-18.986 K0.000 F2500.000
G0 Z5.000
G0 X26.242 Y615.408 Z5.000
G0 X26.242 Y615.408 Z3.000
G1 X26.242 Y615.408 Z-18.850 F500.000
G2 X19.435 Y613.387 Z-18.850 I-8.742 J16.964 K0.000 F2500.000
G2 X15.565 Y651.358 Z-18.850 I-1.935 J18.986 K0.000 F2500.000
G2 X26.242 Y615.408 Z-18.850 I1.935 J-18.986 K0.000 F2500.000
G0 Z5.000
G0 X20.042 Y569.287 Z5.000
G0 X20.042 Y569.287 Z3.000
G1 X20.042 Y569.287 Z-18.850 F500.000
G2 X19.435 Y531.387 Z-18.850 I-2.542 J-18.914 K0.000 F2500.000
G2 X-1.486 Y548.437 Z-18.850 I-1.935 J18.986 K0.000 F2500.000
G2 X15.565 Y569.358 Z-18.850 I18.986 J1.935 K0.000 F2500.000
G2 X20.042 Y569.287 Z-18.850 I1.935 J-18.986 K0.000 F2500.000
G0 Z5.000
G0 X46.626 Y557.891 Z5.000
G0 X46.626 Y557.891 Z3.000
G1 X46.626 Y557.891 Z-18.850 F500.000
G2 X62.231 Y569.358 Z-18.850 I17.541 J-7.519 K0.000 F2500.000
G2 X66.102 Y531.387 Z-18.850 I1.935 J-18.986 K0.000 F2500.000
G2 X46.626 Y557.891 Z-18.850 I-1.935 J18.986 K0.000 F2500.000
G0 Z5.000
G0 X57.678 Y527.320 Z5.000
G0 X57.678 Y527.320 Z3.000
G1 X57.678 Y527.320 Z-18.850 F500.000
G2 X62.231 Y528.358 Z-18.850 I6.488 J-17.947 K0.000 F2500.000
G2 X66.102 Y490.387 Z-18.850 I1.935 J-18.986 K0.000 F2500.000
G2 X57.678 Y527.320 Z-18.850 I-1.935 J18.986 K0.000 F2500.000
G0 Z5.000
G0 X34.925 Y517.156 Z5.000
G0 X34.925 Y517.156 Z3.000
G1 X34.925 Y517.156 Z-18.850 F500.000
G2 X19.435 Y490.387 Z-18.850 I-17.425 J-7.784 K0.000 F2500.000
G2 X-1.486 Y507.437 Z-18.850 I-1.935 J18.986 K0.000 F2500.000
G2 X15.565 Y528.358 Z-18.850 I18.986 J1.935 K0.000 F2500.000
G2 X34.925 Y517.156 Z-18.850 I1.935 J-18.986 K0.000 F2500.000
G0 Z5.000
G0 X23.919 Y486.345 Z5.000
G0 X23.919 Y486.345 Z3.000
G1 X23.919 Y486.345 Z-18.850 F500.000
G2 X19.435 Y449.387 Z-18.850 I-6.419 J-17.972 K0.000 F2500.000
G2 X-1.486 Y466.437 Z-18.850 I-1.935 J18.986 K0.000 F2500.000
G2 X15.565 Y487.358 Z-18.850 I18.986 J1.935 K0.000 F2500.000
G2 X23.919 Y486.345 Z-18.850 I1.935 J-18.986 K0.000 F2500.000
G0 Z5.000
G0 X46.741 Y476.154 Z5.000
G0 X46.741 Y476.154 Z3.000
G1 X46.741 Y476.154 Z-18.850 F500.000
G2 X62.231 Y487.358 Z-18.850 I17.426 J-7.781 K0.000 F2500.000
G2 X83.152 Y470.308 Z-18.850 I1.935 J-18.986 K0.000 F2500.000
G2 X66.102 Y449.387 Z-18.850 I-18.986 J-1.935 K0.000 F2500.000
G2 X46.741 Y476.154 Z-18.850 I-1.935 J18.986 K0.000 F2500.000
G0 Z5.000
G0 X57.747 Y445.344 Z5.000
G0 X57.747 Y445.344 Z3.000
G1 X57.747 Y445.344 Z-18.850 F500.000
G2 X62.231 Y446.358 Z-18.850 I6.420 J-17.972 K0.000 F2500.000
G2 X66.102 Y408.387 Z-18.850 I1.935 J-18.986 K0.000 F2500.000
G2 X57.747 Y445.344 Z-18.850 I-1.935 J18.986 K0.000 F2500.000
G0 Z5.000
G0 X34.926 Y435.154 Z5.000
G0 X34.926 Y435.154 Z3.000
G1 X34.926 Y435.154 Z-18.850 F500.000
G2 X19.435 Y408.387 Z-18.850 I-17.426 J-7.781 K0.000 F2500.000
G2 X-1.486 Y425.437 Z-18.850 I-1.935 J18.986 K0.000 F2500.000
G2 X15.565 Y446.358 Z-18.850 I18.986 J1.935 K0.000 F2500.000
G2 X34.926 Y435.154 Z-18.850 I1.935 J-18.986 K0.000 F2500.000
G0 Z5.000
G0 X23.920 Y404.344 Z5.000
G0 X23.920 Y404.344 Z3.000
G1 X23.920 Y404.344 Z-18.850 F500.000
G2 X19.435 Y367.387 Z-18.850 I-6.420 J-17.972 K0.000 F2500.000
G2 X15.565 Y405.358 Z-18.850 I-1.935 J18.986 K0.000 F2500.000
G2 X23.920 Y404.344 Z-18.850 I1.935 J-18.986 K0.000 F2500.000
G0 Z5.000
G0 X46.741 Y394.154 Z5.000
G0 X46.741 Y394.154 Z3.000
G1 X46.741 Y394.154 Z-18.850 F500.000
G2 X62.231 Y405.358 Z-18.850 I17.426 J-7.781 K0.000 F2500.000
G2 X83.152 Y388.308 Z-18.850 I1.935 J-18.986 K0.000 F2500.000
G2 X66.102 Y367.387 Z-18.850 I-18.986 J-1.935 K0.000 F2500.000
G2 X46.741 Y394.154 Z-18.850 I-1.935 J18.986 K0.000 F2500.000
G0 Z5.000
G0 X57.747 Y363.344 Z5.000
G0 X57.747 Y363.344 Z3.000
G1 X57.747 Y363.344 Z-18.850 F500.000
G2 X62.204 Y364.355 Z-18.850 I6.420 J-17.972 K0.000 F2500.000
G2 X83.151 Y347.322 Z-18.850 I1.963 J-18.983 K0.000 F2500.000
G2 X66.102 Y326.387 Z-18.850 I-18.984 J-1.949 K0.000 F2500.000
G2 X57.747 Y363.344 Z-18.850 I-1.935 J18.986 K0.000 F2500.000
G0 Z5.000
G0 X34.926 Y353.154 Z5.000
G0 X34.926 Y353.154 Z3.000
G1 X34.926 Y353.154 Z-18.850 F500.000
G2 X19.463 Y326.389 Z-18.850 I-17.426 J-7.781 K0.000 F2500.000
G2 X-1.483 Y343.409 Z-18.850 I-1.963 J18.983 K0.000 F2500.000
G2 X15.537 Y364.355 Z-18.850 I18.983 J1.963 K0.000 F2500.000
G2 X34.926 Y353.154 Z-18.850 I1.963 J-18.983 K0.000 F2500.000
G0 Z5.000
G0 X23.920 Y322.344 Z5.000
G0 X23.920 Y322.344 Z3.000
G1 X23.920 Y322.344 Z-18.850 F500.000
G2 X19.463 Y285.389 Z-18.850 I-6.420 J-17.972 K0.000 F2500.000
G2 X-1.484 Y302.423 Z-18.850 I-1.963 J18.983 K0.000 F2500.000
G2 X15.565 Y323.358 Z-18.850 I18.984 J1.949 K0.000 F2500.000
G2 X23.920 Y322.344 Z-18.850 I1.935 J-18.986 K0.000 F2500.000
G0 Z5.000
G0 X46.741 Y312.154 Z5.000
G0 X46.741 Y312.154 Z3.000
G1 X46.741 Y312.154 Z-18.850 F500.000
G2 X62.204 Y323.355 Z-18.850 I17.426 J-7.781 K0.000 F2500.000
G2 X83.151 Y306.322 Z-18.850 I1.963 J-18.983 K0.000 F2500.000
G2 X66.102 Y285.387 Z-18.850 I-18.984 J-1.949 K0.000 F2500.000
G2 X46.741 Y312.154 Z-18.850 I-1.935 J18.986 K0.000 F2500.000
G0 Z5.000
G0 X57.747 Y281.344 Z5.000
G0 X57.747 Y281.344 Z3.000
G1 X57.747 Y281.344 Z-18.850 F500.000
G2 X62.231 Y282.358 Z-18.850 I6.420 J-17.972 K0.000 F2500.000
G2 X66.102 Y244.387 Z-18.850 I1.935 J-18.986 K0.000 F2500.000
G2 X57.747 Y281.344 Z-18.850 I-1.935 J18.986 K0.000 F2500.000
G0 Z5.000
G0 X34.926 Y271.154 Z5.000
G0 X34.926 Y271.154 Z3.000
G1 X34.926 Y271.154 Z-18.850 F500.000
G2 X19.463 Y244.389 Z-18.850 I-17.426 J-7.781 K0.000 F2500.000
G2 X-1.484 Y261.423 Z-18.850 I-1.963 J18.983 K0.000 F2500.000
G2 X15.565 Y282.358 Z-18.850 I18.984 J1.949 K0.000 F2500.000
G2 X34.926 Y271.154 Z-18.850 I1.935 J-18.986 K0.000 F2500.000
G0 Z5.000
G0 X23.920 Y240.344 Z5.000
G0 X23.920 Y240.344 Z3.000
G1 X23.920 Y240.344 Z-18.850 F500.000
G2 X19.463 Y203.389 Z-18.850 I-6.420 J-17.972 K0.000 F2500.000
G2 X-1.484 Y220.423 Z-18.850 I-1.963 J18.983 K0.000 F2500.000
G2 X15.565 Y241.358 Z-18.850 I18.984 J1.949 K0.000 F2500.000
G2 X23.920 Y240.344 Z-18.850 I1.935 J-18.986 K0.000 F2500.000
G0 Z5.000
G0 X46.741 Y230.154 Z5.000
G0 X46.741 Y230.154 Z3.000
G1 X46.741 Y230.154 Z-18.850 F500.000
G2 X62.231 Y241.358 Z-18.850 I17.426 J-7.781 K0.000 F2500.000
G2 X83.152 Y224.308 Z-18.850 I1.935 J-18.986 K0.000 F2500.000
G2 X66.102 Y203.387 Z-18.850 I-18.986 J-1.935 K0.000 F2500.000
G2 X46.741 Y230.154 Z-18.850 I-1.935 J18.986 K0.000 F2500.000
G0 Z5.000
G0 X57.747 Y199.344 Z5.000
G0 X57.747 Y199.344 Z3.000
G1 X57.747 Y199.344 Z-18.850 F500.000
G2 X62.231 Y200.358 Z-18.850 I6.420 J-17.972 K0.000 F2500.000
G2 X83.152 Y183.308 Z-18.850 I1.935 J-18.986 K0.000 F2500.000
G2 X66.102 Y162.387 Z-18.850 I-18.986 J-1.935 K0.000 F2500.000
G2 X57.747 Y199.344 Z-18.850 I-1.935 J18.986 K0.000 F2500.000
G0 Z5.000
G0 X34.926 Y189.154 Z5.000
G0 X34.926 Y189.154 Z3.000
G1 X34.926 Y189.154 Z-18.850 F500.000
G2 X19.463 Y162.389 Z-18.850 I-17.426 J-7.781 K0.000 F2500.000
G2 X-1.484 Y179.423 Z-18.850 I-1.963 J18.983 K0.000 F2500.000
G2 X15.565 Y200.358 Z-18.850 I18.984 J1.949 K0.000 F2500.000
G2 X34.926 Y189.154 Z-18.850 I1.935 J-18.986 K0.000 F2500.000
G0 Z5.000
G0 X23.920 Y158.344 Z5.000
G0 X23.920 Y158.344 Z3.000
G1 X23.920 Y158.344 Z-18.850 F500.000
G2 X19.463 Y121.389 Z-18.850 I-6.420 J-17.972 K0.000 F2500.000
G2 X-1.484 Y138.423 Z-18.850 I-1.963 J18.983 K0.000 F2500.000
G2 X15.565 Y159.358 Z-18.850 I18.984 J1.949 K0.000 F2500.000
G2 X23.920 Y158.344 Z-18.850 I1.935 J-18.986 K0.000 F2500.000
G0 Z5.000
G0 X46.741 Y148.154 Z5.000
G0 X46.741 Y148.154 Z3.000
G1 X46.741 Y148.154 Z-18.850 F500.000
G2 X62.231 Y159.358 Z-18.850 I17.426 J-7.781 K0.000 F2500.000
G2 X83.152 Y142.308 Z-18.850 I1.935 J-18.986 K0.000 F2500.000
G2 X66.102 Y121.387 Z-18.850 I-18.986 J-1.935 K0.000 F2500.000
G2 X46.741 Y148.154 Z-18.850 I-1.935 J18.986 K0.000 F2500.000
G0 Z5.000
G0 X57.747 Y117.344 Z5.000
G0 X57.747 Y117.344 Z3.000
G1 X57.747 Y117.344 Z-18.850 F500.000
G2 X62.231 Y118.358 Z-18.850 I6.420 J-17.972 K0.000 F2500.000
G2 X83.152 Y101.308 Z-18.850 I1.935 J-18.986 K0.000 F2500.000
G2 X66.102 Y80.387 Z-18.850 I-18.986 J-1.935 K0.000 F2500.000
G2 X57.747 Y117.344 Z-18.850 I-1.935 J18.986 K0.000 F2500.000
G0 Z5.000
G0 X34.926 Y107.154 Z5.000
G0 X34.926 Y107.154 Z3.000
G1 X34.926 Y107.154 Z-18.850 F500.000
G2 X19.463 Y80.389 Z-18.850 I-17.426 J-7.781 K0.000 F2500.000
G2 X-1.484 Y97.423 Z-18.850 I-1.963 J18.983 K0.000 F2500.000
G2 X15.565 Y118.358 Z-18.850 I18.984 J1.949 K0.000 F2500.000
G2 X34.926 Y107.154 Z-18.850 I1.935 J-18.986 K0.000 F2500.000
G0 Z5.000
G0 X23.920 Y76.344 Z5.000
G0 X23.920 Y76.344 Z3.000
G1 X23.920 Y76.344 Z-18.850 F500.000
G2 X19.463 Y39.389 Z-18.850 I-6.420 J-17.972 K0.000 F2500.000
G2 X-1.484 Y56.423 Z-18.850 I-1.963 J18.983 K0.000 F2500.000
G2 X15.565 Y77.358 Z-18.850 I18.984 J1.949 K0.000 F2500.000
G2 X23.920 Y76.344 Z-18.850 I1.935 J-18.986 K0.000 F2500.000
G0 Z5.000
G0 X46.741 Y66.154 Z5.000
G0 X46.741 Y66.154 Z3.000
G1 X46.741 Y66.154 Z-18.850 F500.000
G2 X62.231 Y77.358 Z-18.850 I17.426 J-7.781 K0.000 F2500.000
G2 X83.152 Y60.308 Z-18.850 I1.935 J-18.986 K0.000 F2500.000
G2 X66.102 Y39.387 Z-18.850 I-18.986 J-1.935 K0.000 F2500.000
G2 X46.741 Y66.154 Z-18.850 I-1.935 J18.986 K0.000 F2500.000
G0 Z5.000
G0 X57.747 Y35.344 Z5.000
G0 X57.747 Y35.344 Z3.000
G1 X57.747 Y35.344 Z-18.850 F500.000
G2 X62.231 Y36.358 Z-18.850 I6.420 J-17.972 K0.000 F2500.000
G2 X83.152 Y19.308 Z-18.850 I1.935 J-18.986 K0.000 F2500.000
G2 X66.102 Y-1.613 Z-18.850 I-18.986 J-1.935 K0.000 F2500.000
G2 X57.747 Y35.344 Z-18.850 I-1.935 J18.986 K0.000 F2500.000
G0 Z5.000
G0 X34.926 Y25.154 Z5.000
G0 X34.926 Y25.154 Z3.000
G1 X34.926 Y25.154 Z-18.850 F500.000
G2 X19.463 Y-1.611 Z-18.850 I-17.426 J-7.781 K0.000 F2500.000
G2 X-1.484 Y15.423 Z-18.850 I-1.963 J18.983 K0.000 F2500.000
G2 X15.565 Y36.358 Z-18.850 I18.984 J1.949 K0.000 F2500.000
G2 X34.926 Y25.154 Z-18.850 I1.935 J-18.986 K0.000 F2500.000
G0 Z5.000
G0 X91.849 Y19.319 Z5.000
G0 X91.849 Y19.319 Z3.000
G1 X91.849 Y19.319 Z-18.850 F500.000
G2 X108.898 Y36.358 Z-18.850 I18.985 J-1.946 K0.000 F2500.000
G2 X112.769 Y-1.613 Z-18.850 I1.935 J-18.986 K0.000 F2500.000
G2 X91.849 Y19.319 Z-18.850 I-1.935 J18.986 K0.000 F2500.000
G0 Z5.000
G0 X102.490 Y41.209 Z5.000
G0 X102.490 Y41.209 Z3.000
G1 X102.490 Y41.209 Z-18.850 F500.000
G2 X108.898 Y77.358 Z-18.850 I8.344 J17.164 K0.000 F2500.000
G2 X112.769 Y39.387 Z-18.850 I1.935 J-18.986 K0.000 F2500.000
G2 X102.490 Y41.209 Z-18.850 I-1.935 J18.986 K0.000 F2500.000
G0 Z5.000
G0 X139.282 Y52.688 Z5.000
G0 X139.282 Y52.688 Z3.000
G1 X139.282 Y52.688 Z-18.850 F500.000
G2 X155.565 Y77.358 Z-18.850 I18.218 J5.684 K0.000 F2500.000
G2 X159.435 Y39.387 Z-18.850 I1.935 J-18.986 K0.000 F2500.000
G2 X139.282 Y52.688 Z-18.850 I-1.935 J18.986 K0.000 F2500.000
G0 Z5.000
G0 X148.751 Y34.333 Z5.000
G0 X148.751 Y34.333 Z3.000
G1 X148.751 Y34.333 Z-18.850 F500.000
G2 X155.565 Y36.358 Z-18.850 I8.749 J-16.960 K0.000 F2500.000
G2 X159.435 Y-1.613 Z-18.850 I1.935 J-18.986 K0.000 F2500.000
G2 X148.751 Y34.333 Z-18.850 I-1.935 J18.986 K0.000 F2500.000
G0 Z5.000
G0 X154.956 Y80.459 Z5.000
G0 X154.956 Y80.459 Z3.000
G1 X154.956 Y80.459 Z-18.850 F500.000
G2 X155.565 Y118.358 Z-18.850 I2.544 J18.914 K0.000 F2500.000
G2 X176.486 Y101.308 Z-18.850 I1.935 J-18.986 K0.000 F2500.000
G2 X159.435 Y80.387 Z-18.850 I-18.986 J-1.935 K0.000 F2500.000
G2 X154.956 Y80.459 Z-18.850 I-1.935 J18.986 K0.000 F2500.000
G0 Z5.000
G0 X128.374 Y91.853 Z5.000
G0 X128.374 Y91.853 Z3.000
G1 X128.374 Y91.853 Z-18.850 F500.000
G2 X112.769 Y80.387 Z-18.850 I-17.541 J7.519 K0.000 F2500.000
G2 X108.898 Y118.358 Z-18.850 I-1.935 J18.986 K0.000 F2500.000
G2 X128.374 Y91.853 Z-18.850 I1.935 J-18.986 K0.000 F2500.000
G0 Z5.000
G0 X117.322 Y122.425 Z5.000
G0 X117.322 Y122.425 Z3.000
G1 X117.322 Y122.425 Z-18.850 F500.000
G2 X112.769 Y121.387 Z-18.850 I-6.488 J17.947 K0.000 F2500.000
G2 X108.898 Y159.358 Z-18.850 I-1.935 J18.986 K0.000 F2500.000
G2 X117.322 Y122.425 Z-18.850 I1.935 J-18.986 K0.000 F2500.000
G0 Z5.000
G0 X140.075 Y132.589 Z5.000
G0 X140.075 Y132.589 Z3.000
G1 X140.075 Y132.589 Z-18.850 F500.000
G2 X155.565 Y159.358 Z-18.850 I17.425 J7.784 K0.000 F2500.000
G2 X176.486 Y142.308 Z-18.850 I1.935 J-18.986 K0.000 F2500.000
G2 X159.435 Y121.387 Z-18.850 I-18.986 J-1.935 K0.000 F2500.000
G2 X140.075 Y132.589 Z-18.850 I-1.935 J18.986 K0.000 F2500.000
G0 Z5.000
G0 X151.081 Y163.400 Z5.000
G0 X151.081 Y163.400 Z3.000
