; HEADER_BLOCK_START
; generated by OrcaSlicer 2.3.0 on 2025-08-22 at 14:43:34
; total layer number: 136
;_GP_TOTAL_LAYER_NUMBER_PLACEHOLDER
; filament_density: 1.27
; filament_diameter: 1.75
; max_z_height: 27.20
; HEADER_BLOCK_END

; THUMBNAIL_BLOCK_START

;
; THUMBNAIL_BLOCK_END

; THUMBNAIL_BLOCK_START

;
; THUMBNAIL_BLOCK_END

; external perimeters extrusion width = 0.40mm
; perimeters extrusion width = 0.45mm
; infill extrusion width = 0.45mm
; solid infill extrusion width = 0.40mm
; top infill extrusion width = 0.40mm
; first layer extrusion width = 0.50mm

; EXECUTABLE_BLOCK_START
M73 P0 R156
M201 X500 Y500 Z500 E5000
M203 X500 Y500 Z10 E60
M204 P500 R1000 T500
M205 X8.00 Y8.00 Z0.40 E5.00 ; sets the jerk limits, mm/sec
;TYPE:Custom
G90 ; use absolute coordinates
M83 ; extruder relative mode
M140 S80 ; set final bed temp
M104 S150 ; set temporary nozzle temp to prevent oozing during homing
G4 S10 ; allow partial nozzle warmup
G28 ; home all axis
M420 S1 ; Rappel du Bed levelling sauvegardé
G1 Z50 F240
G1 X2 Y10 F3000
M104 S235 ; set final nozzle temp
M190 S80 ; wait for bed temp to stabilize
M109 S235 ; wait for nozzle temp to stabilize
G1 Z0.28 F240
G92 E0
G1 Y140 E10 F1500 ; prime the nozzle
G1 X2.3 F5000
G92 E0
G1 Y10 E10 F1200 ; prime the nozzle
G92 E0
G90
G21
M83 ; use relative distances for extrusion
; filament start gcode
M900 K0.02; Override pressure advance value
M106 S0
;LAYER_CHANGE
;Z:0.2
;HEIGHT:0.2
;BEFORE_LAYER_CHANGE
;0.2
G92 E0

;_SET_FAN_SPEED_CHANGING_LAYER
M204 S500
; printing object BitCartridgeHolder_1x1x25,00 mm (Meshed).stl id:18446744073616454793 copy 0
G1 E-5 F3600
G1 Z.6 F9000
G1 X130.857 Y109.336
G1 Z.6
G1 Z.2
G1 E5 F2400
;TYPE:Inner wall
;WIDTH:0.657301
G1 F900
G1 X130.857 Y109.417 E.00432
G1 X130.877 Y109.576 E.00847
;WIDTH:0.617976
G1 X130.897 Y109.734 E.00792
;WIDTH:0.57865
G1 X130.916 Y109.892 E.00738
;WIDTH:0.539325
G1 X130.936 Y110.05 E.00684
G1 X130.916 Y110.286 E.01018
;WIDTH:0.57865
G1 X130.897 Y110.523 E.01098
;WIDTH:0.617976
G1 X130.877 Y110.759 E.01179
;WIDTH:0.657301
G1 X130.857 Y110.995 E.0126
G1 X130.857 Y121.166 E.54036
G1 X130.877 Y121.262 E.0052
;WIDTH:0.617976
G1 X130.897 Y121.358 E.00487
;WIDTH:0.57865
G1 X130.916 Y121.453 E.00453
;WIDTH:0.539325
G1 X130.936 Y121.549 E.0042
;WIDTH:0.499999
G1 X130.936 Y129.568 E.31694
G1 X129.518 Y130.986 E.07927
G1 X121.501 Y130.986 E.31687
;WIDTH:0.542221
G1 X121.398 Y130.965 E.00456
;WIDTH:0.584442
G1 X121.294 Y130.944 E.00494
;WIDTH:0.626663
G1 X121.191 Y130.923 E.00533
;WIDTH:0.668884
G1 X121.088 Y130.901 E.00571
G1 X120.821 Y130.907 E.01441
;WIDTH:0.657302
G1 X110.945 Y130.907 E.52472
G1 X110.709 Y130.927 E.0126
;WIDTH:0.617977
G1 X110.473 Y130.947 E.01179
;WIDTH:0.578651
G1 X110.236 Y130.966 E.01098
;WIDTH:0.539325
G1 X110 Y130.986 E.01018
;WIDTH:0.542221
G1 X109.83 Y130.965 E.00739
;WIDTH:0.584442
G1 X109.66 Y130.944 E.00801
;WIDTH:0.626663
G1 X109.491 Y130.923 E.00864
;WIDTH:0.668884
G1 X109.321 Y130.901 E.00926
G1 X109.055 Y130.907 E.01441
;WIDTH:0.657302
G1 X99.179 Y130.907 E.52472
G1 X99.009 Y130.927 E.00906
;WIDTH:0.617977
G1 X98.84 Y130.947 E.00848
;WIDTH:0.578651
G1 X98.67 Y130.966 E.0079
;WIDTH:0.539325
G1 X98.501 Y130.986 E.00732
;WIDTH:0.499999
G1 X90.482 Y130.986 E.31694
G1 X89.064 Y129.568 E.07927
G1 X89.064 Y121.551 E.31687
;WIDTH:0.542221
G1 X89.085 Y121.448 E.00456
;WIDTH:0.584442
G1 X89.106 Y121.344 E.00494
;WIDTH:0.626663
G1 X89.127 Y121.241 E.00533
;WIDTH:0.668884
G1 X89.149 Y121.138 E.00571
G1 X89.143 Y120.871 E.01441
;WIDTH:0.657302
G1 X89.143 Y110.995 E.52472
G1 X89.123 Y110.759 E.0126
;WIDTH:0.617977
G1 X89.103 Y110.523 E.01179
;WIDTH:0.578651
G1 X89.084 Y110.286 E.01098
;WIDTH:0.539325
G1 X89.064 Y110.05 E.01018
;WIDTH:0.542221
G1 X89.085 Y109.88 E.00739
;WIDTH:0.584442
G1 X89.106 Y109.71 E.00801
;WIDTH:0.626663
G1 X89.127 Y109.541 E.00864
;WIDTH:0.668884
G1 X89.149 Y109.371 E.00926
G1 X89.143 Y109.105 E.01441
;WIDTH:0.657302
G1 X89.143 Y99.229 E.52472
G1 X89.123 Y99.059 E.00906
;WIDTH:0.617977
G1 X89.103 Y98.89 E.00848
;WIDTH:0.578651
G1 X89.084 Y98.72 E.0079
;WIDTH:0.539325
G1 X89.064 Y98.551 E.00732
;WIDTH:0.499999
G1 X89.064 Y90.532 E.31694
G1 X90.482 Y89.114 E.07927
G1 X98.499 Y89.114 E.31687
;WIDTH:0.542221
G1 X98.602 Y89.135 E.00456
;WIDTH:0.584442
G1 X98.706 Y89.156 E.00494
;WIDTH:0.626663
G1 X98.809 Y89.177 E.00533
;WIDTH:0.668884
G1 X98.912 Y89.199 E.00571
G1 X99.179 Y89.193 E.01441
;WIDTH:0.657302
G1 X109.055 Y89.193 E.52472
G1 X109.291 Y89.173 E.0126
;WIDTH:0.617977
G1 X109.527 Y89.153 E.01179
;WIDTH:0.578651
G1 X109.764 Y89.134 E.01098
;WIDTH:0.539325
G1 X110 Y89.114 E.01018
;WIDTH:0.542221
G1 X110.17 Y89.135 E.00739
;WIDTH:0.584442
G1 X110.34 Y89.156 E.00801
;WIDTH:0.626663
G1 X110.509 Y89.177 E.00864
;WIDTH:0.668884
G1 X110.679 Y89.199 E.00926
G1 X110.945 Y89.193 E.01441
;WIDTH:0.657302
G1 X120.821 Y89.193 E.52472
G1 X120.991 Y89.173 E.00906
;WIDTH:0.617977
G1 X121.16 Y89.153 E.00848
;WIDTH:0.578651
G1 X121.33 Y89.134 E.0079
;WIDTH:0.539325
G1 X121.499 Y89.114 E.00732
;WIDTH:0.499999
G1 X129.518 Y89.114 E.31694
G1 X130.936 Y90.532 E.07927
G1 X130.936 Y98.549 E.31687
;WIDTH:0.539325
G1 X130.916 Y98.719 E.00734
;WIDTH:0.57865
G1 X130.897 Y98.889 E.00792
;WIDTH:0.617976
G1 X130.877 Y99.059 E.00851
;WIDTH:0.657301
G1 X130.857 Y99.229 E.00909
G1 X130.857 Y109.296 E.53489
G1 E-5 F3600
G1 Z.6 F9000
G1 X90.293 Y131.443 Z.6
G1 Z.2
G1 E5 F2400
;WIDTH:0.499999
G1 F900
G1 X88.607 Y129.757 E.09423
G1 X88.607 Y90.343 E1.55791
G1 X90.293 Y88.657 E.09423
G1 X129.707 Y88.657 E1.55791
G1 X131.393 Y90.343 E.09423
G1 X131.393 Y129.757 E1.55791
G1 X129.707 Y131.443 E.09423
M73 P0 R155
G1 X90.333 Y131.443 E1.55633
G1 X90.104 Y131.9 F9000
;TYPE:Outer wall
G1 F900
G1 X88.15 Y129.946 E.1092
G1 X88.15 Y90.154 E1.57287
G1 X90.104 Y88.2 E.1092
G1 X129.896 Y88.2 E1.57287
G1 X131.85 Y90.154 E.1092
G1 X131.85 Y129.946 E1.57287
G1 X129.896 Y131.9 E.1092
G1 X90.144 Y131.9 E1.57129
G1 E-5 F3600
G1 Z.6 F9000
G1 X109.929 Y90.302 Z.6
G1 Z.2
G1 E5 F2400
;TYPE:Inner wall
G1 F900
G1 X110.071 Y90.302 E.00558
G1 X110.3 Y90.085 E.01249
;WIDTH:0.539325
G1 X110.414 Y90.016 E.00571
;WIDTH:0.578651
G1 X110.527 Y89.946 E.00616
;WIDTH:0.617977
G1 X110.64 Y89.877 E.00661
;WIDTH:0.657302
G1 X110.754 Y89.807 E.00707
G1 X120.821 Y89.807 E.53489
G1 X120.942 Y89.854 E.00687
;WIDTH:0.617977
G1 X121.063 Y89.9 E.00643
;WIDTH:0.578651
G1 X121.184 Y89.947 E.00599
;WIDTH:0.539325
G1 X121.304 Y89.993 E.00555
;WIDTH:0.499999
G1 X121.668 Y90.261 E.01788
G1 X121.875 Y90.587 E.01525
G1 X121.964 Y91.029 E.0178
G1 X121.964 Y92.066 E.041
G1 X122.475 Y91.618 E.02686
G1 X123.109 Y91.231 E.02936
G1 X123.801 Y90.961 E.02934
G1 X124.542 Y90.814 E.02988
G1 X125.594 Y90.834 E.04157
G1 X126.363 Y91.013 E.03123
G1 X127.044 Y91.311 E.02936
G1 X127.903 Y91.937 E.04202
G1 X128.432 Y92.525 E.03128
G1 X128.819 Y93.159 E.02936
G1 X129.089 Y93.851 E.02936
G1 X129.235 Y94.58 E.02936
G1 X129.213 Y95.654 E.04249
G1 X129.037 Y96.414 E.03084
G1 X128.739 Y97.094 E.02932
G1 X128.327 Y97.712 E.02936
G1 X127.959 Y98.086 E.02074
G1 X129.021 Y98.086 E.04199
G1 X129.461 Y98.174 E.0177
G1 X129.787 Y98.38 E.01527
G1 X130.057 Y98.744 E.01791
;WIDTH:0.539325
G1 X130.103 Y98.865 E.00557
;WIDTH:0.57865
G1 X130.15 Y98.986 E.00601
;WIDTH:0.617976
G1 X130.196 Y99.108 E.00645
;WIDTH:0.657301
G1 X130.243 Y99.229 E.00689
G1 X130.243 Y109.105 E.52472
;WIDTH:0.668882
G1 X130.23 Y109.317 E.0115
G1 X130.164 Y109.425 E.00687
;WIDTH:0.626662
G1 X130.097 Y109.533 E.00641
;WIDTH:0.584441
G1 X130.031 Y109.642 E.00594
;WIDTH:0.54222
G1 X129.965 Y109.75 E.00548
;WIDTH:0.499999
G1 X129.748 Y109.979 E.01249
G1 X129.748 Y110.121 E.00558
G1 X129.965 Y110.35 E.01249
;WIDTH:0.539325
G1 X130.034 Y110.511 E.00754
;WIDTH:0.57865
G1 X130.104 Y110.673 E.00813
;WIDTH:0.617976
G1 X130.173 Y110.834 E.00873
;WIDTH:0.657301
G1 X130.243 Y110.995 E.00933
G1 X130.243 Y120.871 E.52472
;WIDTH:0.668882
G1 X130.23 Y121.083 E.0115
G1 X130.12 Y121.242 E.01047
;WIDTH:0.626662
G1 X130.009 Y121.401 E.00976
;WIDTH:0.584441
G1 X129.899 Y121.56 E.00905
;WIDTH:0.54222
G1 X129.789 Y121.718 E.00835
;WIDTH:0.499999
G1 X129.463 Y121.925 E.01525
G1 X129.021 Y122.014 E.0178
G1 X127.984 Y122.014 E.041
G1 X128.432 Y122.525 E.02686
G1 X128.819 Y123.159 E.02936
G1 X129.089 Y123.851 E.02936
G1 X129.235 Y124.58 E.02936
G1 X129.252 Y125.322 E.02936
G1 X129.049 Y126.366 E.04202
G1 X128.739 Y127.094 E.03128
G1 X128.113 Y127.953 E.04202
G1 X127.525 Y128.482 E.03128
G1 X126.891 Y128.869 E.02936
G1 X126.199 Y129.139 E.02936
G1 X125.47 Y129.285 E.02936
G1 X124.396 Y129.263 E.04249
G1 X123.636 Y129.087 E.03084
G1 X122.956 Y128.789 E.02932
G1 X122.097 Y128.163 E.04202
G1 X121.964 Y128.036 E.00725
G1 X121.964 Y129.071 E.04091
G1 X121.941 Y129.3 E.00909
G1 X121.876 Y129.511 E.0087
G1 X121.67 Y129.837 E.01527
;WIDTH:0.539325
G1 X121.506 Y129.951 E.00856
;WIDTH:0.578651
G1 X121.343 Y130.065 E.00924
;WIDTH:0.617977
G1 X121.179 Y130.179 E.00992
;WIDTH:0.657302
G1 X121.015 Y130.293 E.01059
G1 X110.945 Y130.293 E.53502
G1 X110.784 Y130.223 E.00933
;WIDTH:0.617977
G1 X110.623 Y130.154 E.00873
;WIDTH:0.578651
G1 X110.461 Y130.084 E.00813
;WIDTH:0.539325
G1 X110.3 Y130.015 E.00754
;WIDTH:0.499999
G1 X110.071 Y129.798 E.01249
G1 X109.929 Y129.798 E.00558
G1 X109.7 Y130.015 E.01249
;WIDTH:0.539325
G1 X109.586 Y130.084 E.00571
;WIDTH:0.578651
G1 X109.473 Y130.154 E.00616
;WIDTH:0.617977
G1 X109.36 Y130.223 E.00661
;WIDTH:0.657302
G1 X109.246 Y130.293 E.00707
G1 X99.179 Y130.293 E.53489
G1 X99.058 Y130.246 E.00687
;WIDTH:0.617977
G1 X98.937 Y130.2 E.00643
;WIDTH:0.578651
G1 X98.816 Y130.153 E.00599
;WIDTH:0.539325
G1 X98.696 Y130.107 E.00555
;WIDTH:0.499999
G1 X98.332 Y129.839 E.01788
G1 X98.125 Y129.513 E.01525
G1 X98.036 Y129.071 E.0178
G1 X98.036 Y128.034 E.041
G1 X97.525 Y128.482 E.02686
G1 X96.891 Y128.869 E.02936
G1 X96.199 Y129.139 E.02936
G1 X95.47 Y129.285 E.02936
G1 X94.407 Y129.266 E.04202
G1 X93.637 Y129.087 E.03128
G1 X92.956 Y128.789 E.02936
G1 X92.338 Y128.377 E.02936
G1 X91.801 Y127.864 E.02936
G1 X91.361 Y127.266 E.02936
G1 X91.031 Y126.601 E.02936
G1 X90.775 Y125.569 E.04202
G1 X90.749 Y125.269 E.01188
G1 X90.787 Y124.446 E.03259
G1 X90.963 Y123.686 E.03084
G1 X91.261 Y123.006 E.02932
G1 X91.887 Y122.147 E.04202
G1 X92.014 Y122.014 E.00725
G1 X90.979 Y122.014 E.04091
G1 X90.75 Y121.991 E.00909
G1 X90.539 Y121.926 E.0087
G1 X90.213 Y121.72 E.01527
;WIDTH:0.539325
G1 X90.099 Y121.556 E.00856
;WIDTH:0.578651
G1 X89.985 Y121.393 E.00924
;WIDTH:0.617977
G1 X89.871 Y121.229 E.00992
;WIDTH:0.657302
G1 X89.757 Y121.065 E.01059
G1 X89.757 Y110.995 E.53502
G1 X89.827 Y110.834 E.00933
;WIDTH:0.617977
G1 X89.896 Y110.673 E.00873
;WIDTH:0.578651
G1 X89.966 Y110.511 E.00813
;WIDTH:0.539325
G1 X90.035 Y110.35 E.00754
;WIDTH:0.499999
G1 X90.252 Y110.121 E.01249
G1 X90.252 Y109.979 E.00558
G1 X90.035 Y109.75 E.01249
;WIDTH:0.539325
G1 X89.966 Y109.636 E.00571
;WIDTH:0.578651
G1 X89.896 Y109.523 E.00616
;WIDTH:0.617977
G1 X89.827 Y109.41 E.00661
;WIDTH:0.657302
G1 X89.757 Y109.296 E.00707
G1 X89.757 Y99.229 E.53489
G1 X89.804 Y99.108 E.00687
;WIDTH:0.617977
G1 X89.85 Y98.987 E.00643
;WIDTH:0.578651
G1 X89.897 Y98.866 E.00599
;WIDTH:0.539325
G1 X89.943 Y98.746 E.00555
;WIDTH:0.499999
G1 X90.211 Y98.382 E.01788
G1 X90.537 Y98.175 E.01525
G1 X90.979 Y98.086 E.0178
G1 X92.012 Y98.086 E.04083
G1 X91.568 Y97.575 E.02675
G1 X91.181 Y96.941 E.02936
G1 X90.911 Y96.249 E.02936
G1 X90.765 Y95.52 E.02936
G1 X90.784 Y94.457 E.04202
G1 X90.963 Y93.687 E.03128
G1 X91.261 Y93.006 E.02936
G1 X91.887 Y92.147 E.04202
G1 X92.475 Y91.618 E.03128
G1 X93.109 Y91.231 E.02936
G1 X93.801 Y90.961 E.02934
G1 X94.542 Y90.814 E.02988
G1 X95.594 Y90.834 E.04157
G1 X96.363 Y91.013 E.03123
G1 X97.044 Y91.311 E.02936
G1 X97.662 Y91.723 E.02936
G1 X98.036 Y92.091 E.02074
G1 X98.036 Y91.029 E.04199
G1 X98.124 Y90.589 E.0177
G1 X98.33 Y90.263 E.01527
;WIDTH:0.539325
G1 X98.494 Y90.149 E.00856
;WIDTH:0.578651
G1 X98.657 Y90.035 E.00924
;WIDTH:0.617977
G1 X98.821 Y89.921 E.00992
;WIDTH:0.657302
G1 X98.985 Y89.807 E.01059
G1 X109.055 Y89.807 E.53502
G1 X109.216 Y89.877 E.00933
;WIDTH:0.617977
G1 X109.377 Y89.946 E.00873
;WIDTH:0.578651
G1 X109.539 Y90.016 E.00813
;WIDTH:0.539325
G1 X109.7 Y90.085 E.00754
;WIDTH:0.499999
G1 X109.9 Y90.275 E.01091
G1 X109.691 Y90.855 F9000
G1 F900
G1 X109.845 Y90.769 E.00698
G1 X110.155 Y90.769 E.01224
G1 X110.309 Y90.855 E.00698
G1 X110.353 Y90.683 E.00698
G1 X110.558 Y90.463 E.01193
G1 X110.852 Y90.343 E.01254
G1 X120.821 Y90.343 E.39406
G1 X121.111 Y90.407 E.01173
G1 X121.33 Y90.568 E.01073
G1 X121.485 Y90.854 E.01286
G1 X121.507 Y91.379 E.02078
G1 X121.507 Y93.56 E.0862
G1 X121.753 Y93.072 E.02161
G1 X122.249 Y92.425 E.03223
G1 X122.769 Y91.968 E.02736
G1 X123.338 Y91.627 E.02622
G1 X123.957 Y91.391 E.0262
G1 X124.621 Y91.264 E.02669
G1 X125.573 Y91.291 E.03767
G1 X126.245 Y91.454 E.02733
G1 X126.851 Y91.725 E.02622
G1 X127.625 Y92.299 E.0381
G1 X128.082 Y92.819 E.02736
G1 X128.423 Y93.388 E.02622
G1 X128.659 Y94.008 E.02622
G1 X128.785 Y94.659 E.02622
G1 X128.757 Y95.633 E.03853
G1 X128.595 Y96.296 E.02694
G1 X128.325 Y96.901 E.02619
G1 X127.953 Y97.45 E.02622
G1 X127.253 Y98.113 E.0381
G1 X126.672 Y98.468 E.02694
G1 X126.496 Y98.543 E.00753
G1 X129.021 Y98.543 E.0998
G1 X129.285 Y98.596 E.01062
G1 X129.481 Y98.719 E.00916
G1 X129.643 Y98.938 E.01075
G1 X129.707 Y99.229 E.01176
G1 X129.707 Y109.105 E.39038
G1 X129.697 Y109.223 E.0047
G1 X129.549 Y109.543 E.01394
G1 X129.367 Y109.697 E.00942
G1 X129.195 Y109.741 E.00698
G1 X129.281 Y109.895 E.00698
G1 X129.281 Y110.205 E.01224
G1 X129.195 Y110.359 E.00698
G1 X129.367 Y110.403 E.00698
G1 X129.587 Y110.608 E.01193
G1 X129.707 Y110.995 E.01601
G1 X129.707 Y120.871 E.39038
G1 X129.643 Y121.161 E.01173
G1 X129.482 Y121.38 E.01073
G1 X129.196 Y121.535 E.01286
G1 X128.671 Y121.557 E.02078
G1 X126.49 Y121.557 E.0862
G1 X126.978 Y121.803 E.02161
G1 X127.625 Y122.299 E.03223
G1 X128.082 Y122.819 E.02736
G1 X128.423 Y123.388 E.02622
G1 X128.659 Y124.008 E.02622
G1 X128.785 Y124.659 E.02622
G1 X128.795 Y125.322 E.02622
G1 X128.602 Y126.267 E.0381
G1 X128.325 Y126.901 E.02736
G1 X127.751 Y127.675 E.0381
G1 X127.231 Y128.132 E.02736
G1 X126.662 Y128.473 E.02622
G1 X126.042 Y128.709 E.02622
G1 X125.391 Y128.835 E.02622
G1 X124.417 Y128.807 E.03853
G1 X123.754 Y128.645 E.02694
G1 X123.149 Y128.375 E.0262
G1 X122.375 Y127.801 E.0381
G1 X121.918 Y127.281 E.02736
G1 X121.577 Y126.712 E.02622
G1 X121.507 Y126.55 E.00698
G1 X121.507 Y129.071 E.09967
G1 X121.454 Y129.335 E.01062
G1 X121.331 Y129.531 E.00916
G1 X121.112 Y129.693 E.01075
G1 X120.821 Y129.757 E.01176
G1 X110.945 Y129.757 E.39038
G1 X110.507 Y129.599 E.01843
G1 X110.353 Y129.417 E.00942
G1 X110.309 Y129.245 E.00698
G1 X110.155 Y129.331 E.00698
G1 X109.845 Y129.331 E.01224
G1 X109.691 Y129.245 E.00698
G1 X109.647 Y129.417 E.00698
G1 X109.442 Y129.637 E.01193
G1 X109.148 Y129.757 E.01254
G1 X99.179 Y129.757 E.39406
G1 X98.889 Y129.693 E.01173
G1 X98.67 Y129.532 E.01073
G1 X98.515 Y129.246 E.01286
G1 X98.493 Y128.721 E.02078
G1 X98.493 Y126.496 E.08793
G1 X98.247 Y127.029 E.02319
G1 X97.751 Y127.675 E.03221
G1 X97.231 Y128.132 E.02736
G1 X96.662 Y128.473 E.02622
G1 X96.042 Y128.709 E.02622
G1 X95.391 Y128.835 E.02622
G1 X94.427 Y128.809 E.0381
G1 X93.755 Y128.646 E.02736
G1 X93.149 Y128.375 E.02622
G1 X92.6 Y128.003 E.02622
G1 X92.124 Y127.541 E.02622
G1 X91.735 Y127.004 E.02622
G1 X91.445 Y126.407 E.02622
G1 X91.221 Y125.47 E.0381
G1 X91.243 Y124.467 E.03967
G1 X91.405 Y123.804 E.02694
G1 X91.675 Y123.199 E.02619
G1 X92.249 Y122.425 E.0381
G1 X92.769 Y121.968 E.02736
G1 X93.338 Y121.627 E.02622
G1 X93.5 Y121.557 E.00698
G1 X90.979 Y121.557 E.09967
G1 X90.715 Y121.504 E.01062
G1 X90.519 Y121.381 E.00916
G1 X90.357 Y121.162 E.01075
G1 X90.293 Y120.871 E.01176
G1 X90.293 Y110.995 E.39038
G1 X90.451 Y110.557 E.01843
M73 P1 R155
G1 X90.633 Y110.403 E.00942
G1 X90.805 Y110.359 E.00698
G1 X90.719 Y110.205 E.00698
G1 X90.719 Y109.895 E.01224
G1 X90.805 Y109.741 E.00698
G1 X90.633 Y109.697 E.00698
G1 X90.413 Y109.492 E.01193
G1 X90.293 Y109.198 E.01254
