; HEADER_BLOCK_START
; generated by OrcaSlicer 2.3.0 on 2025-08-22 at 14:47:04
; total layer number: 10
;_GP_TOTAL_LAYER_NUMBER_PLACEHOLDER
; filament_density: 1.27
; filament_diameter: 1.75
; max_z_height: 2.00
; HEADER_BLOCK_END

; THUMBNAIL_BLOCK_START

;
; THUMBNAIL_BLOCK_END

; THUMBNAIL_BLOCK_START

;
; THUMBNAIL_BLOCK_END

; external perimeters extrusion width = 0.40mm
; perimeters extrusion width = 0.45mm
; infill extrusion width = 0.45mm
; solid infill extrusion width = 0.40mm
; top infill extrusion width = 0.40mm
; first layer extrusion width = 0.50mm

; external perimeters extrusion width = 0.40mm
; perimeters extrusion width = 0.45mm
; infill extrusion width = 0.45mm
; solid infill extrusion width = 0.40mm
; top infill extrusion width = 0.40mm
; first layer extrusion width = 0.50mm

; external perimeters extrusion width = 0.40mm
; perimeters extrusion width = 0.45mm
; infill extrusion width = 0.45mm
; solid infill extrusion width = 0.40mm
; top infill extrusion width = 0.40mm
; first layer extrusion width = 0.50mm

; external perimeters extrusion width = 0.40mm
; perimeters extrusion width = 0.45mm
; infill extrusion width = 0.45mm
; solid infill extrusion width = 0.40mm
; top infill extrusion width = 0.40mm
; first layer extrusion width = 0.50mm

; external perimeters extrusion width = 0.40mm
; perimeters extrusion width = 0.45mm
; infill extrusion width = 0.45mm
; solid infill extrusion width = 0.40mm
; top infill extrusion width = 0.40mm
; first layer extrusion width = 0.50mm

; external perimeters extrusion width = 0.40mm
; perimeters extrusion width = 0.45mm
; infill extrusion width = 0.45mm
; solid infill extrusion width = 0.40mm
; top infill extrusion width = 0.40mm
; first layer extrusion width = 0.50mm

; EXECUTABLE_BLOCK_START
M73 P0 R11
M201 X500 Y500 Z500 E5000
M203 X500 Y500 Z10 E60
M204 P500 R1000 T500
M205 X8.00 Y8.00 Z0.40 E5.00 ; sets the jerk limits, mm/sec
;TYPE:Custom
G90 ; use absolute coordinates
M83 ; extruder relative mode
M140 S80 ; set final bed temp
M104 S150 ; set temporary nozzle temp to prevent oozing during homing
G4 S10 ; allow partial nozzle warmup
G28 ; home all axis
M420 S1 ; Rappel du Bed levelling sauvegardé
G1 Z50 F240
G1 X2 Y10 F3000
M73 P1 R11
M104 S235 ; set final nozzle temp
M190 S80 ; wait for bed temp to stabilize
M109 S235 ; wait for nozzle temp to stabilize
G1 Z0.28 F240
G92 E0
G1 Y140 E10 F1500 ; prime the nozzle
M73 P3 R11
G1 X2.3 F5000
M73 P4 R10
G92 E0
G1 Y10 E10 F1200 ; prime the nozzle
G92 E0
G90
G21
M83 ; use relative distances for extrusion
; filament start gcode
M900 K0.02; Override pressure advance value
M106 S0
;LAYER_CHANGE
;Z:0.2
;HEIGHT:0.2
;BEFORE_LAYER_CHANGE
;0.2
G92 E0

;_SET_FAN_SPEED_CHANGING_LAYER
M204 S500
; printing object CornerConnector.stl id:5118959147747127598 copy 0
G1 E-5 F3600
M73 P5 R10
G1 Z.6 F9000
G1 X122.303 Y106.053
G1 Z.6
G1 Z.2
G1 E5 F2400
;TYPE:Inner wall
;WIDTH:0.499999
G1 F900
G1 X122.113 Y106.267 E.01131
G1 X122.01 Y106.176 E.00547
G1 X121.574 Y105.967 E.01908
G1 X121.309 Y105.936 E.01056
G1 X120.8 Y105.936 E.02011
G1 X120.026 Y105.967 E.03063
G1 X119.684 Y106.111 E.01466
G1 X119.487 Y106.267 E.00996
G1 X119.406 Y106.155 E.00547
G1 X119.133 Y105.913 E.01442
G1 X119.224 Y105.81 E.00547
G1 X119.433 Y105.374 E.01908
G1 X119.464 Y105.109 E.01056
G1 X119.464 Y104.6 E.02011
G1 X119.433 Y103.826 E.03063
G1 X119.289 Y103.484 E.01466
G1 X119.133 Y103.287 E.00996
G1 X119.245 Y103.206 E.00547
G1 X119.487 Y102.933 E.01442
G1 X119.59 Y103.024 E.00547
G1 X120.026 Y103.233 E.01908
G1 X120.291 Y103.264 E.01056
G1 X120.8 Y103.264 E.02011
G1 X121.574 Y103.233 E.03063
G1 X121.916 Y103.089 E.01466
G1 X122.113 Y102.933 E.00996
G1 X122.194 Y103.045 E.00547
G1 X122.467 Y103.287 E.01442
G1 X122.376 Y103.39 E.00547
G1 X122.167 Y103.826 E.01908
G1 X122.136 Y104.091 E.01056
G1 X122.136 Y104.6 E.02011
G1 X122.167 Y105.374 E.03063
G1 X122.311 Y105.716 E.01466
G1 X122.467 Y105.913 E.00996
G1 X122.355 Y105.994 E.00547
G1 X122.329 Y106.023 E.00153
G1 X122.634 Y106.368 F9000
G1 F900
G1 X122.548 Y106.444 E.00456
G1 X122.393 Y106.879 E.01822
G1 X122.393 Y107.193 E.01243
G1 X121.729 Y106.537 E.03688
G1 X121.468 Y106.412 E.01145
G1 X121.309 Y106.393 E.00634
G1 X120.132 Y106.412 E.04653
G1 X119.927 Y106.498 E.00879
G1 X119.806 Y106.594 E.00609
G1 X119.207 Y107.193 E.0335
G1 X119.207 Y106.879 E.01243
G1 X119.102 Y106.514 E.01499
G1 X118.956 Y106.348 E.00876
G1 X118.521 Y106.193 E.01822
G1 X118.207 Y106.193 E.01243
G1 X118.863 Y105.529 E.03688
G1 X118.988 Y105.268 E.01145
G1 X119.007 Y105.109 E.00634
G1 X118.988 Y103.932 E.04653
G1 X118.902 Y103.727 E.00879
G1 X118.806 Y103.606 E.00609
G1 X118.207 Y103.007 E.0335
G1 X118.521 Y103.007 E.01243
G1 X118.886 Y102.902 E.01499
G1 X119.052 Y102.756 E.00876
G1 X119.207 Y102.321 E.01822
G1 X119.207 Y102.007 E.01243
G1 X119.871 Y102.663 E.03688
G1 X120.132 Y102.788 E.01145
G1 X120.291 Y102.807 E.00634
G1 X120.8 Y102.807 E.02011
G1 X121.468 Y102.788 E.02642
G1 X121.673 Y102.702 E.00879
G1 X121.794 Y102.606 E.00609
G1 X122.393 Y102.007 E.0335
G1 X122.393 Y102.321 E.01243
G1 X122.498 Y102.686 E.01499
G1 X122.644 Y102.852 E.00876
G1 X123.079 Y103.007 E.01822
G1 X123.393 Y103.007 E.01243
G1 X122.737 Y103.671 E.03688
G1 X122.612 Y103.932 E.01145
G1 X122.593 Y104.091 E.00634
G1 X122.612 Y105.268 E.04653
G1 X122.698 Y105.473 E.00879
G1 X122.794 Y105.594 E.00609
G1 X123.393 Y106.193 E.0335
G1 X123.079 Y106.193 E.01243
G1 X122.714 Y106.298 E.01499
G1 X122.664 Y106.342 E.00262
G1 X122.934 Y106.702 F9000
;TYPE:Outer wall
G1 F900
G1 X122.85 Y106.879 E.00774
;WIDTH:0.535729
G1 X122.832 Y107.335 E.01946
;WIDTH:0.571459
G1 X122.814 Y108.714 E.06305
G1 X122.286 Y108.714 E.02416
M73 P6 R10
G1 X122.286 Y107.791 E.04219
G1 X122.234 Y107.71 E.00438
;WIDTH:0.535729
G1 X122.183 Y107.63 E.00408
;WIDTH:0.499999
G1 X121.47 Y106.917 E.03983
G1 X121.309 Y106.85 E.00691
G1 X120.291 Y106.85 E.04023
G1 X120.13 Y106.917 E.00691
G1 X119.417 Y107.63 E.03983
;WIDTH:0.53573
G1 X119.366 Y107.71 E.00408
;WIDTH:0.57146
G1 X119.314 Y107.791 E.00438
G1 X119.314 Y108.714 E.04219
G1 X118.786 Y108.714 E.02416
G1 X118.768 Y107.335 E.06305
;WIDTH:0.53573
G1 X118.75 Y106.879 E.01946
;WIDTH:0.499999
G1 X118.698 Y106.734 E.00607
G1 X118.521 Y106.65 E.00774
;WIDTH:0.53573
G1 X118.065 Y106.632 E.01946
;WIDTH:0.571459
G1 X116.686 Y106.614 E.06305
G1 X116.686 Y106.086 E.02416
G1 X116.95 Y106.086 E.01208
;WIDTH:0.575465
G1 X117.655 Y106.084 E.03246
G1 X117.881 Y105.866 E.01445
;WIDTH:0.537732
G1 X118.106 Y105.647 E.01343
;WIDTH:0.499999
G1 X118.483 Y105.27 E.02107
G1 X118.55 Y105.109 E.00691
G1 X118.55 Y104.091 E.04023
G1 X118.483 Y103.93 E.00691
G1 X117.77 Y103.217 E.03983
;WIDTH:0.53573
G1 X117.69 Y103.166 E.00408
;WIDTH:0.57146
G1 X117.609 Y103.114 E.00438
G1 X116.686 Y103.114 E.04219
G1 X116.686 Y102.586 E.02416
G1 X118.065 Y102.568 E.06305
;WIDTH:0.53573
G1 X118.521 Y102.55 E.01946
;WIDTH:0.499999
G1 X118.666 Y102.498 E.00607
G1 X118.75 Y102.321 E.00774
;WIDTH:0.53573
G1 X118.768 Y101.865 E.01946
;WIDTH:0.57146
G1 X118.786 Y100.486 E.06305
G1 X119.314 Y100.486 E.02416
G1 X119.314 Y100.75 E.01208
;WIDTH:0.575465
G1 X119.316 Y101.455 E.03246
G1 X119.534 Y101.681 E.01445
;WIDTH:0.537732
G1 X119.753 Y101.906 E.01343
;WIDTH:0.499999
G1 X120.13 Y102.283 E.02107
G1 X120.291 Y102.35 E.00691
G1 X121.309 Y102.35 E.04023
G1 X121.47 Y102.283 E.00691
;WIDTH:0.508198
G1 X122.186 Y101.573 E.04055
;WIDTH:0.539829
G1 X122.236 Y101.491 E.00413
;WIDTH:0.571459
G1 X122.286 Y101.409 E.0044
G1 X122.286 Y100.486 E.04219
G1 X122.814 Y100.486 E.02416
G1 X122.814 Y100.75 E.01208
;WIDTH:0.575463
G1 X122.812 Y101.501 E.03458
G1 X122.831 Y101.911 E.01891
;WIDTH:0.537731
G1 X122.85 Y102.321 E.01757
;WIDTH:0.499999
G1 X122.902 Y102.466 E.00607
G1 X123.079 Y102.55 E.00774
;WIDTH:0.53573
G1 X123.535 Y102.568 E.01946
;WIDTH:0.57146
G1 X124.914 Y102.586 E.06305
G1 X124.914 Y103.114 E.02416
G1 X124.65 Y103.114 E.01208
;WIDTH:0.575465
G1 X123.945 Y103.116 E.03246
G1 X123.719 Y103.334 E.01445
;WIDTH:0.537732
G1 X123.494 Y103.553 E.01343
;WIDTH:0.499999
G1 X123.117 Y103.93 E.02107
G1 X123.05 Y104.091 E.00691
G1 X123.05 Y105.109 E.04023
G1 X123.117 Y105.27 E.00691
G1 X123.83 Y105.983 E.03983
;WIDTH:0.53573
G1 X123.91 Y106.034 E.00408
;WIDTH:0.57146
G1 X123.991 Y106.086 E.00438
G1 X124.914 Y106.086 E.04219
G1 X124.914 Y106.614 E.02416
G1 X123.535 Y106.632 E.06305
;WIDTH:0.53573
G1 X123.079 Y106.65 E.01946
;WIDTH:0.499999
G1 X122.972 Y106.688 E.00449
G1 E-5 F3600
G1 Z.6 F9000
G1 X122.106 Y103.634 Z.6
G1 Z.2
G1 E5 F2400
;TYPE:Bottom surface
;WIDTH:0.502044
G1 F1200
G1 X121.922 Y103.449 E.01036
G1 X121.658 Y103.567 E.01147
G1 X121.418 Y103.595 E.00959
G1 X121.805 Y103.982 E.02173
G1 X121.793 Y104.619 E.0253
G1 X120.781 Y103.607 E.05683
G1 X120.284 Y103.607 E.01971
G1 X120.111 Y103.587 E.00693
G1 X121.813 Y105.289 E.09558
G1 X121.833 Y105.458 E.00676
G1 X121.973 Y105.773 E.01371
G1 X121.658 Y105.633 E.01371
G1 X121.489 Y105.613 E.00677
G1 X119.787 Y103.911 E.09557
G1 X119.807 Y104.084 E.00692
G1 X119.807 Y104.581 E.01972
G1 X120.819 Y105.593 E.05683
G1 X120.182 Y105.605 E.0253
G1 X119.795 Y105.218 E.02172
G1 X119.767 Y105.458 E.00958
G1 X119.649 Y105.722 E.01147
G1 X119.834 Y105.906 E.01036
; stop printing object CornerConnector.stl id:5118959147747127598 copy 0
; printing object CornerConnector.stl id:3760018743568511534 copy 0
G1 E-5 F3600
G1 Z.6 F9000
G1 X122.303 Y116.853 Z.6
G1 Z.2
G1 E5 F2400
;TYPE:Inner wall
;WIDTH:0.499999
G1 F900
G1 X122.113 Y117.067 E.01131
G1 X122.01 Y116.976 E.00547
G1 X121.574 Y116.767 E.01908
G1 X121.309 Y116.736 E.01056
G1 X120.8 Y116.736 E.02011
G1 X120.026 Y116.767 E.03063
G1 X119.684 Y116.911 E.01466
G1 X119.487 Y117.067 E.00996
G1 X119.406 Y116.955 E.00547
G1 X119.133 Y116.713 E.01442
G1 X119.224 Y116.61 E.00547
G1 X119.433 Y116.174 E.01908
G1 X119.464 Y115.909 E.01056
G1 X119.464 Y115.4 E.02011
G1 X119.433 Y114.626 E.03063
G1 X119.289 Y114.284 E.01466
G1 X119.133 Y114.087 E.00996
G1 X119.245 Y114.006 E.00547
G1 X119.487 Y113.733 E.01442
G1 X119.59 Y113.824 E.00547
G1 X120.026 Y114.033 E.01908
G1 X120.291 Y114.064 E.01056
G1 X120.8 Y114.064 E.02011
G1 X121.574 Y114.033 E.03063
G1 X121.916 Y113.889 E.01466
G1 X122.113 Y113.733 E.00996
G1 X122.194 Y113.845 E.00547
G1 X122.467 Y114.087 E.01442
G1 X122.376 Y114.19 E.00547
G1 X122.167 Y114.626 E.01908
G1 X122.136 Y114.891 E.01056
G1 X122.136 Y115.4 E.02011
G1 X122.167 Y116.174 E.03063
G1 X122.311 Y116.516 E.01466
G1 X122.467 Y116.713 E.00996
G1 X122.355 Y116.794 E.00547
G1 X122.329 Y116.823 E.00153
G1 X122.634 Y117.168 F9000
G1 F900
G1 X122.548 Y117.244 E.00456
G1 X122.393 Y117.679 E.01822
G1 X122.393 Y117.993 E.01243
G1 X121.729 Y117.337 E.03688
G1 X121.468 Y117.212 E.01145
G1 X121.309 Y117.193 E.00634
G1 X120.132 Y117.212 E.04653
G1 X119.927 Y117.298 E.00879
G1 X119.806 Y117.394 E.00609
G1 X119.207 Y117.993 E.0335
G1 X119.207 Y117.679 E.01243
G1 X119.102 Y117.314 E.01499
G1 X118.956 Y117.148 E.00876
G1 X118.521 Y116.993 E.01822
G1 X118.207 Y116.993 E.01243
G1 X118.863 Y116.329 E.03688
G1 X118.988 Y116.068 E.01145
G1 X119.007 Y115.909 E.00634
G1 X118.988 Y114.732 E.04653
G1 X118.902 Y114.527 E.00879
G1 X118.806 Y114.406 E.00609
G1 X118.207 Y113.807 E.0335
G1 X118.521 Y113.807 E.01243
G1 X118.886 Y113.702 E.01499
G1 X119.052 Y113.556 E.00876
G1 X119.207 Y113.121 E.01822
G1 X119.207 Y112.807 E.01243
G1 X119.871 Y113.463 E.03688
G1 X120.132 Y113.588 E.01145
G1 X120.291 Y113.607 E.00634
G1 X120.8 Y113.607 E.02011
G1 X121.468 Y113.588 E.02642
M73 P7 R10
G1 X121.673 Y113.502 E.00879
G1 X121.794 Y113.406 E.00609
G1 X122.393 Y112.807 E.0335
G1 X122.393 Y113.121 E.01243
G1 X122.498 Y113.486 E.01499
G1 X122.644 Y113.652 E.00876
G1 X123.079 Y113.807 E.01822
G1 X123.393 Y113.807 E.01243
G1 X122.737 Y114.471 E.03688
G1 X122.612 Y114.732 E.01145
G1 X122.593 Y114.891 E.00634
G1 X122.612 Y116.068 E.04653
G1 X122.698 Y116.273 E.00879
G1 X122.794 Y116.394 E.00609
G1 X123.393 Y116.993 E.0335
G1 X123.079 Y116.993 E.01243
G1 X122.714 Y117.098 E.01499
G1 X122.664 Y117.142 E.00262
G1 X122.934 Y117.502 F9000
;TYPE:Outer wall
G1 F900
G1 X122.85 Y117.679 E.00774
;WIDTH:0.535729
G1 X122.832 Y118.135 E.01946
;WIDTH:0.571459
G1 X122.814 Y119.514 E.06305
G1 X122.286 Y119.514 E.02416
G1 X122.286 Y118.591 E.04219
G1 X122.234 Y118.51 E.00438
;WIDTH:0.535729
G1 X122.183 Y118.43 E.00408
;WIDTH:0.499999
G1 X121.47 Y117.717 E.03983
G1 X121.309 Y117.65 E.00691
G1 X120.291 Y117.65 E.04023
G1 X120.13 Y117.717 E.00691
G1 X119.417 Y118.43 E.03983
;WIDTH:0.53573
G1 X119.366 Y118.51 E.00408
;WIDTH:0.57146
G1 X119.314 Y118.591 E.00438
G1 X119.314 Y119.514 E.04219
G1 X118.786 Y119.514 E.02416
G1 X118.768 Y118.135 E.06305
;WIDTH:0.53573
G1 X118.75 Y117.679 E.01946
;WIDTH:0.499999
G1 X118.698 Y117.534 E.00607
G1 X118.521 Y117.45 E.00774
;WIDTH:0.53573
G1 X118.065 Y117.432 E.01946
;WIDTH:0.571459
G1 X116.686 Y117.414 E.06305
G1 X116.686 Y116.886 E.02416
G1 X116.95 Y116.886 E.01208
;WIDTH:0.575465
G1 X117.655 Y116.884 E.03246
G1 X117.881 Y116.666 E.01445
;WIDTH:0.537732
G1 X118.106 Y116.447 E.01343
;WIDTH:0.499999
G1 X118.483 Y116.07 E.02107
G1 X118.55 Y115.909 E.00691
G1 X118.55 Y114.891 E.04023
G1 X118.483 Y114.73 E.00691
G1 X117.77 Y114.017 E.03983
;WIDTH:0.53573
G1 X117.69 Y113.966 E.00408
;WIDTH:0.57146
G1 X117.609 Y113.914 E.00438
G1 X116.686 Y113.914 E.04219
G1 X116.686 Y113.386 E.02416
G1 X118.065 Y113.368 E.06305
;WIDTH:0.53573
G1 X118.521 Y113.35 E.01946
;WIDTH:0.499999
G1 X118.666 Y113.298 E.00607
G1 X118.75 Y113.121 E.00774
;WIDTH:0.53573
G1 X118.768 Y112.665 E.01946
;WIDTH:0.57146
G1 X118.786 Y111.286 E.06305
G1 X119.314 Y111.286 E.02416
G1 X119.314 Y111.55 E.01208
;WIDTH:0.575465
G1 X119.316 Y112.255 E.03246
G1 X119.534 Y112.481 E.01445
;WIDTH:0.537732
G1 X119.753 Y112.706 E.01343
;WIDTH:0.499999
G1 X120.13 Y113.083 E.02107
G1 X120.291 Y113.15 E.00691
G1 X121.309 Y113.15 E.04023
G1 X121.47 Y113.083 E.00691
;WIDTH:0.508198
G1 X122.186 Y112.373 E.04055
;WIDTH:0.539829
G1 X122.236 Y112.291 E.00413
;WIDTH:0.571459
G1 X122.286 Y112.209 E.0044
G1 X122.286 Y111.286 E.04219
G1 X122.814 Y111.286 E.02416
G1 X122.814 Y111.55 E.01208
;WIDTH:0.575463
G1 X122.812 Y112.301 E.03458
G1 X122.831 Y112.711 E.01891
;WIDTH:0.537731
G1 X122.85 Y113.121 E.01757
;WIDTH:0.499999
G1 X122.902 Y113.266 E.00607
G1 X123.079 Y113.35 E.00774
;WIDTH:0.53573
G1 X123.535 Y113.368 E.01946
;WIDTH:0.57146
G1 X124.914 Y113.386 E.06305
G1 X124.914 Y113.914 E.02416
G1 X124.65 Y113.914 E.01208
;WIDTH:0.575465
G1 X123.945 Y113.916 E.03246
G1 X123.719 Y114.134 E.01445
;WIDTH:0.537732
G1 X123.494 Y114.353 E.01343
;WIDTH:0.499999
G1 X123.117 Y114.73 E.02107
G1 X123.05 Y114.891 E.00691
G1 X123.05 Y115.909 E.04023
G1 X123.117 Y116.07 E.00691
G1 X123.83 Y116.783 E.03983
;WIDTH:0.53573
G1 X123.91 Y116.834 E.00408
;WIDTH:0.57146
G1 X123.991 Y116.886 E.00438
G1 X124.914 Y116.886 E.04219
G1 X124.914 Y117.414 E.02416
G1 X123.535 Y117.432 E.06305
;WIDTH:0.53573
G1 X123.079 Y117.45 E.01946
;WIDTH:0.499999
G1 X122.972 Y117.488 E.00449
G1 E-5 F3600
G1 Z.6 F9000
G1 X122.106 Y114.434 Z.6
G1 Z.2
G1 E5 F2400
;TYPE:Bottom surface
;WIDTH:0.502044
G1 F1200
G1 X121.922 Y114.249 E.01036
G1 X121.658 Y114.367 E.01147
G1 X121.418 Y114.395 E.00959
G1 X121.805 Y114.782 E.02173
G1 X121.793 Y115.419 E.0253
G1 X120.781 Y114.407 E.05683
G1 X120.284 Y114.407 E.01971
G1 X120.111 Y114.387 E.00693
G1 X121.813 Y116.089 E.09558
G1 X121.833 Y116.258 E.00676
G1 X121.973 Y116.573 E.01371
G1 X121.658 Y116.433 E.01371
G1 X121.489 Y116.413 E.00677
G1 X119.787 Y114.711 E.09557
G1 X119.807 Y114.884 E.00692
G1 X119.807 Y115.381 E.01972
G1 X120.819 Y116.393 E.05683
G1 X120.182 Y116.405 E.0253
G1 X119.795 Y116.018 E.02172
G1 X119.767 Y116.258 E.00958
G1 X119.649 Y116.522 E.01147
G1 X119.834 Y116.706 E.01036
; stop printing object CornerConnector.stl id:3760018743568511534 copy 0
; printing object CornerConnector.stl id:8589934593 copy 0
G1 E-5 F3600
G1 Z.6 F9000
G1 X111.503 Y116.853 Z.6
G1 Z.2
G1 E5 F2400
;TYPE:Inner wall
;WIDTH:0.499999
G1 F900
G1 X111.313 Y117.067 E.01131
G1 X111.21 Y116.976 E.00547
G1 X110.774 Y116.767 E.01908
