;FLAVOR:Marlin
;TIME:12663
;Filament used: 8.83935m
;Layer height: 0.2
;MINX:88.374
;MINY:67.156
;MINZ:0.2
;MAXX:146.624
;MAXY:172.256
;MAXZ:20
;TARGET_MACHINE.NAME:Creality Ender-3
;Generated with Cura_SteamEngine 5.7.1
M140 S70
M105
M190 S70
M104 S240
M105
M109 S240
M82 ;absolute extrusion mode
; Ender 3 Custom Start G-code
M420 S1;
G92 E0 ; Reset Extruder
G28 ; Home all axes
G1 Z2.0 F3000 ; Move Z Axis up little to prevent scratching of Heat Bed
G1 X0.1 Y20 Z0.3 F5000.0 ; Move to start position
G1 X0.1 Y200.0 Z0.3 F1500.0 E15 ; Draw the first line
G1 X0.4 Y200.0 Z0.3 F5000.0 ; Move to side a little
G1 X0.4 Y20 Z0.3 F1500.0 E30 ; Draw the second line
G92 E0 ; Reset Extruder
G1 Z2.0 F3000 ; Move Z Axis up little to prevent scratching of Heat Bed
G1 X5 Y20 Z0.3 F5000.0 ; Move over to prevent blob squish
G92 E0
G92 E0
G1 F2700 E-5
;LAYER_COUNT:100
;LAYER:0
M107
;MESH:support-encodeur.stl
G0 F6000 X105.544 Y98.443 Z0.2
;TYPE:WALL-INNER
G1 F2700 E0
G1 F557.3 X105.635 Y98.611 E0.01026
G1 F548.8 X105.92 Y99.219 E0.04689
G0 F6000 X108.072 Y101.564
G0 X109.299 Y102.603
G0 X110.651 Y103.442
G0 X111.86 Y103.962
G0 X115.838 Y105.236
G1 F900 X115.273 Y105.228 E0.06568
G1 X114.717 Y105.196 E0.08421
G1 X114.144 Y105.134 E0.10338
G1 X113.574 Y105.041 E0.12259
G1 X113.013 Y104.923 E0.14165
G1 X112.475 Y104.778 E0.16019
G1 X111.972 Y104.619 E0.17773
G1 X111.427 Y104.415 E0.19709
G1 X110.904 Y104.189 E0.21604
G1 X110.395 Y103.941 E0.23487
G1 X109.924 Y103.68 E0.25278
G1 X109.418 Y103.37 E0.27251
G1 X108.942 Y103.032 E0.29193
G1 X108.508 Y102.703 E0.31005
G1 X108.108 Y102.363 E0.32751
G1 X107.644 Y101.933 E0.34855
G1 X107.312 Y101.589 E0.36445
G1 X106.872 Y101.083 E0.38675
G1 X106.582 Y100.719 E0.40223
G1 X106.299 Y100.324 E0.41839
G1 X106.239 Y100.817 E0.43491
G1 X106.14 Y101.185 E0.44758
G1 X105.849 Y101.862 E0.47209
G1 X105.318 Y102.55 E0.501
G1 X104.631 Y103.074 E0.52974
G1 X103.959 Y103.362 E0.55405
G1 X103.696 Y103.44 E0.56318
G1 X102.916 Y103.537 E0.58932
G1 X102.036 Y103.429 E0.61881
G1 X101.191 Y103.071 E0.64933
G1 X100.647 Y102.655 E0.67211
G1 X100.388 Y102.396 E0.68429
G1 X99.978 Y101.861 E0.70671
G1 X99.649 Y101.079 E0.73493
G1 X99.59 Y100.817 E0.74386
G1 X99.526 Y100.301 E0.76115
G1 X99.526 Y99.955 E0.77266
G1 X99.59 Y99.439 E0.78996
G1 X99.691 Y99.064 E0.80287
G1 X99.895 Y98.584 E0.82022
G1 X100.069 Y98.285 E0.83173
G1 X100.499 Y97.719 E0.85537
G1 X101.185 Y97.191 E0.88416
G1 X101.865 Y96.902 E0.90874
G1 X102.227 Y96.806 E0.92119
G1 X102.952 Y96.723 E0.94546
G1 X103.827 Y96.845 E0.97485
G1 X104.606 Y97.169 E1.00291
G1 X104.812 Y97.322 E1.01144
G1 X104.615 Y96.61 E1.03601
G1 X104.488 Y96.048 E1.05518
G1 X104.404 Y95.564 E1.07152
G1 X104.328 Y94.953 E1.09199
G1 X104.302 Y94.613 E1.10334
G1 X103.919 Y92.738 E1.16699
G1 X103.892 Y90.597 E1.2382
G1 X104.228 Y88.624 E1.30477
G1 X104.296 Y88.372 E1.31345
G1 X104.952 Y86.621 E1.37564
G1 X105.068 Y86.382 E1.38448
G1 X106.044 Y84.783 E1.44678
G1 X106.2 Y84.574 E1.45546
G1 X107.551 Y83.08 E1.52245
G1 X109.25 Y81.79 E1.59341
G1 X111.13 Y80.851 E1.6633
G1 X113.309 Y80.236 E1.73861
G1 X111.989 Y79.396 E1.79064
G1 X111.377 Y78.88 E1.81727
G1 X110.973 Y78.304 E1.84067
G1 X110.812 Y78.001 E1.85208
G1 X110.6 Y77.408 E1.87303
G1 X110.549 Y77.141 E1.88207
G1 X110.488 Y76.462 E1.90474
G1 X110.623 Y75.625 E1.93294
G1 X110.717 Y75.383 E1.94158
G1 X111.02 Y74.74 E1.96522
G1 X111.588 Y74.064 E1.99459
G1 X112.168 Y73.657 E2.01815
G1 X112.497 Y73.487 E2.03047
G1 X113.128 Y73.258 E2.0528
G1 X113.941 Y73.176 E2.07997
G1 X114.222 Y73.2 E2.08935
G1 X114.734 Y73.288 E2.10663
G1 X115.092 Y73.4 E2.11911
G1 X115.64 Y73.657 E2.13924
G1 X118.948 Y75.762 E2.26965
G1 X119.415 Y76.15 E2.28985
G1 X119.597 Y76.324 E2.29822
G1 X120.076 Y77.008 E2.32599
G1 X120.372 Y77.845 E2.35552
G1 X120.454 Y78.705 E2.38426
G1 X120.311 Y79.537 E2.41233
G1 X120.225 Y79.772 E2.42066
G1 X119.941 Y80.381 E2.44301
G1 X119.773 Y80.596 E2.45208
G1 X120.478 Y80.884 E2.47741
G1 X121.005 Y81.129 E2.49674
G1 X121.5 Y81.395 E2.51543
G1 X121.962 Y81.662 E2.53318
G1 X122.431 Y81.98 E2.55203
G1 X122.911 Y82.329 E2.57176
G1 X123.348 Y82.686 E2.59053
G1 X123.753 Y83.052 E2.60869
G1 X124.153 Y83.45 E2.62746
G1 X124.54 Y83.875 E2.64657
G1 X124.906 Y84.317 E2.66566
G1 X125.24 Y84.767 E2.6843
G1 X125.558 Y85.241 E2.70328
G1 X125.833 Y85.704 E2.7212
G1 X126.118 Y86.238 E2.74133
G1 X126.344 Y86.717 E2.75894
G1 X126.532 Y87.157 E2.77486
G1 X126.752 Y87.769 E2.79649
G1 X126.919 Y88.324 E2.81576
G1 X127.05 Y88.855 E2.83396
G1 X127.164 Y89.444 E2.85391
G1 X127.233 Y89.955 E2.87106
G1 X127.735 Y91.929 E2.9388
G1 X127.862 Y94.12 E3.0118
G1 X127.786 Y94.66 E3.02994
G1 X128.149 Y94.572 E3.04236
G1 X128.737 Y94.521 E3.06199
G1 X129.113 Y94.539 E3.07451
G1 X129.629 Y94.635 E3.09197
G1 X129.891 Y94.711 E3.10104
G1 X130.606 Y95.045 E3.12729
G1 X131.288 Y95.624 E3.15704
G1 X131.793 Y96.355 E3.1866
G1 X132.091 Y97.188 E3.21602
G1 X132.159 Y97.983 E3.24256
G1 X131.97 Y101.831 E3.3707
G1 X131.821 Y102.618 E3.39734
G1 X131.447 Y103.408 E3.42641
G1 X130.886 Y104.075 E3.4554
G1 X130.155 Y104.59 E3.48514
G1 X129.362 Y104.879 E3.51321
G1 X129.109 Y104.916 E3.52172
G1 X128.382 Y104.966 E3.54595
G1 X127.518 Y104.802 E3.5752
G1 X126.806 Y104.463 E3.60143
G1 X126.595 Y104.317 E3.60997
G1 X126.16 Y103.951 E3.62887
G1 X125.976 Y103.749 E3.63796
G1 X125.648 Y103.277 E3.65708
G1 X125.48 Y102.949 E3.66934
G1 X125.243 Y102.256 E3.6937
G1 X125.181 Y101.473 E3.71982
G1 X125.208 Y100.911 E3.73853
G1 X124.326 Y101.911 E3.78288
G1 X124.122 Y102.101 E3.79215
G1 X122.487 Y103.35 E3.86059
G1 X120.494 Y104.337 E3.93456
G1 X118.42 Y104.898 E4.00602
G1 X118.042 Y104.987 E4.01893
G1 X117.483 Y105.093 E4.03786
G1 X116.995 Y105.157 E4.05423
G1 X116.399 Y105.214 E4.07414
G1 X115.838 Y105.236 E4.09281
G0 F6000 X115.832 Y104.836
G1 F900 X115.257 Y104.827 E4.11194
G1 X114.73 Y104.795 E4.1295
G1 X114.187 Y104.736 E4.14767
G1 X113.628 Y104.643 E4.16652
G1 X113.09 Y104.53 E4.1848
G1 X112.563 Y104.386 E4.20297
G1 X112.1 Y104.24 E4.21912
G1 X111.577 Y104.044 E4.23769
G1 X111.05 Y103.816 E4.25679
G1 X110.558 Y103.575 E4.27501
G1 X110.089 Y103.313 E4.29288
G1 X109.638 Y103.036 E4.31049
G1 X109.184 Y102.714 E4.329
G1 X108.743 Y102.378 E4.34744
G1 X108.367 Y102.058 E4.36386
G1 X107.932 Y101.655 E4.38358
G1 X107.565 Y101.273 E4.4012
G1 X107.217 Y100.873 E4.41884
G1 X106.894 Y100.469 E4.43604
G1 X106.551 Y99.989 E4.45566
G1 F766 X106.235 Y99.488 E4.47881
G1 F590.2 X105.92 Y99.219 E4.49982
G1 F666.7 X105.862 Y99.659 E4.51975
G1 F900 X105.918 Y100.11 E4.53486
G1 X105.842 Y100.767 E4.55686
G1 X105.769 Y101.037 E4.56616
G1 X105.504 Y101.655 E4.58853
G1 X105.037 Y102.262 E4.614
G1 X104.419 Y102.734 E4.63987
G1 X103.683 Y103.042 E4.6664
G1 X102.914 Y103.134 E4.69216
G1 X102.142 Y103.039 E4.71803
G1 X101.429 Y102.743 E4.74371
G1 X100.891 Y102.338 E4.76611
G1 X100.706 Y102.153 E4.77481
G1 X100.322 Y101.653 E4.79578
G1 X100.002 Y100.891 E4.82327
G1 X99.908 Y100.128 E4.84883
G1 X99.987 Y99.488 E4.87028
G1 X100.059 Y99.22 E4.87951
G1 X100.313 Y98.622 E4.90112
G1 X100.808 Y97.986 E4.92793
G1 X101.405 Y97.527 E4.95297
G1 X102.018 Y97.271 E4.97507
G1 X102.276 Y97.203 E4.98394
G1 X102.937 Y97.126 E5.00608
G1 X103.695 Y97.222 E5.03149
G1 X104.407 Y97.519 E5.05715
G1 X104.938 Y97.923 E5.07934
G1 X105.12 Y98.106 E5.08792
G1 F882.4 X105.221 Y98.222 E5.09314
G1 F669.1 X105.544 Y98.443 E5.11065
G1 X105.506 Y98.062 E5.12778
G1 F882.4 X105.148 Y97.038 E5.16458
G1 F900 X105.005 Y96.52 E5.18245
G1 X104.882 Y95.979 E5.20091
G1 X104.798 Y95.496 E5.21721
G1 X104.726 Y94.923 E5.23642
G1 X104.699 Y94.558 E5.24859
G1 X104.318 Y92.691 E5.31197
G1 X104.291 Y90.629 E5.38056
G1 X104.637 Y88.602 E5.44895
G1 X105.365 Y86.672 E5.51756
G1 X106.439 Y84.912 E5.58613
G1 X107.793 Y83.408 E5.65344
G1 X109.461 Y82.131 E5.72331
G1 X111.278 Y81.225 E5.79084
G1 X113.329 Y80.645 E5.86173
G1 X113.912 Y80.52 E5.88157
G1 X114.387 Y80.444 E5.89756
G1 X112.23 Y79.075 E5.98254
G1 X111.679 Y78.613 E6.00645
G1 X111.224 Y77.964 E6.03281
G1 X110.965 Y77.241 E6.05836
G1 X110.889 Y76.443 E6.08502
G1 X111.021 Y75.677 E6.11087
G1 X111.36 Y74.958 E6.13731
G1 X111.859 Y74.363 E6.16314
G1 X112.398 Y73.985 E6.18504
G1 X112.632 Y73.863 E6.19381
G1 X113.227 Y73.648 E6.21485
G1 X114.042 Y73.575 E6.24207
G1 X114.666 Y73.682 E6.26313
G1 X114.922 Y73.762 E6.27205
G1 X115.442 Y74.006 E6.29115
G1 X118.712 Y76.087 E6.42007
G1 X119.26 Y76.542 E6.44376
G1 X119.718 Y77.195 E6.47029
G1 X119.983 Y77.941 E6.49662
G1 X120.048 Y78.736 E6.52315
G1 X119.913 Y79.495 E6.54879
G1 X119.595 Y80.179 E6.57388
G1 X119.09 Y80.792 E6.60029
G1 X119.804 Y81.04 E6.62543
G1 X120.268 Y81.228 E6.64209
G1 X120.763 Y81.455 E6.6602
G1 X121.3 Y81.741 E6.68043
G1 X121.749 Y82.001 E6.69769
G1 X122.197 Y82.304 E6.71568
G1 X122.659 Y82.639 E6.73466
G1 X123.043 Y82.951 E6.75112
G1 X123.472 Y83.336 E6.77029
G1 X123.858 Y83.72 E6.7884
G1 X124.233 Y84.131 E6.8069
G1 X124.553 Y84.515 E6.82353
G1 X124.909 Y84.991 E6.8433
G1 X125.215 Y85.446 E6.86153
G1 X125.459 Y85.854 E6.87735
G1 X125.757 Y86.409 E6.8983
G1 X125.961 Y86.84 E6.91416
G1 X126.186 Y87.37 E6.93331
G1 X126.354 Y87.838 E6.94985
G1 X126.531 Y88.421 E6.97011
G1 X126.647 Y88.885 E6.98602
G1 X126.767 Y89.498 E7.00679
G1 X126.84 Y90.032 E7.02472
G1 X127.338 Y91.986 E7.09179
G1 X127.459 Y94.106 E7.16241
G1 X127.292 Y95.304 E7.20265
G1 X127.505 Y95.193 E7.21063
G1 X128.119 Y94.975 E7.23231
G1 X128.771 Y94.919 E7.25407
G1 X129.04 Y94.932 E7.26303
G1 X129.676 Y95.051 E7.28455
G1 X130.367 Y95.375 E7.30993
G1 X130.987 Y95.893 E7.3368
G1 X131.434 Y96.539 E7.36293
G1 X131.698 Y97.277 E7.389
G1 X131.759 Y97.982 E7.41254
G1 X131.571 Y101.787 E7.53925
G1 X131.438 Y102.495 E7.56321
G1 X131.088 Y103.214 E7.5898
G1 X130.611 Y103.781 E7.61445
G1 X129.942 Y104.242 E7.64147
G1 X129.216 Y104.507 E7.66718
G1 X128.449 Y104.567 E7.69276
G1 X127.651 Y104.422 E7.71974
G1 X126.939 Y104.085 E7.74594
G1 X126.337 Y103.568 E7.77233
G1 X125.977 Y103.049 E7.79334
G1 X125.857 Y102.815 E7.80209
G1 X125.639 Y102.198 E7.82385
G1 X125.582 Y101.478 E7.84787
G1 X125.671 Y99.611 E7.91004
G1 X125.377 Y100.116 E7.92948
G1 X123.958 Y101.723 E8.00078
G1 X122.246 Y103.025 E8.07232
G1 X120.341 Y103.966 E8.14299
G1 X118.326 Y104.509 E8.2124
G1 X117.966 Y104.594 E8.2247
G1 X117.431 Y104.696 E8.24282
G1 X116.908 Y104.764 E8.26036
G1 X116.375 Y104.815 E8.27817
G1 X115.832 Y104.836 E8.29624
G0 F6000 X115.806 Y104.436
G1 F900 X115.281 Y104.427 E8.3137
G1 X114.772 Y104.397 E8.33066
G1 X114.251 Y104.341 E8.34809
G1 X113.709 Y104.252 E8.36636
G1 X113.195 Y104.144 E8.38383
G1 X112.683 Y104.005 E8.40147
G1 X112.206 Y103.853 E8.41812
G1 X111.714 Y103.668 E8.43561
G1 X111.225 Y103.456 E8.45333
G1 X110.752 Y103.225 E8.47084
G1 X110.298 Y102.972 E8.48813
G1 X109.84 Y102.69 E8.50602
G1 X109.425 Y102.395 E8.52295
G1 X109.013 Y102.082 E8.54016
G1 X108.608 Y101.737 E8.55786
G1 X108.22 Y101.377 E8.57546
G1 X107.867 Y101.01 E8.5924
G1 X107.499 Y100.586 E8.61107
G1 X107.187 Y100.193 E8.62776
G1 X106.889 Y99.775 E8.64483
G1 X106.617 Y99.346 E8.66173
G1 X106.34 Y98.867 E8.68013
G1 X106.105 Y98.399 E8.69755
G1 X105.887 Y97.916 E8.71518
G1 X105.707 Y97.445 E8.73195
G1 X105.543 Y96.961 E8.74894
G1 X105.395 Y96.431 E8.76725
G1 X105.276 Y95.911 E8.78499
G1 X105.188 Y95.399 E8.80227
G1 X105.125 Y94.893 E8.81923
G1 X105.096 Y94.503 E8.83223
G1 X104.72 Y92.653 E8.89502
G1 X104.689 Y90.66 E8.96132
G1 X105.025 Y88.709 E9.02716
G1 X105.724 Y86.848 E9.09328
G1 X106.759 Y85.152 E9.15937
G1 X108.072 Y83.694 E9.22463
G1 X109.649 Y82.489 E9.29064
G1 X111.452 Y81.59 E9.35765
G1 X113.437 Y81.03 E9.42624
G1 X113.947 Y80.92 E9.4436
G1 X114.5 Y80.831 E9.46223
G1 X115.025 Y80.772 E9.4798
G1 X115.601 Y80.743 E9.49898
G1 X112.434 Y78.724 E9.6239
G1 X111.98 Y78.337 E9.64374
G1 X111.582 Y77.78 E9.66651
G1 X111.353 Y77.121 E9.68971
G1 X111.292 Y76.479 E9.71116
G1 X111.41 Y75.803 E9.73399
G1 X111.701 Y75.182 E9.7568
G1 X112.137 Y74.662 E9.77937
G1 X112.69 Y74.267 E9.80197
G1 X113.319 Y74.04 E9.82421
G1 X114.02 Y73.977 E9.84762
G1 X114.682 Y74.09 E9.86996
G1 X115.287 Y74.381 E9.89229
G1 X118.443 Y76.389 E10.0167
G1 X118.967 Y76.818 E10.03923
G1 X119.355 Y77.382 E10.06199
G1 X119.588 Y78.021 E10.08462
G1 X119.644 Y78.699 E10.10724
G1 X119.527 Y79.368 E10.12983
G1 X119.252 Y79.968 E10.15178
G1 X118.813 Y80.499 E10.1747
G1 X118.317 Y80.848 E10.19487
G1 X118.073 Y80.957 E10.20376
G1 X118.648 Y81.092 E10.2234
G1 X119.185 Y81.248 E10.242
G1 X119.654 Y81.411 E10.25852
G1 X120.143 Y81.61 E10.27608
G1 X120.628 Y81.834 E10.29385
G1 X121.084 Y82.078 E10.31105
G1 X121.553 Y82.351 E10.3291
G1 X121.959 Y82.625 E10.34539
G1 X122.407 Y82.95 E10.3638
G1 X122.814 Y83.281 E10.38124
G1 X123.17 Y83.601 E10.39717
G1 X123.563 Y83.99 E10.41556
G1 X123.925 Y84.387 E10.43343
G1 X124.265 Y84.796 E10.45112
G1 X124.577 Y85.215 E10.46849
G1 X124.853 Y85.623 E10.48487
G1 X125.129 Y86.083 E10.50272
G1 X125.395 Y86.579 E10.52144
G1 X125.608 Y87.032 E10.53809
G1 X125.809 Y87.505 E10.55518
G1 X125.987 Y88.001 E10.57271
G1 X126.143 Y88.518 E10.59067
G1 X126.259 Y88.982 E10.60658
G1 X126.371 Y89.551 E10.62586
G1 X126.446 Y90.109 E10.64459
G1 X126.941 Y92.042 E10.71096
G1 X127.054 Y94.123 E10.78027
G1 X126.779 Y96.084 E10.84613
G1 X126.698 Y96.35 E10.85538
G1 X127.007 Y95.986 E10.87126
G1 X127.563 Y95.597 E10.89383
G1 X128.204 Y95.369 E10.91646
G1 X128.886 Y95.311 E10.93923
G1 X129.556 Y95.436 E10.96189
G1 X130.152 Y95.714 E10.98377
G1 X130.684 Y96.167 E11.00701
G1 X131.07 Y96.724 E11.02955
G1 X131.299 Y97.363 E11.05212
G1 X131.356 Y98.034 E11.07452
G1 X131.168 Y101.768 E11.19887
G1 X131.051 Y102.362 E11.21901
G1 X130.765 Y102.969 E11.24133
G1 X130.338 Y103.485 E11.2636
G1 X129.783 Y103.868 E11.28603
G1 X129.132 Y104.112 E11.30915
G1 X128.462 Y104.164 E11.33151
G1 X127.78 Y104.042 E11.35455
G1 X127.165 Y103.751 E11.37718
G1 X126.648 Y103.316 E11.39965
G1 X126.261 Y102.757 E11.42226
G1 X126.032 Y102.113 E11.445
G1 X125.984 Y101.434 E11.46764
G1 X126.154 Y97.923 E11.58455
G1 X126.066 Y98.144 E11.59246
G1 X125.05 Y99.882 E11.65942
G1 X123.685 Y101.428 E11.72802
G1 X122.046 Y102.681 E11.79663
G1 X120.187 Y103.595 E11.86553
G1 X118.233 Y104.12 E11.93283
G1 X117.89 Y104.202 E11.94456
G1 X117.414 Y104.294 E11.96068
G1 X116.87 Y104.366 E11.97894
G1 X116.337 Y104.416 E11.99674
G1 X115.806 Y104.436 E12.01441
G0 F6000 X115.802 Y104.735
G0 X113.683 Y104.492
G0 X108.844 Y103.16
G0 X106.426 Y100.814
G0 X105.531 Y102.125
G0 X103.623 Y102.946
G0 X103.585 Y102.65
G1 F900 X102.917 Y102.732 E12.0368
G1 X102.244 Y102.65 E12.05935
G1 X101.607 Y102.384 E12.08231
G1 X101.071 Y101.973 E12.10477
G1 X100.668 Y101.447 E12.12681
G1 X100.393 Y100.794 E12.15038
G1 X100.311 Y100.128 E12.1727
G1 X100.394 Y99.454 E12.19528
G1 X100.66 Y98.828 E12.21791
G1 X101.088 Y98.274 E12.24119
G1 X101.615 Y97.876 E12.26316
G1 X102.244 Y97.61 E12.28587
G1 X102.93 Y97.528 E12.30885
G1 X103.578 Y97.613 E12.33059
G1 X104.215 Y97.871 E12.35345
G1 X104.756 Y98.288 E12.37616
G1 X105.166 Y98.821 E12.39853
G1 X105.433 Y99.453 E12.42135
G1 X105.516 Y100.117 E12.44361
G1 X105.434 Y100.802 E12.46655
G1 X105.161 Y101.445 E12.48979
G1 X104.752 Y101.977 E12.5121
G1 X104.226 Y102.38 E12.53414
G1 X103.585 Y102.65 E12.55728
G1 F2700 E7.55728
G0 F6000 X103.623 Y102.946
G0 X103.846 Y103.602
G0 X119.101 Y158.362
G0 X127.272 Y171.056
G1 F2700 E12.55728
G1 F900 X145.26 Y171.056 E13.15556
G1 X143.706 Y169.446 E13.22999
G1 X142.09 Y167.598 E13.31164
G1 X140.594 Y165.71 E13.39175
G1 X139.114 Y163.634 E13.47655
G1 X137.777 Y161.553 E13.55882
G1 X136.556 Y159.421 E13.64054
G1 X135.456 Y157.265 E13.72104
G1 X134.415 Y154.949 E13.80549
G1 X133.535 Y152.691 E13.8861
G1 X132.754 Y150.376 E13.96736
G1 X132.087 Y148.002 E14.04938
G1 X131.522 Y145.532 E14.13365
G1 X131.093 Y143.089 E14.21615
G1 X130.785 Y140.665 E14.29742
G1 X130.596 Y138.174 E14.38051
G1 X130.532 Y135.707 E14.46259
G1 X130.591 Y133.223 E14.54523
G1 X130.77 Y130.76 E14.62737
G1 X131.076 Y128.293 E14.71005
G1 X131.493 Y125.885 E14.79133
G1 X132.021 Y123.529 E14.87163
G1 X132.695 Y121.085 E14.95596
G1 X133.474 Y118.742 E15.03808
G1 X134.364 Y116.443 E15.12007
