(Exported by FreeCAD)
(Post Processor: grbl_post)
(Output Time:2025-03-10 17:31:28.280697)
(Begin preamble)
G17 G90
G21
(Begin operation: TC: 3.175 Z2 droite010)
(Path: TC: 3.175 Z2 droite010)
(TC: 3.175 Z2 droite010)
(Begin toolchange)
( M6 T1 )
M3 S24000
(Finish operation: TC: 3.175 Z2 droite010)
(Begin operation: Fixture)
(Path: Fixture)
G54
(Finish operation: Fixture)
(Begin operation: Profile)
(Path: Profile)
(Profile)
(Compensated Tool Path. Diameter: 3.17)
G0 Z13.000
G0 X38.525 Y9.927
G0 Z11.000
G1 X38.525 Y9.927 Z6.415 F500.000
G2 X33.890 Y-1.482 Z6.415 I-4.726 J-4.726 K0.000 F2000.000
G1 X5.200 Y-1.485 Z6.415 F2000.000
G2 X5.110 Y11.882 Z6.415 I0.001 J6.684 K0.000 F2000.000
G1 X33.800 Y11.885 Z6.415 F2000.000
G2 X38.525 Y9.927 Z6.415 I-0.001 J-6.684 K0.000 F2000.000
G1 X38.525 Y9.927 Z4.830 F500.000
G2 X33.890 Y-1.482 Z4.830 I-4.726 J-4.726 K0.000 F2000.000
G1 X5.200 Y-1.485 Z4.830 F2000.000
G2 X5.110 Y11.882 Z4.830 I0.001 J6.684 K0.000 F2000.000
G1 X33.800 Y11.885 Z4.830 F2000.000
G2 X38.525 Y9.927 Z4.830 I-0.001 J-6.684 K0.000 F2000.000
G1 X38.525 Y9.927 Z3.245 F500.000
G2 X33.890 Y-1.482 Z3.245 I-4.726 J-4.726 K0.000 F2000.000
G1 X5.200 Y-1.485 Z3.245 F2000.000
G2 X5.110 Y11.882 Z3.245 I0.001 J6.684 K0.000 F2000.000
G1 X33.800 Y11.885 Z3.245 F2000.000
G2 X38.525 Y9.927 Z3.245 I-0.001 J-6.684 K0.000 F2000.000
G1 X38.525 Y9.927 Z1.660 F500.000
G2 X33.890 Y-1.482 Z1.660 I-4.726 J-4.726 K0.000 F2000.000
G1 X5.200 Y-1.485 Z1.660 F2000.000
G2 X5.110 Y11.882 Z1.660 I0.001 J6.684 K0.000 F2000.000
G1 X33.800 Y11.885 Z1.660 F2000.000
G2 X38.525 Y9.927 Z1.660 I-0.001 J-6.684 K0.000 F2000.000
G1 X38.525 Y9.927 Z0.075 F500.000
G2 X33.890 Y-1.482 Z0.075 I-4.726 J-4.726 K0.000 F2000.000
G1 X5.200 Y-1.485 Z0.075 F2000.000
G2 X5.110 Y11.882 Z0.075 I0.001 J6.684 K0.000 F2000.000
G1 X33.800 Y11.885 Z0.075 F2000.000
G2 X38.525 Y9.927 Z0.075 I-0.001 J-6.684 K0.000 F2000.000
G1 X38.525 Y9.927 Z0.000 F500.000
G2 X33.890 Y-1.482 Z0.000 I-4.726 J-4.726 K0.000 F2000.000
G1 X5.200 Y-1.485 Z0.000 F2000.000
G2 X5.110 Y11.882 Z0.000 I0.001 J6.684 K0.000 F2000.000
G1 X33.800 Y11.885 Z0.000 F2000.000
G2 X38.525 Y9.927 Z0.000 I-0.001 J-6.684 K0.000 F2000.000
G0 Z13.000
G0 Z13.000
(Finish operation: Profile)
(Begin operation: Array)
(Path: Array)
(Profile)
(Compensated Tool Path. Diameter: 3.17)
G0 Z13.000
G0 X38.525 Y29.927
G0 Z11.000
G1 X38.525 Y29.927 Z6.415 F500.000
G2 X33.890 Y18.518 Z6.415 I-4.726 J-4.726 K0.000 F2000.000
G1 X5.200 Y18.515 Z6.415 F2000.000
G2 X5.110 Y31.882 Z6.415 I0.001 J6.684 K0.000 F2000.000
G1 X33.800 Y31.885 Z6.415 F2000.000
G2 X38.525 Y29.927 Z6.415 I-0.001 J-6.684 K0.000 F2000.000
G1 X38.525 Y29.927 Z4.830 F500.000
G2 X33.890 Y18.518 Z4.830 I-4.726 J-4.726 K0.000 F2000.000
G1 X5.200 Y18.515 Z4.830 F2000.000
G2 X5.110 Y31.882 Z4.830 I0.001 J6.684 K0.000 F2000.000
G1 X33.800 Y31.885 Z4.830 F2000.000
G2 X38.525 Y29.927 Z4.830 I-0.001 J-6.684 K0.000 F2000.000
G1 X38.525 Y29.927 Z3.245 F500.000
G2 X33.890 Y18.518 Z3.245 I-4.726 J-4.726 K0.000 F2000.000
G1 X5.200 Y18.515 Z3.245 F2000.000
G2 X5.110 Y31.882 Z3.245 I0.001 J6.684 K0.000 F2000.000
G1 X33.800 Y31.885 Z3.245 F2000.000
G2 X38.525 Y29.927 Z3.245 I-0.001 J-6.684 K0.000 F2000.000
G1 X38.525 Y29.927 Z1.660 F500.000
G2 X33.890 Y18.518 Z1.660 I-4.726 J-4.726 K0.000 F2000.000
G1 X5.200 Y18.515 Z1.660 F2000.000
G2 X5.110 Y31.882 Z1.660 I0.001 J6.684 K0.000 F2000.000
G1 X33.800 Y31.885 Z1.660 F2000.000
G2 X38.525 Y29.927 Z1.660 I-0.001 J-6.684 K0.000 F2000.000
G1 X38.525 Y29.927 Z0.075 F500.000
G2 X33.890 Y18.518 Z0.075 I-4.726 J-4.726 K0.000 F2000.000
G1 X5.200 Y18.515 Z0.075 F2000.000
G2 X5.110 Y31.882 Z0.075 I0.001 J6.684 K0.000 F2000.000
G1 X33.800 Y31.885 Z0.075 F2000.000
G2 X38.525 Y29.927 Z0.075 I-0.001 J-6.684 K0.000 F2000.000
G1 X38.525 Y29.927 Z0.000 F500.000
G2 X33.890 Y18.518 Z0.000 I-4.726 J-4.726 K0.000 F2000.000
G1 X5.200 Y18.515 Z0.000 F2000.000
G2 X5.110 Y31.882 Z0.000 I0.001 J6.684 K0.000 F2000.000
G1 X33.800 Y31.885 Z0.000 F2000.000
G2 X38.525 Y29.927 Z0.000 I-0.001 J-6.684 K0.000 F2000.000
G0 Z13.000
G0 Z13.000
(Profile)
(Compensated Tool Path. Diameter: 3.17)
G0 Z13.000
G0 X38.525 Y49.927
G0 Z11.000
G1 X38.525 Y49.927 Z6.415 F500.000
G2 X33.890 Y38.518 Z6.415 I-4.726 J-4.726 K0.000 F2000.000
G1 X5.200 Y38.515 Z6.415 F2000.000
G2 X5.110 Y51.882 Z6.415 I0.001 J6.684 K0.000 F2000.000
G1 X33.800 Y51.885 Z6.415 F2000.000
G2 X38.525 Y49.927 Z6.415 I-0.001 J-6.684 K0.000 F2000.000
G1 X38.525 Y49.927 Z4.830 F500.000
G2 X33.890 Y38.518 Z4.830 I-4.726 J-4.726 K0.000 F2000.000
G1 X5.200 Y38.515 Z4.830 F2000.000
G2 X5.110 Y51.882 Z4.830 I0.001 J6.684 K0.000 F2000.000
G1 X33.800 Y51.885 Z4.830 F2000.000
G2 X38.525 Y49.927 Z4.830 I-0.001 J-6.684 K0.000 F2000.000
G1 X38.525 Y49.927 Z3.245 F500.000
G2 X33.890 Y38.518 Z3.245 I-4.726 J-4.726 K0.000 F2000.000
G1 X5.200 Y38.515 Z3.245 F2000.000
G2 X5.110 Y51.882 Z3.245 I0.001 J6.684 K0.000 F2000.000
G1 X33.800 Y51.885 Z3.245 F2000.000
G2 X38.525 Y49.927 Z3.245 I-0.001 J-6.684 K0.000 F2000.000
G1 X38.525 Y49.927 Z1.660 F500.000
G2 X33.890 Y38.518 Z1.660 I-4.726 J-4.726 K0.000 F2000.000
G1 X5.200 Y38.515 Z1.660 F2000.000
G2 X5.110 Y51.882 Z1.660 I0.001 J6.684 K0.000 F2000.000
G1 X33.800 Y51.885 Z1.660 F2000.000
G2 X38.525 Y49.927 Z1.660 I-0.001 J-6.684 K0.000 F2000.000
G1 X38.525 Y49.927 Z0.075 F500.000
G2 X33.890 Y38.518 Z0.075 I-4.726 J-4.726 K0.000 F2000.000
G1 X5.200 Y38.515 Z0.075 F2000.000
G2 X5.110 Y51.882 Z0.075 I0.001 J6.684 K0.000 F2000.000
G1 X33.800 Y51.885 Z0.075 F2000.000
G2 X38.525 Y49.927 Z0.075 I-0.001 J-6.684 K0.000 F2000.000
G1 X38.525 Y49.927 Z0.000 F500.000
G2 X33.890 Y38.518 Z0.000 I-4.726 J-4.726 K0.000 F2000.000
G1 X5.200 Y38.515 Z0.000 F2000.000
G2 X5.110 Y51.882 Z0.000 I0.001 J6.684 K0.000 F2000.000
G1 X33.800 Y51.885 Z0.000 F2000.000
G2 X38.525 Y49.927 Z0.000 I-0.001 J-6.684 K0.000 F2000.000
G0 Z13.000
G0 Z13.000
(Finish operation: Array)
(Begin postamble)
M5
G17 G90
M2
