(Exported by FreeCAD)
(Post Processor: grbl_post)
(Output Time:2024-04-17 12:09:20.056680)
(Begin preamble)
G17 G90
G21
(Begin operation: TC: 3.175 Z1 UP Helicoidale007)
(Path: TC: 3.175 Z1 UP Helicoidale007)
(TC: 3.175 Z1 UP Helicoidale007)
(Begin toolchange)
( M6 T1 )
M3 S24000
(Finish operation: TC: 3.175 Z1 UP Helicoidale007)
(Begin operation: Fixture)
(Path: Fixture)
G54
(Finish operation: Fixture)
(Begin operation: MillFace)
(Path: MillFace)
(MillFace)
G0 Z5.000
G0 X-0.015 Y30.100
G0 Z3.000
G1 X-0.015 Y30.100 Z0.000 F500.000
G1 X-0.015 Y-0.100 Z0.000 F2000.000
G1 X-0.100 Y-0.100 Z0.000 F2000.000
G1 X-0.100 Y30.100 Z0.000 F2000.000
G1 X-0.015 Y30.100 Z0.000 F2000.000
G1 X1.570 Y30.100 Z0.000 F2000.000
G1 X1.570 Y-0.100 Z0.000 F2000.000
G1 X3.155 Y-0.100 Z0.000 F2000.000
G1 X3.155 Y30.100 Z0.000 F2000.000
G1 X4.740 Y30.100 Z0.000 F2000.000
G1 X4.740 Y-0.100 Z0.000 F2000.000
G1 X6.325 Y-0.100 Z0.000 F2000.000
G1 X6.325 Y30.100 Z0.000 F2000.000
G1 X7.910 Y30.100 Z0.000 F2000.000
G1 X7.910 Y-0.100 Z0.000 F2000.000
G1 X9.495 Y-0.100 Z0.000 F2000.000
G1 X9.495 Y30.100 Z0.000 F2000.000
G1 X11.080 Y30.100 Z0.000 F2000.000
G1 X11.080 Y-0.100 Z0.000 F2000.000
G1 X12.665 Y-0.100 Z0.000 F2000.000
G1 X12.665 Y30.100 Z0.000 F2000.000
G1 X14.250 Y30.100 Z0.000 F2000.000
G1 X14.250 Y-0.100 Z0.000 F2000.000
G1 X15.835 Y-0.100 Z0.000 F2000.000
G1 X15.835 Y30.100 Z0.000 F2000.000
G1 X17.420 Y30.100 Z0.000 F2000.000
G1 X17.420 Y-0.100 Z0.000 F2000.000
G1 X19.005 Y-0.100 Z0.000 F2000.000
G1 X19.005 Y30.100 Z0.000 F2000.000
G1 X20.590 Y30.100 Z0.000 F2000.000
G1 X20.590 Y-0.100 Z0.000 F2000.000
G1 X22.175 Y-0.100 Z0.000 F2000.000
G1 X22.175 Y30.100 Z0.000 F2000.000
G1 X23.760 Y30.100 Z0.000 F2000.000
G1 X23.760 Y-0.100 Z0.000 F2000.000
G1 X25.345 Y-0.100 Z0.000 F2000.000
G1 X25.345 Y30.100 Z0.000 F2000.000
G1 X26.930 Y30.100 Z0.000 F2000.000
G1 X26.930 Y-0.100 Z0.000 F2000.000
G1 X28.515 Y-0.100 Z0.000 F2000.000
G1 X28.515 Y30.100 Z0.000 F2000.000
G1 X30.100 Y30.100 Z0.000 F2000.000
G1 X30.100 Y-0.100 Z0.000 F2000.000
G0 Z5.000
G0 Z5.000
(Finish operation: MillFace)
(Begin postamble)
M5
G17 G90
M2
