(Exported by FreeCAD)
(Post Processor: grbl_post)
(Output Time:2024-04-17 12:10:12.594202)
(Begin preamble)
G17 G90
G21
(Begin operation: 30 Surface Q007)
(Path: 30 Surface Q007)
(30 Surface Q007)
(Begin toolchange)
( M6 T3 )
M3 S10000
(Finish operation: 30 Surface Q007)
(Begin operation: Fixture)
(Path: Fixture)
G54
(Finish operation: Fixture)
(Begin operation: MillFace)
(Path: MillFace)
(MillFace)
G0 Z5.000
G0 X450.100 Y-0.100
G0 Z3.000
G1 X450.100 Y-0.100 Z0.000 F500.000
G1 X450.100 Y525.100 Z0.000 F2000.000
G1 X435.100 Y525.100 Z0.000 F2000.000
G1 X435.100 Y-0.100 Z0.000 F2000.000
G1 X420.100 Y-0.100 Z0.000 F2000.000
G1 X420.100 Y525.100 Z0.000 F2000.000
G1 X405.100 Y525.100 Z0.000 F2000.000
G1 X405.100 Y-0.100 Z0.000 F2000.000
G1 X390.100 Y-0.100 Z0.000 F2000.000
G1 X390.100 Y525.100 Z0.000 F2000.000
G1 X375.100 Y525.100 Z0.000 F2000.000
G1 X375.100 Y-0.100 Z0.000 F2000.000
G1 X360.100 Y-0.100 Z0.000 F2000.000
G1 X360.100 Y525.100 Z0.000 F2000.000
G1 X345.100 Y525.100 Z0.000 F2000.000
G1 X345.100 Y-0.100 Z0.000 F2000.000
G1 X330.100 Y-0.100 Z0.000 F2000.000
G1 X330.100 Y525.100 Z0.000 F2000.000
G1 X315.100 Y525.100 Z0.000 F2000.000
G1 X315.100 Y-0.100 Z0.000 F2000.000
G1 X300.100 Y-0.100 Z0.000 F2000.000
G1 X300.100 Y525.100 Z0.000 F2000.000
G1 X285.100 Y525.100 Z0.000 F2000.000
G1 X285.100 Y-0.100 Z0.000 F2000.000
G1 X270.100 Y-0.100 Z0.000 F2000.000
G1 X270.100 Y525.100 Z0.000 F2000.000
G1 X255.100 Y525.100 Z0.000 F2000.000
G1 X255.100 Y-0.100 Z0.000 F2000.000
G1 X240.100 Y-0.100 Z0.000 F2000.000
G1 X240.100 Y525.100 Z0.000 F2000.000
G1 X225.100 Y525.100 Z0.000 F2000.000
G1 X225.100 Y-0.100 Z0.000 F2000.000
G1 X210.100 Y-0.100 Z0.000 F2000.000
G1 X210.100 Y525.100 Z0.000 F2000.000
G1 X195.100 Y525.100 Z0.000 F2000.000
G1 X195.100 Y-0.100 Z0.000 F2000.000
G1 X180.100 Y-0.100 Z0.000 F2000.000
G1 X180.100 Y525.100 Z0.000 F2000.000
G1 X165.100 Y525.100 Z0.000 F2000.000
G1 X165.100 Y-0.100 Z0.000 F2000.000
G1 X150.100 Y-0.100 Z0.000 F2000.000
G1 X150.100 Y525.100 Z0.000 F2000.000
G1 X135.100 Y525.100 Z0.000 F2000.000
G1 X135.100 Y-0.100 Z0.000 F2000.000
G1 X120.100 Y-0.100 Z0.000 F2000.000
G1 X120.100 Y525.100 Z0.000 F2000.000
G1 X105.100 Y525.100 Z0.000 F2000.000
G1 X105.100 Y-0.100 Z0.000 F2000.000
G1 X90.100 Y-0.100 Z0.000 F2000.000
G1 X90.100 Y525.100 Z0.000 F2000.000
G1 X75.100 Y525.100 Z0.000 F2000.000
G1 X75.100 Y-0.100 Z0.000 F2000.000
G1 X60.100 Y-0.100 Z0.000 F2000.000
G1 X60.100 Y525.100 Z0.000 F2000.000
G1 X45.100 Y525.100 Z0.000 F2000.000
G1 X45.100 Y-0.100 Z0.000 F2000.000
G1 X30.100 Y-0.100 Z0.000 F2000.000
G1 X30.100 Y525.100 Z0.000 F2000.000
G1 X15.100 Y525.100 Z0.000 F2000.000
G1 X15.100 Y-0.100 Z0.000 F2000.000
G1 X0.100 Y-0.100 Z0.000 F2000.000
G1 X0.100 Y525.100 Z0.000 F2000.000
G1 X-0.100 Y525.100 Z0.000 F2000.000
G1 X-0.100 Y-0.100 Z0.000 F2000.000
G1 X0.100 Y-0.100 Z0.000 F2000.000
G0 Z5.000
G0 Z5.000
(Finish operation: MillFace)
(Begin postamble)
M5
G17 G90
M2
