(Exported by FreeCAD)
(Post Processor: grbl_post)
(Output Time:2024-04-17 10:45:26.176903)
(Begin preamble)
G17 G90
G21
(Begin operation: 30 Surface Q007)
(Path: 30 Surface Q007)
(30 Surface Q007)
(Begin toolchange)
( M6 T3 )
M3 S10000
(Finish operation: 30 Surface Q007)
(Begin operation: Fixture)
(Path: Fixture)
G54
(Finish operation: Fixture)
(Begin operation: MillFace)
(Path: MillFace)
(MillFace)
G0 Z5.000
G0 X450.100 Y524.900
G0 Z3.000
G1 X450.100 Y524.900 Z0.000 F500.000
G1 X450.100 Y525.100 Z0.000 F2000.000
G1 X-0.100 Y525.100 Z0.000 F2000.000
G1 X-0.100 Y524.900 Z0.000 F2000.000
G1 X450.100 Y524.900 Z0.000 F2000.000
G1 X450.100 Y509.900 Z0.000 F2000.000
G1 X-0.100 Y509.900 Z0.000 F2000.000
G1 X-0.100 Y494.900 Z0.000 F2000.000
G1 X450.100 Y494.900 Z0.000 F2000.000
G1 X450.100 Y479.900 Z0.000 F2000.000
G1 X-0.100 Y479.900 Z0.000 F2000.000
G1 X-0.100 Y464.900 Z0.000 F2000.000
G1 X450.100 Y464.900 Z0.000 F2000.000
G1 X450.100 Y449.900 Z0.000 F2000.000
G1 X-0.100 Y449.900 Z0.000 F2000.000
G1 X-0.100 Y434.900 Z0.000 F2000.000
G1 X450.100 Y434.900 Z0.000 F2000.000
G1 X450.100 Y419.900 Z0.000 F2000.000
G1 X-0.100 Y419.900 Z0.000 F2000.000
G1 X-0.100 Y404.900 Z0.000 F2000.000
G1 X450.100 Y404.900 Z0.000 F2000.000
G1 X450.100 Y389.900 Z0.000 F2000.000
G1 X-0.100 Y389.900 Z0.000 F2000.000
G1 X-0.100 Y374.900 Z0.000 F2000.000
G1 X450.100 Y374.900 Z0.000 F2000.000
G1 X450.100 Y359.900 Z0.000 F2000.000
G1 X-0.100 Y359.900 Z0.000 F2000.000
G1 X-0.100 Y344.900 Z0.000 F2000.000
G1 X450.100 Y344.900 Z0.000 F2000.000
G1 X450.100 Y329.900 Z0.000 F2000.000
G1 X-0.100 Y329.900 Z0.000 F2000.000
G1 X-0.100 Y314.900 Z0.000 F2000.000
G1 X450.100 Y314.900 Z0.000 F2000.000
G1 X450.100 Y299.900 Z0.000 F2000.000
G1 X-0.100 Y299.900 Z0.000 F2000.000
G1 X-0.100 Y284.900 Z0.000 F2000.000
G1 X450.100 Y284.900 Z0.000 F2000.000
G1 X450.100 Y269.900 Z0.000 F2000.000
G1 X-0.100 Y269.900 Z0.000 F2000.000
G1 X-0.100 Y254.900 Z0.000 F2000.000
G1 X450.100 Y254.900 Z0.000 F2000.000
G1 X450.100 Y239.900 Z0.000 F2000.000
G1 X-0.100 Y239.900 Z0.000 F2000.000
G1 X-0.100 Y224.900 Z0.000 F2000.000
G1 X450.100 Y224.900 Z0.000 F2000.000
G1 X450.100 Y209.900 Z0.000 F2000.000
G1 X-0.100 Y209.900 Z0.000 F2000.000
G1 X-0.100 Y194.900 Z0.000 F2000.000
G1 X450.100 Y194.900 Z0.000 F2000.000
G1 X450.100 Y179.900 Z0.000 F2000.000
G1 X-0.100 Y179.900 Z0.000 F2000.000
G1 X-0.100 Y164.900 Z0.000 F2000.000
G1 X450.100 Y164.900 Z0.000 F2000.000
G1 X450.100 Y149.900 Z0.000 F2000.000
G1 X-0.100 Y149.900 Z0.000 F2000.000
G1 X-0.100 Y134.900 Z0.000 F2000.000
G1 X450.100 Y134.900 Z0.000 F2000.000
G1 X450.100 Y119.900 Z0.000 F2000.000
G1 X-0.100 Y119.900 Z0.000 F2000.000
G1 X-0.100 Y104.900 Z0.000 F2000.000
G1 X450.100 Y104.900 Z0.000 F2000.000
G1 X450.100 Y89.900 Z0.000 F2000.000
G1 X-0.100 Y89.900 Z0.000 F2000.000
G1 X-0.100 Y74.900 Z0.000 F2000.000
G1 X450.100 Y74.900 Z0.000 F2000.000
G1 X450.100 Y59.900 Z0.000 F2000.000
G1 X-0.100 Y59.900 Z0.000 F2000.000
G1 X-0.100 Y44.900 Z0.000 F2000.000
G1 X450.100 Y44.900 Z0.000 F2000.000
G1 X450.100 Y29.900 Z0.000 F2000.000
G1 X-0.100 Y29.900 Z0.000 F2000.000
G1 X-0.100 Y14.900 Z0.000 F2000.000
G1 X450.100 Y14.900 Z0.000 F2000.000
G1 X450.100 Y-0.100 Z0.000 F2000.000
G1 X-0.100 Y-0.100 Z0.000 F2000.000
G0 Z5.000
G0 Z5.000
(Finish operation: MillFace)
(Begin postamble)
M5
G17 G90
M2
