;FLAVOR:Marlin
;TIME:6119
;Filament used: 9.53206m
;Layer height: 0.28
;MINX:64.23
;MINY:67.193
;MINZ:0.28
;MAXX:170.729
;MAXY:126.217
;MAXZ:19.32
;TARGET_MACHINE.NAME:Creality Ender-3
;Generated with Cura_SteamEngine 5.7.1
M140 S70
M105
M190 S70
M104 S240
M105
M109 S240
M82 ;absolute extrusion mode
; Ender 3 Custom Start G-code
G92 E0 ; Reset Extruder
G28 ; Home all axes
M420 S1; autolevel recall
G1 Z2.0 F3000 ; Move Z Axis up little to prevent scratching of Heat Bed
G1 X0.1 Y20 Z0.3 F5000.0 ; Move to start position
G1 X0.1 Y200.0 Z0.3 F1500.0 E15 ; Draw the first line
G1 X0.4 Y200.0 Z0.3 F5000.0 ; Move to side a little
G1 X0.4 Y20 Z0.3 F1500.0 E30 ; Draw the second line
G92 E0 ; Reset Extruder
G1 Z2.0 F3000 ; Move Z Axis up little to prevent scratching of Heat Bed
G1 X5 Y20 Z0.3 F5000.0 ; Move over to prevent blob squish
G92 E0
G92 E0
G1 F2700 E-6
;LAYER_COUNT:69
;LAYER:0
M107
M204 S500
M205 X5 Y5
G0 F7500 X92.05 Y69.82 Z0.28
M205 X8 Y8
;TYPE:SKIRT
G1 F2700 E0
G1 F1500 X92.595 Y69.224 E0.03818
G1 X93.36 Y69.028 E0.07552
G1 X94.155 Y69.281 E0.11496
G1 X94.801 Y69.983 E0.16006
G1 X94.919 Y70.384 E0.17982
G1 X94.972 Y70.476 E0.18484
G1 X95.159 Y70.672 E0.19765
G1 X95.308 Y71.185 E0.22291
G1 X95.31 Y71.301 E0.22839
G1 X95.36 Y71.385 E0.23301
G1 X95.391 Y71.418 E0.23515
G1 X95.516 Y71.854 E0.2566
G1 X95.393 Y72.295 E0.27824
G1 X95.069 Y72.619 E0.2999
G1 X94.62 Y72.745 E0.32195
G1 X94.196 Y72.619 E0.34286
G1 X93.879 Y72.301 E0.36409
G1 X93.761 Y72.239 E0.37039
G1 X93.673 Y72.24 E0.37455
G1 X93.433 Y72.29 E0.38614
G1 X92.66 Y72.072 E0.42412
G1 X92.05 Y71.486 E0.46411
G1 X91.821 Y70.725 E0.50168
G1 X92.05 Y69.82 E0.54581
M205 X5 Y5
G0 F7500 X92.459 Y70.04
M205 X8 Y8
G1 F1500 X92.836 Y69.627 E0.57225
G1 X93.347 Y69.496 E0.59719
G1 X93.905 Y69.674 E0.62488
G1 X94.399 Y70.211 E0.65938
G1 X94.487 Y70.511 E0.67416
G1 X94.646 Y70.787 E0.68922
G1 X94.759 Y70.905 E0.69694
G1 X94.854 Y71.234 E0.71313
G1 X94.85 Y71.273 E0.71498
G1 X94.904 Y71.498 E0.72592
G1 X94.978 Y71.61 E0.73227
G1 X95.048 Y71.857 E0.74441
G1 X94.991 Y72.061 E0.75442
G1 X94.834 Y72.218 E0.76492
G1 X94.623 Y72.277 E0.77527
G1 X94.434 Y72.221 E0.78459
G1 X94.198 Y71.984 E0.80041
G1 X94.009 Y71.85 E0.81136
G1 X93.786 Y71.788 E0.8223
G1 X93.58 Y71.799 E0.83206
G1 X93.447 Y71.827 E0.83848
G1 X92.891 Y71.67 E0.8658
G1 X92.447 Y71.244 E0.89489
G1 X92.288 Y70.715 E0.921
G1 X92.459 Y70.04 E0.95392
M205 X5 Y5
G0 F7500 X92.868 Y70.259
M205 X8 Y8
G1 F1500 X93.077 Y70.03 E0.96858
G1 X93.333 Y69.964 E0.98108
G1 X93.655 Y70.067 E0.99706
G1 X93.996 Y70.438 E1.02088
G1 X94.055 Y70.638 E1.03074
G1 X94.177 Y70.911 E1.04488
G1 X94.321 Y71.097 E1.056
G1 X94.357 Y71.134 E1.05844
G1 X94.412 Y71.326 E1.06788
G1 X94.434 Y71.51 E1.07664
G1 X94.488 Y71.645 E1.08352
G1 X94.279 Y71.484 E1.09599
G1 X94.002 Y71.371 E1.11013
G1 X93.705 Y71.335 E1.12428
G1 X93.488 Y71.359 E1.1346
G1 X93.464 Y71.364 E1.13576
G1 X93.122 Y71.267 E1.15257
G1 X92.844 Y71 E1.17079
G1 X92.755 Y70.705 E1.18536
G1 X92.868 Y70.259 E1.20711
M205 X5 Y5
G0 F7500 X93.276 Y70.48
M205 X8 Y8
G1 F1500 X93.319 Y70.433 E1.21012
G1 X93.404 Y70.46 E1.21434
G1 X93.596 Y70.667 E1.22768
G1 X93.624 Y70.764 E1.23246
G1 X93.683 Y70.905 E1.23968
G1 X93.522 Y70.913 E1.2473
G1 X93.352 Y70.865 E1.25566
G1 X93.241 Y70.758 E1.26294
G1 X93.222 Y70.694 E1.2661
G1 X93.276 Y70.48 E1.27654
M205 X5 Y5
G1 F2700 E-4.72346
G0 F7500 X94.1 Y73.749
M205 X8 Y8
G1 F2700 E1.27654
G1 F1500 X94.618 Y73.904 E1.3021
G1 X94.999 Y74.354 E1.32997
G1 X95.158 Y74.98 E1.36051
G1 X94.979 Y75.62 E1.39193
G1 X94.598 Y76.001 E1.4174
G1 X94.069 Y76.149 E1.44337
G1 X93.942 Y76.112 E1.44963
G1 X93.809 Y76.114 E1.45591
G1 X93.72 Y76.169 E1.46086
G1 X93.239 Y76.65 E1.49302
G1 X92.475 Y76.864 E1.53053
G1 X91.746 Y76.651 E1.56644
G1 X91.159 Y76.064 E1.60568
G1 X90.946 Y75.334 E1.64163
G1 X91.159 Y74.603 E1.67763
G1 X91.712 Y74.02 E1.71562
G1 X92.476 Y73.806 E1.75313
G1 X93.301 Y74.04 E1.79367
G1 X93.433 Y74.037 E1.79992
G1 X93.533 Y73.97 E1.80561
G1 X93.578 Y73.917 E1.80889
G1 X94.1 Y73.749 E1.83482
M205 X5 Y5
G0 F7500 X94.105 Y74.22
M205 X8 Y8
G1 F1500 X94.361 Y74.297 E1.84746
G1 X94.588 Y74.565 E1.86406
G1 X94.693 Y74.975 E1.88407
G1 X94.577 Y75.386 E1.90426
G1 X94.364 Y75.599 E1.9185
G1 X94.072 Y75.681 E1.93284
G1 X94.067 Y75.68 E1.93308
G1 X93.837 Y75.654 E1.94402
G1 X93.611 Y75.708 E1.95501
G1 X93.402 Y75.851 E1.96698
G1 X93.005 Y76.248 E1.99353
G1 X92.478 Y76.396 E2.01941
G1 X91.982 Y76.251 E2.04384
G1 X91.559 Y75.828 E2.07212
G1 X91.415 Y75.333 E2.09649
G1 X91.56 Y74.834 E2.12106
G1 X91.953 Y74.419 E2.14808
G1 X92.474 Y74.273 E2.17366
G1 X93.178 Y74.473 E2.20826
G1 X93.408 Y74.497 E2.21919
G1 X93.633 Y74.442 E2.23014
G1 X93.8 Y74.318 E2.23998
G1 X94.105 Y74.22 E2.25512
M205 X5 Y5
G0 F7500 X94.106 Y74.693
M205 X8 Y8
G1 F1500 X94.178 Y74.778 E2.26039
G1 X94.227 Y74.969 E2.26971
G1 X94.176 Y75.151 E2.27865
G1 X94.129 Y75.198 E2.28179
G1 X94.037 Y75.224 E2.28631
G1 X93.896 Y75.203 E2.29305
G1 X93.599 Y75.239 E2.30719
G1 X93.321 Y75.351 E2.32136
G1 X93.084 Y75.533 E2.33549
G1 X92.77 Y75.847 E2.35648
G1 X92.481 Y75.928 E2.37067
G1 X92.218 Y75.851 E2.38363
G1 X91.959 Y75.592 E2.40095
G1 X91.884 Y75.333 E2.41369
G1 X91.961 Y75.065 E2.42688
G1 X92.196 Y74.818 E2.443
G1 X92.472 Y74.74 E2.45655
G1 X93.055 Y74.906 E2.48521
G1 X93.351 Y74.949 E2.49935
G1 X93.648 Y74.912 E2.5135
G1 X93.925 Y74.798 E2.52767
G1 X94.016 Y74.722 E2.53327
G1 X94.106 Y74.693 E2.53774
M205 X5 Y5
G1 F2700 E-3.46226
G0 F7500 X92.705 Y75.274
M205 X8 Y8
G1 F2700 E2.53774
G1 F1500 X92.534 Y75.445 E2.54917
G1 X92.482 Y75.46 E2.55173
G1 X92.457 Y75.452 E2.55297
G1 X92.358 Y75.353 E2.55959
G1 X92.352 Y75.334 E2.56053
G1 X92.364 Y75.294 E2.56251
G1 X92.435 Y75.219 E2.56739
G1 X92.472 Y75.208 E2.56922
G1 X92.705 Y75.274 E2.58067
M205 X5 Y5
G1 F2700 E-3.41933
G0 F7500 X94.172 Y77.069
M205 X8 Y8
G1 F2700 E2.58067
G1 F1500 X94.62 Y76.943 E2.60267
G1 X95.068 Y77.068 E2.62466
G1 X95.391 Y77.412 E2.64697
G1 X95.516 Y77.848 E2.66841
G1 X95.393 Y78.289 E2.69005
G1 X95.277 Y78.405 E2.69781
G1 X95.215 Y78.522 E2.70407
G1 X95.22 Y78.626 E2.70899
G1 X95.306 Y78.926 E2.72375
G1 X95.159 Y79.453 E2.74961
G1 X94.777 Y79.835 E2.77515
G1 X94.212 Y79.993 E2.80289
G1 X93.698 Y79.849 E2.82813
G1 X93.565 Y79.853 E2.83442
G1 X93.444 Y79.951 E2.84178
G1 X93.404 Y80.018 E2.84547
G1 X93.372 Y80.147 E2.85175
G1 X93.434 Y80.288 E2.85903
G1 X93.569 Y80.429 E2.86826
G1 X93.732 Y80.991 E2.89593
G1 X93.558 Y81.67 E2.92906
G1 X93.171 Y82.099 E2.95638
G1 X92.648 Y82.263 E2.98229
G1 X92.152 Y82.105 E3.0069
G1 X91.746 Y81.655 E3.03556
G1 X91.59 Y81.06 E3.06464
G1 X91.595 Y80.97 E3.0689
G1 X91.751 Y80.43 E3.09547
G1 X92.134 Y80.025 E3.12183
G1 X92.66 Y79.878 E3.14765
G1 X93.077 Y79.995 E3.16812
G1 X93.21 Y79.991 E3.17441
G1 X93.335 Y79.888 E3.18207
G1 X93.374 Y79.818 E3.18586
G1 X93.401 Y79.688 E3.19214
G1 X93.331 Y79.544 E3.19971
G1 X93.205 Y79.426 E3.20787
G1 X93.052 Y78.926 E3.23259
G1 X93.206 Y78.424 E3.25741
G1 X93.653 Y77.978 E3.28727
G1 X93.71 Y77.882 E3.29254
G1 X93.847 Y77.412 E3.31569
G1 X94.172 Y77.069 E3.33803
M205 X5 Y5
G0 F7500 X94.414 Y77.468
M205 X8 Y8
G1 F1500 X94.62 Y77.41 E3.34815
G1 X94.826 Y77.467 E3.35825
G1 X94.988 Y77.64 E3.36946
G1 X95.048 Y77.851 E3.37983
G1 X94.991 Y78.055 E3.38984
G1 X94.959 Y78.087 E3.39198
G1 X94.825 Y78.276 E3.40293
G1 X94.764 Y78.499 E3.41386
G1 X94.787 Y78.75 E3.42578
G1 X94.838 Y78.929 E3.43458
G1 X94.757 Y79.219 E3.44882
G1 X94.543 Y79.433 E3.46312
G1 X94.212 Y79.526 E3.47938
G1 X93.819 Y79.416 E3.49867
G1 X93.777 Y79.412 E3.50067
G1 X93.761 Y79.369 E3.50284
G1 X93.638 Y79.215 E3.51215
G1 X93.601 Y79.18 E3.51456
G1 X93.523 Y78.925 E3.52717
G1 X93.602 Y78.665 E3.54002
G1 X93.971 Y78.297 E3.56465
G1 X94.142 Y78.008 E3.58053
G1 X94.249 Y77.642 E3.59856
G1 X94.414 Y77.468 E3.60989
M205 X5 Y5
G0 F7500 X94.312 Y78.585
M205 X8 Y8
G1 F1500 X94.355 Y78.875 E3.62375
G1 X94.371 Y78.931 E3.62651
G1 X94.356 Y78.984 E3.62911
G1 X94.308 Y79.032 E3.63232
G1 X94.212 Y79.059 E3.63704
G1 X94.051 Y79.014 E3.64494
G1 X94.002 Y78.955 E3.64857
G1 X93.993 Y78.927 E3.64996
G1 X94.001 Y78.903 E3.65115
G1 X94.289 Y78.615 E3.67041
G1 X94.312 Y78.585 E3.67219
M205 X5 Y5
G1 F2700 E-2.32781
G0 F7500 X92.996 Y80.432
M205 X8 Y8
G1 F2700 E3.67219
G1 F1500 X93.003 Y80.454 E3.67329
G1 X93.109 Y80.599 E3.68178
G1 X93.168 Y80.661 E3.68582
G1 X93.266 Y80.997 E3.70237
G1 X93.149 Y81.452 E3.72458
G1 X92.919 Y81.707 E3.74082
G1 X92.65 Y81.791 E3.75414
G1 X92.405 Y81.714 E3.76628
G1 X92.154 Y81.434 E3.78406
G1 X92.046 Y81.027 E3.80397
G1 X92.153 Y80.661 E3.82199
G1 X92.376 Y80.424 E3.83738
G1 X92.66 Y80.345 E3.85132
G1 X92.956 Y80.428 E3.86585
G1 X92.996 Y80.432 E3.86775
M205 X5 Y5
G0 F7500 X92.724 Y80.83
M205 X8 Y8
G1 F1500 X92.763 Y80.882 E3.87082
G1 X92.799 Y81.006 E3.87693
G1 X92.741 Y81.233 E3.888
G1 X92.667 Y81.314 E3.89319
G1 X92.654 Y81.318 E3.89383
G1 X92.561 Y81.214 E3.90043
G1 X92.513 Y81.033 E3.90928
G1 X92.555 Y80.89 E3.91633
G1 X92.618 Y80.824 E3.92064
G1 X92.659 Y80.812 E3.92266
G1 X92.724 Y80.83 E3.92585
M205 X5 Y5
G1 F2700 E-2.07415
G0 F7500 X91.792 Y79.529
M205 X8 Y8
G1 F2700 E3.92585
G1 F1500 X91.241 Y80.08 E3.96269
G1 X90.477 Y80.294 E4.0002
G1 X89.748 Y80.081 E4.03611
G1 X89.161 Y79.494 E4.07535
G1 X88.948 Y78.764 E4.11131
G1 X89.161 Y78.033 E4.1473
G1 X89.714 Y77.45 E4.18529
G1 X90.477 Y77.236 E4.22276
G1 X91.24 Y77.45 E4.26022
G1 X91.793 Y78.033 E4.29821
G1 X92.006 Y78.764 E4.33421
G1 X91.792 Y79.529 E4.37176
M205 X5 Y5
G0 F7500 X91.39 Y79.295
M205 X8 Y8
G1 F1500 X91.007 Y79.678 E4.39737
G1 X90.48 Y79.826 E4.42325
G1 X89.984 Y79.681 E4.44768
G1 X89.561 Y79.258 E4.47596
G1 X89.417 Y78.763 E4.50034
G1 X89.562 Y78.264 E4.5249
G1 X89.955 Y77.849 E4.55192
G1 X90.477 Y77.703 E4.57755
G1 X90.999 Y77.849 E4.60318
G1 X91.392 Y78.264 E4.6302
G1 X91.538 Y78.767 E4.65496
G1 X91.39 Y79.295 E4.68088
M205 X5 Y5
G0 F7500 X90.989 Y79.06
M205 X8 Y8
G1 F1500 X90.772 Y79.277 E4.69539
G1 X90.483 Y79.358 E4.70958
G1 X90.22 Y79.281 E4.72254
G1 X89.961 Y79.022 E4.73985
G1 X89.886 Y78.763 E4.7526
G1 X89.963 Y78.495 E4.76579
G1 X90.198 Y78.248 E4.7819
G1 X90.477 Y78.17 E4.7956
G1 X90.756 Y78.248 E4.8093
G1 X90.991 Y78.495 E4.82541
G1 X91.07 Y78.77 E4.83894
G1 X90.989 Y79.06 E4.85318
M205 X5 Y5
G0 F7500 X90.587 Y78.824
M205 X8 Y8
G1 F1500 X90.536 Y78.875 E4.85659
G1 X90.484 Y78.89 E4.85914
G1 X90.459 Y78.882 E4.86039
G1 X90.36 Y78.783 E4.867
G1 X90.354 Y78.764 E4.86795
G1 X90.366 Y78.724 E4.86992
G1 X90.437 Y78.649 E4.8748
G1 X90.477 Y78.638 E4.87676
G1 X90.517 Y78.649 E4.87873
G1 X90.588 Y78.724 E4.88361
G1 X90.602 Y78.771 E4.88593
G1 X90.587 Y78.824 E4.88853
M205 X5 Y5
G1 F2700 E-1.11147
G0 F7500 X89.155 Y81.084
M205 X8 Y8
G1 F2700 E4.88853
G1 F1500 X89.708 Y81.667 E4.92652
G1 X89.921 Y82.401 E4.96265
G1 X89.852 Y82.645 E4.97464
G1 X89.855 Y82.777 E4.98088
G1 X89.899 Y82.854 E4.98508
G1 X90.192 Y83.188 E5.00608
G1 X90.393 Y83.855 E5.03902
G1 X90.245 Y84.382 E5.0649
G1 X89.865 Y84.762 E5.0903
G1 X89.337 Y84.91 E5.11623
G1 X88.835 Y84.763 E5.14096
G1 X88.428 Y84.355 E5.1682
G1 X88.323 Y84.014 E5.18507
G1 X88.248 Y83.904 E5.19137
G1 X88.171 Y83.864 E5.19547
G1 X87.663 Y83.715 E5.2205
G1 X87.076 Y83.128 E5.25974
G1 X86.863 Y82.399 E5.29565
G1 X87.076 Y81.667 E5.33169
G1 X87.629 Y81.084 E5.36968
G1 X88.392 Y80.87 E5.40715
G1 X89.155 Y81.084 E5.44461
M205 X5 Y5
G0 F7500 X88.914 Y81.483
M205 X8 Y8
G1 F1500 X89.307 Y81.898 E5.47163
G1 X89.453 Y82.402 E5.49644
G1 X89.419 Y82.522 E5.50234
G1 X89.395 Y82.752 E5.51327
G1 X89.45 Y82.977 E5.52422
G1 X89.561 Y83.151 E5.53398
G1 X89.789 Y83.411 E5.55033
G1 X89.924 Y83.86 E5.57249
G1 X89.844 Y84.147 E5.58658
G1 X89.631 Y84.36 E5.60082
G1 X89.34 Y84.442 E5.61511
G1 X89.073 Y84.364 E5.62826
G1 X88.824 Y84.115 E5.64491
G1 X88.753 Y83.882 E5.65643
G1 X88.648 Y83.675 E5.6674
G1 X88.48 Y83.517 E5.6783
G1 X88.298 Y83.432 E5.6878
G1 X87.899 Y83.315 E5.70746
G1 X87.476 Y82.892 E5.73574
G1 X87.332 Y82.398 E5.76007
G1 X87.477 Y81.898 E5.78468
G1 X87.87 Y81.483 E5.8117
G1 X88.392 Y81.337 E5.83733
G1 X88.914 Y81.483 E5.86295
M205 X5 Y5
G0 F7500 X88.671 Y81.882
M205 X8 Y8
G1 F1500 X88.905 Y82.129 E5.87904
G1 X88.985 Y82.404 E5.89258
G1 X88.943 Y82.696 E5.90653
G1 X88.98 Y82.993 E5.92068
G1 X89.094 Y83.269 E5.93479
G1 X89.223 Y83.448 E5.94522
G1 X89.386 Y83.634 E5.95692
G1 X89.456 Y83.865 E5.96833
G1 X89.442 Y83.913 E5.97069
G1 X89.396 Y83.959 E5.97377
G1 X89.343 Y83.974 E5.97637
G1 X89.309 Y83.964 E5.97805
G1 X89.222 Y83.876 E5.9839
G1 X89.183 Y83.75 E5.99013
G1 X89.058 Y83.478 E6.00429
G1 X88.866 Y83.249 E6.01841
G1 X88.62 Y83.078 E6.03258
G1 X88.424 Y83 E6.04255
G1 X88.135 Y82.915 E6.05679
G1 X87.876 Y82.656 E6.07411
G1 X87.801 Y82.398 E6.08681
G1 X87.879 Y82.129 E6.10005
G1 X88.113 Y81.882 E6.11614
G1 X88.392 Y81.804 E6.12984
G1 X88.671 Y81.882 E6.14353
M205 X5 Y5
G0 F7500 X88.432 Y82.283
M205 X8 Y8
G1 F1500 X88.504 Y82.358 E6.14845
G1 X88.526 Y82.437 E6.15232
G1 X88.507 Y82.556 E6.15802
G1 X88.376 Y82.518 E6.16447
G1 X88.275 Y82.417 E6.17122
G1 X88.269 Y82.397 E6.17221
G1 X88.28 Y82.358 E6.17413
G1 X88.352 Y82.283 E6.17904
G1 X88.392 Y82.272 E6.181
G1 X88.432 Y82.283 E6.18296
M205 X5 Y5
G1 F2700 E0.18296
G0 F7500 X86.972 Y84.847
M205 X8 Y8
G1 F2700 E6.18296
G1 F1500 X87.525 Y85.432 E6.22102
G1 X87.754 Y86.233 E6.26041
G1 X87.808 Y86.327 E6.26553
G1 X87.973 Y86.5 E6.27684
G1 X88.12 Y87.002 E6.30156
G1 X87.972 Y87.532 E6.32758
G1 X87.592 Y87.912 E6.35299
G1 X87.064 Y88.06 E6.37891
G1 X86.563 Y87.913 E6.4036
G1 X86.408 Y87.757 E6.41399
G1 X86.291 Y87.694 E6.42028
G1 X86.226 Y87.697 E6.42335
G1 X85.481 Y87.479 E6.46005
G1 X84.894 Y86.892 E6.4993
G1 X84.681 Y86.163 E6.5352
G1 X84.894 Y85.431 E6.57125
G1 X85.447 Y84.848 E6.60924
G1 X86.21 Y84.634 E6.6467
G1 X86.972 Y84.847 E6.68411
M205 X5 Y5
G0 F7500 X86.73 Y85.246
M205 X8 Y8
G1 F1500 X87.122 Y85.661 E6.71109
G1 X87.321 Y86.357 E6.74532
G1 X87.483 Y86.638 E6.76065
G1 X87.572 Y86.731 E6.76674
G1 X87.652 Y87.006 E6.78028
G1 X87.57 Y87.298 E6.79462
G1 X87.358 Y87.51 E6.80879
G1 X87.067 Y87.592 E6.82309
G1 X86.802 Y87.514 E6.83615
G1 X86.728 Y87.44 E6.84109
G1 X86.539 Y87.306 E6.85205
G1 X86.316 Y87.243 E6.863
G1 X86.287 Y87.246 E6.86438
G1 X85.717 Y87.079 E6.89246
G1 X85.294 Y86.656 E6.92074
G1 X85.15 Y86.162 E6.94507
G1 X85.295 Y85.662 E6.96968
G1 X85.688 Y85.247 E6.9967
G1 X86.21 Y85.101 E7.02233
G1 X86.73 Y85.246 E7.04785
M205 X5 Y5
G0 F7500 X86.488 Y85.646
M205 X8 Y8
G1 F1500 X86.72 Y85.891 E7.0638
G1 X86.889 Y86.481 E7.09282
G1 X87.009 Y86.755 E7.10696
G1 X87.158 Y86.949 E7.11853
G1 X87.171 Y86.962 E7.11939
G1 X87.184 Y87.009 E7.1217
G1 X87.169 Y87.063 E7.12435
G1 X87.123 Y87.109 E7.12743
G1 X87.07 Y87.124 E7.13003
G1 X87.034 Y87.113 E7.13181
G1 X86.811 Y86.941 E7.14512
G1 X86.534 Y86.827 E7.15928
G1 X86.403 Y86.811 E7.16552
G1 X85.953 Y86.679 E7.1877
G1 X85.694 Y86.42 E7.20501
G1 X85.619 Y86.162 E7.21771
G1 X85.697 Y85.893 E7.23096
G1 X85.931 Y85.646 E7.24704
G1 X86.21 Y85.568 E7.26074
G1 X86.488 Y85.646 E7.27439
M205 X5 Y5
G0 F7500 X86.248 Y86.046
M205 X8 Y8
G1 F1500 X86.317 Y86.119 E7.27914
G1 X86.379 Y86.335 E7.28976
G1 X86.192 Y86.28 E7.29898
G1 X86.093 Y86.181 E7.3056
G1 X86.087 Y86.161 E7.30658
G1 X86.098 Y86.122 E7.3085
G1 X86.17 Y86.047 E7.31341
G1 X86.21 Y86.036 E7.31538
G1 X86.248 Y86.046 E7.31723
M205 X5 Y5
G1 F2700 E1.31723
G0 F7500 X84.909 Y88.382
M205 X8 Y8
G1 F2700 E7.31723
G1 F1500 X85.462 Y88.965 E7.35522
G1 X85.675 Y89.696 E7.39122
G1 X85.461 Y90.461 E7.42878
G1 X84.91 Y91.012 E7.46562
G1 X84.146 Y91.226 E7.50313
G1 X83.417 Y91.013 E7.53903
G1 X82.83 Y90.426 E7.57828
G1 X82.617 Y89.696 E7.61423
G1 X82.83 Y88.965 E7.65023
G1 X83.383 Y88.382 E7.68822
G1 X84.146 Y88.168 E7.72568
G1 X84.909 Y88.382 E7.76315
M205 X5 Y5
G0 F7500 X84.668 Y88.781
M205 X8 Y8
G1 F1500 X85.061 Y89.196 E7.79017
G1 X85.207 Y89.699 E7.81493
G1 X85.059 Y90.227 E7.84085
G1 X84.676 Y90.61 E7.86646
G1 X84.149 Y90.758 E7.89234
G1 X83.653 Y90.613 E7.91677
G1 X83.23 Y90.19 E7.94505
G1 X83.086 Y89.695 E7.96942
G1 X83.231 Y89.196 E7.99399
G1 X83.624 Y88.781 E8.02101
G1 X84.146 Y88.635 E8.04664
G1 X84.668 Y88.781 E8.07226
M205 X5 Y5
G0 F7500 X84.425 Y89.18
M205 X8 Y8
