;FLAVOR:Marlin
;TIME:4726
;Filament used: 2.38693m
;Layer height: 0.2
;MINX:65.393
;MINY:95.32
;MINZ:0.2
;MAXX:155.984
;MAXY:124.45
;MAXZ:22
;TARGET_MACHINE.NAME:Creality Ender-3
;Generated with Cura_SteamEngine 5.9.0
M140 S50
M105
M190 S50
M104 S200
M105
M109 S200
M82 ;absolute extrusion mode
; Ender 3 Custom Start G-code
G92 E0 ; Reset Extruder
G28 ; Home all axes
M420 S1 ; Rappel du Bed levelling sauvegardé
;G29 ; pour refaire un bed levelling à chaque print
G1 Z2.0 F3000 ; Move Z Axis up little to prevent scratching of Heat Bed
G1 X0.1 Y20 Z0.3 F5000.0 ; Move to start position
G1 X0.1 Y200.0 Z0.3 F1500.0 E15 ; Draw the first line
G1 X0.4 Y200.0 Z0.3 F5000.0 ; Move to side a little
G1 X0.4 Y20 Z0.3 F1500.0 E30 ; Draw the second line
G92 E0 ; Reset Extruder
G1 Z2.0 F3000 ; Move Z Axis up little to prevent scratching of Heat Bed
G1 X5 Y20 Z0.3 F5000.0 ; Move over to prevent blob squish
G92 E0
G92 E0
G1 F2700 E-5
;LAYER_COUNT:110
;LAYER:0
M107
G0 F6000 X73.363 Y99.218 Z0.2
;TYPE:SKIRT
G1 F2700 E0
G1 F1200 X73.355 Y99.226 E0.00038
G1 X73.326 Y99.218 E0.00138
G1 X73.344 Y99.198 E0.00227
G1 X73.363 Y99.218 E0.00319
G0 F6000 X73.56 Y99.587
G1 F1200 X73.358 Y99.644 E0.01017
G1 X73.005 Y99.541 E0.0224
G1 X72.904 Y99.199 E0.03426
G1 X72.954 Y99.029 E0.04015
G1 X73.164 Y98.807 E0.05032
G1 X73.344 Y98.757 E0.05653
G1 X73.524 Y98.807 E0.06275
G1 X73.731 Y99.026 E0.07277
G1 X73.786 Y99.215 E0.07932
G1 X73.729 Y99.418 E0.08633
G1 X73.56 Y99.587 E0.09428
G0 F6000 X73.767 Y99.944
G1 F1200 X73.355 Y100.06 E0.10851
G1 X72.682 Y99.863 E0.13184
G1 X72.488 Y99.201 E0.15478
G1 X72.599 Y98.821 E0.16795
G1 X72.949 Y98.452 E0.18486
G1 X73.344 Y98.341 E0.19851
G1 X73.739 Y98.452 E0.21216
G1 X74.088 Y98.82 E0.22903
G1 X74.202 Y99.214 E0.24267
G1 X74.088 Y99.623 E0.25679
G1 X73.767 Y99.944 E0.27189
G0 F6000 X73.975 Y100.302
G1 F1200 X73.354 Y100.476 E0.29334
G1 X72.378 Y100.191 E0.32716
G1 X72.357 Y100.187 E0.32787
G1 X72.351 Y100.155 E0.32895
G1 X72.071 Y99.202 E0.36199
G1 X72.242 Y98.617 E0.38226
G1 X72.736 Y98.097 E0.40611
G1 X73.344 Y97.926 E0.42712
G1 X73.952 Y98.097 E0.44813
G1 X74.447 Y98.617 E0.47201
G1 X74.619 Y99.21 E0.49254
G1 X74.444 Y99.833 E0.51407
G1 X73.975 Y100.302 E0.53613
G0 F6000 X73.351 Y100.892
G1 F1200 X72.265 Y100.575 E0.57375
G1 X71.996 Y100.53 E0.58282
G1 X71.967 Y100.267 E0.59162
G1 X71.654 Y99.202 E0.62855
G1 X71.885 Y98.413 E0.65589
G1 X72.522 Y97.742 E0.68666
G1 X73.344 Y97.51 E0.71507
G1 X74.166 Y97.742 E0.74348
G1 X74.803 Y98.413 E0.77425
G1 X75.034 Y99.208 E0.80179
G1 X74.801 Y100.042 E0.83059
G1 X74.184 Y100.659 E0.85961
G1 X73.351 Y100.892 E0.88838
G0 F6000 X73.348 Y101.308
G1 F1200 X72.153 Y100.959 E0.92978
G1 X71.874 Y100.919 E0.93916
G1 X71.595 Y100.959 E0.94853
G1 X71.565 Y100.972 E0.94962
G1 X71.601 Y100.876 E0.95303
G1 X71.622 Y100.595 E0.9624
G1 X71.583 Y100.38 E0.96967
G1 X71.237 Y99.202 E1.01051
G1 X71.529 Y98.205 E1.04506
G1 X72.305 Y97.387 E1.08256
G1 X73.344 Y97.095 E1.11846
G1 X74.383 Y97.387 E1.15435
G1 X75.159 Y98.205 E1.19185
G1 X75.45 Y99.206 E1.22653
G1 X75.157 Y100.252 E1.26265
G1 X74.393 Y101.016 E1.29859
G1 X73.348 Y101.308 E1.33468
G0 F6000 X73.345 Y101.724
G1 F1200 X72.041 Y101.343 E1.37986
G1 X71.824 Y101.321 E1.38712
G1 X71.614 Y101.378 E1.39436
G1 X71.449 Y101.495 E1.40108
G1 X71.311 Y101.633 E1.40757
G1 X71.187 Y101.812 E1.41482
G1 X71.136 Y102.025 E1.4221
G1 X71.159 Y102.225 E1.4288
G1 X71.547 Y103.553 E1.47481
G1 X71.192 Y104.824 E1.5187
G1 X70.271 Y105.745 E1.56203
G1 X69.001 Y106.1 E1.60589
G1 X67.794 Y105.747 E1.64771
G1 X66.806 Y104.759 E1.69418
G1 X66.452 Y103.552 E1.73602
G1 X66.806 Y102.34 E1.77802
G1 X67.736 Y101.361 E1.82293
G1 X69 Y101.006 E1.8666
G1 X70.325 Y101.378 E1.91237
G1 X70.542 Y101.397 E1.91961
G1 X70.752 Y101.338 E1.92687
G1 X70.913 Y101.223 E1.93345
G1 X71.05 Y101.085 E1.93992
G1 X71.173 Y100.905 E1.94717
G1 X71.223 Y100.692 E1.95445
G1 X71.2 Y100.493 E1.96111
G1 X70.82 Y99.201 E2.0059
G1 X71.171 Y98.001 E2.04748
G1 X72.092 Y97.031 E2.09197
G1 X73.344 Y96.68 E2.13522
G1 X74.596 Y97.031 E2.17847
G1 X75.517 Y98.001 E2.22296
G1 X75.851 Y99.151 E2.26279
G1 X75.87 Y99.189 E2.2642
G1 X75.514 Y100.461 E2.30813
G1 X74.603 Y101.372 E2.35098
G1 X73.345 Y101.724 E2.39443
G0 F6000 X73.342 Y102.14
G1 F1200 X71.929 Y101.727 E2.44339
G1 X71.804 Y101.731 E2.44755
G1 X71.732 Y101.778 E2.45041
G1 X71.594 Y101.916 E2.4569
G1 X71.537 Y102.027 E2.46105
G1 X71.543 Y102.113 E2.46392
G1 X71.963 Y103.551 E2.51375
G1 X71.549 Y105.033 E2.56493
G1 X70.48 Y106.102 E2.61521
G1 X68.998 Y106.516 E2.66639
G1 X67.583 Y106.102 E2.71542
G1 X66.451 Y104.97 E2.76867
G1 X66.035 Y103.553 E2.81779
G1 X66.449 Y102.136 E2.86689
G1 X67.522 Y101.006 E2.91872
G1 X69 Y100.591 E2.96978
G1 X70.433 Y100.993 E3.01928
G1 X70.558 Y100.987 E3.02344
G1 X70.629 Y100.941 E3.02625
G1 X70.766 Y100.803 E3.03272
G1 X70.822 Y100.691 E3.03689
G1 X70.816 Y100.606 E3.03972
G1 X70.403 Y99.202 E3.0884
G1 X70.814 Y97.797 E3.13708
G1 X71.878 Y96.676 E3.18849
G1 X73.344 Y96.264 E3.23914
G1 X74.81 Y96.676 E3.28979
G1 X75.874 Y97.797 E3.34119
G1 X76.235 Y99.04 E3.38424
G1 X76.306 Y99.143 E3.3884
G1 X76.316 Y99.146 E3.38875
G1 X76.285 Y99.191 E3.39057
G1 X75.871 Y100.67 E3.44165
G1 X74.812 Y101.729 E3.49146
G1 X73.342 Y102.14 E3.54223
G1 F2700 E-1.45777
G0 F6000 X70.836 Y104.614
G1 F2700 E3.54223
G1 F1200 X70.061 Y105.389 E3.57868
G1 X69.005 Y105.684 E3.61515
G1 X68.004 Y105.391 E3.64984
G1 X67.161 Y104.548 E3.68949
G1 X66.869 Y103.551 E3.72405
G1 X67.163 Y102.546 E3.75887
G1 X67.951 Y101.716 E3.79694
G1 X69 Y101.422 E3.83317
G1 X70.217 Y101.763 E3.87521
G1 X70.497 Y101.8 E3.8846
G1 X70.776 Y101.757 E3.89399
G1 X70.793 Y101.749 E3.89462
G1 X70.759 Y101.84 E3.89785
G1 X70.737 Y102.121 E3.90722
G1 X70.775 Y102.337 E3.91452
G1 X71.131 Y103.557 E3.95679
G1 X70.836 Y104.614 E3.99329
G0 F6000 X69.852 Y105.032
G1 F1200 X69.008 Y105.268 E4.02244
G1 X68.215 Y105.036 E4.04992
G1 X67.515 Y104.336 E4.08284
G1 X67.286 Y103.553 E4.10998
G1 X67.52 Y102.75 E4.1378
G1 X68.164 Y102.072 E4.1689
G1 X69 Y101.837 E4.19778
G1 X70.109 Y102.148 E4.23609
G1 X70.363 Y102.187 E4.24464
G1 X70.391 Y102.449 E4.2534
G1 X70.715 Y103.56 E4.29189
G1 X70.479 Y104.405 E4.32107
G1 X69.852 Y105.032 E4.35056
G0 F6000 X69.644 Y104.674
G1 F1200 X69.009 Y104.851 E4.37249
G1 X68.426 Y104.681 E4.39269
G1 X67.87 Y104.125 E4.41884
G1 X67.702 Y103.553 E4.43867
G1 X67.877 Y102.955 E4.45939
G1 X68.378 Y102.427 E4.4836
G1 X69.001 Y102.253 E4.50511
G1 X70.001 Y102.533 E4.53965
G1 X70.007 Y102.561 E4.54061
G1 X70.299 Y103.561 E4.57526
G1 X70.121 Y104.197 E4.59722
G1 X69.644 Y104.674 E4.61966
G0 F6000 X69.434 Y104.318
G1 F1200 X69.012 Y104.436 E4.63423
G1 X68.637 Y104.326 E4.64723
G1 X68.226 Y103.915 E4.66656
G1 X68.119 Y103.553 E4.67912
G1 X68.234 Y103.161 E4.69271
G1 X68.593 Y102.782 E4.71007
G1 X69.001 Y102.668 E4.72416
G1 X69.677 Y102.857 E4.7475
G1 X69.883 Y103.564 E4.772
G1 X69.765 Y103.987 E4.7866
G1 X69.434 Y104.318 E4.80217
G0 F6000 X69.228 Y103.96
G1 F1200 X69.015 Y104.02 E4.80953
G1 X68.845 Y103.97 E4.81543
G1 X68.582 Y103.707 E4.8278
G1 X68.536 Y103.552 E4.83317
G1 X68.59 Y103.366 E4.83962
G1 X68.808 Y103.137 E4.85013
G1 X69.001 Y103.083 E4.8568
G1 X69.355 Y103.182 E4.86902
G1 X69.467 Y103.566 E4.88233
G1 X69.407 Y103.781 E4.88975
G1 X69.228 Y103.96 E4.89817
G0 F6000 X69.051 Y103.569
G1 F1200 X69.032 Y103.591 E4.89914
G1 X68.979 Y103.538 E4.90163
G1 X69.013 Y103.503 E4.90325
G1 X69.033 Y103.509 E4.90395
G1 X69.051 Y103.569 E4.90603
G1 F2700 E-0.09397
G0 F6000 X70.291 Y109.554
G1 F2700 E4.90603
G1 F1200 X71.354 Y110.674 E4.95739
G1 X71.762 Y112.077 E5.00599
G1 X71.351 Y113.547 E5.05676
G1 X70.293 Y114.605 E5.10652
G1 X68.823 Y115.016 E5.15729
G1 X67.42 Y114.606 E5.2059
G1 X66.298 Y113.484 E5.25868
G1 X65.885 Y112.079 E5.30739
G1 X66.296 Y110.674 E5.35608
G1 X67.359 Y109.554 E5.40743
G1 X68.825 Y109.142 E5.45808
G1 X70.291 Y109.554 E5.50873
G1 F2700 E0.50873
G0 F6000 X70.996 Y110.878
G1 F2700 E5.50873
G1 F1200 X71.346 Y112.079 E5.55034
G1 X70.994 Y113.338 E5.59382
G1 X70.084 Y114.248 E5.63662
G1 X68.826 Y114.6 E5.68007
G1 X67.631 Y114.251 E5.72148
G1 X66.653 Y113.273 E5.76748
G1 X66.302 Y112.078 E5.8089
G1 X66.653 Y110.878 E5.85049
G1 X67.573 Y109.909 E5.89493
G1 X68.825 Y109.558 E5.93818
G1 X70.077 Y109.909 E5.98142
G1 X70.996 Y110.878 E6.02584
G0 F6000 X70.93 Y112.082
G1 F1200 X70.638 Y113.128 E6.06196
G1 X69.874 Y113.892 E6.0979
G1 X68.829 Y114.184 E6.13399
G1 X67.842 Y113.896 E6.16818
G1 X67.009 Y113.063 E6.20736
G1 X66.719 Y112.078 E6.24152
G1 X67.011 Y111.082 E6.27604
G1 X67.786 Y110.265 E6.31349
G1 X68.825 Y109.973 E6.34939
G1 X69.864 Y110.265 E6.38528
G1 X70.64 Y111.083 E6.42279
G1 X70.93 Y112.082 E6.45738
G0 F6000 X70.281 Y112.919
G1 F1200 X69.665 Y113.535 E6.48636
G1 X68.832 Y113.768 E6.51513
G1 X68.053 Y113.541 E6.54212
G1 X67.362 Y112.85 E6.57462
G1 X67.136 Y112.079 E6.60134
G1 X67.367 Y111.29 E6.62868
G1 X68.003 Y110.62 E6.65941
G1 X68.825 Y110.388 E6.68782
G1 X69.647 Y110.62 E6.71623
G1 X70.283 Y111.29 E6.74695
G1 X70.514 Y112.084 E6.77445
G1 X70.281 Y112.919 E6.80329
G0 F6000 X69.456 Y113.178
G1 F1200 X68.834 Y113.352 E6.82477
G1 X68.263 Y113.185 E6.84456
G1 X67.717 Y112.639 E6.87024
G1 X67.553 Y112.079 E6.88965
G1 X67.724 Y111.494 E6.90992
G1 X68.217 Y110.975 E6.93373
G1 X68.825 Y110.804 E6.95473
G1 X69.433 Y110.975 E6.97574
G1 X69.926 Y111.494 E6.99955
G1 X70.099 Y112.087 E7.02009
G1 X69.924 Y112.71 E7.04162
G1 X69.456 Y113.178 E7.06363
G0 F6000 X69.248 Y112.82
G1 F1200 X68.836 Y112.936 E7.07787
G1 X68.474 Y112.83 E7.09041
G1 X68.073 Y112.429 E7.10927
G1 X67.97 Y112.079 E7.12141
G1 X68.081 Y111.698 E7.13461
G1 X68.43 Y111.33 E7.15148
G1 X68.825 Y111.219 E7.16512
G1 X69.22 Y111.33 E7.17877
G1 X69.569 Y111.699 E7.19566
G1 X69.682 Y112.087 E7.2091
G1 X69.566 Y112.502 E7.22344
G1 X69.248 Y112.82 E7.23839
G0 F6000 X69.041 Y112.463
G1 F1200 X68.839 Y112.52 E7.24537
G1 X68.682 Y112.474 E7.25082
G1 X68.428 Y112.22 E7.26276
G1 X68.386 Y112.077 E7.26772
G1 X68.436 Y111.906 E7.27365
G1 X68.646 Y111.685 E7.28379
G1 X68.825 Y111.635 E7.28997
G1 X69.004 Y111.685 E7.29615
G1 X69.211 Y111.903 E7.30615
G1 X69.266 Y112.092 E7.31269
G1 X69.209 Y112.295 E7.31971
G1 X69.041 Y112.463 E7.32761
G1 F2700 E2.32761
G0 F6000 X71.369 Y120.975
G1 F2700 E7.32761
G1 F1200 X71.783 Y119.558 E7.37671
G1 X72.856 Y118.428 E7.42854
G1 X74.334 Y118.013 E7.4796
G1 X75.812 Y118.428 E7.53066
G1 X76.993 Y119.671 E7.58768
G1 X77.103 Y119.73 E7.59184
G1 X77.227 Y119.712 E7.596
G1 X77.283 Y119.671 E7.59831
G1 X78.444 Y118.449 E7.65437
G1 X79.91 Y118.037 E7.70502
G1 X81.376 Y118.449 E7.75567
G1 X82.44 Y119.57 E7.80708
G1 X82.848 Y120.973 E7.85567
G1 X82.437 Y122.443 E7.90644
G1 X81.378 Y123.502 E7.95625
G1 X79.908 Y123.913 E8.00702
G1 X78.505 Y123.503 E8.05564
G1 X77.311 Y122.31 E8.11178
G1 X77.2 Y122.253 E8.11593
G1 X77.029 Y122.31 E8.12192
G1 X75.814 Y123.524 E8.17905
G1 X74.332 Y123.938 E8.23023
G1 X72.917 Y123.524 E8.27926
G1 X71.785 Y122.392 E8.33251
G1 X71.369 Y120.975 E8.38163
G0 F6000 X72.14 Y122.181
G1 F1200 X71.786 Y120.974 E8.42346
G1 X72.14 Y119.762 E8.46546
G1 X73.07 Y118.783 E8.51037
G1 X74.334 Y118.428 E8.55404
G1 X75.598 Y118.783 E8.5977
G1 X76.703 Y119.946 E8.65106
G1 X76.88 Y120.074 E8.65833
G1 X77.09 Y120.131 E8.66556
G1 X77.307 Y120.109 E8.67282
G1 X77.573 Y119.946 E8.68319
G1 X78.658 Y118.804 E8.73559
G1 X79.91 Y118.453 E8.77883
G1 X81.162 Y118.804 E8.82208
G1 X82.082 Y119.774 E8.86655
G1 X82.432 Y120.975 E8.90815
G1 X82.08 Y122.234 E8.95163
G1 X81.169 Y123.145 E8.99449
G1 X79.911 Y123.497 E9.03793
G1 X78.716 Y123.148 E9.07934
G1 X77.594 Y122.027 E9.13209
G1 X77.414 Y121.903 E9.13936
G1 X77.202 Y121.852 E9.14661
G1 X76.986 Y121.88 E9.15386
G1 X76.746 Y122.027 E9.16322
G1 X75.605 Y123.167 E9.21686
G1 X74.335 Y123.522 E9.26072
G1 X73.128 Y123.169 E9.30255
G1 X72.14 Y122.181 E9.34902
G0 F6000 X73.338 Y122.813
G1 F1200 X72.495 Y121.97 E9.38868
G1 X72.203 Y120.973 E9.42323
G1 X72.497 Y119.968 E9.45806
G1 X73.285 Y119.138 E9.49612
G1 X74.334 Y118.844 E9.53236
G1 X75.384 Y119.138 E9.56862
G1 X76.413 Y120.222 E9.61833
G1 X76.634 Y120.397 E9.62771
G1 X76.896 Y120.503 E9.63711
G1 X77.176 Y120.532 E9.64647
G1 X77.454 Y120.482 E9.65587
G1 X77.706 Y120.356 E9.66524
G1 X77.863 Y120.222 E9.6721
G1 X78.872 Y119.16 E9.72083
G1 X79.91 Y118.868 E9.75669
G1 X80.949 Y119.16 E9.79259
G1 X81.726 Y119.979 E9.83013
G1 X82.016 Y120.978 E9.86473
G1 X81.724 Y122.024 E9.90085
G1 X80.959 Y122.789 E9.93684
G1 X79.914 Y123.081 E9.97292
G1 X78.927 Y122.793 E10.00712
G1 X77.877 Y121.744 E10.05649
G1 X77.651 Y121.574 E10.06589
G1 X77.387 Y121.475 E10.07527
G1 X77.106 Y121.453 E10.08465
G1 X76.83 Y121.511 E10.09403
G1 X76.581 Y121.643 E10.1034
G1 X76.463 Y121.744 E10.10857
G1 X75.396 Y122.811 E10.15875
G1 X74.339 Y123.106 E10.19525
G1 X73.338 Y122.813 E10.22994
G0 F6000 X74.342 Y122.69
G1 F1200 X73.549 Y122.458 E10.25742
G1 X72.849 Y121.758 E10.29035
G1 X72.62 Y120.975 E10.31748
G1 X72.854 Y120.172 E10.3453
G1 X73.498 Y119.494 E10.3764
G1 X74.334 Y119.259 E10.40529
G1 X75.17 Y119.494 E10.43417
G1 X76.123 Y120.497 E10.48019
G1 X76.38 Y120.71 E10.49129
G1 X76.681 Y120.856 E10.50242
G1 X77.007 Y120.927 E10.51351
G1 X77.341 Y120.918 E10.52463
G1 X77.664 Y120.831 E10.53575
G1 X77.956 Y120.669 E10.54686
G1 X78.153 Y120.497 E10.55556
G1 X79.086 Y119.515 E10.60061
G1 X79.91 Y119.283 E10.62908
G1 X80.732 Y119.515 E10.65749
G1 X81.369 Y120.186 E10.68826
G1 X81.6 Y120.98 E10.71577
G1 X81.367 Y121.815 E10.7446
G1 X80.75 Y122.432 E10.77362
G1 X79.917 Y122.665 E10.80239
G1 X79.137 Y122.438 E10.82941
G1 X78.16 Y121.461 E10.87536
G1 X77.897 Y121.254 E10.8865
G1 X77.593 Y121.116 E10.8976
G1 X77.264 Y121.054 E10.90874
G1 X76.931 Y121.072 E10.91983
G1 X76.611 Y121.168 E10.93094
G1 X76.323 Y121.337 E10.94205
G1 X76.18 Y121.461 E10.94834
G1 X75.186 Y122.454 E10.99507
G1 X74.342 Y122.69 E11.02422
G0 F6000 X74.98 Y122.095
G1 F1200 X74.343 Y122.273 E11.04622
G1 X73.76 Y122.103 E11.06642
G1 X73.204 Y121.547 E11.09257
G1 X73.036 Y120.975 E11.1124
G1 X73.211 Y120.377 E11.13312
G1 X73.712 Y119.849 E11.15733
G1 X74.334 Y119.675 E11.17881
G1 X74.955 Y119.849 E11.20026
G1 X75.833 Y120.773 E11.24266
G1 X76.119 Y121.016 E11.25514
G1 X75.898 Y121.178 E11.26425
G1 X74.98 Y122.095 E11.30741
G0 F6000 X74.77 Y121.739
G1 F1200 X74.346 Y121.858 E11.32206
G1 X73.971 Y121.748 E11.33505
G1 X73.56 Y121.337 E11.35439
G1 X73.453 Y120.975 E11.36694
G1 X73.568 Y120.583 E11.38053
G1 X73.927 Y120.204 E11.39789
G1 X74.334 Y120.09 E11.41195
G1 X74.742 Y120.204 E11.42604
G1 X75.503 Y121.006 E11.46281
G1 X74.77 Y121.739 E11.49729
G0 F6000 X74.561 Y121.382
G1 F1200 X74.349 Y121.442 E11.50462
G1 X74.179 Y121.392 E11.51051
G1 X73.916 Y121.129 E11.52288
G1 X73.87 Y120.974 E11.52826
G1 X73.924 Y120.788 E11.5347
G1 X74.142 Y120.559 E11.54522
G1 X74.334 Y120.505 E11.55185
G1 X74.527 Y120.559 E11.55852
G1 X74.944 Y120.999 E11.57868
G1 X74.561 Y121.382 E11.59669
G0 F6000 X74.386 Y120.992
G1 F1200 X74.366 Y121.013 E11.59766
G1 X74.313 Y120.96 E11.60015
G1 X74.335 Y120.938 E11.60119
G1 X74.386 Y120.992 E11.60366
G1 F2700 E6.60366
G0 F6000 X79.347 Y122.082
G1 F2700 E11.60366
G1 F1200 X78.442 Y121.178 E11.6462
G1 X78.198 Y120.981 E11.65663
G1 X78.249 Y120.949 E11.65864
G1 X78.443 Y120.773 E11.66735
G1 X79.301 Y119.87 E11.70878
G1 X79.91 Y119.699 E11.72982
G1 X80.518 Y119.87 E11.75082
G1 X81.012 Y120.39 E11.77468
G1 X81.185 Y120.983 E11.79522
G1 X81.01 Y121.606 E11.81675
G1 X80.541 Y122.075 E11.83881
G1 X79.919 Y122.249 E11.86029
G1 X79.347 Y122.082 E11.88011
G0 F6000 X80.333 Y121.717
G1 F1200 X79.921 Y121.833 E11.89434
G1 X79.557 Y121.726 E11.90696
G1 X78.804 Y120.974 E11.94236
G1 X79.515 Y120.225 E11.97671
G1 X79.91 Y120.114 E11.99035
G1 X80.305 Y120.225 E12.004
G1 X80.655 Y120.595 E12.02094
G1 X80.768 Y120.983 E12.03438
G1 X80.652 Y121.398 E12.04871
G1 X80.333 Y121.717 E12.06372
G0 F6000 X80.126 Y121.36
G1 F1200 X79.924 Y121.417 E12.0707
G1 X79.768 Y121.371 E12.07611
G1 X79.363 Y120.966 E12.09516
G1 X79.73 Y120.58 E12.11287
G1 X79.91 Y120.53 E12.11909
G1 X80.09 Y120.58 E12.1253
G1 X80.297 Y120.799 E12.13532
G1 X80.352 Y120.988 E12.14187
