(Exported by FreeCAD)
(Post Processor: grbl_post)
(Output Time:2022-11-24 19:04:27.313326)
(Begin preamble)
G17 G90
G21
(Begin operation: Fixture)
(Path: Fixture)
G54
(Finish operation: Fixture)
(Begin operation: 6 60D 10mm001)
(Path: 6 60D 10mm001)
(6 60D 10mm001)
(Begin toolchange)
( M6 T2.0 )
M3 S24000.0
(Finish operation: 6 60D 10mm001)
(Begin operation: Vcarve)
(Path: Vcarve)
(starting)
G0 Z3.000
G0 X90.201 Y93.806 Z3.000
G1 X90.201 Y93.806 Z0.432 F499.998
G1 X90.712 Y94.291 Z-0.450 F1143.254
G1 X90.758 Y94.332 Z-0.526 F1160.092
G1 X90.634 Y94.450 Z-0.295 F1110.181
G1 X90.218 Y94.528 Z0.432 F1003.402
G0 Z3.000
G0 X90.268 Y94.694 Z3.000
G1 X90.268 Y94.694 Z0.433 F499.998
G1 X90.542 Y94.558 Z-0.089 F1006.111
G1 X90.533 Y94.573 Z-0.062 F1035.738
G1 X90.347 Y94.803 Z0.432 F1015.458
G0 Z3.000
G0 X90.455 Y94.851 Z3.000
G1 X90.455 Y94.851 Z0.432 F499.998
G1 X90.533 Y94.573 Z-0.063 F1004.254
G0 Z3.000
G0 X90.542 Y94.558 Z3.000
G1 X90.542 Y94.558 Z-0.090 F499.998
G1 X90.634 Y94.450 Z-0.297 F1074.944
G0 Z3.000
G0 X90.758 Y94.332 Z3.000
G1 X90.758 Y94.332 Z-0.527 F499.998
G1 X91.605 Y94.366 Z-0.662 F1849.910
G1 X91.885 Y94.376 Z-0.703 F1861.719
G1 X92.119 Y94.386 Z-0.733 F1877.281
G1 X92.174 Y94.389 Z-0.742 F1842.701
G1 X92.384 Y94.407 Z-0.785 F1807.759
G1 X92.515 Y94.424 Z-0.822 F1737.805
G1 X92.674 Y94.453 Z-0.881 F1667.928
G1 X92.702 Y94.458 Z-0.891 F1683.105
G1 X92.875 Y94.501 Z-0.967 F1610.500
G1 X93.003 Y94.397 Z-0.789 F1214.466
G1 X93.088 Y94.334 Z-0.681 F1240.832
G1 X93.371 Y94.173 Z-0.408 F1331.591
G1 X93.469 Y94.134 Z-0.341 F1462.235
G1 X93.611 Y94.091 Z-0.268 F1562.900
G1 X93.613 Y94.090 Z-0.267 F1665.012
G1 X93.730 Y94.066 Z-0.225 F1678.914
G1 X93.833 Y94.054 Z-0.200 F1774.032
G1 X93.965 Y94.045 Z-0.185 F1890.858
G1 X94.053 Y94.045 Z-0.184 F1984.713
G1 X94.180 Y94.053 Z-0.195 F1912.262
G1 X94.287 Y94.068 Z-0.219 F1794.225
G1 X94.393 Y94.090 Z-0.256 F1687.570
G1 X94.543 Y94.137 Z-0.334 F1559.315
G1 X94.589 Y94.156 Z-0.366 F1455.073
G1 X94.636 Y94.176 Z-0.398 F1464.601
G1 X94.845 Y94.291 Z-0.587 F1359.626
G1 X94.933 Y94.352 Z-0.687 F1282.689
G1 X95.178 Y94.554 Z-1.025 F1220.415
G1 X95.322 Y94.530 Z-0.978 F1692.928
G1 X95.389 Y94.520 Z-0.958 F1720.536
G1 X95.471 Y94.510 Z-0.936 F1751.246
G1 X95.813 Y94.469 Z-0.840 F1741.281
G1 X95.859 Y94.465 Z-0.828 F1765.702
G1 X96.324 Y94.424 Z-0.723 F1787.658
G1 X96.334 Y94.423 Z-0.721 F1799.078
G1 X96.943 Y94.375 Z-0.593 F1803.776
G1 X96.976 Y94.401 Z-0.538 F1118.614
G1 X97.174 Y94.544 Z-0.205 F1102.619
G1 X97.278 Y94.606 Z-0.028 F1075.520
G1 X97.437 Y94.824 Z0.432 F1006.431
G0 Z3.000
G0 X97.512 Y94.746 Z3.000
G1 X97.512 Y94.746 Z0.432 F499.998
G1 X97.280 Y94.607 Z-0.025 F1010.737
G1 X97.278 Y94.606 Z-0.028 F1031.492
G0 Z3.000
G0 X97.280 Y94.607 Z3.000
G1 X97.280 Y94.607 Z-0.025 F499.998
G1 X97.545 Y94.644 Z0.432 F1006.399
G0 Z3.000
G0 X96.943 Y94.375 Z3.000
G1 X96.943 Y94.375 Z-0.592 F499.998
G1 X96.944 Y94.374 Z-0.591 F1137.043
G1 X97.482 Y93.806 Z0.431 F1123.760
G0 Z3.000
G0 X95.178 Y94.554 Z3.000
G1 X95.178 Y94.554 Z-1.025 F499.998
G1 X95.162 Y94.578 Z-0.996 F1241.923
G1 X95.095 Y94.678 Z-0.874 F1246.286
G1 X95.047 Y94.746 Z-0.793 F1262.844
G1 X94.968 Y94.853 Z-0.685 F1347.953
G1 X94.954 Y94.872 Z-0.670 F1443.847
G1 X94.881 Y94.968 Z-0.592 F1451.404
G1 X94.832 Y95.027 Z-0.546 F1486.119
G1 X94.790 Y95.076 Z-0.516 F1592.524
G1 X94.709 Y95.182 Z-0.485 F1762.935
G1 X94.679 Y95.226 Z-0.479 F1943.574
G1 X94.650 Y95.266 Z-0.483 F1933.521
G1 X94.637 Y95.285 Z-0.485 F1896.256
G1 X94.571 Y95.385 Z-0.513 F1807.658
G1 X94.565 Y95.395 Z-0.513 F1721.532
G1 X94.512 Y95.477 Z-0.550 F1658.342
G1 X94.492 Y95.505 Z-0.567 F1561.968
G1 X94.467 Y95.541 Z-0.594 F1505.773
G1 X94.432 Y95.595 Z-0.631 F1485.026
G1 X94.261 Y95.809 Z-0.836 F1384.685
G1 X94.256 Y95.814 Z-0.842 F1308.776
G1 X94.205 Y95.870 Z-0.915 F1290.492
G1 X94.192 Y95.884 Z-0.930 F1272.620
G1 X93.904 Y96.157 Z-1.359 F1214.220
G0 Z3.000
G0 X92.875 Y94.501 Z3.000
G1 X92.875 Y94.501 Z-0.967 F499.998
G1 X92.900 Y94.559 Z-0.912 F1323.219
G1 X92.956 Y94.673 Z-0.818 F1388.437
G1 X92.992 Y94.740 Z-0.766 F1425.605
G1 X93.030 Y94.816 Z-0.711 F1457.573
G1 X93.075 Y94.914 Z-0.662 F1588.407
G1 X93.081 Y94.927 Z-0.658 F1709.583
G1 X93.129 Y95.035 Z-0.622 F1722.503
G1 X93.172 Y95.121 Z-0.600 F1776.286
G1 X93.182 Y95.139 Z-0.597 F1870.389
G1 X93.233 Y95.243 Z-0.595 F1979.237
G1 X93.234 Y95.247 Z-0.595 F1940.198
G1 X93.264 Y95.311 Z-0.608 F1832.012
G1 X93.298 Y95.374 Z-0.621 F1832.970
G1 X93.347 Y95.460 Z-0.647 F1743.117
G1 X93.362 Y95.485 Z-0.657 F1722.062
G1 X93.412 Y95.568 Z-0.698 F1604.416
G1 X93.462 Y95.644 Z-0.755 F1474.392
G1 X93.514 Y95.720 Z-0.816 F1438.508
G1 X93.638 Y95.877 Z-0.968 F1379.743
G1 X93.696 Y95.942 Z-1.047 F1292.523
G1 X93.756 Y96.007 Z-1.137 F1246.390
G1 X93.825 Y96.079 Z-1.240 F1231.963
G1 X93.904 Y96.157 Z-1.359 F1219.189
G1 X93.903 Y96.267 Z-1.334 F1786.475
G1 X93.903 Y96.308 Z-1.327 F1800.502
G1 X93.904 Y96.372 Z-1.313 F1819.193
G1 X93.904 Y96.427 Z-1.304 F1836.273
G1 X93.897 Y96.848 Z-1.242 F1860.554
G1 X93.897 Y96.883 Z-1.238 F1874.602
G1 X93.898 Y97.002 Z-1.224 F1890.376
G1 X93.897 Y97.043 Z-1.220 F1906.430
G1 X93.876 Y98.185 Z-1.130 F1925.106
G1 X93.876 Y98.215 Z-1.129 F1938.075
G1 X93.875 Y98.619 Z-1.107 F1951.588
G1 X93.875 Y98.641 Z-1.107 F1962.309
G1 X93.860 Y99.679 Z-1.077 F1972.478
G1 X93.860 Y99.701 Z-1.077 F1978.905
G1 X93.857 Y101.164 Z-1.067 F1993.928
G1 X93.858 Y101.192 Z-1.069 F1993.222
G1 X93.875 Y102.486 Z-1.095 F1979.184
G1 X93.876 Y102.520 Z-1.099 F1963.750
G1 X93.894 Y103.052 Z-1.126 F1947.321
G1 X93.896 Y103.090 Z-1.130 F1929.126
G1 X93.919 Y103.518 Z-1.168 F1912.778
G1 X93.925 Y103.595 Z-1.179 F1880.313
G1 X93.955 Y103.902 Z-1.228 F1845.667
G1 X93.960 Y103.954 Z-1.240 F1823.582
G1 X93.974 Y104.044 Z-1.262 F1768.149
G1 X93.991 Y104.146 Z-1.291 F1731.552
G1 X94.048 Y104.390 Z-1.390 F1644.297
G1 X94.069 Y104.458 Z-1.423 F1565.049
G1 X94.220 Y104.840 Z-1.791 F1304.048
G1 X94.450 Y105.230 Z-2.165 F1340.331
G1 X94.540 Y105.355 Z-2.285 F1368.120
G1 X94.638 Y105.479 Z-2.405 F1382.138
G1 X95.096 Y105.296 Z-2.073 F1433.429
G1 X95.303 Y105.183 Z-1.906 F1412.432
G1 X95.346 Y105.157 Z-1.884 F1563.289
G1 X95.739 Y104.871 Z-1.717 F1687.062
G1 X95.830 Y104.790 Z-1.697 F1832.534
G1 X95.931 Y104.696 Z-1.677 F1876.822
G1 X96.244 Y104.386 Z-1.644 F1923.702
G1 X96.287 Y104.342 Z-1.638 F1945.798
G1 X96.699 Y103.912 Z-1.620 F1966.043
G1 X96.736 Y103.873 Z-1.618 F1960.601
G1 X96.762 Y103.847 Z-1.614 F1974.144
G1 X97.300 Y103.264 Z-1.605 F1986.272
G1 X97.310 Y103.254 Z-1.602 F1993.086
G1 X100.092 Y100.208 Z-1.588 F1995.971
G1 X100.639 Y99.607 Z-1.582 F1993.537
G1 X102.943 Y97.089 Z-1.543 F1989.060
G1 X103.332 Y96.669 Z-1.530 F1978.814
G1 X104.332 Y95.585 Z-1.492 F1975.326
G1 X104.430 Y95.481 Z-1.485 F1953.783
G1 X104.695 Y95.198 Z-1.462 F1942.230
G1 X104.816 Y95.076 Z-1.442 F1893.296
G1 X104.774 Y95.007 Z-1.302 F1005.927
G0 Z3.000
G0 X104.816 Y95.076 Z3.000
G1 X104.816 Y95.076 Z-1.442 F499.998
G1 X104.822 Y95.072 Z-1.440 F1629.186
G1 X104.913 Y95.017 Z-1.383 F1536.031
G1 X104.974 Y94.984 Z-1.341 F1475.958
G1 X105.007 Y94.967 Z-1.319 F1486.480
G1 X105.119 Y94.909 Z-1.245 F1495.401
G1 X105.398 Y94.780 Z-1.045 F1449.778
G1 X105.524 Y94.727 Z-0.965 F1491.318
G1 X105.950 Y94.568 Z-0.726 F1537.620
G1 X106.003 Y94.550 Z-0.698 F1563.700
G1 X106.028 Y94.542 Z-0.686 F1578.263
G1 X106.470 Y94.417 Z-0.477 F1592.654
G1 X106.527 Y94.402 Z-0.453 F1630.061
G1 X106.959 Y94.305 Z-0.294 F1669.968
G1 X107.009 Y94.296 Z-0.278 F1710.082
G1 X107.410 Y94.230 Z-0.172 F1757.920
G1 X107.463 Y94.224 Z-0.162 F1813.242
G1 X107.542 Y94.217 Z-0.152 F1877.758
G1 X107.815 Y94.195 Z-0.114 F1867.882
G1 X107.865 Y94.194 Z-0.110 F1925.694
G1 X108.019 Y94.193 Z-0.110 F1998.758
G1 X108.067 Y94.195 Z-0.113 F1940.803
G1 X108.204 Y94.206 Z-0.130 F1879.379
G1 X108.269 Y94.214 Z-0.144 F1798.127
G1 X108.391 Y94.236 Z-0.182 F1716.827
G1 X108.490 Y94.261 Z-0.225 F1624.203
G1 X108.601 Y94.297 Z-0.287 F1532.813
G1 X108.838 Y94.412 Z-0.537 F1273.189
G1 X109.037 Y94.565 Z-0.747 F1334.219
G1 X109.091 Y94.618 Z-0.836 F1178.337
G0 Z3.000
G0 X110.461 Y94.394 Z3.000
G1 X110.461 Y94.394 Z-0.232 F499.998
G1 X110.495 Y94.395 Z-0.197 F1243.988
G0 Z3.000
G0 X110.505 Y94.396 Z3.000
G1 X110.505 Y94.396 Z-0.186 F499.998
G1 X110.605 Y94.399 Z-0.052 F1114.591
G1 X110.859 Y94.270 Z0.433 F1007.842
G0 Z3.000
G0 X110.896 Y94.402 Z3.000
G1 X110.896 Y94.402 Z0.432 F499.998
G1 X110.617 Y94.401 Z-0.032 F1016.444
G0 Z3.000
G0 X110.605 Y94.399 Z3.000
G1 X110.605 Y94.399 Z-0.052 F499.998
G1 X110.617 Y94.401 Z-0.033 F1055.598
G1 X110.859 Y94.532 Z0.432 F1010.341
G0 Z3.000
G0 X110.745 Y94.664 Z3.000
G1 X110.745 Y94.664 Z0.433 F499.998
G1 X110.505 Y94.396 Z-0.186 F1003.137
G1 X110.495 Y94.395 Z-0.197 F1168.865
G1 X110.751 Y94.132 Z0.433 F1004.086
G0 Z3.000
G0 X110.650 Y94.057 Z3.000
G1 X110.650 Y94.057 Z0.432 F499.998
G1 X110.461 Y94.394 Z-0.231 F1004.226
G1 X110.378 Y94.403 Z-0.299 F1344.130
G1 X110.316 Y94.416 Z-0.342 F1423.095
G1 X110.210 Y94.430 Z-0.404 F1496.125
G1 X110.038 Y94.462 Z-0.491 F1560.340
G1 X109.944 Y94.475 Z-0.533 F1607.784
G1 X109.660 Y94.527 Z-0.642 F1655.701
G1 X109.174 Y94.605 Z-0.808 F1688.717
G1 X109.091 Y94.618 Z-0.836 F1695.173
G1 X109.016 Y94.720 Z-0.714 F1269.862
G1 X108.999 Y94.741 Z-0.690 F1327.155
G1 X108.811 Y94.933 Z-0.489 F1383.718
G1 X108.765 Y94.970 Z-0.454 F1491.081
G1 X108.721 Y95.004 Z-0.424 F1529.082
G1 X108.692 Y95.026 Z-0.406 F1562.654
G1 X108.659 Y95.051 Z-0.390 F1589.551
G1 X108.550 Y95.138 Z-0.328 F1616.433
G1 X108.529 Y95.155 Z-0.317 F1636.491
G1 X108.458 Y95.208 Z-0.284 F1658.050
G1 X108.414 Y95.244 Z-0.268 F1705.352
G1 X108.238 Y95.396 Z-0.206 F1759.790
G1 X108.186 Y95.447 Z-0.195 F1838.664
G1 X108.032 Y95.610 Z-0.174 F1917.681
G1 X107.983 Y95.667 Z-0.175 F1993.686
G1 X107.968 Y95.687 Z-0.177 F1905.695
G1 X107.962 Y95.695 Z-0.178 F1890.007
G1 X107.834 Y95.859 Z-0.204 F1882.230
G1 X107.792 Y95.917 Z-0.220 F1803.930
G1 X107.638 Y96.159 Z-0.301 F1732.108
G1 X107.606 Y96.213 Z-0.325 F1679.968
G1 X107.437 Y96.525 Z-0.469 F1629.255
G1 X107.413 Y96.573 Z-0.495 F1597.033
G1 X107.360 Y96.682 Z-0.552 F1564.226
G1 X107.356 Y96.691 Z-0.557 F1558.487
G1 X107.218 Y96.973 Z-0.716 F1553.707
G1 X107.199 Y97.012 Z-0.739 F1535.517
G1 X106.972 Y97.514 Z-1.044 F1516.513
G1 X106.952 Y97.558 Z-1.073 F1501.740
G1 X106.815 Y97.883 Z-1.283 F1485.982
G1 X106.609 Y97.889 Z-1.029 F1150.592
G1 X106.582 Y97.891 Z-0.998 F1172.714
G1 X106.536 Y97.894 Z-0.943 F1176.217
G1 X106.201 Y97.953 Z-0.639 F1302.081
G1 X106.006 Y98.026 Z-0.429 F1246.034
G1 X105.960 Y98.048 Z-0.396 F1469.114
G1 X105.789 Y98.155 Z-0.308 F1598.517
G1 X105.648 Y98.266 Z-0.259 F1757.794
G1 X105.595 Y98.313 Z-0.249 F1829.353
G1 X105.367 Y98.528 Z-0.213 F1899.590
G1 X105.349 Y98.546 Z-0.213 F1927.529
G1 X105.022 Y98.877 Z-0.189 F1954.497
G1 X105.011 Y98.890 Z-0.191 F1971.086
G1 X104.055 Y99.902 Z-0.177 F1992.252
G1 X104.025 Y99.935 Z-0.176 F1980.591
G1 X104.019 Y99.942 Z-0.179 F1989.435
G1 X102.548 Y101.563 Z-0.182 F1997.424
G1 X102.548 Y101.564 Z-0.183 F1999.998
G1 X102.226 Y101.919 Z-0.185 F1994.014
G1 X100.084 Y104.317 Z-0.173 F1996.554
G1 X100.082 Y104.319 Z-0.173 F1999.998
G1 X98.519 Y106.055 Z-0.179 F1997.709
G1 X98.515 Y106.059 Z-0.179 F1981.086
G1 X98.334 Y106.258 Z-0.183 F1986.530
G1 X98.332 Y106.261 Z-0.185 F1999.998
G1 X97.299 Y107.400 Z-0.216 F1979.571
G1 X97.295 Y107.405 Z-0.216 F1970.910
G1 X97.061 Y107.658 Z-0.229 F1963.721
G1 X97.059 Y107.663 Z-0.233 F1964.652
G1 X96.190 Y108.617 Z-0.294 F1952.241
G1 X96.182 Y108.626 Z-0.295 F1935.147
G1 X95.518 Y109.337 Z-0.366 F1930.157
G1 X95.045 Y109.842 Z-0.416 F1930.798
G1 X95.030 Y109.858 Z-0.418 F1911.872
G1 X94.657 Y110.239 Z-0.478 F1892.766
G1 X94.631 Y110.265 Z-0.484 F1863.550
G1 X94.517 Y110.373 Z-0.510 F1841.302
G1 X94.444 Y110.437 Z-0.534 F1769.886
G1 X94.387 Y110.483 Z-0.558 F1700.719
G1 X94.190 Y110.611 Z-0.671 F1569.811
G1 X93.860 Y110.735 Z-0.953 F1357.037
G0 Z3.000
G0 X93.336 Y112.057 Z3.000
G1 X93.336 Y112.057 Z0.072 F499.998
G1 X93.429 Y111.856 Z-0.122 F1314.526
G1 X93.486 Y111.709 Z-0.244 F1369.857
G1 X93.563 Y111.526 Z-0.390 F1397.187
G1 X93.744 Y111.055 Z-0.733 F1429.927
G1 X93.860 Y110.735 Z-0.955 F1447.530
G1 X93.741 Y110.553 Z-0.759 F1304.252
G1 X93.722 Y110.519 Z-0.728 F1355.917
G1 X93.591 Y110.194 Z-0.522 F1493.097
G1 X93.585 Y110.169 Z-0.513 F1678.213
G1 X93.573 Y110.109 Z-0.494 F1703.293
G1 X93.553 Y109.966 Z-0.463 F1800.435
G1 X93.539 Y109.761 Z-0.444 F1913.019
G1 X93.537 Y109.692 Z-0.442 F1966.355
G1 X93.537 Y109.384 Z-0.448 F1979.542
G1 X93.537 Y109.346 Z-0.450 F1945.249
G1 X93.551 Y108.993 Z-0.480 F1919.144
G1 X93.836 Y109.007 Z-0.180 F1223.164
G1 X94.001 Y109.013 Z0.096 F1014.967
G1 X94.057 Y109.012 Z0.263 F806.608
G1 X94.079 Y109.008 Z0.431 F626.814
G0 Z3.000
G0 X93.551 Y108.993 Z3.000
G1 X93.551 Y108.993 Z-0.482 F499.998
G1 X93.554 Y108.925 Z-0.488 F1913.558
G1 X93.585 Y108.480 Z-0.552 F1864.939
G1 X93.591 Y108.419 Z-0.564 F1817.399
G1 X93.634 Y108.075 Z-0.646 F1776.313
G1 X93.656 Y107.952 Z-0.686 F1701.834
G1 X93.713 Y107.699 Z-0.791 F1633.796
G1 X93.731 Y107.627 Z-0.824 F1601.699
G1 X93.768 Y107.514 Z-0.889 F1526.496
G1 X93.805 Y107.414 Z-0.952 F1485.250
G1 X93.889 Y107.219 Z-1.100 F1418.376
G1 X93.934 Y107.131 Z-1.178 F1361.595
G1 X93.942 Y107.116 Z-1.192 F1359.083
G1 X94.025 Y106.955 Z-1.336 F1358.724
G1 X94.138 Y106.707 Z-1.533 F1401.416
G1 X94.464 Y105.928 Z-2.103 F1433.452
G1 X94.638 Y105.479 Z-2.407 F1461.654
G0 Z3.000
G0 X93.277 Y112.155 Z3.000
G1 X93.277 Y112.155 Z0.198 F499.998
G1 X93.311 Y112.097 Z0.122 F1188.196
G1 X93.336 Y112.057 Z0.072 F1216.734
G1 X93.431 Y112.245 Z0.432 F1003.845
G0 Z3.000
G0 X93.285 Y112.295 Z3.000
G1 X93.285 Y112.295 Z0.432 F499.998
G1 X93.277 Y112.155 Z0.198 F1016.023
G1 X93.232 Y112.199 Z0.292 F1075.509
G0 Z3.000
G0 X93.154 Y112.227 Z3.000
G1 X93.154 Y112.227 Z0.432 F499.998
G1 X93.232 Y112.199 Z0.292 F1009.003
G1 X93.177 Y112.271 Z0.433 F1045.236
G0 Z3.000
G0 X102.838 Y112.270 Z3.000
G1 X102.838 Y112.270 Z0.433 F499.998
G1 X103.369 Y112.146 Z-0.502 F1004.285
G1 X103.344 Y112.169 Z-0.447 F1029.497
G1 X102.909 Y112.453 Z0.433 F1009.246
G0 Z3.000
G0 X103.043 Y112.587 Z3.000
G1 X103.043 Y112.587 Z0.433 F499.998
G1 X103.344 Y112.169 Z-0.447 F1005.467
G0 Z3.000
G0 X103.369 Y112.146 Z3.000
G1 X103.369 Y112.146 Z-0.503 F499.998
G1 X103.489 Y112.065 Z-0.721 F1058.389
G1 X103.251 Y112.691 Z0.433 F1002.107
G0 Z3.000
G0 X103.489 Y112.065 Z3.000
G1 X103.489 Y112.065 Z-0.721 F499.998
G1 X103.553 Y112.011 Z-0.840 F1085.988
G1 X103.570 Y111.999 Z-0.868 F1111.730
G1 X103.450 Y111.916 Z-0.650 F1065.969
G0 Z3.000
G0 X103.428 Y111.897 Z3.000
G1 X103.428 Y111.897 Z-0.605 F499.998
G1 X103.366 Y111.856 Z-0.481 F1020.865
G0 Z3.000
G0 X103.570 Y111.999 Z3.000
G1 X103.570 Y111.999 Z-0.868 F499.998
G1 X103.578 Y111.999 Z-0.872 F1492.268
G1 X103.777 Y111.998 Z-0.964 F1589.463
G1 X103.797 Y111.998 Z-0.972 F1649.859
G1 X103.873 Y111.996 Z-0.992 F1750.666
G1 X103.945 Y111.990 Z-1.002 F1865.016
G1 X104.084 Y111.973 Z-1.018 F1895.648
G1 X104.275 Y111.955 Z-1.031 F1931.494
G1 X104.295 Y111.953 Z-1.033 F1922.145
G1 X104.513 Y111.935 Z-1.053 F1913.102
G1 X105.037 Y111.891 Z-1.101 F1913.686
G1 X105.045 Y111.890 Z-1.101 F1912.713
G1 X105.052 Y111.890 Z-1.102 F1897.639
G1 X105.113 Y111.884 Z-1.109 F1879.226
G1 X105.334 Y111.859 Z-1.145 F1849.783
G1 X105.417 Y111.848 Z-1.160 F1814.222
G1 X105.519 Y111.831 Z-1.187 F1777.269
G1 X105.585 Y111.725 Z-1.045 F1185.700
G1 X105.610 Y111.687 Z-0.995 F1213.404
G1 X105.637 Y111.644 Z-0.941 F1233.396
G1 X105.666 Y111.597 Z-0.888 F1261.088
G1 X105.782 Y111.433 Z-0.719 F1329.799
G1 X105.864 Y111.331 Z-0.641 F1486.889
G1 X105.901 Y111.287 Z-0.618 F1639.913
G1 X105.948 Y111.233 Z-0.591 F1656.558
G1 X105.975 Y111.203 Z-0.578 F1697.861
G1 X106.023 Y111.152 Z-0.564 F1816.370
G1 X106.066 Y111.106 Z-0.560 F1957.549
G1 X106.175 Y110.977 Z-0.563 F1994.344
G1 X106.188 Y110.960 Z-0.560 F1982.228
G1 X106.224 Y110.917 Z-0.570 F1884.910
G1 X106.250 Y110.883 Z-0.577 F1782.118
G1 X106.358 Y110.741 Z-0.627 F1752.602
G1 X106.363 Y110.734 Z-0.629 F1749.922
G1 X106.429 Y110.648 Z-0.675 F1620.269
G1 X106.464 Y110.604 Z-0.708 F1489.437
G1 X106.568 Y110.480 Z-0.810 F1465.338
G1 X106.576 Y110.470 Z-0.818 F1461.876
G1 X106.640 Y110.395 Z-0.890 F1394.232
G1 X106.776 Y110.252 Z-1.069 F1296.511
G1 X106.827 Y110.297 Z-0.979 F1122.800
G1 X106.933 Y110.392 Z-0.806 F1156.265
G1 X107.051 Y110.491 Z-0.641 F1215.718
G1 X107.281 Y110.664 Z-0.449 F1440.001
G1 X107.296 Y110.675 Z-0.445 F1782.767
G1 X107.411 Y110.764 Z-0.413 F1797.692
G1 X107.490 Y110.833 Z-0.400 F1882.498
G1 X107.605 Y110.945 Z-0.395 F1969.685
G1 X107.660 Y111.003 Z-0.399 F1960.457
G1 X107.677 Y111.023 Z-0.402 F1874.567
G1 X107.724 Y111.073 Z-0.415 F1835.174
G1 X107.743 Y111.091 Z-0.422 F1763.348
G1 X107.857 Y111.227 Z-0.489 F1653.183
G1 X107.911 Y111.302 Z-0.537 F1549.620
G1 X107.916 Y111.311 Z-0.542 F1543.297
G1 X107.995 Y111.424 Z-0.640 F1409.361
G1 X108.132 Y111.660 Z-0.912 F1251.951
G1 X108.171 Y111.743 Z-1.013 F1204.975
G1 X108.205 Y111.817 Z-1.104 F1193.924
G1 X108.008 Y111.947 Z-0.917 F1360.549
G1 X107.810 Y112.043 Z-0.730 F1327.482
G1 X107.729 Y112.075 Z-0.678 F1486.640
G1 X107.506 Y112.142 Z-0.573 F1595.518
G1 X107.394 Y112.164 Z-0.540 F1731.667
G1 X107.282 Y112.180 Z-0.517 F1808.398
G1 X107.278 Y112.180 Z-0.517 F1899.692
G1 X107.132 Y112.194 Z-0.499 F1883.258
G1 X107.068 Y112.198 Z-0.494 F1934.489
G1 X106.876 Y112.204 Z-0.490 F1981.118
G1 X106.843 Y112.204 Z-0.491 F1991.316
G1 X106.545 Y112.204 Z-0.502 F1964.460
G1 X106.472 Y112.202 Z-0.509 F1909.230
G1 X106.388 Y112.196 Z-0.522 F1847.328
G1 X106.160 Y112.157 Z-0.598 F1696.914
G1 X106.110 Y112.144 Z-0.623 F1576.067
G1 X105.818 Y112.027 Z-0.902 F1305.954
G1 X105.519 Y111.831 Z-1.187 F1357.419
G0 Z3.000
G0 X106.776 Y110.252 Z3.000
G1 X106.776 Y110.252 Z-1.070 F499.998
G1 X106.785 Y110.165 Z-1.055 F1838.475
G1 X106.793 Y110.075 Z-1.040 F1881.747
G1 X106.828 Y109.414 Z-0.991 F1924.425
G1 X106.831 Y109.357 Z-0.986 F1954.586
G1 X106.848 Y108.450 Z-0.971 F1981.480
G1 X106.849 Y108.431 Z-0.969 F1994.950
G1 X106.858 Y107.232 Z-0.971 F1999.281
G1 X106.887 Y104.270 Z-0.965 F1998.032
G1 X106.897 Y103.572 Z-0.958 F1990.003
G1 X106.897 Y103.572 Z-0.958 F1999.998
G1 X106.927 Y101.476 Z-0.937 F1990.295
G1 X106.927 Y101.473 Z-0.936 F1963.996
G1 X106.934 Y100.945 Z-0.933 F1993.131
G1 X106.934 Y100.939 Z-0.933 F1999.998
G1 X106.943 Y100.416 Z-0.933 F1999.815
G1 X106.943 Y100.398 Z-0.931 F1989.765
G1 X106.948 Y99.495 Z-0.951 F1980.544
G1 X106.948 Y99.467 Z-0.950 F1965.642
G1 X106.942 Y98.980 Z-0.977 F1951.966
G1 X106.942 Y98.956 Z-0.978 F1938.396
G1 X106.942 Y98.814 Z-0.989 F1927.238
G1 X106.941 Y98.763 Z-0.992 F1899.752
G1 X106.936 Y98.559 Z-1.021 F1876.443
G1 X106.928 Y98.437 Z-1.043 F1817.100
G1 X106.917 Y98.330 Z-1.072 F1762.285
G1 X106.815 Y97.883 Z-1.283 F1583.892
G0 Z3.000
G0 X103.114 Y111.381 Z3.000
G1 X103.114 Y111.381 Z0.432 F499.998
G1 X103.428 Y111.897 Z-0.605 F1003.980
G1 X103.450 Y111.916 Z-0.649 F1042.285
G1 X102.830 Y111.809 Z0.431 F1003.427
G0 Z3.000
G0 X102.879 Y111.635 Z3.000
G1 X102.879 Y111.635 Z0.432 F499.998
G1 X103.366 Y111.856 Z-0.481 F1005.710
G1 X102.970 Y111.495 Z0.432 F1006.464
G0 Z3.000
G0 X108.205 Y111.817 Z3.000
G1 X108.205 Y111.817 Z-1.106 F499.998
G1 X108.211 Y111.818 Z-1.104 F1632.743
G1 X108.336 Y111.839 Z-1.060 F1691.379
G1 X108.572 Y111.871 Z-0.996 F1744.240
G1 X108.783 Y111.896 Z-0.933 F1724.572
G1 X108.858 Y111.903 Z-0.913 F1757.850
G1 X109.405 Y111.942 Z-0.796 F1797.869
G1 X109.416 Y111.943 Z-0.792 F1798.027
G1 X109.546 Y111.951 Z-0.767 F1810.849
G1 X110.030 Y111.969 Z-0.647 F1768.268
G1 X110.139 Y111.977 Z-0.613 F1712.010
G1 X110.198 Y111.930 Z-0.509 F1101.741
G1 X110.231 Y111.908 Z-0.453 F1080.435
G1 X110.321 Y111.835 Z-0.277 F1058.819
G0 Z3.000
G0 X110.324 Y111.832 Z3.000
G1 X110.324 Y111.832 Z-0.270 F499.998
G1 X110.321 Y111.835 Z-0.276 F1043.833
G1 X110.719 Y111.731 Z0.432 F1001.723
G0 Z3.000
G0 X110.681 Y111.626 Z3.000
G1 X110.681 Y111.626 Z0.432 F499.998
G1 X110.380 Y111.789 Z-0.153 F1004.935
G0 Z3.000
G0 X110.156 Y111.993 Z3.000
G1 X110.156 Y111.993 Z-0.583 F499.998
G1 X110.139 Y111.977 Z-0.613 F1132.389
G0 Z3.000
G0 X110.250 Y112.086 Z3.000
G1 X110.250 Y112.086 Z-0.393 F499.998
G1 X110.172 Y112.009 Z-0.551 F1079.752
G1 X110.156 Y111.993 Z-0.582 F1094.976
G1 X110.743 Y112.045 Z0.433 F1002.042
G0 Z3.000
G0 X110.709 Y112.223 Z3.000
G1 X110.709 Y112.223 Z0.432 F499.998
G1 X110.250 Y112.086 Z-0.393 F1002.148
G1 X110.342 Y112.197 Z-0.173 F1052.500
G0 Z3.000
G0 X110.358 Y112.223 Z3.000
G1 X110.358 Y112.223 Z-0.124 F499.998
G1 X110.342 Y112.197 Z-0.174 F1025.850
G1 X110.646 Y112.376 Z0.432 F1003.976
G0 Z3.000
G0 X110.559 Y112.485 Z3.000
G1 X110.559 Y112.485 Z0.431 F499.998
G1 X110.358 Y112.223 Z-0.124 F1012.680
G1 X110.456 Y112.530 Z0.432 F1002.113
G0 Z3.000
G0 X110.617 Y111.541 Z3.000
G1 X110.617 Y111.541 Z0.433 F499.998
G1 X110.380 Y111.789 Z-0.152 F1005.850
G1 X110.324 Y111.832 Z-0.270 F1020.718
G1 X110.516 Y111.472 Z0.433 F1002.650
G0 Z3.000
G0 X111.634 Y111.606 Z3.000
G1 X111.634 Y111.606 Z0.431 F499.998
G1 X112.059 Y111.693 Z-0.311 F1004.954
G1 X112.033 Y111.673 Z-0.258 F1025.880
G1 X111.679 Y111.474 Z0.431 F1008.527
G0 Z3.000
G0 X111.767 Y111.368 Z3.000
G1 X111.767 Y111.368 Z0.433 F499.998
G1 X112.033 Y111.673 Z-0.258 F1005.858
G0 Z3.000
G0 X112.059 Y111.693 Z3.000
G1 X112.059 Y111.693 Z-0.311 F499.998
G1 X112.120 Y111.730 Z-0.422 F1047.401
G0 Z3.000
G0 X112.157 Y111.758 Z3.000
G1 X112.157 Y111.758 Z-0.489 F499.998
G1 X112.228 Y111.803 Z-0.603 F1107.212
G1 X112.125 Y111.877 Z-0.412 F1059.961
G0 Z3.000
G0 X112.059 Y111.915 Z3.000
G1 X112.059 Y111.915 Z-0.292 F499.998
G1 X112.125 Y111.877 Z-0.412 F1037.387
G1 X111.878 Y112.301 Z0.433 F1002.169
G0 Z3.000
G0 X111.768 Y112.221 Z3.000
G1 X111.768 Y112.221 Z0.433 F499.998
G1 X112.059 Y111.915 Z-0.292 F1003.571
G1 X112.042 Y111.922 Z-0.261 F1017.068
G0 Z3.000
G0 X112.228 Y111.803 Z3.000
G1 X112.228 Y111.803 Z-0.603 F499.998
G1 X112.239 Y111.803 Z-0.611 F1459.072
G1 X112.275 Y111.802 Z-0.630 F1540.071
G1 X112.380 Y111.806 Z-0.675 F1613.807
G1 X112.497 Y111.804 Z-0.716 F1680.481
G1 X112.587 Y111.807 Z-0.740 F1744.135
G1 X113.252 Y111.799 Z-0.874 F1810.676
G1 X113.292 Y111.798 Z-0.880 F1855.888
G1 X113.306 Y111.797 Z-0.882 F1843.496
G1 X113.779 Y111.774 Z-0.963 F1839.528
G1 X113.861 Y111.768 Z-0.978 F1800.388
G1 X114.229 Y111.731 Z-1.075 F1760.468
G1 X114.267 Y111.727 Z-1.084 F1783.495
G1 X114.397 Y111.707 Z-1.121 F1728.373
G1 X114.739 Y111.642 Z-1.246 F1674.801
G1 X114.939 Y111.593 Z-1.335 F1604.078
G1 X115.228 Y111.507 Z-1.494 F1540.131
G1 X115.556 Y111.384 Z-1.716 F1457.339
G1 X115.654 Y111.339 Z-1.798 F1387.747
G1 X115.667 Y111.355 Z-1.772 F1117.783
G1 X115.974 Y111.686 Z-1.428 F1378.481
G1 X116.269 Y111.916 Z-1.099 F1311.337
G1 X116.555 Y112.057 Z-0.783 F1252.945
G1 X116.824 Y112.118 Z-0.485 F1215.027
G1 X116.940 Y112.129 Z-0.471 F1872.443
G1 X116.973 Y112.132 Z-0.466 F1896.485
G1 X117.254 Y112.149 Z-0.445 F1923.971
G1 X117.267 Y112.150 Z-0.443 F1933.001
G1 X117.331 Y112.153 Z-0.441 F1944.734
G1 X118.162 Y112.192 Z-0.386 F1937.078
G1 X118.166 Y112.193 Z-0.384 F1954.981
G1 X119.416 Y112.246 Z-0.313 F1944.428
G1 X119.666 Y112.221 Z-0.481 F1433.418
G1 X119.920 Y112.121 Z-0.652 F1463.795
G1 X120.035 Y112.051 Z-0.729 F1500.155
G1 X120.150 Y111.967 Z-0.807 F1525.401
G1 X120.267 Y111.863 Z-0.986 F1187.907
G0 Z3.000
G0 X119.168 Y110.721 Z3.000
G1 X119.168 Y110.721 Z-0.287 F499.998
G1 X119.181 Y110.760 Z-0.285 F1963.353
G1 X119.218 Y110.865 Z-0.286 F1988.026
G1 X119.222 Y110.873 Z-0.288 F1987.939
G1 X119.273 Y110.969 Z-0.289 F1990.400
G1 X119.309 Y111.027 Z-0.296 F1884.025
G1 X119.331 Y111.057 Z-0.295 F1982.121
G1 X119.402 Y111.140 Z-0.306 F1913.470
G1 X119.420 Y111.159 Z-0.311 F1807.990
G1 X119.482 Y111.217 Z-0.321 F1889.603
G1 X119.556 Y111.278 Z-0.342 F1806.255
G1 X119.657 Y111.354 Z-0.379 F1720.079
G1 X119.737 Y111.408 Z-0.417 F1649.090
G1 X119.826 Y111.461 Z-0.465 F1580.547
G1 X120.006 Y111.595 Z-0.605 F1467.161
G1 X120.066 Y111.649 Z-0.674 F1323.417
G1 X120.267 Y111.863 Z-0.986 F1221.390
G1 X120.444 Y111.876 Z-0.963 F1869.422
G1 X120.452 Y111.877 Z-0.960 F1863.667
G1 X121.018 Y111.916 Z-0.889 F1877.446
G1 X121.319 Y111.933 Z-0.843 F1856.180
G1 X121.594 Y111.959 Z-0.783 F1795.294
G1 X121.800 Y111.972 Z-0.726 F1743.551
G1 X121.881 Y111.983 Z-0.693 F1631.934
G1 X122.172 Y111.400 Z0.433 F1001.602
G0 Z3.000
G0 X122.300 Y111.479 Z3.000
G1 X122.300 Y111.479 Z0.433 F499.998
G1 X121.933 Y111.946 Z-0.589 F1002.727
G1 X122.394 Y111.572 Z0.433 F1002.426
G0 Z3.000
G0 X122.466 Y111.684 Z3.000
G1 X122.466 Y111.684 Z0.432 F499.998
G1 X121.902 Y111.977 Z-0.663 F1001.818
G1 X121.933 Y111.946 Z-0.589 F1010.515
G0 Z3.000
G0 X121.902 Y111.977 Z3.000
G1 X121.902 Y111.977 Z-0.662 F499.998
G1 X121.892 Y111.986 Z-0.685 F1022.780
G0 Z3.000
G0 X121.881 Y111.983 Z3.000
G1 X121.881 Y111.983 Z-0.693 F499.998
G1 X121.892 Y111.986 Z-0.686 F1517.599
G1 X121.918 Y112.001 Z-0.655 F1233.610
G1 X121.925 Y112.005 Z-0.645 F1186.513
G1 X121.952 Y112.002 Z-0.600 F1015.797
G1 X122.534 Y111.851 Z0.433 F1003.627
G0 Z3.000
G0 X122.554 Y112.015 Z3.000
G1 X122.554 Y112.015 Z0.433 F499.998
G1 X121.952 Y112.002 Z-0.599 F1004.209
G0 Z3.000
G0 X121.935 Y112.014 Z3.000
G1 X121.935 Y112.014 Z-0.626 F499.998
G1 X121.925 Y112.005 Z-0.645 F1077.235
G0 Z3.000
G0 X122.054 Y112.151 Z3.000
G1 X122.054 Y112.151 Z-0.344 F499.998
G1 X121.935 Y112.014 Z-0.626 F1045.825
G1 X122.526 Y112.184 Z0.431 F1002.910
G0 Z3.000
G0 X122.452 Y112.361 Z3.000
G1 X122.452 Y112.361 Z0.432 F499.998
G1 X122.054 Y112.151 Z-0.344 F1001.594
G1 X122.084 Y112.192 Z-0.262 F1028.657
G0 Z3.000
G0 X122.256 Y112.561 Z3.000
G1 X122.256 Y112.561 Z0.432 F499.998
G1 X122.084 Y112.192 Z-0.262 F1006.388
G1 X122.378 Y112.475 Z0.432 F1007.735
G0 Z3.000
G0 X124.911 Y112.369 Z3.000
G1 X124.911 Y112.369 Z0.433 F499.998
G1 X125.217 Y112.273 Z-0.116 F1004.937
G1 X125.208 Y112.282 Z-0.095 F1026.332
G1 X124.960 Y112.470 Z0.432 F1009.242
G0 Z3.000
G0 X125.043 Y112.544 Z3.000
G1 X125.043 Y112.544 Z0.433 F499.998
G1 X125.208 Y112.282 Z-0.096 F1005.422
G0 Z3.000
G0 X125.217 Y112.273 Z3.000
G1 X125.217 Y112.273 Z-0.117 F499.998
G1 X125.291 Y112.215 Z-0.260 F1056.795
G1 X125.169 Y112.597 Z0.432 F1001.798
G0 Z3.000
G0 X125.291 Y112.215 Z3.000
G1 X125.291 Y112.215 Z-0.260 F499.998
G1 X125.451 Y112.066 Z-0.573 F1082.183
G1 X125.495 Y112.020 Z-0.661 F1097.529
G1 X125.450 Y111.989 Z-0.590 F1144.479
G1 X125.349 Y111.913 Z-0.427 F1127.401
G1 X125.264 Y111.857 Z-0.286 F1099.769
G1 X125.186 Y111.798 Z-0.145 F1076.641
G0 Z3.000
G0 X125.150 Y111.778 Z3.000
G1 X125.150 Y111.778 Z-0.079 F499.998
G1 X125.186 Y111.798 Z-0.145 F1039.508
G1 X125.025 Y111.501 Z0.433 F1005.750
G0 Z3.000
G0 X124.911 Y111.588 Z3.000
G1 X124.911 Y111.588 Z0.432 F499.998
G1 X125.150 Y111.778 Z-0.079 F1014.696
G1 X124.858 Y111.704 Z0.432 F1008.038
G0 Z3.000
G0 X125.495 Y112.020 Z3.000
G1 X125.495 Y112.020 Z-0.661 F499.998
G1 X125.609 Y112.016 Z-0.692 F1740.992
G1 X125.998 Y112.015 Z-0.777 F1796.100
G1 X126.527 Y112.001 Z-0.868 F1837.558
G1 X126.542 Y112.000 Z-0.869 F1833.034
G1 X126.579 Y111.999 Z-0.878 F1823.050
G1 X126.885 Y111.983 Z-0.928 F1844.079
G1 X126.937 Y111.979 Z-0.936 F1821.068
G1 X127.246 Y111.953 Z-1.007 F1792.037
G1 X127.318 Y111.945 Z-1.023 F1760.805
G1 X127.460 Y111.927 Z-1.068 F1726.408
G1 X127.561 Y111.913 Z-1.096 F1743.648
G1 X127.741 Y111.878 Z-1.159 F1669.802
G1 X127.868 Y111.847 Z-1.220 F1600.671
G1 X127.873 Y111.837 Z-1.206 F1210.281
G1 X127.877 Y111.826 Z-1.194 F1213.282
G1 X127.925 Y111.704 Z-1.055 F1229.873
G1 X127.982 Y111.542 Z-0.908 F1315.001
G1 X128.016 Y111.433 Z-0.828 F1433.335
G1 X128.057 Y111.286 Z-0.762 F1598.406
G1 X128.079 Y111.199 Z-0.740 F1797.870
G1 X128.088 Y111.149 Z-0.739 F1910.240
G1 X128.106 Y111.073 Z-0.741 F1976.703
G1 X128.140 Y110.949 Z-0.771 F1781.106
G1 X128.156 Y110.881 Z-0.799 F1610.325
G1 X128.163 Y110.850 Z-0.816 F1550.858
G1 X128.206 Y110.691 Z-0.920 F1465.200
G1 X128.239 Y110.591 Z-1.004 F1355.849
G1 X128.325 Y110.373 Z-1.231 F1264.873
G1 X128.265 Y110.230 Z-1.182 F1715.887
G1 X128.224 Y110.124 Z-1.154 F1764.400
G1 X128.208 Y110.078 Z-1.144 F1811.194
G1 X128.189 Y110.027 Z-1.135 F1835.047
G1 X128.005 Y109.547 Z-1.059 F1859.847
G1 X127.975 Y109.463 Z-1.049 F1901.777
G1 X127.944 Y109.367 Z-1.043 F1942.912
G1 X127.935 Y109.341 Z-1.042 F1958.072
G1 X127.759 Y108.827 Z-1.025 F1969.442
G1 X127.674 Y108.581 Z-1.016 F1966.279
G1 X127.666 Y108.560 Z-1.015 F1979.051
G1 X127.576 Y108.309 Z-1.012 F1989.246
G1 X127.383 Y107.794 Z-0.994 F1968.428
G1 X127.375 Y107.772 Z-0.992 F1979.377
G1 X127.223 Y107.384 Z-0.990 F1991.512
G1 X127.104 Y107.086 Z-0.983 F1980.066
G1 X127.088 Y107.047 Z-0.983 F1995.489
G1 X126.864 Y106.526 Z-0.997 F1977.107
G1 X126.835 Y106.463 Z-1.000 F1939.627
G1 X126.752 Y106.290 Z-1.019 F1907.774
G1 X126.688 Y106.169 Z-1.042 F1841.560
G1 X126.628 Y106.066 Z-1.071 F1778.420
G1 X126.486 Y105.858 Z-1.191 F1573.667
G1 X126.311 Y105.664 Z-1.311 F1587.465
G1 X126.239 Y105.593 Z-1.380 F1430.090
G1 X126.077 Y105.448 Z-1.543 F1384.132
G0 Z3.000
G0 X121.568 Y105.540 Z3.000
G1 X121.568 Y105.540 Z-1.131 F499.998
G1 X121.718 Y105.561 Z-1.081 F1699.569
G1 X121.817 Y105.572 Z-1.052 F1739.994
G1 X122.070 Y105.593 Z-0.996 F1785.342
G1 X122.166 Y105.599 Z-0.976 F1829.134
G1 X122.245 Y105.600 Z-0.969 F1877.557
G1 X122.287 Y105.602 Z-0.964 F1896.388
G1 X122.797 Y105.628 Z-0.921 F1919.226
G1 X122.855 Y105.631 Z-0.915 F1949.389
G1 X123.490 Y105.639 Z-0.905 F1980.738
G1 X123.507 Y105.639 Z-0.905 F1994.425
G1 X123.612 Y105.642 Z-0.905 F1999.998
G1 X123.658 Y105.642 Z-0.905 F1977.342
G1 X124.399 Y105.638 Z-0.945 F1949.892
G1 X124.404 Y105.638 Z-0.945 F1943.949
G1 X124.425 Y105.638 Z-0.947 F1928.119
G1 X124.467 Y105.638 Z-0.949 F1881.416
G1 X125.068 Y105.621 Z-1.041 F1860.319
G1 X125.190 Y105.613 Z-1.065 F1803.664
G1 X125.209 Y105.611 Z-1.072 F1734.414
G1 X125.232 Y105.609 Z-1.079 F1703.991
G1 X125.417 Y105.593 Z-1.140 F1695.681
G1 X125.672 Y105.554 Z-1.252 F1601.604
G1 X125.748 Y105.537 Z-1.298 F1517.814
G1 X125.795 Y105.526 Z-1.323 F1504.154
G1 X125.888 Y105.503 Z-1.388 F1444.798
G1 X126.075 Y105.449 Z-1.540 F1361.860
G1 X126.077 Y105.448 Z-1.543 F1350.699
G1 X126.086 Y105.396 Z-1.494 F1294.765
G1 X126.097 Y105.322 Z-1.428 F1301.725
G1 X126.123 Y104.925 Z-1.122 F1377.015
G1 X126.121 Y104.853 Z-1.080 F1475.350
G1 X126.120 Y104.845 Z-1.074 F1479.085
G1 X126.120 Y104.845 Z-1.075 F1562.958
G1 X126.095 Y104.599 Z-0.952 F1566.237
G1 X126.080 Y104.517 Z-0.923 F1663.521
G1 X126.043 Y104.356 Z-0.875 F1743.037
G1 X125.978 Y104.135 Z-0.834 F1824.601
G1 X125.950 Y104.049 Z-0.822 F1876.127
G1 X125.808 Y103.654 Z-0.789 F1924.926
G1 X125.799 Y103.629 Z-0.786 F1944.960
G1 X125.566 Y103.018 Z-0.757 F1955.202
G1 X125.560 Y103.003 Z-0.756 F1963.979
G1 X125.154 Y101.973 Z-0.726 F1974.307
G1 X125.150 Y101.961 Z-0.726 F1985.511
G1 X124.957 Y101.458 Z-0.721 F1990.232
G1 X124.953 Y101.446 Z-0.719 F1999.998
G1 X124.728 Y100.877 Z-0.725 F1992.662
G1 X124.723 Y100.863 Z-0.726 F1979.741
G1 X124.400 Y100.019 Z-0.750 F1974.535
G1 X124.392 Y99.999 Z-0.750 F1960.165
G1 X124.379 Y99.968 Z-0.753 F1946.927
G1 X124.371 Y99.946 Z-0.754 F1937.144
G1 X124.215 Y99.537 Z-0.790 F1922.119
G1 X124.201 Y99.501 Z-0.793 F1894.640
G1 X124.147 Y99.371 Z-0.812 F1876.874
G1 X124.091 Y99.252 Z-0.839 F1803.499
G1 X124.076 Y99.223 Z-0.849 F1734.545
G1 X124.065 Y99.201 Z-0.856 F1720.673
G1 X124.059 Y99.190 Z-0.860 F1695.620
G1 X123.971 Y99.037 Z-0.937 F1606.745
G0 Z3.000
G0 X121.973 Y95.702 Z3.000
G1 X121.973 Y95.702 Z-1.534 F499.998
G1 X121.804 Y96.041 Z-1.481 F1867.727
G1 X121.364 Y97.140 Z-1.488 F1992.577
G1 X120.519 Y99.291 Z-1.486 F1999.089
G1 X118.835 Y103.576 Z-1.481 F1998.899
G1 X118.832 Y103.585 Z-1.481 F1999.998
G1 X117.533 Y106.846 Z-1.504 F1993.605
G1 X117.532 Y106.851 Z-1.504 F1979.513
G1 X117.157 Y107.796 Z-1.515 F1990.235
G1 X117.150 Y107.813 Z-1.515 F1984.303
G1 X116.587 Y109.202 Z-1.551 F1976.747
G1 X116.577 Y109.227 Z-1.552 F1968.401
G1 X116.301 Y109.885 Z-1.583 F1958.760
G1 X116.296 Y109.897 Z-1.587 F1956.615
G1 X116.170 Y110.202 Z-1.601 F1949.451
G1 X116.148 Y110.254 Z-1.605 F1928.948
G1 X115.900 Y110.816 Z-1.665 F1908.445
G1 X115.892 Y110.835 Z-1.669 F1904.161
G1 X115.879 Y110.865 Z-1.670 F1893.008
G1 X115.835 Y110.963 Z-1.686 F1859.681
G1 X115.776 Y111.085 Z-1.712 F1822.045
G1 X115.760 Y111.118 Z-1.722 F1811.533
G1 X115.746 Y111.148 Z-1.726 F1799.694
G1 X115.729 Y111.183 Z-1.735 F1789.156
G1 X115.668 Y111.309 Z-1.781 F1694.545
G1 X115.660 Y111.326 Z-1.792 F1614.932
G1 X115.654 Y111.339 Z-1.796 F1602.903
G0 Z3.000
G0 X118.762 Y110.819 Z3.000
G1 X118.762 Y110.819 Z0.432 F499.998
G1 X119.168 Y110.721 Z-0.286 F1002.742
G1 X119.160 Y110.671 Z-0.285 F1963.739
G1 X119.153 Y110.619 Z-0.286 F1989.044
G0 Z3.000
G0 X118.734 Y110.619 Z3.000
G1 X118.734 Y110.619 Z0.433 F499.998
G1 X119.153 Y110.619 Z-0.285 F1004.460
G1 X119.153 Y110.565 Z-0.273 F1782.540
G1 X119.155 Y110.544 Z-0.266 F1697.775
G1 X119.162 Y110.477 Z-0.249 F1765.019
G1 X119.176 Y110.378 Z-0.231 F1825.907
G1 X119.185 Y110.328 Z-0.219 F1776.736
G1 X119.198 Y110.272 Z-0.209 F1838.810
G1 X119.296 Y109.891 Z-0.167 F1899.294
G1 X119.305 Y109.859 Z-0.165 F1943.486
G1 X119.336 Y109.759 Z-0.163 F1981.709
G1 X119.474 Y109.346 Z-0.140 F1949.366
G1 X119.479 Y109.333 Z-0.140 F1964.886
G1 X119.614 Y108.950 Z-0.131 F1979.095
G1 X119.720 Y108.667 Z-0.117 F1955.442
G1 X119.723 Y108.660 Z-0.117 F1962.734
G1 X119.964 Y108.035 Z-0.102 F1979.326
G1 X119.994 Y107.956 Z-0.100 F1979.619
G1 X119.999 Y107.946 Z-0.100 F1991.980
G1 X120.255 Y107.318 Z-0.107 F1990.841
G1 X120.262 Y107.303 Z-0.107 F1964.706
G1 X120.401 Y106.985 Z-0.125 F1949.981
G1 X120.404 Y106.980 Z-0.124 F1951.207
G1 X120.473 Y106.818 Z-0.138 F1934.989
G1 X120.483 Y106.796 Z-0.140 F1897.705
G1 X120.563 Y106.628 Z-0.165 F1875.429
G1 X120.580 Y106.594 Z-0.172 F1826.895
G1 X120.639 Y106.485 Z-0.201 F1779.000
G1 X120.681 Y106.417 Z-0.227 F1703.981
G1 X120.762 Y106.299 Z-0.285 F1629.942
G1 X120.819 Y106.224 Z-0.332 F1557.087
G1 X120.920 Y106.107 Z-0.422 F1496.204
G1 X121.000 Y106.023 Z-0.500 F1437.129
G1 X121.143 Y105.887 Z-0.648 F1385.062
G1 X121.145 Y105.886 Z-0.650 F1382.506
G1 X121.153 Y105.879 Z-0.657 F1376.787
G1 X121.225 Y105.815 Z-0.738 F1339.048
G1 X121.433 Y105.643 Z-0.972 F1314.757
G1 X121.519 Y105.576 Z-1.072 F1291.409
G1 X121.568 Y105.540 Z-1.131 F1270.406
G1 X121.528 Y105.457 Z-1.017 F1150.298
G1 X121.453 Y105.280 Z-0.790 F1170.141
G1 X121.382 Y105.087 Z-0.558 F1193.920
G1 X121.316 Y104.826 Z-0.296 F1262.992
G1 X121.303 Y104.727 Z-0.217 F1363.963
G1 X121.299 Y104.572 Z-0.120 F1461.238
G1 X121.299 Y104.566 Z-0.117 F1609.213
G1 X121.319 Y104.456 Z-0.087 F1745.996
G1 X121.345 Y104.358 Z-0.075 F1890.107
G1 X121.354 Y104.332 Z-0.073 F1929.817
G1 X121.413 Y104.147 Z-0.066 F1965.607
G1 X121.417 Y104.137 Z-0.066 F1982.277
G1 X121.618 Y103.550 Z-0.064 F1997.535
G1 X121.621 Y103.544 Z-0.064 F1986.537
G1 X121.633 Y103.506 Z-0.065 F1980.848
G1 X121.988 Y102.516 Z-0.084 F1982.378
G1 X122.226 Y101.879 Z-0.082 F1996.768
G1 X122.230 Y101.874 Z-0.082 F1984.484
G1 X122.383 Y101.472 Z-0.088 F1986.903
G1 X122.771 Y100.496 Z-0.081 F1993.271
G1 X122.868 Y100.266 Z-0.072 F1966.740
G1 X122.872 Y100.258 Z-0.072 F1977.270
G1 X123.098 Y99.735 Z-0.066 F1990.112
G1 X123.105 Y99.724 Z-0.066 F1992.778
G1 X123.108 Y99.712 Z-0.066 F1960.805
G1 X123.173 Y99.575 Z-0.070 F1977.880
G1 X123.199 Y99.526 Z-0.076 F1903.647
G1 X123.231 Y99.471 Z-0.086 F1846.058
G1 X123.372 Y99.307 Z-0.338 F1176.866
G1 X123.582 Y99.171 Z-0.595 F1239.370
G1 X123.761 Y99.097 Z-0.766 F1307.865
G1 X123.971 Y99.037 Z-0.937 F1363.698
G1 X124.010 Y98.558 Z-0.653 F1490.124
G1 X124.010 Y98.555 Z-0.651 F1490.417
G1 X124.014 Y98.515 Z-0.630 F1528.616
G1 X124.014 Y98.508 Z-0.626 F1565.758
G1 X124.057 Y98.036 Z-0.398 F1572.050
G1 X124.059 Y97.999 Z-0.381 F1601.194
G1 X124.060 Y97.982 Z-0.375 F1647.370
G1 X124.063 Y97.946 Z-0.363 F1704.135
G1 X124.090 Y97.645 Z-0.277 F1732.452
G1 X124.094 Y97.558 Z-0.257 F1816.586
G1 X124.093 Y97.558 Z-0.259 F1807.698
G1 X124.093 Y97.550 Z-0.259 F1912.931
G1 X124.091 Y97.318 Z-0.239 F1919.051
G1 X124.076 Y97.175 Z-0.248 F1927.086
G1 X124.075 Y97.168 Z-0.252 F1782.176
G1 X124.047 Y97.069 Z-0.260 F1922.222
G1 X124.017 Y96.989 Z-0.255 F1947.275
G1 X124.012 Y96.976 Z-0.253 F1959.296
G1 X123.948 Y96.870 Z-0.250 F1972.242
G1 X123.944 Y96.865 Z-0.250 F1999.998
G1 X123.841 Y96.741 Z-0.250 F1994.068
G1 X123.813 Y96.710 Z-0.247 F1920.753
G1 X123.758 Y96.656 Z-0.247 F1993.792
G1 X123.573 Y96.490 Z-0.269 F1915.675
G1 X123.560 Y96.478 Z-0.271 F1891.790
G1 X123.433 Y96.369 Z-0.292 F1880.933
G1 X123.422 Y96.359 Z-0.294 F1864.083
G1 X123.104 Y96.076 Z-0.361 F1850.474
G1 X123.042 Y96.026 Z-0.380 F1782.496
G1 X123.004 Y95.998 Z-0.398 F1648.126
G1 X122.762 Y95.861 Z-0.664 F1271.539
G1 X122.386 Y95.755 Z-0.989 F1336.760
G1 X122.292 Y95.739 Z-1.106 F1154.232
G1 X121.973 Y95.702 Z-1.534 F1115.145
G1 X121.932 Y95.274 Z-1.189 F1354.284
G1 X121.925 Y95.189 Z-1.123 F1373.574
G1 X121.892 Y94.591 Z-0.682 F1394.441
G1 X121.892 Y94.580 Z-0.674 F1380.362
G1 X121.891 Y94.564 Z-0.662 F1388.175
G1 X121.877 Y94.069 Z-0.294 F1390.019
G1 X121.853 Y93.699 Z0.002 F1356.600
G1 X121.852 Y93.679 Z0.019 F1334.915
G1 X121.826 Y93.434 Z0.247 F1287.841
G1 X121.825 Y93.406 Z0.274 F1246.025
G1 X121.814 Y93.340 Z0.353 F1171.384
G1 X121.790 Y93.293 Z0.433 F1066.515
G0 Z3.000
G0 X121.831 Y93.295 Z3.000
G1 X121.831 Y93.295 Z0.432 F499.998
G1 X121.814 Y93.340 Z0.354 F1033.404
G0 Z3.000
G0 X121.825 Y93.406 Z3.000
G1 X121.825 Y93.406 Z0.274 F499.998
G1 X121.890 Y93.341 Z0.432 F1003.085
G0 Z3.000
G0 X126.462 Y93.933 Z3.000
G1 X126.462 Y93.933 Z0.432 F499.998
G1 X126.780 Y94.034 Z-0.131 F1010.010
G1 X126.827 Y94.079 Z-0.221 F1099.747
G1 X126.443 Y94.108 Z0.432 F1008.853
G0 Z3.000
G0 X126.490 Y94.285 Z3.000
G1 X126.490 Y94.285 Z0.432 F499.998
G1 X126.883 Y94.115 Z-0.299 F1005.531
G1 X126.827 Y94.079 Z-0.222 F1176.533
G0 Z3.000
G0 X126.780 Y94.034 Z3.000
G1 X126.780 Y94.034 Z-0.132 F499.998
G1 X126.729 Y93.962 Z0.006 F1043.788
G1 X126.645 Y93.859 Z0.219 F1032.103
G0 Z3.000
G0 X126.594 Y93.745 Z3.000
G1 X126.594 Y93.745 Z0.432 F499.998
G1 X126.645 Y93.859 Z0.219 F1005.662
G1 X126.553 Y93.770 Z0.432 F1016.991
G0 Z3.000
G0 X126.883 Y94.115 Z3.000
G1 X126.883 Y94.115 Z-0.299 F499.998
G1 X126.975 Y94.157 Z-0.397 F1266.734
G1 X126.597 Y94.457 Z0.433 F1002.937
G0 Z3.000
G0 X126.756 Y94.616 Z3.000
G1 X126.756 Y94.616 Z0.433 F499.998
G1 X127.096 Y94.201 Z-0.492 F1001.996
G1 X126.992 Y94.162 Z-0.411 F1400.421
G1 X126.975 Y94.157 Z-0.397 F1357.407
G0 Z3.000
G0 X127.096 Y94.201 Z3.000
G1 X127.096 Y94.201 Z-0.492 F499.998
G1 X127.245 Y94.239 Z-0.580 F1503.050
G1 X127.413 Y94.268 Z-0.653 F1616.888
G1 X127.641 Y94.287 Z-0.719 F1732.368
G1 X127.833 Y94.300 Z-0.769 F1758.097
G1 X128.174 Y94.331 Z-0.845 F1791.784
G1 X128.268 Y94.343 Z-0.871 F1743.431
G1 X128.764 Y94.420 Z-1.036 F1696.255
G1 X128.892 Y94.445 Z-1.087 F1643.073
G1 X128.998 Y94.339 Z-0.913 F1172.851
G1 X129.042 Y94.300 Z-0.847 F1192.322
G1 X129.119 Y94.234 Z-0.733 F1196.901
G1 X129.376 Y94.057 Z-0.477 F1343.969
G1 X129.533 Y93.990 Z-0.321 F1292.883
G1 X129.627 Y93.960 Z-0.272 F1557.235
G1 X129.781 Y93.926 Z-0.218 F1682.351
G1 X129.934 Y93.908 Z-0.190 F1831.532
G1 X129.987 Y93.905 Z-0.185 F1898.847
G1 X130.213 Y93.896 Z-0.175 F1959.969
G1 X130.243 Y93.895 Z-0.175 F1993.646
G1 X130.335 Y93.896 Z-0.178 F1968.733
G1 X130.957 Y93.904 Z-0.189 F1982.949
G1 X130.965 Y93.904 Z-0.189 F1977.301
G1 X131.696 Y93.923 Z-0.217 F1964.124
G1 X132.044 Y93.936 Z-0.223 F1982.698
G1 X132.277 Y93.981 Z-0.445 F1282.580
G1 X132.512 Y94.100 Z-0.670 F1324.816
G1 X132.679 Y94.232 Z-0.831 F1380.381
G1 X132.845 Y94.402 Z-0.993 F1430.676
G1 X132.890 Y94.398 Z-0.986 F1795.765
G1 X133.119 Y94.379 Z-0.928 F1766.078
G1 X133.492 Y94.344 Z-0.826 F1746.313
G1 X133.766 Y94.297 Z-0.716 F1637.222
G1 X134.079 Y94.884 Z0.432 F1001.597
G0 Z3.000
G0 X134.357 Y94.703 Z3.000
G1 X134.357 Y94.703 Z0.432 F499.998
G1 X133.981 Y94.248 Z-0.583 F1002.681
G1 X134.042 Y94.227 Z-0.533 F1365.392
G1 X134.110 Y94.208 Z-0.471 F1307.420
G1 X134.324 Y93.727 Z0.432 F1005.111
G0 Z3.000
G0 X134.546 Y93.895 Z3.000
G1 X134.546 Y93.895 Z0.433 F499.998
G1 X134.205 Y94.196 Z-0.351 F1002.438
G1 X134.195 Y94.199 Z-0.366 F1079.499
G1 X134.613 Y94.399 Z0.433 F1001.921
G0 Z3.000
G0 X134.651 Y94.294 Z3.000
G1 X134.651 Y94.294 Z0.432 F499.998
G1 X134.235 Y94.192 Z-0.305 F1002.502
G1 X134.251 Y94.188 Z-0.279 F1031.436
G1 X134.613 Y93.989 Z0.432 F1003.217
G0 Z3.000
G0 X134.653 Y94.087 Z3.000
G1 X134.653 Y94.087 Z0.433 F499.998
G1 X134.269 Y94.186 Z-0.248 F1003.680
G1 X134.251 Y94.188 Z-0.278 F1013.355
G0 Z3.000
G0 X134.235 Y94.192 Z3.000
G1 X134.235 Y94.192 Z-0.305 F499.998
G1 X134.205 Y94.196 Z-0.351 F1052.722
G0 Z3.000
G0 X134.195 Y94.199 Z3.000
G1 X134.195 Y94.199 Z-0.366 F499.998
G1 X134.161 Y94.204 Z-0.411 F1113.765
G0 Z3.000
G0 X134.110 Y94.208 Z3.000
G1 X134.110 Y94.208 Z-0.471 F499.998
G1 X134.146 Y94.204 Z-0.431 F1206.138
G1 X134.161 Y94.204 Z-0.412 F1160.147
G1 X134.550 Y94.503 Z0.432 F1002.550
G0 Z3.000
G0 X134.665 Y94.189 Z3.000
G1 X134.665 Y94.189 Z0.433 F499.998
G1 X134.269 Y94.186 Z-0.247 F1003.360
G0 Z3.000
G0 X133.981 Y94.248 Z3.000
G1 X133.981 Y94.248 Z-0.582 F499.998
G1 X133.788 Y94.291 Z-0.701 F1483.983
G1 X133.766 Y94.297 Z-0.713 F1522.796
G0 Z3.000
G0 X132.845 Y94.402 Z3.000
G1 X132.845 Y94.402 Z-0.993 F499.998
G1 X132.825 Y94.425 Z-0.962 F1254.118
G1 X132.764 Y94.491 Z-0.880 F1293.151
G1 X132.535 Y94.697 Z-0.669 F1425.968
G1 X132.477 Y94.739 Z-0.639 F1619.540
G1 X132.356 Y94.817 Z-0.606 F1786.125
G1 X132.256 Y94.872 Z-0.592 F1878.863
G1 X132.189 Y94.913 Z-0.589 F1934.776
G1 X131.993 Y95.039 Z-0.583 F1988.086
G1 X131.914 Y95.094 Z-0.592 F1943.696
G1 X131.747 Y95.224 Z-0.616 F1877.039
G1 X131.687 Y95.273 Z-0.633 F1824.479
G1 X131.673 Y95.285 Z-0.636 F1753.003
G1 X131.655 Y95.301 Z-0.645 F1712.930
G1 X131.511 Y95.432 Z-0.706 F1701.326
G1 X131.458 Y95.483 Z-0.735 F1663.348
G1 X131.410 Y95.531 Z-0.767 F1561.842
G1 X131.392 Y95.550 Z-0.784 F1493.500
G1 X131.260 Y95.689 Z-0.897 F1484.702
G1 X131.237 Y95.714 Z-0.920 F1471.361
G1 X131.146 Y95.814 Z-1.020 F1382.005
G1 X131.094 Y95.873 Z-1.093 F1301.274
G1 X130.995 Y95.989 Z-1.232 F1284.576
G1 X130.959 Y96.031 Z-1.285 F1277.737
G1 X130.871 Y96.131 Z-1.422 F1233.189
G0 Z3.000
G0 X128.892 Y94.445 Z3.000
G1 X128.892 Y94.445 Z-1.087 F499.998
G1 X128.896 Y94.450 Z-1.082 F1320.102
G1 X129.100 Y94.722 Z-0.838 F1404.425
G1 X129.181 Y94.810 Z-0.772 F1517.898
G1 X129.212 Y94.843 Z-0.748 F1534.686
G1 X129.289 Y94.920 Z-0.708 F1659.977
G1 X129.295 Y94.926 Z-0.706 F1785.030
G1 X129.404 Y95.039 Z-0.671 F1791.275
G1 X129.446 Y95.080 Z-0.659 F1825.390
G1 X129.623 Y95.246 Z-0.626 F1866.063
G1 X129.629 Y95.252 Z-0.624 F1871.699
G1 X129.682 Y95.300 Z-0.623 F1970.398
G1 X129.704 Y95.322 Z-0.626 F1912.328
G1 X129.826 Y95.440 Z-0.645 F1892.411
G1 X129.923 Y95.526 Z-0.671 F1810.084
G1 X130.061 Y95.635 Z-0.722 F1731.239
G1 X130.075 Y95.645 Z-0.728 F1722.868
G1 X130.153 Y95.705 Z-0.769 F1610.321
G1 X130.223 Y95.757 Z-0.822 F1487.300
G1 X130.366 Y95.854 Z-0.933 F1454.542
G1 X130.603 Y95.991 Z-1.141 F1378.912
G1 X130.650 Y96.014 Z-1.187 F1316.485
G1 X130.761 Y96.072 Z-1.300 F1296.149
G1 X130.778 Y96.081 Z-1.319 F1273.388
G1 X130.871 Y96.131 Z-1.422 F1260.002
G1 X130.948 Y96.392 Z-1.332 F1690.161
G1 X131.029 Y96.611 Z-1.280 F1791.043
G1 X131.044 Y96.654 Z-1.270 F1806.325
G1 X131.056 Y96.688 Z-1.265 F1852.827
G1 X131.073 Y96.737 Z-1.260 F1905.637
G1 X131.275 Y97.281 Z-1.215 F1926.125
G1 X131.287 Y97.312 Z-1.214 F1942.389
G1 X131.294 Y97.331 Z-1.212 F1957.755
G1 X131.297 Y97.337 Z-1.211 F1953.753
G1 X131.896 Y98.884 Z-1.145 F1962.152
G1 X132.003 Y99.153 Z-1.131 F1950.506
G1 X132.009 Y99.168 Z-1.131 F1952.624
G1 X132.822 Y101.171 Z-1.051 F1965.248
G1 X132.824 Y101.175 Z-1.051 F1977.123
G1 X133.099 Y101.859 Z-1.027 F1968.804
G1 X133.103 Y101.867 Z-1.027 F1977.801
G1 X134.052 Y104.187 Z-0.967 F1977.260
G1 X134.056 Y104.196 Z-0.967 F1980.724
G1 X134.472 Y105.232 Z-0.952 F1987.515
G1 X134.500 Y105.296 Z-0.955 F1978.221
G1 X134.652 Y105.631 Z-0.977 F1940.110
G1 X134.717 Y105.759 Z-0.997 F1869.717
G1 X134.779 Y105.868 Z-1.024 F1798.874
G1 X134.865 Y106.005 Z-1.085 F1658.249
G1 X134.965 Y106.136 Z-1.145 F1664.487
G1 X135.011 Y106.192 Z-1.183 F1540.253
G1 X135.285 Y106.464 Z-1.538 F1288.968
G1 X135.821 Y106.817 Z-2.069 F1340.749
G1 X135.816 Y107.298 Z-1.744 F1432.632
G1 X135.816 Y107.301 Z-1.743 F1441.296
G1 X135.795 Y109.069 Z-0.550 F1433.468
G1 X135.810 Y109.265 Z-0.476 F1656.439
G1 X135.858 Y109.448 Z-0.402 F1643.230
G1 X135.993 Y109.813 Z-0.379 F1944.600
G1 X136.167 Y110.271 Z-0.343 F1929.481
G1 X136.409 Y110.196 Z-0.042 F1164.909
G1 X136.545 Y110.157 Z0.236 F949.202
G1 X136.572 Y110.150 Z0.329 F777.714
G1 X136.589 Y110.146 Z0.422 F683.722
G1 X136.598 Y110.144 Z0.433 F1005.261
G0 Z3.000
G0 X136.167 Y110.271 Z3.000
G1 X136.167 Y110.271 Z-0.344 F499.998
G1 X136.181 Y110.307 Z-0.342 F1933.609
G1 X136.424 Y110.900 Z-0.320 F1969.940
G1 X136.446 Y110.949 Z-0.323 F1983.806
G1 X136.535 Y111.134 Z-0.337 F1929.508
G1 X136.568 Y111.195 Z-0.346 F1870.163
G1 X136.599 Y111.249 Z-0.359 F1805.110
G1 X136.692 Y111.382 Z-0.417 F1678.478
G1 X136.711 Y111.404 Z-0.431 F1565.289
G1 X136.735 Y111.430 Z-0.449 F1544.542
G1 X136.942 Y111.610 Z-0.643 F1413.261
G1 X137.107 Y111.497 Z-0.496 F1394.470
G1 X137.240 Y111.369 Z-0.349 F1356.734
G1 X137.303 Y111.284 Z-0.306 F1629.313
G1 X137.318 Y111.261 Z-0.299 F1715.749
G1 X137.363 Y111.185 Z-0.277 F1794.244
G1 X137.393 Y111.126 Z-0.271 F1879.623
G1 X137.410 Y111.092 Z-0.267 F1916.204
G1 X137.512 Y110.868 Z-0.256 F1954.323
G1 X137.519 Y110.853 Z-0.254 F1969.968
G1 X137.648 Y110.556 Z-0.251 F1987.612
G1 X137.868 Y110.039 Z-0.236 F1974.547
G1 X137.873 Y110.030 Z-0.234 F1981.313
G1 X138.697 Y108.022 Z-0.228 F1996.478
G1 X138.962 Y107.366 Z-0.219 F1988.400
G1 X138.964 Y107.363 Z-0.217 F1999.998
G1 X140.050 Y104.645 Z-0.206 F1995.528
G1 X141.338 Y101.394 Z-0.168 F1989.841
G1 X141.580 Y100.791 Z-0.157 F1983.666
G1 X141.580 Y100.791 Z-0.157 F1999.998
G1 X142.169 Y99.322 Z-0.133 F1985.402
G1 X142.229 Y99.173 Z-0.129 F1976.766
G1 X142.233 Y99.167 Z-0.129 F1985.796
G1 X142.760 Y97.907 Z-0.120 F1993.567
G1 X142.767 Y97.894 Z-0.120 F1986.973
G1 X142.823 Y97.766 Z-0.125 F1969.239
G1 X143.200 Y96.941 Z-0.139 F1984.744
G1 X143.209 Y96.923 Z-0.140 F1957.101
G1 X143.341 Y96.656 Z-0.161 F1932.347
G1 X143.399 Y96.544 Z-0.166 F1962.336
G1 X143.410 Y96.524 Z-0.168 F1939.257
G1 X143.590 Y96.202 Z-0.201 F1913.660
G1 X143.605 Y96.176 Z-0.205 F1876.247
G1 X143.758 Y95.927 Z-0.252 F1847.457
G1 X143.776 Y95.901 Z-0.255 F1904.230
G1 X143.800 Y95.867 Z-0.261 F1860.311
G1 X143.971 Y95.635 Z-0.316 F1821.591
G1 X144.005 Y95.593 Z-0.329 F1771.756
G1 X144.077 Y95.507 Z-0.362 F1725.942
G1 X144.184 Y95.397 Z-0.388 F1837.292
G1 X144.230 Y95.353 Z-0.403 F1785.097
G1 X144.301 Y95.290 Z-0.430 F1731.963
G1 X144.424 Y95.191 Z-0.461 F1817.769
G1 X144.478 Y95.150 Z-0.478 F1769.470
G1 X144.684 Y95.005 Z-0.555 F1717.006
G1 X144.739 Y94.969 Z-0.578 F1678.641
G1 X144.935 Y94.847 Z-0.669 F1637.265
G1 X144.964 Y94.829 Z-0.682 F1619.631
G1 X145.030 Y94.785 Z-0.726 F1529.482
G1 X145.269 Y94.592 Z-0.966 F1364.065
G1 X145.569 Y94.571 Z-0.894 F1769.929
G1 X145.588 Y94.570 Z-0.889 F1779.770
G1 X145.866 Y94.555 Z-0.827 F1789.657
G1 X145.929 Y94.555 Z-0.807 F1714.168
G1 X146.176 Y94.546 Z-0.719 F1671.559
G1 X146.297 Y94.535 Z-0.665 F1601.372
G1 X146.342 Y94.535 Z-0.640 F1507.310
G1 X146.379 Y94.532 Z-0.613 F1418.450
G1 X146.450 Y94.572 Z-0.493 F1068.201
G1 X146.986 Y94.615 Z0.431 F1002.812
G0 Z3.000
G0 X146.956 Y94.768 Z3.000
G1 X146.956 Y94.768 Z0.432 F499.998
G1 X146.509 Y94.605 Z-0.383 F1004.866
G0 Z3.000
G0 X146.452 Y94.573 Z3.000
G1 X146.452 Y94.573 Z-0.489 F499.998
G1 X146.450 Y94.572 Z-0.493 F1037.532
G0 Z3.000
G0 X146.379 Y94.532 Z3.000
G1 X146.379 Y94.532 Z-0.614 F499.998
G1 X146.399 Y94.517 Z-0.579 F1084.765
G1 X146.431 Y94.497 Z-0.523 F1063.016
G1 X146.486 Y94.456 Z-0.416 F1045.519
G0 Z3.000
G0 X146.491 Y94.453 Z3.000
G1 X146.491 Y94.453 Z-0.406 F499.998
G1 X146.531 Y94.424 Z-0.324 F1013.506
G0 Z3.000
G0 X146.918 Y94.216 Z3.000
G1 X146.918 Y94.216 Z0.433 F499.998
G1 X146.531 Y94.424 Z-0.323 F1003.263
G1 X146.853 Y94.125 Z0.433 F1003.528
G0 Z3.000
G0 X146.758 Y94.046 Z3.000
G1 X146.758 Y94.046 Z0.432 F499.998
G1 X146.486 Y94.456 Z-0.414 F1002.977
G1 X146.491 Y94.453 Z-0.406 F1027.195
G1 X146.958 Y94.320 Z0.431 F1001.747
G0 Z3.000
G0 X146.884 Y94.898 Z3.000
G1 X146.884 Y94.898 Z0.432 F499.998
G1 X146.509 Y94.605 Z-0.383 F1005.050
G1 X146.452 Y94.573 Z-0.489 F1020.701
G1 X146.766 Y95.008 Z0.433 F1003.078
G0 Z3.000
G0 X147.751 Y94.510 Z3.000
G1 X147.751 Y94.510 Z0.433 F499.998
G1 X147.924 Y94.393 Z0.074 F1002.993
G1 X147.869 Y94.387 Z0.154 F1078.280
G0 Z3.000
G0 X147.861 Y94.388 Z3.000
G1 X147.861 Y94.388 Z0.166 F499.998
G1 X147.869 Y94.387 Z0.153 F1040.216
G1 X147.727 Y94.305 Z0.432 F1008.949
G0 Z3.000
G0 X147.703 Y94.369 Z3.000
G1 X147.703 Y94.369 Z0.433 F499.998
G1 X147.861 Y94.388 Z0.167 F1013.900
G1 X147.711 Y94.435 Z0.432 F1009.245
G0 Z3.000
G0 X147.924 Y94.393 Z3.000
G1 X147.924 Y94.393 Z0.074 F499.998
G1 X147.948 Y94.393 Z0.042 F1116.873
G1 X148.215 Y94.414 Z-0.288 F1150.862
G1 X147.922 Y94.713 Z0.433 F1002.177
G0 Z3.000
G0 X148.108 Y94.863 Z3.000
G1 X148.108 Y94.863 Z0.432 F499.998
G1 X148.397 Y94.416 Z-0.484 F1002.259
G1 X148.292 Y94.413 Z-0.373 F1234.182
G1 X148.215 Y94.414 Z-0.288 F1201.162
G0 Z3.000
G0 X148.397 Y94.416 Z3.000
G1 X148.397 Y94.416 Z-0.484 F499.998
G1 X148.407 Y94.416 Z-0.494 F1306.733
G1 X148.150 Y93.944 Z0.431 F1003.706
G0 Z3.000
G0 X148.334 Y93.868 Z3.000
G1 X148.334 Y93.868 Z0.433 F499.998
G1 X148.506 Y94.420 Z-0.563 F1002.153
G1 X148.407 Y94.416 Z-0.491 F1398.785
G0 Z3.000
G0 X148.506 Y94.420 Z3.000
G1 X148.506 Y94.420 Z-0.565 F499.998
G1 X148.601 Y94.432 Z-0.621 F1498.732
G1 X148.698 Y94.437 Z-0.665 F1591.194
G1 X148.848 Y94.454 Z-0.720 F1666.060
G1 X149.032 Y94.463 Z-0.767 F1759.893
G1 X149.151 Y94.472 Z-0.791 F1816.021
G1 X149.971 Y94.529 Z-0.935 F1833.723
G1 X150.034 Y94.535 Z-0.948 F1804.921
G1 X150.305 Y94.565 Z-1.014 F1773.434
G1 X150.375 Y94.573 Z-1.029 F1795.185
G1 X150.437 Y94.582 Z-1.045 F1768.884
G1 X150.733 Y94.630 Z-1.130 F1737.179
G1 X150.825 Y94.647 Z-1.160 F1701.362
G1 X151.080 Y94.702 Z-1.255 F1665.628
G1 X151.199 Y94.731 Z-1.306 F1623.108
G1 X151.206 Y94.740 Z-1.298 F1405.902
G1 X151.350 Y94.930 Z-1.151 F1471.486
G1 X151.454 Y95.050 Z-1.091 F1655.594
G1 X151.589 Y95.190 Z-1.065 F1873.190
G1 X151.635 Y95.233 Z-1.066 F1975.719
G1 X151.718 Y95.315 Z-1.084 F1860.184
G1 X151.840 Y95.445 Z-1.121 F1801.573
G1 X151.948 Y95.570 Z-1.181 F1669.259
G1 X152.046 Y95.707 Z-1.240 F1674.898
G1 X152.121 Y95.821 Z-1.308 F1561.171
G1 X152.122 Y95.822 Z-1.310 F1599.633
G1 X152.154 Y95.871 Z-1.338 F1560.000
G1 X152.244 Y96.020 Z-1.437 F1506.220
G1 X152.263 Y96.055 Z-1.462 F1459.899
G1 X153.343 Y95.530 Z0.432 F1039.155
G0 Z3.000
G0 X152.263 Y96.055 Z3.000
G1 X152.263 Y96.055 Z-1.462 F499.998
G1 X152.287 Y96.369 Z-1.435 F1918.890
G1 X152.292 Y96.433 Z-1.431 F1941.122
G1 X152.318 Y96.973 Z-1.413 F1968.731
G1 X152.319 Y97.006 Z-1.413 F1976.977
G1 X152.344 Y97.754 Z-1.406 F1991.706
G1 X152.345 Y97.777 Z-1.406 F1999.998
G1 X152.352 Y98.117 Z-1.410 F1989.617
G1 X152.372 Y99.505 Z-1.406 F1997.384
G1 X152.376 Y99.990 Z-1.399 F1985.621
G1 X152.376 Y100.003 Z-1.399 F1986.050
G1 X152.377 Y101.418 Z-1.392 F1995.813
G1 X152.366 Y103.310 Z-1.362 F1984.500
G1 X152.366 Y103.315 Z-1.362 F1981.779
G1 X152.344 Y105.817 Z-1.332 F1988.700
G1 X152.314 Y107.951 Z-1.285 F1978.974
G1 X152.314 Y107.986 Z-1.285 F1994.611
G1 X152.290 Y108.704 Z-1.292 F1990.556
G1 X152.265 Y109.348 Z-1.291 F1998.814
G1 X152.262 Y109.412 Z-1.293 F1976.061
G1 X152.247 Y109.614 Z-1.303 F1949.681
G1 X152.223 Y109.904 Z-1.312 F1970.782
G1 X152.215 Y109.984 Z-1.317 F1938.107
G1 X152.184 Y110.231 Z-1.343 F1903.495
G1 X152.163 Y110.370 Z-1.351 F1946.975
G1 X152.138 Y110.509 Z-1.366 F1893.240
G1 X152.122 Y110.581 Z-1.379 F1839.514
G1 X152.104 Y110.644 Z-1.383 F1937.835
G0 Z3.000
G0 X152.090 Y110.667 Z3.000
G1 X152.090 Y110.667 Z-1.376 F499.998
G1 X152.104 Y110.644 Z-1.387 F1649.339
G1 X152.177 Y110.684 Z-1.247 F1014.352
G1 X152.355 Y110.778 Z-0.908 F1012.668
G0 Z3.000
G0 X153.086 Y111.046 Z3.000
G1 X153.086 Y111.046 Z0.432 F499.998
G1 X152.355 Y110.778 Z-0.907 F1002.707
G1 X152.999 Y111.220 Z0.432 F1003.691
G0 Z3.000
G0 X152.182 Y112.033 Z3.000
G1 X152.182 Y112.033 Z-0.745 F499.998
G1 X152.159 Y111.852 Z-0.606 F1378.536
G1 X152.152 Y111.782 Z-0.571 F1554.864
G1 X152.136 Y111.560 Z-0.544 F1883.158
G1 X152.133 Y111.493 Z-0.561 F1750.666
G1 X152.133 Y111.493 Z-0.561 F1999.998
G1 X152.131 Y111.432 Z-0.581 F1669.726
G1 X152.118 Y111.240 Z-0.708 F1451.098
G1 X152.115 Y111.164 Z-0.776 F1297.907
G1 X152.112 Y110.968 Z-0.989 F1211.231
G1 X152.097 Y110.731 Z-1.290 F1137.198
G1 X152.090 Y110.667 Z-1.376 F1118.785
G1 X152.053 Y110.679 Z-1.318 F1096.117
G1 X151.878 Y110.745 Z-1.068 F1106.856
G1 X151.670 Y110.830 Z-0.795 F1162.513
G1 X151.611 Y110.855 Z-0.731 F1233.875
G1 X151.535 Y110.890 Z-0.645 F1247.848
G1 X151.406 Y110.957 Z-0.511 F1283.006
G1 X151.318 Y111.008 Z-0.436 F1403.880
G1 X151.266 Y111.038 Z-0.404 F1536.627
G1 X151.256 Y111.042 Z-0.399 F1575.393
G1 X151.097 Y111.146 Z-0.343 F1712.836
G1 X151.086 Y111.154 Z-0.338 F1867.354
G1 X151.045 Y111.186 Z-0.334 F1922.283
G1 X150.979 Y111.232 Z-0.344 F1880.280
G1 X150.905 Y111.291 Z-0.381 F1663.451
G1 X150.854 Y111.335 Z-0.408 F1597.896
G1 X150.815 Y111.371 Z-0.437 F1561.648
G1 X150.726 Y111.458 Z-0.523 F1407.159
G1 X150.692 Y111.492 Z-0.569 F1297.664
G1 X150.638 Y111.548 Z-0.640 F1283.001
G1 X150.539 Y111.663 Z-0.793 F1250.568
G1 X150.461 Y111.760 Z-0.934 F1184.345
G1 X150.419 Y111.816 Z-1.022 F1147.672
G0 Z3.000
G0 X148.687 Y111.849 Z3.000
G1 X148.687 Y111.849 Z-0.801 F499.998
G1 X148.675 Y111.860 Z-0.782 F1158.542
G1 X148.645 Y111.882 Z-0.735 F1139.455
G1 X148.554 Y111.962 Z-0.574 F1117.349
G0 Z3.000
G0 X148.364 Y112.097 Z3.000
G1 X148.364 Y112.097 Z-0.244 F499.998
G1 X148.554 Y111.962 Z-0.575 F1084.374
G1 X148.407 Y112.528 Z0.433 F1001.895
G0 Z3.000
G0 X148.171 Y112.442 Z3.000
G1 X148.171 Y112.442 Z0.432 F499.998
G1 X148.331 Y112.125 Z-0.178 F1002.920
G1 X148.364 Y112.097 Z-0.244 F1058.379
G1 X147.974 Y112.139 Z0.432 F1002.854
G0 Z3.000
G0 X147.995 Y112.242 Z3.000
G1 X147.995 Y112.242 Z0.432 F499.998
G1 X148.317 Y112.134 Z-0.150 F1004.770
G1 X148.302 Y112.148 Z-0.116 F1016.437
G1 X148.034 Y112.324 Z0.433 F1004.657
G0 Z3.000
G0 X148.091 Y112.389 Z3.000
G1 X148.091 Y112.389 Z0.433 F499.998
G1 X148.302 Y112.148 Z-0.117 F1003.535
G0 Z3.000
G0 X148.317 Y112.134 Z3.000
G1 X148.317 Y112.134 Z-0.152 F499.998
G1 X148.331 Y112.125 Z-0.178 F1032.563
G0 Z3.000
G0 X148.166 Y111.346 Z3.000
G1 X148.166 Y111.346 Z0.204 F499.998
G1 X148.248 Y111.421 Z0.039 F1066.608
G1 X148.315 Y111.492 Z-0.100 F1084.940
G1 X148.576 Y111.739 Z-0.591 F1103.029
G1 X148.687 Y111.849 Z-0.801 F1111.670
G1 X148.970 Y111.847 Z-0.850 F1841.703
G1 X149.503 Y111.833 Z-0.924 F1868.712
G1 X149.969 Y111.830 Z-0.973 F1898.592
G1 X150.160 Y111.826 Z-0.990 F1916.731
G1 X150.199 Y111.825 Z-0.994 F1897.665
G1 X150.419 Y111.816 Z-1.022 F1878.453
G1 X150.435 Y111.830 Z-0.999 F1211.078
G1 X150.500 Y111.885 Z-0.907 F1213.514
G1 X150.761 Y112.068 Z-0.605 F1274.128
G1 X150.824 Y112.104 Z-0.547 F1359.628
G1 X151.027 Y112.192 Z-0.405 F1452.053
G1 X151.091 Y112.213 Z-0.373 F1576.053
G1 X151.259 Y112.250 Z-0.316 F1702.101
G1 X151.326 Y112.258 Z-0.307 F1854.512
G1 X151.504 Y112.261 Z-0.312 F1975.322
G1 X151.572 Y112.255 Z-0.327 F1804.650
G1 X151.745 Y112.222 Z-0.391 F1659.060
G1 X151.811 Y112.204 Z-0.428 F1535.906
G1 X152.026 Y112.117 Z-0.589 F1419.994
G1 X152.092 Y112.083 Z-0.652 F1332.638
G1 X152.182 Y112.033 Z-0.743 F1303.420
G1 X152.363 Y112.105 Z-0.631 F1492.346
G1 X152.434 Y112.127 Z-0.596 F1583.804
G1 X152.664 Y112.175 Z-0.525 F1723.581
G1 X152.806 Y112.189 Z-0.509 F1886.518
G1 X152.849 Y112.192 Z-0.505 F1917.270
G1 X152.870 Y112.193 Z-0.504 F1951.438
G1 X153.103 Y112.201 Z-0.497 F1969.316
G1 X153.128 Y112.202 Z-0.496 F1984.234
G1 X153.920 Y112.210 Z-0.502 F1993.367
G1 X153.932 Y112.210 Z-0.501 F1984.638
G1 X154.471 Y112.209 Z-0.517 F1974.322
G1 X154.492 Y112.209 Z-0.516 F1958.606
G1 X154.933 Y112.200 Z-0.544 F1943.105
G1 X154.970 Y112.199 Z-0.546 F1920.574
G1 X155.270 Y112.183 Z-0.582 F1889.401
G1 X155.356 Y112.175 Z-0.597 F1832.993
G1 X155.440 Y112.165 Z-0.618 F1773.395
G1 X155.683 Y112.109 Z-0.718 F1630.821
G1 X155.720 Y112.097 Z-0.742 F1507.989
G1 X155.823 Y112.059 Z-0.810 F1467.102
G1 X156.161 Y111.869 Z-1.136 F1332.315
G1 X156.203 Y111.875 Z-1.126 F1762.865
G1 X156.295 Y111.885 Z-1.106 F1802.022
G1 X156.641 Y111.917 Z-1.049 F1843.441
G1 X156.673 Y111.919 Z-1.043 F1855.429
G1 X156.917 Y111.936 Z-1.012 F1874.180
G1 X157.518 Y111.967 Z-0.911 F1841.354
G1 X157.578 Y111.967 Z-0.896 F1762.307
G1 X157.746 Y111.973 Z-0.842 F1704.528
G1 X157.846 Y111.973 Z-0.802 F1638.872
G1 X157.921 Y111.976 Z-0.766 F1573.974
G1 X158.002 Y111.974 Z-0.720 F1496.666
G1 X158.036 Y111.996 Z-0.662 F1089.014
G1 X158.323 Y112.562 Z0.432 F1002.041
G0 Z3.000
G0 X158.471 Y112.468 Z3.000
G1 X158.471 Y112.468 Z0.431 F499.998
G1 X158.121 Y112.049 Z-0.507 F1003.643
G1 X158.131 Y112.054 Z-0.487 F1018.069
G1 X158.577 Y112.353 Z0.432 F1004.758
G0 Z3.000
G0 X158.642 Y112.214 Z3.000
G1 X158.642 Y112.214 Z0.431 F499.998
G1 X158.131 Y112.054 Z-0.487 F1003.873
G0 Z3.000
G0 X158.121 Y112.049 Z3.000
G1 X158.121 Y112.049 Z-0.507 F499.998
G1 X158.063 Y112.010 Z-0.616 F1038.376
G1 X158.670 Y112.051 Z0.432 F1002.096
G0 Z3.000
G0 X158.629 Y111.700 Z3.000
G1 X158.629 Y111.700 Z0.433 F499.998
G1 X158.150 Y111.872 Z-0.441 F1003.570
G1 X158.560 Y111.567 Z0.432 F1005.575
G0 Z3.000
G0 X158.447 Y111.457 Z3.000
G1 X158.447 Y111.457 Z0.432 F499.998
G1 X158.136 Y111.879 Z-0.466 F1004.486
G1 X158.062 Y111.934 Z-0.611 F1040.989
G1 X158.017 Y111.962 Z-0.691 F1060.493
G1 X158.276 Y111.364 Z0.432 F1002.338
G0 Z3.000
G0 X158.150 Y111.872 Z3.000
G1 X158.150 Y111.872 Z-0.441 F499.998
G1 X158.136 Y111.879 Z-0.467 F1018.198
G0 Z3.000
G0 X158.017 Y111.962 Z3.000
G1 X158.017 Y111.962 Z-0.691 F499.998
G1 X158.002 Y111.974 Z-0.718 F1083.144
G0 Z3.000
G0 X158.036 Y111.996 Z3.000
G1 X158.036 Y111.996 Z-0.663 F499.998
G1 X158.063 Y112.010 Z-0.616 F1061.018
G0 Z3.000
G0 X156.161 Y111.869 Z3.000
G1 X156.161 Y111.869 Z-1.136 F499.998
G1 X155.942 Y111.519 Z-0.663 F1184.936
G1 X155.896 Y111.461 Z-0.595 F1290.464
G1 X155.826 Y111.380 Z-0.512 F1366.920
G1 X155.770 Y111.321 Z-0.453 F1407.854
G1 X155.694 Y111.247 Z-0.385 F1460.980
G1 X155.654 Y111.213 Z-0.357 F1519.185
G1 X155.602 Y111.164 Z-0.322 F1568.186
G1 X155.598 Y111.159 Z-0.320 F1621.791
G1 X155.554 Y111.118 Z-0.298 F1667.786
G1 X155.414 Y110.995 Z-0.241 F1718.403
G1 X155.375 Y110.958 Z-0.228 F1769.173
G1 X155.315 Y110.898 Z-0.212 F1820.934
G1 X155.250 Y110.825 Z-0.185 F1746.870
G0 Z3.000
G0 X154.922 Y110.975 Z3.000
G1 X154.922 Y110.975 Z0.433 F499.998
G1 X155.250 Y110.825 Z-0.184 F1005.174
G1 X155.149 Y110.673 Z-0.090 F1543.231
G1 X155.075 Y110.539 Z0.008 F1451.790
G1 X155.017 Y110.348 Z0.065 F1736.191
G1 X155.014 Y110.303 Z0.060 F1890.327
G1 X154.998 Y109.660 Z0.025 F1947.789
G1 X154.987 Y107.353 Z-0.022 F1980.801
G1 X154.997 Y103.515 Z-0.051 F1992.782
G1 X154.997 Y103.514 Z-0.051 F1999.998
G1 X154.998 Y103.228 Z-0.054 F1988.644
G1 X155.014 Y100.676 Z-0.075 F1992.178
G1 X155.015 Y100.672 Z-0.075 F1999.998
G1 X155.034 Y99.114 Z-0.102 F1983.519
G1 X155.047 Y98.405 Z-0.105 F1995.688
G1 X155.048 Y98.399 Z-0.105 F1983.426
G1 X155.093 Y96.838 Z-0.140 F1979.024
G1 X155.094 Y96.826 Z-0.140 F1961.151
G1 X155.095 Y96.778 Z-0.143 F1950.655
G1 X155.124 Y96.354 Z-0.150 F1982.705
G1 X155.126 Y96.328 Z-0.152 F1944.732
G1 X155.149 Y96.110 Z-0.171 F1914.476
G1 X155.153 Y96.083 Z-0.173 F1960.899
G1 X155.167 Y96.008 Z-0.183 F1875.792
G1 X155.219 Y95.801 Z-0.229 F1793.718
G1 X155.240 Y95.729 Z-0.252 F1717.400
G1 X155.253 Y95.694 Z-0.266 F1650.986
G1 X155.314 Y95.548 Z-0.311 F1737.791
G1 X155.352 Y95.470 Z-0.343 F1663.772
G1 X154.926 Y95.327 Z0.432 F1002.643
G0 Z3.000
G0 X155.352 Y95.470 Z3.000
G1 X155.352 Y95.470 Z-0.343 F499.998
G1 X155.367 Y95.447 Z-0.352 F1704.248
G1 X155.450 Y95.330 Z-0.401 F1681.422
G1 X155.486 Y95.283 Z-0.418 F1745.098
G1 X155.565 Y95.193 Z-0.462 F1657.635
G1 X155.736 Y95.018 Z-0.577 F1579.662
G1 X155.809 Y94.950 Z-0.631 F1529.788
G1 X155.889 Y94.880 Z-0.696 F1481.590
G1 X156.043 Y94.724 Z-0.850 F1404.256
G1 X156.099 Y94.660 Z-0.930 F1300.670
G1 X156.151 Y94.596 Z-1.009 F1251.376
G0 Z3.000
G0 X158.157 Y94.459 Z3.000
G1 X158.157 Y94.459 Z-0.452 F499.998
G1 X158.271 Y94.458 Z-0.370 F1404.301
G1 X158.506 Y94.860 Z0.432 F1001.975
G0 Z3.000
G0 X158.645 Y94.759 Z3.000
G1 X158.645 Y94.759 Z0.432 F499.998
G1 X158.366 Y94.472 Z-0.255 F1004.257
G1 X158.307 Y94.455 Z-0.338 F1104.489
G1 X158.271 Y94.458 Z-0.368 F1315.204
G0 Z3.000
G0 X158.307 Y94.455 Z3.000
G1 X158.307 Y94.455 Z-0.338 F499.998
G1 X158.358 Y94.406 Z-0.225 F1031.058
G0 Z3.000
G0 X158.367 Y94.399 Z3.000
G1 X158.367 Y94.399 Z-0.204 F499.998
G1 X158.692 Y94.220 Z0.433 F1003.100
G0 Z3.000
G0 X158.640 Y94.148 Z3.000
G1 X158.640 Y94.148 Z0.433 F499.998
G1 X158.367 Y94.399 Z-0.204 F1003.246
G1 X158.358 Y94.406 Z-0.224 F1011.380
G1 X158.563 Y94.082 Z0.432 F1005.083
G0 Z3.000
G0 X158.318 Y93.972 Z3.000
G1 X158.318 Y93.972 Z0.433 F499.998
G1 X158.157 Y94.459 Z-0.450 F1002.369
G1 X158.127 Y94.462 Z-0.467 F1521.089
G1 X157.920 Y94.471 Z-0.559 F1600.609
G1 X157.826 Y94.471 Z-0.594 F1657.377
G1 X157.638 Y94.481 Z-0.648 F1732.997
G1 X157.289 Y94.497 Z-0.743 F1746.517
G1 X156.523 Y94.553 Z-0.916 F1788.198
G1 X156.522 Y94.553 Z-0.916 F1900.639
G1 X156.472 Y94.558 Z-0.929 F1785.208
G1 X156.151 Y94.596 Z-1.010 F1761.656
G1 X155.887 Y94.361 Z-0.723 F1349.716
G1 X155.633 Y94.218 Z-0.450 F1280.212
G1 X155.573 Y94.196 Z-0.385 F1247.225
G1 X155.512 Y94.179 Z-0.320 F1237.689
G1 X155.318 Y94.156 Z-0.282 F1818.535
G1 X153.754 Y94.149 Z-0.291 F1994.137
G1 X152.576 Y94.145 Z-0.298 F1994.080
G1 X152.190 Y94.146 Z-0.297 F1997.278
G1 X151.942 Y94.183 Z-0.551 F1247.864
G1 X151.692 Y94.294 Z-0.805 F1285.098
G1 X151.435 Y94.486 Z-1.067 F1346.610
G1 X151.199 Y94.731 Z-1.306 F1412.892
G0 Z3.000
G0 X145.269 Y94.592 Z3.000
G1 X145.269 Y94.592 Z-0.966 F499.998
G1 X145.185 Y94.483 Z-0.789 F1129.530
G1 X144.946 Y94.256 Z-0.560 F1419.944
G1 X144.720 Y94.127 Z-0.345 F1340.397
G1 X144.602 Y94.092 Z-0.233 F1296.621
G1 X144.483 Y94.080 Z-0.121 F1281.988
G1 X144.193 Y94.076 Z-0.127 F1975.948
G1 X142.657 Y94.080 Z-0.127 F1999.936
G1 X142.655 Y94.081 Z-0.128 F1999.998
G1 X141.686 Y94.087 Z-0.134 F1993.691
G1 X141.666 Y94.087 Z-0.135 F1970.154
G1 X141.158 Y94.105 Z-0.163 F1945.221
G1 X141.104 Y94.109 Z-0.171 F1877.281
G1 X141.088 Y94.112 Z-0.174 F1801.859
G1 X140.973 Y94.128 Z-0.200 F1787.528
G1 X140.707 Y94.215 Z-0.349 F1538.570
G1 X140.653 Y94.243 Z-0.394 F1368.419
G1 X140.415 Y94.404 Z-0.791 F1099.044
G1 X140.172 Y94.646 Z-1.197 F1170.667
G1 X140.071 Y94.770 Z-1.365 F1224.403
G1 X139.970 Y94.908 Z-1.534 F1255.456
G1 X140.068 Y95.067 Z-1.494 F1795.864
G1 X140.080 Y95.085 Z-1.491 F1856.038
G1 X140.106 Y95.123 Z-1.485 F1880.485
G1 X140.223 Y95.306 Z-1.498 F1942.383
G1 X140.328 Y95.456 Z-1.554 F1724.617
G1 X140.346 Y95.479 Z-1.564 F1664.370
G1 X140.399 Y95.551 Z-1.599 F1639.372
G1 X140.498 Y95.691 Z-1.692 F1525.704
G1 X140.510 Y95.708 Z-1.706 F1442.999
G1 X140.510 Y95.767 Z-1.686 F1692.127
G1 X140.509 Y95.781 Z-1.682 F1707.141
G1 X140.498 Y95.977 Z-1.606 F1647.703
G1 X140.458 Y96.299 Z-1.519 F1750.211
G1 X140.433 Y96.424 Z-1.501 F1861.009
G1 X140.413 Y96.509 Z-1.484 F1818.398
G1 X140.345 Y96.750 Z-1.461 F1912.200
G1 X140.138 Y97.340 Z-1.465 F1992.980
G1 X140.136 Y97.344 Z-1.465 F1977.713
G1 X140.125 Y97.378 Z-1.465 F1999.998
G1 X139.691 Y98.498 Z-1.482 F1986.485
G1 X139.684 Y98.514 Z-1.483 F1977.997
G1 X139.676 Y98.535 Z-1.483 F1978.272
G1 X139.084 Y99.993 Z-1.501 F1989.019
G1 X138.425 Y101.587 Z-1.503 F1999.112
G1 X138.420 Y101.600 Z-1.503 F1993.385
G1 X138.372 Y101.714 Z-1.505 F1988.429
G1 X137.161 Y104.537 Z-1.505 F1999.967
G1 X137.153 Y104.555 Z-1.505 F1990.726
G1 X136.733 Y105.510 Z-1.521 F1984.897
G1 X136.718 Y105.544 Z-1.523 F1971.238
G1 X136.594 Y105.812 Z-1.535 F1958.304
G1 X136.569 Y105.866 Z-1.539 F1935.953
G1 X136.541 Y105.923 Z-1.546 F1901.586
G1 X136.533 Y105.938 Z-1.548 F1907.241
G1 X136.414 Y106.151 Z-1.590 F1834.743
G1 X136.396 Y106.178 Z-1.599 F1751.293
G1 X136.141 Y106.513 Z-1.835 F1512.630
G1 X135.821 Y106.817 Z-2.069 F1533.986
G0 Z3.000
G0 X136.942 Y111.610 Z3.000
G1 X136.942 Y111.610 Z-0.643 F499.998
G1 X136.942 Y111.809 Z-0.499 F1400.420
G1 X136.938 Y111.928 Z-0.406 F1367.437
G1 X136.930 Y112.411 Z-0.016 F1350.950
G1 X136.932 Y112.512 Z0.072 F1318.500
G1 X136.929 Y112.717 Z0.260 F1289.650
G1 X136.931 Y112.741 Z0.286 F1233.334
G1 X136.932 Y112.797 Z0.347 F1198.398
G0 Z3.000
G0 X136.934 Y112.810 Z3.000
G1 X136.934 Y112.810 Z0.364 F499.998
G1 X136.961 Y112.839 Z0.431 F1004.505
G0 Z3.000
G0 X136.937 Y112.856 Z3.000
G1 X136.937 Y112.856 Z0.432 F499.998
G1 X136.934 Y112.810 Z0.364 F1064.561
G1 X136.932 Y112.797 Z0.345 F1112.879
G1 X136.900 Y112.836 Z0.433 F1008.120
G0 Z3.000
G0 X132.384 Y112.614 Z3.000
G1 X132.384 Y112.614 Z0.432 F499.998
G1 X132.207 Y112.528 Z0.099 F1008.595
G0 Z3.000
G0 X132.129 Y112.465 Z3.000
G1 X132.129 Y112.465 Z-0.059 F499.998
G1 X132.096 Y112.432 Z-0.129 F1067.239
G1 X131.969 Y112.319 Z-0.368 F1088.661
G1 X131.960 Y112.310 Z-0.386 F1108.793
G1 X131.789 Y112.163 Z-0.672 F1136.163
G0 Z3.000
G0 X131.810 Y112.145 Z3.000
G1 X131.810 Y112.145 Z-0.634 F499.998
G1 X131.789 Y112.163 Z-0.671 F1110.111
G1 X131.738 Y112.161 Z-0.684 F1764.740
G1 X131.441 Y112.140 Z-0.739 F1826.214
G1 X131.421 Y112.139 Z-0.743 F1811.587
G1 X130.942 Y112.098 Z-0.845 F1798.684
G1 X130.872 Y112.090 Z-0.858 F1826.975
G1 X130.787 Y112.079 Z-0.878 F1784.116
G1 X130.524 Y112.037 Z-0.951 F1743.486
G1 X130.462 Y112.025 Z-0.971 F1711.338
G1 X130.216 Y111.976 Z-1.058 F1683.432
G0 Z3.000
G0 X131.927 Y112.060 Z3.000
G1 X131.927 Y112.060 Z-0.427 F499.998
G1 X132.421 Y111.980 Z0.433 F1003.278
G0 Z3.000
G0 X132.361 Y111.777 Z3.000
G1 X132.361 Y111.777 Z0.433 F499.998
G1 X132.094 Y111.911 Z-0.076 F1006.459
G1 X132.305 Y111.702 Z0.433 F1004.021
G0 Z3.000
G0 X132.225 Y111.641 Z3.000
G1 X132.225 Y111.641 Z0.433 F499.998
G1 X132.067 Y111.930 Z-0.131 F1004.702
G1 X131.927 Y112.060 Z-0.426 F1047.862
G1 X131.810 Y112.145 Z-0.635 F1080.628
G1 X131.972 Y111.548 Z0.433 F1001.717
G0 Z3.000
G0 X132.094 Y111.911 Z3.000
G1 X132.094 Y111.911 Z-0.076 F499.998
G1 X132.067 Y111.930 Z-0.131 F1020.908
G0 Z3.000
G0 X132.332 Y112.681 Z3.000
G1 X132.332 Y112.681 Z0.432 F499.998
G1 X132.207 Y112.528 Z0.099 F1010.914
G1 X132.129 Y112.465 Z-0.059 F1040.076
G1 X132.225 Y112.734 Z0.432 F1002.803
G0 Z3.000
G0 X127.868 Y111.847 Z3.000
G1 X127.868 Y111.847 Z-1.218 F499.998
G1 X128.082 Y111.992 Z-0.976 F1279.684
G1 X128.191 Y112.055 Z-0.872 F1330.912
G1 X128.408 Y112.161 Z-0.695 F1399.302
G1 X128.521 Y112.205 Z-0.624 F1486.476
G1 X128.656 Y112.249 Z-0.551 F1554.540
G1 X128.770 Y112.279 Z-0.505 F1633.213
G1 X128.876 Y112.301 Z-0.468 F1703.348
G1 X128.987 Y112.318 Z-0.444 F1781.086
G1 X129.103 Y112.330 Z-0.427 F1872.335
G1 X129.204 Y112.334 Z-0.425 F1967.927
G1 X129.345 Y112.329 Z-0.435 F1916.768
G1 X129.435 Y112.320 Z-0.457 F1800.200
G1 X129.624 Y112.283 Z-0.526 F1663.780
G1 X129.687 Y112.262 Z-0.562 F1525.067
G1 X129.764 Y112.234 Z-0.612 F1492.753
G1 X129.973 Y112.139 Z-0.810 F1313.224
G1 X130.181 Y112.002 Z-1.012 F1352.354
G1 X130.216 Y111.976 Z-1.059 F1230.028
G1 X130.209 Y111.962 Z-1.040 F1183.457
G1 X130.188 Y111.917 Z-0.984 F1190.690
G1 X130.173 Y111.882 Z-0.941 F1207.631
G1 X130.024 Y111.616 Z-0.652 F1274.969
G1 X129.992 Y111.569 Z-0.610 F1392.773
G1 X129.976 Y111.546 Z-0.592 F1446.037
G1 X129.919 Y111.468 Z-0.530 F1455.799
G1 X129.827 Y111.357 Z-0.452 F1530.661
G1 X129.810 Y111.339 Z-0.442 F1646.501
G1 X129.798 Y111.325 Z-0.436 F1692.190
G1 X129.735 Y111.255 Z-0.406 F1706.323
G1 X129.653 Y111.175 Z-0.382 F1797.568
G1 X129.616 Y111.143 Z-0.376 F1893.855
G1 X129.587 Y111.117 Z-0.373 F1927.151
G1 X129.463 Y111.000 Z-0.366 F1959.689
G1 X129.397 Y110.943 Z-0.370 F1958.139
G1 X129.371 Y110.923 Z-0.376 F1825.713
G1 X129.368 Y110.921 Z-0.377 F1767.356
G1 X129.181 Y110.774 Z-0.436 F1765.386
G1 X129.158 Y110.756 Z-0.444 F1743.605
G1 X129.127 Y110.733 Z-0.458 F1664.094
G1 X129.031 Y110.670 Z-0.518 F1544.587
G1 X128.951 Y110.622 Z-0.573 F1484.793
G1 X128.883 Y110.584 Z-0.624 F1450.821
G1 X128.815 Y110.549 Z-0.684 F1364.860
G1 X128.563 Y110.445 Z-0.952 F1257.444
G1 X128.483 Y110.419 Z-1.043 F1210.874
G1 X128.325 Y110.373 Z-1.231 F1190.087
G0 Z3.000
G0 X124.132 Y118.266 Z3.000
G1 X124.132 Y118.266 Z0.433 F499.998
G1 X123.991 Y118.516 Z-0.061 F1003.048
G1 X123.857 Y118.555 Z-0.211 F1214.531
G1 X123.682 Y118.621 Z-0.391 F1266.577
G1 X123.467 Y118.716 Z-0.600 F1306.637
G1 X123.428 Y118.736 Z-0.636 F1343.921
G1 X123.402 Y118.749 Z-0.662 F1332.705
G1 X123.222 Y118.843 Z-0.834 F1325.507
G1 X122.876 Y119.039 Z-1.151 F1356.546
G1 X122.851 Y119.054 Z-1.176 F1349.934
G1 X122.824 Y119.028 Z-1.128 F1146.284
G1 X122.639 Y118.854 Z-0.815 F1150.541
G1 X122.609 Y118.826 Z-0.763 F1155.819
G1 X122.575 Y118.795 Z-0.709 F1160.056
G1 X122.407 Y118.662 Z-0.431 F1129.086
G0 Z3.000
G0 X122.403 Y118.659 Z3.000
G1 X122.403 Y118.659 Z-0.425 F499.998
G1 X122.300 Y118.581 Z-0.234 F1067.237
G0 Z3.000
G0 X122.299 Y118.580 Z3.000
G1 X122.299 Y118.580 Z-0.231 F499.998
G1 X122.097 Y118.247 Z0.433 F1006.723
G0 Z3.000
G0 X121.985 Y118.344 Z3.000
G1 X121.985 Y118.344 Z0.432 F499.998
G1 X122.299 Y118.580 Z-0.230 F1011.242
G1 X122.300 Y118.581 Z-0.233 F1035.057
G1 X121.924 Y118.477 Z0.432 F1006.940
G0 Z3.000
G0 X121.905 Y118.651 Z3.000
G1 X121.905 Y118.651 Z0.433 F499.998
G1 X122.407 Y118.662 Z-0.432 F1001.982
G1 X122.403 Y118.659 Z-0.425 F1096.049
G1 X122.268 Y118.179 Z0.431 F1003.662
G0 Z3.000
G0 X122.851 Y119.054 Z3.000
G1 X122.851 Y119.054 Z-1.174 F499.998
G1 X122.847 Y119.070 Z-1.167 F1593.967
G1 X122.819 Y119.161 Z-1.129 F1642.079
G1 X122.745 Y119.378 Z-1.050 F1680.745
G1 X122.715 Y119.459 Z-1.023 F1715.076
G1 X122.659 Y119.599 Z-0.983 F1751.695
G1 X122.647 Y119.631 Z-0.977 F1767.115
G1 X122.612 Y119.725 Z-0.951 F1783.646
G1 X122.594 Y119.771 Z-0.941 F1808.748
G1 X122.461 Y120.096 Z-0.881 F1837.760
G1 X122.443 Y120.139 Z-0.874 F1857.812
G1 X122.422 Y120.186 Z-0.868 F1884.528
G1 X122.407 Y120.221 Z-0.865 F1903.793
G1 X122.080 Y121.009 Z-0.797 F1924.777
G1 X122.069 Y121.036 Z-0.795 F1943.302
G1 X121.858 Y121.514 Z-0.772 F1957.835
G1 X121.847 Y121.541 Z-0.772 F1976.609
G1 X121.551 Y122.254 Z-0.765 F1991.837
G1 X121.545 Y122.269 Z-0.765 F1994.351
G1 X121.138 Y123.218 Z-0.776 F1989.263
G1 X121.119 Y123.262 Z-0.777 F1990.026
G1 X121.111 Y123.279 Z-0.777 F1975.655
G1 X120.746 Y124.097 Z-0.809 F1966.431
G1 X120.732 Y124.127 Z-0.811 F1948.188
G1 X120.466 Y124.688 Z-0.858 F1927.203
G1 X120.435 Y124.749 Z-0.866 F1892.008
G1 X120.352 Y124.906 Z-0.894 F1849.847
G1 X120.238 Y125.088 Z-0.952 F1747.063
G1 X120.191 Y125.154 Z-0.983 F1646.556
G1 X120.058 Y125.317 Z-1.086 F1567.289
G1 X119.968 Y125.406 Z-1.163 F1475.725
G0 Z3.000
G0 X120.056 Y126.395 Z3.000
G1 X120.056 Y126.395 Z-0.295 F499.998
G1 X120.056 Y126.390 Z-0.300 F1216.666
G1 X120.027 Y126.191 Z-0.501 F1248.974
G1 X120.022 Y126.137 Z-0.551 F1295.152
G1 X119.997 Y125.888 Z-0.770 F1311.777
G1 X119.971 Y125.481 Z-1.105 F1343.113
G1 X119.968 Y125.406 Z-1.164 F1364.496
G1 X119.735 Y125.304 Z-0.931 F1292.260
G1 X119.536 Y125.184 Z-0.699 F1250.830
G1 X119.533 Y125.182 Z-0.696 F1383.433
G1 X119.400 Y125.074 Z-0.588 F1462.407
G1 X119.318 Y124.998 Z-0.529 F1535.687
G1 X119.194 Y124.864 Z-0.458 F1648.443
G1 X119.132 Y124.783 Z-0.434 F1775.149
G1 X119.118 Y124.765 Z-0.429 F1794.557
G1 X119.085 Y124.725 Z-0.418 F1809.882
G1 X119.042 Y124.667 Z-0.409 F1870.855
G1 X118.913 Y124.481 Z-0.392 F1929.694
G1 X118.885 Y124.439 Z-0.390 F1973.680
G1 X118.855 Y124.390 Z-0.391 F1984.933
G1 X118.836 Y124.360 Z-0.393 F1954.484
G1 X118.744 Y124.224 Z-0.406 F1923.002
G1 X118.709 Y124.167 Z-0.416 F1866.706
G1 X118.661 Y124.084 Z-0.435 F1812.543
G1 X118.623 Y124.023 Z-0.454 F1755.204
G1 X118.567 Y123.939 Z-0.486 F1703.947
G1 X118.513 Y123.866 Z-0.521 F1643.305
G1 X118.464 Y123.805 Z-0.566 F1505.623
G1 X118.444 Y123.779 Z-0.589 F1419.459
G1 X118.429 Y123.759 Z-0.606 F1404.294
G1 X118.153 Y123.479 Z-0.966 F1292.838
G1 X118.019 Y123.370 Z-1.169 F1174.118
G0 Z3.000
G0 X118.205 Y121.944 Z3.000
G1 X118.205 Y121.944 Z-1.086 F499.998
G1 X118.186 Y121.930 Z-1.056 F1148.126
G1 X118.116 Y121.881 Z-0.954 F1167.282
G1 X118.074 Y121.853 Z-0.897 F1191.516
G1 X118.066 Y121.846 Z-0.885 F1202.915
G1 X117.886 Y121.709 Z-0.690 F1318.831
G1 X117.743 Y121.561 Z-0.494 F1276.422
G1 X117.723 Y121.537 Z-0.474 F1433.045
G1 X117.706 Y121.517 Z-0.457 F1454.290
G1 X117.701 Y121.511 Z-0.451 F1470.817
G1 X117.607 Y121.384 Z-0.376 F1576.231
G1 X117.515 Y121.236 Z-0.317 F1688.209
G1 X117.479 Y121.172 Z-0.298 F1749.038
G1 X117.435 Y121.086 Z-0.278 F1813.608
G1 X117.427 Y121.071 Z-0.275 F1832.203
G1 X117.365 Y120.955 Z-0.254 F1844.853
G1 X117.350 Y120.925 Z-0.250 F1881.095
G1 X117.223 Y120.663 Z-0.224 F1914.993
G1 X117.213 Y120.640 Z-0.222 F1943.684
G1 X117.185 Y120.578 Z-0.220 F1965.044
G1 X117.177 Y120.560 Z-0.218 F1994.960
G1 X117.082 Y120.358 Z-0.221 F1993.169
G1 X117.072 Y120.336 Z-0.222 F1959.870
G1 X116.951 Y120.059 Z-0.241 F1938.922
G1 X116.939 Y120.028 Z-0.245 F1900.676
G1 X116.843 Y119.778 Z-0.282 F1867.534
G1 X116.822 Y119.718 Z-0.295 F1807.131
G1 X116.765 Y119.527 Z-0.348 F1750.798
G1 X116.762 Y119.517 Z-0.350 F1736.486
G1 X116.756 Y119.500 Z-0.357 F1699.223
G1 X116.734 Y119.416 Z-0.395 F1609.851
G1 X116.697 Y119.246 Z-0.484 F1546.786
G1 X116.684 Y119.173 Z-0.526 F1511.999
G1 X116.659 Y119.004 Z-0.629 F1479.450
G1 X116.653 Y118.968 Z-0.652 F1458.967
G1 X116.650 Y118.952 Z-0.663 F1430.725
G1 X116.643 Y118.905 Z-0.698 F1402.148
G1 X116.634 Y118.844 Z-0.744 F1385.384
G0 Z3.000
G0 X117.140 Y118.518 Z3.000
G1 X117.140 Y118.518 Z-0.138 F499.998
G1 X117.198 Y118.494 Z-0.064 F1172.613
G1 X117.209 Y118.487 Z-0.046 F1110.023
G1 X117.354 Y118.246 Z0.433 F1007.930
G0 Z3.000
G0 X117.455 Y118.337 Z3.000
G1 X117.455 Y118.337 Z0.433 F499.998
G1 X117.266 Y118.467 Z0.047 F1011.782
G1 X117.209 Y118.487 Z-0.045 F1053.613
G0 Z3.000
G0 X117.198 Y118.494 Z3.000
G1 X117.198 Y118.494 Z-0.064 F499.998
G1 X117.475 Y118.575 Z0.432 F1003.889
G0 Z3.000
G0 X117.495 Y118.442 Z3.000
G1 X117.495 Y118.442 Z0.433 F499.998
G1 X117.266 Y118.467 Z0.046 F1013.775
G0 Z3.000
G0 X117.219 Y118.197 Z3.000
G1 X117.219 Y118.197 Z0.431 F499.998
G1 X117.140 Y118.518 Z-0.135 F1004.676
G1 X117.023 Y118.583 Z-0.274 F1232.030
G1 X117.023 Y118.584 Z-0.276 F1359.816
G1 X116.972 Y118.612 Z-0.335 F1232.078
G1 X116.839 Y118.698 Z-0.486 F1274.362
G1 X116.776 Y118.741 Z-0.564 F1253.426
G1 X116.634 Y118.844 Z-0.742 F1235.469
G1 X116.472 Y118.756 Z-0.593 F1350.129
G1 X116.349 Y118.698 Z-0.471 F1303.163
G1 X116.335 Y118.692 Z-0.458 F1309.921
G1 X116.058 Y118.566 Z-0.191 F1313.526
G1 X115.944 Y118.508 Z-0.071 F1280.774
G1 X115.835 Y118.462 Z0.051 F1234.352
G1 X115.748 Y118.417 Z0.161 F1195.105
G0 Z3.000
G0 X115.660 Y118.385 Z3.000
G1 X115.660 Y118.385 Z0.280 F499.998
G1 X115.748 Y118.417 Z0.160 F1135.481
G1 X115.693 Y118.268 Z0.432 F1007.478
G0 Z3.000
G0 X115.618 Y118.363 Z3.000
G1 X115.618 Y118.363 Z0.346 F499.998
G1 X115.660 Y118.385 Z0.280 F1092.802
G1 X115.573 Y118.409 Z0.432 F1010.343
G0 Z3.000
G0 X115.566 Y118.359 Z3.000
G1 X115.566 Y118.359 Z0.433 F499.998
G1 X115.618 Y118.363 Z0.346 F1013.979
G1 X115.576 Y118.328 Z0.432 F1048.310
G0 Z3.000
G0 X114.906 Y118.479 Z3.000
G1 X114.906 Y118.479 Z0.433 F499.998
G1 X114.681 Y118.491 Z0.059 F1018.190
G0 Z3.000
G0 X114.630 Y118.508 Z3.000
G1 X114.630 Y118.508 Z-0.019 F499.998
G1 X114.606 Y118.511 Z-0.049 F1137.361
G0 Z3.000
G0 X114.460 Y118.556 Z3.000
G1 X114.460 Y118.556 Z-0.212 F499.998
G1 X114.606 Y118.511 Z-0.051 F1222.839
G1 X114.747 Y118.266 Z0.433 F1006.011
G0 Z3.000
G0 X114.864 Y118.361 Z3.000
G1 X114.864 Y118.361 Z0.432 F499.998
G1 X114.681 Y118.491 Z0.060 F1017.745
G1 X114.630 Y118.508 Z-0.019 F1071.392
G1 X114.872 Y118.618 Z0.432 F1007.382
G0 Z3.000
G0 X114.559 Y118.195 Z3.000
G1 X114.559 Y118.195 Z0.432 F499.998
G1 X114.460 Y118.556 Z-0.211 F1003.227
G1 X114.450 Y118.560 Z-0.221 F1286.193
G1 X114.259 Y118.639 Z-0.414 F1284.076
G1 X114.243 Y118.646 Z-0.432 F1279.827
G1 X114.158 Y118.692 Z-0.521 F1286.938
G1 X113.963 Y118.809 Z-0.741 F1261.409
G1 X113.954 Y118.815 Z-0.751 F1290.838
G1 X113.854 Y118.886 Z-0.873 F1263.544
G0 Z3.000
G0 X112.644 Y118.190 Z3.000
G1 X112.644 Y118.190 Z0.433 F499.998
G1 X113.609 Y118.741 Z-0.611 F1279.911
G1 X113.854 Y118.886 Z-0.872 F1291.340
G1 X113.855 Y118.893 Z-0.868 F1454.709
G1 X113.876 Y119.107 Z-0.730 F1456.270
G1 X113.887 Y119.189 Z-0.681 F1487.741
G1 X113.891 Y119.218 Z-0.666 F1547.947
G1 X113.891 Y119.219 Z-0.665 F1513.886
G1 X113.921 Y119.406 Z-0.576 F1578.709
G1 X113.950 Y119.535 Z-0.528 F1654.477
G1 X113.996 Y119.700 Z-0.478 F1740.114
G1 X114.010 Y119.747 Z-0.467 F1775.670
G1 X114.089 Y119.985 Z-0.416 F1812.161
G1 X114.098 Y120.010 Z-0.414 F1832.480
G1 X114.100 Y120.016 Z-0.411 F1863.590
G1 X114.105 Y120.029 Z-0.409 F1885.720
G1 X114.326 Y120.669 Z-0.337 F1899.164
G1 X114.333 Y120.687 Z-0.338 F1914.161
G1 X114.479 Y121.084 Z-0.306 F1933.949
G1 X114.483 Y121.094 Z-0.306 F1945.676
G1 X114.627 Y121.501 Z-0.285 F1953.865
G1 X114.631 Y121.511 Z-0.286 F1963.955
G1 X114.922 Y122.299 Z-0.263 F1975.104
G1 X114.926 Y122.307 Z-0.262 F1989.483
G1 X114.956 Y122.394 Z-0.262 F1992.712
G1 X114.960 Y122.402 Z-0.263 F1999.998
G1 X115.277 Y123.260 Z-0.274 F1987.466
G1 X115.282 Y123.271 Z-0.276 F1976.527
G1 X115.379 Y123.525 Z-0.285 F1962.858
G1 X115.566 Y124.006 Z-0.304 F1964.266
G1 X115.575 Y124.028 Z-0.307 F1942.974
G1 X115.793 Y124.546 Z-0.353 F1919.101
G1 X115.815 Y124.595 Z-0.362 F1874.851
G1 X115.889 Y124.745 Z-0.391 F1824.889
G1 X115.976 Y124.890 Z-0.449 F1695.211
G1 X116.025 Y124.957 Z-0.487 F1578.588
G1 X116.224 Y125.172 Z-0.762 F1278.453
G1 X116.566 Y125.402 Z-1.103 F1340.518
G1 X116.563 Y125.503 Z-1.039 F1459.538
G1 X116.562 Y125.612 Z-0.967 F1441.744
G1 X116.546 Y126.107 Z-0.623 F1419.258
G1 X116.532 Y126.339 Z-0.451 F1393.643
G1 X116.526 Y126.506 Z-0.323 F1374.747
G1 X116.517 Y126.599 Z-0.244 F1330.182
G1 X116.511 Y126.724 Z-0.132 F1301.155
G1 X116.511 Y126.746 Z-0.110 F1245.302
G1 X116.496 Y126.981 Z0.157 F1191.320
G1 X116.378 Y127.090 Z0.432 F1004.106
G0 Z3.000
G0 X116.433 Y127.139 Z3.000
G1 X116.433 Y127.139 Z0.433 F499.998
G1 X116.493 Y127.039 Z0.235 F1007.028
G1 X116.494 Y127.044 Z0.242 F1044.359
G1 X116.484 Y127.158 Z0.432 F1016.213
G0 Z3.000
G0 X116.536 Y127.148 Z3.000
G1 X116.536 Y127.148 Z0.432 F499.998
G1 X116.494 Y127.044 Z0.241 F1008.324
G0 Z3.000
G0 X116.493 Y127.039 Z3.000
G1 X116.493 Y127.039 Z0.234 F499.998
G1 X116.497 Y126.990 Z0.166 F1101.653
G1 X116.595 Y127.109 Z0.432 F1002.186
G0 Z3.000
G0 X116.497 Y126.990 Z3.000
G1 X116.497 Y126.990 Z0.166 F499.998
G1 X116.496 Y126.981 Z0.155 F1143.009
G0 Z3.000
G0 X116.511 Y126.746 Z3.000
G1 X116.511 Y126.746 Z-0.112 F499.998
G1 X116.755 Y126.945 Z0.431 F1001.624
G0 Z3.000
G0 X116.566 Y125.402 Z3.000
G1 X116.566 Y125.402 Z-1.103 F499.998
G1 X116.726 Y125.249 Z-0.952 F1428.804
G1 X116.758 Y125.213 Z-0.926 F1498.397
G1 X116.802 Y125.164 Z-0.887 F1521.046
G1 X116.804 Y125.161 Z-0.889 F1546.188
G1 X116.923 Y125.003 Z-0.806 F1636.692
G1 X116.966 Y124.935 Z-0.786 F1731.789
G1 X117.025 Y124.836 Z-0.758 F1795.841
G1 X117.078 Y124.737 Z-0.744 F1859.021
G1 X117.096 Y124.705 Z-0.739 F1884.382
G1 X117.148 Y124.613 Z-0.729 F1902.778
G1 X117.182 Y124.552 Z-0.722 F1948.156
G1 X117.290 Y124.335 Z-0.722 F1989.358
G1 X117.317 Y124.285 Z-0.724 F1974.803
G1 X117.462 Y124.026 Z-0.743 F1938.544
G1 X117.519 Y123.933 Z-0.757 F1873.694
G1 X117.548 Y123.890 Z-0.768 F1812.677
G1 X117.570 Y123.857 Z-0.774 F1787.013
G1 X117.578 Y123.844 Z-0.780 F1751.660
G1 X117.729 Y123.645 Z-0.888 F1611.551
G1 X117.763 Y123.606 Z-0.917 F1510.793
G1 X118.019 Y123.370 Z-1.168 F1402.540
G1 X118.025 Y123.336 Z-1.155 F1646.095
G1 X118.055 Y123.171 Z-1.092 F1656.281
G1 X118.066 Y123.101 Z-1.065 F1687.169
G1 X118.087 Y122.951 Z-1.021 F1713.988
G1 X118.110 Y122.824 Z-0.990 F1775.381
G1 X118.118 Y122.783 Z-0.983 F1836.326
G1 X118.139 Y122.674 Z-0.968 F1890.553
G1 X118.169 Y122.470 Z-0.959 F1947.322
G1 X118.178 Y122.403 Z-0.955 F1981.687
G1 X118.188 Y122.303 Z-0.970 F1882.017
G1 X118.196 Y122.193 Z-0.999 F1732.166
G1 X118.205 Y121.944 Z-1.088 F1683.577
G1 X118.315 Y121.830 Z-0.948 F1315.765
G1 X118.367 Y121.771 Z-0.892 F1393.934
G1 X118.572 Y121.476 Z-0.721 F1578.996
G1 X118.633 Y121.358 Z-0.689 F1760.098
G1 X118.672 Y121.276 Z-0.669 F1816.535
G1 X118.680 Y121.257 Z-0.669 F1899.445
G1 X118.689 Y121.238 Z-0.668 F1936.268
G1 X118.783 Y121.029 Z-0.656 F1952.209
G1 X118.805 Y120.978 Z-0.654 F1987.889
G1 X118.944 Y120.632 Z-0.665 F1975.193
G1 X118.955 Y120.604 Z-0.667 F1955.431
G1 X119.085 Y120.303 Z-0.688 F1937.410
G1 X119.101 Y120.262 Z-0.690 F1908.399
G1 X119.243 Y119.899 Z-0.740 F1882.472
G1 X119.246 Y119.889 Z-0.742 F1875.472
G1 X119.283 Y119.797 Z-0.756 F1867.999
G1 X119.310 Y119.725 Z-0.768 F1824.587
G1 X119.424 Y119.383 Z-0.854 F1780.215
G1 X119.470 Y119.219 Z-0.908 F1695.921
G1 X119.520 Y118.986 Z-1.011 F1618.510
G1 X119.626 Y118.917 Z-0.899 F1306.435
G1 X120.142 Y118.621 Z-0.326 F1267.987
G1 X120.362 Y118.510 Z-0.070 F1231.238
G1 X120.541 Y118.432 Z0.149 F1196.184
G1 X120.608 Y118.282 Z0.433 F1003.277
G0 Z3.000
G0 X120.715 Y118.346 Z3.000
G1 X120.715 Y118.346 Z0.433 F499.998
G1 X120.666 Y118.395 Z0.316 F1013.877
G1 X120.664 Y118.396 Z0.313 F1078.846
G1 X120.541 Y118.432 Z0.150 F1135.406
G0 Z3.000
G0 X120.664 Y118.396 Z3.000
G1 X120.664 Y118.396 Z0.311 F499.998
G1 X120.731 Y118.417 Z0.431 F1005.486
G0 Z3.000
G0 X120.736 Y118.381 Z3.000
G1 X120.736 Y118.381 Z0.433 F499.998
G1 X120.666 Y118.395 Z0.316 F1025.073
G0 Z3.000
G0 X119.520 Y118.986 Z3.000
G1 X119.520 Y118.986 Z-1.009 F499.998
G1 X119.475 Y118.943 Z-0.933 F1154.832
G1 X119.404 Y118.880 Z-0.818 F1165.042
G1 X119.267 Y118.782 Z-0.623 F1178.792
G1 X119.159 Y118.712 Z-0.482 F1204.302
G1 X118.973 Y118.603 Z-0.234 F1183.552
G1 X118.946 Y118.588 Z-0.200 F1193.262
G1 X118.774 Y118.493 Z0.019 F1200.603
G1 X118.679 Y118.449 Z0.145 F1164.537
G0 Z3.000
G0 X118.675 Y118.448 Z3.000
G1 X118.675 Y118.448 Z0.150 F499.998
G1 X118.679 Y118.449 Z0.145 F1101.025
G1 X118.602 Y118.299 Z0.433 F1005.524
G0 Z3.000
G0 X118.536 Y118.345 Z3.000
G1 X118.536 Y118.345 Z0.433 F499.998
G1 X118.636 Y118.429 Z0.215 F1015.662
G1 X118.508 Y118.405 Z0.433 F1014.248
G0 Z3.000
G0 X118.513 Y118.484 Z3.000
G1 X118.513 Y118.484 Z0.432 F499.998
G1 X118.675 Y118.448 Z0.150 F1007.809
G1 X118.636 Y118.429 Z0.215 F1058.898
G0 Z3.000
G0 X123.991 Y118.516 Z3.000
G1 X123.991 Y118.516 Z-0.063 F499.998
G1 X123.994 Y118.516 Z-0.059 F1143.017
G1 X124.075 Y118.497 Z0.051 F1119.115
G1 X124.241 Y118.346 Z0.433 F1008.987
G0 Z3.000
G0 X124.297 Y118.440 Z3.000
G1 X124.297 Y118.440 Z0.432 F499.998
G1 X124.089 Y118.496 Z0.074 F1016.973
G0 Z3.000
G0 X124.075 Y118.497 Z3.000
G1 X124.075 Y118.497 Z0.051 F499.998
G1 X124.089 Y118.496 Z0.072 F1057.418
G1 X124.296 Y118.547 Z0.432 F1011.063
G0 Z3.000
G0 X126.295 Y123.317 Z3.000
G1 X126.295 Y123.317 Z0.431 F499.998
G1 X126.652 Y123.638 Z-0.392 F1003.722
G1 X126.640 Y123.661 Z-0.400 F1710.526
G1 X126.591 Y123.779 Z-0.457 F1622.604
G0 Z3.000
G0 X126.573 Y123.889 Z3.000
G1 X126.573 Y123.889 Z-0.504 F499.998
G1 X126.592 Y123.779 Z-0.457 F1619.155
G1 X126.145 Y123.520 Z0.432 F1003.650
G0 Z3.000
G0 X126.049 Y123.738 Z3.000
G1 X126.049 Y123.738 Z0.432 F499.998
G1 X126.573 Y123.889 Z-0.501 F1004.578
G1 X126.574 Y123.936 Z-0.518 F1706.662
G1 X126.577 Y123.988 Z-0.535 F1675.958
G1 X126.015 Y123.967 Z0.432 F1003.354
G0 Z3.000
G0 X126.028 Y124.142 Z3.000
G1 X126.028 Y124.142 Z0.433 F499.998
G1 X126.496 Y124.056 Z-0.386 F1002.514
G1 X126.480 Y124.071 Z-0.353 F1048.528
G1 X126.274 Y124.480 Z0.433 F1003.605
G0 Z3.000
G0 X126.150 Y124.395 Z3.000
G1 X126.150 Y124.395 Z0.432 F499.998
G1 X126.432 Y124.107 Z-0.255 F1006.408
G1 X126.070 Y124.284 Z0.432 F1006.529
G0 Z3.000
G0 X126.432 Y124.107 Z3.000
G1 X126.432 Y124.107 Z-0.255 F499.998
G1 X126.480 Y124.071 Z-0.353 F1025.277
G0 Z3.000
G0 X126.496 Y124.056 Z3.000
G1 X126.496 Y124.056 Z-0.387 F499.998
G1 X126.578 Y123.993 Z-0.537 F1076.424
G1 X126.577 Y123.988 Z-0.536 F1862.365
G0 Z3.000
G0 X126.578 Y123.993 Z3.000
G1 X126.578 Y123.993 Z-0.537 F499.998
G1 X126.590 Y124.005 Z-0.524 F1350.230
G1 X126.608 Y124.022 Z-0.501 F1286.770
G1 X126.739 Y124.126 Z-0.362 F1343.627
G1 X126.866 Y124.189 Z-0.266 F1431.519
G1 X126.953 Y124.224 Z-0.216 F1518.639
G1 X127.010 Y124.245 Z-0.190 F1621.971
G1 X127.067 Y124.260 Z-0.164 F1614.944
G1 X127.194 Y124.288 Z-0.129 F1738.658
G1 X127.249 Y124.299 Z-0.116 F1806.070
G1 X127.378 Y124.316 Z-0.101 F1876.285
G1 X127.403 Y124.319 Z-0.097 F1856.468
G1 X127.444 Y124.323 Z-0.092 F1913.637
G1 X127.613 Y124.332 Z-0.088 F1970.529
G1 X127.672 Y124.332 Z-0.090 F1947.411
G1 X127.830 Y124.325 Z-0.113 F1866.540
G1 X127.913 Y124.316 Z-0.133 F1766.102
G1 X127.923 Y124.314 Z-0.138 F1655.221
G1 X127.945 Y124.310 Z-0.148 F1605.611
G1 X128.061 Y124.294 Z-0.203 F1578.889
G1 X128.117 Y124.284 Z-0.232 F1536.231
G1 X128.199 Y124.266 Z-0.296 F1392.295
G1 X128.208 Y124.264 Z-0.304 F1308.403
G1 X128.332 Y124.239 Z-0.418 F1301.657
G1 X128.342 Y124.237 Z-0.425 F1294.967
G1 X128.557 Y124.190 Z-0.675 F1192.141
G1 X128.556 Y124.149 Z-0.641 F1352.922
G1 X128.554 Y124.031 Z-0.549 F1366.186
G1 X128.552 Y123.985 Z-0.514 F1381.940
G1 X128.518 Y123.802 Z-0.389 F1436.043
G1 X128.511 Y123.776 Z-0.375 F1536.837
G1 X128.485 Y123.698 Z-0.325 F1475.660
G1 X128.435 Y123.576 Z-0.260 F1570.998
G1 X128.413 Y123.541 Z-0.243 F1634.948
G1 X128.352 Y123.448 Z-0.203 F1669.294
G1 X128.266 Y123.339 Z-0.176 F1815.957
G1 X128.234 Y123.306 Z-0.174 F1972.829
G1 X128.175 Y123.253 Z-0.163 F1858.702
G1 X128.152 Y123.233 Z-0.158 F1892.439
G1 X128.086 Y123.192 Z-0.151 F1914.857
G1 X128.069 Y123.183 Z-0.152 F1995.165
G1 X127.982 Y123.143 Z-0.140 F1881.724
G1 X127.948 Y123.130 Z-0.130 F1764.837
G1 X127.883 Y123.109 Z-0.119 F1847.991
G1 X127.848 Y123.104 Z-0.114 F1857.986
G1 X127.728 Y123.089 Z-0.101 F1900.325
G1 X127.636 Y123.085 Z-0.106 F1972.030
G1 X127.570 Y123.086 Z-0.113 F1854.544
G1 X127.506 Y123.093 Z-0.115 F1974.774
G1 X127.434 Y123.105 Z-0.127 F1881.983
G1 X127.328 Y123.128 Z-0.149 F1789.412
G1 X127.301 Y123.137 Z-0.151 F1929.803
G1 X127.244 Y123.157 Z-0.161 F1853.013
G1 X127.117 Y123.209 Z-0.191 F1784.813
G1 X127.107 Y123.213 Z-0.195 F1769.439
G1 X127.057 Y123.242 Z-0.206 F1826.186
G1 X126.947 Y123.312 Z-0.238 F1763.410
G1 X126.913 Y123.334 Z-0.251 F1725.472
G1 X126.876 Y123.367 Z-0.264 F1756.983
G1 X126.791 Y123.447 Z-0.298 F1714.824
G1 X126.757 Y123.481 Z-0.319 F1671.361
G1 X126.692 Y123.573 Z-0.360 F1663.502
G1 X126.652 Y123.638 Z-0.392 F1580.840
G0 Z3.000
G0 X128.557 Y124.190 Z3.000
G1 X128.557 Y124.190 Z-0.675 F499.998
G1 X128.559 Y124.193 Z-0.673 F1651.997
G1 X128.604 Y124.255 Z-0.642 F1628.685
G1 X128.655 Y124.329 Z-0.609 F1669.380
G1 X128.667 Y124.347 Z-0.602 F1680.508
G1 X128.752 Y124.517 Z-0.551 F1749.392
G1 X128.775 Y124.591 Z-0.540 F1862.523
G1 X128.799 Y124.681 Z-0.531 F1916.657
G1 X128.803 Y124.696 Z-0.530 F1929.769
G1 X128.825 Y124.864 Z-0.528 F1989.288
G1 X128.826 Y124.878 Z-0.530 F1883.768
G1 X128.827 Y125.061 Z-0.540 F1949.368
G1 X128.824 Y125.150 Z-0.538 F1975.234
G1 X128.819 Y125.228 Z-0.540 F1972.127
G1 X128.818 Y125.237 Z-0.541 F1924.301
G1 X128.791 Y125.409 Z-0.541 F1999.448
G1 X128.782 Y125.454 Z-0.537 F1922.072
G1 X128.756 Y125.556 Z-0.537 F1995.443
G1 X128.751 Y125.572 Z-0.539 F1905.938
G1 X128.696 Y125.725 Z-0.540 F1994.716
G1 X128.687 Y125.748 Z-0.538 F1917.223
G1 X128.659 Y125.809 Z-0.538 F1991.447
G1 X128.628 Y125.868 Z-0.539 F1991.451
G1 X128.626 Y125.870 Z-0.539 F1967.703
G1 X128.544 Y125.995 Z-0.542 F1982.742
G1 X128.519 Y126.030 Z-0.538 F1920.498
G1 X128.451 Y126.113 Z-0.538 F1999.106
G1 X128.423 Y126.139 Z-0.539 F1992.458
G1 X128.351 Y126.205 Z-0.542 F1969.772
G1 X128.277 Y126.263 Z-0.531 F1891.123
G1 X128.169 Y126.337 Z-0.530 F1989.788
G1 X128.151 Y126.347 Z-0.531 F1911.770
G0 Z3.000
G0 X127.932 Y126.449 Z3.000
G1 X127.932 Y126.449 Z-0.513 F499.998
G1 X127.980 Y126.428 Z-0.516 F1960.265
G1 X128.151 Y126.347 Z-0.533 F1921.402
G1 X128.415 Y126.842 Z0.433 F1002.121
G0 Z3.000
G0 X128.092 Y126.974 Z3.000
G1 X128.092 Y126.974 Z0.432 F499.998
G1 X127.931 Y126.449 Z-0.516 F1001.808
G1 X127.880 Y126.464 Z-0.507 F1890.817
G1 X127.689 Y126.512 Z-0.493 F1929.444
G0 Z3.000
G0 X127.440 Y126.540 Z3.000
G1 X127.440 Y126.540 Z-0.459 F499.998
G1 X127.575 Y126.528 Z-0.473 F1903.265
G1 X127.651 Y126.518 Z-0.484 F1843.355
G1 X127.689 Y126.512 Z-0.494 F1784.475
G1 X127.752 Y127.045 Z0.432 F1001.608
G0 Z3.000
G0 X127.409 Y127.055 Z3.000
G1 X127.409 Y127.055 Z0.432 F499.998
G1 X127.440 Y126.540 Z-0.459 F1001.660
G1 X127.300 Y126.539 Z-0.421 F1759.560
G1 X127.248 Y126.538 Z-0.411 F1803.534
G1 X127.198 Y126.535 Z-0.402 F1843.090
G0 Z3.000
G0 X126.972 Y126.500 Z3.000
G1 X126.972 Y126.500 Z-0.327 F499.998
G1 X127.198 Y126.535 Z-0.403 F1692.596
G1 X127.079 Y127.005 Z0.432 F1001.954
G0 Z3.000
G0 X126.777 Y126.896 Z3.000
G1 X126.777 Y126.896 Z0.432 F499.998
G1 X126.972 Y126.500 Z-0.327 F1002.606
G1 X126.932 Y126.489 Z-0.304 F1540.803
G1 X126.746 Y126.439 Z-0.203 F1538.671
G0 Z3.000
G0 X126.422 Y126.296 Z3.000
G1 X126.422 Y126.296 Z0.088 F499.998
G1 X126.511 Y126.336 Z-0.009 F1251.870
G1 X126.538 Y126.351 Z-0.036 F1308.291
G1 X126.651 Y126.403 Z-0.135 F1360.071
G1 X126.746 Y126.439 Z-0.204 F1430.278
G1 X126.517 Y126.729 Z0.433 F1001.941
G0 Z3.000
G0 X126.242 Y126.383 Z3.000
G1 X126.242 Y126.383 Z0.433 F499.998
G1 X126.422 Y126.296 Z0.088 F1001.670
G1 X126.399 Y126.283 Z0.119 F1199.260
G1 X126.343 Y126.109 Z0.432 F1004.848
G0 Z3.000
G0 X126.253 Y126.150 Z3.000
G1 X126.253 Y126.150 Z0.432 F499.998
G1 X126.336 Y126.255 Z0.210 F1015.480
G0 Z3.000
G0 X126.347 Y126.262 Z3.000
G1 X126.347 Y126.262 Z0.190 F499.998
G1 X126.399 Y126.283 Z0.118 F1136.231
G0 Z3.000
G0 X126.205 Y126.285 Z3.000
G1 X126.205 Y126.285 Z0.432 F499.998
G1 X126.347 Y126.262 Z0.190 F1011.675
G1 X126.336 Y126.255 Z0.210 F1067.418
G1 X126.208 Y126.208 Z0.432 F1023.908
G0 Z3.000
G0 X129.456 Y126.696 Z3.000
G1 X129.456 Y126.696 Z0.433 F499.998
G1 X129.624 Y126.736 Z0.141 F1010.320
G1 X129.615 Y126.742 Z0.157 F1073.155
G0 Z3.000
G0 X129.624 Y126.736 Z3.000
G1 X129.624 Y126.736 Z0.140 F499.998
G1 X129.697 Y126.711 Z0.046 F1155.336
G0 Z3.000
G0 X129.714 Y126.702 Z3.000
G1 X129.714 Y126.702 Z0.025 F499.998
G1 X129.846 Y126.654 Z-0.102 F1298.653
G1 X129.886 Y126.637 Z-0.136 F1352.018
G1 X129.895 Y126.633 Z-0.143 F1345.616
G1 X130.017 Y126.577 Z-0.256 F1339.577
G1 X130.061 Y126.556 Z-0.297 F1316.989
G1 X130.086 Y126.541 Z-0.322 F1313.235
G1 X130.216 Y126.464 Z-0.459 F1301.858
G1 X130.329 Y126.387 Z-0.591 F1262.140
G1 X130.331 Y126.386 Z-0.595 F1238.338
G1 X130.376 Y126.349 Z-0.653 F1251.403
G1 X130.388 Y126.076 Z-0.543 F1632.504
G1 X130.389 Y126.054 Z-0.533 F1643.623
G1 X130.390 Y125.990 Z-0.516 F1744.432
G1 X130.390 Y125.982 Z-0.514 F1830.536
G1 X130.397 Y125.573 Z-0.447 F1842.669
G1 X130.398 Y125.553 Z-0.444 F1862.268
G1 X130.398 Y125.535 Z-0.442 F1907.718
G1 X130.399 Y125.509 Z-0.439 F1952.626
G1 X130.403 Y125.084 Z-0.430 F1975.731
G1 X130.405 Y125.050 Z-0.430 F1997.208
G1 X130.410 Y124.931 Z-0.434 F1970.353
G1 X130.410 Y124.931 Z-0.432 F1999.998
G1 X130.425 Y124.599 Z-0.444 F1970.945
G1 X130.427 Y124.562 Z-0.447 F1934.646
G1 X130.437 Y124.443 Z-0.458 F1905.956
G1 X130.468 Y124.152 Z-0.475 F1945.096
G1 X130.476 Y124.092 Z-0.482 F1896.563
G1 X130.492 Y123.996 Z-0.497 F1848.066
G1 X130.538 Y123.763 Z-0.523 F1897.005
G1 X130.560 Y123.672 Z-0.540 F1831.308
G1 X130.566 Y123.648 Z-0.546 F1770.478
G1 X130.600 Y123.549 Z-0.562 F1855.825
G1 X130.626 Y123.480 Z-0.578 F1798.405
G1 X130.075 Y123.281 Z0.432 F1003.062
G0 Z3.000
G0 X130.188 Y123.050 Z3.000
G1 X130.188 Y123.050 Z0.432 F499.998
G1 X130.485 Y123.255 Z-0.184 F1006.248
G1 X130.258 Y122.975 Z0.432 F1005.403
G0 Z3.000
G0 X130.347 Y122.921 Z3.000
G1 X130.347 Y122.921 Z0.431 F499.998
G1 X130.503 Y123.271 Z-0.223 F1005.265
G1 X130.485 Y123.255 Z-0.184 F1018.141
G0 Z3.000
G0 X130.503 Y123.271 Z3.000
G1 X130.503 Y123.271 Z-0.223 F499.998
G1 X130.559 Y123.336 Z-0.360 F1036.597
G1 X130.642 Y123.453 Z-0.579 F1054.135
G1 X130.654 Y123.446 Z-0.571 F1418.666
G1 X130.654 Y123.445 Z-0.571 F1446.583
G1 X130.754 Y123.393 Z-0.483 F1367.754
G1 X130.873 Y123.340 Z-0.393 F1425.050
G1 X131.041 Y123.277 Z-0.287 F1489.427
G1 X131.074 Y123.265 Z-0.264 F1452.804
G1 X131.174 Y123.238 Z-0.208 F1525.215
G1 X131.251 Y123.223 Z-0.175 F1619.124
G1 X131.353 Y123.210 Z-0.143 F1711.193
G1 X131.425 Y123.206 Z-0.131 F1837.656
G1 X131.556 Y123.213 Z-0.130 F1991.255
G1 X131.735 Y123.241 Z-0.160 F1838.712
G1 X131.813 Y123.257 Z-0.182 F1750.750
G1 X131.838 Y123.264 Z-0.191 F1665.027
G1 X132.094 Y123.341 Z-0.279 F1696.392
G1 X132.141 Y123.356 Z-0.298 F1657.315
G1 X132.446 Y123.467 Z-0.435 F1618.133
G1 X132.605 Y123.539 Z-0.532 F1515.285
G1 X132.630 Y123.553 Z-0.552 F1422.375
G1 X132.729 Y123.610 Z-0.628 F1438.982
G1 X132.846 Y123.685 Z-0.730 F1395.649
G1 X133.535 Y123.100 Z0.432 F1131.035
G0 Z3.000
G0 X132.846 Y123.685 Z3.000
G1 X132.846 Y123.685 Z-0.730 F499.998
G1 X132.860 Y123.755 Z-0.703 F1651.025
G1 X132.885 Y123.907 Z-0.651 F1688.699
G1 X132.900 Y124.035 Z-0.619 F1767.395
G1 X132.912 Y124.232 Z-0.587 F1847.546
G1 X132.915 Y124.294 Z-0.580 F1891.547
G1 X132.917 Y124.562 Z-0.563 F1939.268
G1 X132.917 Y124.598 Z-0.561 F1956.963
G1 X132.913 Y124.747 Z-0.559 F1985.953
G1 X132.899 Y125.429 Z-0.549 F1985.576
G1 X132.882 Y126.220 Z-0.537 F1986.489
G1 X132.883 Y126.412 Z-0.526 F1940.660
G1 X132.885 Y126.442 Z-0.527 F1965.896
G1 X132.885 Y126.451 Z-0.526 F1917.266
G0 Z3.000
G0 X132.740 Y126.586 Z3.000
G1 X132.740 Y126.586 Z-0.246 F499.998
G1 X132.771 Y126.561 Z-0.304 F1071.946
G1 X132.885 Y126.451 Z-0.526 F1094.407
G1 X132.945 Y126.514 Z-0.434 F1227.999
G1 X133.211 Y126.690 Z-0.167 F1334.933
G1 X133.472 Y126.734 Z-0.100 F1761.584
G1 X133.956 Y126.711 Z-0.158 F1888.105
G1 X133.990 Y126.709 Z-0.162 F1890.102
G1 X134.438 Y126.677 Z-0.194 F1931.634
G1 X134.665 Y126.625 Z-0.309 F1557.751
G1 X134.800 Y126.559 Z-0.378 F1585.437
G1 X135.037 Y126.367 Z-0.677 F1259.806
G1 X135.117 Y126.423 Z-0.570 F1199.980
G1 X135.389 Y126.604 Z-0.194 F1184.208
G1 X135.692 Y126.788 Z0.232 F1161.978
G1 X135.786 Y126.839 Z0.367 F1140.095
G1 X135.802 Y126.874 Z0.432 F1003.904
G0 Z3.000
G0 X135.829 Y126.856 Z3.000
G1 X135.829 Y126.856 Z0.433 F499.998
G1 X135.786 Y126.839 Z0.367 F1089.525
G0 Z3.000
G0 X135.037 Y126.367 Z3.000
G1 X135.037 Y126.367 Z-0.677 F499.998
G1 X135.034 Y126.337 Z-0.669 F1751.278
G1 X135.012 Y126.148 Z-0.624 F1768.772
G1 X135.010 Y126.121 Z-0.618 F1786.711
G1 X134.981 Y125.812 Z-0.553 F1801.876
G1 X134.978 Y125.766 Z-0.545 F1837.866
G1 X134.962 Y125.450 Z-0.501 F1870.131
G1 X134.961 Y125.407 Z-0.497 F1903.392
G1 X134.957 Y125.087 Z-0.474 F1932.893
G1 X134.958 Y125.048 Z-0.473 F1965.877
G1 X134.966 Y124.725 Z-0.472 F1995.565
G1 X134.968 Y124.686 Z-0.473 F1970.467
G1 X134.969 Y124.677 Z-0.473 F1948.668
G1 X134.990 Y124.363 Z-0.489 F1952.055
G1 X134.994 Y124.325 Z-0.492 F1920.279
G1 X135.019 Y124.086 Z-0.520 F1889.144
G1 X135.030 Y124.003 Z-0.527 F1925.663
G1 X135.036 Y123.960 Z-0.532 F1892.494
G1 X135.087 Y123.657 Z-0.576 F1864.716
G1 X135.090 Y123.643 Z-0.577 F1935.745
G1 X135.100 Y123.598 Z-0.581 F1907.999
G1 X135.123 Y123.508 Z-0.593 F1873.928
G0 Z3.000
G0 X135.048 Y123.373 Z3.000
G1 X135.048 Y123.373 Z-0.422 F499.998
G1 X135.123 Y123.508 Z-0.591 F1208.307
G1 X135.219 Y123.464 Z-0.461 F1142.388
G1 X135.406 Y123.391 Z-0.195 F1116.597
G1 X135.422 Y123.384 Z-0.171 F1093.157
G1 X135.632 Y123.103 Z0.432 F1005.275
G0 Z3.000
G0 X135.745 Y123.215 Z3.000
G1 X135.745 Y123.215 Z0.432 F499.998
G1 X135.516 Y123.355 Z-0.017 F1013.430
G1 X135.422 Y123.384 Z-0.168 F1054.372
G0 Z3.000
G0 X135.516 Y123.355 Z3.000
G1 X135.516 Y123.355 Z-0.019 F499.998
G1 X135.785 Y123.340 Z0.432 F1013.085
G0 Z3.000
G0 X135.034 Y123.341 Z3.000
G1 X135.034 Y123.341 Z-0.379 F499.998
G1 X134.937 Y123.164 Z-0.112 F1116.556
G0 Z3.000
G0 X134.934 Y123.158 Z3.000
G1 X134.934 Y123.158 Z-0.102 F499.998
G1 X134.925 Y123.141 Z-0.071 F1038.471
G0 Z3.000
G0 X134.924 Y123.138 Z3.000
G1 X134.924 Y123.138 Z-0.066 F499.998
G1 X134.861 Y122.854 Z0.433 F1003.791
G0 Z3.000
G0 X134.783 Y122.882 Z3.000
G1 X134.783 Y122.882 Z0.431 F499.998
G1 X134.924 Y123.138 Z-0.066 F1007.433
G1 X134.925 Y123.141 Z-0.070 F1023.856
G1 X134.716 Y122.934 Z0.432 F1005.077
G0 Z3.000
G0 X134.659 Y123.009 Z3.000
G1 X134.659 Y123.009 Z0.432 F499.998
G1 X134.937 Y123.164 Z-0.112 F1004.969
G1 X134.934 Y123.158 Z-0.102 F1070.825
G1 X134.950 Y122.846 Z0.433 F1004.978
G0 Z3.000
G0 X135.167 Y122.888 Z3.000
G1 X135.167 Y122.888 Z0.432 F499.998
G1 X135.034 Y123.341 Z-0.379 F1002.881
G1 X135.048 Y123.373 Z-0.422 F1156.698
G1 X134.570 Y123.239 Z0.433 F1002.351
G0 Z3.000
G0 X136.548 Y123.218 Z3.000
G1 X136.548 Y123.218 Z0.433 F499.998
G1 X136.830 Y123.163 Z-0.063 F1001.788
G1 X136.819 Y123.194 Z-0.029 F1234.995
G1 X136.943 Y123.432 Z0.432 F1002.252
G0 Z3.000
G0 X136.790 Y123.492 Z3.000
G1 X136.790 Y123.492 Z0.432 F499.998
G1 X136.767 Y123.307 Z0.119 F1013.010
G0 Z3.000
G0 X136.770 Y123.293 Z3.000
G1 X136.770 Y123.293 Z0.099 F499.998
G1 X136.819 Y123.194 Z-0.030 F1176.938
G0 Z3.000
G0 X136.830 Y123.163 Z3.000
G1 X136.830 Y123.163 Z-0.064 F499.998
G1 X136.914 Y122.986 Z-0.240 F1300.872
G1 X136.934 Y122.939 Z-0.282 F1340.635
G1 X137.056 Y122.678 Z-0.503 F1375.219
G1 X137.068 Y122.653 Z-0.525 F1363.374
G1 X137.081 Y122.627 Z-0.548 F1351.407
G1 X137.232 Y122.339 Z-0.799 F1373.273
G1 X137.183 Y122.260 Z-0.710 F1278.172
G1 X137.121 Y122.147 Z-0.581 F1248.688
G1 X137.026 Y121.997 Z-0.390 F1215.076
G0 Z3.000
G0 X136.990 Y121.926 Z3.000
G1 X136.990 Y121.926 Z-0.294 F499.998
G1 X136.910 Y121.807 Z-0.104 F1115.731
G0 Z3.000
G0 X136.898 Y121.782 Z3.000
G1 X136.898 Y121.782 Z-0.063 F499.998
G1 X136.893 Y121.770 Z-0.043 F1042.609
G0 Z3.000
G0 X136.892 Y121.768 Z3.000
G1 X136.892 Y121.768 Z-0.038 F499.998
G1 X136.893 Y121.770 Z-0.042 F1021.761
G1 X136.879 Y121.492 Z0.433 F1005.331
G0 Z3.000
G0 X136.798 Y121.509 Z3.000
G1 X136.798 Y121.509 Z0.432 F499.998
G1 X136.892 Y121.768 Z-0.039 F1005.856
G1 X136.729 Y121.546 Z0.432 F1005.831
G0 Z3.000
G0 X136.671 Y121.603 Z3.000
G1 X136.671 Y121.603 Z0.431 F499.998
G1 X136.898 Y121.782 Z-0.061 F1006.397
G1 X136.910 Y121.807 Z-0.103 F1072.491
G1 X136.624 Y121.681 Z0.431 F1006.249
G0 Z3.000
G0 X136.558 Y121.903 Z3.000
G1 X136.558 Y121.903 Z0.431 F499.998
G1 X137.026 Y121.997 Z-0.389 F1003.255
G1 X136.990 Y121.926 Z-0.294 F1166.040
G1 X137.082 Y121.513 Z0.432 F1003.764
G0 Z3.000
G0 X137.232 Y122.339 Z3.000
G1 X137.232 Y122.339 Z-0.799 F499.998
G1 X137.275 Y122.335 Z-0.761 F1308.065
G1 X137.402 Y122.329 Z-0.656 F1342.052
G1 X137.405 Y122.329 Z-0.654 F1390.862
G1 X137.431 Y122.329 Z-0.634 F1394.420
G1 X137.787 Y122.335 Z-0.379 F1405.337
G1 X137.895 Y122.342 Z-0.310 F1461.304
G1 X137.927 Y122.346 Z-0.294 F1531.016
G1 X137.991 Y122.352 Z-0.260 F1575.463
G1 X138.268 Y122.366 Z-0.150 F1629.128
G1 X138.317 Y122.371 Z-0.132 F1678.977
G1 X138.342 Y122.374 Z-0.125 F1734.573
G1 X138.407 Y122.379 Z-0.109 F1809.137
G1 X138.558 Y122.382 Z-0.096 F1895.349
G1 X138.602 Y122.382 Z-0.090 F1952.278
G1 X138.756 Y122.374 Z-0.096 F1985.762
G1 X138.779 Y122.372 Z-0.094 F1951.895
G1 X138.800 Y122.370 Z-0.100 F1868.109
G1 X138.803 Y122.370 Z-0.097 F1790.104
G1 X139.168 Y122.336 Z-0.176 F1804.935
G1 X139.211 Y122.331 Z-0.185 F1761.744
G1 X139.216 Y122.330 Z-0.189 F1719.300
G1 X139.251 Y122.325 Z-0.202 F1658.897
G1 X139.499 Y122.299 Z-0.305 F1624.982
G1 X139.560 Y122.291 Z-0.333 F1577.924
G1 X139.579 Y122.288 Z-0.345 F1535.645
G1 X139.658 Y122.277 Z-0.392 F1485.929
G1 X139.800 Y122.264 Z-0.486 F1442.421
G1 X139.848 Y122.261 Z-0.520 F1420.710
G1 X139.899 Y122.258 Z-0.561 F1361.486
G1 X139.946 Y122.255 Z-0.601 F1311.587
G1 X140.037 Y122.247 Z-0.684 F1299.375
G1 X140.201 Y122.241 Z-0.844 F1261.405
G1 X140.230 Y122.242 Z-0.874 F1225.659
G1 X140.344 Y122.240 Z-0.997 F1211.309
G1 X140.401 Y122.237 Z-1.065 F1181.970
G1 X140.461 Y122.385 Z-0.959 F1440.535
G1 X140.500 Y122.498 Z-0.888 F1487.877
G1 X140.545 Y122.650 Z-0.807 F1549.904
G1 X140.574 Y122.772 Z-0.754 F1616.189
G1 X140.596 Y122.883 Z-0.714 F1677.072
G1 X140.604 Y122.941 Z-0.698 F1741.104
