(Exported by FreeCAD)
(Post Processor: grbl_post)
(Output Time:2022-11-21 15:30:02.260879)
(Begin preamble)
G17 G90
G21
(Begin operation: Fixture)
(Path: Fixture)
G54
(Finish operation: Fixture)
(Begin operation: 6 60D 10mm001)
(Path: 6 60D 10mm001)
(6 60D 10mm001)
(Begin toolchange)
( M6 T2.0 )
M3 S20000.0
(Finish operation: 6 60D 10mm001)
(Begin operation: Engrave)
(Path: Engrave)
(Engrave)
G0 Z5.000
G0 Z5.000
G0 X30.764 Y93.893
G0 Z3.000
G1 X30.764 Y93.893 Z-2.000 F500.000
G1 X31.253 Y93.150 Z-2.000 F2000.000
G1 X31.470 Y92.890 Z-2.000 F2000.000
G1 X31.486 Y92.880 Z-2.000 F2000.000
G1 X31.497 Y92.876 Z-2.000 F2000.000
G1 X31.599 Y92.911 Z-2.000 F2000.000
G1 X32.290 Y93.294 Z-2.000 F2000.000
G1 X32.931 Y93.654 Z-2.000 F2000.000
G1 X33.094 Y93.717 Z-2.000 F2000.000
G1 X33.180 Y93.688 Z-2.000 F2000.000
G1 X33.215 Y93.602 Z-2.000 F2000.000
G1 X33.197 Y93.421 Z-2.000 F2000.000
G1 X33.079 Y93.063 Z-2.000 F2000.000
G1 X32.679 Y92.211 Z-2.000 F2000.000
G1 X32.363 Y91.538 Z-2.000 F2000.000
G1 X32.262 Y91.195 Z-2.000 F2000.000
G1 X32.265 Y90.987 Z-2.000 F2000.000
G1 X32.312 Y90.875 Z-2.000 F2000.000
G1 X32.954 Y89.785 Z-2.000 F2000.000
G1 X33.422 Y88.980 Z-2.000 F2000.000
G1 X32.856 Y88.986 Z-2.000 F2000.000
G1 X32.510 Y89.023 Z-2.000 F2000.000
G1 X32.087 Y89.136 Z-2.000 F2000.000
G1 X31.968 Y89.183 Z-2.000 F2000.000
G1 X31.866 Y89.234 Z-2.000 F2000.000
G1 X31.483 Y89.416 Z-2.000 F2000.000
G1 X31.212 Y89.473 Z-2.000 F2000.000
G1 X30.997 Y89.447 Z-2.000 F2000.000
G1 X30.809 Y89.349 Z-2.000 F2000.000
G1 X30.619 Y89.165 Z-2.000 F2000.000
G1 X30.497 Y89.001 Z-2.000 F2000.000
G1 X30.373 Y88.799 Z-2.000 F2000.000
G1 X30.130 Y88.440 Z-2.000 F2000.000
G1 X29.914 Y88.224 Z-2.000 F2000.000
G1 X29.839 Y88.183 Z-2.000 F2000.000
G1 X29.781 Y88.179 Z-2.000 F2000.000
G1 X29.724 Y88.235 Z-2.000 F2000.000
G1 X29.644 Y88.429 Z-2.000 F2000.000
G1 X29.546 Y88.872 Z-2.000 F2000.000
G1 X29.479 Y89.409 Z-2.000 F2000.000
G1 X29.422 Y89.968 Z-2.000 F2000.000
G1 X29.339 Y90.368 Z-2.000 F2000.000
G1 X29.211 Y90.639 Z-2.000 F2000.000
G1 X29.007 Y90.891 Z-2.000 F2000.000
G1 X28.590 Y91.285 Z-2.000 F2000.000
G1 X28.173 Y91.707 Z-2.000 F2000.000
G1 X27.885 Y92.087 Z-2.000 F2000.000
G1 X27.824 Y92.204 Z-2.000 F2000.000
G1 X27.802 Y92.291 Z-2.000 F2000.000
G1 X27.827 Y92.428 Z-2.000 F2000.000
G1 X27.909 Y92.499 Z-2.000 F2000.000
G1 X28.078 Y92.529 Z-2.000 F2000.000
G1 X28.721 Y92.489 Z-2.000 F2000.000
G1 X29.164 Y92.453 Z-2.000 F2000.000
G1 X29.462 Y92.471 Z-2.000 F2000.000
G1 X29.626 Y92.542 Z-2.000 F2000.000
G1 X29.726 Y92.664 Z-2.000 F2000.000
G1 X29.790 Y92.867 Z-2.000 F2000.000
G1 X29.826 Y93.237 Z-2.000 F2000.000
G1 X29.834 Y93.810 Z-2.000 F2000.000
G1 X29.867 Y94.383 Z-2.000 F2000.000
G1 X29.939 Y94.733 Z-2.000 F2000.000
G1 X29.964 Y94.785 Z-2.000 F2000.000
G1 X29.990 Y94.814 Z-2.000 F2000.000
G1 X30.046 Y94.808 Z-2.000 F2000.000
G1 X30.173 Y94.704 Z-2.000 F2000.000
G1 X30.431 Y94.393 Z-2.000 F2000.000
G1 X30.764 Y93.893 Z-2.000 F2000.000
G1 X30.764 Y93.893 Z-3.000 F500.000
G1 X31.253 Y93.150 Z-3.000 F2000.000
G1 X31.470 Y92.890 Z-3.000 F2000.000
G1 X31.486 Y92.880 Z-3.000 F2000.000
G1 X31.497 Y92.876 Z-3.000 F2000.000
G1 X31.599 Y92.911 Z-3.000 F2000.000
G1 X32.290 Y93.294 Z-3.000 F2000.000
G1 X32.931 Y93.654 Z-3.000 F2000.000
G1 X33.094 Y93.717 Z-3.000 F2000.000
G1 X33.180 Y93.688 Z-3.000 F2000.000
G1 X33.215 Y93.602 Z-3.000 F2000.000
G1 X33.197 Y93.421 Z-3.000 F2000.000
G1 X33.079 Y93.063 Z-3.000 F2000.000
G1 X32.679 Y92.211 Z-3.000 F2000.000
G1 X32.363 Y91.538 Z-3.000 F2000.000
G1 X32.262 Y91.195 Z-3.000 F2000.000
G1 X32.265 Y90.987 Z-3.000 F2000.000
G1 X32.312 Y90.875 Z-3.000 F2000.000
G1 X32.954 Y89.785 Z-3.000 F2000.000
G1 X33.422 Y88.980 Z-3.000 F2000.000
G1 X32.856 Y88.986 Z-3.000 F2000.000
G1 X32.510 Y89.023 Z-3.000 F2000.000
G1 X32.087 Y89.136 Z-3.000 F2000.000
G1 X31.968 Y89.183 Z-3.000 F2000.000
G1 X31.866 Y89.234 Z-3.000 F2000.000
G1 X31.483 Y89.416 Z-3.000 F2000.000
G1 X31.212 Y89.473 Z-3.000 F2000.000
G1 X30.997 Y89.447 Z-3.000 F2000.000
G1 X30.809 Y89.349 Z-3.000 F2000.000
G1 X30.619 Y89.165 Z-3.000 F2000.000
G1 X30.497 Y89.001 Z-3.000 F2000.000
G1 X30.373 Y88.799 Z-3.000 F2000.000
G1 X30.130 Y88.440 Z-3.000 F2000.000
G1 X29.914 Y88.224 Z-3.000 F2000.000
G1 X29.839 Y88.183 Z-3.000 F2000.000
G1 X29.781 Y88.179 Z-3.000 F2000.000
G1 X29.724 Y88.235 Z-3.000 F2000.000
G1 X29.644 Y88.429 Z-3.000 F2000.000
G1 X29.546 Y88.872 Z-3.000 F2000.000
G1 X29.479 Y89.409 Z-3.000 F2000.000
G1 X29.422 Y89.968 Z-3.000 F2000.000
G1 X29.339 Y90.368 Z-3.000 F2000.000
G1 X29.211 Y90.639 Z-3.000 F2000.000
G1 X29.007 Y90.891 Z-3.000 F2000.000
G1 X28.590 Y91.285 Z-3.000 F2000.000
G1 X28.173 Y91.707 Z-3.000 F2000.000
G1 X27.885 Y92.087 Z-3.000 F2000.000
G1 X27.824 Y92.204 Z-3.000 F2000.000
G1 X27.802 Y92.291 Z-3.000 F2000.000
G1 X27.827 Y92.428 Z-3.000 F2000.000
G1 X27.909 Y92.499 Z-3.000 F2000.000
G1 X28.078 Y92.529 Z-3.000 F2000.000
G1 X28.721 Y92.489 Z-3.000 F2000.000
G1 X29.164 Y92.453 Z-3.000 F2000.000
G1 X29.462 Y92.471 Z-3.000 F2000.000
G1 X29.626 Y92.542 Z-3.000 F2000.000
G1 X29.726 Y92.664 Z-3.000 F2000.000
G1 X29.790 Y92.867 Z-3.000 F2000.000
G1 X29.826 Y93.237 Z-3.000 F2000.000
G1 X29.834 Y93.810 Z-3.000 F2000.000
G1 X29.867 Y94.383 Z-3.000 F2000.000
G1 X29.939 Y94.733 Z-3.000 F2000.000
G1 X29.964 Y94.785 Z-3.000 F2000.000
G1 X29.990 Y94.814 Z-3.000 F2000.000
G1 X30.046 Y94.808 Z-3.000 F2000.000
G1 X30.173 Y94.704 Z-3.000 F2000.000
G1 X30.431 Y94.393 Z-3.000 F2000.000
G1 X30.764 Y93.893 Z-3.000 F2000.000
G0 Z5.000
G0 Z5.000
G0 X228.970 Y136.297
G0 Z3.000
G1 X228.970 Y136.297 Z-2.000 F500.000
G1 X230.515 Y136.015 Z-2.000 F2000.000
G1 X231.864 Y135.694 Z-2.000 F2000.000
G1 X233.067 Y135.334 Z-2.000 F2000.000
G1 X234.159 Y134.931 Z-2.000 F2000.000
G1 X235.169 Y134.482 Z-2.000 F2000.000
G1 X236.117 Y133.981 Z-2.000 F2000.000
G1 X237.023 Y133.419 Z-2.000 F2000.000
G1 X237.903 Y132.788 Z-2.000 F2000.000
G1 X238.775 Y132.073 Z-2.000 F2000.000
G1 X239.855 Y131.060 Z-2.000 F2000.000
G1 X240.577 Y130.282 Z-2.000 F2000.000
G1 X241.250 Y129.450 Z-2.000 F2000.000
G1 X241.874 Y128.562 Z-2.000 F2000.000
G1 X242.452 Y127.614 Z-2.000 F2000.000
G1 X242.983 Y126.602 Z-2.000 F2000.000
G1 X243.467 Y125.522 Z-2.000 F2000.000
G1 X243.904 Y124.368 Z-2.000 F2000.000
G1 X244.291 Y123.137 Z-2.000 F2000.000
G1 X244.628 Y121.822 Z-2.000 F2000.000
G1 X244.913 Y120.417 Z-2.000 F2000.000
G1 X245.066 Y119.471 Z-2.000 F2000.000
G1 X245.172 Y118.493 Z-2.000 F2000.000
G1 X245.221 Y117.376 Z-2.000 F2000.000
G1 X245.201 Y116.128 Z-2.000 F2000.000
G1 X245.107 Y114.768 Z-2.000 F2000.000
G1 X244.934 Y113.325 Z-2.000 F2000.000
G1 X244.682 Y111.836 Z-2.000 F2000.000
G1 X244.355 Y110.342 Z-2.000 F2000.000
G1 X243.939 Y108.814 Z-2.000 F2000.000
G1 X243.325 Y106.864 Z-2.000 F2000.000
G1 X242.847 Y105.565 Z-2.000 F2000.000
G1 X242.359 Y104.454 Z-2.000 F2000.000
G1 X241.728 Y103.203 Z-2.000 F2000.000
G1 X241.325 Y102.454 Z-2.000 F2000.000
G1 X240.263 Y100.569 Z-2.000 F2000.000
G1 X239.491 Y99.333 Z-2.000 F2000.000
G1 X238.805 Y98.371 Z-2.000 F2000.000
G1 X238.095 Y97.502 Z-2.000 F2000.000
G1 X236.678 Y95.993 Z-2.000 F2000.000
G1 X235.458 Y94.818 Z-2.000 F2000.000
G1 X234.328 Y93.831 Z-2.000 F2000.000
G1 X233.245 Y92.982 Z-2.000 F2000.000
G1 X232.176 Y92.235 Z-2.000 F2000.000
G1 X231.090 Y91.566 Z-2.000 F2000.000
G1 X229.960 Y90.955 Z-2.000 F2000.000
G1 X228.754 Y90.386 Z-2.000 F2000.000
G1 X227.405 Y89.832 Z-2.000 F2000.000
G1 X226.475 Y89.514 Z-2.000 F2000.000
G1 X225.466 Y89.246 Z-2.000 F2000.000
G1 X224.396 Y89.036 Z-2.000 F2000.000
G1 X223.289 Y88.892 Z-2.000 F2000.000
G1 X222.173 Y88.820 Z-2.000 F2000.000
G1 X221.079 Y88.821 Z-2.000 F2000.000
G1 X220.037 Y88.895 Z-2.000 F2000.000
G1 X219.072 Y89.036 Z-2.000 F2000.000
G1 X218.202 Y89.235 Z-2.000 F2000.000
G1 X217.710 Y89.387 Z-2.000 F2000.000
G1 X216.853 Y89.718 Z-2.000 F2000.000
G1 X216.017 Y90.117 Z-2.000 F2000.000
G1 X215.206 Y90.585 Z-2.000 F2000.000
G1 X214.428 Y91.117 Z-2.000 F2000.000
G1 X213.689 Y91.711 Z-2.000 F2000.000
G1 X212.995 Y92.361 Z-2.000 F2000.000
G1 X212.352 Y93.062 Z-2.000 F2000.000
G1 X211.767 Y93.809 Z-2.000 F2000.000
G1 X211.244 Y94.595 Z-2.000 F2000.000
G1 X210.787 Y95.413 Z-2.000 F2000.000
G1 X210.399 Y96.256 Z-2.000 F2000.000
G1 X210.278 Y96.562 Z-2.000 F2000.000
G1 X210.165 Y96.871 Z-2.000 F2000.000
G1 X209.875 Y97.818 Z-2.000 F2000.000
G1 X209.637 Y98.840 Z-2.000 F2000.000
G1 X209.457 Y99.933 Z-2.000 F2000.000
G1 X209.341 Y101.086 Z-2.000 F2000.000
G1 X209.294 Y102.284 Z-2.000 F2000.000
G1 X209.318 Y103.512 Z-2.000 F2000.000
G1 X209.415 Y104.752 Z-2.000 F2000.000
G1 X209.584 Y105.984 Z-2.000 F2000.000
G1 X209.824 Y107.190 Z-2.000 F2000.000
G1 X210.129 Y108.353 Z-2.000 F2000.000
G1 X210.452 Y109.340 Z-2.000 F2000.000
G1 X210.868 Y110.393 Z-2.000 F2000.000
G1 X211.373 Y111.475 Z-2.000 F2000.000
G1 X211.964 Y112.569 Z-2.000 F2000.000
G1 X212.634 Y113.658 Z-2.000 F2000.000
G1 X213.371 Y114.718 Z-2.000 F2000.000
G1 X214.161 Y115.727 Z-2.000 F2000.000
G1 X214.986 Y116.664 Z-2.000 F2000.000
G1 X215.829 Y117.512 Z-2.000 F2000.000
G1 X216.673 Y118.258 Z-2.000 F2000.000
G1 X217.236 Y118.700 Z-2.000 F2000.000
G1 X217.803 Y119.101 Z-2.000 F2000.000
G1 X218.570 Y119.570 Z-2.000 F2000.000
G1 X219.320 Y119.945 Z-2.000 F2000.000
G1 X220.046 Y120.229 Z-2.000 F2000.000
G1 X220.743 Y120.424 Z-2.000 F2000.000
G1 X221.406 Y120.536 Z-2.000 F2000.000
G1 X222.031 Y120.569 Z-2.000 F2000.000
G1 X222.616 Y120.528 Z-2.000 F2000.000
G1 X223.162 Y120.417 Z-2.000 F2000.000
G1 X223.667 Y120.240 Z-2.000 F2000.000
G1 X224.133 Y120.000 Z-2.000 F2000.000
G1 X224.711 Y119.568 Z-2.000 F2000.000
G1 X225.040 Y119.220 Z-2.000 F2000.000
G1 X225.314 Y118.824 Z-2.000 F2000.000
G1 X225.535 Y118.376 Z-2.000 F2000.000
G1 X225.702 Y117.870 Z-2.000 F2000.000
G1 X225.814 Y117.298 Z-2.000 F2000.000
G1 X225.865 Y116.652 Z-2.000 F2000.000
G1 X225.848 Y115.923 Z-2.000 F2000.000
G1 X225.689 Y114.721 Z-2.000 F2000.000
G1 X225.482 Y113.825 Z-2.000 F2000.000
G1 X225.207 Y112.953 Z-2.000 F2000.000
G1 X224.858 Y112.096 Z-2.000 F2000.000
G1 X224.433 Y111.243 Z-2.000 F2000.000
G1 X223.923 Y110.386 Z-2.000 F2000.000
G1 X223.318 Y109.514 Z-2.000 F2000.000
G1 X222.608 Y108.618 Z-2.000 F2000.000
G1 X221.776 Y107.688 Z-2.000 F2000.000
G1 X221.138 Y107.036 Z-2.000 F2000.000
G1 X220.450 Y106.378 Z-2.000 F2000.000
G1 X219.509 Y105.460 Z-2.000 F2000.000
G1 X218.779 Y104.662 Z-2.000 F2000.000
G1 X218.583 Y104.411 Z-2.000 F2000.000
G1 X218.479 Y104.239 Z-2.000 F2000.000
G1 X218.383 Y103.963 Z-2.000 F2000.000
G1 X218.374 Y103.763 Z-2.000 F2000.000
G1 X218.442 Y103.572 Z-2.000 F2000.000
G1 X218.628 Y103.293 Z-2.000 F2000.000
G1 X218.822 Y103.046 Z-2.000 F2000.000
G1 X219.128 Y102.613 Z-2.000 F2000.000
G1 X219.261 Y102.335 Z-2.000 F2000.000
G1 X219.270 Y102.276 Z-2.000 F2000.000
G1 X219.258 Y102.241 Z-2.000 F2000.000
G1 X219.181 Y102.213 Z-2.000 F2000.000
G1 X218.930 Y102.209 Z-2.000 F2000.000
G1 X218.632 Y102.239 Z-2.000 F2000.000
G1 X218.290 Y102.298 Z-2.000 F2000.000
G1 X217.893 Y102.374 Z-2.000 F2000.000
G1 X217.592 Y102.396 Z-2.000 F2000.000
G1 X217.419 Y102.348 Z-2.000 F2000.000
G1 X217.281 Y102.231 Z-2.000 F2000.000
G1 X217.096 Y101.989 Z-2.000 F2000.000
G1 X216.862 Y101.717 Z-2.000 F2000.000
G1 X216.706 Y101.621 Z-2.000 F2000.000
G1 X216.601 Y101.627 Z-2.000 F2000.000
G1 X216.524 Y101.703 Z-2.000 F2000.000
G1 X216.465 Y101.876 Z-2.000 F2000.000
G1 X216.446 Y102.025 Z-2.000 F2000.000
G1 X216.440 Y102.206 Z-2.000 F2000.000
G1 X216.402 Y102.488 Z-2.000 F2000.000
G1 X216.290 Y102.748 Z-2.000 F2000.000
G1 X216.089 Y103.020 Z-2.000 F2000.000
G1 X215.761 Y103.334 Z-2.000 F2000.000
G1 X215.175 Y103.774 Z-2.000 F2000.000
G1 X214.929 Y103.980 Z-2.000 F2000.000
G1 X214.855 Y104.112 Z-2.000 F2000.000
G1 X214.874 Y104.208 Z-2.000 F2000.000
G1 X214.969 Y104.287 Z-2.000 F2000.000
G1 X215.187 Y104.360 Z-2.000 F2000.000
G1 X215.370 Y104.394 Z-2.000 F2000.000
G1 X215.593 Y104.420 Z-2.000 F2000.000
G1 X216.186 Y104.474 Z-2.000 F2000.000
G1 X216.270 Y105.484 Z-2.000 F2000.000
G1 X216.355 Y106.494 Z-2.000 F2000.000
G1 X216.972 Y105.749 Z-2.000 F2000.000
G1 X217.589 Y105.004 Z-2.000 F2000.000
G1 X218.581 Y105.586 Z-2.000 F2000.000
G1 X219.010 Y105.878 Z-2.000 F2000.000
G1 X219.773 Y106.486 Z-2.000 F2000.000
G1 X220.792 Y107.391 Z-2.000 F2000.000
G1 X221.281 Y107.861 Z-2.000 F2000.000
G1 X222.255 Y108.859 Z-2.000 F2000.000
G1 X222.809 Y109.513 Z-2.000 F2000.000
G1 X223.204 Y110.090 Z-2.000 F2000.000
G1 X223.482 Y110.580 Z-2.000 F2000.000
G1 X223.778 Y111.163 Z-2.000 F2000.000
G1 X224.218 Y112.135 Z-2.000 F2000.000
G1 X224.652 Y113.255 Z-2.000 F2000.000
G1 X224.762 Y113.590 Z-2.000 F2000.000
G1 X224.841 Y113.870 Z-2.000 F2000.000
G1 X224.965 Y114.509 Z-2.000 F2000.000
G1 X225.034 Y115.239 Z-2.000 F2000.000
G1 X225.035 Y116.001 Z-2.000 F2000.000
G1 X224.966 Y116.715 Z-2.000 F2000.000
G1 X224.838 Y117.301 Z-2.000 F2000.000
G1 X224.760 Y117.532 Z-2.000 F2000.000
G1 X224.670 Y117.734 Z-2.000 F2000.000
G1 X224.451 Y118.077 Z-2.000 F2000.000
G1 X224.187 Y118.362 Z-2.000 F2000.000
G1 X223.876 Y118.590 Z-2.000 F2000.000
G1 X223.518 Y118.764 Z-2.000 F2000.000
G1 X223.111 Y118.880 Z-2.000 F2000.000
G1 X222.652 Y118.935 Z-2.000 F2000.000
G1 X222.139 Y118.922 Z-2.000 F2000.000
G1 X221.574 Y118.833 Z-2.000 F2000.000
G1 X220.959 Y118.662 Z-2.000 F2000.000
G1 X220.301 Y118.401 Z-2.000 F2000.000
G1 X219.607 Y118.046 Z-2.000 F2000.000
G1 X219.250 Y117.832 Z-2.000 F2000.000
G1 X218.891 Y117.595 Z-2.000 F2000.000
G1 X218.365 Y117.192 Z-2.000 F2000.000
G1 X217.622 Y116.530 Z-2.000 F2000.000
G1 X216.698 Y115.610 Z-2.000 F2000.000
G1 X215.739 Y114.555 Z-2.000 F2000.000
G1 X214.968 Y113.603 Z-2.000 F2000.000
G1 X214.798 Y113.371 Z-2.000 F2000.000
G1 X214.645 Y113.151 Z-2.000 F2000.000
G1 X214.069 Y112.229 Z-2.000 F2000.000
G1 X213.548 Y111.259 Z-2.000 F2000.000
G1 X213.087 Y110.251 Z-2.000 F2000.000
G1 X212.692 Y109.212 Z-2.000 F2000.000
G1 X212.368 Y108.156 Z-2.000 F2000.000
G1 X212.117 Y107.093 Z-2.000 F2000.000
G1 X211.942 Y106.036 Z-2.000 F2000.000
G1 X211.843 Y104.998 Z-2.000 F2000.000
G1 X211.820 Y103.990 Z-2.000 F2000.000
G1 X211.870 Y103.021 Z-2.000 F2000.000
G1 X211.990 Y102.101 Z-2.000 F2000.000
G1 X212.177 Y101.235 Z-2.000 F2000.000
G1 X212.497 Y100.232 Z-2.000 F2000.000
G1 X212.792 Y99.563 Z-2.000 F2000.000
G1 X213.174 Y98.877 Z-2.000 F2000.000
G1 X213.644 Y98.182 Z-2.000 F2000.000
G1 X214.201 Y97.487 Z-2.000 F2000.000
G1 X214.842 Y96.803 Z-2.000 F2000.000
G1 X215.558 Y96.146 Z-2.000 F2000.000
G1 X216.337 Y95.528 Z-2.000 F2000.000
G1 X217.166 Y94.965 Z-2.000 F2000.000
G1 X218.027 Y94.467 Z-2.000 F2000.000
G1 X218.903 Y94.046 Z-2.000 F2000.000
G1 X219.779 Y93.705 Z-2.000 F2000.000
G1 X220.183 Y93.575 Z-2.000 F2000.000
G1 X220.588 Y93.462 Z-2.000 F2000.000
G1 X221.389 Y93.292 Z-2.000 F2000.000
G1 X222.462 Y93.137 Z-2.000 F2000.000
G1 X223.716 Y93.028 Z-2.000 F2000.000
G1 X224.937 Y92.992 Z-2.000 F2000.000
G1 X226.089 Y93.055 Z-2.000 F2000.000
G1 X227.004 Y93.207 Z-2.000 F2000.000
G1 X227.951 Y93.436 Z-2.000 F2000.000
G1 X228.925 Y93.747 Z-2.000 F2000.000
G1 X229.921 Y94.142 Z-2.000 F2000.000
G1 X230.933 Y94.620 Z-2.000 F2000.000
G1 X231.951 Y95.182 Z-2.000 F2000.000
G1 X232.968 Y95.826 Z-2.000 F2000.000
G1 X233.971 Y96.549 Z-2.000 F2000.000
G1 X234.951 Y97.343 Z-2.000 F2000.000
G1 X235.897 Y98.204 Z-2.000 F2000.000
G1 X236.796 Y99.121 Z-2.000 F2000.000
G1 X237.640 Y100.087 Z-2.000 F2000.000
G1 X238.421 Y101.090 Z-2.000 F2000.000
G1 X239.130 Y102.121 Z-2.000 F2000.000
G1 X239.764 Y103.171 Z-2.000 F2000.000
G1 X240.183 Y103.958 Z-2.000 F2000.000
G1 X240.736 Y105.131 Z-2.000 F2000.000
G1 X241.416 Y106.745 Z-2.000 F2000.000
G1 X242.115 Y108.583 Z-2.000 F2000.000
G1 X242.753 Y110.527 Z-2.000 F2000.000
G1 X243.009 Y111.536 Z-2.000 F2000.000
G1 X243.215 Y112.648 Z-2.000 F2000.000
G1 X243.365 Y113.850 Z-2.000 F2000.000
G1 X243.451 Y115.124 Z-2.000 F2000.000
G1 X243.467 Y116.443 Z-2.000 F2000.000
G1 X243.412 Y117.773 Z-2.000 F2000.000
G1 X243.284 Y119.080 Z-2.000 F2000.000
G1 X243.090 Y120.330 Z-2.000 F2000.000
G1 X242.835 Y121.494 Z-2.000 F2000.000
G1 X242.530 Y122.551 Z-2.000 F2000.000
G1 X242.198 Y123.455 Z-2.000 F2000.000
G1 X241.597 Y124.815 Z-2.000 F2000.000
G1 X241.018 Y125.947 Z-2.000 F2000.000
G1 X240.443 Y126.912 Z-2.000 F2000.000
G1 X239.860 Y127.750 Z-2.000 F2000.000
G1 X239.256 Y128.491 Z-2.000 F2000.000
G1 X238.621 Y129.155 Z-2.000 F2000.000
G1 X237.942 Y129.760 Z-2.000 F2000.000
G1 X237.204 Y130.321 Z-2.000 F2000.000
G1 X236.389 Y130.848 Z-2.000 F2000.000
G1 X235.717 Y131.226 Z-2.000 F2000.000
G1 X235.001 Y131.585 Z-2.000 F2000.000
G1 X234.199 Y131.928 Z-2.000 F2000.000
G1 X233.458 Y132.162 Z-2.000 F2000.000
G1 X232.583 Y132.357 Z-2.000 F2000.000
G1 X231.545 Y132.530 Z-2.000 F2000.000
G1 X230.181 Y132.701 Z-2.000 F2000.000
G1 X229.071 Y132.766 Z-2.000 F2000.000
G1 X228.088 Y132.750 Z-2.000 F2000.000
G1 X227.120 Y132.660 Z-2.000 F2000.000
G1 X226.073 Y132.489 Z-2.000 F2000.000
G1 X225.389 Y132.345 Z-2.000 F2000.000
G1 X224.658 Y132.169 Z-2.000 F2000.000
G1 X223.389 Y131.810 Z-2.000 F2000.000
G1 X222.305 Y131.426 Z-2.000 F2000.000
G1 X221.297 Y130.992 Z-2.000 F2000.000
G1 X220.284 Y130.473 Z-2.000 F2000.000
G1 X219.184 Y129.828 Z-2.000 F2000.000
G1 X218.712 Y129.529 Z-2.000 F2000.000
G1 X218.222 Y129.207 Z-2.000 F2000.000
G1 X216.815 Y128.224 Z-2.000 F2000.000
G1 X215.501 Y127.216 Z-2.000 F2000.000
G1 X214.268 Y126.180 Z-2.000 F2000.000
G1 X213.110 Y125.111 Z-2.000 F2000.000
G1 X212.018 Y124.005 Z-2.000 F2000.000
G1 X210.987 Y122.856 Z-2.000 F2000.000
G1 X210.011 Y121.660 Z-2.000 F2000.000
G1 X209.085 Y120.410 Z-2.000 F2000.000
G1 X208.205 Y119.099 Z-2.000 F2000.000
G1 X207.367 Y117.721 Z-2.000 F2000.000
G1 X206.568 Y116.267 Z-2.000 F2000.000
G1 X206.209 Y115.562 Z-2.000 F2000.000
G1 X205.861 Y114.843 Z-2.000 F2000.000
G1 X205.239 Y113.446 Z-2.000 F2000.000
G1 X204.675 Y112.000 Z-2.000 F2000.000
G1 X204.171 Y110.509 Z-2.000 F2000.000
G1 X203.731 Y108.982 Z-2.000 F2000.000
G1 X203.358 Y107.426 Z-2.000 F2000.000
G1 X203.055 Y105.850 Z-2.000 F2000.000
G1 X202.824 Y104.264 Z-2.000 F2000.000
G1 X202.666 Y102.677 Z-2.000 F2000.000
G1 X202.581 Y101.098 Z-2.000 F2000.000
G1 X202.570 Y99.538 Z-2.000 F2000.000
G1 X202.633 Y98.006 Z-2.000 F2000.000
G1 X202.766 Y96.509 Z-2.000 F2000.000
G1 X202.968 Y95.057 Z-2.000 F2000.000
G1 X203.237 Y93.655 Z-2.000 F2000.000
G1 X203.570 Y92.308 Z-2.000 F2000.000
G1 X203.901 Y91.205 Z-2.000 F2000.000
G1 X204.276 Y90.166 Z-2.000 F2000.000
G1 X204.908 Y88.621 Z-2.000 F2000.000
G1 X205.707 Y86.850 Z-2.000 F2000.000
G1 X206.334 Y85.604 Z-2.000 F2000.000
G1 X206.686 Y85.036 Z-2.000 F2000.000
G1 X207.066 Y84.564 Z-2.000 F2000.000
G1 X210.017 Y85.086 Z-2.000 F2000.000
G1 X216.069 Y86.191 Z-2.000 F2000.000
G1 X225.076 Y87.875 Z-2.000 F2000.000
G1 X233.796 Y89.552 Z-2.000 F2000.000
G1 X241.901 Y91.090 Z-2.000 F2000.000
G1 X245.299 Y91.683 Z-2.000 F2000.000
G1 X246.210 Y91.816 Z-2.000 F2000.000
G1 X246.708 Y91.859 Z-2.000 F2000.000
G1 X247.034 Y91.833 Z-2.000 F2000.000
G1 X247.178 Y91.768 Z-2.000 F2000.000
G1 X247.242 Y91.665 Z-2.000 F2000.000
G1 X247.258 Y91.525 Z-2.000 F2000.000
G1 X247.223 Y91.366 Z-2.000 F2000.000
G1 X247.118 Y91.242 Z-2.000 F2000.000
G1 X246.907 Y91.120 Z-2.000 F2000.000
G1 X246.369 Y90.937 Z-2.000 F2000.000
G1 X245.408 Y90.698 Z-2.000 F2000.000
G1 X241.264 Y89.753 Z-2.000 F2000.000
G1 X230.910 Y87.467 Z-2.000 F2000.000
G1 X221.943 Y85.524 Z-2.000 F2000.000
G1 X214.498 Y83.915 Z-2.000 F2000.000
G1 X210.582 Y83.035 Z-2.000 F2000.000
G1 X209.233 Y82.685 Z-2.000 F2000.000
G1 X208.790 Y82.522 Z-2.000 F2000.000
G1 X208.666 Y82.426 Z-2.000 F2000.000
G1 X208.654 Y82.398 Z-2.000 F2000.000
G1 X208.650 Y82.370 Z-2.000 F2000.000
G1 X208.685 Y82.286 Z-2.000 F2000.000
G1 X208.889 Y82.013 Z-2.000 F2000.000
G1 X209.474 Y81.358 Z-2.000 F2000.000
G1 X210.605 Y80.198 Z-2.000 F2000.000
G1 X211.984 Y78.883 Z-2.000 F2000.000
G1 X212.470 Y78.453 Z-2.000 F2000.000
G1 X212.866 Y78.130 Z-2.000 F2000.000
G1 X213.594 Y77.621 Z-2.000 F2000.000
G1 X214.516 Y77.065 Z-2.000 F2000.000
G1 X215.601 Y76.495 Z-2.000 F2000.000
G1 X216.774 Y75.960 Z-2.000 F2000.000
G1 X217.931 Y75.512 Z-2.000 F2000.000
G1 X218.511 Y75.320 Z-2.000 F2000.000
G1 X219.068 Y75.160 Z-2.000 F2000.000
G1 X220.037 Y74.943 Z-2.000 F2000.000
G1 X221.123 Y74.774 Z-2.000 F2000.000
G1 X222.320 Y74.662 Z-2.000 F2000.000
G1 X223.613 Y74.613 Z-2.000 F2000.000
G1 X224.978 Y74.635 Z-2.000 F2000.000
G1 X226.386 Y74.730 Z-2.000 F2000.000
G1 X227.803 Y74.899 Z-2.000 F2000.000
G1 X229.194 Y75.138 Z-2.000 F2000.000
G1 X230.526 Y75.441 Z-2.000 F2000.000
G1 X231.986 Y75.868 Z-2.000 F2000.000
G1 X233.437 Y76.388 Z-2.000 F2000.000
G1 X234.833 Y76.965 Z-2.000 F2000.000
G1 X236.179 Y77.599 Z-2.000 F2000.000
G1 X237.477 Y78.292 Z-2.000 F2000.000
G1 X238.731 Y79.043 Z-2.000 F2000.000
G1 X239.942 Y79.854 Z-2.000 F2000.000
G1 X241.115 Y80.726 Z-2.000 F2000.000
G1 X242.250 Y81.662 Z-2.000 F2000.000
G1 X243.351 Y82.663 Z-2.000 F2000.000
G1 X244.418 Y83.732 Z-2.000 F2000.000
G1 X245.454 Y84.873 Z-2.000 F2000.000
G1 X246.459 Y86.089 Z-2.000 F2000.000
G1 X247.434 Y87.384 Z-2.000 F2000.000
G1 X248.198 Y88.485 Z-2.000 F2000.000
G1 X248.931 Y89.643 Z-2.000 F2000.000
G1 X249.820 Y91.174 Z-2.000 F2000.000
G1 X250.630 Y92.701 Z-2.000 F2000.000
G1 X251.040 Y93.593 Z-2.000 F2000.000
G1 X251.153 Y93.980 Z-2.000 F2000.000
G1 X251.135 Y94.102 Z-2.000 F2000.000
G1 X251.047 Y94.195 Z-2.000 F2000.000
G1 X250.824 Y94.292 Z-2.000 F2000.000
G1 X249.830 Y94.568 Z-2.000 F2000.000
G1 X249.420 Y94.707 Z-2.000 F2000.000
G1 X249.238 Y94.828 Z-2.000 F2000.000
G1 X249.188 Y94.929 Z-2.000 F2000.000
G1 X249.217 Y95.023 Z-2.000 F2000.000
G1 X249.335 Y95.127 Z-2.000 F2000.000
G1 X249.597 Y95.250 Z-2.000 F2000.000
G1 X249.847 Y95.330 Z-2.000 F2000.000
G1 X250.329 Y95.488 Z-2.000 F2000.000
G1 X250.569 Y95.623 Z-2.000 F2000.000
G1 X250.686 Y95.764 Z-2.000 F2000.000
G1 X250.728 Y95.929 Z-2.000 F2000.000
G1 X250.705 Y96.156 Z-2.000 F2000.000
G1 X250.592 Y96.523 Z-2.000 F2000.000
G1 X250.467 Y96.840 Z-2.000 F2000.000
G1 X250.239 Y97.473 Z-2.000 F2000.000
G1 X250.166 Y97.815 Z-2.000 F2000.000
G1 X250.168 Y97.859 Z-2.000 F2000.000
G1 X250.179 Y97.885 Z-2.000 F2000.000
G1 X250.237 Y97.893 Z-2.000 F2000.000
G1 X250.416 Y97.832 Z-2.000 F2000.000
G1 X250.814 Y97.614 Z-2.000 F2000.000
G1 X251.045 Y97.463 Z-2.000 F2000.000
G1 X251.651 Y97.085 Z-2.000 F2000.000
G1 X251.986 Y96.939 Z-2.000 F2000.000
G1 X252.062 Y96.974 Z-2.000 F2000.000
G1 X252.237 Y97.140 Z-2.000 F2000.000
G1 X252.422 Y97.370 Z-2.000 F2000.000
G1 X252.615 Y97.653 Z-2.000 F2000.000
G1 X252.814 Y97.963 Z-2.000 F2000.000
G1 X252.983 Y98.184 Z-2.000 F2000.000
G1 X253.062 Y98.224 Z-2.000 F2000.000
G1 X253.118 Y98.184 Z-2.000 F2000.000
G1 X253.213 Y97.969 Z-2.000 F2000.000
G1 X253.264 Y97.734 Z-2.000 F2000.000
G1 X253.288 Y97.280 Z-2.000 F2000.000
G1 X253.278 Y97.021 Z-2.000 F2000.000
G1 X253.253 Y96.767 Z-2.000 F2000.000
G1 X253.214 Y96.324 Z-2.000 F2000.000
G1 X253.246 Y96.041 Z-2.000 F2000.000
G1 X253.343 Y95.825 Z-2.000 F2000.000
G1 X253.521 Y95.619 Z-2.000 F2000.000
G1 X253.848 Y95.360 Z-2.000 F2000.000
G1 X254.080 Y95.203 Z-2.000 F2000.000
G1 X254.357 Y95.023 Z-2.000 F2000.000
G1 X254.807 Y94.701 Z-2.000 F2000.000
G1 X254.972 Y94.519 Z-2.000 F2000.000
G1 X254.998 Y94.412 Z-2.000 F2000.000
G1 X254.948 Y94.338 Z-2.000 F2000.000
G1 X254.809 Y94.279 Z-2.000 F2000.000
G1 X254.504 Y94.238 Z-2.000 F2000.000
G1 X254.215 Y94.230 Z-2.000 F2000.000
G1 X253.732 Y94.194 Z-2.000 F2000.000
G1 X253.364 Y94.096 Z-2.000 F2000.000
G1 X253.091 Y93.952 Z-2.000 F2000.000
G1 X252.895 Y93.768 Z-2.000 F2000.000
G1 X252.763 Y93.545 Z-2.000 F2000.000
G1 X252.691 Y93.277 Z-2.000 F2000.000
G1 X252.677 Y93.073 Z-2.000 F2000.000
G1 X252.647 Y92.690 Z-2.000 F2000.000
G1 X252.582 Y92.529 Z-2.000 F2000.000
G1 X252.499 Y92.480 Z-2.000 F2000.000
G1 X252.392 Y92.505 Z-2.000 F2000.000
G1 X252.228 Y92.626 Z-2.000 F2000.000
G1 X252.115 Y92.741 Z-2.000 F2000.000
G1 X251.989 Y92.889 Z-2.000 F2000.000
G1 X251.546 Y93.431 Z-2.000 F2000.000
G1 X250.742 Y91.841 Z-2.000 F2000.000
G1 X250.079 Y90.609 Z-2.000 F2000.000
G1 X249.268 Y89.255 Z-2.000 F2000.000
G1 X248.323 Y87.816 Z-2.000 F2000.000
G1 X247.271 Y86.345 Z-2.000 F2000.000
G1 X246.159 Y84.914 Z-2.000 F2000.000
G1 X245.043 Y83.595 Z-2.000 F2000.000
G1 X243.979 Y82.448 Z-2.000 F2000.000
G1 X243.012 Y81.512 Z-2.000 F2000.000
G1 X242.478 Y81.046 Z-2.000 F2000.000
G1 X241.967 Y80.640 Z-2.000 F2000.000
G1 X240.206 Y79.365 Z-2.000 F2000.000
G1 X238.725 Y78.382 Z-2.000 F2000.000
G1 X237.410 Y77.598 Z-2.000 F2000.000
G1 X236.168 Y76.942 Z-2.000 F2000.000
G1 X234.930 Y76.371 Z-2.000 F2000.000
G1 X233.635 Y75.854 Z-2.000 F2000.000
G1 X232.217 Y75.367 Z-2.000 F2000.000
G1 X230.587 Y74.884 Z-2.000 F2000.000
G1 X230.001 Y74.726 Z-2.000 F2000.000
G1 X229.394 Y74.569 Z-2.000 F2000.000
G1 X227.839 Y74.212 Z-2.000 F2000.000
G1 X226.415 Y73.960 Z-2.000 F2000.000
G1 X225.085 Y73.798 Z-2.000 F2000.000
G1 X223.819 Y73.716 Z-2.000 F2000.000
G1 X222.592 Y73.710 Z-2.000 F2000.000
G1 X221.385 Y73.777 Z-2.000 F2000.000
G1 X220.175 Y73.917 Z-2.000 F2000.000
G1 X218.942 Y74.132 Z-2.000 F2000.000
G1 X218.336 Y74.264 Z-2.000 F2000.000
G1 X217.726 Y74.414 Z-2.000 F2000.000
G1 X216.497 Y74.769 Z-2.000 F2000.000
G1 X215.345 Y75.178 Z-2.000 F2000.000
G1 X214.241 Y75.647 Z-2.000 F2000.000
G1 X213.162 Y76.186 Z-2.000 F2000.000
G1 X212.086 Y76.806 Z-2.000 F2000.000
G1 X210.992 Y77.520 Z-2.000 F2000.000
G1 X209.860 Y78.347 Z-2.000 F2000.000
G1 X208.662 Y79.313 Z-2.000 F2000.000
G1 X208.166 Y79.739 Z-2.000 F2000.000
G1 X207.663 Y80.184 Z-2.000 F2000.000
G1 X205.744 Y81.909 Z-2.000 F2000.000
G1 X204.276 Y81.625 Z-2.000 F2000.000
G1 X202.290 Y81.206 Z-2.000 F2000.000
G1 X194.003 Y79.392 Z-2.000 F2000.000
G1 X182.488 Y76.850 Z-2.000 F2000.000
G1 X180.029 Y76.277 Z-2.000 F2000.000
G1 X168.772 Y73.534 Z-2.000 F2000.000
G1 X160.588 Y71.543 Z-2.000 F2000.000
G1 X157.177 Y70.754 Z-2.000 F2000.000
G1 X156.963 Y70.711 Z-2.000 F2000.000
G1 X156.834 Y70.688 Z-2.000 F2000.000
G1 X156.198 Y70.640 Z-2.000 F2000.000
G1 X155.536 Y70.662 Z-2.000 F2000.000
G1 X154.864 Y70.757 Z-2.000 F2000.000
G1 X154.196 Y70.925 Z-2.000 F2000.000
G1 X153.405 Y71.227 Z-2.000 F2000.000
G1 X152.600 Y71.597 Z-2.000 F2000.000
G1 X152.201 Y71.222 Z-2.000 F2000.000
G1 X151.948 Y71.014 Z-2.000 F2000.000
G1 X151.774 Y70.945 Z-2.000 F2000.000
G1 X151.606 Y70.956 Z-2.000 F2000.000
G1 X151.368 Y71.045 Z-2.000 F2000.000
G1 X151.054 Y71.146 Z-2.000 F2000.000
G1 X150.736 Y71.168 Z-2.000 F2000.000
G1 X150.379 Y71.116 Z-2.000 F2000.000
G1 X149.944 Y70.975 Z-2.000 F2000.000
G1 X149.380 Y70.711 Z-2.000 F2000.000
G1 X148.600 Y70.262 Z-2.000 F2000.000
G1 X148.056 Y69.915 Z-2.000 F2000.000
G1 X146.362 Y68.809 Z-2.000 F2000.000
G1 X145.710 Y69.142 Z-2.000 F2000.000
G1 X145.262 Y69.332 Z-2.000 F2000.000
G1 X144.678 Y69.503 Z-2.000 F2000.000
G1 X144.029 Y69.620 Z-2.000 F2000.000
G1 X143.452 Y69.655 Z-2.000 F2000.000
G1 X143.036 Y69.607 Z-2.000 F2000.000
G1 X142.855 Y69.527 Z-2.000 F2000.000
G1 X142.606 Y69.334 Z-2.000 F2000.000
G1 X142.323 Y69.024 Z-2.000 F2000.000
G1 X142.187 Y68.830 Z-2.000 F2000.000
G1 X141.925 Y68.481 Z-2.000 F2000.000
G1 X141.652 Y68.233 Z-2.000 F2000.000
G1 X141.379 Y68.080 Z-2.000 F2000.000
G1 X141.114 Y68.011 Z-2.000 F2000.000
G1 X140.858 Y68.020 Z-2.000 F2000.000
G1 X140.682 Y68.071 Z-2.000 F2000.000
G1 X140.510 Y68.159 Z-2.000 F2000.000
G1 X139.893 Y68.524 Z-2.000 F2000.000
G1 X139.522 Y68.679 Z-2.000 F2000.000
G1 X139.232 Y68.726 Z-2.000 F2000.000
G1 X138.940 Y68.698 Z-2.000 F2000.000
G1 X138.624 Y68.615 Z-2.000 F2000.000
G1 X138.321 Y68.487 Z-2.000 F2000.000
G1 X137.883 Y68.220 Z-2.000 F2000.000
G1 X137.348 Y67.808 Z-2.000 F2000.000
G1 X137.031 Y67.520 Z-2.000 F2000.000
G1 X136.371 Y66.927 Z-2.000 F2000.000
G1 X136.002 Y66.658 Z-2.000 F2000.000
G1 X135.959 Y66.638 Z-2.000 F2000.000
G1 X135.930 Y66.631 Z-2.000 F2000.000
G1 X135.740 Y66.666 Z-2.000 F2000.000
G1 X135.075 Y66.868 Z-2.000 F2000.000
G1 X134.520 Y67.020 Z-2.000 F2000.000
G1 X133.864 Y67.121 Z-2.000 F2000.000
G1 X133.022 Y67.171 Z-2.000 F2000.000
G1 X131.890 Y67.165 Z-2.000 F2000.000
G1 X130.907 Y67.136 Z-2.000 F2000.000
G1 X130.573 Y66.380 Z-2.000 F2000.000
G1 X130.343 Y65.949 Z-2.000 F2000.000
G1 X130.084 Y65.610 Z-2.000 F2000.000
G1 X129.805 Y65.361 Z-2.000 F2000.000
G1 X129.513 Y65.195 Z-2.000 F2000.000
G1 X129.213 Y65.106 Z-2.000 F2000.000
G1 X128.905 Y65.091 Z-2.000 F2000.000
G1 X128.590 Y65.149 Z-2.000 F2000.000
G1 X128.267 Y65.284 Z-2.000 F2000.000
G1 X128.078 Y65.400 Z-2.000 F2000.000
G1 X127.890 Y65.544 Z-2.000 F2000.000
G1 X127.367 Y65.984 Z-2.000 F2000.000
G1 X126.755 Y65.446 Z-2.000 F2000.000
G1 X126.404 Y65.185 Z-2.000 F2000.000
G1 X126.099 Y65.046 Z-2.000 F2000.000
G1 X125.827 Y65.000 Z-2.000 F2000.000
G1 X125.570 Y65.030 Z-2.000 F2000.000
G1 X125.312 Y65.135 Z-2.000 F2000.000
G1 X125.150 Y65.238 Z-2.000 F2000.000
G1 X124.986 Y65.372 Z-2.000 F2000.000
G1 X124.744 Y65.547 Z-2.000 F2000.000
G1 X124.563 Y65.599 Z-2.000 F2000.000
G1 X124.408 Y65.571 Z-2.000 F2000.000
G1 X124.252 Y65.465 Z-2.000 F2000.000
G1 X124.153 Y65.359 Z-2.000 F2000.000
G1 X123.984 Y65.208 Z-2.000 F2000.000
G1 X123.786 Y65.125 Z-2.000 F2000.000
G1 X123.564 Y65.106 Z-2.000 F2000.000
G1 X123.325 Y65.157 Z-2.000 F2000.000
G1 X123.088 Y65.280 Z-2.000 F2000.000
G1 X122.879 Y65.471 Z-2.000 F2000.000
G1 X122.725 Y65.712 Z-2.000 F2000.000
G1 X122.643 Y65.981 Z-2.000 F2000.000
G1 X122.632 Y66.064 Z-2.000 F2000.000
G1 X122.629 Y66.150 Z-2.000 F2000.000
G1 X122.663 Y66.397 Z-2.000 F2000.000
G1 X122.766 Y66.635 Z-2.000 F2000.000
G1 X122.931 Y66.844 Z-2.000 F2000.000
G1 X123.141 Y66.996 Z-2.000 F2000.000
G1 X123.368 Y67.072 Z-2.000 F2000.000
G1 X123.507 Y67.078 Z-2.000 F2000.000
G1 X123.646 Y67.052 Z-2.000 F2000.000
G1 X123.841 Y67.025 Z-2.000 F2000.000
G1 X124.015 Y67.077 Z-2.000 F2000.000
G1 X124.219 Y67.223 Z-2.000 F2000.000
G1 X124.602 Y67.629 Z-2.000 F2000.000
G1 X124.980 Y68.029 Z-2.000 F2000.000
G1 X125.236 Y68.214 Z-2.000 F2000.000
G1 X125.452 Y68.286 Z-2.000 F2000.000
G1 X125.666 Y68.280 Z-2.000 F2000.000
G1 X125.922 Y68.196 Z-2.000 F2000.000
G1 X126.104 Y68.106 Z-2.000 F2000.000
G1 X126.308 Y67.987 Z-2.000 F2000.000
G1 X126.855 Y67.654 Z-2.000 F2000.000
G1 X127.049 Y68.030 Z-2.000 F2000.000
G1 X127.326 Y68.487 Z-2.000 F2000.000
G1 X127.598 Y68.801 Z-2.000 F2000.000
G1 X127.868 Y69.004 Z-2.000 F2000.000
G1 X128.140 Y69.121 Z-2.000 F2000.000
G1 X128.424 Y69.163 Z-2.000 F2000.000
G1 X128.729 Y69.133 Z-2.000 F2000.000
G1 X129.068 Y69.025 Z-2.000 F2000.000
G1 X129.456 Y68.824 Z-2.000 F2000.000
G1 X129.632 Y68.708 Z-2.000 F2000.000
G1 X129.814 Y68.576 Z-2.000 F2000.000
G1 X130.267 Y68.271 Z-2.000 F2000.000
G1 X130.718 Y68.047 Z-2.000 F2000.000
G1 X130.860 Y68.001 Z-2.000 F2000.000
G1 X130.970 Y67.985 Z-2.000 F2000.000
G1 X131.235 Y68.021 Z-2.000 F2000.000
G1 X131.656 Y68.155 Z-2.000 F2000.000
G1 X132.262 Y68.427 Z-2.000 F2000.000
G1 X133.032 Y68.853 Z-2.000 F2000.000
G1 X134.107 Y69.573 Z-2.000 F2000.000
G1 X135.171 Y70.361 Z-2.000 F2000.000
G1 X136.581 Y69.922 Z-2.000 F2000.000
G1 X137.551 Y69.650 Z-2.000 F2000.000
G1 X138.138 Y69.548 Z-2.000 F2000.000
G1 X138.540 Y69.545 Z-2.000 F2000.000
G1 X138.843 Y69.613 Z-2.000 F2000.000
G1 X139.092 Y69.742 Z-2.000 F2000.000
G1 X139.325 Y69.945 Z-2.000 F2000.000
G1 X139.618 Y70.323 Z-2.000 F2000.000
G1 X139.956 Y70.762 Z-2.000 F2000.000
G1 X140.263 Y71.049 Z-2.000 F2000.000
G1 X140.538 Y71.211 Z-2.000 F2000.000
G1 X140.787 Y71.277 Z-2.000 F2000.000
G1 X141.016 Y71.263 Z-2.000 F2000.000
G1 X141.171 Y71.210 Z-2.000 F2000.000
G1 X141.321 Y71.122 Z-2.000 F2000.000
G1 X142.066 Y70.584 Z-2.000 F2000.000
G1 X142.295 Y70.463 Z-2.000 F2000.000
G1 X142.550 Y70.411 Z-2.000 F2000.000
G1 X142.841 Y70.428 Z-2.000 F2000.000
G1 X143.181 Y70.522 Z-2.000 F2000.000
G1 X143.582 Y70.713 Z-2.000 F2000.000
G1 X144.058 Y71.022 Z-2.000 F2000.000
G1 X144.422 Y71.307 Z-2.000 F2000.000
G1 X144.806 Y71.646 Z-2.000 F2000.000
G1 X145.824 Y72.588 Z-2.000 F2000.000
G1 X146.618 Y72.318 Z-2.000 F2000.000
G1 X147.068 Y72.202 Z-2.000 F2000.000
G1 X147.748 Y72.104 Z-2.000 F2000.000
G1 X148.322 Y72.062 Z-2.000 F2000.000
G1 X148.939 Y72.047 Z-2.000 F2000.000
G1 X149.783 Y72.058 Z-2.000 F2000.000
G1 X150.270 Y72.107 Z-2.000 F2000.000
G1 X150.550 Y72.199 Z-2.000 F2000.000
G1 X150.770 Y72.347 Z-2.000 F2000.000
G1 X150.937 Y72.499 Z-2.000 F2000.000
G1 X151.220 Y72.747 Z-2.000 F2000.000
G1 X151.405 Y72.843 Z-2.000 F2000.000
G1 X151.567 Y72.849 Z-2.000 F2000.000
G1 X151.870 Y72.741 Z-2.000 F2000.000
G1 X152.106 Y72.650 Z-2.000 F2000.000
G1 X152.278 Y72.639 Z-2.000 F2000.000
G1 X152.434 Y72.706 Z-2.000 F2000.000
G1 X152.650 Y72.888 Z-2.000 F2000.000
G1 X152.953 Y73.205 Z-2.000 F2000.000
G1 X153.461 Y73.702 Z-2.000 F2000.000
G1 X153.993 Y74.120 Z-2.000 F2000.000
G1 X154.554 Y74.469 Z-2.000 F2000.000
G1 X155.149 Y74.754 Z-2.000 F2000.000
G1 X155.840 Y74.994 Z-2.000 F2000.000
G1 X156.436 Y75.128 Z-2.000 F2000.000
G1 X158.746 Y75.566 Z-2.000 F2000.000
G1 X160.688 Y75.912 Z-2.000 F2000.000
G1 X162.846 Y76.283 Z-2.000 F2000.000
G1 X169.370 Y77.416 Z-2.000 F2000.000
G1 X171.482 Y77.803 Z-2.000 F2000.000
G1 X178.763 Y79.161 Z-2.000 F2000.000
G1 X189.539 Y81.167 Z-2.000 F2000.000
G1 X197.474 Y82.715 Z-2.000 F2000.000
G1 X201.238 Y83.454 Z-2.000 F2000.000
G1 X203.274 Y83.827 Z-2.000 F2000.000
G1 X203.729 Y83.924 Z-2.000 F2000.000
G1 X203.994 Y84.039 Z-2.000 F2000.000
G1 X204.056 Y84.093 Z-2.000 F2000.000
G1 X204.078 Y84.147 Z-2.000 F2000.000
G1 X204.044 Y84.266 Z-2.000 F2000.000
G1 X203.846 Y84.664 Z-2.000 F2000.000
G1 X203.640 Y85.020 Z-2.000 F2000.000
G1 X203.396 Y85.412 Z-2.000 F2000.000
G1 X202.740 Y86.494 Z-2.000 F2000.000
G1 X202.123 Y87.652 Z-2.000 F2000.000
G1 X201.545 Y88.896 Z-2.000 F2000.000
G1 X201.003 Y90.235 Z-2.000 F2000.000
G1 X200.498 Y91.679 Z-2.000 F2000.000
G1 X200.029 Y93.241 Z-2.000 F2000.000
G1 X199.598 Y94.934 Z-2.000 F2000.000
G1 X199.206 Y96.775 Z-2.000 F2000.000
G1 X199.043 Y97.650 Z-2.000 F2000.000
G1 X198.890 Y98.548 Z-2.000 F2000.000
G1 X198.762 Y99.559 Z-2.000 F2000.000
G1 X198.654 Y100.977 Z-2.000 F2000.000
G1 X198.590 Y102.776 Z-2.000 F2000.000
G1 X198.590 Y104.778 Z-2.000 F2000.000
G1 X198.661 Y106.670 Z-2.000 F2000.000
G1 X198.783 Y108.125 Z-2.000 F2000.000
G1 X198.887 Y108.865 Z-2.000 F2000.000
G1 X199.238 Y110.685 Z-2.000 F2000.000
G1 X199.663 Y112.512 Z-2.000 F2000.000
G1 X200.153 Y114.302 Z-2.000 F2000.000
G1 X200.696 Y116.010 Z-2.000 F2000.000
G1 X201.275 Y117.595 Z-2.000 F2000.000
G1 X201.697 Y118.623 Z-2.000 F2000.000
G1 X202.135 Y119.591 Z-2.000 F2000.000
G1 X202.810 Y120.922 Z-2.000 F2000.000
G1 X203.558 Y122.239 Z-2.000 F2000.000
G1 X204.378 Y123.535 Z-2.000 F2000.000
G1 X205.265 Y124.802 Z-2.000 F2000.000
G1 X206.214 Y126.032 Z-2.000 F2000.000
G1 X207.219 Y127.217 Z-2.000 F2000.000
G1 X208.274 Y128.348 Z-2.000 F2000.000
G1 X209.371 Y129.418 Z-2.000 F2000.000
G1 X210.501 Y130.419 Z-2.000 F2000.000
G1 X211.656 Y131.346 Z-2.000 F2000.000
G1 X212.828 Y132.193 Z-2.000 F2000.000
G1 X214.007 Y132.956 Z-2.000 F2000.000
G1 X215.187 Y133.632 Z-2.000 F2000.000
G1 X216.359 Y134.221 Z-2.000 F2000.000
G1 X217.518 Y134.722 Z-2.000 F2000.000
G1 X218.659 Y135.135 Z-2.000 F2000.000
G1 X219.470 Y135.381 Z-2.000 F2000.000
G1 X221.228 Y135.830 Z-2.000 F2000.000
G1 X222.746 Y136.144 Z-2.000 F2000.000
G1 X224.094 Y136.349 Z-2.000 F2000.000
G1 X225.322 Y136.463 Z-2.000 F2000.000
G1 X226.467 Y136.497 Z-2.000 F2000.000
G1 X227.561 Y136.458 Z-2.000 F2000.000
G1 X228.269 Y136.393 Z-2.000 F2000.000
G1 X228.970 Y136.297 Z-2.000 F2000.000
G1 X228.970 Y136.297 Z-2.000 F2000.000
G1 X228.970 Y136.297 Z-3.000 F500.000
G1 X230.515 Y136.015 Z-3.000 F2000.000
G1 X231.864 Y135.694 Z-3.000 F2000.000
G1 X233.067 Y135.334 Z-3.000 F2000.000
G1 X234.159 Y134.931 Z-3.000 F2000.000
G1 X235.169 Y134.482 Z-3.000 F2000.000
G1 X236.117 Y133.981 Z-3.000 F2000.000
G1 X237.023 Y133.419 Z-3.000 F2000.000
G1 X237.903 Y132.788 Z-3.000 F2000.000
G1 X238.775 Y132.073 Z-3.000 F2000.000
G1 X239.855 Y131.060 Z-3.000 F2000.000
G1 X240.577 Y130.282 Z-3.000 F2000.000
G1 X241.250 Y129.450 Z-3.000 F2000.000
G1 X241.874 Y128.562 Z-3.000 F2000.000
G1 X242.452 Y127.614 Z-3.000 F2000.000
G1 X242.983 Y126.602 Z-3.000 F2000.000
G1 X243.467 Y125.522 Z-3.000 F2000.000
G1 X243.904 Y124.368 Z-3.000 F2000.000
G1 X244.291 Y123.137 Z-3.000 F2000.000
G1 X244.628 Y121.822 Z-3.000 F2000.000
G1 X244.913 Y120.417 Z-3.000 F2000.000
G1 X245.066 Y119.471 Z-3.000 F2000.000
G1 X245.172 Y118.493 Z-3.000 F2000.000
G1 X245.221 Y117.376 Z-3.000 F2000.000
G1 X245.201 Y116.128 Z-3.000 F2000.000
G1 X245.107 Y114.768 Z-3.000 F2000.000
G1 X244.934 Y113.325 Z-3.000 F2000.000
G1 X244.682 Y111.836 Z-3.000 F2000.000
G1 X244.355 Y110.342 Z-3.000 F2000.000
G1 X243.939 Y108.814 Z-3.000 F2000.000
G1 X243.325 Y106.864 Z-3.000 F2000.000
G1 X242.847 Y105.565 Z-3.000 F2000.000
G1 X242.359 Y104.454 Z-3.000 F2000.000
G1 X241.728 Y103.203 Z-3.000 F2000.000
G1 X241.325 Y102.454 Z-3.000 F2000.000
G1 X240.263 Y100.569 Z-3.000 F2000.000
G1 X239.491 Y99.333 Z-3.000 F2000.000
G1 X238.805 Y98.371 Z-3.000 F2000.000
G1 X238.095 Y97.502 Z-3.000 F2000.000
G1 X236.678 Y95.993 Z-3.000 F2000.000
G1 X235.458 Y94.818 Z-3.000 F2000.000
G1 X234.328 Y93.831 Z-3.000 F2000.000
G1 X233.245 Y92.982 Z-3.000 F2000.000
G1 X232.176 Y92.235 Z-3.000 F2000.000
G1 X231.090 Y91.566 Z-3.000 F2000.000
G1 X229.960 Y90.955 Z-3.000 F2000.000
G1 X228.754 Y90.386 Z-3.000 F2000.000
G1 X227.405 Y89.832 Z-3.000 F2000.000
G1 X226.475 Y89.514 Z-3.000 F2000.000
G1 X225.466 Y89.246 Z-3.000 F2000.000
G1 X224.396 Y89.036 Z-3.000 F2000.000
G1 X223.289 Y88.892 Z-3.000 F2000.000
G1 X222.173 Y88.820 Z-3.000 F2000.000
G1 X221.079 Y88.821 Z-3.000 F2000.000
G1 X220.037 Y88.895 Z-3.000 F2000.000
G1 X219.072 Y89.036 Z-3.000 F2000.000
G1 X218.202 Y89.235 Z-3.000 F2000.000
G1 X217.710 Y89.387 Z-3.000 F2000.000
G1 X216.853 Y89.718 Z-3.000 F2000.000
G1 X216.017 Y90.117 Z-3.000 F2000.000
G1 X215.206 Y90.585 Z-3.000 F2000.000
G1 X214.428 Y91.117 Z-3.000 F2000.000
G1 X213.689 Y91.711 Z-3.000 F2000.000
G1 X212.995 Y92.361 Z-3.000 F2000.000
G1 X212.352 Y93.062 Z-3.000 F2000.000
G1 X211.767 Y93.809 Z-3.000 F2000.000
G1 X211.244 Y94.595 Z-3.000 F2000.000
G1 X210.787 Y95.413 Z-3.000 F2000.000
G1 X210.399 Y96.256 Z-3.000 F2000.000
G1 X210.278 Y96.562 Z-3.000 F2000.000
G1 X210.165 Y96.871 Z-3.000 F2000.000
G1 X209.875 Y97.818 Z-3.000 F2000.000
G1 X209.637 Y98.840 Z-3.000 F2000.000
G1 X209.457 Y99.933 Z-3.000 F2000.000
G1 X209.341 Y101.086 Z-3.000 F2000.000
G1 X209.294 Y102.284 Z-3.000 F2000.000
G1 X209.318 Y103.512 Z-3.000 F2000.000
G1 X209.415 Y104.752 Z-3.000 F2000.000
G1 X209.584 Y105.984 Z-3.000 F2000.000
G1 X209.824 Y107.190 Z-3.000 F2000.000
G1 X210.129 Y108.353 Z-3.000 F2000.000
G1 X210.452 Y109.340 Z-3.000 F2000.000
G1 X210.868 Y110.393 Z-3.000 F2000.000
G1 X211.373 Y111.475 Z-3.000 F2000.000
G1 X211.964 Y112.569 Z-3.000 F2000.000
G1 X212.634 Y113.658 Z-3.000 F2000.000
G1 X213.371 Y114.718 Z-3.000 F2000.000
G1 X214.161 Y115.727 Z-3.000 F2000.000
G1 X214.986 Y116.664 Z-3.000 F2000.000
G1 X215.829 Y117.512 Z-3.000 F2000.000
G1 X216.673 Y118.258 Z-3.000 F2000.000
G1 X217.236 Y118.700 Z-3.000 F2000.000
G1 X217.803 Y119.101 Z-3.000 F2000.000
G1 X218.570 Y119.570 Z-3.000 F2000.000
G1 X219.320 Y119.945 Z-3.000 F2000.000
G1 X220.046 Y120.229 Z-3.000 F2000.000
G1 X220.743 Y120.424 Z-3.000 F2000.000
G1 X221.406 Y120.536 Z-3.000 F2000.000
G1 X222.031 Y120.569 Z-3.000 F2000.000
G1 X222.616 Y120.528 Z-3.000 F2000.000
G1 X223.162 Y120.417 Z-3.000 F2000.000
G1 X223.667 Y120.240 Z-3.000 F2000.000
G1 X224.133 Y120.000 Z-3.000 F2000.000
G1 X224.711 Y119.568 Z-3.000 F2000.000
G1 X225.040 Y119.220 Z-3.000 F2000.000
G1 X225.314 Y118.824 Z-3.000 F2000.000
G1 X225.535 Y118.376 Z-3.000 F2000.000
G1 X225.702 Y117.870 Z-3.000 F2000.000
G1 X225.814 Y117.298 Z-3.000 F2000.000
G1 X225.865 Y116.652 Z-3.000 F2000.000
G1 X225.848 Y115.923 Z-3.000 F2000.000
G1 X225.689 Y114.721 Z-3.000 F2000.000
G1 X225.482 Y113.825 Z-3.000 F2000.000
G1 X225.207 Y112.953 Z-3.000 F2000.000
G1 X224.858 Y112.096 Z-3.000 F2000.000
G1 X224.433 Y111.243 Z-3.000 F2000.000
G1 X223.923 Y110.386 Z-3.000 F2000.000
G1 X223.318 Y109.514 Z-3.000 F2000.000
G1 X222.608 Y108.618 Z-3.000 F2000.000
G1 X221.776 Y107.688 Z-3.000 F2000.000
G1 X221.138 Y107.036 Z-3.000 F2000.000
G1 X220.450 Y106.378 Z-3.000 F2000.000
G1 X219.509 Y105.460 Z-3.000 F2000.000
G1 X218.779 Y104.662 Z-3.000 F2000.000
G1 X218.583 Y104.411 Z-3.000 F2000.000
G1 X218.479 Y104.239 Z-3.000 F2000.000
G1 X218.383 Y103.963 Z-3.000 F2000.000
G1 X218.374 Y103.763 Z-3.000 F2000.000
G1 X218.442 Y103.572 Z-3.000 F2000.000
G1 X218.628 Y103.293 Z-3.000 F2000.000
G1 X218.822 Y103.046 Z-3.000 F2000.000
G1 X219.128 Y102.613 Z-3.000 F2000.000
G1 X219.261 Y102.335 Z-3.000 F2000.000
G1 X219.270 Y102.276 Z-3.000 F2000.000
G1 X219.258 Y102.241 Z-3.000 F2000.000
G1 X219.181 Y102.213 Z-3.000 F2000.000
G1 X218.930 Y102.209 Z-3.000 F2000.000
G1 X218.632 Y102.239 Z-3.000 F2000.000
G1 X218.290 Y102.298 Z-3.000 F2000.000
G1 X217.893 Y102.374 Z-3.000 F2000.000
G1 X217.592 Y102.396 Z-3.000 F2000.000
G1 X217.419 Y102.348 Z-3.000 F2000.000
G1 X217.281 Y102.231 Z-3.000 F2000.000
G1 X217.096 Y101.989 Z-3.000 F2000.000
G1 X216.862 Y101.717 Z-3.000 F2000.000
G1 X216.706 Y101.621 Z-3.000 F2000.000
G1 X216.601 Y101.627 Z-3.000 F2000.000
G1 X216.524 Y101.703 Z-3.000 F2000.000
G1 X216.465 Y101.876 Z-3.000 F2000.000
G1 X216.446 Y102.025 Z-3.000 F2000.000
G1 X216.440 Y102.206 Z-3.000 F2000.000
G1 X216.402 Y102.488 Z-3.000 F2000.000
G1 X216.290 Y102.748 Z-3.000 F2000.000
G1 X216.089 Y103.020 Z-3.000 F2000.000
G1 X215.761 Y103.334 Z-3.000 F2000.000
G1 X215.175 Y103.774 Z-3.000 F2000.000
G1 X214.929 Y103.980 Z-3.000 F2000.000
G1 X214.855 Y104.112 Z-3.000 F2000.000
G1 X214.874 Y104.208 Z-3.000 F2000.000
G1 X214.969 Y104.287 Z-3.000 F2000.000
G1 X215.187 Y104.360 Z-3.000 F2000.000
G1 X215.370 Y104.394 Z-3.000 F2000.000
G1 X215.593 Y104.420 Z-3.000 F2000.000
G1 X216.186 Y104.474 Z-3.000 F2000.000
G1 X216.270 Y105.484 Z-3.000 F2000.000
G1 X216.355 Y106.494 Z-3.000 F2000.000
G1 X216.972 Y105.749 Z-3.000 F2000.000
G1 X217.589 Y105.004 Z-3.000 F2000.000
G1 X218.581 Y105.586 Z-3.000 F2000.000
G1 X219.010 Y105.878 Z-3.000 F2000.000
G1 X219.773 Y106.486 Z-3.000 F2000.000
G1 X220.792 Y107.391 Z-3.000 F2000.000
G1 X221.281 Y107.861 Z-3.000 F2000.000
G1 X222.255 Y108.859 Z-3.000 F2000.000
G1 X222.809 Y109.513 Z-3.000 F2000.000
G1 X223.204 Y110.090 Z-3.000 F2000.000
G1 X223.482 Y110.580 Z-3.000 F2000.000
G1 X223.778 Y111.163 Z-3.000 F2000.000
G1 X224.218 Y112.135 Z-3.000 F2000.000
G1 X224.652 Y113.255 Z-3.000 F2000.000
G1 X224.762 Y113.590 Z-3.000 F2000.000
G1 X224.841 Y113.870 Z-3.000 F2000.000
G1 X224.965 Y114.509 Z-3.000 F2000.000
G1 X225.034 Y115.239 Z-3.000 F2000.000
G1 X225.035 Y116.001 Z-3.000 F2000.000
G1 X224.966 Y116.715 Z-3.000 F2000.000
G1 X224.838 Y117.301 Z-3.000 F2000.000
G1 X224.760 Y117.532 Z-3.000 F2000.000
G1 X224.670 Y117.734 Z-3.000 F2000.000
G1 X224.451 Y118.077 Z-3.000 F2000.000
G1 X224.187 Y118.362 Z-3.000 F2000.000
G1 X223.876 Y118.590 Z-3.000 F2000.000
G1 X223.518 Y118.764 Z-3.000 F2000.000
G1 X223.111 Y118.880 Z-3.000 F2000.000
G1 X222.652 Y118.935 Z-3.000 F2000.000
G1 X222.139 Y118.922 Z-3.000 F2000.000
G1 X221.574 Y118.833 Z-3.000 F2000.000
G1 X220.959 Y118.662 Z-3.000 F2000.000
G1 X220.301 Y118.401 Z-3.000 F2000.000
G1 X219.607 Y118.046 Z-3.000 F2000.000
G1 X219.250 Y117.832 Z-3.000 F2000.000
G1 X218.891 Y117.595 Z-3.000 F2000.000
G1 X218.365 Y117.192 Z-3.000 F2000.000
G1 X217.622 Y116.530 Z-3.000 F2000.000
G1 X216.698 Y115.610 Z-3.000 F2000.000
G1 X215.739 Y114.555 Z-3.000 F2000.000
G1 X214.968 Y113.603 Z-3.000 F2000.000
G1 X214.798 Y113.371 Z-3.000 F2000.000
G1 X214.645 Y113.151 Z-3.000 F2000.000
G1 X214.069 Y112.229 Z-3.000 F2000.000
G1 X213.548 Y111.259 Z-3.000 F2000.000
G1 X213.087 Y110.251 Z-3.000 F2000.000
G1 X212.692 Y109.212 Z-3.000 F2000.000
G1 X212.368 Y108.156 Z-3.000 F2000.000
G1 X212.117 Y107.093 Z-3.000 F2000.000
G1 X211.942 Y106.036 Z-3.000 F2000.000
G1 X211.843 Y104.998 Z-3.000 F2000.000
G1 X211.820 Y103.990 Z-3.000 F2000.000
G1 X211.870 Y103.021 Z-3.000 F2000.000
G1 X211.990 Y102.101 Z-3.000 F2000.000
G1 X212.177 Y101.235 Z-3.000 F2000.000
G1 X212.497 Y100.232 Z-3.000 F2000.000
G1 X212.792 Y99.563 Z-3.000 F2000.000
G1 X213.174 Y98.877 Z-3.000 F2000.000
G1 X213.644 Y98.182 Z-3.000 F2000.000
G1 X214.201 Y97.487 Z-3.000 F2000.000
G1 X214.842 Y96.803 Z-3.000 F2000.000
G1 X215.558 Y96.146 Z-3.000 F2000.000
G1 X216.337 Y95.528 Z-3.000 F2000.000
G1 X217.166 Y94.965 Z-3.000 F2000.000
G1 X218.027 Y94.467 Z-3.000 F2000.000
G1 X218.903 Y94.046 Z-3.000 F2000.000
G1 X219.779 Y93.705 Z-3.000 F2000.000
G1 X220.183 Y93.575 Z-3.000 F2000.000
G1 X220.588 Y93.462 Z-3.000 F2000.000
G1 X221.389 Y93.292 Z-3.000 F2000.000
G1 X222.462 Y93.137 Z-3.000 F2000.000
G1 X223.716 Y93.028 Z-3.000 F2000.000
G1 X224.937 Y92.992 Z-3.000 F2000.000
G1 X226.089 Y93.055 Z-3.000 F2000.000
G1 X227.004 Y93.207 Z-3.000 F2000.000
G1 X227.951 Y93.436 Z-3.000 F2000.000
G1 X228.925 Y93.747 Z-3.000 F2000.000
G1 X229.921 Y94.142 Z-3.000 F2000.000
G1 X230.933 Y94.620 Z-3.000 F2000.000
G1 X231.951 Y95.182 Z-3.000 F2000.000
G1 X232.968 Y95.826 Z-3.000 F2000.000
G1 X233.971 Y96.549 Z-3.000 F2000.000
G1 X234.951 Y97.343 Z-3.000 F2000.000
G1 X235.897 Y98.204 Z-3.000 F2000.000
G1 X236.796 Y99.121 Z-3.000 F2000.000
G1 X237.640 Y100.087 Z-3.000 F2000.000
G1 X238.421 Y101.090 Z-3.000 F2000.000
G1 X239.130 Y102.121 Z-3.000 F2000.000
G1 X239.764 Y103.171 Z-3.000 F2000.000
G1 X240.183 Y103.958 Z-3.000 F2000.000
G1 X240.736 Y105.131 Z-3.000 F2000.000
G1 X241.416 Y106.745 Z-3.000 F2000.000
G1 X242.115 Y108.583 Z-3.000 F2000.000
G1 X242.753 Y110.527 Z-3.000 F2000.000
G1 X243.009 Y111.536 Z-3.000 F2000.000
G1 X243.215 Y112.648 Z-3.000 F2000.000
G1 X243.365 Y113.850 Z-3.000 F2000.000
G1 X243.451 Y115.124 Z-3.000 F2000.000
G1 X243.467 Y116.443 Z-3.000 F2000.000
G1 X243.412 Y117.773 Z-3.000 F2000.000
G1 X243.284 Y119.080 Z-3.000 F2000.000
G1 X243.090 Y120.330 Z-3.000 F2000.000
G1 X242.835 Y121.494 Z-3.000 F2000.000
G1 X242.530 Y122.551 Z-3.000 F2000.000
G1 X242.198 Y123.455 Z-3.000 F2000.000
G1 X241.597 Y124.815 Z-3.000 F2000.000
G1 X241.018 Y125.947 Z-3.000 F2000.000
G1 X240.443 Y126.912 Z-3.000 F2000.000
G1 X239.860 Y127.750 Z-3.000 F2000.000
G1 X239.256 Y128.491 Z-3.000 F2000.000
G1 X238.621 Y129.155 Z-3.000 F2000.000
G1 X237.942 Y129.760 Z-3.000 F2000.000
G1 X237.204 Y130.321 Z-3.000 F2000.000
G1 X236.389 Y130.848 Z-3.000 F2000.000
G1 X235.717 Y131.226 Z-3.000 F2000.000
G1 X235.001 Y131.585 Z-3.000 F2000.000
G1 X234.199 Y131.928 Z-3.000 F2000.000
G1 X233.458 Y132.162 Z-3.000 F2000.000
G1 X232.583 Y132.357 Z-3.000 F2000.000
G1 X231.545 Y132.530 Z-3.000 F2000.000
G1 X230.181 Y132.701 Z-3.000 F2000.000
G1 X229.071 Y132.766 Z-3.000 F2000.000
G1 X228.088 Y132.750 Z-3.000 F2000.000
G1 X227.120 Y132.660 Z-3.000 F2000.000
G1 X226.073 Y132.489 Z-3.000 F2000.000
G1 X225.389 Y132.345 Z-3.000 F2000.000
G1 X224.658 Y132.169 Z-3.000 F2000.000
G1 X223.389 Y131.810 Z-3.000 F2000.000
G1 X222.305 Y131.426 Z-3.000 F2000.000
G1 X221.297 Y130.992 Z-3.000 F2000.000
G1 X220.284 Y130.473 Z-3.000 F2000.000
G1 X219.184 Y129.828 Z-3.000 F2000.000
G1 X218.712 Y129.529 Z-3.000 F2000.000
G1 X218.222 Y129.207 Z-3.000 F2000.000
G1 X216.815 Y128.224 Z-3.000 F2000.000
G1 X215.501 Y127.216 Z-3.000 F2000.000
G1 X214.268 Y126.180 Z-3.000 F2000.000
G1 X213.110 Y125.111 Z-3.000 F2000.000
G1 X212.018 Y124.005 Z-3.000 F2000.000
G1 X210.987 Y122.856 Z-3.000 F2000.000
G1 X210.011 Y121.660 Z-3.000 F2000.000
G1 X209.085 Y120.410 Z-3.000 F2000.000
G1 X208.205 Y119.099 Z-3.000 F2000.000
G1 X207.367 Y117.721 Z-3.000 F2000.000
G1 X206.568 Y116.267 Z-3.000 F2000.000
G1 X206.209 Y115.562 Z-3.000 F2000.000
G1 X205.861 Y114.843 Z-3.000 F2000.000
G1 X205.239 Y113.446 Z-3.000 F2000.000
G1 X204.675 Y112.000 Z-3.000 F2000.000
G1 X204.171 Y110.509 Z-3.000 F2000.000
G1 X203.731 Y108.982 Z-3.000 F2000.000
G1 X203.358 Y107.426 Z-3.000 F2000.000
G1 X203.055 Y105.850 Z-3.000 F2000.000
G1 X202.824 Y104.264 Z-3.000 F2000.000
G1 X202.666 Y102.677 Z-3.000 F2000.000
G1 X202.581 Y101.098 Z-3.000 F2000.000
G1 X202.570 Y99.538 Z-3.000 F2000.000
G1 X202.633 Y98.006 Z-3.000 F2000.000
G1 X202.766 Y96.509 Z-3.000 F2000.000
G1 X202.968 Y95.057 Z-3.000 F2000.000
G1 X203.237 Y93.655 Z-3.000 F2000.000
G1 X203.570 Y92.308 Z-3.000 F2000.000
G1 X203.901 Y91.205 Z-3.000 F2000.000
G1 X204.276 Y90.166 Z-3.000 F2000.000
G1 X204.908 Y88.621 Z-3.000 F2000.000
G1 X205.707 Y86.850 Z-3.000 F2000.000
G1 X206.334 Y85.604 Z-3.000 F2000.000
G1 X206.686 Y85.036 Z-3.000 F2000.000
G1 X207.066 Y84.564 Z-3.000 F2000.000
G1 X210.017 Y85.086 Z-3.000 F2000.000
G1 X216.069 Y86.191 Z-3.000 F2000.000
G1 X225.076 Y87.875 Z-3.000 F2000.000
G1 X233.796 Y89.552 Z-3.000 F2000.000
G1 X241.901 Y91.090 Z-3.000 F2000.000
G1 X245.299 Y91.683 Z-3.000 F2000.000
G1 X246.210 Y91.816 Z-3.000 F2000.000
G1 X246.708 Y91.859 Z-3.000 F2000.000
G1 X247.034 Y91.833 Z-3.000 F2000.000
G1 X247.178 Y91.768 Z-3.000 F2000.000
G1 X247.242 Y91.665 Z-3.000 F2000.000
G1 X247.258 Y91.525 Z-3.000 F2000.000
G1 X247.223 Y91.366 Z-3.000 F2000.000
G1 X247.118 Y91.242 Z-3.000 F2000.000
G1 X246.907 Y91.120 Z-3.000 F2000.000
G1 X246.369 Y90.937 Z-3.000 F2000.000
G1 X245.408 Y90.698 Z-3.000 F2000.000
G1 X241.264 Y89.753 Z-3.000 F2000.000
G1 X230.910 Y87.467 Z-3.000 F2000.000
G1 X221.943 Y85.524 Z-3.000 F2000.000
G1 X214.498 Y83.915 Z-3.000 F2000.000
G1 X210.582 Y83.035 Z-3.000 F2000.000
G1 X209.233 Y82.685 Z-3.000 F2000.000
G1 X208.790 Y82.522 Z-3.000 F2000.000
G1 X208.666 Y82.426 Z-3.000 F2000.000
G1 X208.654 Y82.398 Z-3.000 F2000.000
G1 X208.650 Y82.370 Z-3.000 F2000.000
G1 X208.685 Y82.286 Z-3.000 F2000.000
G1 X208.889 Y82.013 Z-3.000 F2000.000
G1 X209.474 Y81.358 Z-3.000 F2000.000
G1 X210.605 Y80.198 Z-3.000 F2000.000
G1 X211.984 Y78.883 Z-3.000 F2000.000
G1 X212.470 Y78.453 Z-3.000 F2000.000
G1 X212.866 Y78.130 Z-3.000 F2000.000
G1 X213.594 Y77.621 Z-3.000 F2000.000
G1 X214.516 Y77.065 Z-3.000 F2000.000
G1 X215.601 Y76.495 Z-3.000 F2000.000
G1 X216.774 Y75.960 Z-3.000 F2000.000
G1 X217.931 Y75.512 Z-3.000 F2000.000
G1 X218.511 Y75.320 Z-3.000 F2000.000
G1 X219.068 Y75.160 Z-3.000 F2000.000
G1 X220.037 Y74.943 Z-3.000 F2000.000
G1 X221.123 Y74.774 Z-3.000 F2000.000
G1 X222.320 Y74.662 Z-3.000 F2000.000
G1 X223.613 Y74.613 Z-3.000 F2000.000
G1 X224.978 Y74.635 Z-3.000 F2000.000
G1 X226.386 Y74.730 Z-3.000 F2000.000
G1 X227.803 Y74.899 Z-3.000 F2000.000
G1 X229.194 Y75.138 Z-3.000 F2000.000
G1 X230.526 Y75.441 Z-3.000 F2000.000
G1 X231.986 Y75.868 Z-3.000 F2000.000
G1 X233.437 Y76.388 Z-3.000 F2000.000
G1 X234.833 Y76.965 Z-3.000 F2000.000
G1 X236.179 Y77.599 Z-3.000 F2000.000
G1 X237.477 Y78.292 Z-3.000 F2000.000
G1 X238.731 Y79.043 Z-3.000 F2000.000
G1 X239.942 Y79.854 Z-3.000 F2000.000
G1 X241.115 Y80.726 Z-3.000 F2000.000
G1 X242.250 Y81.662 Z-3.000 F2000.000
G1 X243.351 Y82.663 Z-3.000 F2000.000
G1 X244.418 Y83.732 Z-3.000 F2000.000
G1 X245.454 Y84.873 Z-3.000 F2000.000
G1 X246.459 Y86.089 Z-3.000 F2000.000
G1 X247.434 Y87.384 Z-3.000 F2000.000
G1 X248.198 Y88.485 Z-3.000 F2000.000
G1 X248.931 Y89.643 Z-3.000 F2000.000
G1 X249.820 Y91.174 Z-3.000 F2000.000
G1 X250.630 Y92.701 Z-3.000 F2000.000
G1 X251.040 Y93.593 Z-3.000 F2000.000
G1 X251.153 Y93.980 Z-3.000 F2000.000
G1 X251.135 Y94.102 Z-3.000 F2000.000
G1 X251.047 Y94.195 Z-3.000 F2000.000
G1 X250.824 Y94.292 Z-3.000 F2000.000
G1 X249.830 Y94.568 Z-3.000 F2000.000
G1 X249.420 Y94.707 Z-3.000 F2000.000
G1 X249.238 Y94.828 Z-3.000 F2000.000
G1 X249.188 Y94.929 Z-3.000 F2000.000
G1 X249.217 Y95.023 Z-3.000 F2000.000
G1 X249.335 Y95.127 Z-3.000 F2000.000
G1 X249.597 Y95.250 Z-3.000 F2000.000
G1 X249.847 Y95.330 Z-3.000 F2000.000
G1 X250.329 Y95.488 Z-3.000 F2000.000
G1 X250.569 Y95.623 Z-3.000 F2000.000
G1 X250.686 Y95.764 Z-3.000 F2000.000
G1 X250.728 Y95.929 Z-3.000 F2000.000
G1 X250.705 Y96.156 Z-3.000 F2000.000
G1 X250.592 Y96.523 Z-3.000 F2000.000
G1 X250.467 Y96.840 Z-3.000 F2000.000
G1 X250.239 Y97.473 Z-3.000 F2000.000
G1 X250.166 Y97.815 Z-3.000 F2000.000
G1 X250.168 Y97.859 Z-3.000 F2000.000
G1 X250.179 Y97.885 Z-3.000 F2000.000
G1 X250.237 Y97.893 Z-3.000 F2000.000
G1 X250.416 Y97.832 Z-3.000 F2000.000
G1 X250.814 Y97.614 Z-3.000 F2000.000
G1 X251.045 Y97.463 Z-3.000 F2000.000
G1 X251.651 Y97.085 Z-3.000 F2000.000
G1 X251.986 Y96.939 Z-3.000 F2000.000
G1 X252.062 Y96.974 Z-3.000 F2000.000
G1 X252.237 Y97.140 Z-3.000 F2000.000
G1 X252.422 Y97.370 Z-3.000 F2000.000
G1 X252.615 Y97.653 Z-3.000 F2000.000
G1 X252.814 Y97.963 Z-3.000 F2000.000
G1 X252.983 Y98.184 Z-3.000 F2000.000
G1 X253.062 Y98.224 Z-3.000 F2000.000
G1 X253.118 Y98.184 Z-3.000 F2000.000
G1 X253.213 Y97.969 Z-3.000 F2000.000
G1 X253.264 Y97.734 Z-3.000 F2000.000
G1 X253.288 Y97.280 Z-3.000 F2000.000
G1 X253.278 Y97.021 Z-3.000 F2000.000
G1 X253.253 Y96.767 Z-3.000 F2000.000
G1 X253.214 Y96.324 Z-3.000 F2000.000
G1 X253.246 Y96.041 Z-3.000 F2000.000
G1 X253.343 Y95.825 Z-3.000 F2000.000
G1 X253.521 Y95.619 Z-3.000 F2000.000
G1 X253.848 Y95.360 Z-3.000 F2000.000
G1 X254.080 Y95.203 Z-3.000 F2000.000
G1 X254.357 Y95.023 Z-3.000 F2000.000
G1 X254.807 Y94.701 Z-3.000 F2000.000
G1 X254.972 Y94.519 Z-3.000 F2000.000
G1 X254.998 Y94.412 Z-3.000 F2000.000
G1 X254.948 Y94.338 Z-3.000 F2000.000
G1 X254.809 Y94.279 Z-3.000 F2000.000
G1 X254.504 Y94.238 Z-3.000 F2000.000
G1 X254.215 Y94.230 Z-3.000 F2000.000
G1 X253.732 Y94.194 Z-3.000 F2000.000
G1 X253.364 Y94.096 Z-3.000 F2000.000
G1 X253.091 Y93.952 Z-3.000 F2000.000
G1 X252.895 Y93.768 Z-3.000 F2000.000
G1 X252.763 Y93.545 Z-3.000 F2000.000
G1 X252.691 Y93.277 Z-3.000 F2000.000
G1 X252.677 Y93.073 Z-3.000 F2000.000
G1 X252.647 Y92.690 Z-3.000 F2000.000
G1 X252.582 Y92.529 Z-3.000 F2000.000
G1 X252.499 Y92.480 Z-3.000 F2000.000
G1 X252.392 Y92.505 Z-3.000 F2000.000
G1 X252.228 Y92.626 Z-3.000 F2000.000
G1 X252.115 Y92.741 Z-3.000 F2000.000
G1 X251.989 Y92.889 Z-3.000 F2000.000
G1 X251.546 Y93.431 Z-3.000 F2000.000
G1 X250.742 Y91.841 Z-3.000 F2000.000
G1 X250.079 Y90.609 Z-3.000 F2000.000
G1 X249.268 Y89.255 Z-3.000 F2000.000
G1 X248.323 Y87.816 Z-3.000 F2000.000
G1 X247.271 Y86.345 Z-3.000 F2000.000
G1 X246.159 Y84.914 Z-3.000 F2000.000
G1 X245.043 Y83.595 Z-3.000 F2000.000
G1 X243.979 Y82.448 Z-3.000 F2000.000
G1 X243.012 Y81.512 Z-3.000 F2000.000
G1 X242.478 Y81.046 Z-3.000 F2000.000
G1 X241.967 Y80.640 Z-3.000 F2000.000
G1 X240.206 Y79.365 Z-3.000 F2000.000
G1 X238.725 Y78.382 Z-3.000 F2000.000
G1 X237.410 Y77.598 Z-3.000 F2000.000
G1 X236.168 Y76.942 Z-3.000 F2000.000
G1 X234.930 Y76.371 Z-3.000 F2000.000
G1 X233.635 Y75.854 Z-3.000 F2000.000
G1 X232.217 Y75.367 Z-3.000 F2000.000
G1 X230.587 Y74.884 Z-3.000 F2000.000
G1 X230.001 Y74.726 Z-3.000 F2000.000
G1 X229.394 Y74.569 Z-3.000 F2000.000
G1 X227.839 Y74.212 Z-3.000 F2000.000
G1 X226.415 Y73.960 Z-3.000 F2000.000
G1 X225.085 Y73.798 Z-3.000 F2000.000
G1 X223.819 Y73.716 Z-3.000 F2000.000
G1 X222.592 Y73.710 Z-3.000 F2000.000
G1 X221.385 Y73.777 Z-3.000 F2000.000
G1 X220.175 Y73.917 Z-3.000 F2000.000
G1 X218.942 Y74.132 Z-3.000 F2000.000
G1 X218.336 Y74.264 Z-3.000 F2000.000
G1 X217.726 Y74.414 Z-3.000 F2000.000
G1 X216.497 Y74.769 Z-3.000 F2000.000
G1 X215.345 Y75.178 Z-3.000 F2000.000
G1 X214.241 Y75.647 Z-3.000 F2000.000
G1 X213.162 Y76.186 Z-3.000 F2000.000
G1 X212.086 Y76.806 Z-3.000 F2000.000
G1 X210.992 Y77.520 Z-3.000 F2000.000
G1 X209.860 Y78.347 Z-3.000 F2000.000
G1 X208.662 Y79.313 Z-3.000 F2000.000
G1 X208.166 Y79.739 Z-3.000 F2000.000
G1 X207.663 Y80.184 Z-3.000 F2000.000
G1 X205.744 Y81.909 Z-3.000 F2000.000
G1 X204.276 Y81.625 Z-3.000 F2000.000
G1 X202.290 Y81.206 Z-3.000 F2000.000
G1 X194.003 Y79.392 Z-3.000 F2000.000
G1 X182.488 Y76.850 Z-3.000 F2000.000
G1 X180.029 Y76.277 Z-3.000 F2000.000
G1 X168.772 Y73.534 Z-3.000 F2000.000
G1 X160.588 Y71.543 Z-3.000 F2000.000
G1 X157.177 Y70.754 Z-3.000 F2000.000
G1 X156.963 Y70.711 Z-3.000 F2000.000
G1 X156.834 Y70.688 Z-3.000 F2000.000
G1 X156.198 Y70.640 Z-3.000 F2000.000
G1 X155.536 Y70.662 Z-3.000 F2000.000
G1 X154.864 Y70.757 Z-3.000 F2000.000
G1 X154.196 Y70.925 Z-3.000 F2000.000
G1 X153.405 Y71.227 Z-3.000 F2000.000
G1 X152.600 Y71.597 Z-3.000 F2000.000
G1 X152.201 Y71.222 Z-3.000 F2000.000
G1 X151.948 Y71.014 Z-3.000 F2000.000
G1 X151.774 Y70.945 Z-3.000 F2000.000
G1 X151.606 Y70.956 Z-3.000 F2000.000
G1 X151.368 Y71.045 Z-3.000 F2000.000
G1 X151.054 Y71.146 Z-3.000 F2000.000
G1 X150.736 Y71.168 Z-3.000 F2000.000
G1 X150.379 Y71.116 Z-3.000 F2000.000
G1 X149.944 Y70.975 Z-3.000 F2000.000
G1 X149.380 Y70.711 Z-3.000 F2000.000
G1 X148.600 Y70.262 Z-3.000 F2000.000
G1 X148.056 Y69.915 Z-3.000 F2000.000
G1 X146.362 Y68.809 Z-3.000 F2000.000
G1 X145.710 Y69.142 Z-3.000 F2000.000
G1 X145.262 Y69.332 Z-3.000 F2000.000
G1 X144.678 Y69.503 Z-3.000 F2000.000
G1 X144.029 Y69.620 Z-3.000 F2000.000
G1 X143.452 Y69.655 Z-3.000 F2000.000
G1 X143.036 Y69.607 Z-3.000 F2000.000
G1 X142.855 Y69.527 Z-3.000 F2000.000
G1 X142.606 Y69.334 Z-3.000 F2000.000
G1 X142.323 Y69.024 Z-3.000 F2000.000
G1 X142.187 Y68.830 Z-3.000 F2000.000
G1 X141.925 Y68.481 Z-3.000 F2000.000
G1 X141.652 Y68.233 Z-3.000 F2000.000
G1 X141.379 Y68.080 Z-3.000 F2000.000
G1 X141.114 Y68.011 Z-3.000 F2000.000
G1 X140.858 Y68.020 Z-3.000 F2000.000
G1 X140.682 Y68.071 Z-3.000 F2000.000
G1 X140.510 Y68.159 Z-3.000 F2000.000
G1 X139.893 Y68.524 Z-3.000 F2000.000
G1 X139.522 Y68.679 Z-3.000 F2000.000
G1 X139.232 Y68.726 Z-3.000 F2000.000
G1 X138.940 Y68.698 Z-3.000 F2000.000
G1 X138.624 Y68.615 Z-3.000 F2000.000
G1 X138.321 Y68.487 Z-3.000 F2000.000
G1 X137.883 Y68.220 Z-3.000 F2000.000
G1 X137.348 Y67.808 Z-3.000 F2000.000
G1 X137.031 Y67.520 Z-3.000 F2000.000
G1 X136.371 Y66.927 Z-3.000 F2000.000
G1 X136.002 Y66.658 Z-3.000 F2000.000
G1 X135.959 Y66.638 Z-3.000 F2000.000
G1 X135.930 Y66.631 Z-3.000 F2000.000
G1 X135.740 Y66.666 Z-3.000 F2000.000
G1 X135.075 Y66.868 Z-3.000 F2000.000
G1 X134.520 Y67.020 Z-3.000 F2000.000
G1 X133.864 Y67.121 Z-3.000 F2000.000
G1 X133.022 Y67.171 Z-3.000 F2000.000
G1 X131.890 Y67.165 Z-3.000 F2000.000
G1 X130.907 Y67.136 Z-3.000 F2000.000
G1 X130.573 Y66.380 Z-3.000 F2000.000
G1 X130.343 Y65.949 Z-3.000 F2000.000
G1 X130.084 Y65.610 Z-3.000 F2000.000
G1 X129.805 Y65.361 Z-3.000 F2000.000
G1 X129.513 Y65.195 Z-3.000 F2000.000
G1 X129.213 Y65.106 Z-3.000 F2000.000
G1 X128.905 Y65.091 Z-3.000 F2000.000
G1 X128.590 Y65.149 Z-3.000 F2000.000
G1 X128.267 Y65.284 Z-3.000 F2000.000
G1 X128.078 Y65.400 Z-3.000 F2000.000
G1 X127.890 Y65.544 Z-3.000 F2000.000
G1 X127.367 Y65.984 Z-3.000 F2000.000
G1 X126.755 Y65.446 Z-3.000 F2000.000
G1 X126.404 Y65.185 Z-3.000 F2000.000
G1 X126.099 Y65.046 Z-3.000 F2000.000
G1 X125.827 Y65.000 Z-3.000 F2000.000
G1 X125.570 Y65.030 Z-3.000 F2000.000
G1 X125.312 Y65.135 Z-3.000 F2000.000
G1 X125.150 Y65.238 Z-3.000 F2000.000
G1 X124.986 Y65.372 Z-3.000 F2000.000
G1 X124.744 Y65.547 Z-3.000 F2000.000
G1 X124.563 Y65.599 Z-3.000 F2000.000
G1 X124.408 Y65.571 Z-3.000 F2000.000
G1 X124.252 Y65.465 Z-3.000 F2000.000
G1 X124.153 Y65.359 Z-3.000 F2000.000
G1 X123.984 Y65.208 Z-3.000 F2000.000
G1 X123.786 Y65.125 Z-3.000 F2000.000
G1 X123.564 Y65.106 Z-3.000 F2000.000
G1 X123.325 Y65.157 Z-3.000 F2000.000
G1 X123.088 Y65.280 Z-3.000 F2000.000
G1 X122.879 Y65.471 Z-3.000 F2000.000
G1 X122.725 Y65.712 Z-3.000 F2000.000
G1 X122.643 Y65.981 Z-3.000 F2000.000
G1 X122.632 Y66.064 Z-3.000 F2000.000
G1 X122.629 Y66.150 Z-3.000 F2000.000
G1 X122.663 Y66.397 Z-3.000 F2000.000
G1 X122.766 Y66.635 Z-3.000 F2000.000
G1 X122.931 Y66.844 Z-3.000 F2000.000
G1 X123.141 Y66.996 Z-3.000 F2000.000
G1 X123.368 Y67.072 Z-3.000 F2000.000
G1 X123.507 Y67.078 Z-3.000 F2000.000
G1 X123.646 Y67.052 Z-3.000 F2000.000
G1 X123.841 Y67.025 Z-3.000 F2000.000
G1 X124.015 Y67.077 Z-3.000 F2000.000
G1 X124.219 Y67.223 Z-3.000 F2000.000
G1 X124.602 Y67.629 Z-3.000 F2000.000
G1 X124.980 Y68.029 Z-3.000 F2000.000
G1 X125.236 Y68.214 Z-3.000 F2000.000
G1 X125.452 Y68.286 Z-3.000 F2000.000
G1 X125.666 Y68.280 Z-3.000 F2000.000
G1 X125.922 Y68.196 Z-3.000 F2000.000
G1 X126.104 Y68.106 Z-3.000 F2000.000
G1 X126.308 Y67.987 Z-3.000 F2000.000
G1 X126.855 Y67.654 Z-3.000 F2000.000
G1 X127.049 Y68.030 Z-3.000 F2000.000
G1 X127.326 Y68.487 Z-3.000 F2000.000
G1 X127.598 Y68.801 Z-3.000 F2000.000
G1 X127.868 Y69.004 Z-3.000 F2000.000
G1 X128.140 Y69.121 Z-3.000 F2000.000
G1 X128.424 Y69.163 Z-3.000 F2000.000
G1 X128.729 Y69.133 Z-3.000 F2000.000
G1 X129.068 Y69.025 Z-3.000 F2000.000
G1 X129.456 Y68.824 Z-3.000 F2000.000
G1 X129.632 Y68.708 Z-3.000 F2000.000
G1 X129.814 Y68.576 Z-3.000 F2000.000
G1 X130.267 Y68.271 Z-3.000 F2000.000
G1 X130.718 Y68.047 Z-3.000 F2000.000
G1 X130.860 Y68.001 Z-3.000 F2000.000
G1 X130.970 Y67.985 Z-3.000 F2000.000
G1 X131.235 Y68.021 Z-3.000 F2000.000
G1 X131.656 Y68.155 Z-3.000 F2000.000
G1 X132.262 Y68.427 Z-3.000 F2000.000
G1 X133.032 Y68.853 Z-3.000 F2000.000
G1 X134.107 Y69.573 Z-3.000 F2000.000
G1 X135.171 Y70.361 Z-3.000 F2000.000
G1 X136.581 Y69.922 Z-3.000 F2000.000
G1 X137.551 Y69.650 Z-3.000 F2000.000
G1 X138.138 Y69.548 Z-3.000 F2000.000
G1 X138.540 Y69.545 Z-3.000 F2000.000
G1 X138.843 Y69.613 Z-3.000 F2000.000
G1 X139.092 Y69.742 Z-3.000 F2000.000
G1 X139.325 Y69.945 Z-3.000 F2000.000
G1 X139.618 Y70.323 Z-3.000 F2000.000
G1 X139.956 Y70.762 Z-3.000 F2000.000
G1 X140.263 Y71.049 Z-3.000 F2000.000
G1 X140.538 Y71.211 Z-3.000 F2000.000
G1 X140.787 Y71.277 Z-3.000 F2000.000
G1 X141.016 Y71.263 Z-3.000 F2000.000
G1 X141.171 Y71.210 Z-3.000 F2000.000
G1 X141.321 Y71.122 Z-3.000 F2000.000
G1 X142.066 Y70.584 Z-3.000 F2000.000
G1 X142.295 Y70.463 Z-3.000 F2000.000
G1 X142.550 Y70.411 Z-3.000 F2000.000
G1 X142.841 Y70.428 Z-3.000 F2000.000
G1 X143.181 Y70.522 Z-3.000 F2000.000
G1 X143.582 Y70.713 Z-3.000 F2000.000
G1 X144.058 Y71.022 Z-3.000 F2000.000
G1 X144.422 Y71.307 Z-3.000 F2000.000
G1 X144.806 Y71.646 Z-3.000 F2000.000
G1 X145.824 Y72.588 Z-3.000 F2000.000
G1 X146.618 Y72.318 Z-3.000 F2000.000
G1 X147.068 Y72.202 Z-3.000 F2000.000
G1 X147.748 Y72.104 Z-3.000 F2000.000
G1 X148.322 Y72.062 Z-3.000 F2000.000
G1 X148.939 Y72.047 Z-3.000 F2000.000
G1 X149.783 Y72.058 Z-3.000 F2000.000
G1 X150.270 Y72.107 Z-3.000 F2000.000
G1 X150.550 Y72.199 Z-3.000 F2000.000
G1 X150.770 Y72.347 Z-3.000 F2000.000
G1 X150.937 Y72.499 Z-3.000 F2000.000
G1 X151.220 Y72.747 Z-3.000 F2000.000
G1 X151.405 Y72.843 Z-3.000 F2000.000
G1 X151.567 Y72.849 Z-3.000 F2000.000
G1 X151.870 Y72.741 Z-3.000 F2000.000
G1 X152.106 Y72.650 Z-3.000 F2000.000
G1 X152.278 Y72.639 Z-3.000 F2000.000
G1 X152.434 Y72.706 Z-3.000 F2000.000
G1 X152.650 Y72.888 Z-3.000 F2000.000
G1 X152.953 Y73.205 Z-3.000 F2000.000
G1 X153.461 Y73.702 Z-3.000 F2000.000
G1 X153.993 Y74.120 Z-3.000 F2000.000
G1 X154.554 Y74.469 Z-3.000 F2000.000
G1 X155.149 Y74.754 Z-3.000 F2000.000
G1 X155.840 Y74.994 Z-3.000 F2000.000
G1 X156.436 Y75.128 Z-3.000 F2000.000
G1 X158.746 Y75.566 Z-3.000 F2000.000
G1 X160.688 Y75.912 Z-3.000 F2000.000
G1 X162.846 Y76.283 Z-3.000 F2000.000
G1 X169.370 Y77.416 Z-3.000 F2000.000
G1 X171.482 Y77.803 Z-3.000 F2000.000
G1 X178.763 Y79.161 Z-3.000 F2000.000
G1 X189.539 Y81.167 Z-3.000 F2000.000
G1 X197.474 Y82.715 Z-3.000 F2000.000
G1 X201.238 Y83.454 Z-3.000 F2000.000
G1 X203.274 Y83.827 Z-3.000 F2000.000
G1 X203.729 Y83.924 Z-3.000 F2000.000
G1 X203.994 Y84.039 Z-3.000 F2000.000
G1 X204.056 Y84.093 Z-3.000 F2000.000
G1 X204.078 Y84.147 Z-3.000 F2000.000
G1 X204.044 Y84.266 Z-3.000 F2000.000
G1 X203.846 Y84.664 Z-3.000 F2000.000
G1 X203.640 Y85.020 Z-3.000 F2000.000
G1 X203.396 Y85.412 Z-3.000 F2000.000
G1 X202.740 Y86.494 Z-3.000 F2000.000
G1 X202.123 Y87.652 Z-3.000 F2000.000
G1 X201.545 Y88.896 Z-3.000 F2000.000
G1 X201.003 Y90.235 Z-3.000 F2000.000
G1 X200.498 Y91.679 Z-3.000 F2000.000
G1 X200.029 Y93.241 Z-3.000 F2000.000
G1 X199.598 Y94.934 Z-3.000 F2000.000
G1 X199.206 Y96.775 Z-3.000 F2000.000
G1 X199.043 Y97.650 Z-3.000 F2000.000
G1 X198.890 Y98.548 Z-3.000 F2000.000
G1 X198.762 Y99.559 Z-3.000 F2000.000
G1 X198.654 Y100.977 Z-3.000 F2000.000
G1 X198.590 Y102.776 Z-3.000 F2000.000
G1 X198.590 Y104.778 Z-3.000 F2000.000
G1 X198.661 Y106.670 Z-3.000 F2000.000
G1 X198.783 Y108.125 Z-3.000 F2000.000
G1 X198.887 Y108.865 Z-3.000 F2000.000
G1 X199.238 Y110.685 Z-3.000 F2000.000
G1 X199.663 Y112.512 Z-3.000 F2000.000
G1 X200.153 Y114.302 Z-3.000 F2000.000
G1 X200.696 Y116.010 Z-3.000 F2000.000
G1 X201.275 Y117.595 Z-3.000 F2000.000
G1 X201.697 Y118.623 Z-3.000 F2000.000
G1 X202.135 Y119.591 Z-3.000 F2000.000
G1 X202.810 Y120.922 Z-3.000 F2000.000
G1 X203.558 Y122.239 Z-3.000 F2000.000
G1 X204.378 Y123.535 Z-3.000 F2000.000
G1 X205.265 Y124.802 Z-3.000 F2000.000
G1 X206.214 Y126.032 Z-3.000 F2000.000
G1 X207.219 Y127.217 Z-3.000 F2000.000
G1 X208.274 Y128.348 Z-3.000 F2000.000
G1 X209.371 Y129.418 Z-3.000 F2000.000
G1 X210.501 Y130.419 Z-3.000 F2000.000
G1 X211.656 Y131.346 Z-3.000 F2000.000
G1 X212.828 Y132.193 Z-3.000 F2000.000
G1 X214.007 Y132.956 Z-3.000 F2000.000
G1 X215.187 Y133.632 Z-3.000 F2000.000
G1 X216.359 Y134.221 Z-3.000 F2000.000
G1 X217.518 Y134.722 Z-3.000 F2000.000
G1 X218.659 Y135.135 Z-3.000 F2000.000
G1 X219.470 Y135.381 Z-3.000 F2000.000
G1 X221.228 Y135.830 Z-3.000 F2000.000
G1 X222.746 Y136.144 Z-3.000 F2000.000
G1 X224.094 Y136.349 Z-3.000 F2000.000
G1 X225.322 Y136.463 Z-3.000 F2000.000
G1 X226.467 Y136.497 Z-3.000 F2000.000
G1 X227.561 Y136.458 Z-3.000 F2000.000
G1 X228.269 Y136.393 Z-3.000 F2000.000
G1 X228.970 Y136.297 Z-3.000 F2000.000
G1 X228.970 Y136.297 Z-3.000 F2000.000
G0 Z5.000
G0 Z5.000
G0 X154.183 Y132.189
G0 Z3.000
G1 X154.183 Y132.189 Z-2.000 F500.000
G1 X154.368 Y131.932 Z-2.000 F2000.000
G1 X154.455 Y131.690 Z-2.000 F2000.000
G1 X154.463 Y131.457 Z-2.000 F2000.000
G1 X154.398 Y131.226 Z-2.000 F2000.000
G1 X154.253 Y130.989 Z-2.000 F2000.000
G1 X154.106 Y130.826 Z-2.000 F2000.000
G1 X153.921 Y130.665 Z-2.000 F2000.000
G1 X153.737 Y130.554 Z-2.000 F2000.000
G1 X153.577 Y130.538 Z-2.000 F2000.000
G1 X153.381 Y130.601 Z-2.000 F2000.000
G1 X153.113 Y130.746 Z-2.000 F2000.000
G1 X152.789 Y130.901 Z-2.000 F2000.000
G1 X152.560 Y130.939 Z-2.000 F2000.000
G1 X152.371 Y130.899 Z-2.000 F2000.000
G1 X152.194 Y130.782 Z-2.000 F2000.000
G1 X151.997 Y130.561 Z-2.000 F2000.000
G1 X151.749 Y130.164 Z-2.000 F2000.000
G1 X151.549 Y129.781 Z-2.000 F2000.000
G1 X151.305 Y129.214 Z-2.000 F2000.000
G1 X150.885 Y128.055 Z-2.000 F2000.000
G1 X150.343 Y126.360 Z-2.000 F2000.000
G1 X149.969 Y124.997 Z-2.000 F2000.000
G1 X149.866 Y124.471 Z-2.000 F2000.000
G1 X149.855 Y124.109 Z-2.000 F2000.000
G1 X149.901 Y123.961 Z-2.000 F2000.000
G1 X149.968 Y123.928 Z-2.000 F2000.000
G1 X150.056 Y123.969 Z-2.000 F2000.000
G1 X150.192 Y124.123 Z-2.000 F2000.000
G1 X150.383 Y124.464 Z-2.000 F2000.000
G1 X150.559 Y124.889 Z-2.000 F2000.000
G1 X150.788 Y125.418 Z-2.000 F2000.000
G1 X151.113 Y125.989 Z-2.000 F2000.000
G1 X151.503 Y126.536 Z-2.000 F2000.000
G1 X151.898 Y126.970 Z-2.000 F2000.000
G1 X152.225 Y127.231 Z-2.000 F2000.000
G1 X152.338 Y127.295 Z-2.000 F2000.000
G1 X152.445 Y127.339 Z-2.000 F2000.000
G1 X152.726 Y127.390 Z-2.000 F2000.000
G1 X152.976 Y127.365 Z-2.000 F2000.000
G1 X153.197 Y127.271 Z-2.000 F2000.000
G1 X153.390 Y127.109 Z-2.000 F2000.000
G1 X153.618 Y126.739 Z-2.000 F2000.000
G1 X153.708 Y126.429 Z-2.000 F2000.000
G1 X153.741 Y126.057 Z-2.000 F2000.000
G1 X153.706 Y125.627 Z-2.000 F2000.000
G1 X153.595 Y125.148 Z-2.000 F2000.000
G1 X153.402 Y124.641 Z-2.000 F2000.000
G1 X153.133 Y124.140 Z-2.000 F2000.000
G1 X152.802 Y123.677 Z-2.000 F2000.000
G1 X152.368 Y123.227 Z-2.000 F2000.000
G1 X151.885 Y122.846 Z-2.000 F2000.000
G1 X151.547 Y122.659 Z-2.000 F2000.000
G1 X151.270 Y122.585 Z-2.000 F2000.000
G1 X151.017 Y122.592 Z-2.000 F2000.000
G1 X150.620 Y122.733 Z-2.000 F2000.000
G1 X150.271 Y122.877 Z-2.000 F2000.000
G1 X150.033 Y122.908 Z-2.000 F2000.000
G1 X149.844 Y122.860 Z-2.000 F2000.000
G1 X149.675 Y122.738 Z-2.000 F2000.000
G1 X149.501 Y122.517 Z-2.000 F2000.000
G1 X149.299 Y122.133 Z-2.000 F2000.000
G1 X149.104 Y121.656 Z-2.000 F2000.000
G1 X148.887 Y121.045 Z-2.000 F2000.000
G1 X148.322 Y119.476 Z-2.000 F2000.000
G1 X147.927 Y118.559 Z-2.000 F2000.000
G1 X147.607 Y117.981 Z-2.000 F2000.000
G1 X147.319 Y117.600 Z-2.000 F2000.000
G1 X147.040 Y117.349 Z-2.000 F2000.000
G1 X146.751 Y117.184 Z-2.000 F2000.000
G1 X146.425 Y117.079 Z-2.000 F2000.000
G1 X145.864 Y117.021 Z-2.000 F2000.000
G1 X145.450 Y117.048 Z-2.000 F2000.000
G1 X145.151 Y117.137 Z-2.000 F2000.000
G1 X144.939 Y117.273 Z-2.000 F2000.000
G1 X144.790 Y117.456 Z-2.000 F2000.000
G1 X144.692 Y117.692 Z-2.000 F2000.000
G1 X144.655 Y117.889 Z-2.000 F2000.000
G1 X144.642 Y118.112 Z-2.000 F2000.000
G1 X144.679 Y118.426 Z-2.000 F2000.000
G1 X144.776 Y118.659 Z-2.000 F2000.000
G1 X144.926 Y118.832 Z-2.000 F2000.000
G1 X145.130 Y118.956 Z-2.000 F2000.000
G1 X145.403 Y119.033 Z-2.000 F2000.000
G1 X145.763 Y119.056 Z-2.000 F2000.000
G1 X146.112 Y119.028 Z-2.000 F2000.000
G1 X146.653 Y118.987 Z-2.000 F2000.000
G1 X146.932 Y119.023 Z-2.000 F2000.000
G1 X147.044 Y119.074 Z-2.000 F2000.000
G1 X147.125 Y119.147 Z-2.000 F2000.000
G1 X147.243 Y119.350 Z-2.000 F2000.000
G1 X147.470 Y119.889 Z-2.000 F2000.000
G1 X147.793 Y120.834 Z-2.000 F2000.000
G1 X147.967 Y121.456 Z-2.000 F2000.000
G1 X148.060 Y121.925 Z-2.000 F2000.000
G1 X148.076 Y122.159 Z-2.000 F2000.000
G1 X148.046 Y122.308 Z-2.000 F2000.000
G1 X147.960 Y122.388 Z-2.000 F2000.000
G1 X147.784 Y122.437 Z-2.000 F2000.000
G1 X147.394 Y122.476 Z-2.000 F2000.000
G1 X146.961 Y122.539 Z-2.000 F2000.000
G1 X146.759 Y122.624 Z-2.000 F2000.000
G1 X146.695 Y122.692 Z-2.000 F2000.000
G1 X146.674 Y122.772 Z-2.000 F2000.000
G1 X146.708 Y122.938 Z-2.000 F2000.000
G1 X146.823 Y123.140 Z-2.000 F2000.000
G1 X147.032 Y123.362 Z-2.000 F2000.000
G1 X147.313 Y123.559 Z-2.000 F2000.000
G1 X147.596 Y123.672 Z-2.000 F2000.000
G1 X147.681 Y123.688 Z-2.000 F2000.000
G1 X147.763 Y123.694 Z-2.000 F2000.000
G1 X148.040 Y123.731 Z-2.000 F2000.000
G1 X148.265 Y123.834 Z-2.000 F2000.000
G1 X148.458 Y124.003 Z-2.000 F2000.000
G1 X148.630 Y124.255 Z-2.000 F2000.000
G1 X148.785 Y124.617 Z-2.000 F2000.000
G1 X148.833 Y124.767 Z-2.000 F2000.000
G1 X148.877 Y124.929 Z-2.000 F2000.000
G1 X149.333 Y126.603 Z-2.000 F2000.000
G1 X149.898 Y128.415 Z-2.000 F2000.000
G1 X150.422 Y129.878 Z-2.000 F2000.000
G1 X150.791 Y130.717 Z-2.000 F2000.000
G1 X151.135 Y131.303 Z-2.000 F2000.000
G1 X151.414 Y131.650 Z-2.000 F2000.000
G1 X151.704 Y131.895 Z-2.000 F2000.000
G1 X152.086 Y132.118 Z-2.000 F2000.000
G1 X152.594 Y132.334 Z-2.000 F2000.000
G1 X153.051 Y132.454 Z-2.000 F2000.000
G1 X153.443 Y132.485 Z-2.000 F2000.000
G1 X153.762 Y132.439 Z-2.000 F2000.000
G1 X154.011 Y132.333 Z-2.000 F2000.000
G1 X154.102 Y132.267 Z-2.000 F2000.000
G1 X154.183 Y132.189 Z-2.000 F2000.000
G1 X154.183 Y132.189 Z-2.000 F2000.000
G1 X154.183 Y132.189 Z-3.000 F500.000
G1 X154.368 Y131.932 Z-3.000 F2000.000
G1 X154.455 Y131.690 Z-3.000 F2000.000
G1 X154.463 Y131.457 Z-3.000 F2000.000
G1 X154.398 Y131.226 Z-3.000 F2000.000
G1 X154.253 Y130.989 Z-3.000 F2000.000
G1 X154.106 Y130.826 Z-3.000 F2000.000
G1 X153.921 Y130.665 Z-3.000 F2000.000
G1 X153.737 Y130.554 Z-3.000 F2000.000
G1 X153.577 Y130.538 Z-3.000 F2000.000
G1 X153.381 Y130.601 Z-3.000 F2000.000
G1 X153.113 Y130.746 Z-3.000 F2000.000
G1 X152.789 Y130.901 Z-3.000 F2000.000
G1 X152.560 Y130.939 Z-3.000 F2000.000
G1 X152.371 Y130.899 Z-3.000 F2000.000
G1 X152.194 Y130.782 Z-3.000 F2000.000
G1 X151.997 Y130.561 Z-3.000 F2000.000
G1 X151.749 Y130.164 Z-3.000 F2000.000
G1 X151.549 Y129.781 Z-3.000 F2000.000
G1 X151.305 Y129.214 Z-3.000 F2000.000
G1 X150.885 Y128.055 Z-3.000 F2000.000
G1 X150.343 Y126.360 Z-3.000 F2000.000
G1 X149.969 Y124.997 Z-3.000 F2000.000
G1 X149.866 Y124.471 Z-3.000 F2000.000
G1 X149.855 Y124.109 Z-3.000 F2000.000
G1 X149.901 Y123.961 Z-3.000 F2000.000
G1 X149.968 Y123.928 Z-3.000 F2000.000
G1 X150.056 Y123.969 Z-3.000 F2000.000
G1 X150.192 Y124.123 Z-3.000 F2000.000
G1 X150.383 Y124.464 Z-3.000 F2000.000
G1 X150.559 Y124.889 Z-3.000 F2000.000
G1 X150.788 Y125.418 Z-3.000 F2000.000
G1 X151.113 Y125.989 Z-3.000 F2000.000
G1 X151.503 Y126.536 Z-3.000 F2000.000
G1 X151.898 Y126.970 Z-3.000 F2000.000
G1 X152.225 Y127.231 Z-3.000 F2000.000
G1 X152.338 Y127.295 Z-3.000 F2000.000
G1 X152.445 Y127.339 Z-3.000 F2000.000
G1 X152.726 Y127.390 Z-3.000 F2000.000
G1 X152.976 Y127.365 Z-3.000 F2000.000
G1 X153.197 Y127.271 Z-3.000 F2000.000
G1 X153.390 Y127.109 Z-3.000 F2000.000
G1 X153.618 Y126.739 Z-3.000 F2000.000
G1 X153.708 Y126.429 Z-3.000 F2000.000
G1 X153.741 Y126.057 Z-3.000 F2000.000
G1 X153.706 Y125.627 Z-3.000 F2000.000
G1 X153.595 Y125.148 Z-3.000 F2000.000
G1 X153.402 Y124.641 Z-3.000 F2000.000
G1 X153.133 Y124.140 Z-3.000 F2000.000
G1 X152.802 Y123.677 Z-3.000 F2000.000
G1 X152.368 Y123.227 Z-3.000 F2000.000
G1 X151.885 Y122.846 Z-3.000 F2000.000
G1 X151.547 Y122.659 Z-3.000 F2000.000
G1 X151.270 Y122.585 Z-3.000 F2000.000
G1 X151.017 Y122.592 Z-3.000 F2000.000
G1 X150.620 Y122.733 Z-3.000 F2000.000
G1 X150.271 Y122.877 Z-3.000 F2000.000
G1 X150.033 Y122.908 Z-3.000 F2000.000
G1 X149.844 Y122.860 Z-3.000 F2000.000
G1 X149.675 Y122.738 Z-3.000 F2000.000
G1 X149.501 Y122.517 Z-3.000 F2000.000
G1 X149.299 Y122.133 Z-3.000 F2000.000
G1 X149.104 Y121.656 Z-3.000 F2000.000
G1 X148.887 Y121.045 Z-3.000 F2000.000
G1 X148.322 Y119.476 Z-3.000 F2000.000
G1 X147.927 Y118.559 Z-3.000 F2000.000
G1 X147.607 Y117.981 Z-3.000 F2000.000
G1 X147.319 Y117.600 Z-3.000 F2000.000
G1 X147.040 Y117.349 Z-3.000 F2000.000
G1 X146.751 Y117.184 Z-3.000 F2000.000
G1 X146.425 Y117.079 Z-3.000 F2000.000
G1 X145.864 Y117.021 Z-3.000 F2000.000
G1 X145.450 Y117.048 Z-3.000 F2000.000
G1 X145.151 Y117.137 Z-3.000 F2000.000
G1 X144.939 Y117.273 Z-3.000 F2000.000
G1 X144.790 Y117.456 Z-3.000 F2000.000
G1 X144.692 Y117.692 Z-3.000 F2000.000
G1 X144.655 Y117.889 Z-3.000 F2000.000
G1 X144.642 Y118.112 Z-3.000 F2000.000
G1 X144.679 Y118.426 Z-3.000 F2000.000
G1 X144.776 Y118.659 Z-3.000 F2000.000
G1 X144.926 Y118.832 Z-3.000 F2000.000
G1 X145.130 Y118.956 Z-3.000 F2000.000
G1 X145.403 Y119.033 Z-3.000 F2000.000
G1 X145.763 Y119.056 Z-3.000 F2000.000
G1 X146.112 Y119.028 Z-3.000 F2000.000
G1 X146.653 Y118.987 Z-3.000 F2000.000
G1 X146.932 Y119.023 Z-3.000 F2000.000
G1 X147.044 Y119.074 Z-3.000 F2000.000
G1 X147.125 Y119.147 Z-3.000 F2000.000
G1 X147.243 Y119.350 Z-3.000 F2000.000
G1 X147.470 Y119.889 Z-3.000 F2000.000
G1 X147.793 Y120.834 Z-3.000 F2000.000
G1 X147.967 Y121.456 Z-3.000 F2000.000
G1 X148.060 Y121.925 Z-3.000 F2000.000
G1 X148.076 Y122.159 Z-3.000 F2000.000
G1 X148.046 Y122.308 Z-3.000 F2000.000
G1 X147.960 Y122.388 Z-3.000 F2000.000
G1 X147.784 Y122.437 Z-3.000 F2000.000
G1 X147.394 Y122.476 Z-3.000 F2000.000
G1 X146.961 Y122.539 Z-3.000 F2000.000
G1 X146.759 Y122.624 Z-3.000 F2000.000
G1 X146.695 Y122.692 Z-3.000 F2000.000
G1 X146.674 Y122.772 Z-3.000 F2000.000
G1 X146.708 Y122.938 Z-3.000 F2000.000
G1 X146.823 Y123.140 Z-3.000 F2000.000
G1 X147.032 Y123.362 Z-3.000 F2000.000
G1 X147.313 Y123.559 Z-3.000 F2000.000
G1 X147.596 Y123.672 Z-3.000 F2000.000
G1 X147.681 Y123.688 Z-3.000 F2000.000
G1 X147.763 Y123.694 Z-3.000 F2000.000
G1 X148.040 Y123.731 Z-3.000 F2000.000
G1 X148.265 Y123.834 Z-3.000 F2000.000
G1 X148.458 Y124.003 Z-3.000 F2000.000
G1 X148.630 Y124.255 Z-3.000 F2000.000
G1 X148.785 Y124.617 Z-3.000 F2000.000
G1 X148.833 Y124.767 Z-3.000 F2000.000
G1 X148.877 Y124.929 Z-3.000 F2000.000
G1 X149.333 Y126.603 Z-3.000 F2000.000
G1 X149.898 Y128.415 Z-3.000 F2000.000
G1 X150.422 Y129.878 Z-3.000 F2000.000
G1 X150.791 Y130.717 Z-3.000 F2000.000
G1 X151.135 Y131.303 Z-3.000 F2000.000
G1 X151.414 Y131.650 Z-3.000 F2000.000
G1 X151.704 Y131.895 Z-3.000 F2000.000
G1 X152.086 Y132.118 Z-3.000 F2000.000
G1 X152.594 Y132.334 Z-3.000 F2000.000
G1 X153.051 Y132.454 Z-3.000 F2000.000
G1 X153.443 Y132.485 Z-3.000 F2000.000
G1 X153.762 Y132.439 Z-3.000 F2000.000
G1 X154.011 Y132.333 Z-3.000 F2000.000
G1 X154.102 Y132.267 Z-3.000 F2000.000
G1 X154.183 Y132.189 Z-3.000 F2000.000
G1 X154.183 Y132.189 Z-3.000 F2000.000
G0 Z5.000
G0 Z5.000
G0 X151.950 Y125.410
G0 Z3.000
G1 X151.950 Y125.410 Z-2.000 F500.000
G1 X151.950 Y125.410 Z-2.000 F2000.000
G1 X152.117 Y125.859 Z-2.000 F2000.000
G1 X152.230 Y126.021 Z-2.000 F2000.000
G1 X152.308 Y126.046 Z-2.000 F2000.000
G1 X152.376 Y125.994 Z-2.000 F2000.000
G1 X152.474 Y125.750 Z-2.000 F2000.000
G1 X152.488 Y125.562 Z-2.000 F2000.000
G1 X152.441 Y125.212 Z-2.000 F2000.000
G1 X152.302 Y124.703 Z-2.000 F2000.000
G1 X152.103 Y124.223 Z-2.000 F2000.000
G1 X151.936 Y123.977 Z-2.000 F2000.000
G1 X151.853 Y123.932 Z-2.000 F2000.000
G1 X151.801 Y123.970 Z-2.000 F2000.000
G1 X151.763 Y124.100 Z-2.000 F2000.000
G1 X151.758 Y124.400 Z-2.000 F2000.000
G1 X151.827 Y124.911 Z-2.000 F2000.000
G1 X151.881 Y125.156 Z-2.000 F2000.000
G1 X151.950 Y125.410 Z-2.000 F2000.000
G1 X151.950 Y125.410 Z-3.000 F500.000
G1 X151.950 Y125.410 Z-3.000 F2000.000
G1 X152.117 Y125.859 Z-3.000 F2000.000
G1 X152.230 Y126.021 Z-3.000 F2000.000
G1 X152.308 Y126.046 Z-3.000 F2000.000
G1 X152.376 Y125.994 Z-3.000 F2000.000
G1 X152.474 Y125.750 Z-3.000 F2000.000
G1 X152.488 Y125.562 Z-3.000 F2000.000
G1 X152.441 Y125.212 Z-3.000 F2000.000
G1 X152.302 Y124.703 Z-3.000 F2000.000
G1 X152.103 Y124.223 Z-3.000 F2000.000
G1 X151.936 Y123.977 Z-3.000 F2000.000
G1 X151.853 Y123.932 Z-3.000 F2000.000
G1 X151.801 Y123.970 Z-3.000 F2000.000
G1 X151.763 Y124.100 Z-3.000 F2000.000
G1 X151.758 Y124.400 Z-3.000 F2000.000
G1 X151.827 Y124.911 Z-3.000 F2000.000
G1 X151.881 Y125.156 Z-3.000 F2000.000
G1 X151.950 Y125.410 Z-3.000 F2000.000
G0 Z5.000
G0 Z5.000
G0 X78.887 Y129.958
G0 Z3.000
G1 X78.887 Y129.958 Z-2.000 F500.000
G1 X79.124 Y129.824 Z-2.000 F2000.000
G1 X79.320 Y129.631 Z-2.000 F2000.000
G1 X79.473 Y129.378 Z-2.000 F2000.000
G1 X79.575 Y129.066 Z-2.000 F2000.000
G1 X79.618 Y128.642 Z-2.000 F2000.000
G1 X79.583 Y128.349 Z-2.000 F2000.000
G1 X79.482 Y128.104 Z-2.000 F2000.000
G1 X79.323 Y127.905 Z-2.000 F2000.000
G1 X79.106 Y127.750 Z-2.000 F2000.000
G1 X78.828 Y127.643 Z-2.000 F2000.000
G1 X78.611 Y127.602 Z-2.000 F2000.000
G1 X78.372 Y127.588 Z-2.000 F2000.000
G1 X78.015 Y127.622 Z-2.000 F2000.000
G1 X77.796 Y127.708 Z-2.000 F2000.000
G1 X77.667 Y127.832 Z-2.000 F2000.000
G1 X77.605 Y127.994 Z-2.000 F2000.000
G1 X77.602 Y128.213 Z-2.000 F2000.000
G1 X77.641 Y128.407 Z-2.000 F2000.000
G1 X77.713 Y128.629 Z-2.000 F2000.000
G1 X77.806 Y128.913 Z-2.000 F2000.000
G1 X77.807 Y129.040 Z-2.000 F2000.000
G1 X77.746 Y129.094 Z-2.000 F2000.000
G1 X77.564 Y129.112 Z-2.000 F2000.000
G1 X77.352 Y129.078 Z-2.000 F2000.000
G1 X77.123 Y128.968 Z-2.000 F2000.000
G1 X76.887 Y128.775 Z-2.000 F2000.000
G1 X76.669 Y128.505 Z-2.000 F2000.000
G1 X76.502 Y128.183 Z-2.000 F2000.000
G1 X76.413 Y127.853 Z-2.000 F2000.000
G1 X76.401 Y127.681 Z-2.000 F2000.000
G1 X76.410 Y127.379 Z-2.000 F2000.000
G1 X76.456 Y127.205 Z-2.000 F2000.000
G1 X76.545 Y127.124 Z-2.000 F2000.000
G1 X76.703 Y127.088 Z-2.000 F2000.000
G1 X76.956 Y127.080 Z-2.000 F2000.000
G1 X77.331 Y127.045 Z-2.000 F2000.000
G1 X77.651 Y126.946 Z-2.000 F2000.000
G1 X77.906 Y126.793 Z-2.000 F2000.000
G1 X78.093 Y126.599 Z-2.000 F2000.000
G1 X78.212 Y126.371 Z-2.000 F2000.000
G1 X78.250 Y126.220 Z-2.000 F2000.000
G1 X78.264 Y126.059 Z-2.000 F2000.000
G1 X78.228 Y125.777 Z-2.000 F2000.000
G1 X78.129 Y125.545 Z-2.000 F2000.000
G1 X77.973 Y125.360 Z-2.000 F2000.000
G1 X77.763 Y125.222 Z-2.000 F2000.000
G1 X77.498 Y125.137 Z-2.000 F2000.000
G1 X77.179 Y125.114 Z-2.000 F2000.000
G1 X76.748 Y125.177 Z-2.000 F2000.000
G1 X76.348 Y125.259 Z-2.000 F2000.000
G1 X76.121 Y125.252 Z-2.000 F2000.000
G1 X75.954 Y125.176 Z-2.000 F2000.000
G1 X75.734 Y124.975 Z-2.000 F2000.000
G1 X75.516 Y124.691 Z-2.000 F2000.000
G1 X75.415 Y124.449 Z-2.000 F2000.000
G1 X75.406 Y124.248 Z-2.000 F2000.000
G1 X75.470 Y124.081 Z-2.000 F2000.000
G1 X75.604 Y123.938 Z-2.000 F2000.000
G1 X75.655 Y123.902 Z-2.000 F2000.000
G1 X75.712 Y123.869 Z-2.000 F2000.000
G1 X75.997 Y123.738 Z-2.000 F2000.000
G1 X76.167 Y123.717 Z-2.000 F2000.000
G1 X76.294 Y123.771 Z-2.000 F2000.000
G1 X76.426 Y123.915 Z-2.000 F2000.000
G1 X76.605 Y124.203 Z-2.000 F2000.000
G1 X76.795 Y124.466 Z-2.000 F2000.000
G1 X76.993 Y124.622 Z-2.000 F2000.000
G1 X77.194 Y124.691 Z-2.000 F2000.000
G1 X77.400 Y124.686 Z-2.000 F2000.000
G1 X77.618 Y124.606 Z-2.000 F2000.000
G1 X77.771 Y124.507 Z-2.000 F2000.000
G1 X77.925 Y124.371 Z-2.000 F2000.000
G1 X78.141 Y124.108 Z-2.000 F2000.000
G1 X78.230 Y123.897 Z-2.000 F2000.000
G1 X78.234 Y123.703 Z-2.000 F2000.000
G1 X78.163 Y123.499 Z-2.000 F2000.000
G1 X77.995 Y123.250 Z-2.000 F2000.000
G1 X77.891 Y123.131 Z-2.000 F2000.000
G1 X77.769 Y123.003 Z-2.000 F2000.000
G1 X77.456 Y122.733 Z-2.000 F2000.000
G1 X77.191 Y122.594 Z-2.000 F2000.000
G1 X76.899 Y122.528 Z-2.000 F2000.000
G1 X76.507 Y122.508 Z-2.000 F2000.000
G1 X76.016 Y122.541 Z-2.000 F2000.000
G1 X75.490 Y122.643 Z-2.000 F2000.000
G1 X75.384 Y122.676 Z-2.000 F2000.000
G1 X75.295 Y122.711 Z-2.000 F2000.000
G1 X75.075 Y122.849 Z-2.000 F2000.000
G1 X74.832 Y123.085 Z-2.000 F2000.000
G1 X74.601 Y123.407 Z-2.000 F2000.000
G1 X74.435 Y123.760 Z-2.000 F2000.000
G1 X74.369 Y124.109 Z-2.000 F2000.000
G1 X74.345 Y124.300 Z-2.000 F2000.000
G1 X74.293 Y124.351 Z-2.000 F2000.000
G1 X74.211 Y124.330 Z-2.000 F2000.000
G1 X74.045 Y124.196 Z-2.000 F2000.000
G1 X73.773 Y123.905 Z-2.000 F2000.000
G1 X73.557 Y123.610 Z-2.000 F2000.000
G1 X73.439 Y123.322 Z-2.000 F2000.000
G1 X73.377 Y122.966 Z-2.000 F2000.000
G1 X73.358 Y122.508 Z-2.000 F2000.000
G1 X73.317 Y121.946 Z-2.000 F2000.000
G1 X73.214 Y121.491 Z-2.000 F2000.000
G1 X73.055 Y121.117 Z-2.000 F2000.000
G1 X72.845 Y120.805 Z-2.000 F2000.000
G1 X72.580 Y120.542 Z-2.000 F2000.000
G1 X72.353 Y120.380 Z-2.000 F2000.000
G1 X72.096 Y120.240 Z-2.000 F2000.000
G1 X71.755 Y120.117 Z-2.000 F2000.000
G1 X71.406 Y120.067 Z-2.000 F2000.000
G1 X71.059 Y120.090 Z-2.000 F2000.000
G1 X70.722 Y120.184 Z-2.000 F2000.000
G1 X70.404 Y120.349 Z-2.000 F2000.000
G1 X70.209 Y120.495 Z-2.000 F2000.000
G1 X70.029 Y120.670 Z-2.000 F2000.000
G1 X69.879 Y120.888 Z-2.000 F2000.000
G1 X69.770 Y121.172 Z-2.000 F2000.000
G1 X69.714 Y121.522 Z-2.000 F2000.000
G1 X69.723 Y121.919 Z-2.000 F2000.000
G1 X69.805 Y122.333 Z-2.000 F2000.000
G1 X69.957 Y122.723 Z-2.000 F2000.000
G1 X70.120 Y122.995 Z-2.000 F2000.000
G1 X70.328 Y123.309 Z-2.000 F2000.000
G1 X70.426 Y123.548 Z-2.000 F2000.000
G1 X70.441 Y123.780 Z-2.000 F2000.000
G1 X70.382 Y124.123 Z-2.000 F2000.000
G1 X70.313 Y124.404 Z-2.000 F2000.000
G1 X70.227 Y124.883 Z-2.000 F2000.000
G1 X70.217 Y125.332 Z-2.000 F2000.000
G1 X70.279 Y125.747 Z-2.000 F2000.000
G1 X70.406 Y126.122 Z-2.000 F2000.000
G1 X70.593 Y126.452 Z-2.000 F2000.000
G1 X70.836 Y126.733 Z-2.000 F2000.000
G1 X71.130 Y126.962 Z-2.000 F2000.000
G1 X71.472 Y127.135 Z-2.000 F2000.000
G1 X71.859 Y127.248 Z-2.000 F2000.000
G1 X72.368 Y127.296 Z-2.000 F2000.000
G1 X72.769 Y127.260 Z-2.000 F2000.000
G1 X73.125 Y127.156 Z-2.000 F2000.000
G1 X73.439 Y126.990 Z-2.000 F2000.000
G1 X73.715 Y126.762 Z-2.000 F2000.000
G1 X73.953 Y126.469 Z-2.000 F2000.000
G1 X74.073 Y126.269 Z-2.000 F2000.000
G1 X74.177 Y126.049 Z-2.000 F2000.000
G1 X74.420 Y125.551 Z-2.000 F2000.000
G1 X74.552 Y125.389 Z-2.000 F2000.000
G1 X74.643 Y125.422 Z-2.000 F2000.000
G1 X74.745 Y125.543 Z-2.000 F2000.000
G1 X74.863 Y125.801 Z-2.000 F2000.000
G1 X74.982 Y126.247 Z-2.000 F2000.000
G1 X75.074 Y126.879 Z-2.000 F2000.000
G1 X75.091 Y127.109 Z-2.000 F2000.000
G1 X75.101 Y127.347 Z-2.000 F2000.000
G1 X75.151 Y128.086 Z-2.000 F2000.000
G1 X75.245 Y128.533 Z-2.000 F2000.000
G1 X75.381 Y128.848 Z-2.000 F2000.000
G1 X75.470 Y128.983 Z-2.000 F2000.000
G1 X75.716 Y129.261 Z-2.000 F2000.000
G1 X76.044 Y129.522 Z-2.000 F2000.000
G1 X76.450 Y129.755 Z-2.000 F2000.000
G1 X76.921 Y129.942 Z-2.000 F2000.000
G1 X77.428 Y130.065 Z-2.000 F2000.000
G1 X77.932 Y130.114 Z-2.000 F2000.000
G1 X78.399 Y130.087 Z-2.000 F2000.000
G1 X78.888 Y129.958 Z-2.000 F2000.000
G1 X78.887 Y129.958 Z-2.000 F2000.000
G1 X78.887 Y129.958 Z-3.000 F500.000
G1 X79.124 Y129.824 Z-3.000 F2000.000
G1 X79.320 Y129.631 Z-3.000 F2000.000
G1 X79.473 Y129.378 Z-3.000 F2000.000
G1 X79.575 Y129.066 Z-3.000 F2000.000
G1 X79.618 Y128.642 Z-3.000 F2000.000
G1 X79.583 Y128.349 Z-3.000 F2000.000
G1 X79.482 Y128.104 Z-3.000 F2000.000
G1 X79.323 Y127.905 Z-3.000 F2000.000
G1 X79.106 Y127.750 Z-3.000 F2000.000
G1 X78.828 Y127.643 Z-3.000 F2000.000
G1 X78.611 Y127.602 Z-3.000 F2000.000
G1 X78.372 Y127.588 Z-3.000 F2000.000
G1 X78.015 Y127.622 Z-3.000 F2000.000
G1 X77.796 Y127.708 Z-3.000 F2000.000
G1 X77.667 Y127.832 Z-3.000 F2000.000
G1 X77.605 Y127.994 Z-3.000 F2000.000
G1 X77.602 Y128.213 Z-3.000 F2000.000
G1 X77.641 Y128.407 Z-3.000 F2000.000
G1 X77.713 Y128.629 Z-3.000 F2000.000
G1 X77.806 Y128.913 Z-3.000 F2000.000
G1 X77.807 Y129.040 Z-3.000 F2000.000
G1 X77.746 Y129.094 Z-3.000 F2000.000
G1 X77.564 Y129.112 Z-3.000 F2000.000
G1 X77.352 Y129.078 Z-3.000 F2000.000
G1 X77.123 Y128.968 Z-3.000 F2000.000
G1 X76.887 Y128.775 Z-3.000 F2000.000
G1 X76.669 Y128.505 Z-3.000 F2000.000
G1 X76.502 Y128.183 Z-3.000 F2000.000
G1 X76.413 Y127.853 Z-3.000 F2000.000
G1 X76.401 Y127.681 Z-3.000 F2000.000
G1 X76.410 Y127.379 Z-3.000 F2000.000
G1 X76.456 Y127.205 Z-3.000 F2000.000
G1 X76.545 Y127.124 Z-3.000 F2000.000
G1 X76.703 Y127.088 Z-3.000 F2000.000
G1 X76.956 Y127.080 Z-3.000 F2000.000
G1 X77.331 Y127.045 Z-3.000 F2000.000
G1 X77.651 Y126.946 Z-3.000 F2000.000
G1 X77.906 Y126.793 Z-3.000 F2000.000
G1 X78.093 Y126.599 Z-3.000 F2000.000
G1 X78.212 Y126.371 Z-3.000 F2000.000
G1 X78.250 Y126.220 Z-3.000 F2000.000
G1 X78.264 Y126.059 Z-3.000 F2000.000
G1 X78.228 Y125.777 Z-3.000 F2000.000
G1 X78.129 Y125.545 Z-3.000 F2000.000
G1 X77.973 Y125.360 Z-3.000 F2000.000
G1 X77.763 Y125.222 Z-3.000 F2000.000
G1 X77.498 Y125.137 Z-3.000 F2000.000
G1 X77.179 Y125.114 Z-3.000 F2000.000
G1 X76.748 Y125.177 Z-3.000 F2000.000
G1 X76.348 Y125.259 Z-3.000 F2000.000
G1 X76.121 Y125.252 Z-3.000 F2000.000
G1 X75.954 Y125.176 Z-3.000 F2000.000
G1 X75.734 Y124.975 Z-3.000 F2000.000
G1 X75.516 Y124.691 Z-3.000 F2000.000
G1 X75.415 Y124.449 Z-3.000 F2000.000
G1 X75.406 Y124.248 Z-3.000 F2000.000
G1 X75.470 Y124.081 Z-3.000 F2000.000
G1 X75.604 Y123.938 Z-3.000 F2000.000
G1 X75.655 Y123.902 Z-3.000 F2000.000
G1 X75.712 Y123.869 Z-3.000 F2000.000
G1 X75.997 Y123.738 Z-3.000 F2000.000
G1 X76.167 Y123.717 Z-3.000 F2000.000
G1 X76.294 Y123.771 Z-3.000 F2000.000
G1 X76.426 Y123.915 Z-3.000 F2000.000
G1 X76.605 Y124.203 Z-3.000 F2000.000
G1 X76.795 Y124.466 Z-3.000 F2000.000
G1 X76.993 Y124.622 Z-3.000 F2000.000
G1 X77.194 Y124.691 Z-3.000 F2000.000
G1 X77.400 Y124.686 Z-3.000 F2000.000
G1 X77.618 Y124.606 Z-3.000 F2000.000
G1 X77.771 Y124.507 Z-3.000 F2000.000
G1 X77.925 Y124.371 Z-3.000 F2000.000
G1 X78.141 Y124.108 Z-3.000 F2000.000
G1 X78.230 Y123.897 Z-3.000 F2000.000
G1 X78.234 Y123.703 Z-3.000 F2000.000
G1 X78.163 Y123.499 Z-3.000 F2000.000
G1 X77.995 Y123.250 Z-3.000 F2000.000
G1 X77.891 Y123.131 Z-3.000 F2000.000
G1 X77.769 Y123.003 Z-3.000 F2000.000
G1 X77.456 Y122.733 Z-3.000 F2000.000
G1 X77.191 Y122.594 Z-3.000 F2000.000
G1 X76.899 Y122.528 Z-3.000 F2000.000
G1 X76.507 Y122.508 Z-3.000 F2000.000
G1 X76.016 Y122.541 Z-3.000 F2000.000
G1 X75.490 Y122.643 Z-3.000 F2000.000
G1 X75.384 Y122.676 Z-3.000 F2000.000
G1 X75.295 Y122.711 Z-3.000 F2000.000
G1 X75.075 Y122.849 Z-3.000 F2000.000
G1 X74.832 Y123.085 Z-3.000 F2000.000
G1 X74.601 Y123.407 Z-3.000 F2000.000
G1 X74.435 Y123.760 Z-3.000 F2000.000
G1 X74.369 Y124.109 Z-3.000 F2000.000
G1 X74.345 Y124.300 Z-3.000 F2000.000
G1 X74.293 Y124.351 Z-3.000 F2000.000
G1 X74.211 Y124.330 Z-3.000 F2000.000
G1 X74.045 Y124.196 Z-3.000 F2000.000
G1 X73.773 Y123.905 Z-3.000 F2000.000
G1 X73.557 Y123.610 Z-3.000 F2000.000
G1 X73.439 Y123.322 Z-3.000 F2000.000
G1 X73.377 Y122.966 Z-3.000 F2000.000
G1 X73.358 Y122.508 Z-3.000 F2000.000
G1 X73.317 Y121.946 Z-3.000 F2000.000
G1 X73.214 Y121.491 Z-3.000 F2000.000
G1 X73.055 Y121.117 Z-3.000 F2000.000
G1 X72.845 Y120.805 Z-3.000 F2000.000
G1 X72.580 Y120.542 Z-3.000 F2000.000
G1 X72.353 Y120.380 Z-3.000 F2000.000
G1 X72.096 Y120.240 Z-3.000 F2000.000
G1 X71.755 Y120.117 Z-3.000 F2000.000
G1 X71.406 Y120.067 Z-3.000 F2000.000
G1 X71.059 Y120.090 Z-3.000 F2000.000
G1 X70.722 Y120.184 Z-3.000 F2000.000
G1 X70.404 Y120.349 Z-3.000 F2000.000
G1 X70.209 Y120.495 Z-3.000 F2000.000
G1 X70.029 Y120.670 Z-3.000 F2000.000
G1 X69.879 Y120.888 Z-3.000 F2000.000
G1 X69.770 Y121.172 Z-3.000 F2000.000
G1 X69.714 Y121.522 Z-3.000 F2000.000
G1 X69.723 Y121.919 Z-3.000 F2000.000
G1 X69.805 Y122.333 Z-3.000 F2000.000
G1 X69.957 Y122.723 Z-3.000 F2000.000
G1 X70.120 Y122.995 Z-3.000 F2000.000
G1 X70.328 Y123.309 Z-3.000 F2000.000
G1 X70.426 Y123.548 Z-3.000 F2000.000
G1 X70.441 Y123.780 Z-3.000 F2000.000
G1 X70.382 Y124.123 Z-3.000 F2000.000
G1 X70.313 Y124.404 Z-3.000 F2000.000
G1 X70.227 Y124.883 Z-3.000 F2000.000
G1 X70.217 Y125.332 Z-3.000 F2000.000
G1 X70.279 Y125.747 Z-3.000 F2000.000
G1 X70.406 Y126.122 Z-3.000 F2000.000
G1 X70.593 Y126.452 Z-3.000 F2000.000
G1 X70.836 Y126.733 Z-3.000 F2000.000
G1 X71.130 Y126.962 Z-3.000 F2000.000
G1 X71.472 Y127.135 Z-3.000 F2000.000
G1 X71.859 Y127.248 Z-3.000 F2000.000
G1 X72.368 Y127.296 Z-3.000 F2000.000
G1 X72.769 Y127.260 Z-3.000 F2000.000
G1 X73.125 Y127.156 Z-3.000 F2000.000
G1 X73.439 Y126.990 Z-3.000 F2000.000
G1 X73.715 Y126.762 Z-3.000 F2000.000
G1 X73.953 Y126.469 Z-3.000 F2000.000
G1 X74.073 Y126.269 Z-3.000 F2000.000
G1 X74.177 Y126.049 Z-3.000 F2000.000
G1 X74.420 Y125.551 Z-3.000 F2000.000
G1 X74.552 Y125.389 Z-3.000 F2000.000
G1 X74.643 Y125.422 Z-3.000 F2000.000
G1 X74.745 Y125.543 Z-3.000 F2000.000
G1 X74.863 Y125.801 Z-3.000 F2000.000
G1 X74.982 Y126.247 Z-3.000 F2000.000
G1 X75.074 Y126.879 Z-3.000 F2000.000
G1 X75.091 Y127.109 Z-3.000 F2000.000
G1 X75.101 Y127.347 Z-3.000 F2000.000
G1 X75.151 Y128.086 Z-3.000 F2000.000
G1 X75.245 Y128.533 Z-3.000 F2000.000
G1 X75.381 Y128.848 Z-3.000 F2000.000
G1 X75.470 Y128.983 Z-3.000 F2000.000
G1 X75.716 Y129.261 Z-3.000 F2000.000
G1 X76.044 Y129.522 Z-3.000 F2000.000
G1 X76.450 Y129.755 Z-3.000 F2000.000
G1 X76.921 Y129.942 Z-3.000 F2000.000
G1 X77.428 Y130.065 Z-3.000 F2000.000
G1 X77.932 Y130.114 Z-3.000 F2000.000
G1 X78.399 Y130.087 Z-3.000 F2000.000
G1 X78.888 Y129.958 Z-3.000 F2000.000
G1 X78.887 Y129.958 Z-3.000 F2000.000
G0 Z5.000
G0 Z5.000
G0 X71.837 Y125.820
G0 Z3.000
G1 X71.837 Y125.820 Z-2.000 F500.000
G1 X72.006 Y125.970 Z-2.000 F2000.000
G1 X72.194 Y126.046 Z-2.000 F2000.000
G1 X72.389 Y126.050 Z-2.000 F2000.000
G1 X72.578 Y125.981 Z-2.000 F2000.000
G1 X72.746 Y125.842 Z-2.000 F2000.000
G1 X72.818 Y125.746 Z-2.000 F2000.000
G1 X72.879 Y125.634 Z-2.000 F2000.000
G1 X72.973 Y125.372 Z-2.000 F2000.000
G1 X72.971 Y125.201 Z-2.000 F2000.000
G1 X72.893 Y125.045 Z-2.000 F2000.000
G1 X72.704 Y124.832 Z-2.000 F2000.000
G1 X72.459 Y124.624 Z-2.000 F2000.000
G1 X72.298 Y124.564 Z-2.000 F2000.000
G1 X72.155 Y124.585 Z-2.000 F2000.000
G1 X72.038 Y124.645 Z-2.000 F2000.000
G1 X71.883 Y124.783 Z-2.000 F2000.000
G1 X71.762 Y124.983 Z-2.000 F2000.000
G1 X71.694 Y125.231 Z-2.000 F2000.000
G1 X71.696 Y125.492 Z-2.000 F2000.000
G1 X71.769 Y125.719 Z-2.000 F2000.000
G1 X71.800 Y125.771 Z-2.000 F2000.000
G1 X71.837 Y125.820 Z-2.000 F2000.000
G1 X71.837 Y125.820 Z-3.000 F500.000
G1 X72.006 Y125.970 Z-3.000 F2000.000
G1 X72.194 Y126.046 Z-3.000 F2000.000
G1 X72.389 Y126.050 Z-3.000 F2000.000
G1 X72.578 Y125.981 Z-3.000 F2000.000
G1 X72.746 Y125.842 Z-3.000 F2000.000
G1 X72.818 Y125.746 Z-3.000 F2000.000
G1 X72.879 Y125.634 Z-3.000 F2000.000
G1 X72.973 Y125.372 Z-3.000 F2000.000
G1 X72.971 Y125.201 Z-3.000 F2000.000
G1 X72.893 Y125.045 Z-3.000 F2000.000
G1 X72.704 Y124.832 Z-3.000 F2000.000
G1 X72.459 Y124.624 Z-3.000 F2000.000
G1 X72.298 Y124.564 Z-3.000 F2000.000
G1 X72.155 Y124.585 Z-3.000 F2000.000
G1 X72.038 Y124.645 Z-3.000 F2000.000
G1 X71.883 Y124.783 Z-3.000 F2000.000
G1 X71.762 Y124.983 Z-3.000 F2000.000
G1 X71.694 Y125.231 Z-3.000 F2000.000
G1 X71.696 Y125.492 Z-3.000 F2000.000
G1 X71.769 Y125.719 Z-3.000 F2000.000
G1 X71.800 Y125.771 Z-3.000 F2000.000
G1 X71.837 Y125.820 Z-3.000 F2000.000
G0 Z5.000
G0 Z5.000
G0 X71.292 Y122.567
G0 Z3.000
G1 X71.292 Y122.567 Z-2.000 F500.000
G1 X71.292 Y122.567 Z-2.000 F2000.000
G1 X71.557 Y122.781 Z-2.000 F2000.000
G1 X71.690 Y122.830 Z-2.000 F2000.000
G1 X71.777 Y122.795 Z-2.000 F2000.000
G1 X71.855 Y122.676 Z-2.000 F2000.000
G1 X71.895 Y122.579 Z-2.000 F2000.000
G1 X71.981 Y122.261 Z-2.000 F2000.000
G1 X71.991 Y121.967 Z-2.000 F2000.000
G1 X71.933 Y121.723 Z-2.000 F2000.000
G1 X71.822 Y121.551 Z-2.000 F2000.000
G1 X71.677 Y121.457 Z-2.000 F2000.000
G1 X71.511 Y121.437 Z-2.000 F2000.000
G1 X71.295 Y121.506 Z-2.000 F2000.000
G1 X71.127 Y121.635 Z-2.000 F2000.000
G1 X71.027 Y121.798 Z-2.000 F2000.000
G1 X70.995 Y121.988 Z-2.000 F2000.000
G1 X71.032 Y122.195 Z-2.000 F2000.000
G1 X71.148 Y122.408 Z-2.000 F2000.000
G1 X71.214 Y122.489 Z-2.000 F2000.000
G1 X71.292 Y122.567 Z-2.000 F2000.000
G1 X71.292 Y122.567 Z-3.000 F500.000
G1 X71.292 Y122.567 Z-3.000 F2000.000
G1 X71.557 Y122.781 Z-3.000 F2000.000
G1 X71.690 Y122.830 Z-3.000 F2000.000
G1 X71.777 Y122.795 Z-3.000 F2000.000
G1 X71.855 Y122.676 Z-3.000 F2000.000
G1 X71.895 Y122.579 Z-3.000 F2000.000
G1 X71.981 Y122.261 Z-3.000 F2000.000
G1 X71.991 Y121.967 Z-3.000 F2000.000
G1 X71.933 Y121.723 Z-3.000 F2000.000
G1 X71.822 Y121.551 Z-3.000 F2000.000
G1 X71.677 Y121.457 Z-3.000 F2000.000
G1 X71.511 Y121.437 Z-3.000 F2000.000
G1 X71.295 Y121.506 Z-3.000 F2000.000
G1 X71.127 Y121.635 Z-3.000 F2000.000
G1 X71.027 Y121.798 Z-3.000 F2000.000
G1 X70.995 Y121.988 Z-3.000 F2000.000
G1 X71.032 Y122.195 Z-3.000 F2000.000
G1 X71.148 Y122.408 Z-3.000 F2000.000
G1 X71.214 Y122.489 Z-3.000 F2000.000
G1 X71.292 Y122.567 Z-3.000 F2000.000
G0 Z5.000
G0 Z5.000
G0 X181.720 Y128.189
G0 Z3.000
G1 X181.720 Y128.189 Z-2.000 F500.000
G1 X181.808 Y128.024 Z-2.000 F2000.000
G1 X181.857 Y127.758 Z-2.000 F2000.000
G1 X181.857 Y127.307 Z-2.000 F2000.000
G1 X181.817 Y126.821 Z-2.000 F2000.000
G1 X181.789 Y126.246 Z-2.000 F2000.000
G1 X181.817 Y125.388 Z-2.000 F2000.000
G1 X181.917 Y124.391 Z-2.000 F2000.000
G1 X182.046 Y123.691 Z-2.000 F2000.000
G1 X182.144 Y123.416 Z-2.000 F2000.000
G1 X182.179 Y123.371 Z-2.000 F2000.000
G1 X182.213 Y123.355 Z-2.000 F2000.000
G1 X182.276 Y123.391 Z-2.000 F2000.000
G1 X182.481 Y123.607 Z-2.000 F2000.000
G1 X182.995 Y124.264 Z-2.000 F2000.000
G1 X184.011 Y125.707 Z-2.000 F2000.000
G1 X184.335 Y126.123 Z-2.000 F2000.000
G1 X184.727 Y126.513 Z-2.000 F2000.000
G1 X185.169 Y126.853 Z-2.000 F2000.000
G1 X185.630 Y127.121 Z-2.000 F2000.000
G1 X186.074 Y127.297 Z-2.000 F2000.000
G1 X186.465 Y127.376 Z-2.000 F2000.000
G1 X186.783 Y127.369 Z-2.000 F2000.000
G1 X187.029 Y127.292 Z-2.000 F2000.000
G1 X187.122 Y127.237 Z-2.000 F2000.000
G1 X187.204 Y127.167 Z-2.000 F2000.000
G1 X187.369 Y126.952 Z-2.000 F2000.000
G1 X187.456 Y126.726 Z-2.000 F2000.000
G1 X187.468 Y126.502 Z-2.000 F2000.000
G1 X187.406 Y126.291 Z-2.000 F2000.000
G1 X187.212 Y126.043 Z-2.000 F2000.000
G1 X186.996 Y125.903 Z-2.000 F2000.000
G1 X186.388 Y125.598 Z-2.000 F2000.000
G1 X186.147 Y125.490 Z-2.000 F2000.000
G1 X185.900 Y125.386 Z-2.000 F2000.000
G1 X185.463 Y125.197 Z-2.000 F2000.000
G1 X185.100 Y124.985 Z-2.000 F2000.000
G1 X184.785 Y124.710 Z-2.000 F2000.000
G1 X184.404 Y124.267 Z-2.000 F2000.000
G1 X183.129 Y122.507 Z-2.000 F2000.000
G1 X181.948 Y120.779 Z-2.000 F2000.000
G1 X181.445 Y119.966 Z-2.000 F2000.000
G1 X181.406 Y119.886 Z-2.000 F2000.000
G1 X181.392 Y119.841 Z-2.000 F2000.000
G1 X181.424 Y119.724 Z-2.000 F2000.000
G1 X181.514 Y119.659 Z-2.000 F2000.000
G1 X181.672 Y119.640 Z-2.000 F2000.000
G1 X181.930 Y119.686 Z-2.000 F2000.000
G1 X182.387 Y119.875 Z-2.000 F2000.000
G1 X182.709 Y120.086 Z-2.000 F2000.000
G1 X183.078 Y120.426 Z-2.000 F2000.000
G1 X183.591 Y121.007 Z-2.000 F2000.000
G1 X184.237 Y121.825 Z-2.000 F2000.000
G1 X184.476 Y122.081 Z-2.000 F2000.000
G1 X184.727 Y122.252 Z-2.000 F2000.000
G1 X184.979 Y122.342 Z-2.000 F2000.000
G1 X185.219 Y122.355 Z-2.000 F2000.000
G1 X185.434 Y122.297 Z-2.000 F2000.000
G1 X185.613 Y122.175 Z-2.000 F2000.000
G1 X185.746 Y121.996 Z-2.000 F2000.000
G1 X185.822 Y121.766 Z-2.000 F2000.000
G1 X185.834 Y121.489 Z-2.000 F2000.000
G1 X185.751 Y121.114 Z-2.000 F2000.000
G1 X185.600 Y120.794 Z-2.000 F2000.000
G1 X185.371 Y120.490 Z-2.000 F2000.000
G1 X185.045 Y120.183 Z-2.000 F2000.000
G1 X184.587 Y119.856 Z-2.000 F2000.000
G1 X183.945 Y119.493 Z-2.000 F2000.000
G1 X183.041 Y119.070 Z-2.000 F2000.000
G1 X181.750 Y118.549 Z-2.000 F2000.000
G1 X180.997 Y118.270 Z-2.000 F2000.000
G1 X179.779 Y117.845 Z-2.000 F2000.000
G1 X179.222 Y117.696 Z-2.000 F2000.000
G1 X178.964 Y117.683 Z-2.000 F2000.000
G1 X178.815 Y117.738 Z-2.000 F2000.000
G1 X178.747 Y117.795 Z-2.000 F2000.000
G1 X178.616 Y117.974 Z-2.000 F2000.000
G1 X178.581 Y118.141 Z-2.000 F2000.000
G1 X178.621 Y118.315 Z-2.000 F2000.000
G1 X178.751 Y118.526 Z-2.000 F2000.000
G1 X179.019 Y118.811 Z-2.000 F2000.000
G1 X179.187 Y118.961 Z-2.000 F2000.000
G1 X179.384 Y119.125 Z-2.000 F2000.000
G1 X179.811 Y119.515 Z-2.000 F2000.000
G1 X180.118 Y119.895 Z-2.000 F2000.000
G1 X180.343 Y120.290 Z-2.000 F2000.000
G1 X180.506 Y120.727 Z-2.000 F2000.000
G1 X180.617 Y121.237 Z-2.000 F2000.000
G1 X180.678 Y121.863 Z-2.000 F2000.000
G1 X180.686 Y122.424 Z-2.000 F2000.000
G1 X180.641 Y123.553 Z-2.000 F2000.000
G1 X180.561 Y124.286 Z-2.000 F2000.000
G1 X180.451 Y124.794 Z-2.000 F2000.000
G1 X179.616 Y123.609 Z-2.000 F2000.000
G1 X178.525 Y122.124 Z-2.000 F2000.000
G1 X177.538 Y120.901 Z-2.000 F2000.000
G1 X176.633 Y119.893 Z-2.000 F2000.000
G1 X175.792 Y119.063 Z-2.000 F2000.000
G1 X175.001 Y118.381 Z-2.000 F2000.000
G1 X174.584 Y118.063 Z-2.000 F2000.000
G1 X174.170 Y117.775 Z-2.000 F2000.000
G1 X173.372 Y117.291 Z-2.000 F2000.000
G1 X172.605 Y116.909 Z-2.000 F2000.000
G1 X171.866 Y116.621 Z-2.000 F2000.000
G1 X171.152 Y116.420 Z-2.000 F2000.000
G1 X170.458 Y116.300 Z-2.000 F2000.000
G1 X169.781 Y116.256 Z-2.000 F2000.000
G1 X169.117 Y116.286 Z-2.000 F2000.000
G1 X168.462 Y116.388 Z-2.000 F2000.000
G1 X167.813 Y116.563 Z-2.000 F2000.000
G1 X167.365 Y116.727 Z-2.000 F2000.000
G1 X166.922 Y116.927 Z-2.000 F2000.000
G1 X166.188 Y117.252 Z-2.000 F2000.000
G1 X165.610 Y117.445 Z-2.000 F2000.000
G1 X165.498 Y117.467 Z-2.000 F2000.000
G1 X165.417 Y117.471 Z-2.000 F2000.000
G1 X165.212 Y117.489 Z-2.000 F2000.000
G1 X164.875 Y117.591 Z-2.000 F2000.000
G1 X164.729 Y117.655 Z-2.000 F2000.000
G1 X164.593 Y117.727 Z-2.000 F2000.000
G1 X164.343 Y117.915 Z-2.000 F2000.000
G1 X164.192 Y118.111 Z-2.000 F2000.000
G1 X164.127 Y118.303 Z-2.000 F2000.000
G1 X164.140 Y118.484 Z-2.000 F2000.000
G1 X164.223 Y118.647 Z-2.000 F2000.000
G1 X164.378 Y118.787 Z-2.000 F2000.000
G1 X164.609 Y118.893 Z-2.000 F2000.000
G1 X165.043 Y118.953 Z-2.000 F2000.000
G1 X165.343 Y118.986 Z-2.000 F2000.000
G1 X165.708 Y119.095 Z-2.000 F2000.000
G1 X165.836 Y119.154 Z-2.000 F2000.000
G1 X165.944 Y119.218 Z-2.000 F2000.000
G1 X166.145 Y119.402 Z-2.000 F2000.000
G1 X166.400 Y119.734 Z-2.000 F2000.000
G1 X166.694 Y120.235 Z-2.000 F2000.000
G1 X166.979 Y120.864 Z-2.000 F2000.000
G1 X167.190 Y121.503 Z-2.000 F2000.000
G1 X167.240 Y121.720 Z-2.000 F2000.000
G1 X167.276 Y121.926 Z-2.000 F2000.000
G1 X167.319 Y122.258 Z-2.000 F2000.000
G1 X167.329 Y122.518 Z-2.000 F2000.000
G1 X167.289 Y122.612 Z-2.000 F2000.000
G1 X167.207 Y122.637 Z-2.000 F2000.000
G1 X166.932 Y122.584 Z-2.000 F2000.000
G1 X166.661 Y122.551 Z-2.000 F2000.000
G1 X166.432 Y122.591 Z-2.000 F2000.000
G1 X166.244 Y122.694 Z-2.000 F2000.000
G1 X166.100 Y122.852 Z-2.000 F2000.000
G1 X166.007 Y123.060 Z-2.000 F2000.000
G1 X165.974 Y123.310 Z-2.000 F2000.000
G1 X166.014 Y123.584 Z-2.000 F2000.000
G1 X166.131 Y123.862 Z-2.000 F2000.000
G1 X166.248 Y124.036 Z-2.000 F2000.000
G1 X166.401 Y124.202 Z-2.000 F2000.000
G1 X166.605 Y124.442 Z-2.000 F2000.000
G1 X166.743 Y124.711 Z-2.000 F2000.000
G1 X166.810 Y124.999 Z-2.000 F2000.000
G1 X166.804 Y125.290 Z-2.000 F2000.000
G1 X166.726 Y125.572 Z-2.000 F2000.000
G1 X166.664 Y125.698 Z-2.000 F2000.000
G1 X166.586 Y125.818 Z-2.000 F2000.000
G1 X166.458 Y125.981 Z-2.000 F2000.000
G1 X166.355 Y126.052 Z-2.000 F2000.000
G1 X166.260 Y126.038 Z-2.000 F2000.000
G1 X166.025 Y125.853 Z-2.000 F2000.000
G1 X165.890 Y125.684 Z-2.000 F2000.000
G1 X165.679 Y125.302 Z-2.000 F2000.000
G1 X165.527 Y124.955 Z-2.000 F2000.000
G1 X165.395 Y124.585 Z-2.000 F2000.000
G1 X165.198 Y124.074 Z-2.000 F2000.000
