(Exported by FreeCAD)
(Post Processor: grbl_post)
(Output Time:2022-11-25 12:07:01.551708)
(Begin preamble)
G17 G90
G21
(Begin operation: 1.5 z2 Q007)
(Path: 1.5 z2 Q007)
(1.5 z2 Q007)
(Begin toolchange)
( M6 T2.0 )
M3 S24000.0
(Finish operation: 1.5 z2 Q007)
(Begin operation: Fixture)
(Path: Fixture)
G54
G0 Z5.000
(Finish operation: Fixture)
(Begin operation: Profile)
(Path: Profile)
(Profile)
(Compensated Tool Path. Diameter: 1.5)
G0 Z5.000
G0 X31.847 Y92.203
G0 Z3.000
G1 X31.847 Y92.203 Z-1.000 F200.000
G2 X30.894 Y92.409 Z-1.000 I-0.343 J0.721 K0.000 F1000.000
G2 X30.543 Y92.863 Z-1.000 I2.016 J1.919 K0.000 F1000.000
G2 X29.229 Y91.711 Z-1.000 I-1.194 J0.036 K0.000 F1000.000
G2 X30.194 Y89.797 Z-1.000 I-1.444 J-1.928 K0.000 F1000.000
G2 X31.946 Y90.027 Z-1.000 I1.026 J-1.031 K0.000 F1000.000
G2 X31.572 Y90.701 Z-1.000 I2.282 J1.705 K0.000 F1000.000
G2 X31.684 Y91.857 Z-1.000 I1.529 J0.435 K0.000 F1000.000
G1 X31.847 Y92.203 Z-1.000 F1000.000
G0 Z5.000
G0 Z5.000
G0 X31.847 Y92.203
G0 X25.069 Y96.284
G0 X25.069 Y96.284 Z3.000
G1 X25.069 Y96.284 Z-1.000 F200.000
G3 X25.740 Y98.421 Z-1.000 I-4.075 J2.453 K0.000 F1000.000
G3 X24.221 Y102.281 Z-1.000 I-5.175 J0.192 K0.000 F1000.000
G3 X21.876 Y104.195 Z-1.000 I-10.145 J-10.032 K0.000 F1000.000
G2 X19.417 Y106.101 Z-1.000 I8.244 J13.179 K0.000 F1000.000
G2 X18.795 Y108.018 Z-1.000 I2.658 J1.921 K0.000 F1000.000
G2 X19.379 Y110.208 Z-1.000 I3.234 J0.311 K0.000 F1000.000
G2 X23.735 Y111.631 Z-1.000 I3.347 J-2.867 K0.000 F1000.000
G2 X24.879 Y110.953 Z-1.000 I-1.050 J-3.074 K0.000 F1000.000
G2 X26.579 Y108.636 Z-1.000 I-4.722 J-5.246 K0.000 F1000.000
G1 X27.445 Y106.699 Z-1.000 F1000.000
G2 X27.284 Y110.939 Z-1.000 I27.121 J3.151 K0.000 F1000.000
G2 X26.499 Y110.830 Z-1.000 I-0.478 J0.559 K0.000 F1000.000
G3 X23.941 Y111.839 Z-1.000 I-6.156 J-11.860 K0.000 F1000.000
G1 X23.490 Y111.937 Z-1.000 F1000.000
G3 X19.785 Y111.825 Z-1.000 I-1.468 J-12.802 K0.000 F1000.000
G3 X16.000 Y107.608 Z-1.000 I1.279 J-4.955 K0.000 F1000.000
G3 X16.828 Y104.451 Z-1.000 I4.920 J-0.397 K0.000 F1000.000
G3 X17.407 Y103.743 Z-1.000 I3.138 J1.973 K0.000 F1000.000
G3 X20.417 Y101.715 Z-1.000 I32.200 J44.553 K0.000 F1000.000
G2 X21.992 Y100.570 Z-1.000 I-7.037 J-11.335 K0.000 F1000.000
G2 X23.162 Y98.747 Z-1.000 I-2.074 J-2.618 K0.000 F1000.000
G2 X22.998 Y96.169 Z-1.000 I-3.972 J-1.042 K0.000 F1000.000
G2 X20.237 Y94.527 Z-1.000 I-2.620 J1.262 K0.000 F1000.000
G2 X18.858 Y95.183 Z-1.000 I0.377 J2.569 K0.000 F1000.000
G2 X17.435 Y97.061 Z-1.000 I5.286 J5.486 K0.000 F1000.000
G2 X16.838 Y98.201 Z-1.000 I184.604 J97.437 K0.000 F1000.000
G3 X17.036 Y95.124 Z-1.000 I50.543 J1.716 K0.000 F1000.000
G1 X17.077 Y94.810 Z-1.000 F1000.000
G2 X18.093 Y94.953 Z-1.000 I0.664 J-1.043 K0.000 F1000.000
G2 X19.386 Y94.420 Z-1.000 I-27.548 J-68.705 K0.000 F1000.000
G3 X21.204 Y94.224 Z-1.000 I1.499 J5.372 K0.000 F1000.000
G3 X22.821 Y94.346 Z-1.000 I0.416 J5.271 K0.000 F1000.000
G3 X25.069 Y96.284 Z-1.000 I-1.827 J4.392 K0.000 F1000.000
G0 Z5.000
G0 Z5.000
G0 Z5.000
G0 X0.000 Y0.000
G0 X41.272 Y115.918
G0 X41.272 Y115.918 Z3.000
G1 X41.272 Y115.918 Z-1.000 F200.000
G3 X41.573 Y115.916 Z-1.000 I0.153 J0.430 K0.000 F1000.000
G3 X41.601 Y116.039 Z-1.000 I-0.044 J0.075 K0.000 F1000.000
G3 X41.329 Y116.661 Z-1.000 I-1.913 J-0.469 K0.000 F1000.000
G3 X41.157 Y115.978 Z-1.000 I2.054 J-0.878 K0.000 F1000.000
G3 X41.272 Y115.918 Z-1.000 I0.267 J0.370 K0.000 F1000.000
G0 Z5.000
G0 X42.575 Y118.447 Z5.000
G0 X42.575 Y118.447 Z3.000
G1 X42.575 Y118.447 Z-1.000 F200.000
G2 X43.669 Y118.320 Z-1.000 I0.262 J-2.513 K0.000 F1000.000
G2 X43.340 Y119.233 Z-1.000 I0.880 J0.833 K0.000 F1000.000
G3 X42.575 Y118.447 Z-1.000 I6.271 J-6.874 K0.000 F1000.000
G0 Z5.000
G0 X48.563 Y120.140 Z5.000
G0 X48.563 Y120.140 Z3.000
G1 X48.563 Y120.140 Z-1.000 F200.000
G3 X50.061 Y124.512 Z-1.000 I-4.969 J4.146 K0.000 F1000.000
G3 X49.087 Y126.309 Z-1.000 I-2.169 J-0.014 K0.000 F1000.000
G3 X47.761 Y126.651 Z-1.000 I-1.154 J-1.731 K0.000 F1000.000
G2 X49.770 Y124.650 Z-1.000 I-0.237 J-2.248 K0.000 F1000.000
G2 X49.553 Y122.458 Z-1.000 I-5.324 J-0.581 K0.000 F1000.000
G2 X48.563 Y120.140 Z-1.000 I-8.234 J2.147 K0.000 F1000.000
G0 Z5.000
G0 Z5.000
G0 Z5.000
G0 X0.000 Y0.000
G0 X53.901 Y118.604
G0 X53.901 Y118.604 Z3.000
G1 X53.901 Y118.604 Z-1.000 F200.000
G3 X54.398 Y118.448 Z-1.000 I0.887 J1.951 K0.000 F1000.000
G3 X55.967 Y118.221 Z-1.000 I2.060 J8.709 K0.000 F1000.000
G2 X55.877 Y118.953 Z-1.000 I0.821 J0.472 K0.000 F1000.000
G2 X58.116 Y126.119 Z-1.000 I89.678 J-24.079 K0.000 F1000.000
G2 X58.507 Y126.732 Z-1.000 I1.529 J-0.545 K0.000 F1000.000
G1 X58.394 Y126.730 Z-1.000 F1000.000
G1 X55.842 Y126.590 Z-1.000 F1000.000
G3 X54.008 Y126.121 Z-1.000 I0.024 J-3.917 K0.000 F1000.000
G3 X52.544 Y123.756 Z-1.000 I2.242 J-3.024 K0.000 F1000.000
G3 X53.095 Y122.658 Z-1.000 I0.989 J-0.191 K0.000 F1000.000
G3 X53.848 Y122.342 Z-1.000 I19.704 J46.030 K0.000 F1000.000
G2 X54.144 Y120.789 Z-1.000 I-0.376 J-0.876 K0.000 F1000.000
G3 X53.466 Y120.002 Z-1.000 I1.833 J-2.263 K0.000 F1000.000
G3 X53.466 Y118.869 Z-1.000 I0.822 J-0.567 K0.000 F1000.000
G3 X53.901 Y118.604 Z-1.000 I1.322 J1.686 K0.000 F1000.000
G0 Z5.000
G0 X62.760 Y120.101 Z5.000
G0 X62.760 Y120.101 Z3.000
G1 X62.760 Y120.101 Z-1.000 F200.000
G3 X63.185 Y122.114 Z-1.000 I-1.627 J1.396 K0.000 F1000.000
G3 X62.609 Y122.212 Z-1.000 I-0.367 J-0.413 K0.000 F1000.000
G1 X62.661 Y121.725 Z-1.000 F1000.000
G1 X62.661 Y121.725 Z-1.000 F1000.000
G1 X62.781 Y120.649 Z-1.000 F1000.000
G2 X62.760 Y120.101 Z-1.000 I-1.616 J-0.212 K0.000 F1000.000
G0 Z5.000
G0 Z5.000
G0 X62.760 Y120.101
G0 X67.977 Y126.171
G0 X67.977 Y126.171 Z3.000
G1 X67.977 Y126.171 Z-1.000 F200.000
G3 X68.656 Y126.845 Z-1.000 I-4.457 J5.166 K0.000 F1000.000
G3 X67.993 Y127.029 Z-1.000 I-1.136 J-2.813 K0.000 F1000.000
G1 X68.010 Y127.004 Z-1.000 F1000.000
G2 X67.977 Y126.171 Z-1.000 I-0.903 J-0.381 K0.000 F1000.000
G0 Z5.000
G0 Z5.000
G0 X67.977 Y126.171
G0 X70.996 Y125.534
G0 X70.996 Y125.534 Z3.000
G1 X70.996 Y125.534 Z-1.000 F200.000
G3 X70.968 Y125.285 Z-1.000 I1.251 J-0.264 K0.000 F1000.000
G3 X71.180 Y123.906 Z-1.000 I7.532 J0.449 K0.000 F1000.000
G2 X70.755 Y122.595 Z-1.000 I-1.732 J-0.162 K0.000 F1000.000
G3 X70.548 Y121.239 Z-1.000 I1.181 J-0.874 K0.000 F1000.000
G3 X71.788 Y120.927 Z-1.000 I0.799 J0.554 K0.000 F1000.000
G3 X72.573 Y122.057 Z-1.000 I-0.542 J1.214 K0.000 F1000.000
G3 X72.638 Y123.095 Z-1.000 I-29.141 J2.332 K0.000 F1000.000
G2 X73.226 Y124.418 Z-1.000 I2.218 J-0.193 K0.000 F1000.000
G2 X73.740 Y124.913 Z-1.000 I2.222 J-1.791 K0.000 F1000.000
G1 X73.904 Y124.996 Z-1.000 F1000.000
G2 X73.411 Y125.915 Z-1.000 I2.583 J1.981 K0.000 F1000.000
G3 X72.369 Y126.543 Z-1.000 I-0.995 J-0.473 K0.000 F1000.000
G3 X70.996 Y125.534 Z-1.000 I-0.123 J-1.272 K0.000 F1000.000
G0 Z5.000
G0 X75.656 Y125.865 Z5.000
G0 X75.656 Y125.865 Z3.000
G1 X75.656 Y125.865 Z-1.000 F200.000
G2 X76.879 Y125.916 Z-1.000 I0.676 J-1.509 K0.000 F1000.000
G3 X77.354 Y125.879 Z-1.000 I0.321 J1.045 K0.000 F1000.000
G3 X77.343 Y126.256 Z-1.000 I-0.035 J0.188 K0.000 F1000.000
G3 X76.537 Y126.357 Z-1.000 I-0.880 J-3.775 K0.000 F1000.000
G2 X75.820 Y126.815 Z-1.000 I0.134 J1.001 K0.000 F1000.000
G2 X75.656 Y125.865 Z-1.000 I-4.181 J0.228 K0.000 F1000.000
G0 Z5.000
G0 X77.317 Y123.907 Z5.000
G0 X77.317 Y123.907 Z3.000
G1 X77.317 Y123.907 Z-1.000 F200.000
G2 X76.871 Y123.291 Z-1.000 I-2.769 J1.533 K0.000 F1000.000
G3 X77.444 Y123.775 Z-1.000 I-0.578 J1.265 K0.000 F1000.000
G3 X77.317 Y123.907 Z-1.000 I-0.477 J-0.332 K0.000 F1000.000
G0 Z5.000
G0 X78.408 Y128.342 Z5.000
G0 X78.408 Y128.342 Z3.000
G1 X78.408 Y128.342 Z-1.000 F200.000
G3 X78.850 Y128.540 Z-1.000 I0.095 J0.380 K0.000 F1000.000
G3 X78.668 Y129.220 Z-1.000 I-0.679 J0.183 K0.000 F1000.000
G3 X78.507 Y129.283 Z-1.000 I-0.199 J-0.275 K0.000 F1000.000
G2 X78.408 Y128.342 Z-1.000 I-1.213 J-0.348 K0.000 F1000.000
G0 Z5.000
G0 Z5.000
G0 X78.408 Y128.342
G0 X83.011 Y126.547
G0 X83.011 Y126.547 Z3.000
G1 X83.011 Y126.547 Z-1.000 F200.000
G2 X83.218 Y126.442 Z-1.000 I-0.058 J-0.370 K0.000 F1000.000
G3 X83.099 Y126.598 Z-1.000 I-0.392 J-0.176 K0.000 F1000.000
G3 X83.011 Y126.547 Z-1.000 I0.160 J-0.373 K0.000 F1000.000
G0 Z5.000
G0 X82.790 Y124.635 Z5.000
G0 X82.790 Y124.635 Z3.000
G1 X82.790 Y124.635 Z-1.000 F200.000
G2 X81.895 Y123.737 Z-1.000 I-76.949 J75.804 K0.000 F1000.000
G3 X81.586 Y123.320 Z-1.000 I1.095 J-1.134 K0.000 F1000.000
G3 X81.748 Y123.145 Z-1.000 I0.590 J0.386 K0.000 F1000.000
G3 X82.472 Y123.876 Z-1.000 I-0.401 J1.121 K0.000 F1000.000
G1 X82.790 Y124.635 Z-1.000 F1000.000
G0 Z5.000
G0 Z5.000
G0 Z5.000
G0 X0.000 Y0.000
G0 X72.990 Y96.251
G0 X72.990 Y96.251 Z3.000
G1 X72.990 Y96.251 Z-1.000 F200.000
G3 X73.568 Y95.848 Z-1.000 I5.275 J6.956 K0.000 F1000.000
G3 X76.622 Y94.809 Z-1.000 I3.942 J6.581 K0.000 F1000.000
G3 X82.986 Y94.614 Z-1.000 I5.152 J63.920 K0.000 F1000.000
G1 X86.913 Y94.633 Z-1.000 F1000.000
G2 X85.968 Y95.883 Z-1.000 I0.611 J1.444 K0.000 F1000.000
G2 X85.745 Y98.177 Z-1.000 I15.580 J2.675 K0.000 F1000.000
G2 X85.629 Y109.624 Z-1.000 I254.610 J8.304 K0.000 F1000.000
G2 X85.772 Y110.889 Z-1.000 I6.351 J-0.078 K0.000 F1000.000
G2 X87.072 Y112.163 Z-1.000 I1.509 J-0.240 K0.000 F1000.000
G3 X76.821 Y112.139 Z-1.000 I-4.816 J-133.115 K0.000 F1000.000
G3 X76.116 Y111.996 Z-1.000 I0.170 J-2.642 K0.000 F1000.000
G3 X73.235 Y110.629 Z-1.000 I3.406 J-10.899 K0.000 F1000.000
G3 X69.837 Y105.330 Z-1.000 I6.073 J-7.633 K0.000 F1000.000
G3 X69.999 Y100.398 Z-1.000 I11.395 J-2.094 K0.000 F1000.000
G3 X72.990 Y96.251 Z-1.000 I8.265 J2.809 K0.000 F1000.000
G0 Z5.000
G0 Z5.000
G0 Z5.000
G0 Z5.000
G0 X0.000 Y0.000
G0 X87.299 Y123.279
G0 X87.299 Y123.279 Z3.000
G1 X87.299 Y123.279 Z-1.000 F200.000
G2 X88.281 Y123.656 Z-1.000 I0.978 J-1.080 K0.000 F1000.000
G2 X89.025 Y123.341 Z-1.000 I-0.237 J-1.599 K0.000 F1000.000
G2 X89.789 Y123.674 Z-1.000 I1.300 J-1.938 K0.000 F1000.000
G2 X90.735 Y123.279 Z-1.000 I0.153 J-0.963 K0.000 F1000.000
G3 X91.241 Y123.332 Z-1.000 I0.155 J0.965 K0.000 F1000.000
G2 X90.977 Y123.993 Z-1.000 I0.440 J0.558 K0.000 F1000.000
G1 X91.034 Y124.383 Z-1.000 F1000.000
G2 X91.464 Y126.065 Z-1.000 I138.666 J-34.625 K0.000 F1000.000
G1 X91.532 Y126.429 Z-1.000 F1000.000
G2 X90.059 Y126.369 Z-1.000 I-0.794 J1.388 K0.000 F1000.000
G3 X89.719 Y125.568 Z-1.000 I2.071 J-1.351 K0.000 F1000.000
G2 X89.055 Y124.080 Z-1.000 I-5.347 J1.491 K0.000 F1000.000
G2 X87.558 Y124.257 Z-1.000 I-0.712 J0.403 K0.000 F1000.000
G3 X87.299 Y123.279 Z-1.000 I3.779 J-1.523 K0.000 F1000.000
G0 Z5.000
G0 X87.870 Y126.032 Z5.000
G0 X87.870 Y126.032 Z3.000
G1 X87.870 Y126.032 Z-1.000 F200.000
G3 X87.953 Y126.386 Z-1.000 I-0.627 J0.332 K0.000 F1000.000
G2 X87.616 Y126.324 Z-1.000 I-0.526 J1.899 K0.000 F1000.000
G2 X87.870 Y126.032 Z-1.000 I-0.236 J-0.462 K0.000 F1000.000
G0 Z5.000
G0 X86.708 Y126.368 Z5.000
G0 X86.708 Y126.368 Z3.000
G1 X86.708 Y126.368 Z-1.000 F200.000
G3 X86.205 Y126.441 Z-1.000 I-1.226 J-6.654 K0.000 F1000.000
G2 X86.461 Y126.157 Z-1.000 I-0.357 J-0.580 K0.000 F1000.000
G2 X86.708 Y126.368 Z-1.000 I0.447 J-0.273 K0.000 F1000.000
G0 Z5.000
G0 X92.952 Y123.230 Z5.000
G0 X92.952 Y123.230 Z3.000
G1 X92.952 Y123.230 Z-1.000 F200.000
G3 X93.222 Y123.111 Z-1.000 I0.331 J0.382 K0.000 F1000.000
G3 X93.543 Y123.335 Z-1.000 I-0.053 J0.416 K0.000 F1000.000
G2 X92.952 Y123.230 Z-1.000 I-0.826 J2.944 K0.000 F1000.000
G0 Z5.000
G0 Z5.000
G0 Z5.000
G0 X0.000 Y0.000
G0 X111.173 Y125.174
G0 X111.173 Y125.174 Z3.000
G1 X111.173 Y125.174 Z-1.000 F200.000
G2 X112.211 Y125.887 Z-1.000 I8.641 J-11.467 K0.000 F1000.000
G3 X112.559 Y126.166 Z-1.000 I-0.614 J1.123 K0.000 F1000.000
G3 X112.560 Y126.269 Z-1.000 I-0.267 J0.054 K0.000 F1000.000
G2 X111.032 Y126.169 Z-1.000 I-1.248 J7.335 K0.000 F1000.000
G2 X111.173 Y125.174 Z-1.000 I-2.910 J-0.918 K0.000 F1000.000
G0 Z5.000
G0 Z5.000
G0 X111.173 Y125.174
G0 X116.377 Y125.289
G0 X116.377 Y125.289 Z3.000
G1 X116.377 Y125.289 Z-1.000 F200.000
G2 X116.841 Y125.111 Z-1.000 I0.025 J-0.630 K0.000 F1000.000
G3 X116.560 Y125.755 Z-1.000 I-11.980 J-4.853 K0.000 F1000.000
G3 X116.377 Y125.289 Z-1.000 I5.694 J-2.499 K0.000 F1000.000
G0 Z5.000
G0 X117.693 Y123.693 Z5.000
G0 X117.693 Y123.693 Z3.000
G1 X117.693 Y123.693 Z-1.000 F200.000
G2 X118.118 Y122.456 Z-1.000 I-3.104 J-1.759 K0.000 F1000.000
G2 X118.035 Y121.828 Z-1.000 I-1.545 J-0.116 K0.000 F1000.000
G2 X118.402 Y121.731 Z-1.000 I0.035 J-0.613 K0.000 F1000.000
G2 X118.231 Y123.550 Z-1.000 I3.219 J1.221 K0.000 F1000.000
G2 X117.693 Y123.693 Z-1.000 I-0.116 J0.646 K0.000 F1000.000
G0 Z5.000
G0 X119.704 Y125.279 Z5.000
G0 X119.704 Y125.279 Z3.000
G1 X119.704 Y125.279 Z-1.000 F200.000
G2 X120.466 Y124.694 Z-1.000 I-0.122 J-0.948 K0.000 F1000.000
G3 X119.990 Y125.768 Z-1.000 I-16.901 J-6.848 K0.000 F1000.000
G1 X119.704 Y125.279 Z-1.000 F1000.000
G0 Z5.000
G0 X122.380 Y120.288 Z5.000
G0 X122.380 Y120.288 Z3.000
G1 X122.380 Y120.288 Z-1.000 F200.000
G2 X122.666 Y118.881 Z-1.000 I-2.966 J-1.335 K0.000 F1000.000
G1 X123.196 Y118.862 Z-1.000 F1000.000
G2 X122.380 Y120.288 Z-1.000 I7.856 J5.443 K0.000 F1000.000
G0 Z5.000
G0 X119.640 Y118.932 Z5.000
G0 X119.640 Y118.932 Z3.000
G1 X119.640 Y118.932 Z-1.000 F200.000
G1 X119.435 Y119.348 Z-1.000 F1000.000
G2 X119.428 Y118.908 Z-1.000 I-1.267 J-0.202 K0.000 F1000.000
G1 X119.652 Y118.908 Z-1.000 F1000.000
G1 X119.640 Y118.932 Z-1.000 F1000.000
G0 Z5.000
G0 X113.865 Y118.886 Z5.000
G0 X113.865 Y118.886 Z3.000
G1 X113.865 Y118.886 Z-1.000 F200.000
G1 X113.859 Y118.903 Z-1.000 F1000.000
G1 X113.850 Y118.886 Z-1.000 F1000.000
G1 X113.865 Y118.886 Z-1.000 F1000.000
G0 Z5.000
G0 Z5.000
G0 X113.865 Y118.886
G0 X126.846 Y123.841
G0 X126.846 Y123.841 Z3.000
G1 X126.846 Y123.841 Z-1.000 F200.000
G3 X127.884 Y123.559 Z-1.000 I0.754 J0.723 K0.000 F1000.000
G3 X128.293 Y123.961 Z-1.000 I-0.868 J1.291 K0.000 F1000.000
G2 X126.846 Y123.841 Z-1.000 I-2.488 J21.126 K0.000 F1000.000
G0 Z5.000
G0 Z5.000
G0 Z5.000
G0 Z5.000
G0 X0.000 Y0.000
G0 X121.908 Y94.845
G0 X121.908 Y94.845 Z3.000
G1 X121.908 Y94.845 Z-1.000 F200.000
G2 X123.416 Y96.812 Z-1.000 I6.236 J-3.218 K0.000 F1000.000
G3 X123.698 Y97.151 Z-1.000 I-0.757 J0.917 K0.000 F1000.000
G3 X123.790 Y98.082 Z-1.000 I-35.374 J3.963 K0.000 F1000.000
G2 X124.959 Y101.699 Z-1.000 I20.573 J-4.653 K0.000 F1000.000
G3 X127.619 Y108.186 Z-1.000 I-2934.411 J1206.774 K0.000 F1000.000
G2 X128.202 Y109.715 Z-1.000 I50.504 J-18.405 K0.000 F1000.000
G2 X129.787 Y111.615 Z-1.000 I4.038 J-1.758 K0.000 F1000.000
G2 X130.833 Y112.081 Z-1.000 I2.044 J-3.180 K0.000 F1000.000
G3 X126.793 Y112.016 Z-1.000 I-0.970 J-65.591 K0.000 F1000.000
G1 X126.537 Y111.999 Z-1.000 F1000.000
G2 X127.798 Y111.655 Z-1.000 I-0.285 J-3.525 K0.000 F1000.000
G2 X128.182 Y110.751 Z-1.000 I-0.512 J-0.751 K0.000 F1000.000
G2 X126.634 Y106.272 Z-1.000 I-18.079 J3.739 K0.000 F1000.000
G2 X125.791 Y105.794 Z-1.000 I-0.886 J0.580 K0.000 F1000.000
G2 X121.261 Y105.733 Z-1.000 I-2.568 J22.506 K0.000 F1000.000
G2 X120.106 Y106.614 Z-1.000 I0.235 J1.505 K0.000 F1000.000
G2 X118.864 Y109.972 Z-1.000 I17.091 J8.233 K0.000 F1000.000
G2 X119.184 Y111.372 Z-1.000 I1.337 J0.431 K0.000 F1000.000
G2 X120.465 Y111.824 Z-1.000 I1.380 J-1.874 K0.000 F1000.000
G3 X121.150 Y111.922 Z-1.000 I-0.778 J7.820 K0.000 F1000.000
G3 X113.406 Y111.814 Z-1.000 I-1.171 J-193.451 K0.000 F1000.000
G1 X113.231 Y111.798 Z-1.000 F1000.000
G2 X115.027 Y111.207 Z-1.000 I-0.120 J-3.386 K0.000 F1000.000
G2 X115.377 Y110.803 Z-1.000 I-0.980 J-1.202 K0.000 F1000.000
G2 X116.403 Y108.626 Z-1.000 I-14.510 J-8.175 K0.000 F1000.000
G2 X121.031 Y97.005 Z-1.000 I-429.669 J-177.848 K0.000 F1000.000
G3 X121.908 Y94.845 Z-1.000 I57.433 J22.047 K0.000 F1000.000
G0 Z5.000
G0 Z5.000
G0 X121.908 Y94.845
G0 X128.253 Y94.342
G0 X128.253 Y94.342 Z3.000
G1 X128.253 Y94.342 Z-1.000 F200.000
G3 X133.343 Y94.358 Z-1.000 I2.371 J56.284 K0.000 F1000.000
G2 X131.733 Y95.042 Z-1.000 I0.389 J3.150 K0.000 F1000.000
G2 X131.313 Y96.747 Z-1.000 I0.931 J1.133 K0.000 F1000.000
G2 X134.612 Y105.424 Z-1.000 I161.664 J-56.493 K0.000 F1000.000
G2 X135.334 Y106.134 Z-1.000 I1.040 J-0.336 K0.000 F1000.000
G2 X136.184 Y105.741 Z-1.000 I0.180 J-0.728 K0.000 F1000.000
G1 X136.523 Y105.061 Z-1.000 F1000.000
G2 X139.891 Y97.014 Z-1.000 I-155.280 J-69.720 K0.000 F1000.000
G2 X139.132 Y94.731 Z-1.000 I-1.461 J-0.782 K0.000 F1000.000
G2 X138.673 Y94.535 Z-1.000 I-1.255 J2.307 K0.000 F1000.000
G3 X145.657 Y94.558 Z-1.000 I3.114 J117.446 K0.000 F1000.000
G1 X145.690 Y94.562 Z-1.000 F1000.000
G2 X144.359 Y94.961 Z-1.000 I0.505 J4.105 K0.000 F1000.000
G2 X143.078 Y96.294 Z-1.000 I1.588 J2.808 K0.000 F1000.000
G2 X141.198 Y100.644 Z-1.000 I32.334 J16.558 K0.000 F1000.000
G3 X136.945 Y111.289 Z-1.000 I-262.404 J-98.656 K0.000 F1000.000
G1 X136.621 Y110.576 Z-1.000 F1000.000
G2 X130.877 Y96.850 Z-1.000 I-1140.056 J469.097 K0.000 F1000.000
G2 X129.439 Y94.916 Z-1.000 I-4.288 J1.686 K0.000 F1000.000
G2 X128.253 Y94.342 Z-1.000 I-2.203 J3.043 K0.000 F1000.000
G0 Z5.000
G0 Z5.000
G0 X128.253 Y94.342
G0 X149.579 Y94.503
G0 X149.579 Y94.503 Z3.000
G1 X149.579 Y94.503 Z-1.000 F200.000
G3 X156.133 Y94.510 Z-1.000 I3.119 J160.359 K0.000 F1000.000
G1 X156.730 Y94.540 Z-1.000 F1000.000
G2 X155.605 Y94.900 Z-1.000 I0.486 J3.457 K0.000 F1000.000
G2 X154.713 Y96.310 Z-1.000 I0.808 J1.499 K0.000 F1000.000
G2 X154.526 Y103.512 Z-1.000 I119.003 J6.689 K0.000 F1000.000
G1 X154.479 Y110.344 Z-1.000 F1000.000
G2 X154.757 Y110.932 Z-1.000 I0.750 J0.005 K0.000 F1000.000
G2 X156.678 Y111.816 Z-1.000 I2.286 J-2.439 K0.000 F1000.000
G1 X157.629 Y111.972 Z-1.000 F1000.000
G1 X157.518 Y111.992 Z-1.000 F1000.000
G3 X149.129 Y111.843 Z-1.000 I-2.139 J-115.700 K0.000 F1000.000
G2 X150.756 Y111.654 Z-1.000 I-1.259 J-17.978 K0.000 F1000.000
G2 X151.812 Y110.586 Z-1.000 I-0.437 J-1.489 K0.000 F1000.000
G2 X152.026 Y109.248 Z-1.000 I-5.070 J-1.496 K0.000 F1000.000
G1 X152.074 Y107.811 Z-1.000 F1000.000
G2 X151.973 Y96.546 Z-1.000 I-227.971 J-3.591 K0.000 F1000.000
G2 X151.726 Y95.537 Z-1.000 I-2.037 J-0.035 K0.000 F1000.000
G2 X150.647 Y94.762 Z-1.000 I-1.697 J1.221 K0.000 F1000.000
G2 X149.579 Y94.503 Z-1.000 I-1.754 J4.914 K0.000 F1000.000
G0 Z5.000
G0 Z5.000
G0 X149.579 Y94.503
G0 X157.187 Y123.297
G0 X157.187 Y123.297 Z3.000
G1 X157.187 Y123.297 Z-1.000 F200.000
G3 X157.318 Y123.315 Z-1.000 I0.037 J0.218 K0.000 F1000.000
G1 X157.187 Y123.297 Z-1.000 F1000.000
G0 Z5.000
G0 Z5.000
G0 X157.187 Y123.297
G0 X152.760 Y125.053
G0 X152.760 Y125.053 Z3.000
G1 X152.760 Y125.053 Z-1.000 F200.000
G3 X152.989 Y126.055 Z-1.000 I-3.135 J1.243 K0.000 F1000.000
G3 X152.801 Y126.625 Z-1.000 I-0.743 J0.071 K0.000 F1000.000
G3 X152.646 Y126.608 Z-1.000 I-0.059 J-0.179 K0.000 F1000.000
G3 X151.247 Y124.591 Z-1.000 I3.139 J-3.672 K0.000 F1000.000
G1 X151.247 Y124.591 Z-1.000 F1000.000
G2 X150.665 Y123.526 Z-1.000 I-2.710 J0.789 K0.000 F1000.000
G3 X151.157 Y123.339 Z-1.000 I2.092 J4.750 K0.000 F1000.000
G3 X151.469 Y123.472 Z-1.000 I-0.052 J0.553 K0.000 F1000.000
G3 X152.760 Y125.053 Z-1.000 I-1.844 J2.823 K0.000 F1000.000
G0 Z5.000
G0 X149.365 Y123.439 Z5.000
G0 X149.365 Y123.439 Z3.000
G1 X149.365 Y123.439 Z-1.000 F200.000
G2 X149.185 Y123.738 Z-1.000 I0.509 J0.512 K0.000 F1000.000
G2 X148.318 Y123.039 Z-1.000 I-1.387 J0.834 K0.000 F1000.000
G2 X148.716 Y122.634 Z-1.000 I-0.449 J-0.840 K0.000 F1000.000
G2 X149.365 Y123.439 Z-1.000 I1.681 J-0.692 K0.000 F1000.000
G0 Z5.000
G0 X146.877 Y118.260 Z5.000
G0 X146.877 Y118.260 Z3.000
G1 X146.877 Y118.260 Z-1.000 F200.000
G2 X145.757 Y118.304 Z-1.000 I-0.413 J3.712 K0.000 F1000.000
G3 X145.420 Y118.254 Z-1.000 I-0.112 J-0.408 K0.000 F1000.000
G3 X145.468 Y117.825 Z-1.000 I0.347 J-0.179 K0.000 F1000.000
G3 X146.447 Y117.874 Z-1.000 I0.411 J1.599 K0.000 F1000.000
G3 X146.877 Y118.260 Z-1.000 I-0.453 J0.937 K0.000 F1000.000
G0 Z5.000
G0 X152.908 Y131.641 Z5.000
G0 X152.908 Y131.641 Z3.000
G1 X152.908 Y131.641 Z-1.000 F200.000
G3 X153.580 Y131.362 Z-1.000 I8.561 J19.619 K0.000 F1000.000
G1 X153.649 Y131.439 Z-1.000 F1000.000
G3 X153.558 Y131.711 Z-1.000 I-0.107 J0.115 K0.000 F1000.000
G3 X152.908 Y131.641 Z-1.000 I-0.193 J-1.268 K0.000 F1000.000
G0 Z5.000
G0 Z5.000
G0 X152.908 Y131.641
G0 X140.672 Y126.252
G0 X140.672 Y126.252 Z3.000
G1 X140.672 Y126.252 Z-1.000 F200.000
G1 X140.504 Y126.263 Z-1.000 F1000.000
G2 X140.607 Y126.006 Z-1.000 I-1.045 J-0.568 K0.000 F1000.000
G2 X140.672 Y126.252 Z-1.000 I0.852 J-0.095 K0.000 F1000.000
G0 Z5.000
G0 X140.517 Y122.552 Z5.000
G0 X140.517 Y122.552 Z3.000
G1 X140.517 Y122.552 Z-1.000 F200.000
G2 X140.217 Y122.245 Z-1.000 I-0.940 J0.616 K0.000 F1000.000
G2 X140.522 Y121.902 Z-1.000 I-0.790 J-1.013 K0.000 F1000.000
G1 X140.517 Y122.552 Z-1.000 F1000.000
G0 Z5.000
G0 X140.658 Y119.402 Z5.000
G0 X140.658 Y119.402 Z3.000
G1 X140.658 Y119.402 Z-1.000 F200.000
G2 X140.510 Y119.048 Z-1.000 I-1.506 J0.426 K0.000 F1000.000
G1 X140.797 Y119.054 Z-1.000 F1000.000
G2 X140.658 Y119.402 Z-1.000 I1.345 J0.737 K0.000 F1000.000
G0 Z5.000
G0 Z5.000
G0 X140.658 Y119.402
G0 X109.099 Y111.919
G0 X109.099 Y111.919 Z3.000
G1 X109.099 Y111.919 Z-1.000 F200.000
G3 X104.345 Y112.048 Z-1.000 I-8.910 J-240.577 K0.000 F1000.000
G3 X103.576 Y112.003 Z-1.000 I-0.304 J-1.407 K0.000 F1000.000
G3 X105.136 Y111.736 Z-1.000 I3.928 J18.272 K0.000 F1000.000
G2 X106.660 Y110.245 Z-1.000 I-0.170 J-1.698 K0.000 F1000.000
G2 X106.792 Y108.195 Z-1.000 I-11.416 J-1.767 K0.000 F1000.000
G3 X106.905 Y100.472 Z-1.000 I379.167 J1.675 K0.000 F1000.000
G2 X106.853 Y98.614 Z-1.000 I-15.966 J-0.482 K0.000 F1000.000
G2 X105.442 Y97.987 Z-1.000 I-0.844 J-0.002 K0.000 F1000.000
G2 X104.178 Y99.189 Z-1.000 I5.419 J6.961 K0.000 F1000.000
G2 X95.297 Y109.153 Z-1.000 I268.666 J248.400 K0.000 F1000.000
G3 X93.816 Y110.854 Z-1.000 I-34.833 J-28.844 K0.000 F1000.000
G1 X93.775 Y109.392 Z-1.000 F1000.000
G2 X93.691 Y97.007 Z-1.000 I-723.304 J-1.289 K0.000 F1000.000
G2 X93.527 Y95.628 Z-1.000 I-7.451 J0.188 K0.000 F1000.000
G2 X92.655 Y94.459 Z-1.000 I-1.519 J0.223 K0.000 F1000.000
G3 X95.718 Y94.482 Z-1.000 I1.232 J40.062 K0.000 F1000.000
G2 X94.720 Y94.881 Z-1.000 I0.533 J2.780 K0.000 F1000.000
G2 X94.271 Y95.684 Z-1.000 I0.761 J0.952 K0.000 F1000.000
G2 X93.978 Y99.869 Z-1.000 I29.985 J4.199 K0.000 F1000.000
G2 X94.034 Y102.903 Z-1.000 I36.981 J0.833 K0.000 F1000.000
G2 X94.182 Y103.938 Z-1.000 I4.747 J-0.151 K0.000 F1000.000
G2 X95.467 Y104.463 Z-1.000 I0.798 J-0.120 K0.000 F1000.000
G2 X96.995 Y102.967 Z-1.000 I-8.129 J-9.839 K0.000 F1000.000
G3 X103.495 Y95.935 Z-1.000 I449.622 J409.024 K0.000 F1000.000
G3 X104.602 Y94.824 Z-1.000 I9.038 J7.898 K0.000 F1000.000
G3 X104.973 Y94.708 Z-1.000 I0.396 J0.614 K0.000 F1000.000
G3 X108.983 Y94.638 Z-1.000 I2.982 J56.375 K0.000 F1000.000
G2 X107.950 Y95.142 Z-1.000 I0.831 J3.017 K0.000 F1000.000
G2 X107.234 Y96.391 Z-1.000 I1.422 J1.644 K0.000 F1000.000
G2 X107.033 Y98.213 Z-1.000 I9.758 J2.000 K0.000 F1000.000
G2 X106.893 Y110.298 Z-1.000 I845.990 J15.856 K0.000 F1000.000
G2 X107.112 Y110.834 Z-1.000 I0.750 J0.006 K0.000 F1000.000
G2 X108.029 Y111.589 Z-1.000 I2.192 J-1.729 K0.000 F1000.000
G2 X109.099 Y111.919 Z-1.000 I1.688 J-3.578 K0.000 F1000.000
G0 Z5.000
G0 Z5.000
G0 X109.099 Y111.919
G0 X68.854 Y111.813
G0 X68.854 Y111.813 Z3.000
G1 X68.854 Y111.813 Z-1.000 F200.000
G1 X68.527 Y111.837 Z-1.000 F1000.000
G3 X52.272 Y111.831 Z-1.000 I-7.985 J-392.402 K0.000 F1000.000
G1 X51.599 Y111.797 Z-1.000 F1000.000
G2 X51.488 Y108.342 Z-1.000 I-13.308 J-1.305 K0.000 F1000.000
G1 X51.297 Y106.697 Z-1.000 F1000.000
G1 X51.321 Y106.725 Z-1.000 F1000.000
G2 X53.691 Y109.867 Z-1.000 I22.515 J-14.518 K0.000 F1000.000
G2 X55.297 Y110.996 Z-1.000 I3.419 J-3.156 K0.000 F1000.000
G2 X59.224 Y111.706 Z-1.000 I3.933 J-10.536 K0.000 F1000.000
G2 X62.282 Y111.659 Z-1.000 I0.696 J-53.698 K0.000 F1000.000
G2 X63.009 Y110.972 Z-1.000 I-0.021 J-0.750 K0.000 F1000.000
G2 X63.181 Y103.443 Z-1.000 I-53.008 J-4.977 K0.000 F1000.000
G2 X62.457 Y102.709 Z-1.000 I-0.750 J0.015 K0.000 F1000.000
G2 X60.207 Y102.658 Z-1.000 I-1.879 J33.427 K0.000 F1000.000
G2 X58.445 Y103.058 Z-1.000 I-0.063 J3.809 K0.000 F1000.000
G2 X57.272 Y104.200 Z-1.000 I1.483 J2.695 K0.000 F1000.000
G2 X56.593 Y105.581 Z-1.000 I9.958 J5.758 K0.000 F1000.000
G3 X56.625 Y100.069 Z-1.000 I63.403 J-2.392 K0.000 F1000.000
G2 X57.981 Y101.946 Z-1.000 I5.510 J-2.553 K0.000 F1000.000
G2 X58.875 Y102.345 Z-1.000 I1.122 J-1.311 K0.000 F1000.000
G2 X62.337 Y102.662 Z-1.000 I3.220 J-16.121 K0.000 F1000.000
G2 X63.108 Y102.044 Z-1.000 I-0.014 J-0.807 K0.000 F1000.000
G2 X63.219 Y101.117 Z-1.000 I-4.005 J-0.952 K0.000 F1000.000
G2 X63.230 Y95.309 Z-1.000 I-45.918 J-2.992 K0.000 F1000.000
G2 X62.319 Y94.510 Z-1.000 I-0.872 J0.077 K0.000 F1000.000
G2 X56.641 Y94.548 Z-1.000 I-2.615 J34.147 K0.000 F1000.000
G2 X54.002 Y95.439 Z-1.000 I0.460 J5.714 K0.000 F1000.000
G2 X52.319 Y97.478 Z-1.000 I3.221 J4.372 K0.000 F1000.000
G3 X52.484 Y94.342 Z-1.000 I28.116 J-0.089 K0.000 F1000.000
G3 X67.780 Y94.377 Z-1.000 I6.900 J321.806 K0.000 F1000.000
G1 X68.069 Y94.389 Z-1.000 F1000.000
G2 X66.557 Y95.054 Z-1.000 I0.556 J3.318 K0.000 F1000.000
G2 X66.126 Y95.895 Z-1.000 I0.934 J1.010 K0.000 F1000.000
G2 X65.965 Y98.525 Z-1.000 I19.570 J2.519 K0.000 F1000.000
G2 X65.832 Y107.413 Z-1.000 I1194.305 J22.310 K0.000 F1000.000
G2 X65.897 Y109.763 Z-1.000 I20.803 J0.596 K0.000 F1000.000
G2 X66.490 Y111.208 Z-1.000 I2.096 J-0.016 K0.000 F1000.000
G2 X67.684 Y111.644 Z-1.000 I1.291 J-1.680 K0.000 F1000.000
G3 X68.854 Y111.813 Z-1.000 I-0.651 J8.687 K0.000 F1000.000
G0 Z5.000
G0 Z5.000
G0 X68.854 Y111.813
G0 X49.198 Y111.871
G0 X49.198 Y111.871 Z3.000
G1 X49.198 Y111.871 Z-1.000 F200.000
G1 X49.102 Y111.884 Z-1.000 F1000.000
G3 X40.712 Y111.801 Z-1.000 I-2.877 J-133.658 K0.000 F1000.000
G1 X40.461 Y111.761 Z-1.000 F1000.000
G3 X40.460 Y111.758 Z-1.000 I0.008 J-0.005 K0.000 F1000.000
G2 X42.244 Y111.309 Z-1.000 I-1.402 J-9.342 K0.000 F1000.000
G2 X43.109 Y110.576 Z-1.000 I-0.292 J-1.221 K0.000 F1000.000
G2 X43.329 Y109.166 Z-1.000 I-5.605 J-1.598 K0.000 F1000.000
G2 X43.517 Y104.926 Z-1.000 I-71.375 J-5.285 K0.000 F1000.000
G2 X43.442 Y103.908 Z-1.000 I-4.031 J-0.216 K0.000 F1000.000
G2 X42.035 Y103.332 Z-1.000 I-0.868 J0.114 K0.000 F1000.000
G2 X41.572 Y103.924 Z-1.000 I2.242 J2.230 K0.000 F1000.000
G3 X38.371 Y108.866 Z-1.000 I-82.949 J-50.221 K0.000 F1000.000
G3 X36.479 Y111.117 Z-1.000 I-11.330 J-7.606 K0.000 F1000.000
G3 X35.636 Y111.768 Z-1.000 I-5.579 J-6.348 K0.000 F1000.000
G3 X29.886 Y111.731 Z-1.000 I-2.130 J-116.264 K0.000 F1000.000
G1 X29.247 Y111.684 Z-1.000 F1000.000
G3 X29.260 Y111.425 Z-1.000 I0.675 J-0.096 K0.000 F1000.000
G3 X30.289 Y111.215 Z-1.000 I1.538 J4.912 K0.000 F1000.000
G1 X30.289 Y111.215 Z-1.000 F1000.000
G2 X33.531 Y109.831 Z-1.000 I-0.466 J-5.581 K0.000 F1000.000
G2 X36.260 Y106.803 Z-1.000 I-16.479 J-17.594 K0.000 F1000.000
G2 X37.631 Y104.942 Z-1.000 I-18.314 J-14.931 K0.000 F1000.000
G2 X38.111 Y104.010 Z-1.000 I-3.455 J-2.368 K0.000 F1000.000
G2 X37.827 Y102.782 Z-1.000 I-0.906 J-0.438 K0.000 F1000.000
G2 X36.807 Y102.203 Z-1.000 I-3.224 J4.497 K0.000 F1000.000
G3 X34.825 Y99.908 Z-1.000 I1.826 J-3.580 K0.000 F1000.000
G3 X34.803 Y97.442 Z-1.000 I9.668 J-1.321 K0.000 F1000.000
G3 X35.533 Y96.169 Z-1.000 I3.491 J1.157 K0.000 F1000.000
G3 X37.202 Y94.885 Z-1.000 I3.670 J3.046 K0.000 F1000.000
G3 X38.741 Y94.571 Z-1.000 I1.968 J5.701 K0.000 F1000.000
G3 X45.976 Y94.311 Z-1.000 I6.524 J80.821 K0.000 F1000.000
G3 X48.817 Y94.357 Z-1.000 I0.844 J35.547 K0.000 F1000.000
G2 X47.401 Y94.786 Z-1.000 I1.106 J6.200 K0.000 F1000.000
G2 X46.449 Y95.957 Z-1.000 I0.507 J1.385 K0.000 F1000.000
G1 X46.395 Y97.341 Z-1.000 F1000.000
G2 X46.255 Y108.198 Z-1.000 I425.522 J10.898 K0.000 F1000.000
G2 X46.378 Y110.050 Z-1.000 I11.787 J0.147 K0.000 F1000.000
G2 X47.494 Y111.561 Z-1.000 I1.721 J-0.104 K0.000 F1000.000
G2 X48.633 Y111.773 Z-1.000 I1.566 J-5.245 K0.000 F1000.000
G1 X49.198 Y111.871 Z-1.000 F1000.000
G0 Z5.000
G0 Z5.000
G0 X49.198 Y111.871
G0 X160.362 Y107.550
G0 X160.362 Y107.550 Z3.000
G1 X160.362 Y107.550 Z-1.000 F200.000
G2 X164.255 Y110.973 Z-1.000 I9.468 J-6.842 K0.000 F1000.000
G2 X166.384 Y111.617 Z-1.000 I2.826 J-5.504 K0.000 F1000.000
G2 X170.961 Y111.828 Z-1.000 I4.235 J-42.069 K0.000 F1000.000
G2 X171.724 Y111.082 Z-1.000 I0.012 J-0.750 K0.000 F1000.000
G1 X171.812 Y95.816 Z-1.000 F1000.000
G2 X171.264 Y95.090 Z-1.000 I-0.750 J-0.004 K0.000 F1000.000
G3 X169.798 Y94.679 Z-1.000 I13.342 J-50.494 K0.000 F1000.000
G3 X176.201 Y94.850 Z-1.000 I-1.904 J191.706 K0.000 F1000.000
G2 X174.949 Y95.328 Z-1.000 I0.664 J3.615 K0.000 F1000.000
G2 X174.474 Y96.085 Z-1.000 I0.599 J0.904 K0.000 F1000.000
G1 X174.398 Y96.762 Z-1.000 F1000.000
G2 X174.201 Y108.917 Z-1.000 I327.080 J11.380 K0.000 F1000.000
G2 X174.299 Y110.337 Z-1.000 I7.620 J0.185 K0.000 F1000.000
G2 X175.233 Y111.506 Z-1.000 I1.608 J-0.327 K0.000 F1000.000
G2 X176.854 Y111.950 Z-1.000 I2.282 J-5.155 K0.000 F1000.000
G3 X172.667 Y111.934 Z-1.000 I-1.919 J-47.030 K0.000 F1000.000
G3 X160.910 Y111.756 Z-1.000 I0.141 J-397.579 K0.000 F1000.000
G1 X160.664 Y111.742 Z-1.000 F1000.000
G2 X160.362 Y107.550 Z-1.000 I-34.911 J0.409 K0.000 F1000.000
G0 Z5.000
G0 Z5.000
G0 X160.362 Y107.550
G0 X165.348 Y118.232
G0 X165.348 Y118.232 Z3.000
G1 X165.348 Y118.232 Z-1.000 F200.000
G3 X165.484 Y118.218 Z-1.000 I0.101 J0.321 K0.000 F1000.000
G1 X165.484 Y118.218 Z-1.000 F1000.000
G2 X166.492 Y117.938 Z-1.000 I-0.370 J-3.284 K0.000 F1000.000
G3 X168.618 Y117.122 Z-1.000 I4.466 J8.468 K0.000 F1000.000
G1 X168.893 Y117.080 Z-1.000 F1000.000
G2 X166.834 Y118.909 Z-1.000 I0.620 J2.771 K0.000 F1000.000
G1 X166.805 Y119.029 Z-1.000 F1000.000
G2 X165.348 Y118.232 Z-1.000 I-1.640 J1.266 K0.000 F1000.000
G0 Z5.000
G0 X166.733 Y123.315 Z5.000
G0 X166.733 Y123.315 Z3.000
G1 X166.733 Y123.315 Z-1.000 F200.000
G2 X167.418 Y123.356 Z-1.000 I0.435 J-1.511 K0.000 F1000.000
G2 X167.824 Y123.126 Z-1.000 I-0.106 J-0.662 K0.000 F1000.000
G2 X168.498 Y124.911 Z-1.000 I13.203 J-3.961 K0.000 F1000.000
G2 X167.558 Y125.112 Z-1.000 I-0.326 J0.776 K0.000 F1000.000
G2 X166.838 Y123.569 Z-1.000 I-2.066 J0.025 K0.000 F1000.000
G3 X166.733 Y123.315 Z-1.000 I0.319 J-0.281 K0.000 F1000.000
G0 Z5.000
G0 X164.486 Y124.366 Z5.000
G0 X164.486 Y124.366 Z3.000
G1 X164.486 Y124.366 Z-1.000 F200.000
G3 X164.840 Y125.255 Z-1.000 I-7.391 J3.456 K0.000 F1000.000
G2 X165.471 Y126.353 Z-1.000 I2.796 J-0.876 K0.000 F1000.000
G3 X164.942 Y126.611 Z-1.000 I-4.967 J-9.486 K0.000 F1000.000
G3 X164.314 Y126.243 Z-1.000 I0.616 J-1.772 K0.000 F1000.000
G2 X162.886 Y126.340 Z-1.000 I-0.660 J0.848 K0.000 F1000.000
G2 X161.773 Y124.241 Z-1.000 I-24.950 J11.882 K0.000 F1000.000
G2 X161.018 Y123.578 Z-1.000 I-1.717 J1.193 K0.000 F1000.000
G2 X161.343 Y123.340 Z-1.000 I-0.235 J-0.663 K0.000 F1000.000
G3 X162.277 Y123.885 Z-1.000 I-33.627 J58.625 K0.000 F1000.000
G2 X163.281 Y123.653 Z-1.000 I0.379 J-0.647 K0.000 F1000.000
G3 X163.527 Y123.293 Z-1.000 I1.578 J0.813 K0.000 F1000.000
G3 X164.310 Y124.011 Z-1.000 I-0.572 J1.410 K0.000 F1000.000
G3 X164.486 Y124.366 Z-1.000 I-7.214 J3.810 K0.000 F1000.000
G0 Z5.000
G0 X166.980 Y126.508 Z5.000
G0 X166.980 Y126.508 Z3.000
G1 X166.980 Y126.508 Z-1.000 F200.000
G2 X167.090 Y126.389 Z-1.000 I-0.316 J-0.401 K0.000 F1000.000
G3 X167.028 Y126.526 Z-1.000 I-0.553 J-0.167 K0.000 F1000.000
G1 X166.980 Y126.508 Z-1.000 F1000.000
G0 Z5.000
G0 X169.312 Y126.068 Z5.000
G0 X169.312 Y126.068 Z3.000
G1 X169.312 Y126.068 Z-1.000 F200.000
G2 X169.526 Y126.185 Z-1.000 I0.466 J-0.599 K0.000 F1000.000
G1 X169.406 Y126.286 Z-1.000 F1000.000
G1 X169.312 Y126.068 Z-1.000 F1000.000
G0 Z5.000
G0 X170.519 Y126.164 Z5.000
G0 X170.519 Y126.164 Z3.000
G1 X170.519 Y126.164 Z-1.000 F200.000
G2 X170.947 Y125.240 Z-1.000 I-0.483 J-0.785 K0.000 F1000.000
G3 X170.542 Y123.456 Z-1.000 I30.376 J-7.845 K0.000 F1000.000
G3 X171.309 Y123.985 Z-1.000 I-0.832 J2.029 K0.000 F1000.000
G3 X172.762 Y126.344 Z-1.000 I-3.826 J3.984 K0.000 F1000.000
G1 X172.796 Y126.546 Z-1.000 F1000.000
G2 X171.466 Y126.348 Z-1.000 I-0.961 J1.890 K0.000 F1000.000
G3 X171.132 Y126.478 Z-1.000 I-0.463 J-0.693 K0.000 F1000.000
G3 X170.519 Y126.164 Z-1.000 I0.762 J-2.240 K0.000 F1000.000
G0 Z5.000
G0 X176.435 Y126.573 Z5.000
G0 X176.435 Y126.573 Z3.000
G1 X176.435 Y126.573 Z-1.000 F200.000
G2 X176.923 Y125.685 Z-1.000 I-0.735 J-0.982 K0.000 F1000.000
G2 X176.923 Y125.125 Z-1.000 I-2.210 J-0.279 K0.000 F1000.000
G2 X177.447 Y126.589 Z-1.000 I14.576 J-4.393 K0.000 F1000.000
G3 X176.435 Y126.573 Z-1.000 I-0.382 J-7.789 K0.000 F1000.000
G0 Z5.000
G0 X180.548 Y125.529 Z5.000
G0 X180.548 Y125.529 Z3.000
G1 X180.548 Y125.529 Z-1.000 F200.000
G2 X181.087 Y125.167 Z-1.000 I-0.046 J-0.650 K0.000 F1000.000
G2 X181.043 Y126.343 Z-1.000 I6.401 J0.828 K0.000 F1000.000
G1 X180.548 Y125.529 Z-1.000 F1000.000
G0 Z5.000
G0 X181.403 Y123.261 Z5.000
G0 X181.403 Y123.261 Z3.000
G1 X181.403 Y123.261 Z-1.000 F200.000
G2 X181.369 Y121.261 Z-1.000 I-8.479 J-0.857 K0.000 F1000.000
G1 X182.296 Y122.617 Z-1.000 F1000.000
G2 X181.403 Y123.261 Z-1.000 I-0.076 J0.836 K0.000 F1000.000
G0 Z5.000
G0 X180.730 Y119.465 Z5.000
G0 X180.730 Y119.465 Z3.000
G1 X180.730 Y119.465 Z-1.000 F200.000
G2 X180.078 Y118.744 Z-1.000 I-2.801 J1.874 K0.000 F1000.000
G3 X181.031 Y119.083 Z-1.000 I-8.340 J24.955 K0.000 F1000.000
G2 X180.730 Y119.465 Z-1.000 I0.342 J0.579 K0.000 F1000.000
G0 Z5.000
G0 X184.084 Y120.434 Z5.000
G0 X184.084 Y120.434 Z3.000
G1 X184.084 Y120.434 Z-1.000 F200.000
G3 X184.954 Y121.183 Z-1.000 I-1.173 J2.239 K0.000 F1000.000
G3 X185.079 Y121.581 Z-1.000 I-0.453 J0.361 K0.000 F1000.000
G3 X184.806 Y121.335 Z-1.000 I0.364 J-0.680 K0.000 F1000.000
G2 X184.084 Y120.434 Z-1.000 I-8.122 J5.756 K0.000 F1000.000
G0 Z5.000
G0 X185.151 Y125.877 Z5.000
G0 X185.151 Y125.877 Z3.000
G1 X185.151 Y125.877 Z-1.000 F200.000
G3 X186.693 Y126.601 Z-1.000 I-5.569 J13.875 K0.000 F1000.000
G3 X186.532 Y126.624 Z-1.000 I-0.100 J-0.120 K0.000 F1000.000
G3 X185.151 Y125.877 Z-1.000 I0.597 J-2.753 K0.000 F1000.000
G0 Z5.000
G0 X176.838 Y121.244 Z5.000
G0 X176.838 Y121.244 Z3.000
G1 X176.838 Y121.244 Z-1.000 F200.000
G2 X176.419 Y121.865 Z-1.000 I0.307 J0.659 K0.000 F1000.000
G2 X175.873 Y120.197 Z-1.000 I-5.817 J0.980 K0.000 F1000.000
G3 X176.838 Y121.244 Z-1.000 I-8.194 J8.517 K0.000 F1000.000
G0 Z5.000
G0 Z5.000
G0 X176.838 Y121.244
G0 X179.572 Y111.849
G0 X179.572 Y111.849 Z3.000
G1 X179.572 Y111.849 Z-1.000 F200.000
G1 X179.542 Y111.630 Z-1.000 F1000.000
G2 X179.292 Y107.867 Z-1.000 I-31.858 J0.226 K0.000 F1000.000
G1 X179.247 Y107.618 Z-1.000 F1000.000
G2 X182.397 Y110.599 Z-1.000 I11.292 J-8.778 K0.000 F1000.000
G2 X184.397 Y111.417 Z-1.000 I3.187 J-4.936 K0.000 F1000.000
G2 X190.195 Y111.783 Z-1.000 I3.935 J-16.257 K0.000 F1000.000
G2 X190.689 Y111.083 Z-1.000 I-0.257 J-0.705 K0.000 F1000.000
G2 X190.735 Y98.195 Z-1.000 I-1135.285 J-10.502 K0.000 F1000.000
G2 X190.597 Y96.245 Z-1.000 I-12.838 J-0.075 K0.000 F1000.000
G2 X189.825 Y94.989 Z-1.000 I-1.622 J0.131 K0.000 F1000.000
G2 X189.247 Y94.787 Z-1.000 I-0.996 J1.929 K0.000 F1000.000
G3 X195.080 Y94.839 Z-1.000 I1.482 J159.462 K0.000 F1000.000
G2 X193.814 Y95.471 Z-1.000 I0.595 J2.778 K0.000 F1000.000
G2 X193.333 Y96.388 Z-1.000 I0.992 J1.105 K0.000 F1000.000
G2 X193.198 Y99.026 Z-1.000 I19.812 J2.336 K0.000 F1000.000
G2 X193.182 Y108.621 Z-1.000 I587.908 J5.828 K0.000 F1000.000
G2 X193.313 Y110.435 Z-1.000 I10.901 J0.122 K0.000 F1000.000
G2 X194.483 Y111.714 Z-1.000 I1.412 J-0.117 K0.000 F1000.000
G3 X196.034 Y112.033 Z-1.000 I-1.969 J13.518 K0.000 F1000.000
G3 X185.777 Y111.940 Z-1.000 I0.319 J-604.530 K0.000 F1000.000
G3 X180.902 Y111.910 Z-1.000 I2.014 J-711.929 K0.000 F1000.000
G3 X179.572 Y111.849 Z-1.000 I-0.170 J-10.810 K0.000 F1000.000
G0 Z5.000
G0 Z5.000
G0 X179.572 Y111.849
G0 X199.617 Y108.608
G0 X199.617 Y108.608 Z3.000
G1 X199.617 Y108.608 Z-1.000 F200.000
G3 X199.529 Y108.042 Z-1.000 I43.121 J-6.971 K0.000 F1000.000
G3 X199.632 Y98.658 Z-1.000 I43.909 J-4.209 K0.000 F1000.000
G3 X201.705 Y90.500 Z-1.000 I43.028 J6.588 K0.000 F1000.000
G3 X204.290 Y85.395 Z-1.000 I23.655 J8.771 K0.000 F1000.000
G2 X204.798 Y84.357 Z-1.000 I-2.919 J-2.074 K0.000 F1000.000
G2 X204.027 Y83.236 Z-1.000 I-0.965 J-0.162 K0.000 F1000.000
G2 X201.378 Y82.717 Z-1.000 I-6.360 J25.470 K0.000 F1000.000
G2 X178.900 Y78.424 Z-1.000 I-247.387 J1234.164 K0.000 F1000.000
G2 X160.818 Y75.173 Z-1.000 I-142.150 J738.781 K0.000 F1000.000
G3 X156.588 Y74.393 Z-1.000 I32.996 J-190.815 K0.000 F1000.000
G3 X153.483 Y72.675 Z-1.000 I0.909 J-5.307 K0.000 F1000.000
G2 X153.028 Y72.226 Z-1.000 I-2.487 J2.064 K0.000 F1000.000
G3 X155.602 Y71.410 Z-1.000 I3.265 J5.834 K0.000 F1000.000
G3 X156.825 Y71.448 Z-1.000 I0.488 J4.043 K0.000 F1000.000
G3 X168.595 Y74.263 Z-1.000 I-103.171 J457.391 K0.000 F1000.000
G1 X179.859 Y77.007 Z-1.000 F1000.000
G1 X182.327 Y77.582 Z-1.000 F1000.000
G2 X202.135 Y81.940 Z-1.000 I1216.504 J-5483.232 K0.000 F1000.000
G2 X205.601 Y82.646 Z-1.000 I23.416 J-106.077 K0.000 F1000.000
G2 X206.246 Y82.467 Z-1.000 I0.143 J-0.736 K0.000 F1000.000
G3 X210.316 Y78.943 Z-1.000 I42.964 J45.509 K0.000 F1000.000
G3 X212.818 Y77.249 Z-1.000 I11.368 J14.103 K0.000 F1000.000
G2 X211.466 Y78.340 Z-1.000 I6.501 J9.441 K0.000 F1000.000
G2 X208.288 Y81.565 Z-1.000 I22.620 J25.478 K0.000 F1000.000
G2 X207.903 Y82.309 Z-1.000 I0.945 J0.961 K0.000 F1000.000
G2 X208.509 Y83.216 Z-1.000 I0.917 J0.042 K0.000 F1000.000
G2 X210.220 Y83.719 Z-1.000 I4.463 J-12.000 K0.000 F1000.000
G2 X230.843 Y88.220 Z-1.000 I866.264 J-3919.534 K0.000 F1000.000
G2 X207.196 Y83.825 Z-1.000 I-286.974 J1478.075 K0.000 F1000.000
G2 X206.481 Y84.094 Z-1.000 I-0.131 J0.739 K0.000 F1000.000
G2 X205.664 Y85.267 Z-1.000 I4.556 J4.043 K0.000 F1000.000
G2 X203.183 Y90.989 Z-1.000 I39.381 J20.475 K0.000 F1000.000
G2 X201.919 Y102.751 Z-1.000 I29.220 J9.088 K0.000 F1000.000
G2 X208.482 Y120.856 Z-1.000 I35.993 J-2.805 K0.000 F1000.000
G2 X219.942 Y131.141 Z-1.000 I29.015 J-20.803 K0.000 F1000.000
G2 X225.952 Y133.229 Z-1.000 I9.557 J-17.813 K0.000 F1000.000
G2 X231.669 Y133.270 Z-1.000 I2.967 J-15.223 K0.000 F1000.000
G2 X235.338 Y132.256 Z-1.000 I-1.173 J-11.385 K0.000 F1000.000
G2 X241.686 Y126.289 Z-1.000 I-5.356 J-12.058 K0.000 F1000.000
G2 X243.568 Y121.655 Z-1.000 I-17.052 J-9.624 K0.000 F1000.000
G2 X243.466 Y110.293 Z-1.000 I-22.502 J-5.479 K0.000 F1000.000
G2 X240.845 Y103.605 Z-1.000 I-44.611 J13.627 K0.000 F1000.000
G2 X230.197 Y93.444 Z-1.000 I-19.957 J10.254 K0.000 F1000.000
G2 X226.130 Y92.306 Z-1.000 I-5.957 J13.454 K0.000 F1000.000
G2 X219.953 Y92.861 Z-1.000 I-1.457 J18.432 K0.000 F1000.000
G2 X212.519 Y98.513 Z-1.000 I4.120 J13.137 K0.000 F1000.000
G2 X211.121 Y102.982 Z-1.000 I8.879 J5.230 K0.000 F1000.000
G2 X214.029 Y113.579 Z-1.000 I16.887 J1.063 K0.000 F1000.000
G2 X218.479 Y118.222 Z-1.000 I18.506 J-13.282 K0.000 F1000.000
G2 X222.120 Y119.671 Z-1.000 I4.678 J-6.454 K0.000 F1000.000
G2 X223.132 Y119.633 Z-1.000 I0.361 J-3.837 K0.000 F1000.000
G3 X220.907 Y119.691 Z-1.000 I-1.215 J-3.873 K0.000 F1000.000
G3 X217.154 Y117.681 Z-1.000 I2.423 J-9.034 K0.000 F1000.000
G3 X210.555 Y107.021 Z-1.000 I13.206 J-15.547 K0.000 F1000.000
G3 X210.600 Y98.013 Z-1.000 I18.693 J-4.412 K0.000 F1000.000
G3 X218.397 Y89.960 Z-1.000 I11.097 J2.944 K0.000 F1000.000
G3 X226.257 Y90.232 Z-1.000 I3.426 J14.694 K0.000 F1000.000
G3 X234.950 Y95.371 Z-1.000 I-7.052 J21.855 K0.000 F1000.000
G3 X237.531 Y97.996 Z-1.000 I-25.001 J27.153 K0.000 F1000.000
G3 X239.618 Y100.952 Z-1.000 I-14.830 J12.685 K0.000 F1000.000
G3 X242.151 Y105.846 Z-1.000 I-36.201 J21.839 K0.000 F1000.000
G3 X243.946 Y111.979 Z-1.000 I-35.807 J13.808 K0.000 F1000.000
G3 X244.424 Y118.436 Z-1.000 I-23.955 J5.022 K0.000 F1000.000
G3 X241.799 Y127.244 Z-1.000 I-22.846 J-2.014 K0.000 F1000.000
G3 X238.280 Y131.509 Z-1.000 I-13.752 J-7.762 K0.000 F1000.000
G3 X231.669 Y134.970 Z-1.000 I-10.450 J-11.920 K0.000 F1000.000
G3 X227.513 Y135.709 Z-1.000 I-6.102 J-22.247 K0.000 F1000.000
G3 X221.397 Y135.099 Z-1.000 I-1.009 J-20.854 K0.000 F1000.000
G3 X216.676 Y133.541 Z-1.000 I4.422 J-21.327 K0.000 F1000.000
G3 X207.780 Y126.719 Z-1.000 I12.321 J-25.279 K0.000 F1000.000
G3 X201.406 Y115.767 Z-1.000 I23.182 J-20.824 K0.000 F1000.000
G3 X199.617 Y108.608 Z-1.000 I41.332 J-14.130 K0.000 F1000.000
G0 Z5.000
G0 X216.388 Y103.772 Z5.000
G0 X216.388 Y103.772 Z3.000
G1 X216.388 Y103.772 Z-1.000 F200.000
G2 X217.014 Y102.963 Z-1.000 I-1.370 J-1.705 K0.000 F1000.000
G2 X217.837 Y103.128 Z-1.000 I0.622 J-0.970 K0.000 F1000.000
G2 X217.695 Y104.268 Z-1.000 I1.092 J0.715 K0.000 F1000.000
G2 X217.012 Y104.526 Z-1.000 I-0.121 J0.717 K0.000 F1000.000
G1 X216.949 Y104.601 Z-1.000 F1000.000
G2 X216.574 Y103.833 Z-1.000 I-0.826 J-0.073 K0.000 F1000.000
G1 X216.388 Y103.772 Z-1.000 F1000.000
G0 Z5.000
G0 X250.993 Y95.017 Z5.000
G0 X250.993 Y95.017 Z3.000
G1 X250.993 Y95.017 Z-1.000 F200.000
G2 X251.894 Y94.092 Z-1.000 I-0.151 J-1.049 K0.000 F1000.000
G1 X252.113 Y93.916 Z-1.000 F1000.000
G2 X253.283 Y94.851 Z-1.000 I1.590 J-0.791 K0.000 F1000.000
G2 X252.468 Y96.355 Z-1.000 I0.881 J1.451 K0.000 F1000.000
G2 X251.423 Y96.371 Z-1.000 I-0.512 J0.690 K0.000 F1000.000
G2 X250.993 Y95.017 Z-1.000 I-1.148 J-0.381 K0.000 F1000.000
G0 Z5.000
G0 X151.872 Y71.942 Z5.000
G0 X151.872 Y71.942 Z3.000
G1 X151.872 Y71.942 Z-1.000 F200.000
G3 X151.566 Y72.053 Z-1.000 I-8.411 J-22.677 K0.000 F1000.000
G1 X151.432 Y71.936 Z-1.000 F1000.000
G1 X151.432 Y71.936 Z-1.000 F1000.000
G1 X151.328 Y71.846 Z-1.000 F1000.000
G2 X151.650 Y71.740 Z-1.000 I-0.997 J-3.594 K0.000 F1000.000
G3 X151.872 Y71.942 Z-1.000 I-1.412 J1.775 K0.000 F1000.000
G0 Z5.000
G0 X148.900 Y71.298 Z5.000
G0 X148.900 Y71.298 Z3.000
G1 X148.900 Y71.298 Z-1.000 F200.000
G2 X146.376 Y71.608 Z-1.000 I-0.179 J8.977 K0.000 F1000.000
G1 X146.005 Y71.734 Z-1.000 F1000.000
G2 X144.355 Y70.322 Z-1.000 I-8.130 J7.833 K0.000 F1000.000
G2 X146.316 Y69.675 Z-1.000 I-0.763 J-5.606 K0.000 F1000.000
G2 X148.900 Y71.298 Z-1.000 I16.255 J-23.017 K0.000 F1000.000
G0 Z5.000
G0 X141.998 Y69.781 Z5.000
G0 X141.998 Y69.781 Z3.000
G1 X141.998 Y69.781 Z-1.000 F200.000
G2 X140.910 Y70.493 Z-1.000 I1.967 J4.194 K0.000 F1000.000
G3 X140.830 Y70.512 Z-1.000 I-0.050 J-0.031 K0.000 F1000.000
G3 X140.211 Y69.863 Z-1.000 I1.041 J-1.613 K0.000 F1000.000
G2 X139.809 Y69.372 Z-1.000 I-1.621 J0.916 K0.000 F1000.000
G2 X140.960 Y68.771 Z-1.000 I-1.981 J-5.197 K0.000 F1000.000
G3 X141.210 Y68.845 Z-1.000 I0.060 J0.258 K0.000 F1000.000
G3 X141.587 Y69.280 Z-1.000 I-0.952 J1.206 K0.000 F1000.000
G1 X141.587 Y69.280 Z-1.000 F1000.000
G2 X141.998 Y69.781 Z-1.000 I2.485 J-1.620 K0.000 F1000.000
G0 Z5.000
G0 X137.547 Y68.892 Z5.000
G0 X137.547 Y68.892 Z3.000
G1 X137.547 Y68.892 Z-1.000 F200.000
G2 X135.311 Y69.532 Z-1.000 I6.092 J25.507 K0.000 F1000.000
G2 X133.395 Y68.196 Z-1.000 I-14.529 J18.800 K0.000 F1000.000
G1 X132.891 Y67.919 Z-1.000 F1000.000
G2 X135.793 Y67.434 Z-1.000 I0.153 J-8.000 K0.000 F1000.000
G3 X136.530 Y68.078 Z-1.000 I-2.798 J3.943 K0.000 F1000.000
G1 X136.530 Y68.078 Z-1.000 F1000.000
G2 X137.493 Y68.860 Z-1.000 I5.283 J-5.520 K0.000 F1000.000
G1 X137.547 Y68.892 Z-1.000 F1000.000
G0 Z5.000
G0 X130.230 Y67.454 Z5.000
G0 X130.230 Y67.454 Z3.000
G1 X130.230 Y67.454 Z-1.000 F200.000
G2 X129.076 Y68.176 Z-1.000 I4.828 J9.004 K0.000 F1000.000
G3 X128.443 Y68.407 Z-1.000 I-0.670 J-0.850 K0.000 F1000.000
G3 X127.934 Y68.044 Z-1.000 I0.082 J-0.652 K0.000 F1000.000
G3 X127.522 Y67.310 Z-1.000 I5.138 J-3.370 K0.000 F1000.000
G2 X126.465 Y67.013 Z-1.000 I-0.667 J0.344 K0.000 F1000.000
G3 X125.562 Y67.525 Z-1.000 I-2.296 J-3.000 K0.000 F1000.000
G3 X124.656 Y66.613 Z-1.000 I32.453 J-33.205 K0.000 F1000.000
G2 X123.485 Y66.319 Z-1.000 I-0.859 J0.939 K0.000 F1000.000
G3 X123.595 Y65.866 Z-1.000 I0.174 J-0.197 K0.000 F1000.000
G2 X125.460 Y65.953 Z-1.000 I0.969 J-0.745 K0.000 F1000.000
G3 X126.020 Y65.835 Z-1.000 I0.334 J0.196 K0.000 F1000.000
G3 X126.872 Y66.547 Z-1.000 I-3.905 J5.537 K0.000 F1000.000
G2 X127.850 Y66.558 Z-1.000 I0.495 J-0.564 K0.000 F1000.000
G3 X128.610 Y65.954 Z-1.000 I2.530 J2.405 K0.000 F1000.000
G3 X129.531 Y66.122 Z-1.000 I0.372 J0.569 K0.000 F1000.000
G3 X130.230 Y67.454 Z-1.000 I-4.412 J3.165 K0.000 F1000.000
G0 Z5.000
G0 Z5.000
(Finish operation: Profile)
(Begin postamble)
M5
G17 G90
M2
