(Exported by FreeCAD)
(Post Processor: grbl_post)
(Output Time:2022-11-27 15:53:53.789561)
(Begin preamble)
G17 G90
G21
(Begin operation: 1.5 z2 Q007)
(Path: 1.5 z2 Q007)
(1.5 z2 Q007)
(Begin toolchange)
( M6 T2.0 )
M3 S24000.0
(Finish operation: 1.5 z2 Q007)
(Begin operation: Fixture)
(Path: Fixture)
G54
G0 Z5.000
(Finish operation: Fixture)
(Begin operation: Profile)
(Path: Profile)
(Profile)
(Compensated Tool Path. Diameter: 1.5)
G0 Z5.000
G0 Z5.000
G0 X0.000 Y0.000
G0 X30.194 Y124.797
G0 X30.194 Y124.797 Z3.000
G1 X30.194 Y124.797 Z-0.300 F200.000
G2 X31.946 Y125.027 Z-0.300 I1.026 J-1.031 K0.000 F1000.000
G2 X31.572 Y125.701 Z-0.300 I2.282 J1.705 K0.000 F1000.000
G2 X31.684 Y126.857 Z-0.300 I1.529 J0.435 K0.000 F1000.000
G1 X31.847 Y127.203 Z-0.300 F1000.000
G2 X30.894 Y127.409 Z-0.300 I-0.343 J0.721 K0.000 F1000.000
G2 X30.543 Y127.863 Z-0.300 I2.016 J1.919 K0.000 F1000.000
G2 X29.229 Y126.711 Z-0.300 I-1.194 J0.036 K0.000 F1000.000
G2 X30.194 Y124.797 Z-0.300 I-1.444 J-1.928 K0.000 F1000.000
G0 Z5.000
G0 Z5.000
G0 Z5.000
G0 X0.000 Y0.000
G0 X40.996 Y131.062
G0 X40.996 Y131.062 Z3.000
G1 X40.996 Y131.062 Z-0.300 F200.000
G3 X41.867 Y130.940 Z-0.300 I0.804 J2.570 K0.000 F1000.000
G1 X42.191 Y130.945 Z-0.300 F1000.000
G3 X42.086 Y136.484 Z-0.300 I-182.272 J-0.705 K0.000 F1000.000
G3 X41.250 Y136.472 Z-0.300 I-0.379 J-2.644 K0.000 F1000.000
G3 X39.306 Y134.647 Z-0.300 I0.699 J-2.691 K0.000 F1000.000
G3 X40.996 Y131.062 Z-0.300 I2.494 J-1.015 K0.000 F1000.000
G0 Z5.000
G0 Z5.000
G0 Z5.000
G0 Z5.000
G0 X0.000 Y0.000
G0 X37.496 Y129.792
G0 X37.496 Y129.792 Z3.000
G1 X37.496 Y129.792 Z-0.300 F200.000
G3 X38.741 Y129.571 Z-0.300 I1.674 J5.795 K0.000 F1000.000
G3 X45.976 Y129.311 Z-0.300 I6.524 J80.821 K0.000 F1000.000
G3 X48.817 Y129.357 Z-0.300 I0.844 J35.547 K0.000 F1000.000
G2 X47.401 Y129.786 Z-0.300 I1.106 J6.200 K0.000 F1000.000
G2 X46.449 Y130.957 Z-0.300 I0.507 J1.385 K0.000 F1000.000
G1 X46.395 Y132.341 Z-0.300 F1000.000
G2 X46.255 Y143.198 Z-0.300 I425.522 J10.898 K0.000 F1000.000
G2 X46.378 Y145.050 Z-0.300 I11.787 J0.147 K0.000 F1000.000
G2 X47.494 Y146.561 Z-0.300 I1.721 J-0.104 K0.000 F1000.000
G2 X48.633 Y146.773 Z-0.300 I1.566 J-5.245 K0.000 F1000.000
G1 X49.198 Y146.871 Z-0.300 F1000.000
G1 X49.102 Y146.884 Z-0.300 F1000.000
G3 X40.712 Y146.801 Z-0.300 I-2.877 J-133.658 K0.000 F1000.000
G1 X40.461 Y146.761 Z-0.300 F1000.000
G3 X40.460 Y146.758 Z-0.300 I0.008 J-0.005 K0.000 F1000.000
G2 X42.244 Y146.309 Z-0.300 I-1.402 J-9.342 K0.000 F1000.000
G2 X43.109 Y145.576 Z-0.300 I-0.292 J-1.221 K0.000 F1000.000
G2 X43.329 Y144.166 Z-0.300 I-5.605 J-1.598 K0.000 F1000.000
G2 X43.517 Y139.926 Z-0.300 I-71.375 J-5.285 K0.000 F1000.000
G2 X43.442 Y138.908 Z-0.300 I-4.031 J-0.216 K0.000 F1000.000
G2 X42.035 Y138.332 Z-0.300 I-0.868 J0.114 K0.000 F1000.000
G2 X41.572 Y138.924 Z-0.300 I2.242 J2.230 K0.000 F1000.000
G3 X38.371 Y143.866 Z-0.300 I-82.949 J-50.221 K0.000 F1000.000
G3 X36.479 Y146.117 Z-0.300 I-11.330 J-7.606 K0.000 F1000.000
G3 X35.636 Y146.768 Z-0.300 I-5.579 J-6.348 K0.000 F1000.000
G3 X29.886 Y146.731 Z-0.300 I-2.130 J-116.264 K0.000 F1000.000
G1 X29.247 Y146.684 Z-0.300 F1000.000
G3 X29.260 Y146.425 Z-0.300 I0.675 J-0.096 K0.000 F1000.000
G3 X30.289 Y146.215 Z-0.300 I1.538 J4.912 K0.000 F1000.000
G1 X30.289 Y146.215 Z-0.300 F1000.000
G2 X33.531 Y144.831 Z-0.300 I-0.466 J-5.581 K0.000 F1000.000
G2 X36.260 Y141.803 Z-0.300 I-16.479 J-17.594 K0.000 F1000.000
G2 X37.631 Y139.942 Z-0.300 I-18.314 J-14.931 K0.000 F1000.000
G2 X38.111 Y139.010 Z-0.300 I-3.455 J-2.368 K0.000 F1000.000
G2 X37.827 Y137.782 Z-0.300 I-0.906 J-0.438 K0.000 F1000.000
G2 X36.807 Y137.203 Z-0.300 I-3.224 J4.497 K0.000 F1000.000
G3 X34.825 Y134.908 Z-0.300 I1.826 J-3.580 K0.000 F1000.000
G3 X34.803 Y132.442 Z-0.300 I9.668 J-1.321 K0.000 F1000.000
G3 X35.533 Y131.169 Z-0.300 I3.491 J1.157 K0.000 F1000.000
G3 X37.202 Y129.885 Z-0.300 I3.670 J3.046 K0.000 F1000.000
G3 X37.496 Y129.792 Z-0.300 I1.968 J5.701 K0.000 F1000.000
G0 Z5.000
G0 Z5.000
G0 Z5.000
G0 X0.000 Y0.000
G0 X57.512 Y137.518
G0 X57.512 Y137.518 Z3.000
G1 X57.512 Y137.518 Z-0.300 F200.000
G3 X57.514 Y137.592 Z-0.300 I-0.003 J0.037 K0.000 F1000.000
G1 X57.512 Y137.518 Z-0.300 F1000.000
G0 Z5.000
G0 Z5.000
G0 Z5.000
G0 Z5.000
G0 X0.000 Y0.000
G0 X52.484 Y129.342
G0 X52.484 Y129.342 Z3.000
G1 X52.484 Y129.342 Z-0.300 F200.000
G3 X68.069 Y129.389 Z-0.300 I6.806 J325.733 K0.000 F1000.000
G2 X66.557 Y130.054 Z-0.300 I0.556 J3.318 K0.000 F1000.000
G2 X66.126 Y130.895 Z-0.300 I0.934 J1.010 K0.000 F1000.000
G2 X65.965 Y133.525 Z-0.300 I19.570 J2.519 K0.000 F1000.000
G2 X65.832 Y142.413 Z-0.300 I1194.305 J22.310 K0.000 F1000.000
G2 X65.897 Y144.763 Z-0.300 I20.803 J0.596 K0.000 F1000.000
G2 X66.490 Y146.208 Z-0.300 I2.096 J-0.016 K0.000 F1000.000
G2 X67.684 Y146.644 Z-0.300 I1.291 J-1.680 K0.000 F1000.000
G3 X68.854 Y146.813 Z-0.300 I-0.651 J8.687 K0.000 F1000.000
G1 X68.527 Y146.837 Z-0.300 F1000.000
G3 X52.272 Y146.831 Z-0.300 I-7.985 J-392.402 K0.000 F1000.000
G1 X51.599 Y146.797 Z-0.300 F1000.000
G2 X51.488 Y143.342 Z-0.300 I-13.308 J-1.305 K0.000 F1000.000
G1 X51.297 Y141.697 Z-0.300 F1000.000
G1 X51.321 Y141.725 Z-0.300 F1000.000
G2 X53.691 Y144.867 Z-0.300 I22.515 J-14.518 K0.000 F1000.000
G2 X55.297 Y145.996 Z-0.300 I3.419 J-3.156 K0.000 F1000.000
G2 X59.224 Y146.706 Z-0.300 I3.933 J-10.536 K0.000 F1000.000
G2 X62.282 Y146.659 Z-0.300 I0.696 J-53.698 K0.000 F1000.000
G2 X63.009 Y145.972 Z-0.300 I-0.021 J-0.750 K0.000 F1000.000
G2 X63.181 Y138.443 Z-0.300 I-53.008 J-4.977 K0.000 F1000.000
G2 X62.457 Y137.709 Z-0.300 I-0.750 J0.015 K0.000 F1000.000
G2 X60.207 Y137.658 Z-0.300 I-1.879 J33.427 K0.000 F1000.000
G2 X58.445 Y138.058 Z-0.300 I-0.063 J3.809 K0.000 F1000.000
G2 X57.272 Y139.200 Z-0.300 I1.483 J2.695 K0.000 F1000.000
G2 X56.593 Y140.581 Z-0.300 I9.958 J5.758 K0.000 F1000.000
G3 X56.625 Y135.069 Z-0.300 I63.403 J-2.392 K0.000 F1000.000
G2 X57.981 Y136.946 Z-0.300 I5.510 J-2.553 K0.000 F1000.000
G2 X58.875 Y137.345 Z-0.300 I1.122 J-1.311 K0.000 F1000.000
G2 X62.337 Y137.662 Z-0.300 I3.220 J-16.121 K0.000 F1000.000
G2 X63.108 Y137.044 Z-0.300 I-0.014 J-0.807 K0.000 F1000.000
G2 X63.219 Y136.117 Z-0.300 I-4.005 J-0.952 K0.000 F1000.000
G2 X63.230 Y130.309 Z-0.300 I-45.918 J-2.992 K0.000 F1000.000
G2 X62.319 Y129.510 Z-0.300 I-0.872 J0.077 K0.000 F1000.000
G2 X56.641 Y129.548 Z-0.300 I-2.615 J34.147 K0.000 F1000.000
G2 X54.002 Y130.439 Z-0.300 I0.460 J5.714 K0.000 F1000.000
G2 X52.319 Y132.478 Z-0.300 I3.221 J4.372 K0.000 F1000.000
G3 X52.484 Y129.342 Z-0.300 I28.116 J-0.089 K0.000 F1000.000
G0 Z5.000
G0 Z5.000
G0 Z5.000
G0 X0.000 Y0.000
G0 X76.824 Y132.045
G0 X76.824 Y132.045 Z3.000
G1 X76.824 Y132.045 Z-0.300 F200.000
G3 X78.804 Y131.334 Z-0.300 I2.921 J5.021 K0.000 F1000.000
G3 X81.814 Y131.259 Z-0.300 I1.751 J9.855 K0.000 F1000.000
G3 X81.523 Y145.728 Z-0.300 I-553.070 J-3.902 K0.000 F1000.000
G3 X77.007 Y144.751 Z-0.300 I-0.243 J-9.811 K0.000 F1000.000
G3 X74.765 Y142.473 Z-0.300 I2.981 J-5.174 K0.000 F1000.000
G3 X73.756 Y139.222 Z-0.300 I5.803 J-3.582 K0.000 F1000.000
G3 X74.238 Y135.218 Z-0.300 I9.675 J-0.866 K0.000 F1000.000
G3 X76.824 Y132.045 Z-0.300 I5.507 J1.848 K0.000 F1000.000
G0 Z5.000
G0 Z5.000
G0 Z5.000
G0 X0.000 Y0.000
G0 X73.742 Y130.747
G0 X73.742 Y130.747 Z3.000
G1 X73.742 Y130.747 Z-0.300 F200.000
G3 X76.622 Y129.809 Z-0.300 I3.769 J6.682 K0.000 F1000.000
G3 X82.986 Y129.614 Z-0.300 I5.152 J63.920 K0.000 F1000.000
G1 X86.913 Y129.633 Z-0.300 F1000.000
G2 X85.968 Y130.883 Z-0.300 I0.611 J1.444 K0.000 F1000.000
G2 X85.745 Y133.177 Z-0.300 I15.580 J2.675 K0.000 F1000.000
G2 X85.629 Y144.624 Z-0.300 I254.610 J8.304 K0.000 F1000.000
G2 X85.772 Y145.889 Z-0.300 I6.351 J-0.078 K0.000 F1000.000
G2 X87.072 Y147.163 Z-0.300 I1.509 J-0.240 K0.000 F1000.000
G3 X76.821 Y147.139 Z-0.300 I-4.816 J-133.115 K0.000 F1000.000
G3 X76.116 Y146.996 Z-0.300 I0.170 J-2.642 K0.000 F1000.000
G3 X73.235 Y145.629 Z-0.300 I3.406 J-10.899 K0.000 F1000.000
G3 X69.837 Y140.330 Z-0.300 I6.073 J-7.633 K0.000 F1000.000
G3 X69.999 Y135.398 Z-0.300 I11.395 J-2.094 K0.000 F1000.000
G3 X73.568 Y130.848 Z-0.300 I8.265 J2.809 K0.000 F1000.000
G3 X73.742 Y130.747 Z-0.300 I3.942 J6.581 K0.000 F1000.000
G0 Z5.000
G0 Z5.000
G0 Z5.000
G0 X0.000 Y0.000
G0 X87.299 Y158.279
G0 X87.299 Y158.279 Z3.000
G1 X87.299 Y158.279 Z-0.300 F200.000
G2 X88.281 Y158.656 Z-0.300 I0.978 J-1.080 K0.000 F1000.000
G2 X89.025 Y158.341 Z-0.300 I-0.237 J-1.599 K0.000 F1000.000
G2 X89.789 Y158.674 Z-0.300 I1.300 J-1.938 K0.000 F1000.000
G2 X90.735 Y158.279 Z-0.300 I0.153 J-0.963 K0.000 F1000.000
G3 X91.241 Y158.332 Z-0.300 I0.155 J0.965 K0.000 F1000.000
G2 X90.977 Y158.993 Z-0.300 I0.440 J0.558 K0.000 F1000.000
G1 X91.034 Y159.383 Z-0.300 F1000.000
G2 X91.464 Y161.065 Z-0.300 I138.666 J-34.625 K0.000 F1000.000
G1 X91.532 Y161.429 Z-0.300 F1000.000
G2 X90.059 Y161.369 Z-0.300 I-0.794 J1.388 K0.000 F1000.000
G3 X89.719 Y160.568 Z-0.300 I2.071 J-1.351 K0.000 F1000.000
G2 X89.055 Y159.080 Z-0.300 I-5.347 J1.491 K0.000 F1000.000
G2 X87.558 Y159.257 Z-0.300 I-0.712 J0.403 K0.000 F1000.000
G3 X87.299 Y158.279 Z-0.300 I3.779 J-1.523 K0.000 F1000.000
G0 Z5.000
G0 X87.870 Y161.032 Z5.000
G0 X87.870 Y161.032 Z3.000
G1 X87.870 Y161.032 Z-0.300 F200.000
G3 X87.953 Y161.386 Z-0.300 I-0.627 J0.332 K0.000 F1000.000
G2 X87.616 Y161.324 Z-0.300 I-0.526 J1.899 K0.000 F1000.000
G2 X87.870 Y161.032 Z-0.300 I-0.236 J-0.462 K0.000 F1000.000
G0 Z5.000
G0 X86.708 Y161.368 Z5.000
G0 X86.708 Y161.368 Z3.000
G1 X86.708 Y161.368 Z-0.300 F200.000
G3 X86.205 Y161.441 Z-0.300 I-1.226 J-6.654 K0.000 F1000.000
G2 X86.461 Y161.157 Z-0.300 I-0.357 J-0.580 K0.000 F1000.000
G2 X86.708 Y161.368 Z-0.300 I0.447 J-0.273 K0.000 F1000.000
G0 Z5.000
G0 X92.952 Y158.230 Z5.000
G0 X92.952 Y158.230 Z3.000
G1 X92.952 Y158.230 Z-0.300 F200.000
G3 X93.222 Y158.111 Z-0.300 I0.331 J0.382 K0.000 F1000.000
G3 X93.543 Y158.335 Z-0.300 I-0.053 J0.416 K0.000 F1000.000
G2 X92.952 Y158.230 Z-0.300 I-0.826 J2.944 K0.000 F1000.000
G0 Z5.000
G0 Z5.000
G0 Z5.000
G0 Z5.000
G0 Z5.000
G0 X0.000 Y0.000
G0 X111.173 Y160.174
G0 X111.173 Y160.174 Z3.000
G1 X111.173 Y160.174 Z-0.300 F200.000
G2 X112.211 Y160.887 Z-0.300 I8.641 J-11.467 K0.000 F1000.000
G3 X112.559 Y161.166 Z-0.300 I-0.614 J1.123 K0.000 F1000.000
G3 X112.560 Y161.269 Z-0.300 I-0.267 J0.054 K0.000 F1000.000
G2 X111.032 Y161.169 Z-0.300 I-1.248 J7.335 K0.000 F1000.000
G2 X111.173 Y160.174 Z-0.300 I-2.910 J-0.918 K0.000 F1000.000
G0 Z5.000
G0 Z5.000
G0 X111.173 Y160.174
G0 X116.377 Y160.289
G0 X116.377 Y160.289 Z3.000
G1 X116.377 Y160.289 Z-0.300 F200.000
G2 X116.841 Y160.111 Z-0.300 I0.025 J-0.630 K0.000 F1000.000
G3 X116.560 Y160.755 Z-0.300 I-11.980 J-4.853 K0.000 F1000.000
G3 X116.377 Y160.289 Z-0.300 I5.694 J-2.499 K0.000 F1000.000
G0 Z5.000
G0 X117.693 Y158.693 Z5.000
G0 X117.693 Y158.693 Z3.000
G1 X117.693 Y158.693 Z-0.300 F200.000
G2 X118.118 Y157.456 Z-0.300 I-3.104 J-1.759 K0.000 F1000.000
G2 X118.035 Y156.828 Z-0.300 I-1.545 J-0.116 K0.000 F1000.000
G2 X118.402 Y156.731 Z-0.300 I0.035 J-0.613 K0.000 F1000.000
G2 X118.231 Y158.550 Z-0.300 I3.219 J1.221 K0.000 F1000.000
G2 X117.693 Y158.693 Z-0.300 I-0.116 J0.646 K0.000 F1000.000
G0 Z5.000
G0 X119.704 Y160.279 Z5.000
G0 X119.704 Y160.279 Z3.000
G1 X119.704 Y160.279 Z-0.300 F200.000
G2 X120.466 Y159.694 Z-0.300 I-0.122 J-0.948 K0.000 F1000.000
G3 X119.990 Y160.768 Z-0.300 I-16.901 J-6.848 K0.000 F1000.000
G1 X119.704 Y160.279 Z-0.300 F1000.000
G0 Z5.000
G0 X122.380 Y155.288 Z5.000
G0 X122.380 Y155.288 Z3.000
G1 X122.380 Y155.288 Z-0.300 F200.000
G2 X122.666 Y153.881 Z-0.300 I-2.966 J-1.335 K0.000 F1000.000
G1 X123.196 Y153.862 Z-0.300 F1000.000
G2 X122.380 Y155.288 Z-0.300 I7.856 J5.443 K0.000 F1000.000
G0 Z5.000
G0 X119.640 Y153.932 Z5.000
G0 X119.640 Y153.932 Z3.000
G1 X119.640 Y153.932 Z-0.300 F200.000
G1 X119.435 Y154.348 Z-0.300 F1000.000
G2 X119.428 Y153.908 Z-0.300 I-1.267 J-0.202 K0.000 F1000.000
G1 X119.652 Y153.908 Z-0.300 F1000.000
G1 X119.640 Y153.932 Z-0.300 F1000.000
G0 Z5.000
G0 X113.865 Y153.886 Z5.000
G0 X113.865 Y153.886 Z3.000
G1 X113.865 Y153.886 Z-0.300 F200.000
G1 X113.859 Y153.903 Z-0.300 F1000.000
G1 X113.850 Y153.886 Z-0.300 F1000.000
G1 X113.865 Y153.886 Z-0.300 F1000.000
G0 Z5.000
G0 Z5.000
G0 X113.865 Y153.886
G0 X126.846 Y158.841
G0 X126.846 Y158.841 Z3.000
G1 X126.846 Y158.841 Z-0.300 F200.000
G3 X127.884 Y158.559 Z-0.300 I0.754 J0.723 K0.000 F1000.000
G3 X128.293 Y158.961 Z-0.300 I-0.868 J1.291 K0.000 F1000.000
G2 X126.846 Y158.841 Z-0.300 I-2.488 J21.126 K0.000 F1000.000
G0 Z5.000
G0 Z5.000
G0 Z5.000
G0 Z5.000
G0 X0.000 Y0.000
G0 X121.908 Y129.845
G0 X121.908 Y129.845 Z3.000
G1 X121.908 Y129.845 Z-0.300 F200.000
G2 X123.416 Y131.812 Z-0.300 I6.236 J-3.218 K0.000 F1000.000
G3 X123.698 Y132.151 Z-0.300 I-0.757 J0.917 K0.000 F1000.000
G3 X123.790 Y133.082 Z-0.300 I-35.374 J3.963 K0.000 F1000.000
G2 X124.959 Y136.699 Z-0.300 I20.573 J-4.653 K0.000 F1000.000
G3 X127.619 Y143.186 Z-0.300 I-2934.469 J1206.798 K0.000 F1000.000
G2 X128.202 Y144.715 Z-0.300 I50.504 J-18.405 K0.000 F1000.000
G2 X129.787 Y146.615 Z-0.300 I4.038 J-1.758 K0.000 F1000.000
G2 X130.833 Y147.081 Z-0.300 I2.044 J-3.180 K0.000 F1000.000
G3 X126.793 Y147.016 Z-0.300 I-0.970 J-65.591 K0.000 F1000.000
G1 X126.537 Y146.999 Z-0.300 F1000.000
G2 X127.798 Y146.655 Z-0.300 I-0.285 J-3.525 K0.000 F1000.000
G2 X128.182 Y145.751 Z-0.300 I-0.512 J-0.751 K0.000 F1000.000
G2 X126.634 Y141.272 Z-0.300 I-18.079 J3.739 K0.000 F1000.000
G2 X125.791 Y140.794 Z-0.300 I-0.886 J0.580 K0.000 F1000.000
G2 X121.261 Y140.733 Z-0.300 I-2.568 J22.506 K0.000 F1000.000
G2 X120.106 Y141.614 Z-0.300 I0.235 J1.505 K0.000 F1000.000
G2 X118.864 Y144.972 Z-0.300 I17.091 J8.233 K0.000 F1000.000
G2 X119.184 Y146.372 Z-0.300 I1.337 J0.431 K0.000 F1000.000
G2 X120.465 Y146.824 Z-0.300 I1.380 J-1.874 K0.000 F1000.000
G3 X121.150 Y146.922 Z-0.300 I-0.778 J7.820 K0.000 F1000.000
G3 X113.406 Y146.814 Z-0.300 I-1.171 J-193.450 K0.000 F1000.000
G1 X113.231 Y146.798 Z-0.300 F1000.000
G2 X115.027 Y146.207 Z-0.300 I-0.120 J-3.386 K0.000 F1000.000
G2 X115.377 Y145.803 Z-0.300 I-0.980 J-1.202 K0.000 F1000.000
G2 X116.403 Y143.626 Z-0.300 I-14.510 J-8.175 K0.000 F1000.000
G2 X121.031 Y132.005 Z-0.300 I-429.669 J-177.848 K0.000 F1000.000
G3 X121.908 Y129.845 Z-0.300 I57.433 J22.047 K0.000 F1000.000
G0 Z5.000
G0 Z5.000
G0 Z5.000
G0 X0.000 Y0.000
G0 X118.003 Y145.802
G0 X118.003 Y145.802 Z3.000
G1 X118.003 Y145.802 Z-0.300 F200.000
G1 X118.026 Y145.951 Z-0.300 F1000.000
G1 X117.949 Y145.944 Z-0.300 F1000.000
G1 X118.003 Y145.802 Z-0.300 F1000.000
G0 Z5.000
G0 Z5.000
G0 X118.003 Y145.802
G0 X122.538 Y139.068
G0 X122.538 Y139.068 Z3.000
G1 X122.538 Y139.068 Z-0.300 F200.000
G3 X123.476 Y136.556 Z-0.300 I59.363 J20.727 K0.000 F1000.000
G3 X124.412 Y139.089 Z-0.300 I-28.417 J11.943 K0.000 F1000.000
G3 X122.538 Y139.068 Z-0.300 I-0.812 J-10.755 K0.000 F1000.000
G0 Z5.000
G0 Z5.000
G0 Z5.000
G0 X0.000 Y0.000
G0 X142.482 Y130.158
G0 X142.482 Y130.158 Z3.000
G1 X142.482 Y130.158 Z-0.300 F200.000
G3 X142.887 Y130.154 Z-0.300 I0.329 J12.548 K0.000 F1000.000
G2 X142.472 Y130.958 Z-0.300 I5.190 J3.188 K0.000 F1000.000
G2 X142.482 Y130.158 Z-0.300 I-2.231 J-0.427 K0.000 F1000.000
G0 Z5.000
G0 Z5.000
G0 X142.482 Y130.158
G0 X142.486 Y129.496
G0 X142.486 Y129.496 Z3.000
G1 X142.486 Y129.496 Z-0.300 F200.000
G3 X145.657 Y129.558 Z-0.300 I-0.699 J117.485 K0.000 F1000.000
G1 X145.690 Y129.562 Z-0.300 F1000.000
G2 X144.359 Y129.961 Z-0.300 I0.505 J4.105 K0.000 F1000.000
G2 X143.078 Y131.294 Z-0.300 I1.588 J2.808 K0.000 F1000.000
G2 X141.198 Y135.644 Z-0.300 I32.334 J16.558 K0.000 F1000.000
G3 X136.945 Y146.289 Z-0.300 I-262.404 J-98.656 K0.000 F1000.000
G1 X136.621 Y145.576 Z-0.300 F1000.000
G2 X130.877 Y131.850 Z-0.300 I-1140.056 J469.097 K0.000 F1000.000
G2 X129.439 Y129.916 Z-0.300 I-4.288 J1.686 K0.000 F1000.000
G2 X128.253 Y129.342 Z-0.300 I-2.203 J3.043 K0.000 F1000.000
G3 X133.343 Y129.358 Z-0.300 I2.371 J56.284 K0.000 F1000.000
G2 X131.733 Y130.042 Z-0.300 I0.389 J3.150 K0.000 F1000.000
G2 X131.313 Y131.747 Z-0.300 I0.931 J1.133 K0.000 F1000.000
G2 X134.612 Y140.424 Z-0.300 I161.664 J-56.493 K0.000 F1000.000
G2 X135.334 Y141.134 Z-0.300 I1.040 J-0.336 K0.000 F1000.000
G2 X136.184 Y140.741 Z-0.300 I0.180 J-0.728 K0.000 F1000.000
G1 X136.523 Y140.061 Z-0.300 F1000.000
G2 X139.891 Y132.014 Z-0.300 I-155.280 J-69.720 K0.000 F1000.000
G2 X139.132 Y129.731 Z-0.300 I-1.461 J-0.782 K0.000 F1000.000
G2 X138.673 Y129.535 Z-0.300 I-1.255 J2.307 K0.000 F1000.000
G3 X142.486 Y129.496 Z-0.300 I3.114 J117.446 K0.000 F1000.000
G0 Z5.000
G0 Z5.000
G0 Z5.000
G0 X0.000 Y0.000
G0 X154.057 Y130.318
G0 X154.057 Y130.318 Z3.000
G1 X154.057 Y130.318 Z-0.300 F200.000
G1 X154.156 Y130.318 Z-0.300 F1000.000
G1 X154.098 Y130.668 Z-0.300 F1000.000
G2 X154.057 Y130.318 Z-0.300 I-1.124 J-0.047 K0.000 F1000.000
G0 Z5.000
G0 X154.011 Y144.352 Z5.000
G0 X154.011 Y144.352 Z3.000
G1 X154.011 Y144.352 Z-0.300 F200.000
G2 X154.102 Y145.783 Z-0.300 I10.652 J0.041 K0.000 F1000.000
G1 X154.134 Y145.918 Z-0.300 F1000.000
G3 X153.880 Y145.921 Z-0.300 I-0.210 J-7.028 K0.000 F1000.000
G2 X154.011 Y144.352 Z-0.300 I-12.459 J-1.826 K0.000 F1000.000
G0 Z5.000
G0 Z5.000
G0 X154.011 Y144.352
G0 X154.486 Y144.355
G0 X154.486 Y144.355 Z3.000
G1 X154.486 Y144.355 Z-0.300 F200.000
G1 X154.479 Y145.344 Z-0.300 F1000.000
G2 X154.757 Y145.932 Z-0.300 I0.750 J0.005 K0.000 F1000.000
G2 X156.678 Y146.816 Z-0.300 I2.286 J-2.439 K0.000 F1000.000
G1 X157.629 Y146.972 Z-0.300 F1000.000
G1 X157.518 Y146.992 Z-0.300 F1000.000
G3 X149.129 Y146.843 Z-0.300 I-2.139 J-115.700 K0.000 F1000.000
G2 X150.756 Y146.654 Z-0.300 I-1.259 J-17.978 K0.000 F1000.000
G2 X151.812 Y145.586 Z-0.300 I-0.437 J-1.489 K0.000 F1000.000
G2 X152.026 Y144.248 Z-0.300 I-5.070 J-1.496 K0.000 F1000.000
G1 X152.074 Y142.811 Z-0.300 F1000.000
G2 X151.973 Y131.546 Z-0.300 I-227.971 J-3.591 K0.000 F1000.000
G2 X151.726 Y130.537 Z-0.300 I-2.037 J-0.035 K0.000 F1000.000
G2 X150.647 Y129.762 Z-0.300 I-1.697 J1.221 K0.000 F1000.000
G2 X149.579 Y129.503 Z-0.300 I-1.754 J4.914 K0.000 F1000.000
G3 X156.133 Y129.510 Z-0.300 I3.119 J160.359 K0.000 F1000.000
G1 X156.730 Y129.540 Z-0.300 F1000.000
G2 X155.605 Y129.900 Z-0.300 I0.486 J3.457 K0.000 F1000.000
G2 X154.713 Y131.310 Z-0.300 I0.808 J1.499 K0.000 F1000.000
G2 X154.526 Y138.512 Z-0.300 I119.003 J6.689 K0.000 F1000.000
G1 X154.486 Y144.355 Z-0.300 F1000.000
G0 Z5.000
G0 Z5.000
G0 Z5.000
G0 X0.000 Y0.000
G0 X173.792 Y130.657
G0 X173.792 Y130.657 Z3.000
G1 X173.792 Y130.657 Z-0.300 F200.000
G1 X173.882 Y130.657 Z-0.300 F1000.000
G1 X173.820 Y130.904 Z-0.300 F1000.000
G2 X173.792 Y130.657 Z-0.300 I-0.961 J-0.016 K0.000 F1000.000
G0 Z5.000
G0 Z5.000
G0 X173.792 Y130.657
G0 X174.518 Y130.894
G0 X174.518 Y130.894 Z3.000
G1 X174.518 Y130.894 Z-0.300 F200.000
G2 X174.474 Y131.085 Z-0.300 I1.030 J0.337 K0.000 F1000.000
G1 X174.398 Y131.762 Z-0.300 F1000.000
G2 X174.201 Y143.917 Z-0.300 I327.080 J11.380 K0.000 F1000.000
G2 X174.299 Y145.337 Z-0.300 I7.620 J0.185 K0.000 F1000.000
G2 X175.233 Y146.506 Z-0.300 I1.608 J-0.327 K0.000 F1000.000
G2 X176.854 Y146.950 Z-0.300 I2.282 J-5.155 K0.000 F1000.000
G3 X172.667 Y146.934 Z-0.300 I-1.919 J-47.030 K0.000 F1000.000
G3 X160.910 Y146.756 Z-0.300 I0.141 J-397.579 K0.000 F1000.000
G1 X160.664 Y146.742 Z-0.300 F1000.000
G2 X160.362 Y142.550 Z-0.300 I-34.911 J0.409 K0.000 F1000.000
G2 X164.255 Y145.973 Z-0.300 I9.468 J-6.842 K0.000 F1000.000
G2 X166.384 Y146.617 Z-0.300 I2.826 J-5.504 K0.000 F1000.000
G2 X170.961 Y146.828 Z-0.300 I4.235 J-42.069 K0.000 F1000.000
G2 X171.724 Y146.082 Z-0.300 I0.012 J-0.750 K0.000 F1000.000
G1 X171.812 Y130.816 Z-0.300 F1000.000
G2 X171.264 Y130.090 Z-0.300 I-0.750 J-0.004 K0.000 F1000.000
G3 X169.798 Y129.679 Z-0.300 I13.342 J-50.494 K0.000 F1000.000
G3 X176.201 Y129.850 Z-0.300 I-1.904 J191.706 K0.000 F1000.000
G2 X174.949 Y130.328 Z-0.300 I0.664 J3.615 K0.000 F1000.000
G2 X174.518 Y130.894 Z-0.300 I0.599 J0.904 K0.000 F1000.000
G0 Z5.000
G0 Z5.000
G0 Z5.000
G0 X0.000 Y0.000
G0 X192.663 Y130.639
G0 X192.663 Y130.639 Z3.000
G1 X192.663 Y130.639 Z-0.300 F200.000
G1 X192.774 Y130.632 Z-0.300 F1000.000
G2 X192.695 Y130.977 Z-0.300 I1.203 J0.459 K0.000 F1000.000
G1 X192.663 Y130.639 Z-0.300 F1000.000
G0 Z5.000
G0 Z5.000
G0 X192.663 Y130.639
G0 X192.674 Y129.792
G0 X192.674 Y129.792 Z3.000
G1 X192.674 Y129.792 Z-0.300 F200.000
G3 X195.080 Y129.839 Z-0.300 I-1.945 J159.457 K0.000 F1000.000
G2 X193.814 Y130.471 Z-0.300 I0.595 J2.778 K0.000 F1000.000
G2 X193.333 Y131.388 Z-0.300 I0.992 J1.105 K0.000 F1000.000
G2 X193.198 Y134.026 Z-0.300 I19.812 J2.336 K0.000 F1000.000
G2 X193.182 Y143.621 Z-0.300 I587.908 J5.828 K0.000 F1000.000
G2 X193.313 Y145.435 Z-0.300 I10.901 J0.122 K0.000 F1000.000
G2 X194.483 Y146.714 Z-0.300 I1.412 J-0.117 K0.000 F1000.000
G3 X196.034 Y147.033 Z-0.300 I-1.969 J13.518 K0.000 F1000.000
G3 X185.777 Y146.940 Z-0.300 I0.319 J-604.535 K0.000 F1000.000
G3 X180.902 Y146.910 Z-0.300 I2.014 J-711.950 K0.000 F1000.000
G3 X179.572 Y146.849 Z-0.300 I-0.170 J-10.810 K0.000 F1000.000
G1 X179.542 Y146.630 Z-0.300 F1000.000
G2 X179.292 Y142.867 Z-0.300 I-31.858 J0.226 K0.000 F1000.000
G1 X179.247 Y142.618 Z-0.300 F1000.000
G2 X182.397 Y145.599 Z-0.300 I11.292 J-8.778 K0.000 F1000.000
G2 X184.397 Y146.417 Z-0.300 I3.187 J-4.936 K0.000 F1000.000
G2 X190.195 Y146.783 Z-0.300 I3.935 J-16.257 K0.000 F1000.000
G2 X190.689 Y146.083 Z-0.300 I-0.257 J-0.705 K0.000 F1000.000
G2 X190.735 Y133.195 Z-0.300 I-1135.285 J-10.502 K0.000 F1000.000
G2 X190.597 Y131.245 Z-0.300 I-12.838 J-0.075 K0.000 F1000.000
G2 X189.825 Y129.989 Z-0.300 I-1.622 J0.131 K0.000 F1000.000
G2 X189.247 Y129.787 Z-0.300 I-0.996 J1.929 K0.000 F1000.000
G3 X192.674 Y129.792 Z-0.300 I1.482 J159.462 K0.000 F1000.000
G0 Z5.000
G0 Z5.000
G0 X192.674 Y129.792
G0 X181.031 Y154.083
G0 X181.031 Y154.083 Z3.000
G1 X181.031 Y154.083 Z-0.300 F200.000
G2 X180.730 Y154.465 Z-0.300 I0.342 J0.579 K0.000 F1000.000
G2 X180.078 Y153.744 Z-0.300 I-2.801 J1.874 K0.000 F1000.000
G3 X181.031 Y154.083 Z-0.300 I-8.340 J24.955 K0.000 F1000.000
G0 Z5.000
G0 X181.369 Y156.261 Z5.000
G0 X181.369 Y156.261 Z3.000
G1 X181.369 Y156.261 Z-0.300 F200.000
G1 X182.296 Y157.617 Z-0.300 F1000.000
G2 X181.403 Y158.261 Z-0.300 I-0.076 J0.836 K0.000 F1000.000
G2 X181.369 Y156.261 Z-0.300 I-8.479 J-0.857 K0.000 F1000.000
G0 Z5.000
G0 X184.084 Y155.434 Z5.000
G0 X184.084 Y155.434 Z3.000
G1 X184.084 Y155.434 Z-0.300 F200.000
G3 X184.954 Y156.183 Z-0.300 I-1.173 J2.239 K0.000 F1000.000
G3 X185.079 Y156.581 Z-0.300 I-0.453 J0.361 K0.000 F1000.000
G3 X184.806 Y156.335 Z-0.300 I0.364 J-0.680 K0.000 F1000.000
G2 X184.084 Y155.434 Z-0.300 I-8.122 J5.756 K0.000 F1000.000
G0 Z5.000
G0 X185.151 Y160.877 Z5.000
G0 X185.151 Y160.877 Z3.000
G1 X185.151 Y160.877 Z-0.300 F200.000
G3 X186.693 Y161.601 Z-0.300 I-5.569 J13.875 K0.000 F1000.000
G3 X186.532 Y161.624 Z-0.300 I-0.100 J-0.120 K0.000 F1000.000
G3 X185.151 Y160.877 Z-0.300 I0.597 J-2.753 K0.000 F1000.000
G0 Z5.000
G0 X181.041 Y160.669 Z5.000
G0 X181.041 Y160.669 Z3.000
G1 X181.041 Y160.669 Z-0.300 F200.000
G2 X181.043 Y161.343 Z-0.300 I6.446 J0.326 K0.000 F1000.000
G1 X180.548 Y160.529 Z-0.300 F1000.000
G2 X181.087 Y160.167 Z-0.300 I-0.046 J-0.650 K0.000 F1000.000
G2 X181.041 Y160.669 Z-0.300 I6.401 J0.828 K0.000 F1000.000
G0 Z5.000
G0 X177.447 Y161.589 Z5.000
G0 X177.447 Y161.589 Z3.000
G1 X177.447 Y161.589 Z-0.300 F200.000
G3 X176.435 Y161.573 Z-0.300 I-0.382 J-7.789 K0.000 F1000.000
G2 X176.923 Y160.685 Z-0.300 I-0.735 J-0.982 K0.000 F1000.000
G2 X176.923 Y160.125 Z-0.300 I-2.210 J-0.279 K0.000 F1000.000
G2 X177.447 Y161.589 Z-0.300 I14.576 J-4.393 K0.000 F1000.000
G0 Z5.000
G0 X172.796 Y161.546 Z5.000
G0 X172.796 Y161.546 Z3.000
G1 X172.796 Y161.546 Z-0.300 F200.000
G2 X171.466 Y161.348 Z-0.300 I-0.961 J1.890 K0.000 F1000.000
G3 X171.132 Y161.478 Z-0.300 I-0.463 J-0.693 K0.000 F1000.000
G3 X170.519 Y161.164 Z-0.300 I0.762 J-2.240 K0.000 F1000.000
G2 X170.947 Y160.240 Z-0.300 I-0.483 J-0.785 K0.000 F1000.000
G3 X170.542 Y158.456 Z-0.300 I30.376 J-7.845 K0.000 F1000.000
G3 X171.309 Y158.985 Z-0.300 I-0.832 J2.029 K0.000 F1000.000
G3 X172.762 Y161.344 Z-0.300 I-3.826 J3.984 K0.000 F1000.000
G1 X172.796 Y161.546 Z-0.300 F1000.000
G0 Z5.000
G0 X169.526 Y161.185 Z5.000
G0 X169.526 Y161.185 Z3.000
G1 X169.526 Y161.185 Z-0.300 F200.000
G1 X169.406 Y161.286 Z-0.300 F1000.000
G1 X169.312 Y161.068 Z-0.300 F1000.000
G2 X169.526 Y161.185 Z-0.300 I0.466 J-0.599 K0.000 F1000.000
G0 Z5.000
G0 X168.498 Y159.911 Z5.000
G0 X168.498 Y159.911 Z3.000
G1 X168.498 Y159.911 Z-0.300 F200.000
G2 X167.558 Y160.112 Z-0.300 I-0.326 J0.776 K0.000 F1000.000
G2 X166.838 Y158.569 Z-0.300 I-2.066 J0.025 K0.000 F1000.000
G3 X166.733 Y158.315 Z-0.300 I0.319 J-0.281 K0.000 F1000.000
G2 X167.418 Y158.356 Z-0.300 I0.435 J-1.511 K0.000 F1000.000
G2 X167.824 Y158.126 Z-0.300 I-0.106 J-0.662 K0.000 F1000.000
G2 X168.498 Y159.911 Z-0.300 I13.203 J-3.961 K0.000 F1000.000
G0 Z5.000
G0 X167.090 Y161.389 Z5.000
G0 X167.090 Y161.389 Z3.000
G1 X167.090 Y161.389 Z-0.300 F200.000
G3 X167.028 Y161.526 Z-0.300 I-0.553 J-0.167 K0.000 F1000.000
G1 X166.980 Y161.508 Z-0.300 F1000.000
G2 X167.090 Y161.389 Z-0.300 I-0.316 J-0.401 K0.000 F1000.000
G0 Z5.000
G0 X165.471 Y161.353 Z5.000
G0 X165.471 Y161.353 Z3.000
G1 X165.471 Y161.353 Z-0.300 F200.000
G3 X164.942 Y161.611 Z-0.300 I-4.967 J-9.486 K0.000 F1000.000
G3 X164.314 Y161.243 Z-0.300 I0.616 J-1.772 K0.000 F1000.000
G2 X162.886 Y161.340 Z-0.300 I-0.660 J0.848 K0.000 F1000.000
G2 X161.773 Y159.241 Z-0.300 I-24.950 J11.882 K0.000 F1000.000
G2 X161.018 Y158.578 Z-0.300 I-1.717 J1.193 K0.000 F1000.000
G2 X161.343 Y158.340 Z-0.300 I-0.235 J-0.663 K0.000 F1000.000
G3 X162.277 Y158.885 Z-0.300 I-33.627 J58.625 K0.000 F1000.000
G2 X163.281 Y158.653 Z-0.300 I0.379 J-0.647 K0.000 F1000.000
G3 X163.527 Y158.293 Z-0.300 I1.578 J0.813 K0.000 F1000.000
G3 X164.310 Y159.011 Z-0.300 I-0.572 J1.410 K0.000 F1000.000
G3 X164.840 Y160.255 Z-0.300 I-7.214 J3.810 K0.000 F1000.000
G2 X165.471 Y161.353 Z-0.300 I2.796 J-0.876 K0.000 F1000.000
G0 Z5.000
G0 X166.805 Y154.029 Z5.000
G0 X166.805 Y154.029 Z3.000
G1 X166.805 Y154.029 Z-0.300 F200.000
G2 X165.348 Y153.232 Z-0.300 I-1.640 J1.266 K0.000 F1000.000
G3 X165.484 Y153.218 Z-0.300 I0.101 J0.321 K0.000 F1000.000
G1 X165.484 Y153.218 Z-0.300 F1000.000
G2 X166.492 Y152.938 Z-0.300 I-0.370 J-3.284 K0.000 F1000.000
G3 X168.618 Y152.122 Z-0.300 I4.466 J8.468 K0.000 F1000.000
G1 X168.893 Y152.080 Z-0.300 F1000.000
G2 X166.834 Y153.909 Z-0.300 I0.620 J2.771 K0.000 F1000.000
G1 X166.805 Y154.029 Z-0.300 F1000.000
G0 Z5.000
G0 X175.873 Y155.197 Z5.000
G0 X175.873 Y155.197 Z3.000
G1 X175.873 Y155.197 Z-0.300 F200.000
G3 X176.838 Y156.244 Z-0.300 I-8.194 J8.517 K0.000 F1000.000
G2 X176.419 Y156.865 Z-0.300 I0.307 J0.659 K0.000 F1000.000
G2 X175.873 Y155.197 Z-0.300 I-5.817 J0.980 K0.000 F1000.000
G0 Z5.000
G0 Z5.000
G0 X175.873 Y155.197
G0 X157.318 Y158.315
G0 X157.318 Y158.315 Z3.000
G1 X157.318 Y158.315 Z-0.300 F200.000
G1 X157.187 Y158.297 Z-0.300 F1000.000
G3 X157.318 Y158.315 Z-0.300 I0.037 J0.218 K0.000 F1000.000
G0 Z5.000
G0 Z5.000
G0 X157.318 Y158.315
G0 X152.769 Y160.078
G0 X152.769 Y160.078 Z3.000
G1 X152.769 Y160.078 Z-0.300 F200.000
G3 X152.989 Y161.055 Z-0.300 I-3.145 J1.218 K0.000 F1000.000
G3 X152.801 Y161.625 Z-0.300 I-0.743 J0.071 K0.000 F1000.000
G3 X152.646 Y161.608 Z-0.300 I-0.059 J-0.179 K0.000 F1000.000
G3 X151.247 Y159.591 Z-0.300 I3.139 J-3.672 K0.000 F1000.000
G1 X151.247 Y159.591 Z-0.300 F1000.000
G2 X150.665 Y158.526 Z-0.300 I-2.710 J0.789 K0.000 F1000.000
G3 X151.157 Y158.339 Z-0.300 I2.092 J4.750 K0.000 F1000.000
G3 X151.469 Y158.472 Z-0.300 I-0.052 J0.553 K0.000 F1000.000
G3 X152.769 Y160.078 Z-0.300 I-1.844 J2.823 K0.000 F1000.000
G0 Z5.000
G0 X149.365 Y158.439 Z5.000
G0 X149.365 Y158.439 Z3.000
G1 X149.365 Y158.439 Z-0.300 F200.000
G2 X149.185 Y158.738 Z-0.300 I0.509 J0.512 K0.000 F1000.000
G2 X148.318 Y158.039 Z-0.300 I-1.387 J0.834 K0.000 F1000.000
G2 X148.716 Y157.634 Z-0.300 I-0.449 J-0.840 K0.000 F1000.000
G2 X149.365 Y158.439 Z-0.300 I1.681 J-0.692 K0.000 F1000.000
G0 Z5.000
G0 X146.877 Y153.260 Z5.000
G0 X146.877 Y153.260 Z3.000
G1 X146.877 Y153.260 Z-0.300 F200.000
G2 X145.757 Y153.304 Z-0.300 I-0.413 J3.712 K0.000 F1000.000
G3 X145.420 Y153.254 Z-0.300 I-0.112 J-0.408 K0.000 F1000.000
G3 X145.468 Y152.825 Z-0.300 I0.347 J-0.179 K0.000 F1000.000
G3 X146.447 Y152.874 Z-0.300 I0.411 J1.599 K0.000 F1000.000
G3 X146.877 Y153.260 Z-0.300 I-0.453 J0.937 K0.000 F1000.000
G0 Z5.000
G0 X152.908 Y166.641 Z5.000
G0 X152.908 Y166.641 Z3.000
G1 X152.908 Y166.641 Z-0.300 F200.000
G3 X153.580 Y166.362 Z-0.300 I8.561 J19.619 K0.000 F1000.000
G1 X153.649 Y166.439 Z-0.300 F1000.000
G3 X153.558 Y166.711 Z-0.300 I-0.107 J0.115 K0.000 F1000.000
G3 X152.908 Y166.641 Z-0.300 I-0.193 J-1.268 K0.000 F1000.000
G0 Z5.000
G0 Z5.000
G0 X152.908 Y166.641
G0 X140.672 Y161.252
G0 X140.672 Y161.252 Z3.000
G1 X140.672 Y161.252 Z-0.300 F200.000
G1 X140.504 Y161.263 Z-0.300 F1000.000
G2 X140.607 Y161.006 Z-0.300 I-1.045 J-0.568 K0.000 F1000.000
G2 X140.672 Y161.252 Z-0.300 I0.852 J-0.095 K0.000 F1000.000
G0 Z5.000
G0 X140.517 Y157.552 Z5.000
G0 X140.517 Y157.552 Z3.000
G1 X140.517 Y157.552 Z-0.300 F200.000
G2 X140.217 Y157.245 Z-0.300 I-0.940 J0.616 K0.000 F1000.000
G2 X140.522 Y156.902 Z-0.300 I-0.790 J-1.013 K0.000 F1000.000
G1 X140.517 Y157.552 Z-0.300 F1000.000
G0 Z5.000
G0 X140.658 Y154.402 Z5.000
G0 X140.658 Y154.402 Z3.000
G1 X140.658 Y154.402 Z-0.300 F200.000
G2 X140.510 Y154.048 Z-0.300 I-1.506 J0.426 K0.000 F1000.000
G1 X140.797 Y154.054 Z-0.300 F1000.000
G2 X140.658 Y154.402 Z-0.300 I1.345 J0.737 K0.000 F1000.000
G0 Z5.000
G0 Z5.000
G0 X140.658 Y154.402
G0 X109.099 Y146.919
G0 X109.099 Y146.919 Z3.000
G1 X109.099 Y146.919 Z-0.300 F200.000
G3 X104.345 Y147.048 Z-0.300 I-8.910 J-240.579 K0.000 F1000.000
G3 X103.576 Y147.003 Z-0.300 I-0.304 J-1.407 K0.000 F1000.000
G3 X105.136 Y146.736 Z-0.300 I3.928 J18.272 K0.000 F1000.000
G2 X106.660 Y145.245 Z-0.300 I-0.170 J-1.698 K0.000 F1000.000
G2 X106.792 Y143.195 Z-0.300 I-11.416 J-1.767 K0.000 F1000.000
G3 X106.905 Y135.472 Z-0.300 I379.167 J1.675 K0.000 F1000.000
G2 X106.853 Y133.614 Z-0.300 I-15.966 J-0.482 K0.000 F1000.000
G2 X105.442 Y132.987 Z-0.300 I-0.844 J-0.002 K0.000 F1000.000
G2 X104.178 Y134.189 Z-0.300 I5.419 J6.961 K0.000 F1000.000
G2 X95.297 Y144.153 Z-0.300 I268.666 J248.400 K0.000 F1000.000
G3 X93.816 Y145.854 Z-0.300 I-34.833 J-28.844 K0.000 F1000.000
G1 X93.775 Y144.392 Z-0.300 F1000.000
G2 X93.691 Y132.007 Z-0.300 I-723.304 J-1.289 K0.000 F1000.000
G2 X93.527 Y130.628 Z-0.300 I-7.451 J0.188 K0.000 F1000.000
G2 X92.655 Y129.459 Z-0.300 I-1.519 J0.223 K0.000 F1000.000
G3 X95.718 Y129.482 Z-0.300 I1.232 J40.062 K0.000 F1000.000
G2 X94.720 Y129.881 Z-0.300 I0.533 J2.780 K0.000 F1000.000
G2 X94.271 Y130.684 Z-0.300 I0.761 J0.952 K0.000 F1000.000
G2 X93.978 Y134.869 Z-0.300 I29.985 J4.199 K0.000 F1000.000
G2 X94.034 Y137.903 Z-0.300 I36.981 J0.833 K0.000 F1000.000
G2 X94.182 Y138.938 Z-0.300 I4.747 J-0.151 K0.000 F1000.000
G2 X95.467 Y139.463 Z-0.300 I0.798 J-0.120 K0.000 F1000.000
G2 X96.995 Y137.967 Z-0.300 I-8.129 J-9.839 K0.000 F1000.000
G3 X103.495 Y130.935 Z-0.300 I449.622 J409.024 K0.000 F1000.000
G3 X104.602 Y129.824 Z-0.300 I9.038 J7.898 K0.000 F1000.000
G3 X104.973 Y129.708 Z-0.300 I0.396 J0.614 K0.000 F1000.000
G3 X108.983 Y129.638 Z-0.300 I2.982 J56.375 K0.000 F1000.000
G2 X107.950 Y130.142 Z-0.300 I0.831 J3.017 K0.000 F1000.000
G2 X107.234 Y131.391 Z-0.300 I1.422 J1.644 K0.000 F1000.000
G2 X107.033 Y133.213 Z-0.300 I9.758 J2.000 K0.000 F1000.000
G2 X106.893 Y145.298 Z-0.300 I845.990 J15.856 K0.000 F1000.000
G2 X107.112 Y145.834 Z-0.300 I0.750 J0.006 K0.000 F1000.000
G2 X108.029 Y146.589 Z-0.300 I2.192 J-1.729 K0.000 F1000.000
G2 X109.099 Y146.919 Z-0.300 I1.688 J-3.578 K0.000 F1000.000
G0 Z5.000
G0 Z5.000
G0 Z5.000
G0 Z5.000
G0 Z5.000
G0 X0.000 Y0.000
G0 X81.748 Y158.145
G0 X81.748 Y158.145 Z3.000
G1 X81.748 Y158.145 Z-0.300 F200.000
G3 X82.472 Y158.876 Z-0.300 I-0.401 J1.121 K0.000 F1000.000
G1 X82.790 Y159.635 Z-0.300 F1000.000
G2 X81.895 Y158.737 Z-0.300 I-76.949 J75.804 K0.000 F1000.000
G3 X81.586 Y158.320 Z-0.300 I1.095 J-1.134 K0.000 F1000.000
G3 X81.748 Y158.145 Z-0.300 I0.590 J0.386 K0.000 F1000.000
G0 Z5.000
G0 X83.218 Y161.442 Z5.000
G0 X83.218 Y161.442 Z3.000
G1 X83.218 Y161.442 Z-0.300 F200.000
G3 X83.099 Y161.598 Z-0.300 I-0.392 J-0.176 K0.000 F1000.000
G3 X83.011 Y161.547 Z-0.300 I0.160 J-0.373 K0.000 F1000.000
G2 X83.218 Y161.442 Z-0.300 I-0.058 J-0.370 K0.000 F1000.000
G0 Z5.000
G0 Z5.000
G0 X83.218 Y161.442
G0 X78.850 Y163.540
G0 X78.850 Y163.540 Z3.000
G1 X78.850 Y163.540 Z-0.300 F200.000
G3 X78.668 Y164.220 Z-0.300 I-0.679 J0.183 K0.000 F1000.000
G3 X78.507 Y164.283 Z-0.300 I-0.199 J-0.275 K0.000 F1000.000
G2 X78.408 Y163.342 Z-0.300 I-1.213 J-0.348 K0.000 F1000.000
G3 X78.850 Y163.540 Z-0.300 I0.095 J0.380 K0.000 F1000.000
G0 Z5.000
G0 X77.419 Y161.229 Z5.000
G0 X77.419 Y161.229 Z3.000
G1 X77.419 Y161.229 Z-0.300 F200.000
G3 X77.343 Y161.256 Z-0.300 I-0.101 J-0.162 K0.000 F1000.000
G3 X76.537 Y161.357 Z-0.300 I-0.880 J-3.775 K0.000 F1000.000
G2 X75.820 Y161.815 Z-0.300 I0.134 J1.001 K0.000 F1000.000
G2 X75.656 Y160.865 Z-0.300 I-4.181 J0.228 K0.000 F1000.000
G2 X76.879 Y160.916 Z-0.300 I0.676 J-1.509 K0.000 F1000.000
G3 X77.354 Y160.879 Z-0.300 I0.321 J1.045 K0.000 F1000.000
G3 X77.419 Y161.229 Z-0.300 I-0.035 J0.188 K0.000 F1000.000
G0 Z5.000
G0 X77.317 Y158.907 Z5.000
G0 X77.317 Y158.907 Z3.000
G1 X77.317 Y158.907 Z-0.300 F200.000
G2 X76.871 Y158.291 Z-0.300 I-2.769 J1.533 K0.000 F1000.000
G3 X77.444 Y158.775 Z-0.300 I-0.578 J1.265 K0.000 F1000.000
G3 X77.317 Y158.907 Z-0.300 I-0.477 J-0.332 K0.000 F1000.000
G0 Z5.000
G0 X73.904 Y159.996 Z5.000
G0 X73.904 Y159.996 Z3.000
G1 X73.904 Y159.996 Z-0.300 F200.000
G2 X73.411 Y160.915 Z-0.300 I2.583 J1.981 K0.000 F1000.000
G3 X72.369 Y161.543 Z-0.300 I-0.995 J-0.473 K0.000 F1000.000
G3 X70.968 Y160.285 Z-0.300 I-0.123 J-1.272 K0.000 F1000.000
G3 X71.180 Y158.906 Z-0.300 I7.532 J0.449 K0.000 F1000.000
G2 X70.755 Y157.595 Z-0.300 I-1.732 J-0.162 K0.000 F1000.000
G3 X70.548 Y156.239 Z-0.300 I1.181 J-0.874 K0.000 F1000.000
G3 X71.788 Y155.927 Z-0.300 I0.799 J0.554 K0.000 F1000.000
G3 X72.573 Y157.057 Z-0.300 I-0.542 J1.214 K0.000 F1000.000
G3 X72.638 Y158.095 Z-0.300 I-29.141 J2.332 K0.000 F1000.000
G2 X73.226 Y159.418 Z-0.300 I2.218 J-0.193 K0.000 F1000.000
G2 X73.740 Y159.913 Z-0.300 I2.222 J-1.791 K0.000 F1000.000
G1 X73.904 Y159.996 Z-0.300 F1000.000
G0 Z5.000
G0 Z5.000
G0 X73.904 Y159.996
G0 X68.656 Y161.845
G0 X68.656 Y161.845 Z3.000
G1 X68.656 Y161.845 Z-0.300 F200.000
G3 X67.993 Y162.029 Z-0.300 I-1.136 J-2.813 K0.000 F1000.000
G1 X68.010 Y162.004 Z-0.300 F1000.000
G2 X67.977 Y161.171 Z-0.300 I-0.903 J-0.381 K0.000 F1000.000
G3 X68.656 Y161.845 Z-0.300 I-4.457 J5.166 K0.000 F1000.000
G0 Z5.000
G0 Z5.000
G0 X68.656 Y161.845
G0 X63.185 Y157.114
G0 X63.185 Y157.114 Z3.000
G1 X63.185 Y157.114 Z-0.300 F200.000
G3 X62.609 Y157.212 Z-0.300 I-0.367 J-0.413 K0.000 F1000.000
G1 X62.661 Y156.725 Z-0.300 F1000.000
G1 X62.661 Y156.725 Z-0.300 F1000.000
G1 X62.781 Y155.649 Z-0.300 F1000.000
G2 X62.760 Y155.101 Z-0.300 I-1.616 J-0.212 K0.000 F1000.000
G3 X63.185 Y157.114 Z-0.300 I-1.627 J1.396 K0.000 F1000.000
G0 Z5.000
G0 X57.397 Y159.028 Z5.000
G0 X57.397 Y159.028 Z3.000
G1 X57.397 Y159.028 Z-0.300 F200.000
G2 X58.116 Y161.119 Z-0.300 I88.159 J-29.155 K0.000 F1000.000
G2 X58.507 Y161.732 Z-0.300 I1.529 J-0.545 K0.000 F1000.000
G1 X58.394 Y161.730 Z-0.300 F1000.000
G1 X55.842 Y161.590 Z-0.300 F1000.000
G3 X54.008 Y161.121 Z-0.300 I0.024 J-3.917 K0.000 F1000.000
G3 X52.544 Y158.756 Z-0.300 I2.242 J-3.024 K0.000 F1000.000
G3 X53.095 Y157.658 Z-0.300 I0.989 J-0.191 K0.000 F1000.000
G3 X53.848 Y157.342 Z-0.300 I19.704 J46.030 K0.000 F1000.000
G2 X54.144 Y155.789 Z-0.300 I-0.376 J-0.876 K0.000 F1000.000
G3 X53.466 Y155.002 Z-0.300 I1.833 J-2.263 K0.000 F1000.000
G3 X53.466 Y153.869 Z-0.300 I0.822 J-0.567 K0.000 F1000.000
G3 X54.398 Y153.448 Z-0.300 I1.322 J1.686 K0.000 F1000.000
G3 X55.967 Y153.221 Z-0.300 I2.060 J8.709 K0.000 F1000.000
G2 X55.877 Y153.953 Z-0.300 I0.821 J0.472 K0.000 F1000.000
G2 X57.397 Y159.028 Z-0.300 I89.678 J-24.079 K0.000 F1000.000
G0 Z5.000
G0 Z5.000
G0 Z5.000
G0 X0.000 Y0.000
G0 X41.305 Y150.892
G0 X41.305 Y150.892 Z3.000
G1 X41.305 Y150.892 Z-0.300 F200.000
G3 X41.612 Y150.964 Z-0.300 I0.087 J0.318 K0.000 F1000.000
G3 X41.329 Y151.661 Z-0.300 I-1.517 J-0.210 K0.000 F1000.000
G3 X41.157 Y150.978 Z-0.300 I2.054 J-0.878 K0.000 F1000.000
G3 X41.305 Y150.892 Z-0.300 I0.235 J0.231 K0.000 F1000.000
G0 Z5.000
G0 X42.575 Y153.447 Z5.000
G0 X42.575 Y153.447 Z3.000
G1 X42.575 Y153.447 Z-0.300 F200.000
G2 X43.669 Y153.320 Z-0.300 I0.262 J-2.513 K0.000 F1000.000
G2 X43.340 Y154.233 Z-0.300 I0.880 J0.833 K0.000 F1000.000
G3 X42.575 Y153.447 Z-0.300 I6.271 J-6.874 K0.000 F1000.000
G0 Z5.000
G0 X48.563 Y155.140 Z5.000
G0 X48.563 Y155.140 Z3.000
G1 X48.563 Y155.140 Z-0.300 F200.000
G3 X50.061 Y159.512 Z-0.300 I-4.969 J4.146 K0.000 F1000.000
G1 X50.002 Y159.939 Z-0.300 F1000.000
G3 X47.761 Y161.651 Z-0.300 I-2.070 J-0.388 K0.000 F1000.000
G2 X49.770 Y159.650 Z-0.300 I-0.237 J-2.248 K0.000 F1000.000
G2 X49.553 Y157.458 Z-0.300 I-5.324 J-0.581 K0.000 F1000.000
G2 X48.563 Y155.140 Z-0.300 I-8.234 J2.147 K0.000 F1000.000
G0 Z5.000
G0 Z5.000
G0 Z5.000
G0 X0.000 Y0.000
G0 X20.031 Y129.281
G0 X20.031 Y129.281 Z3.000
G1 X20.031 Y129.281 Z-0.300 F200.000
G3 X21.204 Y129.224 Z-0.300 I0.854 J5.511 K0.000 F1000.000
G3 X22.821 Y129.346 Z-0.300 I0.416 J5.271 K0.000 F1000.000
G3 X25.740 Y133.421 Z-0.300 I-1.827 J4.392 K0.000 F1000.000
G3 X24.221 Y137.281 Z-0.300 I-5.175 J0.192 K0.000 F1000.000
G3 X21.876 Y139.195 Z-0.300 I-10.145 J-10.032 K0.000 F1000.000
G2 X19.417 Y141.101 Z-0.300 I8.244 J13.179 K0.000 F1000.000
G2 X18.795 Y143.018 Z-0.300 I2.658 J1.921 K0.000 F1000.000
G2 X19.379 Y145.208 Z-0.300 I3.234 J0.311 K0.000 F1000.000
G2 X23.735 Y146.631 Z-0.300 I3.347 J-2.867 K0.000 F1000.000
G2 X24.879 Y145.953 Z-0.300 I-1.050 J-3.074 K0.000 F1000.000
G2 X26.579 Y143.636 Z-0.300 I-4.722 J-5.246 K0.000 F1000.000
G1 X27.445 Y141.699 Z-0.300 F1000.000
G2 X27.284 Y145.939 Z-0.300 I27.121 J3.151 K0.000 F1000.000
G2 X26.499 Y145.830 Z-0.300 I-0.478 J0.559 K0.000 F1000.000
G3 X23.941 Y146.839 Z-0.300 I-6.156 J-11.860 K0.000 F1000.000
G1 X23.490 Y146.937 Z-0.300 F1000.000
G3 X19.785 Y146.825 Z-0.300 I-1.468 J-12.802 K0.000 F1000.000
G3 X16.000 Y142.608 Z-0.300 I1.279 J-4.955 K0.000 F1000.000
G3 X16.828 Y139.451 Z-0.300 I4.920 J-0.397 K0.000 F1000.000
G3 X17.407 Y138.743 Z-0.300 I3.138 J1.973 K0.000 F1000.000
G3 X20.417 Y136.715 Z-0.300 I32.200 J44.553 K0.000 F1000.000
G2 X21.992 Y135.570 Z-0.300 I-7.037 J-11.335 K0.000 F1000.000
G2 X23.162 Y133.747 Z-0.300 I-2.074 J-2.618 K0.000 F1000.000
G2 X22.998 Y131.169 Z-0.300 I-3.972 J-1.042 K0.000 F1000.000
G2 X20.237 Y129.527 Z-0.300 I-2.620 J1.262 K0.000 F1000.000
G2 X18.858 Y130.183 Z-0.300 I0.377 J2.569 K0.000 F1000.000
G2 X17.435 Y132.061 Z-0.300 I5.286 J5.486 K0.000 F1000.000
G2 X16.838 Y133.201 Z-0.300 I184.604 J97.437 K0.000 F1000.000
G3 X17.036 Y130.124 Z-0.300 I50.543 J1.716 K0.000 F1000.000
G1 X17.077 Y129.810 Z-0.300 F1000.000
G2 X18.093 Y129.953 Z-0.300 I0.664 J-1.043 K0.000 F1000.000
G2 X19.386 Y129.420 Z-0.300 I-27.548 J-68.705 K0.000 F1000.000
G3 X20.031 Y129.281 Z-0.300 I1.499 J5.372 K0.000 F1000.000
G0 Z5.000
G0 Z5.000
G0 Z5.000
G0 Z5.000
G0 X0.000 Y0.000
G0 X123.455 Y100.955
G0 X123.455 Y100.955 Z3.000
G1 X123.455 Y100.955 Z-0.300 F200.000
G3 X123.595 Y100.866 Z-0.300 I0.204 J0.167 K0.000 F1000.000
G2 X125.460 Y100.953 Z-0.300 I0.969 J-0.745 K0.000 F1000.000
G3 X126.020 Y100.835 Z-0.300 I0.334 J0.196 K0.000 F1000.000
G3 X126.872 Y101.547 Z-0.300 I-3.905 J5.537 K0.000 F1000.000
G2 X127.850 Y101.558 Z-0.300 I0.495 J-0.564 K0.000 F1000.000
G3 X128.610 Y100.954 Z-0.300 I2.530 J2.405 K0.000 F1000.000
G3 X129.531 Y101.122 Z-0.300 I0.372 J0.569 K0.000 F1000.000
G3 X130.230 Y102.454 Z-0.300 I-4.412 J3.165 K0.000 F1000.000
G2 X129.076 Y103.176 Z-0.300 I4.828 J9.004 K0.000 F1000.000
G3 X128.443 Y103.407 Z-0.300 I-0.670 J-0.850 K0.000 F1000.000
G3 X127.934 Y103.044 Z-0.300 I0.082 J-0.652 K0.000 F1000.000
G3 X127.522 Y102.310 Z-0.300 I5.138 J-3.370 K0.000 F1000.000
G2 X126.465 Y102.013 Z-0.300 I-0.667 J0.344 K0.000 F1000.000
G3 X125.562 Y102.525 Z-0.300 I-2.296 J-3.000 K0.000 F1000.000
G3 X124.656 Y101.613 Z-0.300 I32.453 J-33.205 K0.000 F1000.000
G2 X123.485 Y101.319 Z-0.300 I-0.859 J0.939 K0.000 F1000.000
G3 X123.455 Y100.955 Z-0.300 I0.174 J-0.197 K0.000 F1000.000
G0 Z5.000
G0 X132.891 Y102.919 Z5.000
G0 X132.891 Y102.919 Z3.000
G1 X132.891 Y102.919 Z-0.300 F200.000
G2 X135.793 Y102.434 Z-0.300 I0.153 J-8.000 K0.000 F1000.000
G3 X136.530 Y103.078 Z-0.300 I-2.798 J3.943 K0.000 F1000.000
G1 X136.530 Y103.078 Z-0.300 F1000.000
G2 X137.493 Y103.860 Z-0.300 I5.283 J-5.520 K0.000 F1000.000
G1 X137.547 Y103.892 Z-0.300 F1000.000
G2 X135.311 Y104.532 Z-0.300 I6.092 J25.507 K0.000 F1000.000
G2 X133.395 Y103.196 Z-0.300 I-14.529 J18.800 K0.000 F1000.000
G1 X132.891 Y102.919 Z-0.300 F1000.000
G0 Z5.000
G0 X139.809 Y104.372 Z5.000
G0 X139.809 Y104.372 Z3.000
G1 X139.809 Y104.372 Z-0.300 F200.000
G2 X140.960 Y103.771 Z-0.300 I-1.981 J-5.197 K0.000 F1000.000
G3 X141.210 Y103.845 Z-0.300 I0.060 J0.258 K0.000 F1000.000
G3 X141.587 Y104.280 Z-0.300 I-0.952 J1.206 K0.000 F1000.000
G1 X141.587 Y104.280 Z-0.300 F1000.000
G2 X141.998 Y104.781 Z-0.300 I2.485 J-1.620 K0.000 F1000.000
G2 X140.910 Y105.493 Z-0.300 I1.967 J4.194 K0.000 F1000.000
G3 X140.830 Y105.512 Z-0.300 I-0.050 J-0.031 K0.000 F1000.000
G3 X140.211 Y104.863 Z-0.300 I1.041 J-1.613 K0.000 F1000.000
G2 X139.809 Y104.372 Z-0.300 I-1.621 J0.916 K0.000 F1000.000
G0 Z5.000
G0 X144.355 Y105.322 Z5.000
G0 X144.355 Y105.322 Z3.000
G1 X144.355 Y105.322 Z-0.300 F200.000
G2 X146.316 Y104.675 Z-0.300 I-0.763 J-5.606 K0.000 F1000.000
G2 X148.900 Y106.298 Z-0.300 I16.255 J-23.017 K0.000 F1000.000
G2 X146.376 Y106.608 Z-0.300 I-0.179 J8.977 K0.000 F1000.000
G1 X146.005 Y106.734 Z-0.300 F1000.000
G2 X144.355 Y105.322 Z-0.300 I-8.130 J7.833 K0.000 F1000.000
G0 Z5.000
G0 X151.328 Y106.846 Z5.000
G0 X151.328 Y106.846 Z3.000
G1 X151.328 Y106.846 Z-0.300 F200.000
G2 X151.650 Y106.740 Z-0.300 I-0.997 J-3.594 K0.000 F1000.000
G3 X151.872 Y106.942 Z-0.300 I-1.412 J1.775 K0.000 F1000.000
G3 X151.566 Y107.053 Z-0.300 I-8.411 J-22.677 K0.000 F1000.000
G1 X151.432 Y106.936 Z-0.300 F1000.000
G1 X151.432 Y106.936 Z-0.300 F1000.000
G1 X151.328 Y106.846 Z-0.300 F1000.000
G0 Z5.000
G0 X153.028 Y107.226 Z5.000
G0 X153.028 Y107.226 Z3.000
G1 X153.028 Y107.226 Z-0.300 F200.000
G3 X155.602 Y106.410 Z-0.300 I3.265 J5.834 K0.000 F1000.000
G3 X156.825 Y106.448 Z-0.300 I0.488 J4.043 K0.000 F1000.000
G3 X168.595 Y109.263 Z-0.300 I-103.171 J457.391 K0.000 F1000.000
G1 X179.859 Y112.007 Z-0.300 F1000.000
G1 X182.327 Y112.582 Z-0.300 F1000.000
G2 X202.135 Y116.940 Z-0.300 I1216.504 J-5483.232 K0.000 F1000.000
G2 X205.601 Y117.646 Z-0.300 I23.416 J-106.077 K0.000 F1000.000
G2 X206.246 Y117.467 Z-0.300 I0.143 J-0.736 K0.000 F1000.000
G3 X210.316 Y113.943 Z-0.300 I42.964 J45.509 K0.000 F1000.000
G3 X212.818 Y112.249 Z-0.300 I11.368 J14.103 K0.000 F1000.000
G2 X211.466 Y113.340 Z-0.300 I6.501 J9.441 K0.000 F1000.000
G2 X208.288 Y116.565 Z-0.300 I22.620 J25.478 K0.000 F1000.000
G2 X207.903 Y117.309 Z-0.300 I0.945 J0.961 K0.000 F1000.000
G2 X208.509 Y118.216 Z-0.300 I0.917 J0.042 K0.000 F1000.000
G2 X210.220 Y118.719 Z-0.300 I4.463 J-12.000 K0.000 F1000.000
G2 X230.843 Y123.220 Z-0.300 I866.264 J-3919.534 K0.000 F1000.000
G2 X207.196 Y118.825 Z-0.300 I-286.974 J1478.075 K0.000 F1000.000
G2 X206.481 Y119.094 Z-0.300 I-0.131 J0.739 K0.000 F1000.000
G2 X205.664 Y120.267 Z-0.300 I4.556 J4.043 K0.000 F1000.000
G2 X203.183 Y125.989 Z-0.300 I39.381 J20.475 K0.000 F1000.000
G2 X201.919 Y137.751 Z-0.300 I29.220 J9.088 K0.000 F1000.000
G2 X208.482 Y155.856 Z-0.300 I35.993 J-2.805 K0.000 F1000.000
G2 X219.942 Y166.141 Z-0.300 I29.015 J-20.803 K0.000 F1000.000
G2 X225.952 Y168.229 Z-0.300 I9.557 J-17.813 K0.000 F1000.000
G2 X231.669 Y168.270 Z-0.300 I2.967 J-15.223 K0.000 F1000.000
G2 X235.338 Y167.256 Z-0.300 I-1.173 J-11.385 K0.000 F1000.000
G2 X241.686 Y161.289 Z-0.300 I-5.356 J-12.058 K0.000 F1000.000
G2 X243.568 Y156.655 Z-0.300 I-17.052 J-9.624 K0.000 F1000.000
G2 X243.466 Y145.293 Z-0.300 I-22.502 J-5.479 K0.000 F1000.000
G2 X240.845 Y138.605 Z-0.300 I-44.611 J13.627 K0.000 F1000.000
G2 X230.197 Y128.444 Z-0.300 I-19.957 J10.254 K0.000 F1000.000
G2 X226.130 Y127.306 Z-0.300 I-5.957 J13.454 K0.000 F1000.000
G2 X219.953 Y127.861 Z-0.300 I-1.457 J18.432 K0.000 F1000.000
G2 X212.519 Y133.513 Z-0.300 I4.120 J13.137 K0.000 F1000.000
G2 X211.121 Y137.982 Z-0.300 I8.879 J5.230 K0.000 F1000.000
G2 X214.029 Y148.579 Z-0.300 I16.887 J1.063 K0.000 F1000.000
G2 X218.479 Y153.222 Z-0.300 I18.506 J-13.282 K0.000 F1000.000
G2 X222.120 Y154.671 Z-0.300 I4.678 J-6.454 K0.000 F1000.000
G2 X223.132 Y154.633 Z-0.300 I0.361 J-3.837 K0.000 F1000.000
G3 X220.907 Y154.691 Z-0.300 I-1.215 J-3.873 K0.000 F1000.000
G3 X217.154 Y152.681 Z-0.300 I2.423 J-9.034 K0.000 F1000.000
G3 X210.555 Y142.021 Z-0.300 I13.206 J-15.547 K0.000 F1000.000
G3 X210.600 Y133.013 Z-0.300 I18.693 J-4.412 K0.000 F1000.000
G3 X218.397 Y124.960 Z-0.300 I11.097 J2.944 K0.000 F1000.000
G3 X226.257 Y125.232 Z-0.300 I3.426 J14.694 K0.000 F1000.000
G3 X234.950 Y130.371 Z-0.300 I-7.052 J21.855 K0.000 F1000.000
G3 X237.531 Y132.996 Z-0.300 I-25.001 J27.153 K0.000 F1000.000
G3 X239.618 Y135.952 Z-0.300 I-14.830 J12.685 K0.000 F1000.000
G3 X242.151 Y140.846 Z-0.300 I-36.201 J21.839 K0.000 F1000.000
G3 X243.946 Y146.979 Z-0.300 I-35.807 J13.808 K0.000 F1000.000
G3 X244.424 Y153.436 Z-0.300 I-23.955 J5.022 K0.000 F1000.000
G3 X241.799 Y162.244 Z-0.300 I-22.846 J-2.014 K0.000 F1000.000
G3 X238.280 Y166.509 Z-0.300 I-13.752 J-7.762 K0.000 F1000.000
G3 X231.669 Y169.970 Z-0.300 I-10.450 J-11.920 K0.000 F1000.000
G3 X227.513 Y170.709 Z-0.300 I-6.102 J-22.247 K0.000 F1000.000
G3 X221.397 Y170.099 Z-0.300 I-1.009 J-20.854 K0.000 F1000.000
G3 X216.676 Y168.541 Z-0.300 I4.422 J-21.327 K0.000 F1000.000
G3 X207.780 Y161.719 Z-0.300 I12.321 J-25.279 K0.000 F1000.000
G3 X201.406 Y150.767 Z-0.300 I23.182 J-20.824 K0.000 F1000.000
G3 X199.529 Y143.042 Z-0.300 I41.332 J-14.130 K0.000 F1000.000
G3 X199.632 Y133.658 Z-0.300 I43.909 J-4.209 K0.000 F1000.000
G3 X201.705 Y125.500 Z-0.300 I43.028 J6.588 K0.000 F1000.000
G3 X204.290 Y120.395 Z-0.300 I23.655 J8.771 K0.000 F1000.000
G2 X204.798 Y119.357 Z-0.300 I-2.919 J-2.074 K0.000 F1000.000
G2 X204.027 Y118.236 Z-0.300 I-0.965 J-0.162 K0.000 F1000.000
G2 X201.378 Y117.717 Z-0.300 I-6.360 J25.470 K0.000 F1000.000
G2 X178.900 Y113.424 Z-0.300 I-247.387 J1234.164 K0.000 F1000.000
G2 X160.818 Y110.173 Z-0.300 I-142.150 J738.781 K0.000 F1000.000
G3 X156.588 Y109.393 Z-0.300 I32.996 J-190.815 K0.000 F1000.000
G3 X153.483 Y107.675 Z-0.300 I0.909 J-5.307 K0.000 F1000.000
G2 X153.028 Y107.226 Z-0.300 I-2.487 J2.064 K0.000 F1000.000
G0 Z5.000
G0 X216.388 Y138.772 Z5.000
G0 X216.388 Y138.772 Z3.000
G1 X216.388 Y138.772 Z-0.300 F200.000
G2 X217.014 Y137.963 Z-0.300 I-1.370 J-1.705 K0.000 F1000.000
G2 X217.837 Y138.128 Z-0.300 I0.622 J-0.970 K0.000 F1000.000
G2 X217.695 Y139.268 Z-0.300 I1.092 J0.715 K0.000 F1000.000
G2 X217.012 Y139.526 Z-0.300 I-0.121 J0.717 K0.000 F1000.000
G1 X216.949 Y139.601 Z-0.300 F1000.000
G2 X216.574 Y138.833 Z-0.300 I-0.826 J-0.073 K0.000 F1000.000
G1 X216.388 Y138.772 Z-0.300 F1000.000
G0 Z5.000
G0 X250.993 Y130.017 Z5.000
G0 X250.993 Y130.017 Z3.000
G1 X250.993 Y130.017 Z-0.300 F200.000
G2 X251.894 Y129.092 Z-0.300 I-0.151 J-1.049 K0.000 F1000.000
G1 X252.113 Y128.916 Z-0.300 F1000.000
G2 X253.283 Y129.851 Z-0.300 I1.590 J-0.791 K0.000 F1000.000
G2 X252.468 Y131.355 Z-0.300 I0.881 J1.451 K0.000 F1000.000
G2 X251.423 Y131.371 Z-0.300 I-0.512 J0.690 K0.000 F1000.000
G2 X250.993 Y130.017 Z-0.300 I-1.148 J-0.381 K0.000 F1000.000
G0 Z5.000
G0 Z5.000
(Finish operation: Profile)
(Begin postamble)
M5
G17 G90
M2
