(Exported by FreeCAD)
(Post Processor: grbl_post)
(Output Time:2022-11-25 12:07:06.717419)
(Begin preamble)
G17 G90
G21
(Begin operation: 0.5mm Endmill001)
(Path: 0.5mm Endmill001)
(0.5mm Endmill001)
(Begin toolchange)
( M6 T3.0 )
M3 S24000.0
(Finish operation: 0.5mm Endmill001)
(Begin operation: Fixture)
(Path: Fixture)
G54
G0 Z5.000
(Finish operation: Fixture)
(Begin operation: Profile001)
(Path: Profile001)
(Profile001)
(Compensated Tool Path. Diameter: 0.5)
G0 Z5.000
G0 X32.913 Y93.357
G0 Z3.000
G1 X32.913 Y93.357 Z-0.250 F100.000
G2 X31.680 Y92.674 Z-0.250 I-38.204 J67.544 K0.000 F200.000
G2 X31.278 Y92.730 Z-0.250 I-0.169 J0.261 K0.000 F200.000
G2 X30.556 Y93.755 Z-0.250 I4.261 J3.767 K0.000 F200.000
G3 X30.121 Y94.376 Z-0.250 I-3.166 J-1.757 K0.000 F200.000
G3 X30.075 Y93.212 Z-0.250 I12.058 J-1.053 K0.000 F200.000
G2 X29.964 Y92.588 Z-0.250 I-1.611 J-0.035 K0.000 F200.000
G2 X29.476 Y92.222 Z-0.250 I-0.575 J0.257 K0.000 F200.000
G2 X28.069 Y92.274 Z-0.250 I0.158 J23.347 K0.000 F200.000
G3 X28.766 Y91.464 Z-0.250 I3.044 J1.912 K0.000 F200.000
G2 X29.437 Y90.745 Z-0.250 I-2.101 J-2.638 K0.000 F200.000
G2 X29.728 Y89.437 Z-0.250 I-3.078 J-1.370 K0.000 F200.000
G3 X29.876 Y88.539 Z-0.250 I4.752 J0.323 K0.000 F200.000
G3 X30.445 Y89.345 Z-0.250 I-15.273 J11.392 K0.000 F200.000
G2 X31.590 Y89.642 Z-0.250 I0.758 J-0.566 K0.000 F200.000
G3 X32.985 Y89.235 Z-0.250 I1.436 J2.326 K0.000 F200.000
G3 X32.081 Y90.779 Z-0.250 I-192.999 J-112.001 K0.000 F200.000
G2 X32.137 Y91.644 Z-0.250 I0.961 J0.372 K0.000 F200.000
G3 X32.847 Y93.156 Z-0.250 I-4683.160 J2200.758 K0.000 F200.000
G1 X32.913 Y93.357 Z-0.250 F200.000
G1 X32.913 Y93.357 Z-0.500 F100.000
G2 X31.680 Y92.674 Z-0.500 I-38.204 J67.544 K0.000 F200.000
G2 X31.278 Y92.730 Z-0.500 I-0.169 J0.261 K0.000 F200.000
G2 X30.556 Y93.755 Z-0.500 I4.261 J3.767 K0.000 F200.000
G3 X30.121 Y94.376 Z-0.500 I-3.166 J-1.757 K0.000 F200.000
G3 X30.075 Y93.212 Z-0.500 I12.058 J-1.053 K0.000 F200.000
G2 X29.964 Y92.588 Z-0.500 I-1.611 J-0.035 K0.000 F200.000
G2 X29.476 Y92.222 Z-0.500 I-0.575 J0.257 K0.000 F200.000
G2 X28.069 Y92.274 Z-0.500 I0.158 J23.347 K0.000 F200.000
G3 X28.766 Y91.464 Z-0.500 I3.044 J1.912 K0.000 F200.000
G2 X29.437 Y90.745 Z-0.500 I-2.101 J-2.638 K0.000 F200.000
G2 X29.728 Y89.437 Z-0.500 I-3.078 J-1.370 K0.000 F200.000
G3 X29.876 Y88.539 Z-0.500 I4.752 J0.323 K0.000 F200.000
G3 X30.445 Y89.345 Z-0.500 I-15.273 J11.392 K0.000 F200.000
G2 X31.590 Y89.642 Z-0.500 I0.758 J-0.566 K0.000 F200.000
G3 X32.985 Y89.235 Z-0.500 I1.436 J2.326 K0.000 F200.000
G3 X32.081 Y90.779 Z-0.500 I-192.999 J-112.001 K0.000 F200.000
G2 X32.137 Y91.644 Z-0.500 I0.961 J0.372 K0.000 F200.000
G3 X32.847 Y93.156 Z-0.500 I-4683.160 J2200.758 K0.000 F200.000
G1 X32.913 Y93.357 Z-0.500 F200.000
G1 X32.913 Y93.357 Z-0.750 F100.000
G2 X31.680 Y92.674 Z-0.750 I-38.204 J67.544 K0.000 F200.000
G2 X31.278 Y92.730 Z-0.750 I-0.169 J0.261 K0.000 F200.000
G2 X30.556 Y93.755 Z-0.750 I4.261 J3.767 K0.000 F200.000
G3 X30.121 Y94.376 Z-0.750 I-3.166 J-1.757 K0.000 F200.000
G3 X30.075 Y93.212 Z-0.750 I12.058 J-1.053 K0.000 F200.000
G2 X29.964 Y92.588 Z-0.750 I-1.611 J-0.035 K0.000 F200.000
G2 X29.476 Y92.222 Z-0.750 I-0.575 J0.257 K0.000 F200.000
G2 X28.069 Y92.274 Z-0.750 I0.158 J23.347 K0.000 F200.000
G3 X28.766 Y91.464 Z-0.750 I3.044 J1.912 K0.000 F200.000
G2 X29.437 Y90.745 Z-0.750 I-2.101 J-2.638 K0.000 F200.000
G2 X29.728 Y89.437 Z-0.750 I-3.078 J-1.370 K0.000 F200.000
G3 X29.876 Y88.539 Z-0.750 I4.752 J0.323 K0.000 F200.000
G3 X30.445 Y89.345 Z-0.750 I-15.273 J11.392 K0.000 F200.000
G2 X31.590 Y89.642 Z-0.750 I0.758 J-0.566 K0.000 F200.000
G3 X32.985 Y89.235 Z-0.750 I1.436 J2.326 K0.000 F200.000
G3 X32.081 Y90.779 Z-0.750 I-192.999 J-112.001 K0.000 F200.000
G2 X32.137 Y91.644 Z-0.750 I0.961 J0.372 K0.000 F200.000
G3 X32.847 Y93.156 Z-0.750 I-4683.160 J2200.758 K0.000 F200.000
G1 X32.913 Y93.357 Z-0.750 F200.000
G1 X32.913 Y93.357 Z-1.000 F100.000
G2 X31.680 Y92.674 Z-1.000 I-38.204 J67.544 K0.000 F200.000
G2 X31.278 Y92.730 Z-1.000 I-0.169 J0.261 K0.000 F200.000
G2 X30.556 Y93.755 Z-1.000 I4.261 J3.767 K0.000 F200.000
G3 X30.121 Y94.376 Z-1.000 I-3.166 J-1.757 K0.000 F200.000
G3 X30.075 Y93.212 Z-1.000 I12.058 J-1.053 K0.000 F200.000
G2 X29.964 Y92.588 Z-1.000 I-1.611 J-0.035 K0.000 F200.000
G2 X29.476 Y92.222 Z-1.000 I-0.575 J0.257 K0.000 F200.000
G2 X28.069 Y92.274 Z-1.000 I0.158 J23.347 K0.000 F200.000
G3 X28.766 Y91.464 Z-1.000 I3.044 J1.912 K0.000 F200.000
G2 X29.437 Y90.745 Z-1.000 I-2.101 J-2.638 K0.000 F200.000
G2 X29.728 Y89.437 Z-1.000 I-3.078 J-1.370 K0.000 F200.000
G3 X29.876 Y88.539 Z-1.000 I4.752 J0.323 K0.000 F200.000
G3 X30.445 Y89.345 Z-1.000 I-15.273 J11.392 K0.000 F200.000
G2 X31.590 Y89.642 Z-1.000 I0.758 J-0.566 K0.000 F200.000
G3 X32.985 Y89.235 Z-1.000 I1.436 J2.326 K0.000 F200.000
G3 X32.081 Y90.779 Z-1.000 I-192.999 J-112.001 K0.000 F200.000
G2 X32.137 Y91.644 Z-1.000 I0.961 J0.372 K0.000 F200.000
G3 X32.847 Y93.156 Z-1.000 I-4683.160 J2200.758 K0.000 F200.000
G1 X32.913 Y93.357 Z-1.000 F200.000
G0 Z5.000
G0 Z5.000
G0 X32.913 Y93.357
G0 X25.788 Y96.564
G0 X25.788 Y96.564 Z3.000
G1 X25.788 Y96.564 Z-0.250 F100.000
G3 X26.240 Y98.413 Z-0.250 I-4.769 J2.147 K0.000 F200.000
G3 X24.587 Y102.622 Z-0.250 I-5.671 J0.201 K0.000 F200.000
G3 X22.165 Y104.603 Z-0.250 I-10.470 J-10.328 K0.000 F200.000
G2 X19.745 Y106.490 Z-0.250 I7.404 J11.996 K0.000 F200.000
G2 X19.612 Y109.664 Z-0.250 I3.006 J1.715 K0.000 F200.000
G2 X21.484 Y111.047 Z-0.250 I2.847 J-1.896 K0.000 F200.000
G2 X23.568 Y111.159 Z-0.250 I1.236 J-3.531 K0.000 F200.000
G2 X24.530 Y110.594 Z-0.250 I-0.838 J-2.527 K0.000 F200.000
G2 X26.122 Y108.431 Z-0.250 I-4.358 J-4.875 K0.000 F200.000
G3 X27.346 Y105.764 Z-0.250 I30.638 J12.440 K0.000 F200.000
G3 X27.568 Y105.505 Z-0.250 I0.568 J0.263 K0.000 F200.000
G3 X27.899 Y105.680 Z-0.250 I0.094 J0.222 K0.000 F200.000
G3 X27.961 Y106.522 Z-0.250 I-2.324 J0.594 K0.000 F200.000
G2 X27.798 Y111.162 Z-0.250 I27.437 J3.290 K0.000 F200.000
G3 X27.734 Y112.134 Z-0.250 I-2.380 J0.332 K0.000 F200.000
G3 X27.496 Y112.157 Z-0.250 I-0.120 J-0.003 K0.000 F200.000
G3 X27.026 Y111.389 Z-0.250 I4.165 J-3.080 K0.000 F200.000
G2 X26.705 Y111.285 Z-0.250 I-0.217 J0.124 K0.000 F200.000
G3 X24.067 Y112.323 Z-0.250 I-6.357 J-12.288 K0.000 F200.000
G1 X23.562 Y112.433 Z-0.250 F200.000
G3 X19.681 Y112.315 Z-0.250 I-1.536 J-13.335 K0.000 F200.000
G3 X15.503 Y107.665 Z-0.250 I1.382 J-5.444 K0.000 F200.000
G3 X16.101 Y104.720 Z-0.250 I5.266 J-0.464 K0.000 F200.000
G3 X17.074 Y103.367 Z-0.250 I4.142 J1.952 K0.000 F200.000
G3 X20.136 Y101.302 Z-0.250 I31.997 J44.136 K0.000 F200.000
G2 X21.644 Y100.212 Z-0.250 I-6.928 J-11.169 K0.000 F200.000
G2 X22.768 Y97.988 Z-0.250 I-1.742 J-2.277 K0.000 F200.000
G2 X22.509 Y96.302 Z-0.250 I-3.252 J-0.363 K0.000 F200.000
G2 X20.333 Y95.017 Z-0.250 I-2.146 J1.150 K0.000 F200.000
G2 X19.210 Y95.539 Z-0.250 I0.285 J2.086 K0.000 F200.000
G2 X17.878 Y97.293 Z-0.250 I4.870 J5.081 K0.000 F200.000
G3 X16.831 Y99.198 Z-0.250 I-12.573 J-5.670 K0.000 F200.000
G3 X16.403 Y99.650 Z-0.250 I-1.460 J-0.952 K0.000 F200.000
G1 X16.325 Y99.686 Z-0.250 F200.000
G3 X16.376 Y97.292 Z-0.250 I20.030 J-0.769 K0.000 F200.000
G1 X16.539 Y95.073 Z-0.250 F200.000
G3 X16.705 Y94.082 Z-0.250 I4.416 J0.230 K0.000 F200.000
G1 X16.749 Y93.994 Z-0.250 F200.000
G2 X17.556 Y94.484 Z-0.250 I5.742 J-8.550 K0.000 F200.000
G2 X18.292 Y94.351 Z-0.250 I0.188 J-1.064 K0.000 F200.000
G3 X20.217 Y93.751 Z-0.250 I2.327 J4.077 K0.000 F200.000
G3 X22.537 Y93.780 Z-0.250 I0.992 J13.575 K0.000 F200.000
G3 X24.028 Y94.434 Z-0.250 I-0.437 J3.023 K0.000 F200.000
G3 X25.788 Y96.564 Z-0.250 I-3.009 J4.278 K0.000 F200.000
G1 X25.788 Y96.564 Z-0.500 F100.000
G3 X26.240 Y98.413 Z-0.500 I-4.769 J2.147 K0.000 F200.000
G3 X24.587 Y102.622 Z-0.500 I-5.671 J0.201 K0.000 F200.000
G3 X22.165 Y104.603 Z-0.500 I-10.470 J-10.328 K0.000 F200.000
G2 X19.745 Y106.490 Z-0.500 I7.404 J11.996 K0.000 F200.000
G2 X19.612 Y109.664 Z-0.500 I3.006 J1.715 K0.000 F200.000
G2 X21.484 Y111.047 Z-0.500 I2.847 J-1.896 K0.000 F200.000
G2 X23.568 Y111.159 Z-0.500 I1.236 J-3.531 K0.000 F200.000
G2 X24.530 Y110.594 Z-0.500 I-0.838 J-2.527 K0.000 F200.000
G2 X26.122 Y108.431 Z-0.500 I-4.358 J-4.875 K0.000 F200.000
G3 X27.346 Y105.764 Z-0.500 I30.638 J12.440 K0.000 F200.000
G3 X27.568 Y105.505 Z-0.500 I0.568 J0.263 K0.000 F200.000
G3 X27.899 Y105.680 Z-0.500 I0.094 J0.222 K0.000 F200.000
G3 X27.961 Y106.522 Z-0.500 I-2.324 J0.594 K0.000 F200.000
G2 X27.798 Y111.162 Z-0.500 I27.437 J3.290 K0.000 F200.000
G3 X27.734 Y112.134 Z-0.500 I-2.380 J0.332 K0.000 F200.000
G3 X27.496 Y112.157 Z-0.500 I-0.120 J-0.003 K0.000 F200.000
G3 X27.026 Y111.389 Z-0.500 I4.165 J-3.080 K0.000 F200.000
G2 X26.705 Y111.285 Z-0.500 I-0.217 J0.124 K0.000 F200.000
G3 X24.067 Y112.323 Z-0.500 I-6.357 J-12.288 K0.000 F200.000
G1 X23.562 Y112.433 Z-0.500 F200.000
G3 X19.681 Y112.315 Z-0.500 I-1.536 J-13.335 K0.000 F200.000
G3 X15.503 Y107.665 Z-0.500 I1.382 J-5.444 K0.000 F200.000
G3 X16.101 Y104.720 Z-0.500 I5.266 J-0.464 K0.000 F200.000
G3 X17.074 Y103.367 Z-0.500 I4.142 J1.952 K0.000 F200.000
G3 X20.136 Y101.302 Z-0.500 I31.997 J44.136 K0.000 F200.000
G2 X21.644 Y100.212 Z-0.500 I-6.928 J-11.169 K0.000 F200.000
G2 X22.768 Y97.988 Z-0.500 I-1.742 J-2.277 K0.000 F200.000
G2 X22.509 Y96.302 Z-0.500 I-3.252 J-0.363 K0.000 F200.000
G2 X20.333 Y95.017 Z-0.500 I-2.146 J1.150 K0.000 F200.000
G2 X19.210 Y95.539 Z-0.500 I0.285 J2.086 K0.000 F200.000
G2 X17.878 Y97.293 Z-0.500 I4.870 J5.081 K0.000 F200.000
G3 X16.831 Y99.198 Z-0.500 I-12.573 J-5.670 K0.000 F200.000
G3 X16.403 Y99.650 Z-0.500 I-1.460 J-0.952 K0.000 F200.000
G1 X16.325 Y99.686 Z-0.500 F200.000
G3 X16.376 Y97.292 Z-0.500 I20.030 J-0.769 K0.000 F200.000
G1 X16.539 Y95.073 Z-0.500 F200.000
G3 X16.705 Y94.082 Z-0.500 I4.416 J0.230 K0.000 F200.000
G1 X16.749 Y93.994 Z-0.500 F200.000
G2 X17.556 Y94.484 Z-0.500 I5.742 J-8.550 K0.000 F200.000
G2 X18.292 Y94.351 Z-0.500 I0.188 J-1.064 K0.000 F200.000
G3 X20.217 Y93.751 Z-0.500 I2.327 J4.077 K0.000 F200.000
G3 X22.537 Y93.780 Z-0.500 I0.992 J13.575 K0.000 F200.000
G3 X24.028 Y94.434 Z-0.500 I-0.437 J3.023 K0.000 F200.000
G3 X25.788 Y96.564 Z-0.500 I-3.009 J4.278 K0.000 F200.000
G1 X25.788 Y96.564 Z-0.750 F100.000
G3 X26.240 Y98.413 Z-0.750 I-4.769 J2.147 K0.000 F200.000
G3 X24.587 Y102.622 Z-0.750 I-5.671 J0.201 K0.000 F200.000
G3 X22.165 Y104.603 Z-0.750 I-10.470 J-10.328 K0.000 F200.000
G2 X19.745 Y106.490 Z-0.750 I7.404 J11.996 K0.000 F200.000
G2 X19.612 Y109.664 Z-0.750 I3.006 J1.715 K0.000 F200.000
G2 X21.484 Y111.047 Z-0.750 I2.847 J-1.896 K0.000 F200.000
G2 X23.568 Y111.159 Z-0.750 I1.236 J-3.531 K0.000 F200.000
G2 X24.530 Y110.594 Z-0.750 I-0.838 J-2.527 K0.000 F200.000
G2 X26.122 Y108.431 Z-0.750 I-4.358 J-4.875 K0.000 F200.000
G3 X27.346 Y105.764 Z-0.750 I30.638 J12.440 K0.000 F200.000
G3 X27.568 Y105.505 Z-0.750 I0.568 J0.263 K0.000 F200.000
G3 X27.899 Y105.680 Z-0.750 I0.094 J0.222 K0.000 F200.000
G3 X27.961 Y106.522 Z-0.750 I-2.324 J0.594 K0.000 F200.000
G2 X27.798 Y111.162 Z-0.750 I27.437 J3.290 K0.000 F200.000
G3 X27.734 Y112.134 Z-0.750 I-2.380 J0.332 K0.000 F200.000
G3 X27.496 Y112.157 Z-0.750 I-0.120 J-0.003 K0.000 F200.000
G3 X27.026 Y111.389 Z-0.750 I4.165 J-3.080 K0.000 F200.000
G2 X26.705 Y111.285 Z-0.750 I-0.217 J0.124 K0.000 F200.000
G3 X24.067 Y112.323 Z-0.750 I-6.357 J-12.288 K0.000 F200.000
G1 X23.562 Y112.433 Z-0.750 F200.000
G3 X19.681 Y112.315 Z-0.750 I-1.536 J-13.335 K0.000 F200.000
G3 X15.503 Y107.665 Z-0.750 I1.382 J-5.444 K0.000 F200.000
G3 X16.101 Y104.720 Z-0.750 I5.266 J-0.464 K0.000 F200.000
G3 X17.074 Y103.367 Z-0.750 I4.142 J1.952 K0.000 F200.000
G3 X20.136 Y101.302 Z-0.750 I31.997 J44.136 K0.000 F200.000
G2 X21.644 Y100.212 Z-0.750 I-6.928 J-11.169 K0.000 F200.000
G2 X22.768 Y97.988 Z-0.750 I-1.742 J-2.277 K0.000 F200.000
G2 X22.509 Y96.302 Z-0.750 I-3.252 J-0.363 K0.000 F200.000
G2 X20.333 Y95.017 Z-0.750 I-2.146 J1.150 K0.000 F200.000
G2 X19.210 Y95.539 Z-0.750 I0.285 J2.086 K0.000 F200.000
G2 X17.878 Y97.293 Z-0.750 I4.870 J5.081 K0.000 F200.000
G3 X16.831 Y99.198 Z-0.750 I-12.573 J-5.670 K0.000 F200.000
G3 X16.403 Y99.650 Z-0.750 I-1.460 J-0.952 K0.000 F200.000
G1 X16.325 Y99.686 Z-0.750 F200.000
G3 X16.376 Y97.292 Z-0.750 I20.030 J-0.769 K0.000 F200.000
G1 X16.539 Y95.073 Z-0.750 F200.000
G3 X16.705 Y94.082 Z-0.750 I4.416 J0.230 K0.000 F200.000
G1 X16.749 Y93.994 Z-0.750 F200.000
G2 X17.556 Y94.484 Z-0.750 I5.742 J-8.550 K0.000 F200.000
G2 X18.292 Y94.351 Z-0.750 I0.188 J-1.064 K0.000 F200.000
G3 X20.217 Y93.751 Z-0.750 I2.327 J4.077 K0.000 F200.000
G3 X22.537 Y93.780 Z-0.750 I0.992 J13.575 K0.000 F200.000
G3 X24.028 Y94.434 Z-0.750 I-0.437 J3.023 K0.000 F200.000
G3 X25.788 Y96.564 Z-0.750 I-3.009 J4.278 K0.000 F200.000
G1 X25.788 Y96.564 Z-1.000 F100.000
G3 X26.240 Y98.413 Z-1.000 I-4.769 J2.147 K0.000 F200.000
G3 X24.587 Y102.622 Z-1.000 I-5.671 J0.201 K0.000 F200.000
G3 X22.165 Y104.603 Z-1.000 I-10.470 J-10.328 K0.000 F200.000
G2 X19.745 Y106.490 Z-1.000 I7.404 J11.996 K0.000 F200.000
G2 X19.612 Y109.664 Z-1.000 I3.006 J1.715 K0.000 F200.000
G2 X21.484 Y111.047 Z-1.000 I2.847 J-1.896 K0.000 F200.000
G2 X23.568 Y111.159 Z-1.000 I1.236 J-3.531 K0.000 F200.000
G2 X24.530 Y110.594 Z-1.000 I-0.838 J-2.527 K0.000 F200.000
G2 X26.122 Y108.431 Z-1.000 I-4.358 J-4.875 K0.000 F200.000
G3 X27.346 Y105.764 Z-1.000 I30.638 J12.440 K0.000 F200.000
G3 X27.568 Y105.505 Z-1.000 I0.568 J0.263 K0.000 F200.000
G3 X27.899 Y105.680 Z-1.000 I0.094 J0.222 K0.000 F200.000
G3 X27.961 Y106.522 Z-1.000 I-2.324 J0.594 K0.000 F200.000
G2 X27.798 Y111.162 Z-1.000 I27.437 J3.290 K0.000 F200.000
G3 X27.734 Y112.134 Z-1.000 I-2.380 J0.332 K0.000 F200.000
G3 X27.496 Y112.157 Z-1.000 I-0.120 J-0.003 K0.000 F200.000
G3 X27.026 Y111.389 Z-1.000 I4.165 J-3.080 K0.000 F200.000
G2 X26.705 Y111.285 Z-1.000 I-0.217 J0.124 K0.000 F200.000
G3 X24.067 Y112.323 Z-1.000 I-6.357 J-12.288 K0.000 F200.000
G1 X23.562 Y112.433 Z-1.000 F200.000
G3 X19.681 Y112.315 Z-1.000 I-1.536 J-13.335 K0.000 F200.000
G3 X15.503 Y107.665 Z-1.000 I1.382 J-5.444 K0.000 F200.000
G3 X16.101 Y104.720 Z-1.000 I5.266 J-0.464 K0.000 F200.000
G3 X17.074 Y103.367 Z-1.000 I4.142 J1.952 K0.000 F200.000
G3 X20.136 Y101.302 Z-1.000 I31.997 J44.136 K0.000 F200.000
G2 X21.644 Y100.212 Z-1.000 I-6.928 J-11.169 K0.000 F200.000
G2 X22.768 Y97.988 Z-1.000 I-1.742 J-2.277 K0.000 F200.000
G2 X22.509 Y96.302 Z-1.000 I-3.252 J-0.363 K0.000 F200.000
G2 X20.333 Y95.017 Z-1.000 I-2.146 J1.150 K0.000 F200.000
G2 X19.210 Y95.539 Z-1.000 I0.285 J2.086 K0.000 F200.000
G2 X17.878 Y97.293 Z-1.000 I4.870 J5.081 K0.000 F200.000
G3 X16.831 Y99.198 Z-1.000 I-12.573 J-5.670 K0.000 F200.000
G3 X16.403 Y99.650 Z-1.000 I-1.460 J-0.952 K0.000 F200.000
G1 X16.325 Y99.686 Z-1.000 F200.000
G3 X16.376 Y97.292 Z-1.000 I20.030 J-0.769 K0.000 F200.000
G1 X16.539 Y95.073 Z-1.000 F200.000
G3 X16.705 Y94.082 Z-1.000 I4.416 J0.230 K0.000 F200.000
G1 X16.749 Y93.994 Z-1.000 F200.000
G2 X17.556 Y94.484 Z-1.000 I5.742 J-8.550 K0.000 F200.000
G2 X18.292 Y94.351 Z-1.000 I0.188 J-1.064 K0.000 F200.000
G3 X20.217 Y93.751 Z-1.000 I2.327 J4.077 K0.000 F200.000
G3 X22.537 Y93.780 Z-1.000 I0.992 J13.575 K0.000 F200.000
G3 X24.028 Y94.434 Z-1.000 I-0.437 J3.023 K0.000 F200.000
G3 X25.788 Y96.564 Z-1.000 I-3.009 J4.278 K0.000 F200.000
G0 Z5.000
G0 Z5.000
G0 X25.788 Y96.564
G0 X43.535 Y126.551
G0 X43.535 Y126.551 Z3.000
G1 X43.535 Y126.551 Z-0.250 F100.000
G3 X43.909 Y126.529 Z-0.250 I0.208 J0.352 K0.000 F200.000
G1 X43.924 Y126.544 Z-0.250 F200.000
G3 X43.724 Y127.044 Z-0.250 I-0.816 J-0.037 K0.000 F200.000
G3 X43.357 Y126.768 Z-0.250 I0.169 J-0.607 K0.000 F200.000
G3 X43.535 Y126.551 Z-0.250 I0.386 J0.135 K0.000 F200.000
G1 X43.535 Y126.551 Z-0.500 F100.000
G3 X43.909 Y126.529 Z-0.500 I0.208 J0.352 K0.000 F200.000
G1 X43.924 Y126.544 Z-0.500 F200.000
G3 X43.724 Y127.044 Z-0.500 I-0.816 J-0.037 K0.000 F200.000
G3 X43.357 Y126.768 Z-0.500 I0.169 J-0.607 K0.000 F200.000
G3 X43.535 Y126.551 Z-0.500 I0.386 J0.135 K0.000 F200.000
G1 X43.535 Y126.551 Z-0.750 F100.000
G3 X43.909 Y126.529 Z-0.750 I0.208 J0.352 K0.000 F200.000
G1 X43.924 Y126.544 Z-0.750 F200.000
G3 X43.724 Y127.044 Z-0.750 I-0.816 J-0.037 K0.000 F200.000
G3 X43.357 Y126.768 Z-0.750 I0.169 J-0.607 K0.000 F200.000
G3 X43.535 Y126.551 Z-0.750 I0.386 J0.135 K0.000 F200.000
G1 X43.535 Y126.551 Z-1.000 F100.000
G3 X43.909 Y126.529 Z-1.000 I0.208 J0.352 K0.000 F200.000
G1 X43.924 Y126.544 Z-1.000 F200.000
G3 X43.724 Y127.044 Z-1.000 I-0.816 J-0.037 K0.000 F200.000
G3 X43.357 Y126.768 Z-1.000 I0.169 J-0.607 K0.000 F200.000
G3 X43.535 Y126.551 Z-1.000 I0.386 J0.135 K0.000 F200.000
G0 Z5.000
G0 Z5.000
G0 X43.535 Y126.551
G0 X44.834 Y125.779
G0 X44.834 Y125.779 Z3.000
G1 X44.834 Y125.779 Z-0.250 F100.000
G3 X44.945 Y125.592 Z-0.250 I0.098 J-0.068 K0.000 F200.000
G3 X45.928 Y125.918 Z-0.250 I-1.587 J6.429 K0.000 F200.000
G2 X47.676 Y126.159 Z-0.250 I1.382 J-3.562 K0.000 F200.000
G2 X49.272 Y124.606 Z-0.250 I-0.153 J-1.753 K0.000 F200.000
G2 X49.073 Y122.596 Z-0.250 I-4.767 J-0.543 K0.000 F200.000
G2 X48.078 Y120.296 Z-0.250 I-7.952 J2.074 K0.000 F200.000
G2 X45.066 Y118.411 Z-0.250 I-3.789 J2.705 K0.000 F200.000
G2 X44.157 Y118.553 Z-0.250 I-0.271 J1.242 K0.000 F200.000
G2 X43.874 Y119.420 Z-0.250 I0.428 J0.620 K0.000 F200.000
G2 X44.323 Y120.280 Z-0.250 I3.904 J-1.494 K0.000 F200.000
G3 X44.363 Y120.491 Z-0.250 I-0.269 J0.160 K0.000 F200.000
G3 X44.128 Y120.540 Z-0.250 I-0.145 J-0.109 K0.000 F200.000
G3 X41.703 Y118.218 Z-0.250 I7.155 J-9.903 K0.000 F200.000
G3 X40.657 Y115.821 Z-0.250 I2.734 J-2.619 K0.000 F200.000
G3 X41.761 Y115.449 Z-0.250 I0.768 J0.453 K0.000 F200.000
G3 X42.091 Y116.148 Z-0.250 I-0.186 J0.515 K0.000 F200.000
G3 X41.705 Y117.039 Z-0.250 I-3.667 J-1.056 K0.000 F200.000
G2 X41.911 Y117.576 Z-0.250 I0.454 J0.134 K0.000 F200.000
G2 X42.726 Y117.969 Z-0.250 I1.028 J-1.093 K0.000 F200.000
G2 X43.745 Y117.784 Z-0.250 I-0.500 J-5.649 K0.000 F200.000
G3 X46.677 Y117.949 Z-0.250 I1.202 J4.791 K0.000 F200.000
G3 X49.514 Y120.614 Z-0.250 I-3.074 J6.114 K0.000 F200.000
G3 X50.492 Y125.043 Z-0.250 I-5.451 J3.526 K0.000 F200.000
G3 X47.784 Y127.152 Z-0.250 I-2.564 J-0.498 K0.000 F200.000
G3 X44.834 Y125.779 Z-0.250 I-0.091 J-3.659 K0.000 F200.000
G1 X44.834 Y125.779 Z-0.500 F100.000
G3 X44.945 Y125.592 Z-0.500 I0.098 J-0.068 K0.000 F200.000
G3 X45.928 Y125.918 Z-0.500 I-1.587 J6.429 K0.000 F200.000
G2 X47.676 Y126.159 Z-0.500 I1.382 J-3.562 K0.000 F200.000
G2 X49.272 Y124.606 Z-0.500 I-0.153 J-1.753 K0.000 F200.000
G2 X49.073 Y122.596 Z-0.500 I-4.767 J-0.543 K0.000 F200.000
G2 X48.078 Y120.296 Z-0.500 I-7.952 J2.074 K0.000 F200.000
G2 X45.066 Y118.411 Z-0.500 I-3.789 J2.705 K0.000 F200.000
G2 X44.157 Y118.553 Z-0.500 I-0.271 J1.242 K0.000 F200.000
G2 X43.874 Y119.420 Z-0.500 I0.428 J0.620 K0.000 F200.000
G2 X44.323 Y120.280 Z-0.500 I3.904 J-1.494 K0.000 F200.000
G3 X44.363 Y120.491 Z-0.500 I-0.269 J0.160 K0.000 F200.000
G3 X44.128 Y120.540 Z-0.500 I-0.145 J-0.109 K0.000 F200.000
G3 X41.703 Y118.218 Z-0.500 I7.155 J-9.903 K0.000 F200.000
G3 X40.657 Y115.821 Z-0.500 I2.734 J-2.619 K0.000 F200.000
G3 X41.761 Y115.449 Z-0.500 I0.768 J0.453 K0.000 F200.000
G3 X42.091 Y116.148 Z-0.500 I-0.186 J0.515 K0.000 F200.000
G3 X41.705 Y117.039 Z-0.500 I-3.667 J-1.056 K0.000 F200.000
G2 X41.911 Y117.576 Z-0.500 I0.454 J0.134 K0.000 F200.000
G2 X42.726 Y117.969 Z-0.500 I1.028 J-1.093 K0.000 F200.000
G2 X43.745 Y117.784 Z-0.500 I-0.500 J-5.649 K0.000 F200.000
G3 X46.677 Y117.949 Z-0.500 I1.202 J4.791 K0.000 F200.000
G3 X49.514 Y120.614 Z-0.500 I-3.074 J6.114 K0.000 F200.000
G3 X50.492 Y125.043 Z-0.500 I-5.451 J3.526 K0.000 F200.000
G3 X47.784 Y127.152 Z-0.500 I-2.564 J-0.498 K0.000 F200.000
G3 X44.834 Y125.779 Z-0.500 I-0.091 J-3.659 K0.000 F200.000
G1 X44.834 Y125.779 Z-0.750 F100.000
G3 X44.945 Y125.592 Z-0.750 I0.098 J-0.068 K0.000 F200.000
G3 X45.928 Y125.918 Z-0.750 I-1.587 J6.429 K0.000 F200.000
G2 X47.676 Y126.159 Z-0.750 I1.382 J-3.562 K0.000 F200.000
G2 X49.272 Y124.606 Z-0.750 I-0.153 J-1.753 K0.000 F200.000
G2 X49.073 Y122.596 Z-0.750 I-4.767 J-0.543 K0.000 F200.000
G2 X48.078 Y120.296 Z-0.750 I-7.952 J2.074 K0.000 F200.000
G2 X45.066 Y118.411 Z-0.750 I-3.789 J2.705 K0.000 F200.000
G2 X44.157 Y118.553 Z-0.750 I-0.271 J1.242 K0.000 F200.000
G2 X43.874 Y119.420 Z-0.750 I0.428 J0.620 K0.000 F200.000
G2 X44.323 Y120.280 Z-0.750 I3.904 J-1.494 K0.000 F200.000
G3 X44.363 Y120.491 Z-0.750 I-0.269 J0.160 K0.000 F200.000
G3 X44.128 Y120.540 Z-0.750 I-0.145 J-0.109 K0.000 F200.000
G3 X41.703 Y118.218 Z-0.750 I7.155 J-9.903 K0.000 F200.000
G3 X40.657 Y115.821 Z-0.750 I2.734 J-2.619 K0.000 F200.000
G3 X41.761 Y115.449 Z-0.750 I0.768 J0.453 K0.000 F200.000
G3 X42.091 Y116.148 Z-0.750 I-0.186 J0.515 K0.000 F200.000
G3 X41.705 Y117.039 Z-0.750 I-3.667 J-1.056 K0.000 F200.000
G2 X41.911 Y117.576 Z-0.750 I0.454 J0.134 K0.000 F200.000
G2 X42.726 Y117.969 Z-0.750 I1.028 J-1.093 K0.000 F200.000
G2 X43.745 Y117.784 Z-0.750 I-0.500 J-5.649 K0.000 F200.000
G3 X46.677 Y117.949 Z-0.750 I1.202 J4.791 K0.000 F200.000
G3 X49.514 Y120.614 Z-0.750 I-3.074 J6.114 K0.000 F200.000
G3 X50.492 Y125.043 Z-0.750 I-5.451 J3.526 K0.000 F200.000
G3 X47.784 Y127.152 Z-0.750 I-2.564 J-0.498 K0.000 F200.000
G3 X44.834 Y125.779 Z-0.750 I-0.091 J-3.659 K0.000 F200.000
G1 X44.834 Y125.779 Z-1.000 F100.000
G3 X44.945 Y125.592 Z-1.000 I0.098 J-0.068 K0.000 F200.000
G3 X45.928 Y125.918 Z-1.000 I-1.587 J6.429 K0.000 F200.000
G2 X47.676 Y126.159 Z-1.000 I1.382 J-3.562 K0.000 F200.000
G2 X49.272 Y124.606 Z-1.000 I-0.153 J-1.753 K0.000 F200.000
G2 X49.073 Y122.596 Z-1.000 I-4.767 J-0.543 K0.000 F200.000
G2 X48.078 Y120.296 Z-1.000 I-7.952 J2.074 K0.000 F200.000
G2 X45.066 Y118.411 Z-1.000 I-3.789 J2.705 K0.000 F200.000
G2 X44.157 Y118.553 Z-1.000 I-0.271 J1.242 K0.000 F200.000
G2 X43.874 Y119.420 Z-1.000 I0.428 J0.620 K0.000 F200.000
G2 X44.323 Y120.280 Z-1.000 I3.904 J-1.494 K0.000 F200.000
G3 X44.363 Y120.491 Z-1.000 I-0.269 J0.160 K0.000 F200.000
G3 X44.128 Y120.540 Z-1.000 I-0.145 J-0.109 K0.000 F200.000
G3 X41.703 Y118.218 Z-1.000 I7.155 J-9.903 K0.000 F200.000
G3 X40.657 Y115.821 Z-1.000 I2.734 J-2.619 K0.000 F200.000
G3 X41.761 Y115.449 Z-1.000 I0.768 J0.453 K0.000 F200.000
G3 X42.091 Y116.148 Z-1.000 I-0.186 J0.515 K0.000 F200.000
G3 X41.705 Y117.039 Z-1.000 I-3.667 J-1.056 K0.000 F200.000
G2 X41.911 Y117.576 Z-1.000 I0.454 J0.134 K0.000 F200.000
G2 X42.726 Y117.969 Z-1.000 I1.028 J-1.093 K0.000 F200.000
G2 X43.745 Y117.784 Z-1.000 I-0.500 J-5.649 K0.000 F200.000
G3 X46.677 Y117.949 Z-1.000 I1.202 J4.791 K0.000 F200.000
G3 X49.514 Y120.614 Z-1.000 I-3.074 J6.114 K0.000 F200.000
G3 X50.492 Y125.043 Z-1.000 I-5.451 J3.526 K0.000 F200.000
G3 X47.784 Y127.152 Z-1.000 I-2.564 J-0.498 K0.000 F200.000
G3 X44.834 Y125.779 Z-1.000 I-0.091 J-3.659 K0.000 F200.000
G0 Z5.000
G0 Z5.000
G0 X44.834 Y125.779
G0 X51.828 Y126.701
G0 X51.828 Y126.701 Z3.000
G1 X51.828 Y126.701 Z-0.250 F100.000
G3 X51.876 Y126.585 Z-0.250 I0.241 J0.032 K0.000 F200.000
G3 X52.002 Y126.588 Z-0.250 I0.061 J0.102 K0.000 F200.000
G3 X52.083 Y126.976 Z-0.250 I-0.692 J0.346 K0.000 F200.000
G3 X51.828 Y126.701 Z-0.250 I-0.013 J-0.243 K0.000 F200.000
G1 X51.828 Y126.701 Z-0.500 F100.000
G3 X51.876 Y126.585 Z-0.500 I0.241 J0.032 K0.000 F200.000
G3 X52.002 Y126.588 Z-0.500 I0.061 J0.102 K0.000 F200.000
G3 X52.083 Y126.976 Z-0.500 I-0.692 J0.346 K0.000 F200.000
G3 X51.828 Y126.701 Z-0.500 I-0.013 J-0.243 K0.000 F200.000
G1 X51.828 Y126.701 Z-0.750 F100.000
G3 X51.876 Y126.585 Z-0.750 I0.241 J0.032 K0.000 F200.000
G3 X52.002 Y126.588 Z-0.750 I0.061 J0.102 K0.000 F200.000
G3 X52.083 Y126.976 Z-0.750 I-0.692 J0.346 K0.000 F200.000
G3 X51.828 Y126.701 Z-0.750 I-0.013 J-0.243 K0.000 F200.000
G1 X51.828 Y126.701 Z-1.000 F100.000
G3 X51.876 Y126.585 Z-1.000 I0.241 J0.032 K0.000 F200.000
G3 X52.002 Y126.588 Z-1.000 I0.061 J0.102 K0.000 F200.000
G3 X52.083 Y126.976 Z-1.000 I-0.692 J0.346 K0.000 F200.000
G3 X51.828 Y126.701 Z-1.000 I-0.013 J-0.243 K0.000 F200.000
G0 Z5.000
G0 Z5.000
G0 X51.828 Y126.701
G0 X52.944 Y125.791
G0 X52.944 Y125.791 Z3.000
G1 X52.944 Y125.791 Z-0.250 F100.000
G3 X52.044 Y123.807 Z-0.250 I3.307 J-2.696 K0.000 F200.000
G3 X53.239 Y122.054 Z-0.250 I1.546 J-0.231 K0.000 F200.000
G2 X53.730 Y121.834 Z-0.250 I-0.381 J-1.510 K0.000 F200.000
G2 X53.786 Y121.138 Z-0.250 I-0.248 J-0.370 K0.000 F200.000
G3 X52.882 Y119.910 Z-0.250 I1.831 J-2.295 K0.000 F200.000
G3 X53.351 Y118.317 Z-0.250 I1.216 J-0.508 K0.000 F200.000
G3 X55.038 Y117.815 Z-0.250 I2.272 J4.550 K0.000 F200.000
G3 X59.045 Y117.835 Z-0.250 I1.930 J14.719 K0.000 F200.000
G3 X61.364 Y118.452 Z-0.250 I-0.902 J8.052 K0.000 F200.000
G3 X63.474 Y120.246 Z-0.250 I-1.983 J4.473 K0.000 F200.000
G3 X63.624 Y122.362 Z-0.250 I-2.251 J1.223 K0.000 F200.000
G3 X62.914 Y122.752 Z-0.250 I-0.704 J-0.440 K0.000 F200.000
G3 X62.157 Y122.502 Z-0.250 I-0.119 J-0.911 K0.000 F200.000
G3 X62.105 Y122.218 Z-0.250 I0.339 J-0.209 K0.000 F200.000
G3 X62.281 Y120.654 Z-0.250 I123.271 J13.053 K0.000 F200.000
G2 X62.077 Y119.651 Z-0.250 I-1.445 J-0.228 K0.000 F200.000
G2 X61.390 Y119.085 Z-0.250 I-1.526 J1.153 K0.000 F200.000
G2 X59.167 Y118.294 Z-0.250 I-2.923 J4.696 K0.000 F200.000
G2 X56.682 Y118.250 Z-0.250 I-1.435 J10.661 K0.000 F200.000
G2 X56.361 Y118.827 Z-0.250 I0.106 J0.436 K0.000 F200.000
G2 X58.572 Y125.913 Z-0.250 I90.278 J-24.270 K0.000 F200.000
G2 X59.532 Y126.877 Z-0.250 I1.687 J-0.721 K0.000 F200.000
G3 X59.714 Y127.191 Z-0.250 I-0.175 J0.311 K0.000 F200.000
G3 X59.492 Y127.243 Z-0.250 I-0.149 J-0.135 K0.000 F200.000
G3 X55.801 Y127.088 Z-0.250 I-0.070 J-42.420 K0.000 F200.000
G3 X53.746 Y126.549 Z-0.250 I0.054 J-4.391 K0.000 F200.000
G3 X52.944 Y125.791 Z-0.250 I2.505 J-3.454 K0.000 F200.000
G1 X52.944 Y125.791 Z-0.500 F100.000
G3 X52.044 Y123.807 Z-0.500 I3.307 J-2.696 K0.000 F200.000
G3 X53.239 Y122.054 Z-0.500 I1.546 J-0.231 K0.000 F200.000
G2 X53.730 Y121.834 Z-0.500 I-0.381 J-1.510 K0.000 F200.000
G2 X53.786 Y121.138 Z-0.500 I-0.248 J-0.370 K0.000 F200.000
G3 X52.882 Y119.910 Z-0.500 I1.831 J-2.295 K0.000 F200.000
G3 X53.351 Y118.317 Z-0.500 I1.216 J-0.508 K0.000 F200.000
G3 X55.038 Y117.815 Z-0.500 I2.272 J4.550 K0.000 F200.000
G3 X59.045 Y117.835 Z-0.500 I1.930 J14.719 K0.000 F200.000
G3 X61.364 Y118.452 Z-0.500 I-0.902 J8.052 K0.000 F200.000
G3 X63.474 Y120.246 Z-0.500 I-1.983 J4.473 K0.000 F200.000
G3 X63.624 Y122.362 Z-0.500 I-2.251 J1.223 K0.000 F200.000
G3 X62.914 Y122.752 Z-0.500 I-0.704 J-0.440 K0.000 F200.000
G3 X62.157 Y122.502 Z-0.500 I-0.119 J-0.911 K0.000 F200.000
G3 X62.105 Y122.218 Z-0.500 I0.339 J-0.209 K0.000 F200.000
G3 X62.281 Y120.654 Z-0.500 I123.271 J13.053 K0.000 F200.000
G2 X62.077 Y119.651 Z-0.500 I-1.445 J-0.228 K0.000 F200.000
G2 X61.390 Y119.085 Z-0.500 I-1.526 J1.153 K0.000 F200.000
G2 X59.167 Y118.294 Z-0.500 I-2.923 J4.696 K0.000 F200.000
G2 X56.682 Y118.250 Z-0.500 I-1.435 J10.661 K0.000 F200.000
G2 X56.361 Y118.827 Z-0.500 I0.106 J0.436 K0.000 F200.000
G2 X58.572 Y125.913 Z-0.500 I90.278 J-24.270 K0.000 F200.000
G2 X59.532 Y126.877 Z-0.500 I1.687 J-0.721 K0.000 F200.000
G3 X59.714 Y127.191 Z-0.500 I-0.175 J0.311 K0.000 F200.000
G3 X59.492 Y127.243 Z-0.500 I-0.149 J-0.135 K0.000 F200.000
G3 X55.801 Y127.088 Z-0.500 I-0.070 J-42.420 K0.000 F200.000
G3 X53.746 Y126.549 Z-0.500 I0.054 J-4.391 K0.000 F200.000
G3 X52.944 Y125.791 Z-0.500 I2.505 J-3.454 K0.000 F200.000
G1 X52.944 Y125.791 Z-0.750 F100.000
G3 X52.044 Y123.807 Z-0.750 I3.307 J-2.696 K0.000 F200.000
G3 X53.239 Y122.054 Z-0.750 I1.546 J-0.231 K0.000 F200.000
G2 X53.730 Y121.834 Z-0.750 I-0.381 J-1.510 K0.000 F200.000
G2 X53.786 Y121.138 Z-0.750 I-0.248 J-0.370 K0.000 F200.000
G3 X52.882 Y119.910 Z-0.750 I1.831 J-2.295 K0.000 F200.000
G3 X53.351 Y118.317 Z-0.750 I1.216 J-0.508 K0.000 F200.000
G3 X55.038 Y117.815 Z-0.750 I2.272 J4.550 K0.000 F200.000
G3 X59.045 Y117.835 Z-0.750 I1.930 J14.719 K0.000 F200.000
G3 X61.364 Y118.452 Z-0.750 I-0.902 J8.052 K0.000 F200.000
G3 X63.474 Y120.246 Z-0.750 I-1.983 J4.473 K0.000 F200.000
G3 X63.624 Y122.362 Z-0.750 I-2.251 J1.223 K0.000 F200.000
G3 X62.914 Y122.752 Z-0.750 I-0.704 J-0.440 K0.000 F200.000
G3 X62.157 Y122.502 Z-0.750 I-0.119 J-0.911 K0.000 F200.000
G3 X62.105 Y122.218 Z-0.750 I0.339 J-0.209 K0.000 F200.000
G3 X62.281 Y120.654 Z-0.750 I123.271 J13.053 K0.000 F200.000
G2 X62.077 Y119.651 Z-0.750 I-1.445 J-0.228 K0.000 F200.000
G2 X61.390 Y119.085 Z-0.750 I-1.526 J1.153 K0.000 F200.000
G2 X59.167 Y118.294 Z-0.750 I-2.923 J4.696 K0.000 F200.000
G2 X56.682 Y118.250 Z-0.750 I-1.435 J10.661 K0.000 F200.000
G2 X56.361 Y118.827 Z-0.750 I0.106 J0.436 K0.000 F200.000
G2 X58.572 Y125.913 Z-0.750 I90.278 J-24.270 K0.000 F200.000
G2 X59.532 Y126.877 Z-0.750 I1.687 J-0.721 K0.000 F200.000
G3 X59.714 Y127.191 Z-0.750 I-0.175 J0.311 K0.000 F200.000
G3 X59.492 Y127.243 Z-0.750 I-0.149 J-0.135 K0.000 F200.000
G3 X55.801 Y127.088 Z-0.750 I-0.070 J-42.420 K0.000 F200.000
G3 X53.746 Y126.549 Z-0.750 I0.054 J-4.391 K0.000 F200.000
G3 X52.944 Y125.791 Z-0.750 I2.505 J-3.454 K0.000 F200.000
G1 X52.944 Y125.791 Z-1.000 F100.000
G3 X52.044 Y123.807 Z-1.000 I3.307 J-2.696 K0.000 F200.000
G3 X53.239 Y122.054 Z-1.000 I1.546 J-0.231 K0.000 F200.000
G2 X53.730 Y121.834 Z-1.000 I-0.381 J-1.510 K0.000 F200.000
G2 X53.786 Y121.138 Z-1.000 I-0.248 J-0.370 K0.000 F200.000
G3 X52.882 Y119.910 Z-1.000 I1.831 J-2.295 K0.000 F200.000
G3 X53.351 Y118.317 Z-1.000 I1.216 J-0.508 K0.000 F200.000
G3 X55.038 Y117.815 Z-1.000 I2.272 J4.550 K0.000 F200.000
G3 X59.045 Y117.835 Z-1.000 I1.930 J14.719 K0.000 F200.000
G3 X61.364 Y118.452 Z-1.000 I-0.902 J8.052 K0.000 F200.000
G3 X63.474 Y120.246 Z-1.000 I-1.983 J4.473 K0.000 F200.000
G3 X63.624 Y122.362 Z-1.000 I-2.251 J1.223 K0.000 F200.000
G3 X62.914 Y122.752 Z-1.000 I-0.704 J-0.440 K0.000 F200.000
G3 X62.157 Y122.502 Z-1.000 I-0.119 J-0.911 K0.000 F200.000
G3 X62.105 Y122.218 Z-1.000 I0.339 J-0.209 K0.000 F200.000
G3 X62.281 Y120.654 Z-1.000 I123.271 J13.053 K0.000 F200.000
G2 X62.077 Y119.651 Z-1.000 I-1.445 J-0.228 K0.000 F200.000
G2 X61.390 Y119.085 Z-1.000 I-1.526 J1.153 K0.000 F200.000
G2 X59.167 Y118.294 Z-1.000 I-2.923 J4.696 K0.000 F200.000
G2 X56.682 Y118.250 Z-1.000 I-1.435 J10.661 K0.000 F200.000
G2 X56.361 Y118.827 Z-1.000 I0.106 J0.436 K0.000 F200.000
G2 X58.572 Y125.913 Z-1.000 I90.278 J-24.270 K0.000 F200.000
G2 X59.532 Y126.877 Z-1.000 I1.687 J-0.721 K0.000 F200.000
G3 X59.714 Y127.191 Z-1.000 I-0.175 J0.311 K0.000 F200.000
G3 X59.492 Y127.243 Z-1.000 I-0.149 J-0.135 K0.000 F200.000
G3 X55.801 Y127.088 Z-1.000 I-0.070 J-42.420 K0.000 F200.000
G3 X53.746 Y126.549 Z-1.000 I0.054 J-4.391 K0.000 F200.000
G3 X52.944 Y125.791 Z-1.000 I2.505 J-3.454 K0.000 F200.000
G0 Z5.000
G0 Z5.000
G0 X52.944 Y125.791
G0 X65.839 Y127.028
G0 X65.839 Y127.028 Z3.000
G1 X65.839 Y127.028 Z-0.250 F100.000
G3 X65.876 Y126.824 Z-0.250 I1.248 J0.120 K0.000 F200.000
G3 X66.141 Y126.683 Z-0.250 I0.225 J0.104 K0.000 F200.000
G3 X67.092 Y126.923 Z-0.250 I0.077 J1.701 K0.000 F200.000
G2 X67.565 Y126.469 Z-0.250 I0.166 J-0.300 K0.000 F200.000
G2 X66.963 Y125.427 Z-0.250 I-4.046 J1.642 K0.000 F200.000
G3 X66.238 Y124.043 Z-0.250 I3.275 J-2.597 K0.000 F200.000
G3 X66.620 Y122.960 Z-0.250 I0.970 J-0.266 K0.000 F200.000
G3 X67.893 Y122.751 Z-0.250 I0.803 J0.908 K0.000 F200.000
G3 X68.881 Y123.301 Z-0.250 I-0.600 J2.239 K0.000 F200.000
G3 X68.836 Y124.215 Z-0.250 I-0.603 J0.429 K0.000 F200.000
G3 X68.667 Y124.286 Z-0.250 I-0.173 J-0.177 K0.000 F200.000
G3 X68.045 Y123.783 Z-0.250 I1.925 J-3.016 K0.000 F200.000
G2 X67.226 Y123.455 Z-0.250 I-0.735 J0.649 K0.000 F200.000
G2 X66.905 Y124.139 Z-0.250 I0.065 J0.448 K0.000 F200.000
G2 X68.286 Y125.773 Z-0.250 I6.034 J-3.699 K0.000 F200.000
G3 X69.324 Y126.848 Z-0.250 I-7.135 J7.927 K0.000 F200.000
G3 X69.421 Y127.012 Z-0.250 I-0.172 J0.213 K0.000 F200.000
G3 X68.499 Y127.428 Z-0.250 I-1.472 J-2.031 K0.000 F200.000
G3 X66.251 Y127.630 Z-0.250 I-1.690 J-6.196 K0.000 F200.000
G3 X65.839 Y127.272 Z-0.250 I-0.020 J-0.392 K0.000 F200.000
G3 X65.839 Y127.028 Z-0.250 I1.247 J-0.124 K0.000 F200.000
G1 X65.839 Y127.028 Z-0.500 F100.000
G3 X65.876 Y126.824 Z-0.500 I1.248 J0.120 K0.000 F200.000
G3 X66.141 Y126.683 Z-0.500 I0.225 J0.104 K0.000 F200.000
G3 X67.092 Y126.923 Z-0.500 I0.077 J1.701 K0.000 F200.000
G2 X67.565 Y126.469 Z-0.500 I0.166 J-0.300 K0.000 F200.000
G2 X66.963 Y125.427 Z-0.500 I-4.046 J1.642 K0.000 F200.000
G3 X66.238 Y124.043 Z-0.500 I3.275 J-2.597 K0.000 F200.000
G3 X66.620 Y122.960 Z-0.500 I0.970 J-0.266 K0.000 F200.000
G3 X67.893 Y122.751 Z-0.500 I0.803 J0.908 K0.000 F200.000
G3 X68.881 Y123.301 Z-0.500 I-0.600 J2.239 K0.000 F200.000
G3 X68.836 Y124.215 Z-0.500 I-0.603 J0.429 K0.000 F200.000
G3 X68.667 Y124.286 Z-0.500 I-0.173 J-0.177 K0.000 F200.000
G3 X68.045 Y123.783 Z-0.500 I1.925 J-3.016 K0.000 F200.000
G2 X67.226 Y123.455 Z-0.500 I-0.735 J0.649 K0.000 F200.000
G2 X66.905 Y124.139 Z-0.500 I0.065 J0.448 K0.000 F200.000
G2 X68.286 Y125.773 Z-0.500 I6.034 J-3.699 K0.000 F200.000
G3 X69.324 Y126.848 Z-0.500 I-7.135 J7.927 K0.000 F200.000
G3 X69.421 Y127.012 Z-0.500 I-0.172 J0.213 K0.000 F200.000
G3 X68.499 Y127.428 Z-0.500 I-1.472 J-2.031 K0.000 F200.000
G3 X66.251 Y127.630 Z-0.500 I-1.690 J-6.196 K0.000 F200.000
G3 X65.839 Y127.272 Z-0.500 I-0.020 J-0.392 K0.000 F200.000
G3 X65.839 Y127.028 Z-0.500 I1.247 J-0.124 K0.000 F200.000
G1 X65.839 Y127.028 Z-0.750 F100.000
G3 X65.876 Y126.824 Z-0.750 I1.248 J0.120 K0.000 F200.000
G3 X66.141 Y126.683 Z-0.750 I0.225 J0.104 K0.000 F200.000
G3 X67.092 Y126.923 Z-0.750 I0.077 J1.701 K0.000 F200.000
G2 X67.565 Y126.469 Z-0.750 I0.166 J-0.300 K0.000 F200.000
G2 X66.963 Y125.427 Z-0.750 I-4.046 J1.642 K0.000 F200.000
G3 X66.238 Y124.043 Z-0.750 I3.275 J-2.597 K0.000 F200.000
G3 X66.620 Y122.960 Z-0.750 I0.970 J-0.266 K0.000 F200.000
G3 X67.893 Y122.751 Z-0.750 I0.803 J0.908 K0.000 F200.000
G3 X68.881 Y123.301 Z-0.750 I-0.600 J2.239 K0.000 F200.000
G3 X68.836 Y124.215 Z-0.750 I-0.603 J0.429 K0.000 F200.000
G3 X68.667 Y124.286 Z-0.750 I-0.173 J-0.177 K0.000 F200.000
G3 X68.045 Y123.783 Z-0.750 I1.925 J-3.016 K0.000 F200.000
G2 X67.226 Y123.455 Z-0.750 I-0.735 J0.649 K0.000 F200.000
G2 X66.905 Y124.139 Z-0.750 I0.065 J0.448 K0.000 F200.000
G2 X68.286 Y125.773 Z-0.750 I6.034 J-3.699 K0.000 F200.000
G3 X69.324 Y126.848 Z-0.750 I-7.135 J7.927 K0.000 F200.000
G3 X69.421 Y127.012 Z-0.750 I-0.172 J0.213 K0.000 F200.000
G3 X68.499 Y127.428 Z-0.750 I-1.472 J-2.031 K0.000 F200.000
G3 X66.251 Y127.630 Z-0.750 I-1.690 J-6.196 K0.000 F200.000
G3 X65.839 Y127.272 Z-0.750 I-0.020 J-0.392 K0.000 F200.000
G3 X65.839 Y127.028 Z-0.750 I1.247 J-0.124 K0.000 F200.000
G1 X65.839 Y127.028 Z-1.000 F100.000
G3 X65.876 Y126.824 Z-1.000 I1.248 J0.120 K0.000 F200.000
G3 X66.141 Y126.683 Z-1.000 I0.225 J0.104 K0.000 F200.000
G3 X67.092 Y126.923 Z-1.000 I0.077 J1.701 K0.000 F200.000
G2 X67.565 Y126.469 Z-1.000 I0.166 J-0.300 K0.000 F200.000
G2 X66.963 Y125.427 Z-1.000 I-4.046 J1.642 K0.000 F200.000
G3 X66.238 Y124.043 Z-1.000 I3.275 J-2.597 K0.000 F200.000
G3 X66.620 Y122.960 Z-1.000 I0.970 J-0.266 K0.000 F200.000
G3 X67.893 Y122.751 Z-1.000 I0.803 J0.908 K0.000 F200.000
G3 X68.881 Y123.301 Z-1.000 I-0.600 J2.239 K0.000 F200.000
G3 X68.836 Y124.215 Z-1.000 I-0.603 J0.429 K0.000 F200.000
G3 X68.667 Y124.286 Z-1.000 I-0.173 J-0.177 K0.000 F200.000
G3 X68.045 Y123.783 Z-1.000 I1.925 J-3.016 K0.000 F200.000
G2 X67.226 Y123.455 Z-1.000 I-0.735 J0.649 K0.000 F200.000
G2 X66.905 Y124.139 Z-1.000 I0.065 J0.448 K0.000 F200.000
G2 X68.286 Y125.773 Z-1.000 I6.034 J-3.699 K0.000 F200.000
G3 X69.324 Y126.848 Z-1.000 I-7.135 J7.927 K0.000 F200.000
G3 X69.421 Y127.012 Z-1.000 I-0.172 J0.213 K0.000 F200.000
G3 X68.499 Y127.428 Z-1.000 I-1.472 J-2.031 K0.000 F200.000
G3 X66.251 Y127.630 Z-1.000 I-1.690 J-6.196 K0.000 F200.000
G3 X65.839 Y127.272 Z-1.000 I-0.020 J-0.392 K0.000 F200.000
G3 X65.839 Y127.028 Z-1.000 I1.247 J-0.124 K0.000 F200.000
G0 Z5.000
G0 Z5.000
G0 X65.839 Y127.028
G0 X70.562 Y125.784
G0 X70.562 Y125.784 Z3.000
G1 X70.562 Y125.784 Z-0.250 F100.000
G3 X70.629 Y124.165 Z-0.250 I2.659 J-0.701 K0.000 F200.000
G2 X70.332 Y122.862 Z-0.250 I-1.226 J-0.406 K0.000 F200.000
G3 X70.102 Y121.005 Z-0.250 I1.584 J-1.139 K0.000 F200.000
G3 X71.994 Y120.469 Z-0.250 I1.243 J0.782 K0.000 F200.000
G3 X73.069 Y121.983 Z-0.250 I-0.739 J1.664 K0.000 F200.000
G3 X73.131 Y123.009 Z-0.250 I-20.606 J1.742 K0.000 F200.000
G2 X73.888 Y124.390 Z-0.250 I1.978 J-0.187 K0.000 F200.000
G2 X74.359 Y124.592 Z-0.250 I0.416 J-0.320 K0.000 F200.000
G2 X74.616 Y124.147 Z-0.250 I-0.149 J-0.383 K0.000 F200.000
G3 X75.467 Y122.912 Z-0.250 I1.561 J0.164 K0.000 F200.000
G3 X77.104 Y122.831 Z-0.250 I0.966 J2.961 K0.000 F200.000
G3 X77.984 Y123.743 Z-0.250 I-0.805 J1.657 K0.000 F200.000
G3 X77.745 Y124.197 Z-0.250 I-0.595 J-0.023 K0.000 F200.000
G3 X77.233 Y124.440 Z-0.250 I-0.512 J-0.417 K0.000 F200.000
G3 X76.811 Y124.062 Z-0.250 I0.219 J-0.668 K0.000 F200.000
G2 X76.478 Y123.602 Z-0.250 I-1.451 J0.701 K0.000 F200.000
G2 X75.892 Y123.511 Z-0.250 I-0.368 J0.438 K0.000 F200.000
G2 X75.172 Y124.159 Z-0.250 I0.225 J0.974 K0.000 F200.000
G2 X75.317 Y124.843 Z-0.250 I0.877 J0.171 K0.000 F200.000
G2 X75.850 Y125.403 Z-0.250 I1.354 J-0.753 K0.000 F200.000
G2 X76.398 Y125.504 Z-0.250 I0.412 J-0.701 K0.000 F200.000
G3 X77.188 Y125.365 Z-0.250 I1.615 J6.860 K0.000 F200.000
G3 X77.914 Y125.677 Z-0.250 I0.102 J0.763 K0.000 F200.000
G3 X77.548 Y126.716 Z-0.250 I-0.610 J0.369 K0.000 F200.000
G3 X76.648 Y126.844 Z-0.250 I-0.902 J-3.106 K0.000 F200.000
G2 X76.161 Y127.371 Z-0.250 I0.028 J0.515 K0.000 F200.000
G2 X77.312 Y129.325 Z-0.250 I1.825 J0.240 K0.000 F200.000
G2 X78.043 Y129.120 Z-0.250 I0.250 J-0.516 K0.000 F200.000
G2 X77.951 Y128.552 Z-0.250 I-0.839 J-0.155 K0.000 F200.000
G3 X77.881 Y127.973 Z-0.250 I0.657 J-0.373 K0.000 F200.000
G3 X78.377 Y127.839 Z-0.250 I0.404 J0.509 K0.000 F200.000
G3 X79.338 Y128.413 Z-0.250 I0.128 J0.879 K0.000 F200.000
G3 X79.122 Y129.475 Z-0.250 I-1.346 J0.279 K0.000 F200.000
G3 X78.359 Y129.839 Z-0.250 I-0.824 J-0.746 K0.000 F200.000
G3 X75.669 Y128.831 Z-0.250 I-0.411 J-2.998 K0.000 F200.000
G3 X75.399 Y128.052 Z-0.250 I1.379 J-0.913 K0.000 F200.000
G2 X75.090 Y125.697 Z-0.250 I-8.878 J-0.032 K0.000 F200.000
G2 X74.729 Y125.188 Z-0.250 I-0.849 J0.219 K0.000 F200.000
G2 X74.358 Y125.231 Z-0.250 I-0.161 J0.228 K0.000 F200.000
G2 X73.951 Y125.942 Z-0.250 I1.512 J1.337 K0.000 F200.000
G3 X72.368 Y127.045 Z-0.250 I-1.541 J-0.525 K0.000 F200.000
G3 X70.635 Y126.019 Z-0.250 I-0.115 J-1.783 K0.000 F200.000
G3 X70.562 Y125.784 Z-0.250 I2.586 J-0.936 K0.000 F200.000
G1 X70.562 Y125.784 Z-0.500 F100.000
G3 X70.629 Y124.165 Z-0.500 I2.659 J-0.701 K0.000 F200.000
G2 X70.332 Y122.862 Z-0.500 I-1.226 J-0.406 K0.000 F200.000
G3 X70.102 Y121.005 Z-0.500 I1.584 J-1.139 K0.000 F200.000
G3 X71.994 Y120.469 Z-0.500 I1.243 J0.782 K0.000 F200.000
G3 X73.069 Y121.983 Z-0.500 I-0.739 J1.664 K0.000 F200.000
G3 X73.131 Y123.009 Z-0.500 I-20.606 J1.742 K0.000 F200.000
G2 X73.888 Y124.390 Z-0.500 I1.978 J-0.187 K0.000 F200.000
G2 X74.359 Y124.592 Z-0.500 I0.416 J-0.320 K0.000 F200.000
G2 X74.616 Y124.147 Z-0.500 I-0.149 J-0.383 K0.000 F200.000
G3 X75.467 Y122.912 Z-0.500 I1.561 J0.164 K0.000 F200.000
G3 X77.104 Y122.831 Z-0.500 I0.966 J2.961 K0.000 F200.000
G3 X77.984 Y123.743 Z-0.500 I-0.805 J1.657 K0.000 F200.000
G3 X77.745 Y124.197 Z-0.500 I-0.595 J-0.023 K0.000 F200.000
G3 X77.233 Y124.440 Z-0.500 I-0.512 J-0.417 K0.000 F200.000
G3 X76.811 Y124.062 Z-0.500 I0.219 J-0.668 K0.000 F200.000
G2 X76.478 Y123.602 Z-0.500 I-1.451 J0.701 K0.000 F200.000
G2 X75.892 Y123.511 Z-0.500 I-0.368 J0.438 K0.000 F200.000
G2 X75.172 Y124.159 Z-0.500 I0.225 J0.974 K0.000 F200.000
G2 X75.317 Y124.843 Z-0.500 I0.877 J0.171 K0.000 F200.000
G2 X75.850 Y125.403 Z-0.500 I1.354 J-0.753 K0.000 F200.000
G2 X76.398 Y125.504 Z-0.500 I0.412 J-0.701 K0.000 F200.000
G3 X77.188 Y125.365 Z-0.500 I1.615 J6.860 K0.000 F200.000
G3 X77.914 Y125.677 Z-0.500 I0.102 J0.763 K0.000 F200.000
G3 X77.548 Y126.716 Z-0.500 I-0.610 J0.369 K0.000 F200.000
G3 X76.648 Y126.844 Z-0.500 I-0.902 J-3.106 K0.000 F200.000
G2 X76.161 Y127.371 Z-0.500 I0.028 J0.515 K0.000 F200.000
G2 X77.312 Y129.325 Z-0.500 I1.825 J0.240 K0.000 F200.000
G2 X78.043 Y129.120 Z-0.500 I0.250 J-0.516 K0.000 F200.000
G2 X77.951 Y128.552 Z-0.500 I-0.839 J-0.155 K0.000 F200.000
G3 X77.881 Y127.973 Z-0.500 I0.657 J-0.373 K0.000 F200.000
G3 X78.377 Y127.839 Z-0.500 I0.404 J0.509 K0.000 F200.000
G3 X79.338 Y128.413 Z-0.500 I0.128 J0.879 K0.000 F200.000
G3 X79.122 Y129.475 Z-0.500 I-1.346 J0.279 K0.000 F200.000
G3 X78.359 Y129.839 Z-0.500 I-0.824 J-0.746 K0.000 F200.000
G3 X75.669 Y128.831 Z-0.500 I-0.411 J-2.998 K0.000 F200.000
G3 X75.399 Y128.052 Z-0.500 I1.379 J-0.913 K0.000 F200.000
G2 X75.090 Y125.697 Z-0.500 I-8.878 J-0.032 K0.000 F200.000
G2 X74.729 Y125.188 Z-0.500 I-0.849 J0.219 K0.000 F200.000
G2 X74.358 Y125.231 Z-0.500 I-0.161 J0.228 K0.000 F200.000
G2 X73.951 Y125.942 Z-0.500 I1.512 J1.337 K0.000 F200.000
G3 X72.368 Y127.045 Z-0.500 I-1.541 J-0.525 K0.000 F200.000
G3 X70.635 Y126.019 Z-0.500 I-0.115 J-1.783 K0.000 F200.000
G3 X70.562 Y125.784 Z-0.500 I2.586 J-0.936 K0.000 F200.000
G1 X70.562 Y125.784 Z-0.750 F100.000
G3 X70.629 Y124.165 Z-0.750 I2.659 J-0.701 K0.000 F200.000
G2 X70.332 Y122.862 Z-0.750 I-1.226 J-0.406 K0.000 F200.000
G3 X70.102 Y121.005 Z-0.750 I1.584 J-1.139 K0.000 F200.000
G3 X71.994 Y120.469 Z-0.750 I1.243 J0.782 K0.000 F200.000
G3 X73.069 Y121.983 Z-0.750 I-0.739 J1.664 K0.000 F200.000
G3 X73.131 Y123.009 Z-0.750 I-20.606 J1.742 K0.000 F200.000
G2 X73.888 Y124.390 Z-0.750 I1.978 J-0.187 K0.000 F200.000
G2 X74.359 Y124.592 Z-0.750 I0.416 J-0.320 K0.000 F200.000
G2 X74.616 Y124.147 Z-0.750 I-0.149 J-0.383 K0.000 F200.000
G3 X75.467 Y122.912 Z-0.750 I1.561 J0.164 K0.000 F200.000
G3 X77.104 Y122.831 Z-0.750 I0.966 J2.961 K0.000 F200.000
G3 X77.984 Y123.743 Z-0.750 I-0.805 J1.657 K0.000 F200.000
G3 X77.745 Y124.197 Z-0.750 I-0.595 J-0.023 K0.000 F200.000
G3 X77.233 Y124.440 Z-0.750 I-0.512 J-0.417 K0.000 F200.000
G3 X76.811 Y124.062 Z-0.750 I0.219 J-0.668 K0.000 F200.000
G2 X76.478 Y123.602 Z-0.750 I-1.451 J0.701 K0.000 F200.000
G2 X75.892 Y123.511 Z-0.750 I-0.368 J0.438 K0.000 F200.000
G2 X75.172 Y124.159 Z-0.750 I0.225 J0.974 K0.000 F200.000
G2 X75.317 Y124.843 Z-0.750 I0.877 J0.171 K0.000 F200.000
G2 X75.850 Y125.403 Z-0.750 I1.354 J-0.753 K0.000 F200.000
G2 X76.398 Y125.504 Z-0.750 I0.412 J-0.701 K0.000 F200.000
G3 X77.188 Y125.365 Z-0.750 I1.615 J6.860 K0.000 F200.000
G3 X77.914 Y125.677 Z-0.750 I0.102 J0.763 K0.000 F200.000
G3 X77.548 Y126.716 Z-0.750 I-0.610 J0.369 K0.000 F200.000
G3 X76.648 Y126.844 Z-0.750 I-0.902 J-3.106 K0.000 F200.000
G2 X76.161 Y127.371 Z-0.750 I0.028 J0.515 K0.000 F200.000
G2 X77.312 Y129.325 Z-0.750 I1.825 J0.240 K0.000 F200.000
G2 X78.043 Y129.120 Z-0.750 I0.250 J-0.516 K0.000 F200.000
G2 X77.951 Y128.552 Z-0.750 I-0.839 J-0.155 K0.000 F200.000
G3 X77.881 Y127.973 Z-0.750 I0.657 J-0.373 K0.000 F200.000
G3 X78.377 Y127.839 Z-0.750 I0.404 J0.509 K0.000 F200.000
G3 X79.338 Y128.413 Z-0.750 I0.128 J0.879 K0.000 F200.000
G3 X79.122 Y129.475 Z-0.750 I-1.346 J0.279 K0.000 F200.000
G3 X78.359 Y129.839 Z-0.750 I-0.824 J-0.746 K0.000 F200.000
G3 X75.669 Y128.831 Z-0.750 I-0.411 J-2.998 K0.000 F200.000
G3 X75.399 Y128.052 Z-0.750 I1.379 J-0.913 K0.000 F200.000
G2 X75.090 Y125.697 Z-0.750 I-8.878 J-0.032 K0.000 F200.000
G2 X74.729 Y125.188 Z-0.750 I-0.849 J0.219 K0.000 F200.000
G2 X74.358 Y125.231 Z-0.750 I-0.161 J0.228 K0.000 F200.000
G2 X73.951 Y125.942 Z-0.750 I1.512 J1.337 K0.000 F200.000
G3 X72.368 Y127.045 Z-0.750 I-1.541 J-0.525 K0.000 F200.000
G3 X70.635 Y126.019 Z-0.750 I-0.115 J-1.783 K0.000 F200.000
G3 X70.562 Y125.784 Z-0.750 I2.586 J-0.936 K0.000 F200.000
G1 X70.562 Y125.784 Z-1.000 F100.000
G3 X70.629 Y124.165 Z-1.000 I2.659 J-0.701 K0.000 F200.000
G2 X70.332 Y122.862 Z-1.000 I-1.226 J-0.406 K0.000 F200.000
G3 X70.102 Y121.005 Z-1.000 I1.584 J-1.139 K0.000 F200.000
G3 X71.994 Y120.469 Z-1.000 I1.243 J0.782 K0.000 F200.000
G3 X73.069 Y121.983 Z-1.000 I-0.739 J1.664 K0.000 F200.000
G3 X73.131 Y123.009 Z-1.000 I-20.606 J1.742 K0.000 F200.000
G2 X73.888 Y124.390 Z-1.000 I1.978 J-0.187 K0.000 F200.000
G2 X74.359 Y124.592 Z-1.000 I0.416 J-0.320 K0.000 F200.000
G2 X74.616 Y124.147 Z-1.000 I-0.149 J-0.383 K0.000 F200.000
G3 X75.467 Y122.912 Z-1.000 I1.561 J0.164 K0.000 F200.000
G3 X77.104 Y122.831 Z-1.000 I0.966 J2.961 K0.000 F200.000
G3 X77.984 Y123.743 Z-1.000 I-0.805 J1.657 K0.000 F200.000
G3 X77.745 Y124.197 Z-1.000 I-0.595 J-0.023 K0.000 F200.000
G3 X77.233 Y124.440 Z-1.000 I-0.512 J-0.417 K0.000 F200.000
G3 X76.811 Y124.062 Z-1.000 I0.219 J-0.668 K0.000 F200.000
G2 X76.478 Y123.602 Z-1.000 I-1.451 J0.701 K0.000 F200.000
G2 X75.892 Y123.511 Z-1.000 I-0.368 J0.438 K0.000 F200.000
G2 X75.172 Y124.159 Z-1.000 I0.225 J0.974 K0.000 F200.000
G2 X75.317 Y124.843 Z-1.000 I0.877 J0.171 K0.000 F200.000
G2 X75.850 Y125.403 Z-1.000 I1.354 J-0.753 K0.000 F200.000
G2 X76.398 Y125.504 Z-1.000 I0.412 J-0.701 K0.000 F200.000
G3 X77.188 Y125.365 Z-1.000 I1.615 J6.860 K0.000 F200.000
G3 X77.914 Y125.677 Z-1.000 I0.102 J0.763 K0.000 F200.000
G3 X77.548 Y126.716 Z-1.000 I-0.610 J0.369 K0.000 F200.000
G3 X76.648 Y126.844 Z-1.000 I-0.902 J-3.106 K0.000 F200.000
G2 X76.161 Y127.371 Z-1.000 I0.028 J0.515 K0.000 F200.000
G2 X77.312 Y129.325 Z-1.000 I1.825 J0.240 K0.000 F200.000
G2 X78.043 Y129.120 Z-1.000 I0.250 J-0.516 K0.000 F200.000
G2 X77.951 Y128.552 Z-1.000 I-0.839 J-0.155 K0.000 F200.000
G3 X77.881 Y127.973 Z-1.000 I0.657 J-0.373 K0.000 F200.000
G3 X78.377 Y127.839 Z-1.000 I0.404 J0.509 K0.000 F200.000
G3 X79.338 Y128.413 Z-1.000 I0.128 J0.879 K0.000 F200.000
G3 X79.122 Y129.475 Z-1.000 I-1.346 J0.279 K0.000 F200.000
G3 X78.359 Y129.839 Z-1.000 I-0.824 J-0.746 K0.000 F200.000
G3 X75.669 Y128.831 Z-1.000 I-0.411 J-2.998 K0.000 F200.000
G3 X75.399 Y128.052 Z-1.000 I1.379 J-0.913 K0.000 F200.000
G2 X75.090 Y125.697 Z-1.000 I-8.878 J-0.032 K0.000 F200.000
G2 X74.729 Y125.188 Z-1.000 I-0.849 J0.219 K0.000 F200.000
G2 X74.358 Y125.231 Z-1.000 I-0.161 J0.228 K0.000 F200.000
G2 X73.951 Y125.942 Z-1.000 I1.512 J1.337 K0.000 F200.000
G3 X72.368 Y127.045 Z-1.000 I-1.541 J-0.525 K0.000 F200.000
G3 X70.635 Y126.019 Z-1.000 I-0.115 J-1.783 K0.000 F200.000
G3 X70.562 Y125.784 Z-1.000 I2.586 J-0.936 K0.000 F200.000
G0 Z5.000
G0 Z5.000
G0 X70.562 Y125.784
G0 X81.265 Y125.724
G0 X81.265 Y125.724 Z3.000
G1 X81.265 Y125.724 Z-0.250 F100.000
G3 X81.896 Y125.873 Z-0.250 I0.061 J1.152 K0.000 F200.000
G2 X82.780 Y126.097 Z-0.250 I0.859 J-1.533 K0.000 F200.000
G2 X82.943 Y125.573 Z-0.250 I-0.054 J-0.304 K0.000 F200.000
G2 X82.024 Y124.572 Z-0.250 I-5.248 J3.900 K0.000 F200.000
G3 X81.248 Y123.735 Z-0.250 I3.745 J-4.254 K0.000 F200.000
G3 X81.079 Y123.221 Z-0.250 I0.409 J-0.419 K0.000 F200.000
G3 X81.633 Y122.625 Z-0.250 I1.086 J0.453 K0.000 F200.000
G3 X82.299 Y122.875 Z-0.250 I-0.018 J1.062 K0.000 F200.000
G3 X82.922 Y123.656 Z-0.250 I-0.992 J1.429 K0.000 F200.000
G3 X83.718 Y125.958 Z-0.250 I-9.911 J4.718 K0.000 F200.000
G3 X83.498 Y126.910 Z-0.250 I-0.917 J0.289 K0.000 F200.000
G3 X83.106 Y127.163 Z-0.250 I-0.743 J-0.723 K0.000 F200.000
G3 X81.335 Y125.874 Z-0.250 I3.371 J-6.497 K0.000 F200.000
G3 X81.265 Y125.724 Z-0.250 I0.153 J-0.162 K0.000 F200.000
G1 X81.265 Y125.724 Z-0.500 F100.000
G3 X81.896 Y125.873 Z-0.500 I0.061 J1.152 K0.000 F200.000
G2 X82.780 Y126.097 Z-0.500 I0.859 J-1.533 K0.000 F200.000
G2 X82.943 Y125.573 Z-0.500 I-0.054 J-0.304 K0.000 F200.000
G2 X82.024 Y124.572 Z-0.500 I-5.248 J3.900 K0.000 F200.000
G3 X81.248 Y123.735 Z-0.500 I3.745 J-4.254 K0.000 F200.000
G3 X81.079 Y123.221 Z-0.500 I0.409 J-0.419 K0.000 F200.000
G3 X81.633 Y122.625 Z-0.500 I1.086 J0.453 K0.000 F200.000
G3 X82.299 Y122.875 Z-0.500 I-0.018 J1.062 K0.000 F200.000
G3 X82.922 Y123.656 Z-0.500 I-0.992 J1.429 K0.000 F200.000
G3 X83.718 Y125.958 Z-0.500 I-9.911 J4.718 K0.000 F200.000
G3 X83.498 Y126.910 Z-0.500 I-0.917 J0.289 K0.000 F200.000
G3 X83.106 Y127.163 Z-0.500 I-0.743 J-0.723 K0.000 F200.000
G3 X81.335 Y125.874 Z-0.500 I3.371 J-6.497 K0.000 F200.000
G3 X81.265 Y125.724 Z-0.500 I0.153 J-0.162 K0.000 F200.000
G1 X81.265 Y125.724 Z-0.750 F100.000
G3 X81.896 Y125.873 Z-0.750 I0.061 J1.152 K0.000 F200.000
G2 X82.780 Y126.097 Z-0.750 I0.859 J-1.533 K0.000 F200.000
G2 X82.943 Y125.573 Z-0.750 I-0.054 J-0.304 K0.000 F200.000
G2 X82.024 Y124.572 Z-0.750 I-5.248 J3.900 K0.000 F200.000
G3 X81.248 Y123.735 Z-0.750 I3.745 J-4.254 K0.000 F200.000
G3 X81.079 Y123.221 Z-0.750 I0.409 J-0.419 K0.000 F200.000
G3 X81.633 Y122.625 Z-0.750 I1.086 J0.453 K0.000 F200.000
G3 X82.299 Y122.875 Z-0.750 I-0.018 J1.062 K0.000 F200.000
G3 X82.922 Y123.656 Z-0.750 I-0.992 J1.429 K0.000 F200.000
G3 X83.718 Y125.958 Z-0.750 I-9.911 J4.718 K0.000 F200.000
G3 X83.498 Y126.910 Z-0.750 I-0.917 J0.289 K0.000 F200.000
G3 X83.106 Y127.163 Z-0.750 I-0.743 J-0.723 K0.000 F200.000
G3 X81.335 Y125.874 Z-0.750 I3.371 J-6.497 K0.000 F200.000
G3 X81.265 Y125.724 Z-0.750 I0.153 J-0.162 K0.000 F200.000
G1 X81.265 Y125.724 Z-1.000 F100.000
G3 X81.896 Y125.873 Z-1.000 I0.061 J1.152 K0.000 F200.000
G2 X82.780 Y126.097 Z-1.000 I0.859 J-1.533 K0.000 F200.000
G2 X82.943 Y125.573 Z-1.000 I-0.054 J-0.304 K0.000 F200.000
G2 X82.024 Y124.572 Z-1.000 I-5.248 J3.900 K0.000 F200.000
G3 X81.248 Y123.735 Z-1.000 I3.745 J-4.254 K0.000 F200.000
G3 X81.079 Y123.221 Z-1.000 I0.409 J-0.419 K0.000 F200.000
G3 X81.633 Y122.625 Z-1.000 I1.086 J0.453 K0.000 F200.000
G3 X82.299 Y122.875 Z-1.000 I-0.018 J1.062 K0.000 F200.000
G3 X82.922 Y123.656 Z-1.000 I-0.992 J1.429 K0.000 F200.000
G3 X83.718 Y125.958 Z-1.000 I-9.911 J4.718 K0.000 F200.000
G3 X83.498 Y126.910 Z-1.000 I-0.917 J0.289 K0.000 F200.000
G3 X83.106 Y127.163 Z-1.000 I-0.743 J-0.723 K0.000 F200.000
G3 X81.335 Y125.874 Z-1.000 I3.371 J-6.497 K0.000 F200.000
G3 X81.265 Y125.724 Z-1.000 I0.153 J-0.162 K0.000 F200.000
G0 Z5.000
G0 Z5.000
G0 X81.265 Y125.724
G0 X89.663 Y120.490
G0 X89.663 Y120.490 Z3.000
G1 X89.663 Y120.490 Z-0.250 F100.000
G3 X89.582 Y120.329 Z-0.250 I0.860 J-0.536 K0.000 F200.000
G3 X90.117 Y120.285 Z-0.250 I0.307 J0.462 K0.000 F200.000
G3 X90.067 Y120.859 Z-0.250 I-0.453 J0.250 K0.000 F200.000
G3 X89.663 Y120.490 Z-0.250 I0.456 J-0.904 K0.000 F200.000
G1 X89.663 Y120.490 Z-0.500 F100.000
G3 X89.582 Y120.329 Z-0.500 I0.860 J-0.536 K0.000 F200.000
G3 X90.117 Y120.285 Z-0.500 I0.307 J0.462 K0.000 F200.000
G3 X90.067 Y120.859 Z-0.500 I-0.453 J0.250 K0.000 F200.000
G3 X89.663 Y120.490 Z-0.500 I0.456 J-0.904 K0.000 F200.000
G1 X89.663 Y120.490 Z-0.750 F100.000
G3 X89.582 Y120.329 Z-0.750 I0.860 J-0.536 K0.000 F200.000
G3 X90.117 Y120.285 Z-0.750 I0.307 J0.462 K0.000 F200.000
G3 X90.067 Y120.859 Z-0.750 I-0.453 J0.250 K0.000 F200.000
G3 X89.663 Y120.490 Z-0.750 I0.456 J-0.904 K0.000 F200.000
G1 X89.663 Y120.490 Z-1.000 F100.000
G3 X89.582 Y120.329 Z-1.000 I0.860 J-0.536 K0.000 F200.000
G3 X90.117 Y120.285 Z-1.000 I0.307 J0.462 K0.000 F200.000
G3 X90.067 Y120.859 Z-1.000 I-0.453 J0.250 K0.000 F200.000
G3 X89.663 Y120.490 Z-1.000 I0.456 J-0.904 K0.000 F200.000
G0 Z5.000
G0 Z5.000
G0 X89.663 Y120.490
G0 X88.414 Y112.549
G0 X88.414 Y112.549 Z3.000
G1 X88.414 Y112.549 Z-0.250 F100.000
G3 X86.909 Y112.671 Z-0.250 I-1.562 J-9.925 K0.000 F200.000
G3 X76.780 Y112.638 Z-0.250 I-4.623 J-134.524 K0.000 F200.000
G3 X75.958 Y112.471 Z-0.250 I0.213 J-3.154 K0.000 F200.000
G3 X72.940 Y111.033 Z-0.250 I3.563 J-11.371 K0.000 F200.000
G3 X69.348 Y105.437 Z-0.250 I6.368 J-8.037 K0.000 F200.000
G3 X69.522 Y100.248 Z-0.250 I11.866 J-2.200 K0.000 F200.000
G3 X73.311 Y95.419 Z-0.250 I8.741 J2.958 K0.000 F200.000
G3 X76.557 Y94.313 Z-0.250 I4.198 J7.006 K0.000 F200.000
G3 X82.985 Y94.114 Z-0.250 I5.213 J64.277 K0.000 F200.000
G1 X87.359 Y94.135 Z-0.250 F200.000
G3 X88.540 Y94.234 Z-0.250 I0.122 J5.642 K0.000 F200.000
G3 X88.961 Y94.565 Z-0.250 I-0.297 J0.812 K0.000 F200.000
G3 X88.821 Y94.655 Z-0.250 I-0.319 J-0.339 K0.000 F200.000
G3 X87.458 Y94.974 Z-0.250 I-2.923 J-9.438 K0.000 F200.000
G2 X86.596 Y95.552 Z-0.250 I0.147 J1.150 K0.000 F200.000
G2 X86.351 Y96.715 Z-0.250 I3.229 J1.288 K0.000 F200.000
G2 X86.111 Y105.631 Z-0.250 I122.555 J7.763 K0.000 F200.000
G1 X86.127 Y109.588 Z-0.250 F200.000
G2 X86.275 Y110.844 Z-0.250 I5.678 J-0.033 K0.000 F200.000
G2 X87.190 Y111.679 Z-0.250 I1.006 J-0.184 K0.000 F200.000
G3 X88.571 Y111.820 Z-0.250 I-1.350 J20.107 K0.000 F200.000
G3 X89.106 Y111.998 Z-0.250 I-0.183 J1.440 K0.000 F200.000
G3 X89.195 Y112.182 Z-0.250 I-0.055 J0.141 K0.000 F200.000
G3 X88.968 Y112.446 Z-0.250 I-0.321 J-0.047 K0.000 F200.000
G3 X88.414 Y112.549 Z-0.250 I-2.116 J-9.822 K0.000 F200.000
G1 X88.414 Y112.549 Z-0.500 F100.000
G3 X86.909 Y112.671 Z-0.500 I-1.562 J-9.925 K0.000 F200.000
G3 X76.780 Y112.638 Z-0.500 I-4.623 J-134.524 K0.000 F200.000
G3 X75.958 Y112.471 Z-0.500 I0.213 J-3.154 K0.000 F200.000
G3 X72.940 Y111.033 Z-0.500 I3.563 J-11.371 K0.000 F200.000
G3 X69.348 Y105.437 Z-0.500 I6.368 J-8.037 K0.000 F200.000
G3 X69.522 Y100.248 Z-0.500 I11.866 J-2.200 K0.000 F200.000
G3 X73.311 Y95.419 Z-0.500 I8.741 J2.958 K0.000 F200.000
G3 X76.557 Y94.313 Z-0.500 I4.198 J7.006 K0.000 F200.000
G3 X82.985 Y94.114 Z-0.500 I5.213 J64.277 K0.000 F200.000
G1 X87.359 Y94.135 Z-0.500 F200.000
G3 X88.540 Y94.234 Z-0.500 I0.122 J5.642 K0.000 F200.000
G3 X88.961 Y94.565 Z-0.500 I-0.297 J0.812 K0.000 F200.000
G3 X88.821 Y94.655 Z-0.500 I-0.319 J-0.339 K0.000 F200.000
G3 X87.458 Y94.974 Z-0.500 I-2.923 J-9.438 K0.000 F200.000
G2 X86.596 Y95.552 Z-0.500 I0.147 J1.150 K0.000 F200.000
G2 X86.351 Y96.715 Z-0.500 I3.229 J1.288 K0.000 F200.000
G2 X86.111 Y105.631 Z-0.500 I122.555 J7.763 K0.000 F200.000
G1 X86.127 Y109.588 Z-0.500 F200.000
G2 X86.275 Y110.844 Z-0.500 I5.678 J-0.033 K0.000 F200.000
G2 X87.190 Y111.679 Z-0.500 I1.006 J-0.184 K0.000 F200.000
G3 X88.571 Y111.820 Z-0.500 I-1.350 J20.107 K0.000 F200.000
G3 X89.106 Y111.998 Z-0.500 I-0.183 J1.440 K0.000 F200.000
G3 X89.195 Y112.182 Z-0.500 I-0.055 J0.141 K0.000 F200.000
G3 X88.968 Y112.446 Z-0.500 I-0.321 J-0.047 K0.000 F200.000
G3 X88.414 Y112.549 Z-0.500 I-2.116 J-9.822 K0.000 F200.000
G1 X88.414 Y112.549 Z-0.750 F100.000
G3 X86.909 Y112.671 Z-0.750 I-1.562 J-9.925 K0.000 F200.000
G3 X76.780 Y112.638 Z-0.750 I-4.623 J-134.524 K0.000 F200.000
G3 X75.958 Y112.471 Z-0.750 I0.213 J-3.154 K0.000 F200.000
G3 X72.940 Y111.033 Z-0.750 I3.563 J-11.371 K0.000 F200.000
G3 X69.348 Y105.437 Z-0.750 I6.368 J-8.037 K0.000 F200.000
G3 X69.522 Y100.248 Z-0.750 I11.866 J-2.200 K0.000 F200.000
G3 X73.311 Y95.419 Z-0.750 I8.741 J2.958 K0.000 F200.000
G3 X76.557 Y94.313 Z-0.750 I4.198 J7.006 K0.000 F200.000
G3 X82.985 Y94.114 Z-0.750 I5.213 J64.277 K0.000 F200.000
G1 X87.359 Y94.135 Z-0.750 F200.000
G3 X88.540 Y94.234 Z-0.750 I0.122 J5.642 K0.000 F200.000
G3 X88.961 Y94.565 Z-0.750 I-0.297 J0.812 K0.000 F200.000
G3 X88.821 Y94.655 Z-0.750 I-0.319 J-0.339 K0.000 F200.000
G3 X87.458 Y94.974 Z-0.750 I-2.923 J-9.438 K0.000 F200.000
G2 X86.596 Y95.552 Z-0.750 I0.147 J1.150 K0.000 F200.000
G2 X86.351 Y96.715 Z-0.750 I3.229 J1.288 K0.000 F200.000
G2 X86.111 Y105.631 Z-0.750 I122.555 J7.763 K0.000 F200.000
G1 X86.127 Y109.588 Z-0.750 F200.000
G2 X86.275 Y110.844 Z-0.750 I5.678 J-0.033 K0.000 F200.000
G2 X87.190 Y111.679 Z-0.750 I1.006 J-0.184 K0.000 F200.000
G3 X88.571 Y111.820 Z-0.750 I-1.350 J20.107 K0.000 F200.000
G3 X89.106 Y111.998 Z-0.750 I-0.183 J1.440 K0.000 F200.000
G3 X89.195 Y112.182 Z-0.750 I-0.055 J0.141 K0.000 F200.000
G3 X88.968 Y112.446 Z-0.750 I-0.321 J-0.047 K0.000 F200.000
G3 X88.414 Y112.549 Z-0.750 I-2.116 J-9.822 K0.000 F200.000
G1 X88.414 Y112.549 Z-1.000 F100.000
G3 X86.909 Y112.671 Z-1.000 I-1.562 J-9.925 K0.000 F200.000
G3 X76.780 Y112.638 Z-1.000 I-4.623 J-134.524 K0.000 F200.000
G3 X75.958 Y112.471 Z-1.000 I0.213 J-3.154 K0.000 F200.000
G3 X72.940 Y111.033 Z-1.000 I3.563 J-11.371 K0.000 F200.000
G3 X69.348 Y105.437 Z-1.000 I6.368 J-8.037 K0.000 F200.000
G3 X69.522 Y100.248 Z-1.000 I11.866 J-2.200 K0.000 F200.000
G3 X73.311 Y95.419 Z-1.000 I8.741 J2.958 K0.000 F200.000
G3 X76.557 Y94.313 Z-1.000 I4.198 J7.006 K0.000 F200.000
G3 X82.985 Y94.114 Z-1.000 I5.213 J64.277 K0.000 F200.000
G1 X87.359 Y94.135 Z-1.000 F200.000
G3 X88.540 Y94.234 Z-1.000 I0.122 J5.642 K0.000 F200.000
G3 X88.961 Y94.565 Z-1.000 I-0.297 J0.812 K0.000 F200.000
G3 X88.821 Y94.655 Z-1.000 I-0.319 J-0.339 K0.000 F200.000
G3 X87.458 Y94.974 Z-1.000 I-2.923 J-9.438 K0.000 F200.000
G2 X86.596 Y95.552 Z-1.000 I0.147 J1.150 K0.000 F200.000
G2 X86.351 Y96.715 Z-1.000 I3.229 J1.288 K0.000 F200.000
G2 X86.111 Y105.631 Z-1.000 I122.555 J7.763 K0.000 F200.000
G1 X86.127 Y109.588 Z-1.000 F200.000
G2 X86.275 Y110.844 Z-1.000 I5.678 J-0.033 K0.000 F200.000
G2 X87.190 Y111.679 Z-1.000 I1.006 J-0.184 K0.000 F200.000
G3 X88.571 Y111.820 Z-1.000 I-1.350 J20.107 K0.000 F200.000
G3 X89.106 Y111.998 Z-1.000 I-0.183 J1.440 K0.000 F200.000
G3 X89.195 Y112.182 Z-1.000 I-0.055 J0.141 K0.000 F200.000
G3 X88.968 Y112.446 Z-1.000 I-0.321 J-0.047 K0.000 F200.000
G3 X88.414 Y112.549 Z-1.000 I-2.116 J-9.822 K0.000 F200.000
G0 Z5.000
G0 Z5.000
G0 X88.414 Y112.549
G0 X98.866 Y123.226
G0 X98.866 Y123.226 Z3.000
G1 X98.866 Y123.226 Z-0.250 F100.000
G3 X99.242 Y123.107 Z-0.250 I0.305 J0.312 K0.000 F200.000
G1 X99.232 Y123.153 Z-0.250 F200.000
G3 X98.789 Y123.603 Z-0.250 I-0.645 J-0.192 K0.000 F200.000
G3 X98.736 Y123.572 Z-0.250 I-0.015 J-0.035 K0.000 F200.000
G3 X98.866 Y123.226 Z-0.250 I0.435 J-0.034 K0.000 F200.000
G1 X98.866 Y123.226 Z-0.500 F100.000
G3 X99.242 Y123.107 Z-0.500 I0.305 J0.312 K0.000 F200.000
G1 X99.232 Y123.153 Z-0.500 F200.000
G3 X98.789 Y123.603 Z-0.500 I-0.645 J-0.192 K0.000 F200.000
G3 X98.736 Y123.572 Z-0.500 I-0.015 J-0.035 K0.000 F200.000
G3 X98.866 Y123.226 Z-0.500 I0.435 J-0.034 K0.000 F200.000
G1 X98.866 Y123.226 Z-0.750 F100.000
G3 X99.242 Y123.107 Z-0.750 I0.305 J0.312 K0.000 F200.000
G1 X99.232 Y123.153 Z-0.750 F200.000
G3 X98.789 Y123.603 Z-0.750 I-0.645 J-0.192 K0.000 F200.000
G3 X98.736 Y123.572 Z-0.750 I-0.015 J-0.035 K0.000 F200.000
G3 X98.866 Y123.226 Z-0.750 I0.435 J-0.034 K0.000 F200.000
G1 X98.866 Y123.226 Z-1.000 F100.000
G3 X99.242 Y123.107 Z-1.000 I0.305 J0.312 K0.000 F200.000
G1 X99.232 Y123.153 Z-1.000 F200.000
G3 X98.789 Y123.603 Z-1.000 I-0.645 J-0.192 K0.000 F200.000
G3 X98.736 Y123.572 Z-1.000 I-0.015 J-0.035 K0.000 F200.000
G3 X98.866 Y123.226 Z-1.000 I0.435 J-0.034 K0.000 F200.000
G0 Z5.000
G0 Z5.000
G0 X98.866 Y123.226
G0 X100.226 Y123.130
G0 X100.226 Y123.130 Z3.000
G1 X100.226 Y123.130 Z-0.250 F100.000
G3 X100.225 Y123.100 Z-0.250 I0.561 J-0.040 K0.000 F200.000
G3 X100.870 Y123.841 Z-0.250 I-0.331 J0.940 K0.000 F200.000
G3 X100.533 Y124.545 Z-0.250 I-1.165 J-0.124 K0.000 F200.000
G2 X99.242 Y125.890 Z-0.250 I11.458 J12.289 K0.000 F200.000
G2 X99.591 Y126.523 Z-0.250 I0.394 J0.196 K0.000 F200.000
G2 X100.759 Y126.214 Z-0.250 I0.164 J-1.745 K0.000 F200.000
G3 X100.979 Y126.211 Z-0.250 I0.112 J0.089 K0.000 F200.000
G3 X98.712 Y125.991 Z-0.250 I-1.085 J-0.612 K0.000 F200.000
G3 X99.051 Y125.033 Z-0.250 I1.062 J-0.163 K0.000 F200.000
G3 X99.830 Y124.405 Z-0.250 I2.547 J2.362 K0.000 F200.000
G2 X100.335 Y123.986 Z-0.250 I-0.578 J-1.211 K0.000 F200.000
G2 X100.339 Y123.431 Z-0.250 I-0.453 J-0.281 K0.000 F200.000
G3 X100.226 Y123.130 Z-0.250 I0.448 J-0.340 K0.000 F200.000
G1 X100.226 Y123.130 Z-0.500 F100.000
G3 X100.225 Y123.100 Z-0.500 I0.561 J-0.040 K0.000 F200.000
G3 X100.870 Y123.841 Z-0.500 I-0.331 J0.940 K0.000 F200.000
G3 X100.533 Y124.545 Z-0.500 I-1.165 J-0.124 K0.000 F200.000
G2 X99.242 Y125.890 Z-0.500 I11.458 J12.289 K0.000 F200.000
G2 X99.591 Y126.523 Z-0.500 I0.394 J0.196 K0.000 F200.000
G2 X100.759 Y126.214 Z-0.500 I0.164 J-1.745 K0.000 F200.000
G3 X100.979 Y126.211 Z-0.500 I0.112 J0.089 K0.000 F200.000
G3 X98.712 Y125.991 Z-0.500 I-1.085 J-0.612 K0.000 F200.000
G3 X99.051 Y125.033 Z-0.500 I1.062 J-0.163 K0.000 F200.000
G3 X99.830 Y124.405 Z-0.500 I2.547 J2.362 K0.000 F200.000
G2 X100.335 Y123.986 Z-0.500 I-0.578 J-1.211 K0.000 F200.000
G2 X100.339 Y123.431 Z-0.500 I-0.453 J-0.281 K0.000 F200.000
G3 X100.226 Y123.130 Z-0.500 I0.448 J-0.340 K0.000 F200.000
G1 X100.226 Y123.130 Z-0.750 F100.000
G3 X100.225 Y123.100 Z-0.750 I0.561 J-0.040 K0.000 F200.000
G3 X100.870 Y123.841 Z-0.750 I-0.331 J0.940 K0.000 F200.000
G3 X100.533 Y124.545 Z-0.750 I-1.165 J-0.124 K0.000 F200.000
G2 X99.242 Y125.890 Z-0.750 I11.458 J12.289 K0.000 F200.000
G2 X99.591 Y126.523 Z-0.750 I0.394 J0.196 K0.000 F200.000
G2 X100.759 Y126.214 Z-0.750 I0.164 J-1.745 K0.000 F200.000
G3 X100.979 Y126.211 Z-0.750 I0.112 J0.089 K0.000 F200.000
G3 X98.712 Y125.991 Z-0.750 I-1.085 J-0.612 K0.000 F200.000
G3 X99.051 Y125.033 Z-0.750 I1.062 J-0.163 K0.000 F200.000
G3 X99.830 Y124.405 Z-0.750 I2.547 J2.362 K0.000 F200.000
G2 X100.335 Y123.986 Z-0.750 I-0.578 J-1.211 K0.000 F200.000
G2 X100.339 Y123.431 Z-0.750 I-0.453 J-0.281 K0.000 F200.000
G3 X100.226 Y123.130 Z-0.750 I0.448 J-0.340 K0.000 F200.000
G1 X100.226 Y123.130 Z-1.000 F100.000
G3 X100.225 Y123.100 Z-1.000 I0.561 J-0.040 K0.000 F200.000
G3 X100.870 Y123.841 Z-1.000 I-0.331 J0.940 K0.000 F200.000
G3 X100.533 Y124.545 Z-1.000 I-1.165 J-0.124 K0.000 F200.000
G2 X99.242 Y125.890 Z-1.000 I11.458 J12.289 K0.000 F200.000
G2 X99.591 Y126.523 Z-1.000 I0.394 J0.196 K0.000 F200.000
G2 X100.759 Y126.214 Z-1.000 I0.164 J-1.745 K0.000 F200.000
G3 X100.979 Y126.211 Z-1.000 I0.112 J0.089 K0.000 F200.000
G3 X98.712 Y125.991 Z-1.000 I-1.085 J-0.612 K0.000 F200.000
G3 X99.051 Y125.033 Z-1.000 I1.062 J-0.163 K0.000 F200.000
G3 X99.830 Y124.405 Z-1.000 I2.547 J2.362 K0.000 F200.000
G2 X100.335 Y123.986 Z-1.000 I-0.578 J-1.211 K0.000 F200.000
G2 X100.339 Y123.431 Z-1.000 I-0.453 J-0.281 K0.000 F200.000
G3 X100.226 Y123.130 Z-1.000 I0.448 J-0.340 K0.000 F200.000
G0 Z5.000
G0 Z5.000
G0 X100.226 Y123.130
G0 X95.381 Y126.276
G0 X95.381 Y126.276 Z3.000
G1 X95.381 Y126.276 Z-0.250 F100.000
G3 X95.387 Y126.289 Z-0.250 I-0.047 J0.030 K0.000 F200.000
G3 X95.377 Y126.761 Z-0.250 I-0.423 J0.228 K0.000 F200.000
G3 X93.896 Y126.827 Z-0.250 I-0.802 J-1.332 K0.000 F200.000
G3 X93.369 Y125.702 Z-0.250 I0.646 J-0.988 K0.000 F200.000
G3 X93.822 Y124.390 Z-0.250 I6.255 J1.427 K0.000 F200.000
G2 X93.619 Y123.892 Z-0.250 I-0.372 J-0.138 K0.000 F200.000
G2 X91.671 Y123.651 Z-0.250 I-1.710 J5.833 K0.000 F200.000
G2 X91.473 Y123.929 Z-0.250 I0.050 J0.245 K0.000 F200.000
G1 X91.518 Y124.260 Z-0.250 F200.000
G3 X92.048 Y126.469 Z-0.250 I-15.970 J4.995 K0.000 F200.000
G3 X92.031 Y126.894 Z-0.250 I-0.886 J0.179 K0.000 F200.000
G3 X91.796 Y126.997 Z-0.250 I-0.188 J-0.111 K0.000 F200.000
G3 X91.036 Y126.763 Z-0.250 I0.447 J-2.804 K0.000 F200.000
G2 X90.102 Y126.884 Z-0.250 I-0.324 J1.165 K0.000 F200.000
G3 X89.625 Y126.632 Z-0.250 I-0.088 J-0.413 K0.000 F200.000
G3 X89.146 Y125.415 Z-0.250 I6.541 J-3.277 K0.000 F200.000
G2 X88.589 Y124.298 Z-0.250 I-3.101 J0.848 K0.000 F200.000
G2 X88.015 Y124.499 Z-0.250 I-0.257 J0.185 K0.000 F200.000
G2 X88.290 Y125.700 Z-0.250 I4.150 J-0.318 K0.000 F200.000
G3 X88.449 Y126.539 Z-0.250 I-1.392 J0.698 K0.000 F200.000
G3 X88.287 Y126.924 Z-0.250 I-1.049 J-0.215 K0.000 F200.000
G3 X88.224 Y126.954 Z-0.250 I-0.056 J-0.039 K0.000 F200.000
G2 X87.028 Y126.826 Z-0.250 I-0.937 J3.112 K0.000 F200.000
G3 X86.025 Y126.964 Z-0.250 I-2.340 J-13.256 K0.000 F200.000
G3 X85.174 Y126.617 Z-0.250 I0.088 J-1.434 K0.000 F200.000
G3 X84.635 Y126.069 Z-0.250 I0.528 J-1.058 K0.000 F200.000
G3 X84.635 Y125.826 Z-0.250 I0.331 J-0.120 K0.000 F200.000
G3 X85.204 Y125.990 Z-0.250 I-0.009 J1.097 K0.000 F200.000
G2 X85.686 Y126.122 Z-0.250 I0.515 J-0.934 K0.000 F200.000
G2 X86.073 Y125.806 Z-0.250 I-0.006 J-0.402 K0.000 F200.000
G2 X85.052 Y123.610 Z-0.250 I-2.304 J-0.263 K0.000 F200.000
G2 X84.334 Y123.430 Z-0.250 I-0.831 J1.786 K0.000 F200.000
G3 X84.388 Y122.664 Z-0.250 I0.035 J-0.382 K0.000 F200.000
G3 X85.804 Y123.479 Z-0.250 I-0.040 J1.707 K0.000 F200.000
G3 X86.338 Y124.745 Z-0.250 I-5.206 J2.939 K0.000 F200.000
G2 X86.820 Y125.824 Z-0.250 I3.309 J-0.833 K0.000 F200.000
G2 X87.452 Y125.536 Z-0.250 I0.293 J-0.193 K0.000 F200.000
G3 X86.875 Y123.745 Z-0.250 I47.518 J-16.286 K0.000 F200.000
G3 X86.797 Y123.085 Z-0.250 I1.825 J-0.551 K0.000 F200.000
G3 X87.104 Y122.646 Z-0.250 I0.526 J0.041 K0.000 F200.000
G3 X87.566 Y122.856 Z-0.250 I-0.067 J0.762 K0.000 F200.000
G2 X88.007 Y123.118 Z-0.250 I0.988 J-1.164 K0.000 F200.000
G2 X88.726 Y122.938 Z-0.250 I0.196 J-0.745 K0.000 F200.000
G3 X89.002 Y122.793 Z-0.250 I0.343 J0.317 K0.000 F200.000
G3 X89.763 Y123.155 Z-0.250 I-4.123 J9.674 K0.000 F200.000
G2 X90.341 Y122.943 Z-0.250 I0.177 J-0.410 K0.000 F200.000
G3 X90.964 Y122.771 Z-0.250 I0.496 J0.581 K0.000 F200.000
G3 X91.800 Y123.002 Z-0.250 I-0.559 J3.643 K0.000 F200.000
G2 X92.628 Y122.834 Z-0.250 I0.256 J-0.864 K0.000 F200.000
G3 X93.205 Y122.606 Z-0.250 I0.660 J0.828 K0.000 F200.000
G3 X93.804 Y122.865 Z-0.250 I-0.017 J0.861 K0.000 F200.000
G3 X94.207 Y124.092 Z-0.250 I-0.866 J0.965 K0.000 F200.000
G2 X94.008 Y125.609 Z-0.250 I5.524 J1.497 K0.000 F200.000
G2 X94.658 Y126.199 Z-0.250 I0.695 J-0.113 K0.000 F200.000
G3 X95.343 Y126.252 Z-0.250 I-5.342 J74.184 K0.000 F200.000
G3 X95.381 Y126.276 Z-0.250 I-0.009 J0.055 K0.000 F200.000
G1 X95.381 Y126.276 Z-0.500 F100.000
G3 X95.387 Y126.289 Z-0.500 I-0.047 J0.030 K0.000 F200.000
G3 X95.377 Y126.761 Z-0.500 I-0.423 J0.228 K0.000 F200.000
G3 X93.896 Y126.827 Z-0.500 I-0.802 J-1.332 K0.000 F200.000
G3 X93.369 Y125.702 Z-0.500 I0.646 J-0.988 K0.000 F200.000
G3 X93.822 Y124.390 Z-0.500 I6.255 J1.427 K0.000 F200.000
G2 X93.619 Y123.892 Z-0.500 I-0.372 J-0.138 K0.000 F200.000
G2 X91.671 Y123.651 Z-0.500 I-1.710 J5.833 K0.000 F200.000
G2 X91.473 Y123.929 Z-0.500 I0.050 J0.245 K0.000 F200.000
G1 X91.518 Y124.260 Z-0.500 F200.000
G3 X92.048 Y126.469 Z-0.500 I-15.970 J4.995 K0.000 F200.000
G3 X92.031 Y126.894 Z-0.500 I-0.886 J0.179 K0.000 F200.000
G3 X91.796 Y126.997 Z-0.500 I-0.188 J-0.111 K0.000 F200.000
G3 X91.036 Y126.763 Z-0.500 I0.447 J-2.804 K0.000 F200.000
G2 X90.102 Y126.884 Z-0.500 I-0.324 J1.165 K0.000 F200.000
G3 X89.625 Y126.632 Z-0.500 I-0.088 J-0.413 K0.000 F200.000
G3 X89.146 Y125.415 Z-0.500 I6.541 J-3.277 K0.000 F200.000
G2 X88.589 Y124.298 Z-0.500 I-3.101 J0.848 K0.000 F200.000
G2 X88.015 Y124.499 Z-0.500 I-0.257 J0.185 K0.000 F200.000
G2 X88.290 Y125.700 Z-0.500 I4.150 J-0.318 K0.000 F200.000
G3 X88.449 Y126.539 Z-0.500 I-1.392 J0.698 K0.000 F200.000
G3 X88.287 Y126.924 Z-0.500 I-1.049 J-0.215 K0.000 F200.000
G3 X88.224 Y126.954 Z-0.500 I-0.056 J-0.039 K0.000 F200.000
G2 X87.028 Y126.826 Z-0.500 I-0.937 J3.112 K0.000 F200.000
G3 X86.025 Y126.964 Z-0.500 I-2.340 J-13.256 K0.000 F200.000
G3 X85.174 Y126.617 Z-0.500 I0.088 J-1.434 K0.000 F200.000
G3 X84.635 Y126.069 Z-0.500 I0.528 J-1.058 K0.000 F200.000
G3 X84.635 Y125.826 Z-0.500 I0.331 J-0.120 K0.000 F200.000
G3 X85.204 Y125.990 Z-0.500 I-0.009 J1.097 K0.000 F200.000
G2 X85.686 Y126.122 Z-0.500 I0.515 J-0.934 K0.000 F200.000
G2 X86.073 Y125.806 Z-0.500 I-0.006 J-0.402 K0.000 F200.000
G2 X85.052 Y123.610 Z-0.500 I-2.304 J-0.263 K0.000 F200.000
G2 X84.334 Y123.430 Z-0.500 I-0.831 J1.786 K0.000 F200.000
G3 X84.388 Y122.664 Z-0.500 I0.035 J-0.382 K0.000 F200.000
G3 X85.804 Y123.479 Z-0.500 I-0.040 J1.707 K0.000 F200.000
G3 X86.338 Y124.745 Z-0.500 I-5.206 J2.939 K0.000 F200.000
G2 X86.820 Y125.824 Z-0.500 I3.309 J-0.833 K0.000 F200.000
G2 X87.452 Y125.536 Z-0.500 I0.293 J-0.193 K0.000 F200.000
G3 X86.875 Y123.745 Z-0.500 I47.518 J-16.286 K0.000 F200.000
G3 X86.797 Y123.085 Z-0.500 I1.825 J-0.551 K0.000 F200.000
G3 X87.104 Y122.646 Z-0.500 I0.526 J0.041 K0.000 F200.000
G3 X87.566 Y122.856 Z-0.500 I-0.067 J0.762 K0.000 F200.000
G2 X88.007 Y123.118 Z-0.500 I0.988 J-1.164 K0.000 F200.000
G2 X88.726 Y122.938 Z-0.500 I0.196 J-0.745 K0.000 F200.000
G3 X89.002 Y122.793 Z-0.500 I0.343 J0.317 K0.000 F200.000
G3 X89.763 Y123.155 Z-0.500 I-4.123 J9.674 K0.000 F200.000
G2 X90.341 Y122.943 Z-0.500 I0.177 J-0.410 K0.000 F200.000
G3 X90.964 Y122.771 Z-0.500 I0.496 J0.581 K0.000 F200.000
G3 X91.800 Y123.002 Z-0.500 I-0.559 J3.643 K0.000 F200.000
G2 X92.628 Y122.834 Z-0.500 I0.256 J-0.864 K0.000 F200.000
G3 X93.205 Y122.606 Z-0.500 I0.660 J0.828 K0.000 F200.000
G3 X93.804 Y122.865 Z-0.500 I-0.017 J0.861 K0.000 F200.000
G3 X94.207 Y124.092 Z-0.500 I-0.866 J0.965 K0.000 F200.000
G2 X94.008 Y125.609 Z-0.500 I5.524 J1.497 K0.000 F200.000
G2 X94.658 Y126.199 Z-0.500 I0.695 J-0.113 K0.000 F200.000
G3 X95.343 Y126.252 Z-0.500 I-5.342 J74.184 K0.000 F200.000
G3 X95.381 Y126.276 Z-0.500 I-0.009 J0.055 K0.000 F200.000
G1 X95.381 Y126.276 Z-0.750 F100.000
G3 X95.387 Y126.289 Z-0.750 I-0.047 J0.030 K0.000 F200.000
G3 X95.377 Y126.761 Z-0.750 I-0.423 J0.228 K0.000 F200.000
G3 X93.896 Y126.827 Z-0.750 I-0.802 J-1.332 K0.000 F200.000
G3 X93.369 Y125.702 Z-0.750 I0.646 J-0.988 K0.000 F200.000
G3 X93.822 Y124.390 Z-0.750 I6.255 J1.427 K0.000 F200.000
G2 X93.619 Y123.892 Z-0.750 I-0.372 J-0.138 K0.000 F200.000
G2 X91.671 Y123.651 Z-0.750 I-1.710 J5.833 K0.000 F200.000
G2 X91.473 Y123.929 Z-0.750 I0.050 J0.245 K0.000 F200.000
G1 X91.518 Y124.260 Z-0.750 F200.000
G3 X92.048 Y126.469 Z-0.750 I-15.970 J4.995 K0.000 F200.000
G3 X92.031 Y126.894 Z-0.750 I-0.886 J0.179 K0.000 F200.000
G3 X91.796 Y126.997 Z-0.750 I-0.188 J-0.111 K0.000 F200.000
G3 X91.036 Y126.763 Z-0.750 I0.447 J-2.804 K0.000 F200.000
G2 X90.102 Y126.884 Z-0.750 I-0.324 J1.165 K0.000 F200.000
G3 X89.625 Y126.632 Z-0.750 I-0.088 J-0.413 K0.000 F200.000
G3 X89.146 Y125.415 Z-0.750 I6.541 J-3.277 K0.000 F200.000
G2 X88.589 Y124.298 Z-0.750 I-3.101 J0.848 K0.000 F200.000
G2 X88.015 Y124.499 Z-0.750 I-0.257 J0.185 K0.000 F200.000
G2 X88.290 Y125.700 Z-0.750 I4.150 J-0.318 K0.000 F200.000
G3 X88.449 Y126.539 Z-0.750 I-1.392 J0.698 K0.000 F200.000
G3 X88.287 Y126.924 Z-0.750 I-1.049 J-0.215 K0.000 F200.000
G3 X88.224 Y126.954 Z-0.750 I-0.056 J-0.039 K0.000 F200.000
G2 X87.028 Y126.826 Z-0.750 I-0.937 J3.112 K0.000 F200.000
G3 X86.025 Y126.964 Z-0.750 I-2.340 J-13.256 K0.000 F200.000
G3 X85.174 Y126.617 Z-0.750 I0.088 J-1.434 K0.000 F200.000
G3 X84.635 Y126.069 Z-0.750 I0.528 J-1.058 K0.000 F200.000
G3 X84.635 Y125.826 Z-0.750 I0.331 J-0.120 K0.000 F200.000
G3 X85.204 Y125.990 Z-0.750 I-0.009 J1.097 K0.000 F200.000
G2 X85.686 Y126.122 Z-0.750 I0.515 J-0.934 K0.000 F200.000
G2 X86.073 Y125.806 Z-0.750 I-0.006 J-0.402 K0.000 F200.000
G2 X85.052 Y123.610 Z-0.750 I-2.304 J-0.263 K0.000 F200.000
G2 X84.334 Y123.430 Z-0.750 I-0.831 J1.786 K0.000 F200.000
G3 X84.388 Y122.664 Z-0.750 I0.035 J-0.382 K0.000 F200.000
G3 X85.804 Y123.479 Z-0.750 I-0.040 J1.707 K0.000 F200.000
G3 X86.338 Y124.745 Z-0.750 I-5.206 J2.939 K0.000 F200.000
G2 X86.820 Y125.824 Z-0.750 I3.309 J-0.833 K0.000 F200.000
G2 X87.452 Y125.536 Z-0.750 I0.293 J-0.193 K0.000 F200.000
G3 X86.875 Y123.745 Z-0.750 I47.518 J-16.286 K0.000 F200.000
G3 X86.797 Y123.085 Z-0.750 I1.825 J-0.551 K0.000 F200.000
G3 X87.104 Y122.646 Z-0.750 I0.526 J0.041 K0.000 F200.000
G3 X87.566 Y122.856 Z-0.750 I-0.067 J0.762 K0.000 F200.000
G2 X88.007 Y123.118 Z-0.750 I0.988 J-1.164 K0.000 F200.000
G2 X88.726 Y122.938 Z-0.750 I0.196 J-0.745 K0.000 F200.000
G3 X89.002 Y122.793 Z-0.750 I0.343 J0.317 K0.000 F200.000
G3 X89.763 Y123.155 Z-0.750 I-4.123 J9.674 K0.000 F200.000
G2 X90.341 Y122.943 Z-0.750 I0.177 J-0.410 K0.000 F200.000
G3 X90.964 Y122.771 Z-0.750 I0.496 J0.581 K0.000 F200.000
G3 X91.800 Y123.002 Z-0.750 I-0.559 J3.643 K0.000 F200.000
G2 X92.628 Y122.834 Z-0.750 I0.256 J-0.864 K0.000 F200.000
G3 X93.205 Y122.606 Z-0.750 I0.660 J0.828 K0.000 F200.000
G3 X93.804 Y122.865 Z-0.750 I-0.017 J0.861 K0.000 F200.000
G3 X94.207 Y124.092 Z-0.750 I-0.866 J0.965 K0.000 F200.000
G2 X94.008 Y125.609 Z-0.750 I5.524 J1.497 K0.000 F200.000
G2 X94.658 Y126.199 Z-0.750 I0.695 J-0.113 K0.000 F200.000
G3 X95.343 Y126.252 Z-0.750 I-5.342 J74.184 K0.000 F200.000
G3 X95.381 Y126.276 Z-0.750 I-0.009 J0.055 K0.000 F200.000
G1 X95.381 Y126.276 Z-1.000 F100.000
G3 X95.387 Y126.289 Z-1.000 I-0.047 J0.030 K0.000 F200.000
G3 X95.377 Y126.761 Z-1.000 I-0.423 J0.228 K0.000 F200.000
G3 X93.896 Y126.827 Z-1.000 I-0.802 J-1.332 K0.000 F200.000
G3 X93.369 Y125.702 Z-1.000 I0.646 J-0.988 K0.000 F200.000
G3 X93.822 Y124.390 Z-1.000 I6.255 J1.427 K0.000 F200.000
G2 X93.619 Y123.892 Z-1.000 I-0.372 J-0.138 K0.000 F200.000
G2 X91.671 Y123.651 Z-1.000 I-1.710 J5.833 K0.000 F200.000
G2 X91.473 Y123.929 Z-1.000 I0.050 J0.245 K0.000 F200.000
G1 X91.518 Y124.260 Z-1.000 F200.000
G3 X92.048 Y126.469 Z-1.000 I-15.970 J4.995 K0.000 F200.000
G3 X92.031 Y126.894 Z-1.000 I-0.886 J0.179 K0.000 F200.000
G3 X91.796 Y126.997 Z-1.000 I-0.188 J-0.111 K0.000 F200.000
G3 X91.036 Y126.763 Z-1.000 I0.447 J-2.804 K0.000 F200.000
G2 X90.102 Y126.884 Z-1.000 I-0.324 J1.165 K0.000 F200.000
G3 X89.625 Y126.632 Z-1.000 I-0.088 J-0.413 K0.000 F200.000
G3 X89.146 Y125.415 Z-1.000 I6.541 J-3.277 K0.000 F200.000
G2 X88.589 Y124.298 Z-1.000 I-3.101 J0.848 K0.000 F200.000
G2 X88.015 Y124.499 Z-1.000 I-0.257 J0.185 K0.000 F200.000
G2 X88.290 Y125.700 Z-1.000 I4.150 J-0.318 K0.000 F200.000
G3 X88.449 Y126.539 Z-1.000 I-1.392 J0.698 K0.000 F200.000
G3 X88.287 Y126.924 Z-1.000 I-1.049 J-0.215 K0.000 F200.000
G3 X88.224 Y126.954 Z-1.000 I-0.056 J-0.039 K0.000 F200.000
G2 X87.028 Y126.826 Z-1.000 I-0.937 J3.112 K0.000 F200.000
G3 X86.025 Y126.964 Z-1.000 I-2.340 J-13.256 K0.000 F200.000
G3 X85.174 Y126.617 Z-1.000 I0.088 J-1.434 K0.000 F200.000
G3 X84.635 Y126.069 Z-1.000 I0.528 J-1.058 K0.000 F200.000
G3 X84.635 Y125.826 Z-1.000 I0.331 J-0.120 K0.000 F200.000
G3 X85.204 Y125.990 Z-1.000 I-0.009 J1.097 K0.000 F200.000
G2 X85.686 Y126.122 Z-1.000 I0.515 J-0.934 K0.000 F200.000
G2 X86.073 Y125.806 Z-1.000 I-0.006 J-0.402 K0.000 F200.000
G2 X85.052 Y123.610 Z-1.000 I-2.304 J-0.263 K0.000 F200.000
G2 X84.334 Y123.430 Z-1.000 I-0.831 J1.786 K0.000 F200.000
G3 X84.388 Y122.664 Z-1.000 I0.035 J-0.382 K0.000 F200.000
G3 X85.804 Y123.479 Z-1.000 I-0.040 J1.707 K0.000 F200.000
G3 X86.338 Y124.745 Z-1.000 I-5.206 J2.939 K0.000 F200.000
G2 X86.820 Y125.824 Z-1.000 I3.309 J-0.833 K0.000 F200.000
G2 X87.452 Y125.536 Z-1.000 I0.293 J-0.193 K0.000 F200.000
G3 X86.875 Y123.745 Z-1.000 I47.518 J-16.286 K0.000 F200.000
G3 X86.797 Y123.085 Z-1.000 I1.825 J-0.551 K0.000 F200.000
G3 X87.104 Y122.646 Z-1.000 I0.526 J0.041 K0.000 F200.000
G3 X87.566 Y122.856 Z-1.000 I-0.067 J0.762 K0.000 F200.000
G2 X88.007 Y123.118 Z-1.000 I0.988 J-1.164 K0.000 F200.000
G2 X88.726 Y122.938 Z-1.000 I0.196 J-0.745 K0.000 F200.000
G3 X89.002 Y122.793 Z-1.000 I0.343 J0.317 K0.000 F200.000
G3 X89.763 Y123.155 Z-1.000 I-4.123 J9.674 K0.000 F200.000
G2 X90.341 Y122.943 Z-1.000 I0.177 J-0.410 K0.000 F200.000
G3 X90.964 Y122.771 Z-1.000 I0.496 J0.581 K0.000 F200.000
G3 X91.800 Y123.002 Z-1.000 I-0.559 J3.643 K0.000 F200.000
G2 X92.628 Y122.834 Z-1.000 I0.256 J-0.864 K0.000 F200.000
G3 X93.205 Y122.606 Z-1.000 I0.660 J0.828 K0.000 F200.000
G3 X93.804 Y122.865 Z-1.000 I-0.017 J0.861 K0.000 F200.000
G3 X94.207 Y124.092 Z-1.000 I-0.866 J0.965 K0.000 F200.000
G2 X94.008 Y125.609 Z-1.000 I5.524 J1.497 K0.000 F200.000
G2 X94.658 Y126.199 Z-1.000 I0.695 J-0.113 K0.000 F200.000
G3 X95.343 Y126.252 Z-1.000 I-5.342 J74.184 K0.000 F200.000
G3 X95.381 Y126.276 Z-1.000 I-0.009 J0.055 K0.000 F200.000
G0 Z5.000
G0 Z5.000
G0 X95.381 Y126.276
G0 X101.748 Y126.524
G0 X101.748 Y126.524 Z3.000
G1 X101.748 Y126.524 Z-0.250 F100.000
G2 X101.981 Y122.757 Z-0.250 I-47.147 J-4.803 K0.000 F200.000
G3 X102.108 Y120.101 Z-0.250 I40.833 J0.628 K0.000 F200.000
G3 X102.586 Y120.288 Z-0.250 I0.014 J0.669 K0.000 F200.000
G3 X102.565 Y121.241 Z-0.250 I-2.778 J0.416 K0.000 F200.000
G2 X102.568 Y122.265 Z-0.250 I4.100 J0.499 K0.000 F200.000
G2 X103.018 Y123.017 Z-0.250 I1.447 J-0.355 K0.000 F200.000
G3 X102.870 Y123.316 Z-0.250 I-0.469 J-0.046 K0.000 F200.000
G2 X102.579 Y124.590 Z-0.250 I2.931 J1.342 K0.000 F200.000
G2 X102.628 Y125.709 Z-0.250 I4.614 J0.356 K0.000 F200.000
G2 X103.689 Y126.460 Z-0.250 I0.857 J-0.086 K0.000 F200.000
G2 X104.906 Y125.026 Z-0.250 I-0.398 J-1.572 K0.000 F200.000
G2 X104.218 Y123.270 Z-0.250 I-2.264 J-0.126 K0.000 F200.000
G3 X105.180 Y123.976 Z-0.250 I-0.098 J1.142 K0.000 F200.000
G3 X105.163 Y126.154 Z-0.250 I-2.131 J1.072 K0.000 F200.000
G3 X104.166 Y126.693 Z-0.250 I-0.921 J-0.512 K0.000 F200.000
G3 X101.884 Y126.569 Z-0.250 I-0.603 J-9.990 K0.000 F200.000
G1 X101.748 Y126.524 Z-0.250 F200.000
G1 X101.748 Y126.524 Z-0.500 F100.000
G2 X101.981 Y122.757 Z-0.500 I-47.147 J-4.803 K0.000 F200.000
G3 X102.108 Y120.101 Z-0.500 I40.833 J0.628 K0.000 F200.000
G3 X102.586 Y120.288 Z-0.500 I0.014 J0.669 K0.000 F200.000
G3 X102.565 Y121.241 Z-0.500 I-2.778 J0.416 K0.000 F200.000
G2 X102.568 Y122.265 Z-0.500 I4.100 J0.499 K0.000 F200.000
G2 X103.018 Y123.017 Z-0.500 I1.447 J-0.355 K0.000 F200.000
G3 X102.870 Y123.316 Z-0.500 I-0.469 J-0.046 K0.000 F200.000
G2 X102.579 Y124.590 Z-0.500 I2.931 J1.342 K0.000 F200.000
G2 X102.628 Y125.709 Z-0.500 I4.614 J0.356 K0.000 F200.000
G2 X103.689 Y126.460 Z-0.500 I0.857 J-0.086 K0.000 F200.000
G2 X104.906 Y125.026 Z-0.500 I-0.398 J-1.572 K0.000 F200.000
G2 X104.218 Y123.270 Z-0.500 I-2.264 J-0.126 K0.000 F200.000
G3 X105.180 Y123.976 Z-0.500 I-0.098 J1.142 K0.000 F200.000
G3 X105.163 Y126.154 Z-0.500 I-2.131 J1.072 K0.000 F200.000
G3 X104.166 Y126.693 Z-0.500 I-0.921 J-0.512 K0.000 F200.000
G3 X101.884 Y126.569 Z-0.500 I-0.603 J-9.990 K0.000 F200.000
G1 X101.748 Y126.524 Z-0.500 F200.000
G1 X101.748 Y126.524 Z-0.750 F100.000
G2 X101.981 Y122.757 Z-0.750 I-47.147 J-4.803 K0.000 F200.000
G3 X102.108 Y120.101 Z-0.750 I40.833 J0.628 K0.000 F200.000
G3 X102.586 Y120.288 Z-0.750 I0.014 J0.669 K0.000 F200.000
G3 X102.565 Y121.241 Z-0.750 I-2.778 J0.416 K0.000 F200.000
G2 X102.568 Y122.265 Z-0.750 I4.100 J0.499 K0.000 F200.000
G2 X103.018 Y123.017 Z-0.750 I1.447 J-0.355 K0.000 F200.000
G3 X102.870 Y123.316 Z-0.750 I-0.469 J-0.046 K0.000 F200.000
G2 X102.579 Y124.590 Z-0.750 I2.931 J1.342 K0.000 F200.000
G2 X102.628 Y125.709 Z-0.750 I4.614 J0.356 K0.000 F200.000
G2 X103.689 Y126.460 Z-0.750 I0.857 J-0.086 K0.000 F200.000
G2 X104.906 Y125.026 Z-0.750 I-0.398 J-1.572 K0.000 F200.000
G2 X104.218 Y123.270 Z-0.750 I-2.264 J-0.126 K0.000 F200.000
G3 X105.180 Y123.976 Z-0.750 I-0.098 J1.142 K0.000 F200.000
G3 X105.163 Y126.154 Z-0.750 I-2.131 J1.072 K0.000 F200.000
G3 X104.166 Y126.693 Z-0.750 I-0.921 J-0.512 K0.000 F200.000
G3 X101.884 Y126.569 Z-0.750 I-0.603 J-9.990 K0.000 F200.000
G1 X101.748 Y126.524 Z-0.750 F200.000
G1 X101.748 Y126.524 Z-1.000 F100.000
G2 X101.981 Y122.757 Z-1.000 I-47.147 J-4.803 K0.000 F200.000
G3 X102.108 Y120.101 Z-1.000 I40.833 J0.628 K0.000 F200.000
G3 X102.586 Y120.288 Z-1.000 I0.014 J0.669 K0.000 F200.000
G3 X102.565 Y121.241 Z-1.000 I-2.778 J0.416 K0.000 F200.000
G2 X102.568 Y122.265 Z-1.000 I4.100 J0.499 K0.000 F200.000
G2 X103.018 Y123.017 Z-1.000 I1.447 J-0.355 K0.000 F200.000
G3 X102.870 Y123.316 Z-1.000 I-0.469 J-0.046 K0.000 F200.000
G2 X102.579 Y124.590 Z-1.000 I2.931 J1.342 K0.000 F200.000
G2 X102.628 Y125.709 Z-1.000 I4.614 J0.356 K0.000 F200.000
G2 X103.689 Y126.460 Z-1.000 I0.857 J-0.086 K0.000 F200.000
G2 X104.906 Y125.026 Z-1.000 I-0.398 J-1.572 K0.000 F200.000
G2 X104.218 Y123.270 Z-1.000 I-2.264 J-0.126 K0.000 F200.000
G3 X105.180 Y123.976 Z-1.000 I-0.098 J1.142 K0.000 F200.000
G3 X105.163 Y126.154 Z-1.000 I-2.131 J1.072 K0.000 F200.000
G3 X104.166 Y126.693 Z-1.000 I-0.921 J-0.512 K0.000 F200.000
G3 X101.884 Y126.569 Z-1.000 I-0.603 J-9.990 K0.000 F200.000
G1 X101.748 Y126.524 Z-1.000 F200.000
G0 Z5.000
G0 Z5.000
G0 X101.748 Y126.524
G0 X105.963 Y126.616
G0 X105.963 Y126.616 Z3.000
G1 X105.963 Y126.616 Z-0.250 F100.000
G3 X105.976 Y126.565 Z-0.250 I0.113 J0.002 K0.000 F200.000
G2 X106.300 Y124.044 Z-0.250 I-7.894 J-2.294 K0.000 F200.000
G3 X106.920 Y122.953 Z-0.250 I1.552 J0.161 K0.000 F200.000
G3 X107.712 Y123.037 Z-0.250 I0.179 J2.092 K0.000 F200.000
G2 X109.378 Y123.133 Z-0.250 I1.079 J-4.217 K0.000 F200.000
G3 X109.574 Y123.329 Z-0.250 I0.055 J0.141 K0.000 F200.000
G2 X109.381 Y126.024 Z-0.250 I7.553 J1.896 K0.000 F200.000
G2 X110.160 Y126.441 Z-0.250 I0.543 J-0.077 K0.000 F200.000
G2 X110.584 Y125.951 Z-0.250 I-0.255 J-0.649 K0.000 F200.000
G2 X110.687 Y124.803 Z-0.250 I-3.964 J-0.934 K0.000 F200.000
G3 X110.808 Y123.637 Z-0.250 I4.497 J-0.120 K0.000 F200.000
G3 X111.160 Y123.027 Z-0.250 I0.923 J0.126 K0.000 F200.000
G3 X111.705 Y122.983 Z-0.250 I0.320 J0.568 K0.000 F200.000
G3 X113.045 Y123.972 Z-0.250 I-0.859 J2.565 K0.000 F200.000
G1 X113.053 Y124.012 Z-0.250 F200.000
G3 X112.353 Y123.408 Z-0.250 I3.880 J-5.201 K0.000 F200.000
G2 X111.777 Y123.426 Z-0.250 I-0.274 J0.462 K0.000 F200.000
G2 X111.104 Y124.130 Z-0.250 I0.377 J1.033 K0.000 F200.000
G2 X111.415 Y124.732 Z-0.250 I0.694 J0.022 K0.000 F200.000
G2 X112.501 Y125.479 Z-0.250 I8.880 J-11.736 K0.000 F200.000
G3 X112.994 Y125.900 Z-0.250 I-0.943 J1.604 K0.000 F200.000
G3 X112.867 Y126.746 Z-0.250 I-0.704 J0.326 K0.000 F200.000
G3 X111.944 Y126.693 Z-0.250 I-0.302 J-2.781 K0.000 F200.000
G2 X110.350 Y126.773 Z-0.250 I-0.583 J4.263 K0.000 F200.000
G3 X108.653 Y126.675 Z-0.250 I-0.532 J-5.481 K0.000 F200.000
G2 X108.806 Y124.649 Z-0.250 I-38.286 J-3.901 K0.000 F200.000
G2 X108.668 Y123.923 Z-0.250 I-1.249 J-0.139 K0.000 F200.000
G2 X107.799 Y123.294 Z-0.250 I-1.088 J0.588 K0.000 F200.000
G2 X106.854 Y123.978 Z-0.250 I-0.102 J0.855 K0.000 F200.000
G2 X106.785 Y126.062 Z-0.250 I4.019 J1.176 K0.000 F200.000
G2 X107.036 Y126.672 Z-0.250 I11.698 J-4.451 K0.000 F200.000
G3 X105.995 Y126.697 Z-0.250 I-0.581 J-2.520 K0.000 F200.000
G3 X105.963 Y126.616 Z-0.250 I0.081 J-0.079 K0.000 F200.000
G1 X105.963 Y126.616 Z-0.500 F100.000
G3 X105.976 Y126.565 Z-0.500 I0.113 J0.002 K0.000 F200.000
G2 X106.300 Y124.044 Z-0.500 I-7.894 J-2.294 K0.000 F200.000
G3 X106.920 Y122.953 Z-0.500 I1.552 J0.161 K0.000 F200.000
G3 X107.712 Y123.037 Z-0.500 I0.179 J2.092 K0.000 F200.000
G2 X109.378 Y123.133 Z-0.500 I1.079 J-4.217 K0.000 F200.000
G3 X109.574 Y123.329 Z-0.500 I0.055 J0.141 K0.000 F200.000
G2 X109.381 Y126.024 Z-0.500 I7.553 J1.896 K0.000 F200.000
G2 X110.160 Y126.441 Z-0.500 I0.543 J-0.077 K0.000 F200.000
G2 X110.584 Y125.951 Z-0.500 I-0.255 J-0.649 K0.000 F200.000
G2 X110.687 Y124.803 Z-0.500 I-3.964 J-0.934 K0.000 F200.000
G3 X110.808 Y123.637 Z-0.500 I4.497 J-0.120 K0.000 F200.000
G3 X111.160 Y123.027 Z-0.500 I0.923 J0.126 K0.000 F200.000
G3 X111.705 Y122.983 Z-0.500 I0.320 J0.568 K0.000 F200.000
G3 X113.045 Y123.972 Z-0.500 I-0.859 J2.565 K0.000 F200.000
G1 X113.053 Y124.012 Z-0.500 F200.000
G3 X112.353 Y123.408 Z-0.500 I3.880 J-5.201 K0.000 F200.000
G2 X111.777 Y123.426 Z-0.500 I-0.274 J0.462 K0.000 F200.000
G2 X111.104 Y124.130 Z-0.500 I0.377 J1.033 K0.000 F200.000
G2 X111.415 Y124.732 Z-0.500 I0.694 J0.022 K0.000 F200.000
G2 X112.501 Y125.479 Z-0.500 I8.880 J-11.736 K0.000 F200.000
G3 X112.994 Y125.900 Z-0.500 I-0.943 J1.604 K0.000 F200.000
G3 X112.867 Y126.746 Z-0.500 I-0.704 J0.326 K0.000 F200.000
G3 X111.944 Y126.693 Z-0.500 I-0.302 J-2.781 K0.000 F200.000
G2 X110.350 Y126.773 Z-0.500 I-0.583 J4.263 K0.000 F200.000
G3 X108.653 Y126.675 Z-0.500 I-0.532 J-5.481 K0.000 F200.000
G2 X108.806 Y124.649 Z-0.500 I-38.286 J-3.901 K0.000 F200.000
G2 X108.668 Y123.923 Z-0.500 I-1.249 J-0.139 K0.000 F200.000
G2 X107.799 Y123.294 Z-0.500 I-1.088 J0.588 K0.000 F200.000
G2 X106.854 Y123.978 Z-0.500 I-0.102 J0.855 K0.000 F200.000
G2 X106.785 Y126.062 Z-0.500 I4.019 J1.176 K0.000 F200.000
G2 X107.036 Y126.672 Z-0.500 I11.698 J-4.451 K0.000 F200.000
G3 X105.995 Y126.697 Z-0.500 I-0.581 J-2.520 K0.000 F200.000
G3 X105.963 Y126.616 Z-0.500 I0.081 J-0.079 K0.000 F200.000
G1 X105.963 Y126.616 Z-0.750 F100.000
G3 X105.976 Y126.565 Z-0.750 I0.113 J0.002 K0.000 F200.000
G2 X106.300 Y124.044 Z-0.750 I-7.894 J-2.294 K0.000 F200.000
G3 X106.920 Y122.953 Z-0.750 I1.552 J0.161 K0.000 F200.000
G3 X107.712 Y123.037 Z-0.750 I0.179 J2.092 K0.000 F200.000
G2 X109.378 Y123.133 Z-0.750 I1.079 J-4.217 K0.000 F200.000
G3 X109.574 Y123.329 Z-0.750 I0.055 J0.141 K0.000 F200.000
G2 X109.381 Y126.024 Z-0.750 I7.553 J1.896 K0.000 F200.000
G2 X110.160 Y126.441 Z-0.750 I0.543 J-0.077 K0.000 F200.000
G2 X110.584 Y125.951 Z-0.750 I-0.255 J-0.649 K0.000 F200.000
G2 X110.687 Y124.803 Z-0.750 I-3.964 J-0.934 K0.000 F200.000
G3 X110.808 Y123.637 Z-0.750 I4.497 J-0.120 K0.000 F200.000
G3 X111.160 Y123.027 Z-0.750 I0.923 J0.126 K0.000 F200.000
G3 X111.705 Y122.983 Z-0.750 I0.320 J0.568 K0.000 F200.000
G3 X113.045 Y123.972 Z-0.750 I-0.859 J2.565 K0.000 F200.000
G1 X113.053 Y124.012 Z-0.750 F200.000
G3 X112.353 Y123.408 Z-0.750 I3.880 J-5.201 K0.000 F200.000
G2 X111.777 Y123.426 Z-0.750 I-0.274 J0.462 K0.000 F200.000
G2 X111.104 Y124.130 Z-0.750 I0.377 J1.033 K0.000 F200.000
G2 X111.415 Y124.732 Z-0.750 I0.694 J0.022 K0.000 F200.000
G2 X112.501 Y125.479 Z-0.750 I8.880 J-11.736 K0.000 F200.000
G3 X112.994 Y125.900 Z-0.750 I-0.943 J1.604 K0.000 F200.000
G3 X112.867 Y126.746 Z-0.750 I-0.704 J0.326 K0.000 F200.000
G3 X111.944 Y126.693 Z-0.750 I-0.302 J-2.781 K0.000 F200.000
G2 X110.350 Y126.773 Z-0.750 I-0.583 J4.263 K0.000 F200.000
G3 X108.653 Y126.675 Z-0.750 I-0.532 J-5.481 K0.000 F200.000
G2 X108.806 Y124.649 Z-0.750 I-38.286 J-3.901 K0.000 F200.000
G2 X108.668 Y123.923 Z-0.750 I-1.249 J-0.139 K0.000 F200.000
G2 X107.799 Y123.294 Z-0.750 I-1.088 J0.588 K0.000 F200.000
G2 X106.854 Y123.978 Z-0.750 I-0.102 J0.855 K0.000 F200.000
G2 X106.785 Y126.062 Z-0.750 I4.019 J1.176 K0.000 F200.000
G2 X107.036 Y126.672 Z-0.750 I11.698 J-4.451 K0.000 F200.000
G3 X105.995 Y126.697 Z-0.750 I-0.581 J-2.520 K0.000 F200.000
G3 X105.963 Y126.616 Z-0.750 I0.081 J-0.079 K0.000 F200.000
G1 X105.963 Y126.616 Z-1.000 F100.000
G3 X105.976 Y126.565 Z-1.000 I0.113 J0.002 K0.000 F200.000
G2 X106.300 Y124.044 Z-1.000 I-7.894 J-2.294 K0.000 F200.000
G3 X106.920 Y122.953 Z-1.000 I1.552 J0.161 K0.000 F200.000
G3 X107.712 Y123.037 Z-1.000 I0.179 J2.092 K0.000 F200.000
G2 X109.378 Y123.133 Z-1.000 I1.079 J-4.217 K0.000 F200.000
G3 X109.574 Y123.329 Z-1.000 I0.055 J0.141 K0.000 F200.000
G2 X109.381 Y126.024 Z-1.000 I7.553 J1.896 K0.000 F200.000
G2 X110.160 Y126.441 Z-1.000 I0.543 J-0.077 K0.000 F200.000
G2 X110.584 Y125.951 Z-1.000 I-0.255 J-0.649 K0.000 F200.000
G2 X110.687 Y124.803 Z-1.000 I-3.964 J-0.934 K0.000 F200.000
G3 X110.808 Y123.637 Z-1.000 I4.497 J-0.120 K0.000 F200.000
G3 X111.160 Y123.027 Z-1.000 I0.923 J0.126 K0.000 F200.000
G3 X111.705 Y122.983 Z-1.000 I0.320 J0.568 K0.000 F200.000
G3 X113.045 Y123.972 Z-1.000 I-0.859 J2.565 K0.000 F200.000
G1 X113.053 Y124.012 Z-1.000 F200.000
G3 X112.353 Y123.408 Z-1.000 I3.880 J-5.201 K0.000 F200.000
G2 X111.777 Y123.426 Z-1.000 I-0.274 J0.462 K0.000 F200.000
G2 X111.104 Y124.130 Z-1.000 I0.377 J1.033 K0.000 F200.000
G2 X111.415 Y124.732 Z-1.000 I0.694 J0.022 K0.000 F200.000
G2 X112.501 Y125.479 Z-1.000 I8.880 J-11.736 K0.000 F200.000
G3 X112.994 Y125.900 Z-1.000 I-0.943 J1.604 K0.000 F200.000
G3 X112.867 Y126.746 Z-1.000 I-0.704 J0.326 K0.000 F200.000
G3 X111.944 Y126.693 Z-1.000 I-0.302 J-2.781 K0.000 F200.000
G2 X110.350 Y126.773 Z-1.000 I-0.583 J4.263 K0.000 F200.000
G3 X108.653 Y126.675 Z-1.000 I-0.532 J-5.481 K0.000 F200.000
G2 X108.806 Y124.649 Z-1.000 I-38.286 J-3.901 K0.000 F200.000
G2 X108.668 Y123.923 Z-1.000 I-1.249 J-0.139 K0.000 F200.000
G2 X107.799 Y123.294 Z-1.000 I-1.088 J0.588 K0.000 F200.000
G2 X106.854 Y123.978 Z-1.000 I-0.102 J0.855 K0.000 F200.000
G2 X106.785 Y126.062 Z-1.000 I4.019 J1.176 K0.000 F200.000
G2 X107.036 Y126.672 Z-1.000 I11.698 J-4.451 K0.000 F200.000
G3 X105.995 Y126.697 Z-1.000 I-0.581 J-2.520 K0.000 F200.000
G3 X105.963 Y126.616 Z-1.000 I0.081 J-0.079 K0.000 F200.000
G0 Z5.000
G0 Z5.000
G0 X105.963 Y126.616
G0 X115.125 Y123.305
G0 X115.125 Y123.305 Z3.000
G1 X115.125 Y123.305 Z-0.250 F100.000
G3 X114.864 Y122.578 Z-0.250 I119.470 J-43.168 K0.000 F200.000
G2 X113.045 Y118.419 Z-0.250 I-26.432 J9.088 K0.000 F200.000
G3 X114.604 Y118.477 Z-0.250 I0.639 J3.798 K0.000 F200.000
G1 X114.642 Y118.504 Z-0.250 F200.000
G2 X114.343 Y120.005 Z-0.250 I1.100 J1.000 K0.000 F200.000
G2 X115.972 Y124.447 Z-0.250 I27.794 J-7.674 K0.000 F200.000
G2 X116.331 Y124.789 Z-0.250 I0.485 J-0.148 K0.000 F200.000
G2 X116.584 Y124.680 Z-0.250 I0.017 J-0.308 K0.000 F200.000
G2 X117.626 Y122.370 Z-0.250 I-5.324 J-3.790 K0.000 F200.000
G2 X117.519 Y121.794 Z-0.250 I-1.492 J-0.021 K0.000 F200.000
G2 X116.119 Y118.845 Z-0.250 I-12.102 J3.938 K0.000 F200.000
G3 X115.880 Y118.480 Z-0.250 I1.956 J-1.545 K0.000 F200.000
G3 X117.229 Y118.467 Z-0.250 I0.704 J2.938 K0.000 F200.000
G3 X117.237 Y118.478 Z-0.250 I-0.001 J0.010 K0.000 F200.000
G2 X116.995 Y119.163 Z-0.250 I5.720 J2.411 K0.000 F200.000
G2 X117.024 Y119.826 Z-0.250 I1.219 J0.279 K0.000 F200.000
G2 X117.808 Y121.268 Z-0.250 I3.029 J-0.713 K0.000 F200.000
G2 X118.250 Y121.208 Z-0.250 I0.192 J-0.245 K0.000 F200.000
G2 X118.944 Y119.258 Z-0.250 I-5.331 J-2.996 K0.000 F200.000
G2 X118.789 Y118.505 Z-0.250 I-1.365 J-0.111 K0.000 F200.000
G3 X120.418 Y118.489 Z-0.250 I0.847 J3.265 K0.000 F200.000
G2 X119.219 Y120.959 Z-0.250 I54.339 J27.885 K0.000 F200.000
G2 X118.680 Y122.840 Z-0.250 I4.756 J2.381 K0.000 F200.000
G2 X119.472 Y124.737 Z-0.250 I2.141 J0.220 K0.000 F200.000
G2 X119.920 Y124.624 Z-0.250 I0.165 J-0.292 K0.000 F200.000
G2 X121.143 Y122.085 Z-0.250 I-17.080 J-9.795 K0.000 F200.000
G2 X122.067 Y119.638 Z-0.250 I-17.906 J-8.155 K0.000 F200.000
G2 X122.157 Y118.628 Z-0.250 I-2.676 J-0.747 K0.000 F200.000
G3 X122.291 Y118.437 Z-0.250 I0.169 J-0.024 K0.000 F200.000
G3 X123.635 Y118.385 Z-0.250 I0.856 J4.729 K0.000 F200.000
G3 X124.035 Y118.505 Z-0.250 I-0.047 J0.890 K0.000 F200.000
G1 X124.019 Y118.541 Z-0.250 F200.000
G2 X122.369 Y121.463 Z-0.250 I12.603 J9.041 K0.000 F200.000
G3 X120.222 Y126.446 Z-0.250 I-98.189 J-39.352 K0.000 F200.000
G3 X120.022 Y126.577 Z-0.250 I-0.142 J0.002 K0.000 F200.000
G3 X119.616 Y126.117 Z-0.250 I0.799 J-1.115 K0.000 F200.000
G2 X118.394 Y124.162 Z-0.250 I-12.333 J6.350 K0.000 F200.000
G2 X117.843 Y124.230 Z-0.250 I-0.253 J0.214 K0.000 F200.000
G2 X117.122 Y125.727 Z-0.250 I11.066 J6.250 K0.000 F200.000
G3 X116.564 Y126.783 Z-0.250 I-4.065 J-1.474 K0.000 F200.000
G1 X116.502 Y126.841 Z-0.250 F200.000
G3 X116.393 Y126.666 Z-0.250 I0.549 J-0.465 K0.000 F200.000
G3 X115.125 Y123.305 Z-0.250 I118.202 J-46.529 K0.000 F200.000
G1 X115.125 Y123.305 Z-0.500 F100.000
G3 X114.864 Y122.578 Z-0.500 I119.470 J-43.168 K0.000 F200.000
G2 X113.045 Y118.419 Z-0.500 I-26.432 J9.088 K0.000 F200.000
G3 X114.604 Y118.477 Z-0.500 I0.639 J3.798 K0.000 F200.000
G1 X114.642 Y118.504 Z-0.500 F200.000
G2 X114.343 Y120.005 Z-0.500 I1.100 J1.000 K0.000 F200.000
G2 X115.972 Y124.447 Z-0.500 I27.794 J-7.674 K0.000 F200.000
G2 X116.331 Y124.789 Z-0.500 I0.485 J-0.148 K0.000 F200.000
G2 X116.584 Y124.680 Z-0.500 I0.017 J-0.308 K0.000 F200.000
G2 X117.626 Y122.370 Z-0.500 I-5.324 J-3.790 K0.000 F200.000
G2 X117.519 Y121.794 Z-0.500 I-1.492 J-0.021 K0.000 F200.000
G2 X116.119 Y118.845 Z-0.500 I-12.102 J3.938 K0.000 F200.000
G3 X115.880 Y118.480 Z-0.500 I1.956 J-1.545 K0.000 F200.000
G3 X117.229 Y118.467 Z-0.500 I0.704 J2.938 K0.000 F200.000
G3 X117.237 Y118.478 Z-0.500 I-0.001 J0.010 K0.000 F200.000
G2 X116.995 Y119.163 Z-0.500 I5.720 J2.411 K0.000 F200.000
G2 X117.024 Y119.826 Z-0.500 I1.219 J0.279 K0.000 F200.000
G2 X117.808 Y121.268 Z-0.500 I3.029 J-0.713 K0.000 F200.000
G2 X118.250 Y121.208 Z-0.500 I0.192 J-0.245 K0.000 F200.000
G2 X118.944 Y119.258 Z-0.500 I-5.331 J-2.996 K0.000 F200.000
G2 X118.789 Y118.505 Z-0.500 I-1.365 J-0.111 K0.000 F200.000
G3 X120.418 Y118.489 Z-0.500 I0.847 J3.265 K0.000 F200.000
G2 X119.219 Y120.959 Z-0.500 I54.339 J27.885 K0.000 F200.000
G2 X118.680 Y122.840 Z-0.500 I4.756 J2.381 K0.000 F200.000
G2 X119.472 Y124.737 Z-0.500 I2.141 J0.220 K0.000 F200.000
G2 X119.920 Y124.624 Z-0.500 I0.165 J-0.292 K0.000 F200.000
G2 X121.143 Y122.085 Z-0.500 I-17.080 J-9.795 K0.000 F200.000
G2 X122.067 Y119.638 Z-0.500 I-17.906 J-8.155 K0.000 F200.000
G2 X122.157 Y118.628 Z-0.500 I-2.676 J-0.747 K0.000 F200.000
G3 X122.291 Y118.437 Z-0.500 I0.169 J-0.024 K0.000 F200.000
G3 X123.635 Y118.385 Z-0.500 I0.856 J4.729 K0.000 F200.000
G3 X124.035 Y118.505 Z-0.500 I-0.047 J0.890 K0.000 F200.000
G1 X124.019 Y118.541 Z-0.500 F200.000
G2 X122.369 Y121.463 Z-0.500 I12.603 J9.041 K0.000 F200.000
G3 X120.222 Y126.446 Z-0.500 I-98.189 J-39.352 K0.000 F200.000
G3 X120.022 Y126.577 Z-0.500 I-0.142 J0.002 K0.000 F200.000
G3 X119.616 Y126.117 Z-0.500 I0.799 J-1.115 K0.000 F200.000
G2 X118.394 Y124.162 Z-0.500 I-12.333 J6.350 K0.000 F200.000
G2 X117.843 Y124.230 Z-0.500 I-0.253 J0.214 K0.000 F200.000
G2 X117.122 Y125.727 Z-0.500 I11.066 J6.250 K0.000 F200.000
G3 X116.564 Y126.783 Z-0.500 I-4.065 J-1.474 K0.000 F200.000
G1 X116.502 Y126.841 Z-0.500 F200.000
G3 X116.393 Y126.666 Z-0.500 I0.549 J-0.465 K0.000 F200.000
G3 X115.125 Y123.305 Z-0.500 I118.202 J-46.529 K0.000 F200.000
G1 X115.125 Y123.305 Z-0.750 F100.000
G3 X114.864 Y122.578 Z-0.750 I119.470 J-43.168 K0.000 F200.000
G2 X113.045 Y118.419 Z-0.750 I-26.432 J9.088 K0.000 F200.000
G3 X114.604 Y118.477 Z-0.750 I0.639 J3.798 K0.000 F200.000
G1 X114.642 Y118.504 Z-0.750 F200.000
G2 X114.343 Y120.005 Z-0.750 I1.100 J1.000 K0.000 F200.000
G2 X115.972 Y124.447 Z-0.750 I27.794 J-7.674 K0.000 F200.000
G2 X116.331 Y124.789 Z-0.750 I0.485 J-0.148 K0.000 F200.000
G2 X116.584 Y124.680 Z-0.750 I0.017 J-0.308 K0.000 F200.000
G2 X117.626 Y122.370 Z-0.750 I-5.324 J-3.790 K0.000 F200.000
G2 X117.519 Y121.794 Z-0.750 I-1.492 J-0.021 K0.000 F200.000
G2 X116.119 Y118.845 Z-0.750 I-12.102 J3.938 K0.000 F200.000
G3 X115.880 Y118.480 Z-0.750 I1.956 J-1.545 K0.000 F200.000
G3 X117.229 Y118.467 Z-0.750 I0.704 J2.938 K0.000 F200.000
G3 X117.237 Y118.478 Z-0.750 I-0.001 J0.010 K0.000 F200.000
G2 X116.995 Y119.163 Z-0.750 I5.720 J2.411 K0.000 F200.000
G2 X117.024 Y119.826 Z-0.750 I1.219 J0.279 K0.000 F200.000
G2 X117.808 Y121.268 Z-0.750 I3.029 J-0.713 K0.000 F200.000
G2 X118.250 Y121.208 Z-0.750 I0.192 J-0.245 K0.000 F200.000
G2 X118.944 Y119.258 Z-0.750 I-5.331 J-2.996 K0.000 F200.000
G2 X118.789 Y118.505 Z-0.750 I-1.365 J-0.111 K0.000 F200.000
G3 X120.418 Y118.489 Z-0.750 I0.847 J3.265 K0.000 F200.000
G2 X119.219 Y120.959 Z-0.750 I54.339 J27.885 K0.000 F200.000
G2 X118.680 Y122.840 Z-0.750 I4.756 J2.381 K0.000 F200.000
G2 X119.472 Y124.737 Z-0.750 I2.141 J0.220 K0.000 F200.000
G2 X119.920 Y124.624 Z-0.750 I0.165 J-0.292 K0.000 F200.000
G2 X121.143 Y122.085 Z-0.750 I-17.080 J-9.795 K0.000 F200.000
G2 X122.067 Y119.638 Z-0.750 I-17.906 J-8.155 K0.000 F200.000
G2 X122.157 Y118.628 Z-0.750 I-2.676 J-0.747 K0.000 F200.000
G3 X122.291 Y118.437 Z-0.750 I0.169 J-0.024 K0.000 F200.000
G3 X123.635 Y118.385 Z-0.750 I0.856 J4.729 K0.000 F200.000
G3 X124.035 Y118.505 Z-0.750 I-0.047 J0.890 K0.000 F200.000
G1 X124.019 Y118.541 Z-0.750 F200.000
G2 X122.369 Y121.463 Z-0.750 I12.603 J9.041 K0.000 F200.000
G3 X120.222 Y126.446 Z-0.750 I-98.189 J-39.352 K0.000 F200.000
G3 X120.022 Y126.577 Z-0.750 I-0.142 J0.002 K0.000 F200.000
G3 X119.616 Y126.117 Z-0.750 I0.799 J-1.115 K0.000 F200.000
G2 X118.394 Y124.162 Z-0.750 I-12.333 J6.350 K0.000 F200.000
G2 X117.843 Y124.230 Z-0.750 I-0.253 J0.214 K0.000 F200.000
G2 X117.122 Y125.727 Z-0.750 I11.066 J6.250 K0.000 F200.000
G3 X116.564 Y126.783 Z-0.750 I-4.065 J-1.474 K0.000 F200.000
G1 X116.502 Y126.841 Z-0.750 F200.000
G3 X116.393 Y126.666 Z-0.750 I0.549 J-0.465 K0.000 F200.000
G3 X115.125 Y123.305 Z-0.750 I118.202 J-46.529 K0.000 F200.000
G1 X115.125 Y123.305 Z-1.000 F100.000
G3 X114.864 Y122.578 Z-1.000 I119.470 J-43.168 K0.000 F200.000
G2 X113.045 Y118.419 Z-1.000 I-26.432 J9.088 K0.000 F200.000
G3 X114.604 Y118.477 Z-1.000 I0.639 J3.798 K0.000 F200.000
G1 X114.642 Y118.504 Z-1.000 F200.000
G2 X114.343 Y120.005 Z-1.000 I1.100 J1.000 K0.000 F200.000
G2 X115.972 Y124.447 Z-1.000 I27.794 J-7.674 K0.000 F200.000
G2 X116.331 Y124.789 Z-1.000 I0.485 J-0.148 K0.000 F200.000
G2 X116.584 Y124.680 Z-1.000 I0.017 J-0.308 K0.000 F200.000
G2 X117.626 Y122.370 Z-1.000 I-5.324 J-3.790 K0.000 F200.000
G2 X117.519 Y121.794 Z-1.000 I-1.492 J-0.021 K0.000 F200.000
G2 X116.119 Y118.845 Z-1.000 I-12.102 J3.938 K0.000 F200.000
G3 X115.880 Y118.480 Z-1.000 I1.956 J-1.545 K0.000 F200.000
G3 X117.229 Y118.467 Z-1.000 I0.704 J2.938 K0.000 F200.000
G3 X117.237 Y118.478 Z-1.000 I-0.001 J0.010 K0.000 F200.000
G2 X116.995 Y119.163 Z-1.000 I5.720 J2.411 K0.000 F200.000
G2 X117.024 Y119.826 Z-1.000 I1.219 J0.279 K0.000 F200.000
G2 X117.808 Y121.268 Z-1.000 I3.029 J-0.713 K0.000 F200.000
G2 X118.250 Y121.208 Z-1.000 I0.192 J-0.245 K0.000 F200.000
G2 X118.944 Y119.258 Z-1.000 I-5.331 J-2.996 K0.000 F200.000
G2 X118.789 Y118.505 Z-1.000 I-1.365 J-0.111 K0.000 F200.000
G3 X120.418 Y118.489 Z-1.000 I0.847 J3.265 K0.000 F200.000
G2 X119.219 Y120.959 Z-1.000 I54.339 J27.885 K0.000 F200.000
G2 X118.680 Y122.840 Z-1.000 I4.756 J2.381 K0.000 F200.000
G2 X119.472 Y124.737 Z-1.000 I2.141 J0.220 K0.000 F200.000
G2 X119.920 Y124.624 Z-1.000 I0.165 J-0.292 K0.000 F200.000
G2 X121.143 Y122.085 Z-1.000 I-17.080 J-9.795 K0.000 F200.000
G2 X122.067 Y119.638 Z-1.000 I-17.906 J-8.155 K0.000 F200.000
G2 X122.157 Y118.628 Z-1.000 I-2.676 J-0.747 K0.000 F200.000
G3 X122.291 Y118.437 Z-1.000 I0.169 J-0.024 K0.000 F200.000
G3 X123.635 Y118.385 Z-1.000 I0.856 J4.729 K0.000 F200.000
G3 X124.035 Y118.505 Z-1.000 I-0.047 J0.890 K0.000 F200.000
G1 X124.019 Y118.541 Z-1.000 F200.000
G2 X122.369 Y121.463 Z-1.000 I12.603 J9.041 K0.000 F200.000
G3 X120.222 Y126.446 Z-1.000 I-98.189 J-39.352 K0.000 F200.000
G3 X120.022 Y126.577 Z-1.000 I-0.142 J0.002 K0.000 F200.000
G3 X119.616 Y126.117 Z-1.000 I0.799 J-1.115 K0.000 F200.000
G2 X118.394 Y124.162 Z-1.000 I-12.333 J6.350 K0.000 F200.000
G2 X117.843 Y124.230 Z-1.000 I-0.253 J0.214 K0.000 F200.000
G2 X117.122 Y125.727 Z-1.000 I11.066 J6.250 K0.000 F200.000
G3 X116.564 Y126.783 Z-1.000 I-4.065 J-1.474 K0.000 F200.000
G1 X116.502 Y126.841 Z-1.000 F200.000
G3 X116.393 Y126.666 Z-1.000 I0.549 J-0.465 K0.000 F200.000
G3 X115.125 Y123.305 Z-1.000 I118.202 J-46.529 K0.000 F200.000
G0 Z5.000
G0 Z5.000
G0 X115.125 Y123.305
G0 X126.267 Y123.912
G0 X126.267 Y123.912 Z3.000
G1 X126.267 Y123.912 Z-0.250 F100.000
G3 X126.351 Y123.669 Z-0.250 I0.468 J0.025 K0.000 F200.000
G3 X128.082 Y123.094 Z-0.250 I1.249 J0.868 K0.000 F200.000
G3 X128.754 Y126.239 Z-0.250 I-1.196 J1.899 K0.000 F200.000
G3 X126.660 Y126.520 Z-0.250 I-1.198 J-0.983 K0.000 F200.000
G3 X126.507 Y126.335 Z-0.250 I0.339 J-0.437 K0.000 F200.000
G2 X127.812 Y126.176 Z-0.250 I0.160 J-4.110 K0.000 F200.000
G2 X128.514 Y125.142 Z-0.250 I-0.394 J-1.023 K0.000 F200.000
G2 X128.440 Y124.622 Z-0.250 I-0.641 J-0.174 K0.000 F200.000
G2 X128.115 Y124.422 Z-0.250 I-0.442 J0.353 K0.000 F200.000
G2 X126.960 Y124.358 Z-0.250 I-1.813 J22.215 K0.000 F200.000
G3 X126.390 Y124.255 Z-0.250 I-0.013 J-1.560 K0.000 F200.000
G3 X126.267 Y123.912 Z-0.250 I0.345 J-0.317 K0.000 F200.000
G1 X126.267 Y123.912 Z-0.500 F100.000
G3 X126.351 Y123.669 Z-0.500 I0.468 J0.025 K0.000 F200.000
G3 X128.082 Y123.094 Z-0.500 I1.249 J0.868 K0.000 F200.000
G3 X128.754 Y126.239 Z-0.500 I-1.196 J1.899 K0.000 F200.000
G3 X126.660 Y126.520 Z-0.500 I-1.198 J-0.983 K0.000 F200.000
G3 X126.507 Y126.335 Z-0.500 I0.339 J-0.437 K0.000 F200.000
G2 X127.812 Y126.176 Z-0.500 I0.160 J-4.110 K0.000 F200.000
G2 X128.514 Y125.142 Z-0.500 I-0.394 J-1.023 K0.000 F200.000
G2 X128.440 Y124.622 Z-0.500 I-0.641 J-0.174 K0.000 F200.000
G2 X128.115 Y124.422 Z-0.500 I-0.442 J0.353 K0.000 F200.000
G2 X126.960 Y124.358 Z-0.500 I-1.813 J22.215 K0.000 F200.000
G3 X126.390 Y124.255 Z-0.500 I-0.013 J-1.560 K0.000 F200.000
G3 X126.267 Y123.912 Z-0.500 I0.345 J-0.317 K0.000 F200.000
G1 X126.267 Y123.912 Z-0.750 F100.000
G3 X126.351 Y123.669 Z-0.750 I0.468 J0.025 K0.000 F200.000
G3 X128.082 Y123.094 Z-0.750 I1.249 J0.868 K0.000 F200.000
G3 X128.754 Y126.239 Z-0.750 I-1.196 J1.899 K0.000 F200.000
G3 X126.660 Y126.520 Z-0.750 I-1.198 J-0.983 K0.000 F200.000
G3 X126.507 Y126.335 Z-0.750 I0.339 J-0.437 K0.000 F200.000
G2 X127.812 Y126.176 Z-0.750 I0.160 J-4.110 K0.000 F200.000
G2 X128.514 Y125.142 Z-0.750 I-0.394 J-1.023 K0.000 F200.000
G2 X128.440 Y124.622 Z-0.750 I-0.641 J-0.174 K0.000 F200.000
G2 X128.115 Y124.422 Z-0.750 I-0.442 J0.353 K0.000 F200.000
G2 X126.960 Y124.358 Z-0.750 I-1.813 J22.215 K0.000 F200.000
G3 X126.390 Y124.255 Z-0.750 I-0.013 J-1.560 K0.000 F200.000
G3 X126.267 Y123.912 Z-0.750 I0.345 J-0.317 K0.000 F200.000
G1 X126.267 Y123.912 Z-1.000 F100.000
