(Exported by FreeCAD)
(Post Processor: grbl_post)
(Output Time:2022-11-27 15:54:00.308469)
(Begin preamble)
G17 G90
G21
(Begin operation: 0.5mm Endmill001)
(Path: 0.5mm Endmill001)
(0.5mm Endmill001)
(Begin toolchange)
( M6 T3.0 )
M3 S24000.0
(Finish operation: 0.5mm Endmill001)
(Begin operation: Fixture)
(Path: Fixture)
G54
G0 Z5.000
(Finish operation: Fixture)
(Begin operation: Profile001)
(Path: Profile001)
(Profile001)
(Compensated Tool Path. Diameter: 0.5)
G0 Z5.000
G0 X32.913 Y128.357
G0 Z3.000
G1 X32.913 Y128.357 Z-0.200 F100.000
G2 X31.680 Y127.674 Z-0.200 I-38.204 J67.544 K0.000 F200.000
G2 X31.278 Y127.730 Z-0.200 I-0.169 J0.261 K0.000 F200.000
G2 X30.556 Y128.755 Z-0.200 I4.261 J3.767 K0.000 F200.000
G3 X30.121 Y129.376 Z-0.200 I-3.166 J-1.757 K0.000 F200.000
G3 X30.075 Y128.212 Z-0.200 I12.058 J-1.053 K0.000 F200.000
G2 X29.964 Y127.588 Z-0.200 I-1.611 J-0.035 K0.000 F200.000
G2 X29.476 Y127.222 Z-0.200 I-0.575 J0.257 K0.000 F200.000
G2 X28.069 Y127.274 Z-0.200 I0.158 J23.347 K0.000 F200.000
G3 X28.766 Y126.464 Z-0.200 I3.044 J1.912 K0.000 F200.000
G2 X29.437 Y125.745 Z-0.200 I-2.101 J-2.638 K0.000 F200.000
G2 X29.728 Y124.437 Z-0.200 I-3.078 J-1.370 K0.000 F200.000
G3 X29.876 Y123.539 Z-0.200 I4.752 J0.323 K0.000 F200.000
G3 X30.445 Y124.345 Z-0.200 I-15.273 J11.392 K0.000 F200.000
G2 X31.590 Y124.642 Z-0.200 I0.758 J-0.566 K0.000 F200.000
G3 X32.985 Y124.235 Z-0.200 I1.436 J2.326 K0.000 F200.000
G3 X32.081 Y125.779 Z-0.200 I-193.005 J-112.005 K0.000 F200.000
G2 X32.137 Y126.644 Z-0.200 I0.961 J0.372 K0.000 F200.000
G3 X32.847 Y128.156 Z-0.200 I-4683.160 J2200.758 K0.000 F200.000
G1 X32.913 Y128.357 Z-0.200 F200.000
G1 X32.913 Y128.357 Z-0.300 F100.000
G2 X31.680 Y127.674 Z-0.300 I-38.204 J67.544 K0.000 F200.000
G2 X31.278 Y127.730 Z-0.300 I-0.169 J0.261 K0.000 F200.000
G2 X30.556 Y128.755 Z-0.300 I4.261 J3.767 K0.000 F200.000
G3 X30.121 Y129.376 Z-0.300 I-3.166 J-1.757 K0.000 F200.000
G3 X30.075 Y128.212 Z-0.300 I12.058 J-1.053 K0.000 F200.000
G2 X29.964 Y127.588 Z-0.300 I-1.611 J-0.035 K0.000 F200.000
G2 X29.476 Y127.222 Z-0.300 I-0.575 J0.257 K0.000 F200.000
G2 X28.069 Y127.274 Z-0.300 I0.158 J23.347 K0.000 F200.000
G3 X28.766 Y126.464 Z-0.300 I3.044 J1.912 K0.000 F200.000
G2 X29.437 Y125.745 Z-0.300 I-2.101 J-2.638 K0.000 F200.000
G2 X29.728 Y124.437 Z-0.300 I-3.078 J-1.370 K0.000 F200.000
G3 X29.876 Y123.539 Z-0.300 I4.752 J0.323 K0.000 F200.000
G3 X30.445 Y124.345 Z-0.300 I-15.273 J11.392 K0.000 F200.000
G2 X31.590 Y124.642 Z-0.300 I0.758 J-0.566 K0.000 F200.000
G3 X32.985 Y124.235 Z-0.300 I1.436 J2.326 K0.000 F200.000
G3 X32.081 Y125.779 Z-0.300 I-193.005 J-112.005 K0.000 F200.000
G2 X32.137 Y126.644 Z-0.300 I0.961 J0.372 K0.000 F200.000
G3 X32.847 Y128.156 Z-0.300 I-4683.160 J2200.758 K0.000 F200.000
G1 X32.913 Y128.357 Z-0.300 F200.000
G0 Z5.000
G0 Z5.000
G0 X32.913 Y128.357
G0 X37.298 Y131.738
G0 X37.298 Y131.738 Z3.000
G1 X37.298 Y131.738 Z-0.200 F100.000
G3 X38.203 Y131.007 Z-0.200 I1.982 J1.529 K0.000 F200.000
G2 X37.728 Y135.161 Z-0.200 I3.687 J2.526 K0.000 F200.000
G2 X38.120 Y136.116 Z-0.200 I7.484 J-2.517 K0.000 F200.000
G3 X36.943 Y132.370 Z-0.200 I1.937 J-2.667 K0.000 F200.000
G3 X37.298 Y131.738 Z-0.200 I2.337 J0.897 K0.000 F200.000
G1 X37.298 Y131.738 Z-0.300 F100.000
G3 X38.203 Y131.007 Z-0.300 I1.982 J1.529 K0.000 F200.000
G2 X37.728 Y135.161 Z-0.300 I3.687 J2.526 K0.000 F200.000
G2 X38.120 Y136.116 Z-0.300 I7.484 J-2.517 K0.000 F200.000
G3 X36.943 Y132.370 Z-0.300 I1.937 J-2.667 K0.000 F200.000
G3 X37.298 Y131.738 Z-0.300 I2.337 J0.897 K0.000 F200.000
G0 Z5.000
G0 Z5.000
G0 X37.298 Y131.738
G0 X38.856 Y132.394
G0 X38.856 Y132.394 Z3.000
G1 X38.856 Y132.394 Z-0.200 F100.000
G3 X41.857 Y130.440 Z-0.200 I2.942 J1.237 K0.000 F200.000
G1 X42.630 Y130.452 Z-0.200 F200.000
G1 X42.681 Y130.461 Z-0.200 F200.000
G3 X42.589 Y136.942 Z-0.200 I-140.127 J1.259 K0.000 F200.000
G3 X41.145 Y136.963 Z-0.200 I-0.781 J-4.009 K0.000 F200.000
G3 X38.836 Y134.820 Z-0.200 I0.804 J-3.182 K0.000 F200.000
G3 X38.856 Y132.394 Z-0.200 I2.962 J-1.189 K0.000 F200.000
G1 X38.856 Y132.394 Z-0.300 F100.000
G3 X41.857 Y130.440 Z-0.300 I2.942 J1.237 K0.000 F200.000
G1 X42.630 Y130.452 Z-0.300 F200.000
G1 X42.681 Y130.461 Z-0.300 F200.000
G3 X42.589 Y136.942 Z-0.300 I-140.127 J1.259 K0.000 F200.000
G3 X41.145 Y136.963 Z-0.300 I-0.781 J-4.009 K0.000 F200.000
G3 X38.836 Y134.820 Z-0.300 I0.804 J-3.182 K0.000 F200.000
G3 X38.856 Y132.394 Z-0.300 I2.962 J-1.189 K0.000 F200.000
G0 Z5.000
G0 Z5.000
G0 X38.856 Y132.394
G0 X40.937 Y138.253
G0 X40.937 Y138.253 Z3.000
G1 X40.937 Y138.253 Z-0.200 F100.000
G3 X41.198 Y138.354 Z-0.200 I0.072 J0.202 K0.000 F200.000
G3 X41.193 Y138.690 Z-0.200 I-0.313 J0.163 K0.000 F200.000
G1 X41.032 Y139.064 Z-0.200 F200.000
G3 X36.929 Y145.138 Z-0.200 I-34.958 J-19.195 K0.000 F200.000
G3 X36.272 Y145.786 Z-0.200 I-3.446 J-2.834 K0.000 F200.000
G3 X35.176 Y146.073 Z-0.200 I-1.007 J-1.613 K0.000 F200.000
G3 X37.016 Y144.021 Z-0.200 I60.068 J52.025 K0.000 F200.000
G2 X40.361 Y139.009 Z-0.200 I-28.125 J-22.396 K0.000 F200.000
G3 X40.920 Y138.260 Z-0.200 I2.513 J1.291 K0.000 F200.000
G3 X40.937 Y138.253 Z-0.200 I0.089 J0.195 K0.000 F200.000
G1 X40.937 Y138.253 Z-0.300 F100.000
G3 X41.198 Y138.354 Z-0.300 I0.072 J0.202 K0.000 F200.000
G3 X41.193 Y138.690 Z-0.300 I-0.313 J0.163 K0.000 F200.000
G1 X41.032 Y139.064 Z-0.300 F200.000
G3 X36.929 Y145.138 Z-0.300 I-34.958 J-19.195 K0.000 F200.000
G3 X36.272 Y145.786 Z-0.300 I-3.446 J-2.834 K0.000 F200.000
G3 X35.176 Y146.073 Z-0.300 I-1.007 J-1.613 K0.000 F200.000
G3 X37.016 Y144.021 Z-0.300 I60.068 J52.025 K0.000 F200.000
G2 X40.361 Y139.009 Z-0.300 I-28.125 J-22.396 K0.000 F200.000
G3 X40.920 Y138.260 Z-0.300 I2.513 J1.291 K0.000 F200.000
G3 X40.937 Y138.253 Z-0.300 I0.089 J0.195 K0.000 F200.000
G0 Z5.000
G0 Z5.000
G0 X40.937 Y138.253
G0 X45.330 Y138.256
G0 X45.330 Y138.256 Z3.000
G1 X45.330 Y138.256 Z-0.200 F100.000
G3 X45.452 Y131.061 Z-0.200 I218.782 J0.117 K0.000 F200.000
G1 X45.529 Y129.819 Z-0.200 F200.000
G1 X46.185 Y129.819 Z-0.200 F200.000
G2 X46.076 Y130.980 Z-0.200 I8.817 J1.411 K0.000 F200.000
G2 X45.960 Y146.252 Z-0.200 I563.855 J11.942 K0.000 F200.000
G3 X44.906 Y146.238 Z-0.200 I-0.293 J-17.433 K0.000 F200.000
G2 X45.229 Y144.168 Z-0.200 I-7.127 J-2.172 K0.000 F200.000
G2 X45.330 Y138.546 Z-0.200 I-119.023 J-4.966 K0.000 F200.000
G3 X45.330 Y138.256 Z-0.200 I218.782 J-0.173 K0.000 F200.000
G1 X45.330 Y138.256 Z-0.300 F100.000
G3 X45.452 Y131.061 Z-0.300 I218.782 J0.117 K0.000 F200.000
G1 X45.529 Y129.819 Z-0.300 F200.000
G1 X46.185 Y129.819 Z-0.300 F200.000
G2 X46.076 Y130.980 Z-0.300 I8.817 J1.411 K0.000 F200.000
G2 X45.960 Y146.252 Z-0.300 I563.855 J11.942 K0.000 F200.000
G3 X44.906 Y146.238 Z-0.300 I-0.293 J-17.433 K0.000 F200.000
G2 X45.229 Y144.168 Z-0.300 I-7.127 J-2.172 K0.000 F200.000
G2 X45.330 Y138.546 Z-0.300 I-119.023 J-4.966 K0.000 F200.000
G3 X45.330 Y138.256 Z-0.300 I218.782 J-0.173 K0.000 F200.000
G0 Z5.000
G0 Z5.000
G0 X45.330 Y138.256
G0 X46.785 Y138.273
G0 X46.785 Y138.273 Z3.000
G1 X46.785 Y138.273 Z-0.200 F100.000
G2 X46.755 Y143.181 Z-0.200 I429.850 J5.038 K0.000 F200.000
G2 X46.865 Y144.936 Z-0.200 I11.748 J0.144 K0.000 F200.000
G2 X47.130 Y145.695 Z-0.200 I1.579 J-0.125 K0.000 F200.000
G2 X47.987 Y146.174 Z-0.200 I0.976 J-0.741 K0.000 F200.000
G3 X49.414 Y146.401 Z-0.200 I-3.480 J26.458 K0.000 F200.000
G3 X49.739 Y146.525 Z-0.200 I-0.055 J0.634 K0.000 F200.000
G3 X49.829 Y147.172 Z-0.200 I-0.626 J0.417 K0.000 F200.000
G3 X49.598 Y147.321 Z-0.200 I-0.296 J-0.204 K0.000 F200.000
G3 X47.928 Y147.423 Z-0.200 I-1.332 J-8.122 K0.000 F200.000
G3 X41.523 Y147.350 Z-0.200 I-0.322 J-252.058 K0.000 F200.000
G3 X40.297 Y147.242 Z-0.200 I-0.072 J-6.183 K0.000 F200.000
G3 X39.920 Y146.533 Z-0.200 I0.265 J-0.597 K0.000 F200.000
G3 X40.041 Y146.338 Z-0.200 I0.181 J-0.023 K0.000 F200.000
G2 X41.669 Y145.973 Z-0.200 I-7.995 J-39.514 K0.000 F200.000
G2 X42.520 Y145.595 Z-0.200 I-0.258 J-1.727 K0.000 F200.000
G2 X42.718 Y145.085 Z-0.200 I-0.756 J-0.586 K0.000 F200.000
G2 X42.995 Y139.267 Z-0.200 I-46.088 J-5.113 K0.000 F200.000
G2 X42.732 Y138.684 Z-0.200 I-0.677 J-0.046 K0.000 F200.000
G2 X42.314 Y138.760 Z-0.200 I-0.170 J0.254 K0.000 F200.000
G2 X40.449 Y141.659 Z-0.200 I43.413 J29.973 K0.000 F200.000
G3 X37.343 Y145.955 Z-0.200 I-27.160 J-16.368 K0.000 F200.000
G3 X35.798 Y147.268 Z-0.200 I-6.223 J-5.757 K0.000 F200.000
G3 X29.861 Y147.231 Z-0.200 I-2.216 J-119.763 K0.000 F200.000
G3 X28.868 Y147.128 Z-0.200 I-0.042 J-4.446 K0.000 F200.000
G3 X28.816 Y147.068 Z-0.200 I0.028 J-0.077 K0.000 F200.000
G3 X28.844 Y146.085 Z-0.200 I1.271 J-0.456 K0.000 F200.000
G3 X28.964 Y145.988 Z-0.200 I0.159 J0.075 K0.000 F200.000
G3 X30.205 Y145.722 Z-0.200 I1.917 J5.917 K0.000 F200.000
G1 X30.205 Y145.722 Z-0.200 F200.000
G2 X33.190 Y144.465 Z-0.200 I-0.386 J-5.088 K0.000 F200.000
G2 X35.864 Y141.497 Z-0.200 I-16.057 J-17.157 K0.000 F200.000
G2 X37.199 Y139.690 Z-0.200 I-18.246 J-14.876 K0.000 F200.000
G2 X37.664 Y138.765 Z-0.200 I-2.890 J-2.032 K0.000 F200.000
G2 X37.529 Y138.183 Z-0.200 I-0.440 J-0.204 K0.000 F200.000
G2 X36.568 Y137.643 Z-0.200 I-3.036 J4.277 K0.000 F200.000
G3 X34.336 Y135.022 Z-0.200 I2.057 J-4.011 K0.000 F200.000
G3 X34.313 Y132.330 Z-0.200 I10.071 J-1.432 K0.000 F200.000
G3 X35.144 Y130.852 Z-0.200 I3.968 J1.259 K0.000 F200.000
G3 X37.017 Y129.418 Z-0.200 I4.076 J3.384 K0.000 F200.000
G3 X38.684 Y129.074 Z-0.200 I2.145 J6.173 K0.000 F200.000
G3 X45.975 Y128.811 Z-0.200 I6.580 J81.262 K0.000 F200.000
G3 X49.150 Y128.872 Z-0.200 I0.823 J39.739 K0.000 F200.000
G3 X49.923 Y129.010 Z-0.200 I-0.074 J2.642 K0.000 F200.000
G3 X50.002 Y129.435 Z-0.200 I-0.120 J0.242 K0.000 F200.000
G3 X48.983 Y129.830 Z-0.200 I-1.270 J-1.763 K0.000 F200.000
G2 X47.545 Y130.271 Z-0.200 I0.978 J5.757 K0.000 F200.000
G2 X46.949 Y130.977 Z-0.200 I0.334 J0.887 K0.000 F200.000
G1 X46.895 Y132.349 Z-0.200 F200.000
G2 X46.785 Y138.273 Z-0.200 I429.739 J10.961 K0.000 F200.000
G1 X46.785 Y138.273 Z-0.300 F100.000
G2 X46.755 Y143.181 Z-0.300 I429.850 J5.038 K0.000 F200.000
G2 X46.865 Y144.936 Z-0.300 I11.748 J0.144 K0.000 F200.000
G2 X47.130 Y145.695 Z-0.300 I1.579 J-0.125 K0.000 F200.000
G2 X47.987 Y146.174 Z-0.300 I0.976 J-0.741 K0.000 F200.000
G3 X49.414 Y146.401 Z-0.300 I-3.480 J26.458 K0.000 F200.000
G3 X49.739 Y146.525 Z-0.300 I-0.055 J0.634 K0.000 F200.000
G3 X49.829 Y147.172 Z-0.300 I-0.626 J0.417 K0.000 F200.000
G3 X49.598 Y147.321 Z-0.300 I-0.296 J-0.204 K0.000 F200.000
G3 X47.928 Y147.423 Z-0.300 I-1.332 J-8.122 K0.000 F200.000
G3 X41.523 Y147.350 Z-0.300 I-0.322 J-252.058 K0.000 F200.000
G3 X40.297 Y147.242 Z-0.300 I-0.072 J-6.183 K0.000 F200.000
G3 X39.920 Y146.533 Z-0.300 I0.265 J-0.597 K0.000 F200.000
G3 X40.041 Y146.338 Z-0.300 I0.181 J-0.023 K0.000 F200.000
G2 X41.669 Y145.973 Z-0.300 I-7.995 J-39.514 K0.000 F200.000
G2 X42.520 Y145.595 Z-0.300 I-0.258 J-1.727 K0.000 F200.000
G2 X42.718 Y145.085 Z-0.300 I-0.756 J-0.586 K0.000 F200.000
G2 X42.995 Y139.267 Z-0.300 I-46.088 J-5.113 K0.000 F200.000
G2 X42.732 Y138.684 Z-0.300 I-0.677 J-0.046 K0.000 F200.000
G2 X42.314 Y138.760 Z-0.300 I-0.170 J0.254 K0.000 F200.000
G2 X40.449 Y141.659 Z-0.300 I43.413 J29.973 K0.000 F200.000
G3 X37.343 Y145.955 Z-0.300 I-27.160 J-16.368 K0.000 F200.000
G3 X35.798 Y147.268 Z-0.300 I-6.223 J-5.757 K0.000 F200.000
G3 X29.861 Y147.231 Z-0.300 I-2.216 J-119.763 K0.000 F200.000
G3 X28.868 Y147.128 Z-0.300 I-0.042 J-4.446 K0.000 F200.000
G3 X28.816 Y147.068 Z-0.300 I0.028 J-0.077 K0.000 F200.000
G3 X28.844 Y146.085 Z-0.300 I1.271 J-0.456 K0.000 F200.000
G3 X28.964 Y145.988 Z-0.300 I0.159 J0.075 K0.000 F200.000
G3 X30.205 Y145.722 Z-0.300 I1.917 J5.917 K0.000 F200.000
G1 X30.205 Y145.722 Z-0.300 F200.000
G2 X33.190 Y144.465 Z-0.300 I-0.386 J-5.088 K0.000 F200.000
G2 X35.864 Y141.497 Z-0.300 I-16.057 J-17.157 K0.000 F200.000
G2 X37.199 Y139.690 Z-0.300 I-18.246 J-14.876 K0.000 F200.000
G2 X37.664 Y138.765 Z-0.300 I-2.890 J-2.032 K0.000 F200.000
G2 X37.529 Y138.183 Z-0.300 I-0.440 J-0.204 K0.000 F200.000
G2 X36.568 Y137.643 Z-0.300 I-3.036 J4.277 K0.000 F200.000
G3 X34.336 Y135.022 Z-0.300 I2.057 J-4.011 K0.000 F200.000
G3 X34.313 Y132.330 Z-0.300 I10.071 J-1.432 K0.000 F200.000
G3 X35.144 Y130.852 Z-0.300 I3.968 J1.259 K0.000 F200.000
G3 X37.017 Y129.418 Z-0.300 I4.076 J3.384 K0.000 F200.000
G3 X38.684 Y129.074 Z-0.300 I2.145 J6.173 K0.000 F200.000
G3 X45.975 Y128.811 Z-0.300 I6.580 J81.262 K0.000 F200.000
G3 X49.150 Y128.872 Z-0.300 I0.823 J39.739 K0.000 F200.000
G3 X49.923 Y129.010 Z-0.300 I-0.074 J2.642 K0.000 F200.000
G3 X50.002 Y129.435 Z-0.300 I-0.120 J0.242 K0.000 F200.000
G3 X48.983 Y129.830 Z-0.300 I-1.270 J-1.763 K0.000 F200.000
G2 X47.545 Y130.271 Z-0.300 I0.978 J5.757 K0.000 F200.000
G2 X46.949 Y130.977 Z-0.300 I0.334 J0.887 K0.000 F200.000
G1 X46.895 Y132.349 Z-0.300 F200.000
G2 X46.785 Y138.273 Z-0.300 I429.739 J10.961 K0.000 F200.000
G0 Z5.000
G0 Z5.000
G0 X46.785 Y138.273
G0 X51.913 Y161.569
G0 X51.913 Y161.569 Z3.000
G1 X51.913 Y161.569 Z-0.200 F100.000
G3 X52.031 Y161.629 Z-0.200 I0.022 J0.102 K0.000 F200.000
G3 X52.083 Y161.976 Z-0.200 I-0.898 J0.311 K0.000 F200.000
G3 X51.876 Y161.585 Z-0.200 I-0.013 J-0.243 K0.000 F200.000
G3 X51.913 Y161.569 Z-0.200 I0.060 J0.086 K0.000 F200.000
G1 X51.913 Y161.569 Z-0.300 F100.000
G3 X52.031 Y161.629 Z-0.300 I0.022 J0.102 K0.000 F200.000
G3 X52.083 Y161.976 Z-0.300 I-0.898 J0.311 K0.000 F200.000
G3 X51.876 Y161.585 Z-0.300 I-0.013 J-0.243 K0.000 F200.000
G3 X51.913 Y161.569 Z-0.300 I0.060 J0.086 K0.000 F200.000
G0 Z5.000
G0 Z5.000
G0 X51.913 Y161.569
G0 X50.257 Y160.728
G0 X50.257 Y160.728 Z3.000
G1 X50.257 Y160.728 Z-0.200 F100.000
G3 X47.784 Y162.152 Z-0.200 I-2.329 J-1.183 K0.000 F200.000
G3 X44.834 Y160.779 Z-0.200 I-0.091 J-3.659 K0.000 F200.000
G3 X44.945 Y160.592 Z-0.200 I0.098 J-0.068 K0.000 F200.000
G3 X45.928 Y160.918 Z-0.200 I-1.587 J6.429 K0.000 F200.000
G2 X47.676 Y161.159 Z-0.200 I1.382 J-3.562 K0.000 F200.000
G2 X49.272 Y159.606 Z-0.200 I-0.153 J-1.753 K0.000 F200.000
G2 X49.073 Y157.596 Z-0.200 I-4.767 J-0.543 K0.000 F200.000
G2 X48.078 Y155.296 Z-0.200 I-7.952 J2.074 K0.000 F200.000
G2 X45.066 Y153.411 Z-0.200 I-3.789 J2.705 K0.000 F200.000
G2 X44.157 Y153.553 Z-0.200 I-0.271 J1.242 K0.000 F200.000
G2 X43.874 Y154.420 Z-0.200 I0.428 J0.620 K0.000 F200.000
G2 X44.323 Y155.280 Z-0.200 I3.904 J-1.494 K0.000 F200.000
G3 X44.363 Y155.491 Z-0.200 I-0.269 J0.160 K0.000 F200.000
G3 X44.128 Y155.540 Z-0.200 I-0.145 J-0.109 K0.000 F200.000
G3 X41.703 Y153.218 Z-0.200 I7.155 J-9.903 K0.000 F200.000
G3 X40.657 Y150.821 Z-0.200 I2.734 J-2.619 K0.000 F200.000
G3 X42.025 Y150.647 Z-0.200 I0.751 J0.437 K0.000 F200.000
G3 X41.993 Y151.483 Z-0.200 I-0.855 J0.385 K0.000 F200.000
G2 X41.705 Y152.039 Z-0.200 I2.921 J1.862 K0.000 F200.000
G2 X41.911 Y152.576 Z-0.200 I0.454 J0.134 K0.000 F200.000
G2 X42.726 Y152.969 Z-0.200 I1.028 J-1.093 K0.000 F200.000
G2 X43.745 Y152.784 Z-0.200 I-0.500 J-5.649 K0.000 F200.000
G3 X46.677 Y152.949 Z-0.200 I1.202 J4.791 K0.000 F200.000
G3 X49.514 Y155.614 Z-0.200 I-3.074 J6.114 K0.000 F200.000
G3 X50.492 Y160.043 Z-0.200 I-5.451 J3.526 K0.000 F200.000
G3 X50.257 Y160.728 Z-0.200 I-2.564 J-0.498 K0.000 F200.000
G1 X50.257 Y160.728 Z-0.300 F100.000
G3 X47.784 Y162.152 Z-0.300 I-2.329 J-1.183 K0.000 F200.000
G3 X44.834 Y160.779 Z-0.300 I-0.091 J-3.659 K0.000 F200.000
G3 X44.945 Y160.592 Z-0.300 I0.098 J-0.068 K0.000 F200.000
G3 X45.928 Y160.918 Z-0.300 I-1.587 J6.429 K0.000 F200.000
G2 X47.676 Y161.159 Z-0.300 I1.382 J-3.562 K0.000 F200.000
G2 X49.272 Y159.606 Z-0.300 I-0.153 J-1.753 K0.000 F200.000
G2 X49.073 Y157.596 Z-0.300 I-4.767 J-0.543 K0.000 F200.000
G2 X48.078 Y155.296 Z-0.300 I-7.952 J2.074 K0.000 F200.000
G2 X45.066 Y153.411 Z-0.300 I-3.789 J2.705 K0.000 F200.000
G2 X44.157 Y153.553 Z-0.300 I-0.271 J1.242 K0.000 F200.000
G2 X43.874 Y154.420 Z-0.300 I0.428 J0.620 K0.000 F200.000
G2 X44.323 Y155.280 Z-0.300 I3.904 J-1.494 K0.000 F200.000
G3 X44.363 Y155.491 Z-0.300 I-0.269 J0.160 K0.000 F200.000
G3 X44.128 Y155.540 Z-0.300 I-0.145 J-0.109 K0.000 F200.000
G3 X41.703 Y153.218 Z-0.300 I7.155 J-9.903 K0.000 F200.000
G3 X40.657 Y150.821 Z-0.300 I2.734 J-2.619 K0.000 F200.000
G3 X42.025 Y150.647 Z-0.300 I0.751 J0.437 K0.000 F200.000
G3 X41.993 Y151.483 Z-0.300 I-0.855 J0.385 K0.000 F200.000
G2 X41.705 Y152.039 Z-0.300 I2.921 J1.862 K0.000 F200.000
G2 X41.911 Y152.576 Z-0.300 I0.454 J0.134 K0.000 F200.000
G2 X42.726 Y152.969 Z-0.300 I1.028 J-1.093 K0.000 F200.000
G2 X43.745 Y152.784 Z-0.300 I-0.500 J-5.649 K0.000 F200.000
G3 X46.677 Y152.949 Z-0.300 I1.202 J4.791 K0.000 F200.000
G3 X49.514 Y155.614 Z-0.300 I-3.074 J6.114 K0.000 F200.000
G3 X50.492 Y160.043 Z-0.300 I-5.451 J3.526 K0.000 F200.000
G3 X50.257 Y160.728 Z-0.300 I-2.564 J-0.498 K0.000 F200.000
G0 Z5.000
G0 Z5.000
G0 X50.257 Y160.728
G0 X43.924 Y161.544
G0 X43.924 Y161.544 Z3.000
G1 X43.924 Y161.544 Z-0.200 F100.000
G3 X43.724 Y162.044 Z-0.200 I-0.816 J-0.037 K0.000 F200.000
G3 X43.357 Y161.768 Z-0.200 I0.169 J-0.607 K0.000 F200.000
G3 X43.924 Y161.544 Z-0.200 I0.377 J0.125 K0.000 F200.000
G1 X43.924 Y161.544 Z-0.300 F100.000
G3 X43.724 Y162.044 Z-0.300 I-0.816 J-0.037 K0.000 F200.000
G3 X43.357 Y161.768 Z-0.300 I0.169 J-0.607 K0.000 F200.000
G3 X43.924 Y161.544 Z-0.300 I0.377 J0.125 K0.000 F200.000
G0 Z5.000
G0 Z5.000
G0 X43.924 Y161.544
G0 X52.142 Y159.245
G0 X52.142 Y159.245 Z3.000
G1 X52.142 Y159.245 Z-0.200 F100.000
G3 X52.044 Y158.807 Z-0.200 I4.109 J-1.150 K0.000 F200.000
G3 X53.239 Y157.054 Z-0.200 I1.546 J-0.231 K0.000 F200.000
G2 X53.730 Y156.834 Z-0.200 I-0.381 J-1.510 K0.000 F200.000
G2 X53.786 Y156.138 Z-0.200 I-0.248 J-0.370 K0.000 F200.000
G3 X52.882 Y154.910 Z-0.200 I1.831 J-2.295 K0.000 F200.000
G3 X53.351 Y153.317 Z-0.200 I1.216 J-0.508 K0.000 F200.000
G3 X55.038 Y152.815 Z-0.200 I2.272 J4.550 K0.000 F200.000
G3 X59.045 Y152.835 Z-0.200 I1.930 J14.719 K0.000 F200.000
G3 X61.364 Y153.452 Z-0.200 I-0.902 J8.052 K0.000 F200.000
G3 X63.474 Y155.246 Z-0.200 I-1.983 J4.473 K0.000 F200.000
G3 X63.624 Y157.362 Z-0.200 I-2.251 J1.223 K0.000 F200.000
G3 X62.914 Y157.752 Z-0.200 I-0.704 J-0.440 K0.000 F200.000
G3 X62.157 Y157.502 Z-0.200 I-0.119 J-0.911 K0.000 F200.000
G3 X62.105 Y157.218 Z-0.200 I0.339 J-0.209 K0.000 F200.000
G3 X62.281 Y155.654 Z-0.200 I123.271 J13.053 K0.000 F200.000
G2 X62.077 Y154.651 Z-0.200 I-1.445 J-0.228 K0.000 F200.000
G2 X61.390 Y154.085 Z-0.200 I-1.526 J1.153 K0.000 F200.000
G2 X59.167 Y153.294 Z-0.200 I-2.923 J4.696 K0.000 F200.000
G2 X56.682 Y153.250 Z-0.200 I-1.435 J10.661 K0.000 F200.000
G2 X56.361 Y153.827 Z-0.200 I0.106 J0.436 K0.000 F200.000
G2 X58.572 Y160.913 Z-0.200 I90.278 J-24.270 K0.000 F200.000
G2 X59.532 Y161.877 Z-0.200 I1.687 J-0.721 K0.000 F200.000
G3 X59.714 Y162.191 Z-0.200 I-0.175 J0.311 K0.000 F200.000
G3 X59.492 Y162.243 Z-0.200 I-0.149 J-0.135 K0.000 F200.000
G3 X55.801 Y162.088 Z-0.200 I-0.070 J-42.420 K0.000 F200.000
G3 X53.746 Y161.549 Z-0.200 I0.054 J-4.391 K0.000 F200.000
G3 X52.142 Y159.245 Z-0.200 I2.505 J-3.454 K0.000 F200.000
G1 X52.142 Y159.245 Z-0.300 F100.000
G3 X52.044 Y158.807 Z-0.300 I4.109 J-1.150 K0.000 F200.000
G3 X53.239 Y157.054 Z-0.300 I1.546 J-0.231 K0.000 F200.000
G2 X53.730 Y156.834 Z-0.300 I-0.381 J-1.510 K0.000 F200.000
G2 X53.786 Y156.138 Z-0.300 I-0.248 J-0.370 K0.000 F200.000
G3 X52.882 Y154.910 Z-0.300 I1.831 J-2.295 K0.000 F200.000
G3 X53.351 Y153.317 Z-0.300 I1.216 J-0.508 K0.000 F200.000
G3 X55.038 Y152.815 Z-0.300 I2.272 J4.550 K0.000 F200.000
G3 X59.045 Y152.835 Z-0.300 I1.930 J14.719 K0.000 F200.000
G3 X61.364 Y153.452 Z-0.300 I-0.902 J8.052 K0.000 F200.000
G3 X63.474 Y155.246 Z-0.300 I-1.983 J4.473 K0.000 F200.000
G3 X63.624 Y157.362 Z-0.300 I-2.251 J1.223 K0.000 F200.000
G3 X62.914 Y157.752 Z-0.300 I-0.704 J-0.440 K0.000 F200.000
G3 X62.157 Y157.502 Z-0.300 I-0.119 J-0.911 K0.000 F200.000
G3 X62.105 Y157.218 Z-0.300 I0.339 J-0.209 K0.000 F200.000
G3 X62.281 Y155.654 Z-0.300 I123.271 J13.053 K0.000 F200.000
G2 X62.077 Y154.651 Z-0.300 I-1.445 J-0.228 K0.000 F200.000
G2 X61.390 Y154.085 Z-0.300 I-1.526 J1.153 K0.000 F200.000
G2 X59.167 Y153.294 Z-0.300 I-2.923 J4.696 K0.000 F200.000
G2 X56.682 Y153.250 Z-0.300 I-1.435 J10.661 K0.000 F200.000
G2 X56.361 Y153.827 Z-0.300 I0.106 J0.436 K0.000 F200.000
G2 X58.572 Y160.913 Z-0.300 I90.278 J-24.270 K0.000 F200.000
G2 X59.532 Y161.877 Z-0.300 I1.687 J-0.721 K0.000 F200.000
G3 X59.714 Y162.191 Z-0.300 I-0.175 J0.311 K0.000 F200.000
G3 X59.492 Y162.243 Z-0.300 I-0.149 J-0.135 K0.000 F200.000
G3 X55.801 Y162.088 Z-0.300 I-0.070 J-42.420 K0.000 F200.000
G3 X53.746 Y161.549 Z-0.300 I0.054 J-4.391 K0.000 F200.000
G3 X52.142 Y159.245 Z-0.300 I2.505 J-3.454 K0.000 F200.000
G0 Z5.000
G0 Z5.000
G0 X52.142 Y159.245
G0 X65.856 Y161.909
G0 X65.856 Y161.909 Z3.000
G1 X65.856 Y161.909 Z-0.200 F100.000
G3 X65.876 Y161.824 Z-0.200 I1.230 J0.239 K0.000 F200.000
G3 X66.141 Y161.683 Z-0.200 I0.225 J0.104 K0.000 F200.000
G3 X67.092 Y161.923 Z-0.200 I0.077 J1.701 K0.000 F200.000
G2 X67.565 Y161.469 Z-0.200 I0.166 J-0.300 K0.000 F200.000
G2 X66.963 Y160.427 Z-0.200 I-4.046 J1.642 K0.000 F200.000
G3 X66.238 Y159.043 Z-0.200 I3.275 J-2.597 K0.000 F200.000
G3 X66.620 Y157.960 Z-0.200 I0.970 J-0.266 K0.000 F200.000
G3 X67.893 Y157.751 Z-0.200 I0.803 J0.908 K0.000 F200.000
G3 X68.881 Y158.301 Z-0.200 I-0.600 J2.239 K0.000 F200.000
G3 X68.836 Y159.215 Z-0.200 I-0.603 J0.429 K0.000 F200.000
G3 X68.667 Y159.286 Z-0.200 I-0.173 J-0.177 K0.000 F200.000
G3 X68.045 Y158.783 Z-0.200 I1.925 J-3.016 K0.000 F200.000
G2 X67.226 Y158.455 Z-0.200 I-0.735 J0.649 K0.000 F200.000
G2 X66.905 Y159.139 Z-0.200 I0.065 J0.448 K0.000 F200.000
G2 X68.286 Y160.773 Z-0.200 I6.034 J-3.699 K0.000 F200.000
G3 X69.324 Y161.848 Z-0.200 I-7.135 J7.927 K0.000 F200.000
G3 X69.421 Y162.012 Z-0.200 I-0.172 J0.213 K0.000 F200.000
G3 X68.499 Y162.428 Z-0.200 I-1.472 J-2.031 K0.000 F200.000
G3 X66.251 Y162.630 Z-0.200 I-1.690 J-6.196 K0.000 F200.000
G3 X65.839 Y162.272 Z-0.200 I-0.020 J-0.392 K0.000 F200.000
G3 X65.856 Y161.909 Z-0.200 I1.247 J-0.124 K0.000 F200.000
G1 X65.856 Y161.909 Z-0.300 F100.000
G3 X65.876 Y161.824 Z-0.300 I1.230 J0.239 K0.000 F200.000
G3 X66.141 Y161.683 Z-0.300 I0.225 J0.104 K0.000 F200.000
G3 X67.092 Y161.923 Z-0.300 I0.077 J1.701 K0.000 F200.000
G2 X67.565 Y161.469 Z-0.300 I0.166 J-0.300 K0.000 F200.000
G2 X66.963 Y160.427 Z-0.300 I-4.046 J1.642 K0.000 F200.000
G3 X66.238 Y159.043 Z-0.300 I3.275 J-2.597 K0.000 F200.000
G3 X66.620 Y157.960 Z-0.300 I0.970 J-0.266 K0.000 F200.000
G3 X67.893 Y157.751 Z-0.300 I0.803 J0.908 K0.000 F200.000
G3 X68.881 Y158.301 Z-0.300 I-0.600 J2.239 K0.000 F200.000
G3 X68.836 Y159.215 Z-0.300 I-0.603 J0.429 K0.000 F200.000
G3 X68.667 Y159.286 Z-0.300 I-0.173 J-0.177 K0.000 F200.000
G3 X68.045 Y158.783 Z-0.300 I1.925 J-3.016 K0.000 F200.000
G2 X67.226 Y158.455 Z-0.300 I-0.735 J0.649 K0.000 F200.000
G2 X66.905 Y159.139 Z-0.300 I0.065 J0.448 K0.000 F200.000
G2 X68.286 Y160.773 Z-0.300 I6.034 J-3.699 K0.000 F200.000
G3 X69.324 Y161.848 Z-0.300 I-7.135 J7.927 K0.000 F200.000
G3 X69.421 Y162.012 Z-0.300 I-0.172 J0.213 K0.000 F200.000
G3 X68.499 Y162.428 Z-0.300 I-1.472 J-2.031 K0.000 F200.000
G3 X66.251 Y162.630 Z-0.300 I-1.690 J-6.196 K0.000 F200.000
G3 X65.839 Y162.272 Z-0.300 I-0.020 J-0.392 K0.000 F200.000
G3 X65.856 Y161.909 Z-0.300 I1.247 J-0.124 K0.000 F200.000
G0 Z5.000
G0 Z5.000
G0 X65.856 Y161.909
G0 X70.552 Y160.745
G0 X70.552 Y160.745 Z3.000
G1 X70.552 Y160.745 Z-0.200 F100.000
G3 X70.629 Y159.165 Z-0.200 I2.669 J-0.662 K0.000 F200.000
G2 X70.332 Y157.862 Z-0.200 I-1.226 J-0.406 K0.000 F200.000
G3 X70.102 Y156.005 Z-0.200 I1.584 J-1.139 K0.000 F200.000
G3 X71.994 Y155.469 Z-0.200 I1.243 J0.782 K0.000 F200.000
G3 X73.069 Y156.983 Z-0.200 I-0.739 J1.664 K0.000 F200.000
G3 X73.131 Y158.009 Z-0.200 I-20.606 J1.742 K0.000 F200.000
G2 X73.888 Y159.390 Z-0.200 I1.978 J-0.187 K0.000 F200.000
G2 X74.359 Y159.592 Z-0.200 I0.416 J-0.320 K0.000 F200.000
G2 X74.616 Y159.147 Z-0.200 I-0.149 J-0.383 K0.000 F200.000
G3 X75.467 Y157.912 Z-0.200 I1.561 J0.164 K0.000 F200.000
G3 X77.104 Y157.831 Z-0.200 I0.966 J2.961 K0.000 F200.000
G3 X77.984 Y158.743 Z-0.200 I-0.805 J1.657 K0.000 F200.000
G3 X77.745 Y159.197 Z-0.200 I-0.595 J-0.023 K0.000 F200.000
G3 X77.233 Y159.440 Z-0.200 I-0.512 J-0.417 K0.000 F200.000
G3 X76.811 Y159.062 Z-0.200 I0.219 J-0.668 K0.000 F200.000
G2 X76.478 Y158.602 Z-0.200 I-1.451 J0.701 K0.000 F200.000
G2 X75.892 Y158.511 Z-0.200 I-0.368 J0.438 K0.000 F200.000
G2 X75.172 Y159.159 Z-0.200 I0.225 J0.974 K0.000 F200.000
G2 X75.317 Y159.843 Z-0.200 I0.877 J0.171 K0.000 F200.000
G2 X75.850 Y160.403 Z-0.200 I1.354 J-0.753 K0.000 F200.000
G2 X76.398 Y160.504 Z-0.200 I0.412 J-0.701 K0.000 F200.000
G3 X77.188 Y160.365 Z-0.200 I1.615 J6.860 K0.000 F200.000
G3 X77.914 Y160.677 Z-0.200 I0.102 J0.763 K0.000 F200.000
G3 X77.548 Y161.716 Z-0.200 I-0.610 J0.369 K0.000 F200.000
G3 X76.648 Y161.844 Z-0.200 I-0.902 J-3.106 K0.000 F200.000
G2 X76.161 Y162.371 Z-0.200 I0.028 J0.515 K0.000 F200.000
G2 X77.312 Y164.325 Z-0.200 I1.825 J0.240 K0.000 F200.000
G2 X78.043 Y164.120 Z-0.200 I0.250 J-0.516 K0.000 F200.000
G2 X77.951 Y163.552 Z-0.200 I-0.839 J-0.155 K0.000 F200.000
G3 X77.881 Y162.973 Z-0.200 I0.657 J-0.373 K0.000 F200.000
G3 X78.377 Y162.839 Z-0.200 I0.404 J0.509 K0.000 F200.000
G3 X79.338 Y163.413 Z-0.200 I0.128 J0.879 K0.000 F200.000
G3 X79.122 Y164.475 Z-0.200 I-1.346 J0.279 K0.000 F200.000
G3 X78.359 Y164.839 Z-0.200 I-0.824 J-0.746 K0.000 F200.000
G3 X75.669 Y163.831 Z-0.200 I-0.411 J-2.998 K0.000 F200.000
G3 X75.399 Y163.052 Z-0.200 I1.379 J-0.913 K0.000 F200.000
G2 X75.090 Y160.697 Z-0.200 I-8.878 J-0.032 K0.000 F200.000
G2 X74.729 Y160.188 Z-0.200 I-0.849 J0.219 K0.000 F200.000
G2 X74.358 Y160.231 Z-0.200 I-0.161 J0.228 K0.000 F200.000
G2 X73.951 Y160.942 Z-0.200 I1.512 J1.337 K0.000 F200.000
G3 X72.368 Y162.045 Z-0.200 I-1.541 J-0.525 K0.000 F200.000
G3 X70.635 Y161.019 Z-0.200 I-0.115 J-1.783 K0.000 F200.000
G3 X70.552 Y160.745 Z-0.200 I2.586 J-0.936 K0.000 F200.000
G1 X70.552 Y160.745 Z-0.300 F100.000
G3 X70.629 Y159.165 Z-0.300 I2.669 J-0.662 K0.000 F200.000
G2 X70.332 Y157.862 Z-0.300 I-1.226 J-0.406 K0.000 F200.000
G3 X70.102 Y156.005 Z-0.300 I1.584 J-1.139 K0.000 F200.000
G3 X71.994 Y155.469 Z-0.300 I1.243 J0.782 K0.000 F200.000
G3 X73.069 Y156.983 Z-0.300 I-0.739 J1.664 K0.000 F200.000
G3 X73.131 Y158.009 Z-0.300 I-20.606 J1.742 K0.000 F200.000
G2 X73.888 Y159.390 Z-0.300 I1.978 J-0.187 K0.000 F200.000
G2 X74.359 Y159.592 Z-0.300 I0.416 J-0.320 K0.000 F200.000
G2 X74.616 Y159.147 Z-0.300 I-0.149 J-0.383 K0.000 F200.000
G3 X75.467 Y157.912 Z-0.300 I1.561 J0.164 K0.000 F200.000
G3 X77.104 Y157.831 Z-0.300 I0.966 J2.961 K0.000 F200.000
G3 X77.984 Y158.743 Z-0.300 I-0.805 J1.657 K0.000 F200.000
G3 X77.745 Y159.197 Z-0.300 I-0.595 J-0.023 K0.000 F200.000
G3 X77.233 Y159.440 Z-0.300 I-0.512 J-0.417 K0.000 F200.000
G3 X76.811 Y159.062 Z-0.300 I0.219 J-0.668 K0.000 F200.000
G2 X76.478 Y158.602 Z-0.300 I-1.451 J0.701 K0.000 F200.000
G2 X75.892 Y158.511 Z-0.300 I-0.368 J0.438 K0.000 F200.000
G2 X75.172 Y159.159 Z-0.300 I0.225 J0.974 K0.000 F200.000
G2 X75.317 Y159.843 Z-0.300 I0.877 J0.171 K0.000 F200.000
G2 X75.850 Y160.403 Z-0.300 I1.354 J-0.753 K0.000 F200.000
G2 X76.398 Y160.504 Z-0.300 I0.412 J-0.701 K0.000 F200.000
G3 X77.188 Y160.365 Z-0.300 I1.615 J6.860 K0.000 F200.000
G3 X77.914 Y160.677 Z-0.300 I0.102 J0.763 K0.000 F200.000
G3 X77.548 Y161.716 Z-0.300 I-0.610 J0.369 K0.000 F200.000
G3 X76.648 Y161.844 Z-0.300 I-0.902 J-3.106 K0.000 F200.000
G2 X76.161 Y162.371 Z-0.300 I0.028 J0.515 K0.000 F200.000
G2 X77.312 Y164.325 Z-0.300 I1.825 J0.240 K0.000 F200.000
G2 X78.043 Y164.120 Z-0.300 I0.250 J-0.516 K0.000 F200.000
G2 X77.951 Y163.552 Z-0.300 I-0.839 J-0.155 K0.000 F200.000
G3 X77.881 Y162.973 Z-0.300 I0.657 J-0.373 K0.000 F200.000
G3 X78.377 Y162.839 Z-0.300 I0.404 J0.509 K0.000 F200.000
G3 X79.338 Y163.413 Z-0.300 I0.128 J0.879 K0.000 F200.000
G3 X79.122 Y164.475 Z-0.300 I-1.346 J0.279 K0.000 F200.000
G3 X78.359 Y164.839 Z-0.300 I-0.824 J-0.746 K0.000 F200.000
G3 X75.669 Y163.831 Z-0.300 I-0.411 J-2.998 K0.000 F200.000
G3 X75.399 Y163.052 Z-0.300 I1.379 J-0.913 K0.000 F200.000
G2 X75.090 Y160.697 Z-0.300 I-8.878 J-0.032 K0.000 F200.000
G2 X74.729 Y160.188 Z-0.300 I-0.849 J0.219 K0.000 F200.000
G2 X74.358 Y160.231 Z-0.300 I-0.161 J0.228 K0.000 F200.000
G2 X73.951 Y160.942 Z-0.300 I1.512 J1.337 K0.000 F200.000
G3 X72.368 Y162.045 Z-0.300 I-1.541 J-0.525 K0.000 F200.000
G3 X70.635 Y161.019 Z-0.300 I-0.115 J-1.783 K0.000 F200.000
G3 X70.552 Y160.745 Z-0.300 I2.586 J-0.936 K0.000 F200.000
G0 Z5.000
G0 Z5.000
G0 X70.552 Y160.745
G0 X81.265 Y160.724
G0 X81.265 Y160.724 Z3.000
G1 X81.265 Y160.724 Z-0.200 F100.000
G3 X81.896 Y160.873 Z-0.200 I0.061 J1.152 K0.000 F200.000
G2 X82.780 Y161.097 Z-0.200 I0.859 J-1.533 K0.000 F200.000
G2 X82.943 Y160.573 Z-0.200 I-0.054 J-0.304 K0.000 F200.000
G2 X82.024 Y159.572 Z-0.200 I-5.248 J3.900 K0.000 F200.000
G3 X81.248 Y158.735 Z-0.200 I3.745 J-4.254 K0.000 F200.000
G3 X81.079 Y158.221 Z-0.200 I0.409 J-0.419 K0.000 F200.000
G3 X81.633 Y157.625 Z-0.200 I1.086 J0.453 K0.000 F200.000
G3 X82.299 Y157.875 Z-0.200 I-0.018 J1.062 K0.000 F200.000
G3 X82.922 Y158.656 Z-0.200 I-0.992 J1.429 K0.000 F200.000
G3 X83.718 Y160.958 Z-0.200 I-9.911 J4.718 K0.000 F200.000
G3 X83.498 Y161.910 Z-0.200 I-0.917 J0.289 K0.000 F200.000
G3 X83.106 Y162.163 Z-0.200 I-0.743 J-0.723 K0.000 F200.000
G3 X81.335 Y160.874 Z-0.200 I3.371 J-6.497 K0.000 F200.000
G3 X81.265 Y160.724 Z-0.200 I0.153 J-0.162 K0.000 F200.000
G1 X81.265 Y160.724 Z-0.300 F100.000
G3 X81.896 Y160.873 Z-0.300 I0.061 J1.152 K0.000 F200.000
G2 X82.780 Y161.097 Z-0.300 I0.859 J-1.533 K0.000 F200.000
G2 X82.943 Y160.573 Z-0.300 I-0.054 J-0.304 K0.000 F200.000
G2 X82.024 Y159.572 Z-0.300 I-5.248 J3.900 K0.000 F200.000
G3 X81.248 Y158.735 Z-0.300 I3.745 J-4.254 K0.000 F200.000
G3 X81.079 Y158.221 Z-0.300 I0.409 J-0.419 K0.000 F200.000
G3 X81.633 Y157.625 Z-0.300 I1.086 J0.453 K0.000 F200.000
G3 X82.299 Y157.875 Z-0.300 I-0.018 J1.062 K0.000 F200.000
G3 X82.922 Y158.656 Z-0.300 I-0.992 J1.429 K0.000 F200.000
G3 X83.718 Y160.958 Z-0.300 I-9.911 J4.718 K0.000 F200.000
G3 X83.498 Y161.910 Z-0.300 I-0.917 J0.289 K0.000 F200.000
G3 X83.106 Y162.163 Z-0.300 I-0.743 J-0.723 K0.000 F200.000
G3 X81.335 Y160.874 Z-0.300 I3.371 J-6.497 K0.000 F200.000
G3 X81.265 Y160.724 Z-0.300 I0.153 J-0.162 K0.000 F200.000
G0 Z5.000
G0 Z5.000
G0 X81.265 Y160.724
G0 X89.663 Y155.490
G0 X89.663 Y155.490 Z3.000
G1 X89.663 Y155.490 Z-0.200 F100.000
G3 X89.582 Y155.329 Z-0.200 I0.860 J-0.536 K0.000 F200.000
G3 X90.117 Y155.285 Z-0.200 I0.307 J0.462 K0.000 F200.000
G3 X90.067 Y155.859 Z-0.200 I-0.453 J0.250 K0.000 F200.000
G3 X89.663 Y155.490 Z-0.200 I0.456 J-0.904 K0.000 F200.000
G1 X89.663 Y155.490 Z-0.300 F100.000
G3 X89.582 Y155.329 Z-0.300 I0.860 J-0.536 K0.000 F200.000
G3 X90.117 Y155.285 Z-0.300 I0.307 J0.462 K0.000 F200.000
G3 X90.067 Y155.859 Z-0.300 I-0.453 J0.250 K0.000 F200.000
G3 X89.663 Y155.490 Z-0.300 I0.456 J-0.904 K0.000 F200.000
G0 Z5.000
G0 Z5.000
G0 X89.663 Y155.490
G0 X88.414 Y147.549
G0 X88.414 Y147.549 Z3.000
G1 X88.414 Y147.549 Z-0.200 F100.000
G3 X86.909 Y147.671 Z-0.200 I-1.562 J-9.925 K0.000 F200.000
G3 X76.780 Y147.638 Z-0.200 I-4.623 J-134.524 K0.000 F200.000
G3 X75.958 Y147.471 Z-0.200 I0.213 J-3.154 K0.000 F200.000
G3 X72.940 Y146.033 Z-0.200 I3.563 J-11.371 K0.000 F200.000
G3 X69.348 Y140.437 Z-0.200 I6.368 J-8.037 K0.000 F200.000
G3 X69.522 Y135.248 Z-0.200 I11.866 J-2.200 K0.000 F200.000
G3 X73.311 Y130.419 Z-0.200 I8.741 J2.958 K0.000 F200.000
G3 X76.557 Y129.313 Z-0.200 I4.198 J7.006 K0.000 F200.000
G3 X82.985 Y129.114 Z-0.200 I5.213 J64.277 K0.000 F200.000
G1 X87.359 Y129.135 Z-0.200 F200.000
G3 X88.540 Y129.234 Z-0.200 I0.122 J5.642 K0.000 F200.000
G3 X88.961 Y129.565 Z-0.200 I-0.297 J0.812 K0.000 F200.000
G3 X88.821 Y129.655 Z-0.200 I-0.319 J-0.339 K0.000 F200.000
G3 X87.458 Y129.974 Z-0.200 I-2.923 J-9.438 K0.000 F200.000
G2 X86.596 Y130.552 Z-0.200 I0.147 J1.150 K0.000 F200.000
G2 X86.351 Y131.715 Z-0.200 I3.229 J1.288 K0.000 F200.000
G2 X86.111 Y140.631 Z-0.200 I122.555 J7.763 K0.000 F200.000
G1 X86.127 Y144.588 Z-0.200 F200.000
G2 X86.275 Y145.844 Z-0.200 I5.678 J-0.033 K0.000 F200.000
G2 X87.190 Y146.679 Z-0.200 I1.006 J-0.184 K0.000 F200.000
G3 X88.571 Y146.820 Z-0.200 I-1.350 J20.107 K0.000 F200.000
G3 X89.106 Y146.998 Z-0.200 I-0.183 J1.440 K0.000 F200.000
G3 X89.195 Y147.182 Z-0.200 I-0.055 J0.141 K0.000 F200.000
G3 X88.968 Y147.446 Z-0.200 I-0.321 J-0.047 K0.000 F200.000
G3 X88.414 Y147.549 Z-0.200 I-2.116 J-9.822 K0.000 F200.000
G1 X88.414 Y147.549 Z-0.300 F100.000
G3 X86.909 Y147.671 Z-0.300 I-1.562 J-9.925 K0.000 F200.000
G3 X76.780 Y147.638 Z-0.300 I-4.623 J-134.524 K0.000 F200.000
G3 X75.958 Y147.471 Z-0.300 I0.213 J-3.154 K0.000 F200.000
G3 X72.940 Y146.033 Z-0.300 I3.563 J-11.371 K0.000 F200.000
G3 X69.348 Y140.437 Z-0.300 I6.368 J-8.037 K0.000 F200.000
G3 X69.522 Y135.248 Z-0.300 I11.866 J-2.200 K0.000 F200.000
G3 X73.311 Y130.419 Z-0.300 I8.741 J2.958 K0.000 F200.000
G3 X76.557 Y129.313 Z-0.300 I4.198 J7.006 K0.000 F200.000
G3 X82.985 Y129.114 Z-0.300 I5.213 J64.277 K0.000 F200.000
G1 X87.359 Y129.135 Z-0.300 F200.000
G3 X88.540 Y129.234 Z-0.300 I0.122 J5.642 K0.000 F200.000
G3 X88.961 Y129.565 Z-0.300 I-0.297 J0.812 K0.000 F200.000
G3 X88.821 Y129.655 Z-0.300 I-0.319 J-0.339 K0.000 F200.000
G3 X87.458 Y129.974 Z-0.300 I-2.923 J-9.438 K0.000 F200.000
G2 X86.596 Y130.552 Z-0.300 I0.147 J1.150 K0.000 F200.000
G2 X86.351 Y131.715 Z-0.300 I3.229 J1.288 K0.000 F200.000
G2 X86.111 Y140.631 Z-0.300 I122.555 J7.763 K0.000 F200.000
G1 X86.127 Y144.588 Z-0.300 F200.000
G2 X86.275 Y145.844 Z-0.300 I5.678 J-0.033 K0.000 F200.000
G2 X87.190 Y146.679 Z-0.300 I1.006 J-0.184 K0.000 F200.000
G3 X88.571 Y146.820 Z-0.300 I-1.350 J20.107 K0.000 F200.000
G3 X89.106 Y146.998 Z-0.300 I-0.183 J1.440 K0.000 F200.000
G3 X89.195 Y147.182 Z-0.300 I-0.055 J0.141 K0.000 F200.000
G3 X88.968 Y147.446 Z-0.300 I-0.321 J-0.047 K0.000 F200.000
G3 X88.414 Y147.549 Z-0.300 I-2.116 J-9.822 K0.000 F200.000
G0 Z5.000
G0 Z5.000
G0 X88.414 Y147.549
G0 X85.726 Y146.735
G0 X85.726 Y146.735 Z3.000
G1 X85.726 Y146.735 Z-0.200 F100.000
G3 X84.760 Y146.691 Z-0.200 I-0.190 J-6.435 K0.000 F200.000
G3 X84.843 Y135.415 Z-0.200 I1014.109 J1.834 K0.000 F200.000
G2 X84.945 Y129.818 Z-0.200 I-329.555 J-8.808 K0.000 F200.000
G1 X85.789 Y129.818 Z-0.200 F200.000
G2 X85.530 Y132.635 Z-0.200 I23.467 J3.586 K0.000 F200.000
G2 X85.330 Y144.379 Z-0.200 I173.119 J8.822 K0.000 F200.000
G2 X85.483 Y146.200 Z-0.200 I8.465 J0.204 K0.000 F200.000
G2 X85.726 Y146.735 Z-0.200 I2.439 J-0.786 K0.000 F200.000
G1 X85.726 Y146.735 Z-0.300 F100.000
G3 X84.760 Y146.691 Z-0.300 I-0.190 J-6.435 K0.000 F200.000
G3 X84.843 Y135.415 Z-0.300 I1014.109 J1.834 K0.000 F200.000
G2 X84.945 Y129.818 Z-0.300 I-329.555 J-8.808 K0.000 F200.000
G1 X85.789 Y129.818 Z-0.300 F200.000
G2 X85.530 Y132.635 Z-0.300 I23.467 J3.586 K0.000 F200.000
G2 X85.330 Y144.379 Z-0.300 I173.119 J8.822 K0.000 F200.000
G2 X85.483 Y146.200 Z-0.300 I8.465 J0.204 K0.000 F200.000
G2 X85.726 Y146.735 Z-0.300 I2.439 J-0.786 K0.000 F200.000
G0 Z5.000
G0 Z5.000
G0 X85.726 Y146.735
G0 X82.001 Y146.173
G0 X82.001 Y146.173 Z3.000
G1 X82.001 Y146.173 Z-0.200 F100.000
G3 X81.024 Y146.227 Z-0.200 I-0.670 J-3.253 K0.000 F200.000
G3 X77.401 Y145.494 Z-0.200 I0.327 J-10.934 K0.000 F200.000
G3 X74.841 Y143.479 Z-0.200 I2.167 J-5.387 K0.000 F200.000
G3 X73.257 Y139.257 Z-0.200 I5.852 J-4.603 K0.000 F200.000
G3 X73.768 Y135.048 Z-0.200 I10.173 J-0.902 K0.000 F200.000
G3 X78.708 Y130.843 Z-0.200 I5.976 J2.016 K0.000 F200.000
G3 X82.231 Y130.790 Z-0.200 I1.929 J11.165 K0.000 F200.000
G1 X82.310 Y130.805 Z-0.200 F200.000
G3 X82.001 Y146.173 Z-0.200 I-459.961 J-1.554 K0.000 F200.000
G1 X82.001 Y146.173 Z-0.300 F100.000
G3 X81.024 Y146.227 Z-0.300 I-0.670 J-3.253 K0.000 F200.000
G3 X77.401 Y145.494 Z-0.300 I0.327 J-10.934 K0.000 F200.000
G3 X74.841 Y143.479 Z-0.300 I2.167 J-5.387 K0.000 F200.000
G3 X73.257 Y139.257 Z-0.300 I5.852 J-4.603 K0.000 F200.000
G3 X73.768 Y135.048 Z-0.300 I10.173 J-0.902 K0.000 F200.000
G3 X78.708 Y130.843 Z-0.300 I5.976 J2.016 K0.000 F200.000
G3 X82.231 Y130.790 Z-0.300 I1.929 J11.165 K0.000 F200.000
G1 X82.310 Y130.805 Z-0.300 F200.000
G3 X82.001 Y146.173 Z-0.300 I-459.961 J-1.554 K0.000 F200.000
G0 Z5.000
G0 Z5.000
G0 X82.001 Y146.173
G0 X74.776 Y145.100
G0 X74.776 Y145.100 Z3.000
G1 X74.776 Y145.100 Z-0.200 F100.000
G3 X71.397 Y140.038 Z-0.200 I4.891 J-6.924 K0.000 F200.000
G3 X75.023 Y131.176 Z-0.200 I8.557 J-1.672 K0.000 F200.000
G3 X75.827 Y130.729 Z-0.200 I2.664 J3.843 K0.000 F200.000
G2 X72.197 Y137.927 Z-0.200 I5.146 J7.110 K0.000 F200.000
G2 X72.320 Y140.465 Z-0.200 I13.035 J0.639 K0.000 F200.000
G2 X74.776 Y145.100 Z-0.200 I9.047 J-1.826 K0.000 F200.000
G1 X74.776 Y145.100 Z-0.300 F100.000
G3 X71.397 Y140.038 Z-0.300 I4.891 J-6.924 K0.000 F200.000
G3 X75.023 Y131.176 Z-0.300 I8.557 J-1.672 K0.000 F200.000
G3 X75.827 Y130.729 Z-0.300 I2.664 J3.843 K0.000 F200.000
G2 X72.197 Y137.927 Z-0.300 I5.146 J7.110 K0.000 F200.000
G2 X72.320 Y140.465 Z-0.300 I13.035 J0.639 K0.000 F200.000
G2 X74.776 Y145.100 Z-0.300 I9.047 J-1.826 K0.000 F200.000
G0 Z5.000
G0 Z5.000
G0 X74.776 Y145.100
G0 X69.681 Y146.574
G0 X69.681 Y146.574 Z3.000
G1 X69.681 Y146.574 Z-0.200 F100.000
G3 X69.631 Y146.884 Z-0.200 I-0.355 J0.103 K0.000 F200.000
G3 X69.149 Y147.292 Z-0.200 I-0.559 J-0.172 K0.000 F200.000
G1 X68.551 Y147.337 Z-0.200 F200.000
G3 X52.254 Y147.331 Z-0.200 I-8.010 J-392.840 K0.000 F200.000
G3 X51.313 Y147.271 Z-0.200 I-0.167 J-4.773 K0.000 F200.000
G3 X51.115 Y147.169 Z-0.200 I0.048 J-0.336 K0.000 F200.000
G3 X51.157 Y146.063 Z-0.200 I4.067 J-0.399 K0.000 F200.000
G2 X50.992 Y143.400 Z-0.200 I-18.818 J-0.169 K0.000 F200.000
G1 X50.771 Y141.504 Z-0.200 F200.000
G3 X50.801 Y141.082 Z-0.200 I0.863 J-0.152 K0.000 F200.000
G3 X51.400 Y141.048 Z-0.200 I0.312 J0.195 K0.000 F200.000
G3 X52.600 Y142.686 Z-0.200 I-18.464 J14.783 K0.000 F200.000
G2 X54.505 Y144.939 Z-0.200 I9.587 J-6.175 K0.000 F200.000
G2 X56.289 Y145.810 Z-0.200 I2.878 J-3.635 K0.000 F200.000
G2 X60.490 Y146.208 Z-0.200 I3.455 J-14.105 K0.000 F200.000
G1 X62.268 Y146.159 Z-0.200 F200.000
G2 X62.511 Y145.930 Z-0.200 I-0.007 J-0.250 K0.000 F200.000
G2 X62.681 Y138.453 Z-0.200 I-52.490 J-4.935 K0.000 F200.000
G2 X62.440 Y138.208 Z-0.200 I-0.250 J0.005 K0.000 F200.000
G2 X60.249 Y138.156 Z-0.200 I-1.922 J34.730 K0.000 F200.000
G2 X58.708 Y138.483 Z-0.200 I-0.086 J3.392 K0.000 F200.000
G2 X57.712 Y139.438 Z-0.200 I1.224 J2.273 K0.000 F200.000
G2 X56.782 Y141.410 Z-0.200 I16.321 J8.908 K0.000 F200.000
G3 X56.166 Y141.349 Z-0.200 I-0.276 J-0.348 K0.000 F200.000
G3 X56.102 Y140.869 Z-0.200 I1.759 J-0.476 K0.000 F200.000
G3 X56.180 Y134.258 Z-0.200 I59.593 J-2.607 K0.000 F200.000
G1 X56.227 Y133.947 Z-0.200 F200.000
G3 X56.801 Y134.128 Z-0.200 I0.218 J0.310 K0.000 F200.000
G2 X57.677 Y135.861 Z-0.200 I4.679 J-1.277 K0.000 F200.000
G2 X58.366 Y136.616 Z-0.200 I3.119 J-2.155 K0.000 F200.000
G2 X58.954 Y136.852 Z-0.200 I0.815 J-1.180 K0.000 F200.000
G2 X62.313 Y137.163 Z-0.200 I3.146 J-15.692 K0.000 F200.000
G2 X62.619 Y136.940 Z-0.200 I-0.016 J-0.344 K0.000 F200.000
G2 X62.720 Y136.101 Z-0.200 I-3.323 J-0.824 K0.000 F200.000
G2 X62.768 Y130.735 Z-0.200 I-58.021 J-3.211 K0.000 F200.000
G2 X62.697 Y130.226 Z-0.200 I-1.240 J-0.085 K0.000 F200.000
G2 X62.285 Y130.009 Z-0.200 I-0.371 J0.204 K0.000 F200.000
G2 X56.723 Y130.041 Z-0.200 I-2.589 J33.838 K0.000 F200.000
G2 X54.310 Y130.832 Z-0.200 I0.398 J5.285 K0.000 F200.000
G2 X53.080 Y132.153 Z-0.200 I2.641 J3.693 K0.000 F200.000
G3 X52.131 Y133.771 Z-0.200 I-16.647 J-8.674 K0.000 F200.000
G3 X51.877 Y134.003 Z-0.200 I-0.543 J-0.340 K0.000 F200.000
G3 X51.840 Y133.981 Z-0.200 I-0.017 J-0.014 K0.000 F200.000
G3 X52.048 Y128.878 Z-0.200 I26.885 J-1.461 K0.000 F200.000
G1 X52.291 Y128.847 Z-0.200 F200.000
G3 X69.346 Y128.940 Z-0.200 I6.936 J292.925 K0.000 F200.000
G1 X69.788 Y128.980 Z-0.200 F200.000
G3 X69.733 Y129.398 Z-0.200 I-0.193 J0.187 K0.000 F200.000
G3 X68.551 Y129.770 Z-0.200 I-2.085 J-4.561 K0.000 F200.000
G2 X67.231 Y130.205 Z-0.200 I1.448 J6.623 K0.000 F200.000
G2 X66.623 Y130.950 Z-0.200 I0.281 J0.850 K0.000 F200.000
G2 X66.465 Y133.534 Z-0.200 I18.813 J2.449 K0.000 F200.000
G2 X66.332 Y142.410 Z-0.200 I1199.808 J22.401 K0.000 F200.000
G2 X66.391 Y144.684 Z-0.200 I20.987 J0.591 K0.000 F200.000
G2 X66.605 Y145.551 Z-0.200 I2.457 J-0.147 K0.000 F200.000
G2 X67.358 Y146.089 Z-0.200 I0.906 J-0.473 K0.000 F200.000
G3 X69.317 Y146.400 Z-0.200 I-2.195 J20.155 K0.000 F200.000
G3 X69.672 Y146.547 Z-0.200 I-0.110 J0.770 K0.000 F200.000
G3 X69.681 Y146.574 Z-0.200 I-0.346 J0.130 K0.000 F200.000
G1 X69.681 Y146.574 Z-0.300 F100.000
G3 X69.631 Y146.884 Z-0.300 I-0.355 J0.103 K0.000 F200.000
G3 X69.149 Y147.292 Z-0.300 I-0.559 J-0.172 K0.000 F200.000
G1 X68.551 Y147.337 Z-0.300 F200.000
G3 X52.254 Y147.331 Z-0.300 I-8.010 J-392.840 K0.000 F200.000
G3 X51.313 Y147.271 Z-0.300 I-0.167 J-4.773 K0.000 F200.000
G3 X51.115 Y147.169 Z-0.300 I0.048 J-0.336 K0.000 F200.000
G3 X51.157 Y146.063 Z-0.300 I4.067 J-0.399 K0.000 F200.000
G2 X50.992 Y143.400 Z-0.300 I-18.818 J-0.169 K0.000 F200.000
G1 X50.771 Y141.504 Z-0.300 F200.000
G3 X50.801 Y141.082 Z-0.300 I0.863 J-0.152 K0.000 F200.000
G3 X51.400 Y141.048 Z-0.300 I0.312 J0.195 K0.000 F200.000
G3 X52.600 Y142.686 Z-0.300 I-18.464 J14.783 K0.000 F200.000
G2 X54.505 Y144.939 Z-0.300 I9.587 J-6.175 K0.000 F200.000
G2 X56.289 Y145.810 Z-0.300 I2.878 J-3.635 K0.000 F200.000
G2 X60.490 Y146.208 Z-0.300 I3.455 J-14.105 K0.000 F200.000
G1 X62.268 Y146.159 Z-0.300 F200.000
G2 X62.511 Y145.930 Z-0.300 I-0.007 J-0.250 K0.000 F200.000
G2 X62.681 Y138.453 Z-0.300 I-52.490 J-4.935 K0.000 F200.000
G2 X62.440 Y138.208 Z-0.300 I-0.250 J0.005 K0.000 F200.000
G2 X60.249 Y138.156 Z-0.300 I-1.922 J34.730 K0.000 F200.000
G2 X58.708 Y138.483 Z-0.300 I-0.086 J3.392 K0.000 F200.000
G2 X57.712 Y139.438 Z-0.300 I1.224 J2.273 K0.000 F200.000
G2 X56.782 Y141.410 Z-0.300 I16.321 J8.908 K0.000 F200.000
G3 X56.166 Y141.349 Z-0.300 I-0.276 J-0.348 K0.000 F200.000
G3 X56.102 Y140.869 Z-0.300 I1.759 J-0.476 K0.000 F200.000
G3 X56.180 Y134.258 Z-0.300 I59.593 J-2.607 K0.000 F200.000
G1 X56.227 Y133.947 Z-0.300 F200.000
G3 X56.801 Y134.128 Z-0.300 I0.218 J0.310 K0.000 F200.000
G2 X57.677 Y135.861 Z-0.300 I4.679 J-1.277 K0.000 F200.000
G2 X58.366 Y136.616 Z-0.300 I3.119 J-2.155 K0.000 F200.000
G2 X58.954 Y136.852 Z-0.300 I0.815 J-1.180 K0.000 F200.000
G2 X62.313 Y137.163 Z-0.300 I3.146 J-15.692 K0.000 F200.000
G2 X62.619 Y136.940 Z-0.300 I-0.016 J-0.344 K0.000 F200.000
G2 X62.720 Y136.101 Z-0.300 I-3.323 J-0.824 K0.000 F200.000
G2 X62.768 Y130.735 Z-0.300 I-58.021 J-3.211 K0.000 F200.000
G2 X62.697 Y130.226 Z-0.300 I-1.240 J-0.085 K0.000 F200.000
G2 X62.285 Y130.009 Z-0.300 I-0.371 J0.204 K0.000 F200.000
G2 X56.723 Y130.041 Z-0.300 I-2.589 J33.838 K0.000 F200.000
G2 X54.310 Y130.832 Z-0.300 I0.398 J5.285 K0.000 F200.000
G2 X53.080 Y132.153 Z-0.300 I2.641 J3.693 K0.000 F200.000
G3 X52.131 Y133.771 Z-0.300 I-16.647 J-8.674 K0.000 F200.000
G3 X51.877 Y134.003 Z-0.300 I-0.543 J-0.340 K0.000 F200.000
G3 X51.840 Y133.981 Z-0.300 I-0.017 J-0.014 K0.000 F200.000
G3 X52.048 Y128.878 Z-0.300 I26.885 J-1.461 K0.000 F200.000
G1 X52.291 Y128.847 Z-0.300 F200.000
G3 X69.346 Y128.940 Z-0.300 I6.936 J292.925 K0.000 F200.000
G1 X69.788 Y128.980 Z-0.300 F200.000
G3 X69.733 Y129.398 Z-0.300 I-0.193 J0.187 K0.000 F200.000
G3 X68.551 Y129.770 Z-0.300 I-2.085 J-4.561 K0.000 F200.000
G2 X67.231 Y130.205 Z-0.300 I1.448 J6.623 K0.000 F200.000
G2 X66.623 Y130.950 Z-0.300 I0.281 J0.850 K0.000 F200.000
G2 X66.465 Y133.534 Z-0.300 I18.813 J2.449 K0.000 F200.000
G2 X66.332 Y142.410 Z-0.300 I1199.808 J22.401 K0.000 F200.000
G2 X66.391 Y144.684 Z-0.300 I20.987 J0.591 K0.000 F200.000
G2 X66.605 Y145.551 Z-0.300 I2.457 J-0.147 K0.000 F200.000
G2 X67.358 Y146.089 Z-0.300 I0.906 J-0.473 K0.000 F200.000
G3 X69.317 Y146.400 Z-0.300 I-2.195 J20.155 K0.000 F200.000
G3 X69.672 Y146.547 Z-0.300 I-0.110 J0.770 K0.000 F200.000
G3 X69.681 Y146.574 Z-0.300 I-0.346 J0.130 K0.000 F200.000
G0 Z5.000
G0 Z5.000
G0 X69.681 Y146.574
G0 X84.067 Y157.811
G0 X84.067 Y157.811 Z3.000
G1 X84.067 Y157.811 Z-0.200 F100.000
G3 X84.388 Y157.664 Z-0.200 I0.302 J0.236 K0.000 F200.000
G3 X85.804 Y158.479 Z-0.200 I-0.040 J1.707 K0.000 F200.000
G3 X86.338 Y159.745 Z-0.200 I-5.206 J2.939 K0.000 F200.000
G2 X86.820 Y160.824 Z-0.200 I3.309 J-0.833 K0.000 F200.000
G2 X87.452 Y160.536 Z-0.200 I0.293 J-0.193 K0.000 F200.000
G3 X86.875 Y158.745 Z-0.200 I47.518 J-16.286 K0.000 F200.000
G3 X86.797 Y158.085 Z-0.200 I1.825 J-0.551 K0.000 F200.000
G3 X87.104 Y157.646 Z-0.200 I0.526 J0.041 K0.000 F200.000
G3 X87.566 Y157.856 Z-0.200 I-0.067 J0.762 K0.000 F200.000
G2 X88.007 Y158.118 Z-0.200 I0.988 J-1.164 K0.000 F200.000
G2 X88.726 Y157.938 Z-0.200 I0.196 J-0.745 K0.000 F200.000
G3 X89.002 Y157.793 Z-0.200 I0.343 J0.317 K0.000 F200.000
G3 X89.763 Y158.155 Z-0.200 I-4.123 J9.674 K0.000 F200.000
G2 X90.341 Y157.943 Z-0.200 I0.177 J-0.410 K0.000 F200.000
G3 X90.964 Y157.771 Z-0.200 I0.496 J0.581 K0.000 F200.000
G3 X91.800 Y158.002 Z-0.200 I-0.559 J3.643 K0.000 F200.000
G2 X92.628 Y157.834 Z-0.200 I0.256 J-0.864 K0.000 F200.000
G3 X93.205 Y157.606 Z-0.200 I0.660 J0.828 K0.000 F200.000
G3 X93.804 Y157.865 Z-0.200 I-0.017 J0.861 K0.000 F200.000
G3 X94.207 Y159.092 Z-0.200 I-0.866 J0.965 K0.000 F200.000
G2 X94.008 Y160.609 Z-0.200 I5.524 J1.497 K0.000 F200.000
G2 X94.658 Y161.199 Z-0.200 I0.695 J-0.113 K0.000 F200.000
G3 X95.343 Y161.252 Z-0.200 I-5.342 J74.184 K0.000 F200.000
G3 X95.387 Y161.289 Z-0.200 I-0.009 J0.055 K0.000 F200.000
G3 X95.377 Y161.761 Z-0.200 I-0.423 J0.228 K0.000 F200.000
G3 X93.896 Y161.827 Z-0.200 I-0.802 J-1.332 K0.000 F200.000
G3 X93.369 Y160.702 Z-0.200 I0.646 J-0.988 K0.000 F200.000
G3 X93.822 Y159.390 Z-0.200 I6.255 J1.427 K0.000 F200.000
G2 X93.619 Y158.892 Z-0.200 I-0.372 J-0.138 K0.000 F200.000
G2 X91.671 Y158.651 Z-0.200 I-1.710 J5.833 K0.000 F200.000
G2 X91.473 Y158.929 Z-0.200 I0.050 J0.245 K0.000 F200.000
G1 X91.518 Y159.260 Z-0.200 F200.000
G3 X92.048 Y161.469 Z-0.200 I-15.970 J4.995 K0.000 F200.000
G3 X92.031 Y161.894 Z-0.200 I-0.886 J0.179 K0.000 F200.000
G3 X91.796 Y161.997 Z-0.200 I-0.188 J-0.111 K0.000 F200.000
G3 X91.036 Y161.763 Z-0.200 I0.447 J-2.804 K0.000 F200.000
G2 X90.102 Y161.884 Z-0.200 I-0.324 J1.165 K0.000 F200.000
G3 X89.625 Y161.632 Z-0.200 I-0.088 J-0.413 K0.000 F200.000
G3 X89.146 Y160.415 Z-0.200 I6.541 J-3.277 K0.000 F200.000
G2 X88.589 Y159.298 Z-0.200 I-3.101 J0.848 K0.000 F200.000
G2 X88.015 Y159.499 Z-0.200 I-0.257 J0.185 K0.000 F200.000
G2 X88.290 Y160.700 Z-0.200 I4.150 J-0.318 K0.000 F200.000
G3 X88.449 Y161.539 Z-0.200 I-1.392 J0.698 K0.000 F200.000
G3 X88.287 Y161.924 Z-0.200 I-1.049 J-0.215 K0.000 F200.000
G3 X88.224 Y161.954 Z-0.200 I-0.056 J-0.039 K0.000 F200.000
G2 X87.028 Y161.826 Z-0.200 I-0.937 J3.112 K0.000 F200.000
G3 X86.025 Y161.964 Z-0.200 I-2.340 J-13.256 K0.000 F200.000
G3 X85.174 Y161.617 Z-0.200 I0.088 J-1.434 K0.000 F200.000
G3 X84.635 Y161.069 Z-0.200 I0.528 J-1.058 K0.000 F200.000
G3 X84.635 Y160.826 Z-0.200 I0.331 J-0.120 K0.000 F200.000
G3 X85.204 Y160.990 Z-0.200 I-0.009 J1.097 K0.000 F200.000
G2 X85.686 Y161.122 Z-0.200 I0.515 J-0.934 K0.000 F200.000
G2 X86.073 Y160.806 Z-0.200 I-0.006 J-0.402 K0.000 F200.000
G2 X85.052 Y158.610 Z-0.200 I-2.304 J-0.263 K0.000 F200.000
G2 X84.334 Y158.430 Z-0.200 I-0.831 J1.786 K0.000 F200.000
G3 X84.067 Y157.811 Z-0.200 I0.035 J-0.382 K0.000 F200.000
G1 X84.067 Y157.811 Z-0.300 F100.000
G3 X84.388 Y157.664 Z-0.300 I0.302 J0.236 K0.000 F200.000
G3 X85.804 Y158.479 Z-0.300 I-0.040 J1.707 K0.000 F200.000
G3 X86.338 Y159.745 Z-0.300 I-5.206 J2.939 K0.000 F200.000
G2 X86.820 Y160.824 Z-0.300 I3.309 J-0.833 K0.000 F200.000
G2 X87.452 Y160.536 Z-0.300 I0.293 J-0.193 K0.000 F200.000
G3 X86.875 Y158.745 Z-0.300 I47.518 J-16.286 K0.000 F200.000
G3 X86.797 Y158.085 Z-0.300 I1.825 J-0.551 K0.000 F200.000
G3 X87.104 Y157.646 Z-0.300 I0.526 J0.041 K0.000 F200.000
G3 X87.566 Y157.856 Z-0.300 I-0.067 J0.762 K0.000 F200.000
G2 X88.007 Y158.118 Z-0.300 I0.988 J-1.164 K0.000 F200.000
G2 X88.726 Y157.938 Z-0.300 I0.196 J-0.745 K0.000 F200.000
G3 X89.002 Y157.793 Z-0.300 I0.343 J0.317 K0.000 F200.000
G3 X89.763 Y158.155 Z-0.300 I-4.123 J9.674 K0.000 F200.000
G2 X90.341 Y157.943 Z-0.300 I0.177 J-0.410 K0.000 F200.000
G3 X90.964 Y157.771 Z-0.300 I0.496 J0.581 K0.000 F200.000
G3 X91.800 Y158.002 Z-0.300 I-0.559 J3.643 K0.000 F200.000
G2 X92.628 Y157.834 Z-0.300 I0.256 J-0.864 K0.000 F200.000
G3 X93.205 Y157.606 Z-0.300 I0.660 J0.828 K0.000 F200.000
G3 X93.804 Y157.865 Z-0.300 I-0.017 J0.861 K0.000 F200.000
G3 X94.207 Y159.092 Z-0.300 I-0.866 J0.965 K0.000 F200.000
G2 X94.008 Y160.609 Z-0.300 I5.524 J1.497 K0.000 F200.000
G2 X94.658 Y161.199 Z-0.300 I0.695 J-0.113 K0.000 F200.000
G3 X95.343 Y161.252 Z-0.300 I-5.342 J74.184 K0.000 F200.000
G3 X95.387 Y161.289 Z-0.300 I-0.009 J0.055 K0.000 F200.000
G3 X95.377 Y161.761 Z-0.300 I-0.423 J0.228 K0.000 F200.000
G3 X93.896 Y161.827 Z-0.300 I-0.802 J-1.332 K0.000 F200.000
G3 X93.369 Y160.702 Z-0.300 I0.646 J-0.988 K0.000 F200.000
G3 X93.822 Y159.390 Z-0.300 I6.255 J1.427 K0.000 F200.000
G2 X93.619 Y158.892 Z-0.300 I-0.372 J-0.138 K0.000 F200.000
G2 X91.671 Y158.651 Z-0.300 I-1.710 J5.833 K0.000 F200.000
G2 X91.473 Y158.929 Z-0.300 I0.050 J0.245 K0.000 F200.000
G1 X91.518 Y159.260 Z-0.300 F200.000
G3 X92.048 Y161.469 Z-0.300 I-15.970 J4.995 K0.000 F200.000
G3 X92.031 Y161.894 Z-0.300 I-0.886 J0.179 K0.000 F200.000
G3 X91.796 Y161.997 Z-0.300 I-0.188 J-0.111 K0.000 F200.000
G3 X91.036 Y161.763 Z-0.300 I0.447 J-2.804 K0.000 F200.000
G2 X90.102 Y161.884 Z-0.300 I-0.324 J1.165 K0.000 F200.000
G3 X89.625 Y161.632 Z-0.300 I-0.088 J-0.413 K0.000 F200.000
G3 X89.146 Y160.415 Z-0.300 I6.541 J-3.277 K0.000 F200.000
G2 X88.589 Y159.298 Z-0.300 I-3.101 J0.848 K0.000 F200.000
G2 X88.015 Y159.499 Z-0.300 I-0.257 J0.185 K0.000 F200.000
G2 X88.290 Y160.700 Z-0.300 I4.150 J-0.318 K0.000 F200.000
G3 X88.449 Y161.539 Z-0.300 I-1.392 J0.698 K0.000 F200.000
G3 X88.287 Y161.924 Z-0.300 I-1.049 J-0.215 K0.000 F200.000
G3 X88.224 Y161.954 Z-0.300 I-0.056 J-0.039 K0.000 F200.000
G2 X87.028 Y161.826 Z-0.300 I-0.937 J3.112 K0.000 F200.000
G3 X86.025 Y161.964 Z-0.300 I-2.340 J-13.256 K0.000 F200.000
G3 X85.174 Y161.617 Z-0.300 I0.088 J-1.434 K0.000 F200.000
G3 X84.635 Y161.069 Z-0.300 I0.528 J-1.058 K0.000 F200.000
G3 X84.635 Y160.826 Z-0.300 I0.331 J-0.120 K0.000 F200.000
G3 X85.204 Y160.990 Z-0.300 I-0.009 J1.097 K0.000 F200.000
G2 X85.686 Y161.122 Z-0.300 I0.515 J-0.934 K0.000 F200.000
G2 X86.073 Y160.806 Z-0.300 I-0.006 J-0.402 K0.000 F200.000
G2 X85.052 Y158.610 Z-0.300 I-2.304 J-0.263 K0.000 F200.000
G2 X84.334 Y158.430 Z-0.300 I-0.831 J1.786 K0.000 F200.000
G3 X84.067 Y157.811 Z-0.300 I0.035 J-0.382 K0.000 F200.000
G0 Z5.000
G0 Z5.000
G0 X84.067 Y157.811
G0 X98.735 Y158.517
G0 X98.735 Y158.517 Z3.000
G1 X98.735 Y158.517 Z-0.200 F100.000
G3 X99.242 Y158.107 Z-0.200 I0.436 J0.021 K0.000 F200.000
G1 X99.232 Y158.153 Z-0.200 F200.000
G3 X98.789 Y158.603 Z-0.200 I-0.645 J-0.192 K0.000 F200.000
G3 X98.736 Y158.572 Z-0.200 I-0.015 J-0.035 K0.000 F200.000
G3 X98.735 Y158.517 Z-0.200 I0.435 J-0.034 K0.000 F200.000
G1 X98.735 Y158.517 Z-0.300 F100.000
G3 X99.242 Y158.107 Z-0.300 I0.436 J0.021 K0.000 F200.000
G1 X99.232 Y158.153 Z-0.300 F200.000
G3 X98.789 Y158.603 Z-0.300 I-0.645 J-0.192 K0.000 F200.000
G3 X98.736 Y158.572 Z-0.300 I-0.015 J-0.035 K0.000 F200.000
G3 X98.735 Y158.517 Z-0.300 I0.435 J-0.034 K0.000 F200.000
G0 Z5.000
G0 Z5.000
G0 X98.735 Y158.517
G0 X99.535 Y159.600
G0 X99.535 Y159.600 Z3.000
G1 X99.535 Y159.600 Z-0.200 F100.000
G3 X99.830 Y159.405 Z-0.200 I2.063 J2.795 K0.000 F200.000
G2 X100.335 Y158.986 Z-0.200 I-0.578 J-1.211 K0.000 F200.000
G2 X100.339 Y158.431 Z-0.200 I-0.453 J-0.281 K0.000 F200.000
G3 X100.225 Y158.100 Z-0.200 I0.448 J-0.340 K0.000 F200.000
G3 X100.870 Y158.841 Z-0.200 I-0.331 J0.940 K0.000 F200.000
G3 X100.533 Y159.545 Z-0.200 I-1.165 J-0.124 K0.000 F200.000
G2 X99.242 Y160.890 Z-0.200 I11.458 J12.289 K0.000 F200.000
G2 X99.591 Y161.523 Z-0.200 I0.394 J0.196 K0.000 F200.000
G2 X100.759 Y161.214 Z-0.200 I0.164 J-1.745 K0.000 F200.000
G3 X100.979 Y161.211 Z-0.200 I0.112 J0.089 K0.000 F200.000
G3 X98.712 Y160.991 Z-0.200 I-1.085 J-0.612 K0.000 F200.000
G3 X99.051 Y160.033 Z-0.200 I1.062 J-0.163 K0.000 F200.000
G3 X99.535 Y159.600 Z-0.200 I2.547 J2.362 K0.000 F200.000
G1 X99.535 Y159.600 Z-0.300 F100.000
G3 X99.830 Y159.405 Z-0.300 I2.063 J2.795 K0.000 F200.000
G2 X100.335 Y158.986 Z-0.300 I-0.578 J-1.211 K0.000 F200.000
G2 X100.339 Y158.431 Z-0.300 I-0.453 J-0.281 K0.000 F200.000
G3 X100.225 Y158.100 Z-0.300 I0.448 J-0.340 K0.000 F200.000
G3 X100.870 Y158.841 Z-0.300 I-0.331 J0.940 K0.000 F200.000
G3 X100.533 Y159.545 Z-0.300 I-1.165 J-0.124 K0.000 F200.000
G2 X99.242 Y160.890 Z-0.300 I11.458 J12.289 K0.000 F200.000
G2 X99.591 Y161.523 Z-0.300 I0.394 J0.196 K0.000 F200.000
G2 X100.759 Y161.214 Z-0.300 I0.164 J-1.745 K0.000 F200.000
G3 X100.979 Y161.211 Z-0.300 I0.112 J0.089 K0.000 F200.000
G3 X98.712 Y160.991 Z-0.300 I-1.085 J-0.612 K0.000 F200.000
G3 X99.051 Y160.033 Z-0.300 I1.062 J-0.163 K0.000 F200.000
G3 X99.535 Y159.600 Z-0.300 I2.547 J2.362 K0.000 F200.000
G0 Z5.000
G0 Z5.000
G0 X99.535 Y159.600
G0 X101.895 Y159.751
G0 X101.895 Y159.751 Z3.000
G1 X101.895 Y159.751 Z-0.200 F100.000
G2 X101.981 Y157.757 Z-0.200 I-47.294 J-3.030 K0.000 F200.000
G3 X102.108 Y155.101 Z-0.200 I40.833 J0.628 K0.000 F200.000
G3 X102.586 Y155.288 Z-0.200 I0.014 J0.669 K0.000 F200.000
G3 X102.565 Y156.241 Z-0.200 I-2.778 J0.416 K0.000 F200.000
G2 X102.568 Y157.265 Z-0.200 I4.100 J0.499 K0.000 F200.000
G2 X103.018 Y158.017 Z-0.200 I1.447 J-0.355 K0.000 F200.000
G3 X102.870 Y158.316 Z-0.200 I-0.469 J-0.046 K0.000 F200.000
G2 X102.579 Y159.590 Z-0.200 I2.931 J1.342 K0.000 F200.000
G2 X102.628 Y160.709 Z-0.200 I4.614 J0.356 K0.000 F200.000
G2 X103.689 Y161.460 Z-0.200 I0.857 J-0.086 K0.000 F200.000
G2 X104.906 Y160.026 Z-0.200 I-0.398 J-1.572 K0.000 F200.000
G2 X104.218 Y158.270 Z-0.200 I-2.264 J-0.126 K0.000 F200.000
G3 X105.180 Y158.976 Z-0.200 I-0.098 J1.142 K0.000 F200.000
G3 X105.163 Y161.154 Z-0.200 I-2.131 J1.072 K0.000 F200.000
G3 X104.166 Y161.693 Z-0.200 I-0.921 J-0.512 K0.000 F200.000
G3 X101.884 Y161.569 Z-0.200 I-0.603 J-9.990 K0.000 F200.000
G1 X101.748 Y161.524 Z-0.200 F200.000
G2 X101.895 Y159.751 Z-0.200 I-47.147 J-4.803 K0.000 F200.000
G1 X101.895 Y159.751 Z-0.300 F100.000
G2 X101.981 Y157.757 Z-0.300 I-47.294 J-3.030 K0.000 F200.000
G3 X102.108 Y155.101 Z-0.300 I40.833 J0.628 K0.000 F200.000
G3 X102.586 Y155.288 Z-0.300 I0.014 J0.669 K0.000 F200.000
G3 X102.565 Y156.241 Z-0.300 I-2.778 J0.416 K0.000 F200.000
G2 X102.568 Y157.265 Z-0.300 I4.100 J0.499 K0.000 F200.000
G2 X103.018 Y158.017 Z-0.300 I1.447 J-0.355 K0.000 F200.000
G3 X102.870 Y158.316 Z-0.300 I-0.469 J-0.046 K0.000 F200.000
G2 X102.579 Y159.590 Z-0.300 I2.931 J1.342 K0.000 F200.000
G2 X102.628 Y160.709 Z-0.300 I4.614 J0.356 K0.000 F200.000
G2 X103.689 Y161.460 Z-0.300 I0.857 J-0.086 K0.000 F200.000
G2 X104.906 Y160.026 Z-0.300 I-0.398 J-1.572 K0.000 F200.000
G2 X104.218 Y158.270 Z-0.300 I-2.264 J-0.126 K0.000 F200.000
G3 X105.180 Y158.976 Z-0.300 I-0.098 J1.142 K0.000 F200.000
G3 X105.163 Y161.154 Z-0.300 I-2.131 J1.072 K0.000 F200.000
G3 X104.166 Y161.693 Z-0.300 I-0.921 J-0.512 K0.000 F200.000
G3 X101.884 Y161.569 Z-0.300 I-0.603 J-9.990 K0.000 F200.000
G1 X101.748 Y161.524 Z-0.300 F200.000
G2 X101.895 Y159.751 Z-0.300 I-47.147 J-4.803 K0.000 F200.000
G0 Z5.000
G0 Z5.000
G0 X101.895 Y159.751
G0 X106.239 Y160.299
G0 X106.239 Y160.299 Z3.000
G1 X106.239 Y160.299 Z-0.200 F100.000
G2 X106.300 Y159.044 Z-0.200 I-8.156 J-1.028 K0.000 F200.000
G3 X106.920 Y157.953 Z-0.200 I1.552 J0.161 K0.000 F200.000
G3 X107.712 Y158.037 Z-0.200 I0.179 J2.092 K0.000 F200.000
G2 X109.378 Y158.133 Z-0.200 I1.079 J-4.217 K0.000 F200.000
G3 X109.574 Y158.329 Z-0.200 I0.055 J0.141 K0.000 F200.000
G2 X109.381 Y161.024 Z-0.200 I7.553 J1.896 K0.000 F200.000
G2 X110.160 Y161.441 Z-0.200 I0.543 J-0.077 K0.000 F200.000
G2 X110.584 Y160.951 Z-0.200 I-0.255 J-0.649 K0.000 F200.000
G2 X110.687 Y159.803 Z-0.200 I-3.964 J-0.934 K0.000 F200.000
G3 X110.808 Y158.637 Z-0.200 I4.497 J-0.120 K0.000 F200.000
G3 X111.160 Y158.027 Z-0.200 I0.923 J0.126 K0.000 F200.000
G3 X111.705 Y157.983 Z-0.200 I0.320 J0.568 K0.000 F200.000
G3 X113.045 Y158.972 Z-0.200 I-0.859 J2.565 K0.000 F200.000
G1 X113.053 Y159.012 Z-0.200 F200.000
G3 X112.353 Y158.408 Z-0.200 I3.880 J-5.201 K0.000 F200.000
G2 X111.777 Y158.426 Z-0.200 I-0.274 J0.462 K0.000 F200.000
G2 X111.104 Y159.130 Z-0.200 I0.377 J1.033 K0.000 F200.000
G2 X111.415 Y159.732 Z-0.200 I0.694 J0.022 K0.000 F200.000
G2 X112.501 Y160.479 Z-0.200 I8.880 J-11.736 K0.000 F200.000
G3 X112.994 Y160.900 Z-0.200 I-0.943 J1.604 K0.000 F200.000
G3 X112.867 Y161.746 Z-0.200 I-0.704 J0.326 K0.000 F200.000
G3 X111.944 Y161.693 Z-0.200 I-0.302 J-2.781 K0.000 F200.000
G2 X110.350 Y161.773 Z-0.200 I-0.583 J4.263 K0.000 F200.000
G3 X108.653 Y161.675 Z-0.200 I-0.532 J-5.481 K0.000 F200.000
G2 X108.806 Y159.649 Z-0.200 I-38.286 J-3.901 K0.000 F200.000
G2 X108.668 Y158.923 Z-0.200 I-1.249 J-0.139 K0.000 F200.000
G2 X107.799 Y158.294 Z-0.200 I-1.088 J0.588 K0.000 F200.000
G2 X106.854 Y158.978 Z-0.200 I-0.102 J0.855 K0.000 F200.000
G2 X106.785 Y161.062 Z-0.200 I4.019 J1.176 K0.000 F200.000
G2 X107.036 Y161.672 Z-0.200 I11.698 J-4.451 K0.000 F200.000
G3 X105.995 Y161.697 Z-0.200 I-0.581 J-2.520 K0.000 F200.000
G3 X105.976 Y161.565 Z-0.200 I0.081 J-0.079 K0.000 F200.000
G2 X106.239 Y160.299 Z-0.200 I-7.894 J-2.294 K0.000 F200.000
G1 X106.239 Y160.299 Z-0.300 F100.000
G2 X106.300 Y159.044 Z-0.300 I-8.156 J-1.028 K0.000 F200.000
G3 X106.920 Y157.953 Z-0.300 I1.552 J0.161 K0.000 F200.000
G3 X107.712 Y158.037 Z-0.300 I0.179 J2.092 K0.000 F200.000
G2 X109.378 Y158.133 Z-0.300 I1.079 J-4.217 K0.000 F200.000
G3 X109.574 Y158.329 Z-0.300 I0.055 J0.141 K0.000 F200.000
G2 X109.381 Y161.024 Z-0.300 I7.553 J1.896 K0.000 F200.000
G2 X110.160 Y161.441 Z-0.300 I0.543 J-0.077 K0.000 F200.000
G2 X110.584 Y160.951 Z-0.300 I-0.255 J-0.649 K0.000 F200.000
G2 X110.687 Y159.803 Z-0.300 I-3.964 J-0.934 K0.000 F200.000
G3 X110.808 Y158.637 Z-0.300 I4.497 J-0.120 K0.000 F200.000
G3 X111.160 Y158.027 Z-0.300 I0.923 J0.126 K0.000 F200.000
G3 X111.705 Y157.983 Z-0.300 I0.320 J0.568 K0.000 F200.000
G3 X113.045 Y158.972 Z-0.300 I-0.859 J2.565 K0.000 F200.000
G1 X113.053 Y159.012 Z-0.300 F200.000
G3 X112.353 Y158.408 Z-0.300 I3.880 J-5.201 K0.000 F200.000
G2 X111.777 Y158.426 Z-0.300 I-0.274 J0.462 K0.000 F200.000
G2 X111.104 Y159.130 Z-0.300 I0.377 J1.033 K0.000 F200.000
G2 X111.415 Y159.732 Z-0.300 I0.694 J0.022 K0.000 F200.000
G2 X112.501 Y160.479 Z-0.300 I8.880 J-11.736 K0.000 F200.000
G3 X112.994 Y160.900 Z-0.300 I-0.943 J1.604 K0.000 F200.000
G3 X112.867 Y161.746 Z-0.300 I-0.704 J0.326 K0.000 F200.000
G3 X111.944 Y161.693 Z-0.300 I-0.302 J-2.781 K0.000 F200.000
G2 X110.350 Y161.773 Z-0.300 I-0.583 J4.263 K0.000 F200.000
G3 X108.653 Y161.675 Z-0.300 I-0.532 J-5.481 K0.000 F200.000
G2 X108.806 Y159.649 Z-0.300 I-38.286 J-3.901 K0.000 F200.000
G2 X108.668 Y158.923 Z-0.300 I-1.249 J-0.139 K0.000 F200.000
G2 X107.799 Y158.294 Z-0.300 I-1.088 J0.588 K0.000 F200.000
G2 X106.854 Y158.978 Z-0.300 I-0.102 J0.855 K0.000 F200.000
G2 X106.785 Y161.062 Z-0.300 I4.019 J1.176 K0.000 F200.000
G2 X107.036 Y161.672 Z-0.300 I11.698 J-4.451 K0.000 F200.000
G3 X105.995 Y161.697 Z-0.300 I-0.581 J-2.520 K0.000 F200.000
G3 X105.976 Y161.565 Z-0.300 I0.081 J-0.079 K0.000 F200.000
G2 X106.239 Y160.299 Z-0.300 I-7.894 J-2.294 K0.000 F200.000
G0 Z5.000
G0 Z5.000
G0 X106.239 Y160.299
G0 X114.751 Y157.255
G0 X114.751 Y157.255 Z3.000
G1 X114.751 Y157.255 Z-0.200 F100.000
G2 X113.045 Y153.419 Z-0.200 I-26.318 J9.411 K0.000 F200.000
G3 X114.604 Y153.477 Z-0.200 I0.639 J3.798 K0.000 F200.000
G1 X114.642 Y153.504 Z-0.200 F200.000
G2 X114.343 Y155.005 Z-0.200 I1.100 J1.000 K0.000 F200.000
G2 X115.972 Y159.447 Z-0.200 I27.794 J-7.674 K0.000 F200.000
G2 X116.331 Y159.789 Z-0.200 I0.485 J-0.148 K0.000 F200.000
G2 X116.584 Y159.680 Z-0.200 I0.017 J-0.308 K0.000 F200.000
G2 X117.626 Y157.370 Z-0.200 I-5.324 J-3.790 K0.000 F200.000
G2 X117.519 Y156.794 Z-0.200 I-1.492 J-0.021 K0.000 F200.000
G2 X116.119 Y153.845 Z-0.200 I-12.102 J3.938 K0.000 F200.000
G3 X115.880 Y153.480 Z-0.200 I1.956 J-1.545 K0.000 F200.000
G3 X117.229 Y153.467 Z-0.200 I0.704 J2.938 K0.000 F200.000
G3 X117.237 Y153.478 Z-0.200 I-0.001 J0.010 K0.000 F200.000
G2 X116.995 Y154.163 Z-0.200 I5.720 J2.411 K0.000 F200.000
G2 X117.024 Y154.826 Z-0.200 I1.219 J0.279 K0.000 F200.000
G2 X117.808 Y156.268 Z-0.200 I3.029 J-0.713 K0.000 F200.000
G2 X118.250 Y156.208 Z-0.200 I0.192 J-0.245 K0.000 F200.000
G2 X118.944 Y154.258 Z-0.200 I-5.331 J-2.996 K0.000 F200.000
G2 X118.789 Y153.505 Z-0.200 I-1.365 J-0.111 K0.000 F200.000
G3 X120.418 Y153.489 Z-0.200 I0.847 J3.265 K0.000 F200.000
G2 X119.219 Y155.959 Z-0.200 I54.339 J27.885 K0.000 F200.000
G2 X118.680 Y157.840 Z-0.200 I4.756 J2.381 K0.000 F200.000
G2 X119.472 Y159.737 Z-0.200 I2.141 J0.220 K0.000 F200.000
G2 X119.920 Y159.624 Z-0.200 I0.165 J-0.292 K0.000 F200.000
G2 X121.143 Y157.085 Z-0.200 I-17.080 J-9.795 K0.000 F200.000
G2 X122.067 Y154.638 Z-0.200 I-17.906 J-8.155 K0.000 F200.000
G2 X122.157 Y153.628 Z-0.200 I-2.676 J-0.747 K0.000 F200.000
G3 X122.291 Y153.437 Z-0.200 I0.169 J-0.024 K0.000 F200.000
G3 X123.635 Y153.385 Z-0.200 I0.856 J4.729 K0.000 F200.000
G3 X124.035 Y153.505 Z-0.200 I-0.047 J0.890 K0.000 F200.000
G1 X124.019 Y153.541 Z-0.200 F200.000
G2 X122.369 Y156.463 Z-0.200 I12.603 J9.041 K0.000 F200.000
G3 X120.222 Y161.446 Z-0.200 I-98.189 J-39.352 K0.000 F200.000
G3 X120.022 Y161.577 Z-0.200 I-0.142 J0.002 K0.000 F200.000
G3 X119.616 Y161.117 Z-0.200 I0.799 J-1.115 K0.000 F200.000
G2 X118.394 Y159.162 Z-0.200 I-12.333 J6.350 K0.000 F200.000
G2 X117.843 Y159.230 Z-0.200 I-0.253 J0.214 K0.000 F200.000
G2 X117.122 Y160.727 Z-0.200 I11.066 J6.250 K0.000 F200.000
G3 X116.564 Y161.783 Z-0.200 I-4.065 J-1.474 K0.000 F200.000
G1 X116.502 Y161.841 Z-0.200 F200.000
G3 X116.393 Y161.666 Z-0.200 I0.549 J-0.465 K0.000 F200.000
G3 X114.864 Y157.578 Z-0.200 I118.202 J-46.529 K0.000 F200.000
G2 X114.751 Y157.255 Z-0.200 I-26.432 J9.088 K0.000 F200.000
G1 X114.751 Y157.255 Z-0.300 F100.000
G2 X113.045 Y153.419 Z-0.300 I-26.318 J9.411 K0.000 F200.000
G3 X114.604 Y153.477 Z-0.300 I0.639 J3.798 K0.000 F200.000
G1 X114.642 Y153.504 Z-0.300 F200.000
G2 X114.343 Y155.005 Z-0.300 I1.100 J1.000 K0.000 F200.000
G2 X115.972 Y159.447 Z-0.300 I27.794 J-7.674 K0.000 F200.000
G2 X116.331 Y159.789 Z-0.300 I0.485 J-0.148 K0.000 F200.000
G2 X116.584 Y159.680 Z-0.300 I0.017 J-0.308 K0.000 F200.000
G2 X117.626 Y157.370 Z-0.300 I-5.324 J-3.790 K0.000 F200.000
G2 X117.519 Y156.794 Z-0.300 I-1.492 J-0.021 K0.000 F200.000
G2 X116.119 Y153.845 Z-0.300 I-12.102 J3.938 K0.000 F200.000
G3 X115.880 Y153.480 Z-0.300 I1.956 J-1.545 K0.000 F200.000
G3 X117.229 Y153.467 Z-0.300 I0.704 J2.938 K0.000 F200.000
G3 X117.237 Y153.478 Z-0.300 I-0.001 J0.010 K0.000 F200.000
G2 X116.995 Y154.163 Z-0.300 I5.720 J2.411 K0.000 F200.000
G2 X117.024 Y154.826 Z-0.300 I1.219 J0.279 K0.000 F200.000
G2 X117.808 Y156.268 Z-0.300 I3.029 J-0.713 K0.000 F200.000
G2 X118.250 Y156.208 Z-0.300 I0.192 J-0.245 K0.000 F200.000
G2 X118.944 Y154.258 Z-0.300 I-5.331 J-2.996 K0.000 F200.000
G2 X118.789 Y153.505 Z-0.300 I-1.365 J-0.111 K0.000 F200.000
G3 X120.418 Y153.489 Z-0.300 I0.847 J3.265 K0.000 F200.000
G2 X119.219 Y155.959 Z-0.300 I54.339 J27.885 K0.000 F200.000
G2 X118.680 Y157.840 Z-0.300 I4.756 J2.381 K0.000 F200.000
G2 X119.472 Y159.737 Z-0.300 I2.141 J0.220 K0.000 F200.000
G2 X119.920 Y159.624 Z-0.300 I0.165 J-0.292 K0.000 F200.000
G2 X121.143 Y157.085 Z-0.300 I-17.080 J-9.795 K0.000 F200.000
G2 X122.067 Y154.638 Z-0.300 I-17.906 J-8.155 K0.000 F200.000
G2 X122.157 Y153.628 Z-0.300 I-2.676 J-0.747 K0.000 F200.000
G3 X122.291 Y153.437 Z-0.300 I0.169 J-0.024 K0.000 F200.000
G3 X123.635 Y153.385 Z-0.300 I0.856 J4.729 K0.000 F200.000
G3 X124.035 Y153.505 Z-0.300 I-0.047 J0.890 K0.000 F200.000
G1 X124.019 Y153.541 Z-0.300 F200.000
G2 X122.369 Y156.463 Z-0.300 I12.603 J9.041 K0.000 F200.000
G3 X120.222 Y161.446 Z-0.300 I-98.189 J-39.352 K0.000 F200.000
G3 X120.022 Y161.577 Z-0.300 I-0.142 J0.002 K0.000 F200.000
G3 X119.616 Y161.117 Z-0.300 I0.799 J-1.115 K0.000 F200.000
G2 X118.394 Y159.162 Z-0.300 I-12.333 J6.350 K0.000 F200.000
G2 X117.843 Y159.230 Z-0.300 I-0.253 J0.214 K0.000 F200.000
G2 X117.122 Y160.727 Z-0.300 I11.066 J6.250 K0.000 F200.000
G3 X116.564 Y161.783 Z-0.300 I-4.065 J-1.474 K0.000 F200.000
G1 X116.502 Y161.841 Z-0.300 F200.000
G3 X116.393 Y161.666 Z-0.300 I0.549 J-0.465 K0.000 F200.000
G3 X114.864 Y157.578 Z-0.300 I118.202 J-46.529 K0.000 F200.000
G2 X114.751 Y157.255 Z-0.300 I-26.432 J9.088 K0.000 F200.000
G0 Z5.000
G0 Z5.000
G0 X114.751 Y157.255
G0 X126.271 Y158.873
G0 X126.271 Y158.873 Z3.000
G1 X126.271 Y158.873 Z-0.200 F100.000
G3 X126.351 Y158.669 Z-0.200 I0.464 J0.065 K0.000 F200.000
G3 X128.082 Y158.094 Z-0.200 I1.249 J0.868 K0.000 F200.000
G3 X128.754 Y161.239 Z-0.200 I-1.196 J1.899 K0.000 F200.000
G3 X126.660 Y161.520 Z-0.200 I-1.198 J-0.983 K0.000 F200.000
G3 X126.507 Y161.335 Z-0.200 I0.339 J-0.437 K0.000 F200.000
G2 X127.812 Y161.176 Z-0.200 I0.160 J-4.110 K0.000 F200.000
G2 X128.514 Y160.142 Z-0.200 I-0.394 J-1.023 K0.000 F200.000
G2 X128.440 Y159.622 Z-0.200 I-0.641 J-0.174 K0.000 F200.000
G2 X128.115 Y159.422 Z-0.200 I-0.442 J0.353 K0.000 F200.000
G2 X126.960 Y159.358 Z-0.200 I-1.813 J22.215 K0.000 F200.000
G3 X126.390 Y159.255 Z-0.200 I-0.013 J-1.560 K0.000 F200.000
G3 X126.271 Y158.873 Z-0.200 I0.345 J-0.317 K0.000 F200.000
G1 X126.271 Y158.873 Z-0.300 F100.000
G3 X126.351 Y158.669 Z-0.300 I0.464 J0.065 K0.000 F200.000
G3 X128.082 Y158.094 Z-0.300 I1.249 J0.868 K0.000 F200.000
G3 X128.754 Y161.239 Z-0.300 I-1.196 J1.899 K0.000 F200.000
G3 X126.660 Y161.520 Z-0.300 I-1.198 J-0.983 K0.000 F200.000
G3 X126.507 Y161.335 Z-0.300 I0.339 J-0.437 K0.000 F200.000
G2 X127.812 Y161.176 Z-0.300 I0.160 J-4.110 K0.000 F200.000
G2 X128.514 Y160.142 Z-0.300 I-0.394 J-1.023 K0.000 F200.000
G2 X128.440 Y159.622 Z-0.300 I-0.641 J-0.174 K0.000 F200.000
G2 X128.115 Y159.422 Z-0.300 I-0.442 J0.353 K0.000 F200.000
G2 X126.960 Y159.358 Z-0.300 I-1.813 J22.215 K0.000 F200.000
G3 X126.390 Y159.255 Z-0.300 I-0.013 J-1.560 K0.000 F200.000
G3 X126.271 Y158.873 Z-0.300 I0.345 J-0.317 K0.000 F200.000
G0 Z5.000
G0 Z5.000
G0 X126.271 Y158.873
G0 X130.193 Y159.209
G0 X130.193 Y159.209 Z3.000
G1 X130.193 Y159.209 Z-0.200 F100.000
G3 X130.258 Y158.590 Z-0.200 I17.303 J1.484 K0.000 F200.000
G3 X130.406 Y158.189 Z-0.200 I0.881 J0.097 K0.000 F200.000
G3 X131.045 Y158.112 Z-0.200 I0.440 J0.967 K0.000 F200.000
G3 X133.279 Y158.319 Z-0.200 I-0.734 J20.082 K0.000 F200.000
G1 X133.188 Y161.421 Z-0.200 F200.000
G2 X133.466 Y161.676 Z-0.200 I0.250 J0.007 K0.000 F200.000
G2 X134.426 Y161.567 Z-0.200 I-23979.185 J-209573.091 K0.000 F200.000
G2 X134.647 Y161.326 Z-0.200 I-0.028 J-0.248 K0.000 F200.000
G3 X134.748 Y158.707 Z-0.200 I53.035 J0.725 K0.000 F200.000
G3 X134.868 Y158.156 Z-0.200 I1.513 J0.040 K0.000 F200.000
G3 X135.034 Y158.113 Z-0.200 I0.103 J0.056 K0.000 F200.000
G1 X135.338 Y158.226 Z-0.200 F200.000
G3 X135.526 Y158.352 Z-0.200 I0.004 J0.198 K0.000 F200.000
G2 X135.525 Y161.682 Z-0.200 I4.552 J1.666 K0.000 F200.000
G1 X135.409 Y161.714 Z-0.200 F200.000
G3 X132.732 Y161.732 Z-0.200 I-1.411 J-10.763 K0.000 F200.000
G3 X132.598 Y161.592 Z-0.200 I-0.001 J-0.133 K0.000 F200.000
G3 X132.589 Y159.468 Z-0.200 I49.951 J-1.286 K0.000 F200.000
G2 X132.472 Y158.884 Z-0.200 I-1.279 J-0.047 K0.000 F200.000
G2 X131.411 Y158.287 Z-0.200 I-1.212 J0.913 K0.000 F200.000
G2 X130.847 Y158.794 Z-0.200 I0.189 J0.777 K0.000 F200.000
G2 X130.802 Y161.463 Z-0.200 I4.780 J1.416 K0.000 F200.000
G2 X130.920 Y161.678 Z-0.200 I1.758 J-0.828 K0.000 F200.000
G1 X130.870 Y161.692 Z-0.200 F200.000
G3 X129.750 Y161.692 Z-0.200 I-0.560 J-3.631 K0.000 F200.000
G2 X130.130 Y160.697 Z-0.200 I-1.152 J-1.009 K0.000 F200.000
G3 X130.193 Y159.209 Z-0.200 I17.366 J-0.003 K0.000 F200.000
G1 X130.193 Y159.209 Z-0.300 F100.000
G3 X130.258 Y158.590 Z-0.300 I17.303 J1.484 K0.000 F200.000
G3 X130.406 Y158.189 Z-0.300 I0.881 J0.097 K0.000 F200.000
G3 X131.045 Y158.112 Z-0.300 I0.440 J0.967 K0.000 F200.000
G3 X133.279 Y158.319 Z-0.300 I-0.734 J20.082 K0.000 F200.000
G1 X133.188 Y161.421 Z-0.300 F200.000
G2 X133.466 Y161.676 Z-0.300 I0.250 J0.007 K0.000 F200.000
G2 X134.426 Y161.567 Z-0.300 I-23979.185 J-209573.091 K0.000 F200.000
G2 X134.647 Y161.326 Z-0.300 I-0.028 J-0.248 K0.000 F200.000
G3 X134.748 Y158.707 Z-0.300 I53.035 J0.725 K0.000 F200.000
G3 X134.868 Y158.156 Z-0.300 I1.513 J0.040 K0.000 F200.000
G3 X135.034 Y158.113 Z-0.300 I0.103 J0.056 K0.000 F200.000
G1 X135.338 Y158.226 Z-0.300 F200.000
G3 X135.526 Y158.352 Z-0.300 I0.004 J0.198 K0.000 F200.000
G2 X135.525 Y161.682 Z-0.300 I4.552 J1.666 K0.000 F200.000
G1 X135.409 Y161.714 Z-0.300 F200.000
G3 X132.732 Y161.732 Z-0.300 I-1.411 J-10.763 K0.000 F200.000
G3 X132.598 Y161.592 Z-0.300 I-0.001 J-0.133 K0.000 F200.000
G3 X132.589 Y159.468 Z-0.300 I49.951 J-1.286 K0.000 F200.000
G2 X132.472 Y158.884 Z-0.300 I-1.279 J-0.047 K0.000 F200.000
G2 X131.411 Y158.287 Z-0.300 I-1.212 J0.913 K0.000 F200.000
G2 X130.847 Y158.794 Z-0.300 I0.189 J0.777 K0.000 F200.000
G2 X130.802 Y161.463 Z-0.300 I4.780 J1.416 K0.000 F200.000
G2 X130.920 Y161.678 Z-0.300 I1.758 J-0.828 K0.000 F200.000
G1 X130.870 Y161.692 Z-0.300 F200.000
G3 X129.750 Y161.692 Z-0.300 I-0.560 J-3.631 K0.000 F200.000
G2 X130.130 Y160.697 Z-0.300 I-1.152 J-1.009 K0.000 F200.000
G3 X130.193 Y159.209 Z-0.300 I17.366 J-0.003 K0.000 F200.000
G0 Z5.000
G0 Z5.000
G0 X130.193 Y159.209
G0 X134.847 Y155.867
G0 X134.847 Y155.867 Z3.000
G1 X134.847 Y155.867 Z-0.200 F100.000
G3 X134.779 Y155.722 Z-0.200 I0.349 J-0.251 K0.000 F200.000
G3 X135.120 Y155.435 Z-0.200 I0.326 J0.042 K0.000 F200.000
G1 X135.166 Y155.479 Z-0.200 F200.000
G3 X135.232 Y156.045 Z-0.200 I-0.889 J0.392 K0.000 F200.000
G3 X134.847 Y155.867 Z-0.200 I-0.036 J-0.429 K0.000 F200.000
G1 X134.847 Y155.867 Z-0.300 F100.000
G3 X134.779 Y155.722 Z-0.300 I0.349 J-0.251 K0.000 F200.000
G3 X135.120 Y155.435 Z-0.300 I0.326 J0.042 K0.000 F200.000
G1 X135.166 Y155.479 Z-0.300 F200.000
G3 X135.232 Y156.045 Z-0.300 I-0.889 J0.392 K0.000 F200.000
G3 X134.847 Y155.867 Z-0.300 I-0.036 J-0.429 K0.000 F200.000
G0 Z5.000
G0 Z5.000
G0 X134.847 Y155.867
G0 X132.156 Y147.486
G0 X132.156 Y147.486 Z3.000
G1 X132.156 Y147.486 Z-0.200 F100.000
G1 X131.987 Y147.531 Z-0.200 F200.000
G3 X125.956 Y147.462 Z-0.200 I-2.425 J-51.640 K0.000 F200.000
G1 X125.322 Y147.378 Z-0.200 F200.000
G3 X125.136 Y147.230 Z-0.200 I-0.026 J-0.159 K0.000 F200.000
G3 X125.111 Y146.755 Z-0.200 I1.175 J-0.299 K0.000 F200.000
G3 X125.300 Y146.671 Z-0.200 I0.187 J0.166 K0.000 F200.000
G2 X127.059 Y146.402 Z-0.200 I-3.650 J-29.721 K0.000 F200.000
G2 X127.553 Y146.219 Z-0.200 I-0.183 J-1.255 K0.000 F200.000
G2 X127.691 Y145.843 Z-0.200 I-0.253 J-0.306 K0.000 F200.000
G2 X126.234 Y141.572 Z-0.200 I-18.452 J3.906 K0.000 F200.000
G2 X125.743 Y141.292 Z-0.200 I-0.480 J0.271 K0.000 F200.000
G2 X121.735 Y141.179 Z-0.200 I-2.839 J29.538 K0.000 F200.000
G2 X121.031 Y141.324 Z-0.200 I0.009 J1.810 K0.000 F200.000
G2 X120.560 Y141.824 Z-0.200 I0.447 J0.893 K0.000 F200.000
G2 X119.358 Y145.046 Z-0.200 I17.057 J8.198 K0.000 F200.000
G2 X119.325 Y145.653 Z-0.200 I1.358 J0.379 K0.000 F200.000
G2 X119.718 Y146.140 Z-0.200 I0.669 J-0.138 K0.000 F200.000
G2 X121.157 Y146.415 Z-0.200 I2.267 J-7.943 K0.000 F200.000
G3 X122.039 Y146.616 Z-0.200 I-0.328 J3.478 K0.000 F200.000
G3 X122.162 Y147.324 Z-0.200 I-0.169 J0.394 K0.000 F200.000
G1 X121.984 Y147.374 Z-0.200 F200.000
G3 X119.701 Y147.431 Z-0.200 I-1.540 J-16.026 K0.000 F200.000
G3 X113.373 Y147.313 Z-0.200 I-0.852 J-124.266 K0.000 F200.000
G3 X112.204 Y147.162 Z-0.200 I0.144 J-5.726 K0.000 F200.000
G3 X111.930 Y147.020 Z-0.200 I0.087 J-0.503 K0.000 F200.000
G3 X111.932 Y146.563 Z-0.200 I0.431 J-0.227 K0.000 F200.000
G3 X112.399 Y146.403 Z-0.200 I0.525 J0.771 K0.000 F200.000
G2 X114.124 Y146.117 Z-0.200 I-0.505 J-8.382 K0.000 F200.000
G2 X114.801 Y145.742 Z-0.200 I-0.347 J-1.424 K0.000 F200.000
G2 X115.257 Y144.971 Z-0.200 I-2.147 J-1.788 K0.000 F200.000
G2 X117.393 Y139.887 Z-0.200 I-80.452 J-36.799 K0.000 F200.000
G3 X121.082 Y130.523 Z-0.200 I1573.991 J614.664 K0.000 F200.000
G3 X121.853 Y128.713 Z-0.200 I20.246 J7.561 K0.000 F200.000
G3 X122.234 Y129.395 Z-0.200 I-2.354 J1.762 K0.000 F200.000
G1 X122.234 Y129.395 Z-0.200 F200.000
G2 X123.774 Y131.463 Z-0.200 I6.031 J-2.884 K0.000 F200.000
G3 X124.159 Y131.947 Z-0.200 I-1.090 J1.264 K0.000 F200.000
G3 X124.242 Y132.547 Z-0.200 I-1.277 J0.483 K0.000 F200.000
G2 X124.764 Y134.752 Z-0.200 I8.165 J-0.769 K0.000 F200.000
G2 X126.694 Y139.608 Z-0.200 I77.471 J-27.975 K0.000 F200.000
G1 X128.085 Y143.005 Z-0.200 F200.000
G2 X128.644 Y144.480 Z-0.200 I64.953 J-23.767 K0.000 F200.000
G2 X130.030 Y146.178 Z-0.200 I3.621 J-1.542 K0.000 F200.000
G2 X131.513 Y146.720 Z-0.200 I1.978 J-3.111 K0.000 F200.000
G3 X132.103 Y146.866 Z-0.200 I-0.009 J1.306 K0.000 F200.000
G3 X132.172 Y147.018 Z-0.200 I-0.123 J0.147 K0.000 F200.000
G3 X132.156 Y147.486 Z-0.200 I-1.063 J0.198 K0.000 F200.000
G1 X132.156 Y147.486 Z-0.300 F100.000
G1 X131.987 Y147.531 Z-0.300 F200.000
G3 X125.956 Y147.462 Z-0.300 I-2.425 J-51.640 K0.000 F200.000
G1 X125.322 Y147.378 Z-0.300 F200.000
G3 X125.136 Y147.230 Z-0.300 I-0.026 J-0.159 K0.000 F200.000
G3 X125.111 Y146.755 Z-0.300 I1.175 J-0.299 K0.000 F200.000
G3 X125.300 Y146.671 Z-0.300 I0.187 J0.166 K0.000 F200.000
G2 X127.059 Y146.402 Z-0.300 I-3.650 J-29.721 K0.000 F200.000
G2 X127.553 Y146.219 Z-0.300 I-0.183 J-1.255 K0.000 F200.000
G2 X127.691 Y145.843 Z-0.300 I-0.253 J-0.306 K0.000 F200.000
G2 X126.234 Y141.572 Z-0.300 I-18.452 J3.906 K0.000 F200.000
G2 X125.743 Y141.292 Z-0.300 I-0.480 J0.271 K0.000 F200.000
G2 X121.735 Y141.179 Z-0.300 I-2.839 J29.538 K0.000 F200.000
G2 X121.031 Y141.324 Z-0.300 I0.009 J1.810 K0.000 F200.000
G2 X120.560 Y141.824 Z-0.300 I0.447 J0.893 K0.000 F200.000
G2 X119.358 Y145.046 Z-0.300 I17.057 J8.198 K0.000 F200.000
G2 X119.325 Y145.653 Z-0.300 I1.358 J0.379 K0.000 F200.000
G2 X119.718 Y146.140 Z-0.300 I0.669 J-0.138 K0.000 F200.000
G2 X121.157 Y146.415 Z-0.300 I2.267 J-7.943 K0.000 F200.000
G3 X122.039 Y146.616 Z-0.300 I-0.328 J3.478 K0.000 F200.000
G3 X122.162 Y147.324 Z-0.300 I-0.169 J0.394 K0.000 F200.000
G1 X121.984 Y147.374 Z-0.300 F200.000
G3 X119.701 Y147.431 Z-0.300 I-1.540 J-16.026 K0.000 F200.000
G3 X113.373 Y147.313 Z-0.300 I-0.852 J-124.266 K0.000 F200.000
G3 X112.204 Y147.162 Z-0.300 I0.144 J-5.726 K0.000 F200.000
G3 X111.930 Y147.020 Z-0.300 I0.087 J-0.503 K0.000 F200.000
G3 X111.932 Y146.563 Z-0.300 I0.431 J-0.227 K0.000 F200.000
G3 X112.399 Y146.403 Z-0.300 I0.525 J0.771 K0.000 F200.000
G2 X114.124 Y146.117 Z-0.300 I-0.505 J-8.382 K0.000 F200.000
G2 X114.801 Y145.742 Z-0.300 I-0.347 J-1.424 K0.000 F200.000
G2 X115.257 Y144.971 Z-0.300 I-2.147 J-1.788 K0.000 F200.000
G2 X117.393 Y139.887 Z-0.300 I-80.452 J-36.799 K0.000 F200.000
G3 X121.082 Y130.523 Z-0.300 I1573.991 J614.664 K0.000 F200.000
G3 X121.853 Y128.713 Z-0.300 I20.246 J7.561 K0.000 F200.000
G3 X122.234 Y129.395 Z-0.300 I-2.354 J1.762 K0.000 F200.000
G1 X122.234 Y129.395 Z-0.300 F200.000
G2 X123.774 Y131.463 Z-0.300 I6.031 J-2.884 K0.000 F200.000
G3 X124.159 Y131.947 Z-0.300 I-1.090 J1.264 K0.000 F200.000
G3 X124.242 Y132.547 Z-0.300 I-1.277 J0.483 K0.000 F200.000
G2 X124.764 Y134.752 Z-0.300 I8.165 J-0.769 K0.000 F200.000
G2 X126.694 Y139.608 Z-0.300 I77.471 J-27.975 K0.000 F200.000
G1 X128.085 Y143.005 Z-0.300 F200.000
G2 X128.644 Y144.480 Z-0.300 I64.953 J-23.767 K0.000 F200.000
G2 X130.030 Y146.178 Z-0.300 I3.621 J-1.542 K0.000 F200.000
G2 X131.513 Y146.720 Z-0.300 I1.978 J-3.111 K0.000 F200.000
G3 X132.103 Y146.866 Z-0.300 I-0.009 J1.306 K0.000 F200.000
G3 X132.172 Y147.018 Z-0.300 I-0.123 J0.147 K0.000 F200.000
G3 X132.156 Y147.486 Z-0.300 I-1.063 J0.198 K0.000 F200.000
G0 Z5.000
G0 Z5.000
G0 Z5.000
G0 X0.000 Y0.000
G0 X122.945 Y131.840
G0 X122.945 Y131.840 Z3.000
G1 X122.945 Y131.840 Z-0.200 F100.000
G3 X123.363 Y132.169 Z-0.200 I-2.499 J3.610 K0.000 F200.000
G3 X123.434 Y132.568 Z-0.200 I-0.298 J0.259 K0.000 F200.000
G3 X122.618 Y134.494 Z-0.200 I-15.239 J-5.319 K0.000 F200.000
G2 X120.549 Y139.980 Z-0.200 I61.883 J26.476 K0.000 F200.000
G3 X118.884 Y144.260 Z-0.200 I-473.185 J-181.499 K0.000 F200.000
G2 X118.502 Y145.472 Z-0.200 I6.778 J2.807 K0.000 F200.000
G2 X118.839 Y146.520 Z-0.200 I1.398 J0.128 K0.000 F200.000
G3 X117.256 Y146.378 Z-0.200 I2.405 J-35.581 K0.000 F200.000
G3 X118.807 Y142.348 Z-0.200 I187.292 J69.791 K0.000 F200.000
G2 X122.945 Y131.840 Z-0.200 I-16631.093 J-6554.050 K0.000 F200.000
G1 X122.945 Y131.840 Z-0.300 F100.000
G3 X123.363 Y132.169 Z-0.300 I-2.499 J3.610 K0.000 F200.000
G3 X123.434 Y132.568 Z-0.300 I-0.298 J0.259 K0.000 F200.000
G3 X122.618 Y134.494 Z-0.300 I-15.239 J-5.319 K0.000 F200.000
G2 X120.549 Y139.980 Z-0.300 I61.883 J26.476 K0.000 F200.000
G3 X118.884 Y144.260 Z-0.300 I-473.185 J-181.499 K0.000 F200.000
G2 X118.502 Y145.472 Z-0.300 I6.778 J2.807 K0.000 F200.000
G2 X118.839 Y146.520 Z-0.300 I1.398 J0.128 K0.000 F200.000
G3 X117.256 Y146.378 Z-0.300 I2.405 J-35.581 K0.000 F200.000
G3 X118.807 Y142.348 Z-0.300 I187.292 J69.791 K0.000 F200.000
G2 X122.945 Y131.840 Z-0.300 I-16631.093 J-6554.050 K0.000 F200.000
G0 Z5.000
G0 Z5.000
G0 X122.945 Y131.840
G0 X123.473 Y135.227
G0 X123.473 Y135.227 Z3.000
G1 X123.473 Y135.227 Z-0.200 F100.000
G3 X125.015 Y139.323 Z-0.200 I-37.623 J16.500 K0.000 F200.000
G1 X125.043 Y139.496 Z-0.200 F200.000
G3 X123.625 Y139.620 Z-0.200 I-1.242 J-6.037 K0.000 F200.000
G3 X122.293 Y139.542 Z-0.200 I-0.190 J-8.182 K0.000 F200.000
G3 X121.891 Y139.423 Z-0.200 I0.061 J-0.942 K0.000 F200.000
G3 X123.473 Y135.227 Z-0.200 I63.582 J21.572 K0.000 F200.000
G1 X123.473 Y135.227 Z-0.300 F100.000
G3 X125.015 Y139.323 Z-0.300 I-37.623 J16.500 K0.000 F200.000
G1 X125.043 Y139.496 Z-0.300 F200.000
G3 X123.625 Y139.620 Z-0.300 I-1.242 J-6.037 K0.000 F200.000
G3 X122.293 Y139.542 Z-0.300 I-0.190 J-8.182 K0.000 F200.000
G3 X121.891 Y139.423 Z-0.300 I0.061 J-0.942 K0.000 F200.000
G3 X123.473 Y135.227 Z-0.300 I63.582 J21.572 K0.000 F200.000
G0 Z5.000
G0 Z5.000
G0 X123.473 Y135.227
G0 X110.621 Y129.436
G0 X110.621 Y129.436 Z3.000
G1 X110.621 Y129.436 Z-0.200 F100.000
G3 X110.507 Y129.529 Z-0.200 I-0.151 J-0.068 K0.000 F200.000
G3 X109.057 Y130.142 Z-0.200 I-4.682 J-9.059 K0.000 F200.000
G2 X108.291 Y130.507 Z-0.200 I0.733 J2.524 K0.000 F200.000
G2 X107.727 Y131.476 Z-0.200 I0.952 J1.203 K0.000 F200.000
G2 X107.533 Y133.226 Z-0.200 I9.106 J1.896 K0.000 F200.000
G2 X107.393 Y145.303 Z-0.200 I845.651 J15.844 K0.000 F200.000
G2 X107.466 Y145.481 Z-0.200 I0.250 J0.002 K0.000 F200.000
G2 X108.061 Y146.034 Z-0.200 I2.687 J-2.297 K0.000 F200.000
G2 X109.500 Y146.493 Z-0.200 I1.923 J-3.543 K0.000 F200.000
G3 X110.339 Y146.669 Z-0.200 I-0.616 J5.022 K0.000 F200.000
G3 X110.496 Y146.994 Z-0.200 I-0.081 J0.239 K0.000 F200.000
G3 X110.369 Y147.294 Z-0.200 I-0.268 J0.063 K0.000 F200.000
G3 X109.260 Y147.414 Z-0.200 I-1.142 J-5.384 K0.000 F200.000
G3 X104.370 Y147.547 Z-0.200 I-9.156 J-245.778 K0.000 F200.000
G3 X103.211 Y147.395 Z-0.200 I-0.348 J-1.842 K0.000 F200.000
G3 X103.070 Y146.924 Z-0.200 I0.282 J-0.341 K0.000 F200.000
G3 X103.330 Y146.555 Z-0.200 I0.370 J-0.016 K0.000 F200.000
G3 X104.734 Y146.295 Z-0.200 I2.484 J9.509 K0.000 F200.000
G2 X105.697 Y145.998 Z-0.200 I-0.061 J-1.907 K0.000 F200.000
G2 X106.074 Y145.488 Z-0.200 I-0.645 J-0.872 K0.000 F200.000
G2 X106.292 Y143.192 Z-0.200 I-8.125 J-1.928 K0.000 F200.000
G3 X106.405 Y135.477 Z-0.200 I376.931 J1.654 K0.000 F200.000
G2 X106.348 Y133.610 Z-0.200 I-14.490 J-0.494 K0.000 F200.000
G2 X105.757 Y133.375 Z-0.200 I-0.341 J-0.002 K0.000 F200.000
G2 X104.547 Y134.526 Z-0.200 I4.923 J6.384 K0.000 F200.000
G2 X95.678 Y144.477 Z-0.200 I268.343 J248.105 K0.000 F200.000
G3 X93.525 Y146.867 Z-0.200 I-26.942 J-22.099 K0.000 F200.000
G1 X93.375 Y146.978 Z-0.200 F200.000
G1 X93.334 Y146.532 Z-0.200 F200.000
G3 X93.247 Y136.595 Z-0.200 I408.090 J-8.571 K0.000 F200.000
G2 X93.192 Y132.047 Z-0.200 I-92.879 J-1.168 K0.000 F200.000
G2 X93.024 Y130.677 Z-0.200 I-6.768 J0.136 K0.000 F200.000
G2 X92.519 Y129.941 Z-0.200 I-1.021 J0.160 K0.000 F200.000
G2 X91.558 Y129.745 Z-0.200 I-0.986 J2.379 K0.000 F200.000
G1 X90.515 Y129.607 Z-0.200 F200.000
G3 X90.452 Y129.044 Z-0.200 I1.351 J-0.437 K0.000 F200.000
G3 X97.255 Y129.047 Z-0.200 I3.378 J53.638 K0.000 F200.000
G3 X97.289 Y129.612 Z-0.200 I-3.486 J0.492 K0.000 F200.000
G3 X96.414 Y129.832 Z-0.200 I-1.385 J-3.659 K0.000 F200.000
G2 X94.988 Y130.303 Z-0.200 I0.580 J4.149 K0.000 F200.000
G2 X94.765 Y130.761 Z-0.200 I0.585 J0.568 K0.000 F200.000
G2 X94.478 Y134.868 Z-0.200 I29.388 J4.115 K0.000 F200.000
G2 X94.532 Y137.852 Z-0.200 I36.843 J0.832 K0.000 F200.000
G2 X94.670 Y138.829 Z-0.200 I4.310 J-0.113 K0.000 F200.000
G2 X95.232 Y139.015 Z-0.200 I0.322 J-0.029 K0.000 F200.000
G2 X96.627 Y137.629 Z-0.200 I-8.900 J-10.352 K0.000 F200.000
G3 X103.133 Y130.590 Z-0.200 I450.073 J409.437 K0.000 F200.000
G3 X104.315 Y129.409 Z-0.200 I9.605 J8.436 K0.000 F200.000
G3 X104.904 Y129.211 Z-0.200 I0.653 J0.967 K0.000 F200.000
G3 X110.264 Y129.202 Z-0.200 I2.748 J40.941 K0.000 F200.000
G3 X110.635 Y129.387 Z-0.200 I0.037 J0.391 K0.000 F200.000
G3 X110.621 Y129.436 Z-0.200 I-0.165 J-0.020 K0.000 F200.000
G1 X110.621 Y129.436 Z-0.300 F100.000
G3 X110.507 Y129.529 Z-0.300 I-0.151 J-0.068 K0.000 F200.000
G3 X109.057 Y130.142 Z-0.300 I-4.682 J-9.059 K0.000 F200.000
G2 X108.291 Y130.507 Z-0.300 I0.733 J2.524 K0.000 F200.000
G2 X107.727 Y131.476 Z-0.300 I0.952 J1.203 K0.000 F200.000
G2 X107.533 Y133.226 Z-0.300 I9.106 J1.896 K0.000 F200.000
G2 X107.393 Y145.303 Z-0.300 I845.651 J15.844 K0.000 F200.000
G2 X107.466 Y145.481 Z-0.300 I0.250 J0.002 K0.000 F200.000
G2 X108.061 Y146.034 Z-0.300 I2.687 J-2.297 K0.000 F200.000
G2 X109.500 Y146.493 Z-0.300 I1.923 J-3.543 K0.000 F200.000
G3 X110.339 Y146.669 Z-0.300 I-0.616 J5.022 K0.000 F200.000
G3 X110.496 Y146.994 Z-0.300 I-0.081 J0.239 K0.000 F200.000
G3 X110.369 Y147.294 Z-0.300 I-0.268 J0.063 K0.000 F200.000
G3 X109.260 Y147.414 Z-0.300 I-1.142 J-5.384 K0.000 F200.000
G3 X104.370 Y147.547 Z-0.300 I-9.156 J-245.778 K0.000 F200.000
G3 X103.211 Y147.395 Z-0.300 I-0.348 J-1.842 K0.000 F200.000
G3 X103.070 Y146.924 Z-0.300 I0.282 J-0.341 K0.000 F200.000
G3 X103.330 Y146.555 Z-0.300 I0.370 J-0.016 K0.000 F200.000
G3 X104.734 Y146.295 Z-0.300 I2.484 J9.509 K0.000 F200.000
G2 X105.697 Y145.998 Z-0.300 I-0.061 J-1.907 K0.000 F200.000
G2 X106.074 Y145.488 Z-0.300 I-0.645 J-0.872 K0.000 F200.000
G2 X106.292 Y143.192 Z-0.300 I-8.125 J-1.928 K0.000 F200.000
G3 X106.405 Y135.477 Z-0.300 I376.931 J1.654 K0.000 F200.000
G2 X106.348 Y133.610 Z-0.300 I-14.490 J-0.494 K0.000 F200.000
G2 X105.757 Y133.375 Z-0.300 I-0.341 J-0.002 K0.000 F200.000
G2 X104.547 Y134.526 Z-0.300 I4.923 J6.384 K0.000 F200.000
G2 X95.678 Y144.477 Z-0.300 I268.343 J248.105 K0.000 F200.000
G3 X93.525 Y146.867 Z-0.300 I-26.942 J-22.099 K0.000 F200.000
G1 X93.375 Y146.978 Z-0.300 F200.000
G1 X93.334 Y146.532 Z-0.300 F200.000
G3 X93.247 Y136.595 Z-0.300 I408.090 J-8.571 K0.000 F200.000
G2 X93.192 Y132.047 Z-0.300 I-92.879 J-1.168 K0.000 F200.000
G2 X93.024 Y130.677 Z-0.300 I-6.768 J0.136 K0.000 F200.000
G2 X92.519 Y129.941 Z-0.300 I-1.021 J0.160 K0.000 F200.000
G2 X91.558 Y129.745 Z-0.300 I-0.986 J2.379 K0.000 F200.000
G1 X90.515 Y129.607 Z-0.300 F200.000
G3 X90.452 Y129.044 Z-0.300 I1.351 J-0.437 K0.000 F200.000
G3 X97.255 Y129.047 Z-0.300 I3.378 J53.638 K0.000 F200.000
G3 X97.289 Y129.612 Z-0.300 I-3.486 J0.492 K0.000 F200.000
G3 X96.414 Y129.832 Z-0.300 I-1.385 J-3.659 K0.000 F200.000
G2 X94.988 Y130.303 Z-0.300 I0.580 J4.149 K0.000 F200.000
G2 X94.765 Y130.761 Z-0.300 I0.585 J0.568 K0.000 F200.000
G2 X94.478 Y134.868 Z-0.300 I29.388 J4.115 K0.000 F200.000
G2 X94.532 Y137.852 Z-0.300 I36.843 J0.832 K0.000 F200.000
G2 X94.670 Y138.829 Z-0.300 I4.310 J-0.113 K0.000 F200.000
G2 X95.232 Y139.015 Z-0.300 I0.322 J-0.029 K0.000 F200.000
G2 X96.627 Y137.629 Z-0.300 I-8.900 J-10.352 K0.000 F200.000
G3 X103.133 Y130.590 Z-0.300 I450.073 J409.437 K0.000 F200.000
G3 X104.315 Y129.409 Z-0.300 I9.605 J8.436 K0.000 F200.000
G3 X104.904 Y129.211 Z-0.300 I0.653 J0.967 K0.000 F200.000
G3 X110.264 Y129.202 Z-0.300 I2.748 J40.941 K0.000 F200.000
G3 X110.635 Y129.387 Z-0.300 I0.037 J0.391 K0.000 F200.000
G3 X110.621 Y129.436 Z-0.300 I-0.165 J-0.020 K0.000 F200.000
G0 Z5.000
G0 Z5.000
G0 X110.621 Y129.436
G0 X136.185 Y153.649
G0 X136.185 Y153.649 Z3.000
G1 X136.185 Y153.649 Z-0.200 F100.000
G3 X136.546 Y153.569 Z-0.200 I0.295 J0.482 K0.000 F200.000
G3 X141.455 Y153.565 Z-0.200 I2.511 J70.982 K0.000 F200.000
G1 X141.921 Y153.599 Z-0.200 F200.000
G2 X141.107 Y154.663 Z-0.200 I0.739 J1.409 K0.000 F200.000
G2 X141.087 Y160.846 Z-0.200 I53.854 J3.266 K0.000 F200.000
G2 X141.528 Y161.511 Z-0.200 I0.822 J-0.067 K0.000 F200.000
G2 X141.792 Y161.650 Z-0.200 I0.928 J-1.446 K0.000 F200.000
G3 X139.419 Y161.784 Z-0.200 I-1.831 J-11.344 K0.000 F200.000
G2 X140.016 Y161.131 Z-0.200 I-1.908 J-2.347 K0.000 F200.000
G2 X140.227 Y160.350 Z-0.200 I-1.672 J-0.870 K0.000 F200.000
G2 X140.306 Y158.593 Z-0.200 I-17.215 J-1.657 K0.000 F200.000
G2 X140.139 Y157.882 Z-0.200 I-1.271 J-0.077 K0.000 F200.000
G2 X139.342 Y157.451 Z-0.200 I-0.813 J0.550 K0.000 F200.000
G2 X137.916 Y157.522 Z-0.200 I-0.524 J3.821 K0.000 F200.000
G2 X136.997 Y158.098 Z-0.200 I1.310 J3.115 K0.000 F200.000
G3 X136.812 Y158.215 Z-0.200 I-0.362 J-0.366 K0.000 F200.000
G3 X136.829 Y156.853 Z-0.200 I4.158 J-0.627 K0.000 F200.000
G3 X136.931 Y156.746 Z-0.200 I0.094 J-0.012 K0.000 F200.000
G3 X137.571 Y156.991 Z-0.200 I-0.267 J1.653 K0.000 F200.000
G2 X138.416 Y157.315 Z-0.200 I1.370 J-2.309 K0.000 F200.000
G2 X140.126 Y156.601 Z-0.200 I0.179 J-1.976 K0.000 F200.000
G2 X140.297 Y155.917 Z-0.200 I-1.740 J-0.798 K0.000 F200.000
G2 X140.013 Y154.189 Z-0.200 I-2.781 J-0.430 K0.000 F200.000
G2 X139.419 Y153.781 Z-0.200 I-1.000 J0.820 K0.000 F200.000
G2 X136.673 Y154.094 Z-0.200 I-1.035 J3.120 K0.000 F200.000
G3 X136.254 Y154.493 Z-0.200 I-2.899 J-2.627 K0.000 F200.000
G3 X136.185 Y153.649 Z-0.200 I0.941 J-0.501 K0.000 F200.000
G1 X136.185 Y153.649 Z-0.300 F100.000
G3 X136.546 Y153.569 Z-0.300 I0.295 J0.482 K0.000 F200.000
G3 X141.455 Y153.565 Z-0.300 I2.511 J70.982 K0.000 F200.000
G1 X141.921 Y153.599 Z-0.300 F200.000
G2 X141.107 Y154.663 Z-0.300 I0.739 J1.409 K0.000 F200.000
G2 X141.087 Y160.846 Z-0.300 I53.854 J3.266 K0.000 F200.000
G2 X141.528 Y161.511 Z-0.300 I0.822 J-0.067 K0.000 F200.000
G2 X141.792 Y161.650 Z-0.300 I0.928 J-1.446 K0.000 F200.000
G3 X139.419 Y161.784 Z-0.300 I-1.831 J-11.344 K0.000 F200.000
G2 X140.016 Y161.131 Z-0.300 I-1.908 J-2.347 K0.000 F200.000
G2 X140.227 Y160.350 Z-0.300 I-1.672 J-0.870 K0.000 F200.000
G2 X140.306 Y158.593 Z-0.300 I-17.215 J-1.657 K0.000 F200.000
G2 X140.139 Y157.882 Z-0.300 I-1.271 J-0.077 K0.000 F200.000
G2 X139.342 Y157.451 Z-0.300 I-0.813 J0.550 K0.000 F200.000
G2 X137.916 Y157.522 Z-0.300 I-0.524 J3.821 K0.000 F200.000
G2 X136.997 Y158.098 Z-0.300 I1.310 J3.115 K0.000 F200.000
G3 X136.812 Y158.215 Z-0.300 I-0.362 J-0.366 K0.000 F200.000
G3 X136.829 Y156.853 Z-0.300 I4.158 J-0.627 K0.000 F200.000
G3 X136.931 Y156.746 Z-0.300 I0.094 J-0.012 K0.000 F200.000
G3 X137.571 Y156.991 Z-0.300 I-0.267 J1.653 K0.000 F200.000
G2 X138.416 Y157.315 Z-0.300 I1.370 J-2.309 K0.000 F200.000
G2 X140.126 Y156.601 Z-0.300 I0.179 J-1.976 K0.000 F200.000
G2 X140.297 Y155.917 Z-0.300 I-1.740 J-0.798 K0.000 F200.000
G2 X140.013 Y154.189 Z-0.300 I-2.781 J-0.430 K0.000 F200.000
G2 X139.419 Y153.781 Z-0.300 I-1.000 J0.820 K0.000 F200.000
G2 X136.673 Y154.094 Z-0.300 I-1.035 J3.120 K0.000 F200.000
G3 X136.254 Y154.493 Z-0.300 I-2.899 J-2.627 K0.000 F200.000
G3 X136.185 Y153.649 Z-0.300 I0.941 J-0.501 K0.000 F200.000
G0 Z5.000
G0 Z5.000
G0 X136.185 Y153.649
G0 X144.894 Y153.119
G0 X144.894 Y153.119 Z3.000
G1 X144.894 Y153.119 Z-0.200 F100.000
G3 X145.108 Y152.462 Z-0.200 I0.942 J-0.057 K0.000 F200.000
G3 X145.859 Y152.271 Z-0.200 I0.643 J0.959 K0.000 F200.000
G3 X146.650 Y152.414 Z-0.200 I0.052 J1.981 K0.000 F200.000
G3 X147.397 Y153.118 Z-0.200 I-0.819 J1.619 K0.000 F200.000
G3 X148.652 Y156.130 Z-0.200 I-14.467 J7.791 K0.000 F200.000
G2 X149.478 Y157.892 Z-0.200 I4.926 J-1.235 K0.000 F200.000
G2 X150.367 Y158.108 Z-0.200 I0.607 J-0.561 K0.000 F200.000
G3 X151.064 Y157.841 Z-0.200 I2.983 J6.739 K0.000 F200.000
G3 X151.747 Y158.055 Z-0.200 I0.069 J0.979 K0.000 F200.000
G3 X153.490 Y161.057 Z-0.200 I-2.123 J3.240 K0.000 F200.000
G3 X153.065 Y162.056 Z-0.200 I-1.171 J0.092 K0.000 F200.000
G3 X152.365 Y162.024 Z-0.200 I-0.323 J-0.608 K0.000 F200.000
G3 X150.789 Y159.791 Z-0.200 I3.378 J-4.058 K0.000 F200.000
G2 X150.380 Y158.958 Z-0.200 I-3.437 J1.172 K0.000 F200.000
G2 X149.789 Y158.737 Z-0.200 I-0.397 J0.162 K0.000 F200.000
G2 X149.605 Y159.116 Z-0.200 I0.288 J0.375 K0.000 F200.000
G2 X149.728 Y160.063 Z-0.200 I3.090 J0.079 K0.000 F200.000
G2 X151.328 Y164.897 Z-0.200 I31.953 J-7.893 K0.000 F200.000
G2 X152.057 Y165.991 Z-0.200 I2.780 J-1.061 K0.000 F200.000
G2 X152.897 Y166.126 Z-0.200 I0.530 J-0.617 K0.000 F200.000
G2 X153.480 Y165.832 Z-0.200 I-2.763 J-6.191 K0.000 F200.000
G3 X153.773 Y165.868 Z-0.200 I0.127 J0.180 K0.000 F200.000
G3 X154.212 Y166.488 Z-0.200 I-0.586 J0.880 K0.000 F200.000
G3 X153.435 Y167.233 Z-0.200 I-0.726 J0.021 K0.000 F200.000
G3 X151.341 Y166.161 Z-0.200 I0.092 J-2.759 K0.000 F200.000
G3 X150.135 Y163.336 Z-0.200 I11.189 J-6.448 K0.000 F200.000
G3 X149.118 Y159.863 Z-0.200 I47.802 J-15.887 K0.000 F200.000
G1 X149.118 Y159.863 Z-0.200 F200.000
G2 X148.369 Y158.606 Z-0.200 I-1.928 J0.297 K0.000 F200.000
G2 X147.666 Y158.431 Z-0.200 I-0.922 J2.200 K0.000 F200.000
G3 X146.945 Y157.849 Z-0.200 I0.315 J-1.127 K0.000 F200.000
G1 X146.939 Y157.819 Z-0.200 F200.000
G3 X147.852 Y157.678 Z-0.200 I1.268 J5.174 K0.000 F200.000
G2 X148.325 Y157.141 Z-0.200 I-0.026 J-0.501 K0.000 F200.000
G2 X148.029 Y155.753 Z-0.200 I-5.924 J0.539 K0.000 F200.000
G2 X147.459 Y154.224 Z-0.200 I-10.858 J3.179 K0.000 F200.000
G2 X146.964 Y153.775 Z-0.200 I-0.652 J0.221 K0.000 F200.000
G2 X146.092 Y153.779 Z-0.200 I-0.425 J2.278 K0.000 F200.000
G3 X145.089 Y153.639 Z-0.200 I-0.335 J-1.255 K0.000 F200.000
G3 X144.894 Y153.119 Z-0.200 I0.748 J-0.576 K0.000 F200.000
G1 X144.894 Y153.119 Z-0.300 F100.000
G3 X145.108 Y152.462 Z-0.300 I0.942 J-0.057 K0.000 F200.000
G3 X145.859 Y152.271 Z-0.300 I0.643 J0.959 K0.000 F200.000
G3 X146.650 Y152.414 Z-0.300 I0.052 J1.981 K0.000 F200.000
G3 X147.397 Y153.118 Z-0.300 I-0.819 J1.619 K0.000 F200.000
G3 X148.652 Y156.130 Z-0.300 I-14.467 J7.791 K0.000 F200.000
G2 X149.478 Y157.892 Z-0.300 I4.926 J-1.235 K0.000 F200.000
G2 X150.367 Y158.108 Z-0.300 I0.607 J-0.561 K0.000 F200.000
G3 X151.064 Y157.841 Z-0.300 I2.983 J6.739 K0.000 F200.000
G3 X151.747 Y158.055 Z-0.300 I0.069 J0.979 K0.000 F200.000
G3 X153.490 Y161.057 Z-0.300 I-2.123 J3.240 K0.000 F200.000
G3 X153.065 Y162.056 Z-0.300 I-1.171 J0.092 K0.000 F200.000
G3 X152.365 Y162.024 Z-0.300 I-0.323 J-0.608 K0.000 F200.000
G3 X150.789 Y159.791 Z-0.300 I3.378 J-4.058 K0.000 F200.000
G2 X150.380 Y158.958 Z-0.300 I-3.437 J1.172 K0.000 F200.000
G2 X149.789 Y158.737 Z-0.300 I-0.397 J0.162 K0.000 F200.000
G2 X149.605 Y159.116 Z-0.300 I0.288 J0.375 K0.000 F200.000
G2 X149.728 Y160.063 Z-0.300 I3.090 J0.079 K0.000 F200.000
G2 X151.328 Y164.897 Z-0.300 I31.953 J-7.893 K0.000 F200.000
G2 X152.057 Y165.991 Z-0.300 I2.780 J-1.061 K0.000 F200.000
G2 X152.897 Y166.126 Z-0.300 I0.530 J-0.617 K0.000 F200.000
G2 X153.480 Y165.832 Z-0.300 I-2.763 J-6.191 K0.000 F200.000
G3 X153.773 Y165.868 Z-0.300 I0.127 J0.180 K0.000 F200.000
G3 X154.212 Y166.488 Z-0.300 I-0.586 J0.880 K0.000 F200.000
G3 X153.435 Y167.233 Z-0.300 I-0.726 J0.021 K0.000 F200.000
G3 X151.341 Y166.161 Z-0.300 I0.092 J-2.759 K0.000 F200.000
G3 X150.135 Y163.336 Z-0.300 I11.189 J-6.448 K0.000 F200.000
G3 X149.118 Y159.863 Z-0.300 I47.802 J-15.887 K0.000 F200.000
G1 X149.118 Y159.863 Z-0.300 F200.000
G2 X148.369 Y158.606 Z-0.300 I-1.928 J0.297 K0.000 F200.000
G2 X147.666 Y158.431 Z-0.300 I-0.922 J2.200 K0.000 F200.000
G3 X146.945 Y157.849 Z-0.300 I0.315 J-1.127 K0.000 F200.000
G1 X146.939 Y157.819 Z-0.300 F200.000
G3 X147.852 Y157.678 Z-0.300 I1.268 J5.174 K0.000 F200.000
G2 X148.325 Y157.141 Z-0.300 I-0.026 J-0.501 K0.000 F200.000
G2 X148.029 Y155.753 Z-0.300 I-5.924 J0.539 K0.000 F200.000
G2 X147.459 Y154.224 Z-0.300 I-10.858 J3.179 K0.000 F200.000
G2 X146.964 Y153.775 Z-0.300 I-0.652 J0.221 K0.000 F200.000
G2 X146.092 Y153.779 Z-0.300 I-0.425 J2.278 K0.000 F200.000
G3 X145.089 Y153.639 Z-0.300 I-0.335 J-1.255 K0.000 F200.000
G3 X144.894 Y153.119 Z-0.300 I0.748 J-0.576 K0.000 F200.000
G0 Z5.000
G0 Z5.000
G0 X144.894 Y153.119
G0 X156.623 Y158.103
G0 X156.623 Y158.103 Z3.000
G1 X156.623 Y158.103 Z-0.200 F100.000
G3 X156.785 Y157.898 Z-0.200 I0.452 J0.192 K0.000 F200.000
G3 X157.612 Y157.893 Z-0.200 I0.419 J0.759 K0.000 F200.000
G3 X158.137 Y158.994 Z-0.200 I-0.594 J0.959 K0.000 F200.000
G2 X158.047 Y160.345 Z-0.200 I26.438 J2.439 K0.000 F200.000
G2 X158.123 Y160.924 Z-0.200 I1.297 J0.125 K0.000 F200.000
G2 X158.609 Y161.270 Z-0.200 I0.542 J-0.247 K0.000 F200.000
G3 X159.246 Y161.373 Z-0.200 I-0.810 J7.050 K0.000 F200.000
G3 X159.340 Y161.814 Z-0.200 I-0.057 J0.243 K0.000 F200.000
G3 X157.538 Y161.528 Z-0.200 I-0.799 J-0.789 K0.000 F200.000
G3 X157.363 Y160.588 Z-0.200 I1.159 J-0.703 K0.000 F200.000
G2 X157.666 Y159.472 Z-0.200 I-25.142 J-7.437 K0.000 F200.000
G2 X157.070 Y158.786 Z-0.200 I-0.542 J-0.131 K0.000 F200.000
G3 X156.623 Y158.103 Z-0.200 I0.005 J-0.491 K0.000 F200.000
G1 X156.623 Y158.103 Z-0.300 F100.000
G3 X156.785 Y157.898 Z-0.300 I0.452 J0.192 K0.000 F200.000
G3 X157.612 Y157.893 Z-0.300 I0.419 J0.759 K0.000 F200.000
G3 X158.137 Y158.994 Z-0.300 I-0.594 J0.959 K0.000 F200.000
G2 X158.047 Y160.345 Z-0.300 I26.438 J2.439 K0.000 F200.000
G2 X158.123 Y160.924 Z-0.300 I1.297 J0.125 K0.000 F200.000
G2 X158.609 Y161.270 Z-0.300 I0.542 J-0.247 K0.000 F200.000
G3 X159.246 Y161.373 Z-0.300 I-0.810 J7.050 K0.000 F200.000
G3 X159.340 Y161.814 Z-0.300 I-0.057 J0.243 K0.000 F200.000
G3 X157.538 Y161.528 Z-0.300 I-0.799 J-0.789 K0.000 F200.000
G3 X157.363 Y160.588 Z-0.300 I1.159 J-0.703 K0.000 F200.000
G2 X157.666 Y159.472 Z-0.300 I-25.142 J-7.437 K0.000 F200.000
G2 X157.070 Y158.786 Z-0.300 I-0.542 J-0.131 K0.000 F200.000
G3 X156.623 Y158.103 Z-0.300 I0.005 J-0.491 K0.000 F200.000
G0 Z5.000
G0 Z5.000
G0 X156.623 Y158.103
G0 X156.516 Y147.506
G0 X156.516 Y147.506 Z3.000
G1 X156.516 Y147.506 Z-0.200 F100.000
G3 X148.696 Y147.316 Z-0.200 I-1.149 J-113.698 K0.000 F200.000
G3 X148.285 Y147.215 Z-0.200 I0.019 J-0.965 K0.000 F200.000
G3 X148.228 Y147.121 Z-0.200 I0.059 J-0.101 K0.000 F200.000
G3 X148.273 Y146.445 Z-0.200 I2.288 J-0.188 K0.000 F200.000
G1 X148.356 Y146.426 Z-0.200 F200.000
G3 X150.364 Y146.229 Z-0.200 I9.062 J82.166 K0.000 F200.000
G2 X151.328 Y145.463 Z-0.200 I-0.059 J-1.064 K0.000 F200.000
G2 X151.526 Y144.231 Z-0.200 I-4.436 J-1.347 K0.000 F200.000
G1 X151.574 Y142.810 Z-0.200 F200.000
G2 X151.477 Y131.605 Z-0.200 I-231.891 J-3.587 K0.000 F200.000
G2 X151.358 Y130.905 Z-0.200 I-2.067 J-0.010 K0.000 F200.000
G2 X150.903 Y130.431 Z-0.200 I-1.021 J0.524 K0.000 F200.000
G2 X149.068 Y129.921 Z-0.200 I-2.335 J4.846 K0.000 F200.000
G3 X148.097 Y129.534 Z-0.200 I0.141 J-1.760 K0.000 F200.000
G3 X147.982 Y129.398 Z-0.200 I0.339 J-0.404 K0.000 F200.000
G3 X148.484 Y129.088 Z-0.200 I0.795 J0.727 K0.000 F200.000
G3 X150.191 Y128.982 Z-0.200 I1.388 J8.546 K0.000 F200.000
G3 X156.151 Y129.010 Z-0.200 I2.229 J160.721 K0.000 F200.000
G3 X157.962 Y129.146 Z-0.200 I-0.084 J13.267 K0.000 F200.000
G3 X158.424 Y129.296 Z-0.200 I-0.101 J1.097 K0.000 F200.000
G3 X158.417 Y129.618 Z-0.200 I-0.105 J0.159 K0.000 F200.000
G3 X156.985 Y129.992 Z-0.200 I-2.235 J-5.637 K0.000 F200.000
G2 X155.871 Y130.323 Z-0.200 I0.762 J4.593 K0.000 F200.000
G2 X155.211 Y131.350 Z-0.200 I0.515 J1.056 K0.000 F200.000
G2 X155.026 Y138.515 Z-0.200 I118.521 J6.648 K0.000 F200.000
G1 X154.979 Y145.347 Z-0.200 F200.000
G2 X155.072 Y145.543 Z-0.200 I0.250 J0.002 K0.000 F200.000
G2 X156.759 Y146.323 Z-0.200 I1.961 J-2.029 K0.000 F200.000
G1 X157.907 Y146.510 Z-0.200 F200.000
G3 X158.320 Y146.680 Z-0.200 I-0.149 J0.951 K0.000 F200.000
G3 X158.020 Y147.408 Z-0.200 I-0.343 J0.285 K0.000 F200.000
G1 X157.569 Y147.491 Z-0.200 F200.000
G3 X156.516 Y147.506 Z-0.200 I-2.202 J-113.683 K0.000 F200.000
G1 X156.516 Y147.506 Z-0.300 F100.000
G3 X148.696 Y147.316 Z-0.300 I-1.149 J-113.698 K0.000 F200.000
G3 X148.285 Y147.215 Z-0.300 I0.019 J-0.965 K0.000 F200.000
G3 X148.228 Y147.121 Z-0.300 I0.059 J-0.101 K0.000 F200.000
G3 X148.273 Y146.445 Z-0.300 I2.288 J-0.188 K0.000 F200.000
G1 X148.356 Y146.426 Z-0.300 F200.000
G3 X150.364 Y146.229 Z-0.300 I9.062 J82.166 K0.000 F200.000
G2 X151.328 Y145.463 Z-0.300 I-0.059 J-1.064 K0.000 F200.000
G2 X151.526 Y144.231 Z-0.300 I-4.436 J-1.347 K0.000 F200.000
G1 X151.574 Y142.810 Z-0.300 F200.000
G2 X151.477 Y131.605 Z-0.300 I-231.891 J-3.587 K0.000 F200.000
G2 X151.358 Y130.905 Z-0.300 I-2.067 J-0.010 K0.000 F200.000
G2 X150.903 Y130.431 Z-0.300 I-1.021 J0.524 K0.000 F200.000
G2 X149.068 Y129.921 Z-0.300 I-2.335 J4.846 K0.000 F200.000
G3 X148.097 Y129.534 Z-0.300 I0.141 J-1.760 K0.000 F200.000
G3 X147.982 Y129.398 Z-0.300 I0.339 J-0.404 K0.000 F200.000
G3 X148.484 Y129.088 Z-0.300 I0.795 J0.727 K0.000 F200.000
G3 X150.191 Y128.982 Z-0.300 I1.388 J8.546 K0.000 F200.000
G3 X156.151 Y129.010 Z-0.300 I2.229 J160.721 K0.000 F200.000
G3 X157.962 Y129.146 Z-0.300 I-0.084 J13.267 K0.000 F200.000
G3 X158.424 Y129.296 Z-0.300 I-0.101 J1.097 K0.000 F200.000
G3 X158.417 Y129.618 Z-0.300 I-0.105 J0.159 K0.000 F200.000
G3 X156.985 Y129.992 Z-0.300 I-2.235 J-5.637 K0.000 F200.000
G2 X155.871 Y130.323 Z-0.300 I0.762 J4.593 K0.000 F200.000
G2 X155.211 Y131.350 Z-0.300 I0.515 J1.056 K0.000 F200.000
G2 X155.026 Y138.515 Z-0.300 I118.521 J6.648 K0.000 F200.000
G1 X154.979 Y145.347 Z-0.300 F200.000
G2 X155.072 Y145.543 Z-0.300 I0.250 J0.002 K0.000 F200.000
G2 X156.759 Y146.323 Z-0.300 I1.961 J-2.029 K0.000 F200.000
G1 X157.907 Y146.510 Z-0.300 F200.000
G3 X158.320 Y146.680 Z-0.300 I-0.149 J0.951 K0.000 F200.000
G3 X158.020 Y147.408 Z-0.300 I-0.343 J0.285 K0.000 F200.000
G1 X157.569 Y147.491 Z-0.300 F200.000
G3 X156.516 Y147.506 Z-0.300 I-2.202 J-113.683 K0.000 F200.000
G0 Z5.000
G0 Z5.000
G0 X156.516 Y147.506
G0 X139.716 Y140.799
G0 X139.716 Y140.799 Z3.000
G1 X139.716 Y140.799 Z-0.200 F100.000
G3 X137.515 Y146.242 Z-0.200 I-630.500 J-251.751 K0.000 F200.000
G3 X136.937 Y147.425 Z-0.200 I-8.409 J-3.373 K0.000 F200.000
G1 X136.795 Y147.170 Z-0.200 F200.000
G3 X134.885 Y142.681 Z-0.200 I64.819 J-30.244 K0.000 F200.000
G2 X130.651 Y132.605 Z-0.200 I-962.280 J398.408 K0.000 F200.000
G2 X129.458 Y130.585 Z-0.200 I-5.285 J1.758 K0.000 F200.000
G2 X127.549 Y129.692 Z-0.200 I-2.325 J2.483 K0.000 F200.000
G3 X126.726 Y129.191 Z-0.200 I0.095 J-1.083 K0.000 F200.000
G3 X126.729 Y128.969 Z-0.200 I0.157 J-0.109 K0.000 F200.000
G3 X130.661 Y128.792 Z-0.200 I3.351 J30.728 K0.000 F200.000
G3 X133.650 Y128.872 Z-0.200 I0.412 J40.183 K0.000 F200.000
G3 X134.208 Y128.954 Z-0.200 I0.028 J1.754 K0.000 F200.000
G3 X134.404 Y129.147 Z-0.200 I-0.117 J0.316 K0.000 F200.000
G3 X134.240 Y129.472 Z-0.200 I-0.388 J0.009 K0.000 F200.000
G3 X133.041 Y129.944 Z-0.200 I-1.468 J-1.973 K0.000 F200.000
G2 X131.906 Y130.582 Z-0.200 I0.398 J2.036 K0.000 F200.000
G2 X131.788 Y131.589 Z-0.200 I0.733 J0.596 K0.000 F200.000
G2 X135.057 Y140.195 Z-0.200 I163.138 J-57.041 K0.000 F200.000
G2 X135.381 Y140.618 Z-0.200 I0.764 J-0.251 K0.000 F200.000
G2 X135.737 Y140.517 Z-0.200 I0.132 J-0.212 K0.000 F200.000
G1 X136.064 Y139.862 Z-0.200 F200.000
G2 X139.418 Y131.852 Z-0.200 I-156.413 J-70.196 K0.000 F200.000
G2 X139.587 Y131.191 Z-0.200 I-1.470 J-0.727 K0.000 F200.000
G2 X138.924 Y130.186 Z-0.200 I-1.167 J0.049 K0.000 F200.000
