;FLAVOR:Marlin
;TIME:10413
;Filament used: 6.47347m
;Layer height: 0.2
;MINX:59.571
;MINY:91.103
;MINZ:0.2
;MAXX:160.529
;MAXY:127.938
;MAXZ:30
;TARGET_MACHINE.NAME:Creality Ender-3
;Generated with Cura_SteamEngine 5.9.0
M140 S50
M105
M190 S50
M104 S200
M105
M109 S200
M82 ;absolute extrusion mode
; Ender 3 Custom Start G-code
G92 E0 ; Reset Extruder
G28 ; Home all axes
M420 S1 ; Rappel du Bed levelling sauvegardé
;G29 ; pour refaire un bed levelling à chaque print
G1 Z2.0 F3000 ; Move Z Axis up little to prevent scratching of Heat Bed
G1 X0.1 Y20 Z0.3 F5000.0 ; Move to start position
G1 X0.1 Y200.0 Z0.3 F1500.0 E15 ; Draw the first line
G1 X0.4 Y200.0 Z0.3 F5000.0 ; Move to side a little
G1 X0.4 Y20 Z0.3 F1500.0 E30 ; Draw the second line
G92 E0 ; Reset Extruder
G1 Z2.0 F3000 ; Move Z Axis up little to prevent scratching of Heat Bed
G1 X5 Y20 Z0.3 F5000.0 ; Move over to prevent blob squish
G92 E0
G92 E0
G1 F2700 E-5
;LAYER_COUNT:150
;LAYER:0
M107
;MESH:gabarit_2,54.stl
G0 F6000 X84.537 Y113.596 Z0.2
;TYPE:WALL-INNER
G1 F2700 E0
G1 F1200 X84.208 Y113.583 E0.01095
G1 X83.907 Y113.539 E0.02107
G1 X83.595 Y113.468 E0.03171
G1 X83.347 Y113.388 E0.04038
G1 X83.012 Y113.252 E0.0524
G1 X82.784 Y113.132 E0.06097
G1 X82.479 Y112.937 E0.07301
G1 X82.271 Y112.781 E0.08166
G1 X81.999 Y112.528 E0.09402
G1 X81.664 Y112.148 E0.11087
G1 X81.427 Y111.776 E0.12554
G1 X81.29 Y111.509 E0.13552
G1 X81.167 Y111.208 E0.14633
G1 X81.083 Y110.94 E0.15567
G1 X81.017 Y110.642 E0.16583
G1 X80.968 Y110.283 E0.17788
G1 X80.96 Y109.982 E0.18789
G1 X80.973 Y109.648 E0.19901
G1 X81.017 Y109.347 E0.20913
G1 X81.088 Y109.035 E0.21977
G1 X81.186 Y108.741 E0.23008
G1 X81.305 Y108.459 E0.24026
G1 X81.451 Y108.179 E0.25076
G1 X81.726 Y107.765 E0.26729
G1 X81.99 Y107.473 E0.28038
G1 X82.263 Y107.227 E0.29261
G1 X82.505 Y107.044 E0.3027
G1 X82.733 Y106.896 E0.31174
G1 X83.051 Y106.729 E0.32368
G1 X83.344 Y106.609 E0.33421
G1 X83.668 Y106.507 E0.34551
G1 X83.959 Y106.449 E0.35538
G1 X84.214 Y106.413 E0.36395
G1 X84.579 Y106.4 E0.37609
G1 X84.909 Y106.413 E0.38708
G1 X85.203 Y106.457 E0.39697
G1 X85.521 Y106.529 E0.40781
G1 X85.815 Y106.626 E0.41811
G1 X86.093 Y106.743 E0.42814
G1 X86.384 Y106.893 E0.43903
G1 X86.791 Y107.166 E0.45533
G1 X87.126 Y107.473 E0.47044
G1 X87.421 Y107.799 E0.48506
G1 X87.759 Y108.32 E0.50572
G1 X87.947 Y108.784 E0.52237
G1 X88.049 Y109.108 E0.53367
G1 X88.106 Y109.399 E0.54353
G1 X88.148 Y109.717 E0.5542
G1 X88.156 Y110.019 E0.56425
G1 X88.143 Y110.343 E0.57503
G1 X88.082 Y110.786 E0.58991
G1 X87.931 Y111.262 E0.60652
G1 X87.835 Y111.494 E0.61487
G1 X87.669 Y111.813 E0.62683
G1 X87.394 Y112.227 E0.64336
G1 X87.13 Y112.519 E0.65645
G1 X86.755 Y112.862 E0.67335
G1 X86.336 Y113.129 E0.68988
G1 X86.067 Y113.267 E0.69993
G1 X85.758 Y113.392 E0.71102
G1 X85.356 Y113.52 E0.72505
G1 X84.859 Y113.584 E0.74172
G1 X84.537 Y113.596 E0.75244
G1 F2700 E-4.24756
G0 F6000 X85.813 Y113.565
G0 X85.307 Y117.264
G0 X110 Y120.817
G1 F2700 E0.75244
G1 F1200 X158.874 Y127.488 E2.39307
G1 X159.192 Y125.155 E2.47138
G1 X159.192 Y94.841 E3.47963
G1 X158.874 Y92.512 E3.55781
G1 X60.981 Y105.87 E6.84392
G1 X61.307 Y108.246 E6.92368
G1 X61.307 Y111.75 E7.04023
G1 X60.981 Y114.126 E7.11999
G1 X110 Y120.817 E8.76549
G1 F2700 E3.76549
G0 F6000 X145.435 Y125.471
G0 X146.703 Y113.762
G0 X147.057 Y113.596
G1 F2700 E8.76549
G1 F1200 X146.729 Y113.583 E8.77641
G1 X146.421 Y113.538 E8.78676
G1 X146.121 Y113.469 E8.797
G1 X145.827 Y113.375 E8.80726
G1 X145.575 Y113.271 E8.81633
G1 X145.255 Y113.105 E8.82832
G1 X144.874 Y112.86 E8.84339
G1 X144.55 Y112.563 E8.85801
G1 X144.337 Y112.334 E8.86841
G1 X144.112 Y112.041 E8.8807
G1 X143.872 Y111.66 E8.89567
G1 X143.686 Y111.209 E8.9119
G1 X143.595 Y110.908 E8.92236
G1 X143.494 Y110.448 E8.93802
G1 X143.48 Y109.982 E8.95353
G1 X143.489 Y109.685 E8.96341
G1 X143.535 Y109.343 E8.97489
G1 X143.607 Y109.043 E8.98515
G1 X143.747 Y108.601 E9.00057
G1 X143.973 Y108.171 E9.01673
G1 X144.117 Y107.951 E9.02547
G1 X144.337 Y107.662 E9.03755
G1 X144.513 Y107.47 E9.04622
G1 X144.911 Y107.117 E9.06391
G1 X145.3 Y106.867 E9.07929
G1 X145.568 Y106.73 E9.0893
G1 X145.86 Y106.609 E9.09981
G1 X146.121 Y106.524 E9.10894
G1 X146.475 Y106.45 E9.12097
G1 X146.73 Y106.413 E9.12954
G1 X147.095 Y106.4 E9.14169
G1 X147.424 Y106.413 E9.15264
G1 X147.725 Y106.457 E9.16276
G1 X148.037 Y106.528 E9.1734
G1 X148.328 Y106.624 E9.18359
G1 X148.617 Y106.745 E9.19401
G1 X148.849 Y106.863 E9.20267
G1 X149.173 Y107.07 E9.21546
G1 X149.405 Y107.253 E9.22529
G1 X149.646 Y107.473 E9.23614
G1 X149.937 Y107.795 E9.25057
G1 X150.275 Y108.322 E9.2714
G1 X150.447 Y108.738 E9.28637
G1 X150.547 Y109.036 E9.29682
G1 X150.619 Y109.351 E9.30757
G1 X150.66 Y109.656 E9.31781
G1 X150.676 Y109.973 E9.32836
G1 X150.66 Y110.339 E9.34055
G1 X150.624 Y110.624 E9.3501
G1 X150.55 Y110.945 E9.36106
G1 X150.449 Y111.263 E9.37216
G1 X150.349 Y111.499 E9.38068
G1 X150.221 Y111.757 E9.39026
G1 X149.942 Y112.195 E9.40753
G1 X149.606 Y112.563 E9.42411
G1 X149.284 Y112.858 E9.43863
G1 X148.856 Y113.129 E9.45548
G1 X148.587 Y113.267 E9.46554
G1 X148.327 Y113.375 E9.4749
G1 X147.874 Y113.52 E9.49072
G1 X147.379 Y113.584 E9.50732
G1 X147.057 Y113.596 E9.51804
G0 F6000 X146.784 Y113.187
;TYPE:WALL-OUTER
G1 F1200 X146.508 Y113.148 E9.52731
G1 X146.256 Y113.092 E9.5359
G1 X145.979 Y113.005 E9.54555
G1 X145.712 Y112.894 E9.55517
G1 X145.471 Y112.769 E9.5642
G1 X145.121 Y112.543 E9.57806
G1 X144.808 Y112.256 E9.59218
G1 X144.632 Y112.064 E9.60084
G1 X144.45 Y111.827 E9.61078
G1 X144.23 Y111.477 E9.62453
G1 X144.068 Y111.091 E9.63846
G1 X143.985 Y110.818 E9.64795
G1 X143.892 Y110.411 E9.66183
G1 X143.88 Y109.994 E9.67571
G1 X143.889 Y109.706 E9.68529
G1 X143.925 Y109.434 E9.69442
G1 X143.989 Y109.163 E9.70368
G1 X144.126 Y108.739 E9.7185
G1 X144.308 Y108.39 E9.73159
G1 X144.46 Y108.159 E9.74079
G1 X144.632 Y107.932 E9.75026
G1 X144.808 Y107.74 E9.75892
G1 X145.13 Y107.452 E9.77329
G1 X145.466 Y107.232 E9.78665
G1 X145.722 Y107.099 E9.79624
G1 X145.985 Y106.989 E9.80573
G1 X146.243 Y106.905 E9.81475
G1 X146.531 Y106.846 E9.82453
G1 X146.784 Y106.809 E9.83303
G1 X147.083 Y106.8 E9.84298
G1 X147.368 Y106.809 E9.85247
G1 X147.639 Y106.848 E9.86157
G1 X147.914 Y106.909 E9.87094
G1 X148.176 Y106.994 E9.8801
G1 X148.435 Y107.101 E9.88942
G1 X148.665 Y107.218 E9.89801
G1 X148.912 Y107.375 E9.90774
G1 X149.138 Y107.551 E9.91727
G1 X149.349 Y107.741 E9.92671
G1 X149.629 Y108.055 E9.9407
G1 X149.909 Y108.491 E9.95794
G1 X150.082 Y108.905 E9.97286
G1 X150.167 Y109.161 E9.98183
G1 X150.231 Y109.454 E9.99181
G1 X150.263 Y109.706 E10.00026
G1 X150.276 Y110 E10.01004
G1 X150.263 Y110.289 E10.01967
G1 X150.228 Y110.565 E10.02892
G1 X150.168 Y110.827 E10.03786
G1 X150.081 Y111.107 E10.04761
G1 X149.981 Y111.343 E10.05614
G1 X149.852 Y111.597 E10.06561
G1 X149.613 Y111.963 E10.08015
G1 X149.336 Y112.268 E10.09385
G1 X149.025 Y112.549 E10.1078
G1 X148.689 Y112.765 E10.12108
G1 X148.433 Y112.897 E10.13066
G1 X148.157 Y113.011 E10.14059
G1 X147.767 Y113.131 E10.15416
G1 X147.379 Y113.183 E10.16718
G1 X147.069 Y113.196 E10.1775
G1 X146.784 Y113.187 E10.18699
G1 F2700 E5.18699
G0 F6000 X146.742 Y113.492
G0 X145.444 Y113.409
G0 X143.827 Y125.251
G0 X110 Y121.22
G1 F2700 E10.18699
G1 F1200 X159.216 Y127.938 E11.8391
G1 X159.592 Y125.182 E11.93161
G1 X159.592 Y94.814 E12.94166
G1 X159.216 Y92.062 E13.03404
G1 X60.53 Y105.528 E16.34676
G1 X60.911 Y108.3 E16.43983
G1 X60.911 Y111.696 E16.55278
G1 X60.53 Y114.468 E16.64584
G1 X110 Y121.22 E18.30648
G1 F2700 E13.30648
G0 F6000 X110.042 Y120.915
G0 X84.049 Y117.073
G0 X84.181 Y113.762
G0 X84.549 Y113.196
G1 F2700 E18.30648
G1 F1200 X84.264 Y113.187 E18.31596
G1 X83.993 Y113.148 E18.32507
G1 X83.718 Y113.087 E18.33444
G1 X83.457 Y113.002 E18.34357
G1 X83.198 Y112.898 E18.35285
G1 X82.955 Y112.769 E18.362
G1 X82.719 Y112.617 E18.37134
G1 X82.511 Y112.461 E18.37998
G1 X82.295 Y112.259 E18.38982
G1 X82 Y111.93 E18.40452
G1 X81.782 Y111.592 E18.41789
G1 X81.659 Y111.354 E18.42681
G1 X81.555 Y111.106 E18.43575
G1 X81.46 Y110.802 E18.44634
G1 X81.406 Y110.545 E18.45508
G1 X81.368 Y110.271 E18.46428
G1 X81.36 Y109.994 E18.47349
G1 X81.369 Y109.704 E18.48315
G1 X81.408 Y109.433 E18.49225
G1 X81.469 Y109.158 E18.50162
G1 X81.549 Y108.91 E18.51029
G1 X81.661 Y108.641 E18.51998
G1 X81.787 Y108.395 E18.52917
G1 X82.023 Y108.033 E18.54354
G1 X82.287 Y107.741 E18.55664
G1 X82.506 Y107.545 E18.56641
G1 X82.723 Y107.38 E18.57548
G1 X82.966 Y107.223 E18.5851
G1 X83.203 Y107.099 E18.594
G1 X83.469 Y106.989 E18.60357
G1 X83.748 Y106.899 E18.61332
G1 X84.015 Y106.845 E18.62238
G1 X84.268 Y106.809 E18.63088
G1 X84.567 Y106.8 E18.64083
G1 X84.853 Y106.809 E18.65035
G1 X85.119 Y106.848 E18.65929
G1 X85.398 Y106.909 E18.66879
G1 X85.646 Y106.989 E18.67746
G1 X85.914 Y107.101 E18.68712
G1 X86.166 Y107.228 E18.6965
G1 X86.523 Y107.463 E18.71072
G1 X86.829 Y107.741 E18.72447
G1 X87.093 Y108.033 E18.73756
G1 X87.41 Y108.524 E18.757
G1 X87.567 Y108.909 E18.77083
G1 X87.657 Y109.188 E18.78058
G1 X87.71 Y109.455 E18.78963
G1 X87.748 Y109.729 E18.79883
G1 X87.756 Y110.007 E18.80808
G1 X87.747 Y110.291 E18.81753
G1 X87.692 Y110.7 E18.83126
G1 X87.561 Y111.109 E18.84554
G1 X87.458 Y111.356 E18.85445
G1 X87.333 Y111.597 E18.86348
G1 X87.097 Y111.959 E18.87785
G1 X86.819 Y112.265 E18.8916
G1 X86.523 Y112.533 E18.90488
G1 X86.152 Y112.774 E18.91959
G1 X85.913 Y112.897 E18.92853
G1 X85.637 Y113.011 E18.93847
G1 X85.251 Y113.131 E18.95191
G1 X84.859 Y113.183 E18.96506
G1 X84.549 Y113.196 E18.97538
G1 F2700 E13.97538
G0 F6000 X84.536 Y113.509
G0 X85.512 Y113.292
G0 X87.207 Y112.696
G0 X145.756 Y113.542
G0 X146.676 Y113.939
;TYPE:SKIN
G1 F2700 E18.97538
G1 F1200 X147.098 Y113.952 E18.98942
G1 X147.414 Y113.943 E18.99994
G1 X147.934 Y113.875 E19.01738
G1 X148.382 Y113.735 E19.03299
G1 X148.78 Y113.574 E19.04727
G1 X149.026 Y113.445 E19.05651
G1 X149.52 Y113.124 E19.07611
G1 X149.904 Y112.772 E19.09343
G1 X150.213 Y112.43 E19.10876
G1 X150.503 Y111.987 E19.12637
G1 X150.655 Y111.687 E19.13756
G1 X150.776 Y111.408 E19.14767
G1 X150.916 Y110.972 E19.1629
G1 X150.976 Y110.704 E19.17204
G1 X151.023 Y110.316 E19.18504
G1 X151.036 Y109.964 E19.19675
G1 X151.023 Y109.662 E19.20681
G1 X150.975 Y109.294 E19.21915
G1 X150.891 Y108.934 E19.23145
G1 X150.783 Y108.601 E19.24309
G1 X150.601 Y108.17 E19.25865
G1 X150.237 Y107.596 E19.28126
G1 X149.892 Y107.208 E19.29852
G1 X149.648 Y106.984 E19.30954
G1 X149.339 Y106.745 E19.32253
G1 X149.084 Y106.583 E19.33258
G1 X148.767 Y106.415 E19.34452
G1 X148.475 Y106.291 E19.35507
G1 X148.138 Y106.181 E19.36686
G1 X147.751 Y106.096 E19.38004
G1 X147.474 Y106.054 E19.38935
G1 X147.103 Y106.04 E19.4017
G1 X146.76 Y106.049 E19.41311
G1 X146.428 Y106.089 E19.42424
G1 X146.007 Y106.177 E19.43854
G1 X145.749 Y106.261 E19.44757
G1 X145.365 Y106.423 E19.46143
G1 X145.045 Y106.593 E19.47348
G1 X144.665 Y106.845 E19.48865
G1 X144.315 Y107.154 E19.50417
G1 X144.019 Y107.482 E19.51887
G1 X143.71 Y107.889 E19.53587
G1 X143.422 Y108.448 E19.55678
G1 X143.265 Y108.926 E19.57351
G1 X143.173 Y109.305 E19.58649
G1 X143.129 Y109.642 E19.59779
G1 X143.12 Y109.97 E19.6087
G1 X143.137 Y110.484 E19.62581
G1 X143.244 Y111.003 E19.64343
G1 X143.336 Y111.303 E19.65387
G1 X143.547 Y111.81 E19.67213
G1 X143.846 Y112.291 E19.69097
G1 X144.014 Y112.508 E19.7001
G1 X144.251 Y112.771 E19.71187
G1 X144.636 Y113.127 E19.72932
G1 X145.063 Y113.408 E19.74632
G1 X145.365 Y113.569 E19.7577
G1 X145.685 Y113.705 E19.76926
G1 X146.074 Y113.831 E19.78286
G1 X146.42 Y113.903 E19.79462
G1 X146.676 Y113.939 E19.80322
G1 F2700 E14.80322
G0 F6000 X146.711 Y113.682
G0 X145.756 Y113.542
G0 X144.151 Y125.296
G0 X110 Y120.453
G1 F2700 E19.80322
G1 F1200 X61.382 Y113.816 E21.43526
G1 X61.671 Y111.748 E21.50471
G1 X61.671 Y108.248 E21.62112
G1 X61.382 Y106.176 E21.6907
G1 X158.565 Y92.914 E24.95298
G1 X158.832 Y94.858 E25.01824
G1 X158.832 Y125.138 E26.02536
G1 X158.565 Y127.082 E26.09062
G1 X110 Y120.453 E27.72088
G1 F2700 E22.72088
G0 F6000 X109.965 Y120.711
G0 X84.121 Y117.102
G0 X84.245 Y113.764
G0 X84.578 Y113.952
G1 F2700 E27.72088
G1 F1200 X84.894 Y113.943 E27.73139
G1 X85.414 Y113.875 E27.74884
G1 X85.853 Y113.739 E27.76412
G1 X86.284 Y113.56 E27.77964
G1 X86.564 Y113.408 E27.79024
G1 X86.992 Y113.132 E27.80718
G1 X87.328 Y112.824 E27.82234
G1 X87.695 Y112.428 E27.8403
G1 X87.977 Y111.999 E27.85737
G1 X88.142 Y111.688 E27.86908
G1 X88.286 Y111.331 E27.88189
G1 X88.435 Y110.852 E27.89857
G1 X88.499 Y110.392 E27.91402
G1 X88.516 Y110.03 E27.92607
G1 X88.507 Y109.685 E27.93755
G1 X88.463 Y109.357 E27.94856
G1 X88.401 Y109.037 E27.9594
G1 X88.282 Y108.656 E27.97267
G1 X88.086 Y108.172 E27.99004
G1 X87.693 Y107.565 E28.01409
G1 X87.389 Y107.229 E28.02916
G1 X86.97 Y106.844 E28.04809
G1 X86.574 Y106.584 E28.06384
G1 X86.263 Y106.425 E28.07546
G1 X85.93 Y106.281 E28.08753
G1 X85.558 Y106.161 E28.10053
G1 X85.291 Y106.107 E28.10959
G1 X84.967 Y106.058 E28.12049
G1 X84.589 Y106.04 E28.13308
G1 X84.243 Y106.049 E28.14459
G1 X83.919 Y106.089 E28.15545
G1 X83.594 Y106.151 E28.16645
G1 X83.234 Y106.265 E28.17901
G1 X82.892 Y106.402 E28.19126
G1 X82.612 Y106.546 E28.20174
G1 X82.308 Y106.739 E28.21371
G1 X82.033 Y106.947 E28.22518
G1 X81.733 Y107.219 E28.23865
G1 X81.419 Y107.565 E28.25419
G1 X81.138 Y107.995 E28.27127
G1 X80.986 Y108.287 E28.28222
G1 X80.841 Y108.629 E28.29458
G1 X80.74 Y108.939 E28.30542
G1 X80.656 Y109.311 E28.31811
G1 X80.614 Y109.594 E28.32762
G1 X80.6 Y109.973 E28.34024
G1 X80.605 Y110.306 E28.35131
G1 X80.649 Y110.65 E28.36285
G1 X80.712 Y110.95 E28.37304
G1 X80.82 Y111.314 E28.38567
G1 X80.975 Y111.689 E28.39917
G1 X81.103 Y111.934 E28.40836
G1 X81.386 Y112.387 E28.42613
G1 X81.74 Y112.776 E28.44362
G1 X82.034 Y113.054 E28.45708
G1 X82.262 Y113.222 E28.4665
G1 X82.599 Y113.441 E28.47987
G1 X82.845 Y113.573 E28.48915
G1 X83.173 Y113.706 E28.50092
G1 X83.496 Y113.812 E28.51223
G1 X83.876 Y113.896 E28.52517
G1 X84.154 Y113.938 E28.53453
G1 X84.578 Y113.952 E28.54864
G1 F2700 E23.54864
G0 F6000 X84.587 Y113.696
G0 X83.24 Y113.541
G0 X61.512 Y111.726
G0 X61.677 Y113.154
G1 F2700 E28.54864
G1 F1200 X62.257 Y113.734 E28.57592
G0 F6000 X62.911 Y113.823
G1 F1200 X61.746 Y112.658 E28.63071
G0 F6000 X61.815 Y112.161
G1 F1200 X63.567 Y113.913 E28.71312
G0 F6000 X64.222 Y114.002
G1 F1200 X61.869 Y111.649 E28.8238
G0 F6000 X61.869 Y111.084
G1 F1200 X64.877 Y114.092 E28.96529
G0 F6000 X65.532 Y114.181
G1 F1200 X61.869 Y110.518 E29.13758
G0 F6000 X61.869 Y109.952
G1 F1200 X66.187 Y114.27 E29.34069
G0 F6000 X66.842 Y114.36
G1 F1200 X61.869 Y109.387 E29.5746
G0 F6000 X61.869 Y108.821
G1 F1200 X67.497 Y114.449 E29.83933
G0 F6000 X68.152 Y114.539
G1 F1200 X61.869 Y108.255 E30.13489
G0 F6000 X61.783 Y107.603
G1 F1200 X68.807 Y114.628 E30.4653
G0 F6000 X69.463 Y114.717
G1 F1200 X61.692 Y106.946 E30.83082
G0 F6000 X61.652 Y106.341
G1 F1200 X70.117 Y114.807 E31.22901
G0 F6000 X70.773 Y114.896
G1 F1200 X62.15 Y106.273 E31.63461
G0 F6000 X62.648 Y106.205
G1 F1200 X71.428 Y114.985 E32.0476
G0 F6000 X72.083 Y115.075
G1 F1200 X63.145 Y106.137 E32.46801
G0 F6000 X63.643 Y106.07
G1 F1200 X72.738 Y115.164 E32.89579
G0 F6000 X73.393 Y115.254
G1 F1200 X64.141 Y106.002 E33.33097
G0 F6000 X64.639 Y105.934
G1 F1200 X74.048 Y115.343 E33.77355
G0 F6000 X74.704 Y115.433
G1 F1200 X65.137 Y105.866 E34.22355
G0 F6000 X65.634 Y105.798
G1 F1200 X75.358 Y115.522 E34.68093
G0 F6000 X76.013 Y115.611
G1 F1200 X66.132 Y105.73 E35.14571
G0 F6000 X66.63 Y105.662
G1 F1200 X76.669 Y115.701 E35.61791
G0 F6000 X77.324 Y115.79
G1 F1200 X67.127 Y105.594 E36.09752
G0 F6000 X67.625 Y105.526
G1 F1200 X77.979 Y115.88 E36.58454
G0 F6000 X78.634 Y115.969
G1 F1200 X68.123 Y105.458 E37.07895
G0 F6000 X68.62 Y105.39
G1 F1200 X79.289 Y116.059 E37.58079
G0 F6000 X79.944 Y116.148
G1 F1200 X69.118 Y105.322 E38.09001
G0 F6000 X69.616 Y105.254
G1 F1200 X80.6 Y116.238 E38.60666
G0 F6000 X81.254 Y116.327
G1 F1200 X70.114 Y105.186 E39.13068
G0 F6000 X70.612 Y105.118
G1 F1200 X81.91 Y116.417 E39.66212
G0 F6000 X82.565 Y116.506
G1 F1200 X71.109 Y105.051 E40.20095
