(Exported by FreeCAD)
(Post Processor: script_module)
(Output Time:2024-09-29 16:55:21.143452)
(Begin preamble)
G17 G90
G21
(Begin operation: TC: 0.5mm_droite)
(Path: TC: 0.5mm_droite)
(TC: 0.5mm_droite)
(Begin toolchange)
( M6 T2 )
M3 S24000
(Finish operation: TC: 0.5mm_droite)
(Begin operation: Fixture)
(Path: Fixture)
G54
(Finish operation: Fixture)
(Begin operation: Profile001)
(Path: Profile001)
(Profile001)
(Compensated Tool Path. Diameter: 0.5)
G0 Z5.000
G0 X7.646 Y9.526
G0 Z3.000
G1 X7.646 Y9.526 Z-0.125 F60.000
G3 X7.634 Y9.528 Z-0.125 I-0.008 J-0.008 K0.000 F200.000
G1 X6.080 Y9.528 Z-0.125 F200.000
G3 X6.066 Y9.513 Z-0.125 I-0.004 J-0.010 K0.000 F200.000
G1 X6.066 Y8.023 Z-0.125 F200.000
G3 X6.080 Y8.008 Z-0.125 I0.010 J-0.004 K0.000 F200.000
G1 X7.634 Y8.008 Z-0.125 F200.000
G3 X7.649 Y8.023 Z-0.125 I0.004 J0.010 K0.000 F200.000
G1 X7.649 Y9.513 Z-0.125 F200.000
G3 X7.646 Y9.526 Z-0.125 I-0.010 J0.004 K0.000 F200.000
G1 X7.646 Y9.526 Z-0.250 F60.000
G3 X7.634 Y9.528 Z-0.250 I-0.008 J-0.008 K0.000 F200.000
G1 X6.080 Y9.528 Z-0.250 F200.000
G3 X6.066 Y9.513 Z-0.250 I-0.004 J-0.010 K0.000 F200.000
G1 X6.066 Y8.023 Z-0.250 F200.000
G3 X6.080 Y8.008 Z-0.250 I0.010 J-0.004 K0.000 F200.000
G1 X7.634 Y8.008 Z-0.250 F200.000
G3 X7.649 Y8.023 Z-0.250 I0.004 J0.010 K0.000 F200.000
G1 X7.649 Y9.513 Z-0.250 F200.000
G3 X7.646 Y9.526 Z-0.250 I-0.010 J0.004 K0.000 F200.000
G1 X7.646 Y9.526 Z-0.375 F60.000
G3 X7.634 Y9.528 Z-0.375 I-0.008 J-0.008 K0.000 F200.000
G1 X6.080 Y9.528 Z-0.375 F200.000
G3 X6.066 Y9.513 Z-0.375 I-0.004 J-0.010 K0.000 F200.000
G1 X6.066 Y8.023 Z-0.375 F200.000
G3 X6.080 Y8.008 Z-0.375 I0.010 J-0.004 K0.000 F200.000
G1 X7.634 Y8.008 Z-0.375 F200.000
G3 X7.649 Y8.023 Z-0.375 I0.004 J0.010 K0.000 F200.000
G1 X7.649 Y9.513 Z-0.375 F200.000
G3 X7.646 Y9.526 Z-0.375 I-0.010 J0.004 K0.000 F200.000
G1 X7.646 Y9.526 Z-0.500 F60.000
G3 X7.634 Y9.528 Z-0.500 I-0.008 J-0.008 K0.000 F200.000
G1 X6.080 Y9.528 Z-0.500 F200.000
G3 X6.066 Y9.513 Z-0.500 I-0.004 J-0.010 K0.000 F200.000
G1 X6.066 Y8.023 Z-0.500 F200.000
G3 X6.080 Y8.008 Z-0.500 I0.010 J-0.004 K0.000 F200.000
G1 X7.634 Y8.008 Z-0.500 F200.000
G3 X7.649 Y8.023 Z-0.500 I0.004 J0.010 K0.000 F200.000
G1 X7.649 Y9.513 Z-0.500 F200.000
G3 X7.646 Y9.526 Z-0.500 I-0.010 J0.004 K0.000 F200.000
G1 X7.646 Y9.526 Z-0.625 F60.000
G3 X7.634 Y9.528 Z-0.625 I-0.008 J-0.008 K0.000 F200.000
G1 X6.080 Y9.528 Z-0.625 F200.000
G3 X6.066 Y9.513 Z-0.625 I-0.004 J-0.010 K0.000 F200.000
G1 X6.066 Y8.023 Z-0.625 F200.000
G3 X6.080 Y8.008 Z-0.625 I0.010 J-0.004 K0.000 F200.000
G1 X7.634 Y8.008 Z-0.625 F200.000
G3 X7.649 Y8.023 Z-0.625 I0.004 J0.010 K0.000 F200.000
G1 X7.649 Y9.513 Z-0.625 F200.000
G3 X7.646 Y9.526 Z-0.625 I-0.010 J0.004 K0.000 F200.000
G1 X7.646 Y9.526 Z-0.750 F60.000
G3 X7.634 Y9.528 Z-0.750 I-0.008 J-0.008 K0.000 F200.000
G1 X6.080 Y9.528 Z-0.750 F200.000
G3 X6.066 Y9.513 Z-0.750 I-0.004 J-0.010 K0.000 F200.000
G1 X6.066 Y8.023 Z-0.750 F200.000
G3 X6.080 Y8.008 Z-0.750 I0.010 J-0.004 K0.000 F200.000
G1 X7.634 Y8.008 Z-0.750 F200.000
G3 X7.649 Y8.023 Z-0.750 I0.004 J0.010 K0.000 F200.000
G1 X7.649 Y9.513 Z-0.750 F200.000
G3 X7.646 Y9.526 Z-0.750 I-0.010 J0.004 K0.000 F200.000
G1 X7.646 Y9.526 Z-0.875 F60.000
G3 X7.634 Y9.528 Z-0.875 I-0.008 J-0.008 K0.000 F200.000
G1 X6.080 Y9.528 Z-0.875 F200.000
G3 X6.066 Y9.513 Z-0.875 I-0.004 J-0.010 K0.000 F200.000
G1 X6.066 Y8.023 Z-0.875 F200.000
G3 X6.080 Y8.008 Z-0.875 I0.010 J-0.004 K0.000 F200.000
G1 X7.634 Y8.008 Z-0.875 F200.000
G3 X7.649 Y8.023 Z-0.875 I0.004 J0.010 K0.000 F200.000
G1 X7.649 Y9.513 Z-0.875 F200.000
G3 X7.646 Y9.526 Z-0.875 I-0.010 J0.004 K0.000 F200.000
G1 X7.646 Y9.526 Z-1.000 F60.000
G3 X7.634 Y9.528 Z-1.000 I-0.008 J-0.008 K0.000 F200.000
G1 X6.080 Y9.528 Z-1.000 F200.000
G3 X6.066 Y9.513 Z-1.000 I-0.004 J-0.010 K0.000 F200.000
G1 X6.066 Y8.023 Z-1.000 F200.000
G3 X6.080 Y8.008 Z-1.000 I0.010 J-0.004 K0.000 F200.000
G1 X7.634 Y8.008 Z-1.000 F200.000
G3 X7.649 Y8.023 Z-1.000 I0.004 J0.010 K0.000 F200.000
G1 X7.649 Y9.513 Z-1.000 F200.000
G3 X7.646 Y9.526 Z-1.000 I-0.010 J0.004 K0.000 F200.000
G1 X7.646 Y9.526 Z-1.125 F60.000
G3 X7.634 Y9.528 Z-1.125 I-0.008 J-0.008 K0.000 F200.000
G1 X6.080 Y9.528 Z-1.125 F200.000
G3 X6.066 Y9.513 Z-1.125 I-0.004 J-0.010 K0.000 F200.000
G1 X6.066 Y8.023 Z-1.125 F200.000
G3 X6.080 Y8.008 Z-1.125 I0.010 J-0.004 K0.000 F200.000
G1 X7.634 Y8.008 Z-1.125 F200.000
G3 X7.649 Y8.023 Z-1.125 I0.004 J0.010 K0.000 F200.000
G1 X7.649 Y9.513 Z-1.125 F200.000
G3 X7.646 Y9.526 Z-1.125 I-0.010 J0.004 K0.000 F200.000
G1 X7.646 Y9.526 Z-1.250 F60.000
G3 X7.634 Y9.528 Z-1.250 I-0.008 J-0.008 K0.000 F200.000
G1 X6.080 Y9.528 Z-1.250 F200.000
G3 X6.066 Y9.513 Z-1.250 I-0.004 J-0.010 K0.000 F200.000
G1 X6.066 Y8.023 Z-1.250 F200.000
G3 X6.080 Y8.008 Z-1.250 I0.010 J-0.004 K0.000 F200.000
G1 X7.634 Y8.008 Z-1.250 F200.000
G3 X7.649 Y8.023 Z-1.250 I0.004 J0.010 K0.000 F200.000
G1 X7.649 Y9.513 Z-1.250 F200.000
G3 X7.646 Y9.526 Z-1.250 I-0.010 J0.004 K0.000 F200.000
G1 X7.646 Y9.526 Z-1.375 F60.000
G3 X7.634 Y9.528 Z-1.375 I-0.008 J-0.008 K0.000 F200.000
G1 X6.080 Y9.528 Z-1.375 F200.000
G3 X6.066 Y9.513 Z-1.375 I-0.004 J-0.010 K0.000 F200.000
G1 X6.066 Y8.023 Z-1.375 F200.000
G3 X6.080 Y8.008 Z-1.375 I0.010 J-0.004 K0.000 F200.000
G1 X7.634 Y8.008 Z-1.375 F200.000
G3 X7.649 Y8.023 Z-1.375 I0.004 J0.010 K0.000 F200.000
G1 X7.649 Y9.513 Z-1.375 F200.000
G3 X7.646 Y9.526 Z-1.375 I-0.010 J0.004 K0.000 F200.000
G1 X7.646 Y9.526 Z-1.500 F60.000
G3 X7.634 Y9.528 Z-1.500 I-0.008 J-0.008 K0.000 F200.000
G1 X6.080 Y9.528 Z-1.500 F200.000
G3 X6.066 Y9.513 Z-1.500 I-0.004 J-0.010 K0.000 F200.000
G1 X6.066 Y8.023 Z-1.500 F200.000
G3 X6.080 Y8.008 Z-1.500 I0.010 J-0.004 K0.000 F200.000
G1 X7.634 Y8.008 Z-1.500 F200.000
G3 X7.649 Y8.023 Z-1.500 I0.004 J0.010 K0.000 F200.000
G1 X7.649 Y9.513 Z-1.500 F200.000
G3 X7.646 Y9.526 Z-1.500 I-0.010 J0.004 K0.000 F200.000
G1 X7.646 Y9.526 Z-1.625 F60.000
G3 X7.634 Y9.528 Z-1.625 I-0.008 J-0.008 K0.000 F200.000
G1 X6.080 Y9.528 Z-1.625 F200.000
G3 X6.066 Y9.513 Z-1.625 I-0.004 J-0.010 K0.000 F200.000
G1 X6.066 Y8.023 Z-1.625 F200.000
G3 X6.080 Y8.008 Z-1.625 I0.010 J-0.004 K0.000 F200.000
G1 X7.634 Y8.008 Z-1.625 F200.000
G3 X7.649 Y8.023 Z-1.625 I0.004 J0.010 K0.000 F200.000
G1 X7.649 Y9.513 Z-1.625 F200.000
G3 X7.646 Y9.526 Z-1.625 I-0.010 J0.004 K0.000 F200.000
G1 X7.646 Y9.526 Z-1.750 F60.000
G3 X7.634 Y9.528 Z-1.750 I-0.008 J-0.008 K0.000 F200.000
G1 X6.080 Y9.528 Z-1.750 F200.000
G3 X6.066 Y9.513 Z-1.750 I-0.004 J-0.010 K0.000 F200.000
G1 X6.066 Y8.023 Z-1.750 F200.000
G3 X6.080 Y8.008 Z-1.750 I0.010 J-0.004 K0.000 F200.000
G1 X7.634 Y8.008 Z-1.750 F200.000
G3 X7.649 Y8.023 Z-1.750 I0.004 J0.010 K0.000 F200.000
G1 X7.649 Y9.513 Z-1.750 F200.000
G3 X7.646 Y9.526 Z-1.750 I-0.010 J0.004 K0.000 F200.000
G1 X7.646 Y9.526 Z-1.875 F60.000
G3 X7.634 Y9.528 Z-1.875 I-0.008 J-0.008 K0.000 F200.000
G1 X6.080 Y9.528 Z-1.875 F200.000
G3 X6.066 Y9.513 Z-1.875 I-0.004 J-0.010 K0.000 F200.000
G1 X6.066 Y8.023 Z-1.875 F200.000
G3 X6.080 Y8.008 Z-1.875 I0.010 J-0.004 K0.000 F200.000
G1 X7.634 Y8.008 Z-1.875 F200.000
G3 X7.649 Y8.023 Z-1.875 I0.004 J0.010 K0.000 F200.000
G1 X7.649 Y9.513 Z-1.875 F200.000
G3 X7.646 Y9.526 Z-1.875 I-0.010 J0.004 K0.000 F200.000
G1 X7.646 Y9.526 Z-2.000 F60.000
G3 X7.634 Y9.528 Z-2.000 I-0.008 J-0.008 K0.000 F200.000
G1 X6.080 Y9.528 Z-2.000 F200.000
G3 X6.066 Y9.513 Z-2.000 I-0.004 J-0.010 K0.000 F200.000
G1 X6.066 Y8.023 Z-2.000 F200.000
G3 X6.080 Y8.008 Z-2.000 I0.010 J-0.004 K0.000 F200.000
G1 X7.634 Y8.008 Z-2.000 F200.000
G3 X7.649 Y8.023 Z-2.000 I0.004 J0.010 K0.000 F200.000
G1 X7.649 Y9.513 Z-2.000 F200.000
G3 X7.646 Y9.526 Z-2.000 I-0.010 J0.004 K0.000 F200.000
G1 X7.646 Y9.526 Z-2.125 F60.000
G3 X7.634 Y9.528 Z-2.125 I-0.008 J-0.008 K0.000 F200.000
G1 X6.080 Y9.528 Z-2.125 F200.000
G3 X6.066 Y9.513 Z-2.125 I-0.004 J-0.010 K0.000 F200.000
G1 X6.066 Y8.023 Z-2.125 F200.000
G3 X6.080 Y8.008 Z-2.125 I0.010 J-0.004 K0.000 F200.000
G1 X7.634 Y8.008 Z-2.125 F200.000
G3 X7.649 Y8.023 Z-2.125 I0.004 J0.010 K0.000 F200.000
G1 X7.649 Y9.513 Z-2.125 F200.000
G3 X7.646 Y9.526 Z-2.125 I-0.010 J0.004 K0.000 F200.000
G1 X7.646 Y9.526 Z-2.250 F60.000
G3 X7.634 Y9.528 Z-2.250 I-0.008 J-0.008 K0.000 F200.000
G1 X6.080 Y9.528 Z-2.250 F200.000
G3 X6.066 Y9.513 Z-2.250 I-0.004 J-0.010 K0.000 F200.000
G1 X6.066 Y8.023 Z-2.250 F200.000
G3 X6.080 Y8.008 Z-2.250 I0.010 J-0.004 K0.000 F200.000
G1 X7.634 Y8.008 Z-2.250 F200.000
G3 X7.649 Y8.023 Z-2.250 I0.004 J0.010 K0.000 F200.000
G1 X7.649 Y9.513 Z-2.250 F200.000
G3 X7.646 Y9.526 Z-2.250 I-0.010 J0.004 K0.000 F200.000
G1 X7.646 Y9.526 Z-2.375 F60.000
G3 X7.634 Y9.528 Z-2.375 I-0.008 J-0.008 K0.000 F200.000
G1 X6.080 Y9.528 Z-2.375 F200.000
G3 X6.066 Y9.513 Z-2.375 I-0.004 J-0.010 K0.000 F200.000
G1 X6.066 Y8.023 Z-2.375 F200.000
G3 X6.080 Y8.008 Z-2.375 I0.010 J-0.004 K0.000 F200.000
G1 X7.634 Y8.008 Z-2.375 F200.000
G3 X7.649 Y8.023 Z-2.375 I0.004 J0.010 K0.000 F200.000
G1 X7.649 Y9.513 Z-2.375 F200.000
G3 X7.646 Y9.526 Z-2.375 I-0.010 J0.004 K0.000 F200.000
G1 X7.646 Y9.526 Z-2.500 F60.000
G3 X7.634 Y9.528 Z-2.500 I-0.008 J-0.008 K0.000 F200.000
G1 X6.080 Y9.528 Z-2.500 F200.000
G3 X6.066 Y9.513 Z-2.500 I-0.004 J-0.010 K0.000 F200.000
G1 X6.066 Y8.023 Z-2.500 F200.000
G3 X6.080 Y8.008 Z-2.500 I0.010 J-0.004 K0.000 F200.000
G1 X7.634 Y8.008 Z-2.500 F200.000
G3 X7.649 Y8.023 Z-2.500 I0.004 J0.010 K0.000 F200.000
G1 X7.649 Y9.513 Z-2.500 F200.000
G3 X7.646 Y9.526 Z-2.500 I-0.010 J0.004 K0.000 F200.000
G1 X7.646 Y9.526 Z-2.625 F60.000
G3 X7.634 Y9.528 Z-2.625 I-0.008 J-0.008 K0.000 F200.000
G1 X6.080 Y9.528 Z-2.625 F200.000
G3 X6.066 Y9.513 Z-2.625 I-0.004 J-0.010 K0.000 F200.000
G1 X6.066 Y8.023 Z-2.625 F200.000
G3 X6.080 Y8.008 Z-2.625 I0.010 J-0.004 K0.000 F200.000
G1 X7.634 Y8.008 Z-2.625 F200.000
G3 X7.649 Y8.023 Z-2.625 I0.004 J0.010 K0.000 F200.000
G1 X7.649 Y9.513 Z-2.625 F200.000
G3 X7.646 Y9.526 Z-2.625 I-0.010 J0.004 K0.000 F200.000
G1 X7.646 Y9.526 Z-2.750 F60.000
G3 X7.634 Y9.528 Z-2.750 I-0.008 J-0.008 K0.000 F200.000
G1 X6.080 Y9.528 Z-2.750 F200.000
G3 X6.066 Y9.513 Z-2.750 I-0.004 J-0.010 K0.000 F200.000
G1 X6.066 Y8.023 Z-2.750 F200.000
G3 X6.080 Y8.008 Z-2.750 I0.010 J-0.004 K0.000 F200.000
G1 X7.634 Y8.008 Z-2.750 F200.000
G3 X7.649 Y8.023 Z-2.750 I0.004 J0.010 K0.000 F200.000
G1 X7.649 Y9.513 Z-2.750 F200.000
G3 X7.646 Y9.526 Z-2.750 I-0.010 J0.004 K0.000 F200.000
G1 X7.646 Y9.526 Z-2.875 F60.000
G3 X7.634 Y9.528 Z-2.875 I-0.008 J-0.008 K0.000 F200.000
G1 X6.080 Y9.528 Z-2.875 F200.000
G3 X6.066 Y9.513 Z-2.875 I-0.004 J-0.010 K0.000 F200.000
G1 X6.066 Y8.023 Z-2.875 F200.000
G3 X6.080 Y8.008 Z-2.875 I0.010 J-0.004 K0.000 F200.000
G1 X7.634 Y8.008 Z-2.875 F200.000
G3 X7.649 Y8.023 Z-2.875 I0.004 J0.010 K0.000 F200.000
G1 X7.649 Y9.513 Z-2.875 F200.000
G3 X7.646 Y9.526 Z-2.875 I-0.010 J0.004 K0.000 F200.000
G1 X7.646 Y9.526 Z-3.000 F60.000
G3 X7.634 Y9.528 Z-3.000 I-0.008 J-0.008 K0.000 F200.000
G1 X6.080 Y9.528 Z-3.000 F200.000
G3 X6.066 Y9.513 Z-3.000 I-0.004 J-0.010 K0.000 F200.000
G1 X6.066 Y8.023 Z-3.000 F200.000
G3 X6.080 Y8.008 Z-3.000 I0.010 J-0.004 K0.000 F200.000
G1 X7.634 Y8.008 Z-3.000 F200.000
G3 X7.649 Y8.023 Z-3.000 I0.004 J0.010 K0.000 F200.000
G1 X7.649 Y9.513 Z-3.000 F200.000
G3 X7.646 Y9.526 Z-3.000 I-0.010 J0.004 K0.000 F200.000
G0 Z5.000
G0 Z5.000
G0 X7.646 Y9.526
G0 X13.701 Y9.513
G0 X13.701 Y9.513 Z3.000
G1 X13.701 Y9.513 Z-0.125 F60.000
G1 X13.701 Y8.023 Z-0.125 F200.000
G3 X13.715 Y8.008 Z-0.125 I0.010 J-0.004 K0.000 F200.000
G1 X15.269 Y8.008 Z-0.125 F200.000
G3 X15.284 Y8.023 Z-0.125 I0.004 J0.010 K0.000 F200.000
G1 X15.284 Y9.513 Z-0.125 F200.000
G3 X15.269 Y9.528 Z-0.125 I-0.010 J0.004 K0.000 F200.000
G1 X13.715 Y9.528 Z-0.125 F200.000
G3 X13.701 Y9.513 Z-0.125 I-0.004 J-0.010 K0.000 F200.000
G1 X13.701 Y9.513 Z-0.250 F60.000
G1 X13.701 Y8.023 Z-0.250 F200.000
G3 X13.715 Y8.008 Z-0.250 I0.010 J-0.004 K0.000 F200.000
G1 X15.269 Y8.008 Z-0.250 F200.000
G3 X15.284 Y8.023 Z-0.250 I0.004 J0.010 K0.000 F200.000
G1 X15.284 Y9.513 Z-0.250 F200.000
G3 X15.269 Y9.528 Z-0.250 I-0.010 J0.004 K0.000 F200.000
G1 X13.715 Y9.528 Z-0.250 F200.000
G3 X13.701 Y9.513 Z-0.250 I-0.004 J-0.010 K0.000 F200.000
G1 X13.701 Y9.513 Z-0.375 F60.000
G1 X13.701 Y8.023 Z-0.375 F200.000
G3 X13.715 Y8.008 Z-0.375 I0.010 J-0.004 K0.000 F200.000
G1 X15.269 Y8.008 Z-0.375 F200.000
G3 X15.284 Y8.023 Z-0.375 I0.004 J0.010 K0.000 F200.000
G1 X15.284 Y9.513 Z-0.375 F200.000
G3 X15.269 Y9.528 Z-0.375 I-0.010 J0.004 K0.000 F200.000
G1 X13.715 Y9.528 Z-0.375 F200.000
G3 X13.701 Y9.513 Z-0.375 I-0.004 J-0.010 K0.000 F200.000
G1 X13.701 Y9.513 Z-0.500 F60.000
G1 X13.701 Y8.023 Z-0.500 F200.000
G3 X13.715 Y8.008 Z-0.500 I0.010 J-0.004 K0.000 F200.000
G1 X15.269 Y8.008 Z-0.500 F200.000
G3 X15.284 Y8.023 Z-0.500 I0.004 J0.010 K0.000 F200.000
G1 X15.284 Y9.513 Z-0.500 F200.000
G3 X15.269 Y9.528 Z-0.500 I-0.010 J0.004 K0.000 F200.000
G1 X13.715 Y9.528 Z-0.500 F200.000
G3 X13.701 Y9.513 Z-0.500 I-0.004 J-0.010 K0.000 F200.000
G1 X13.701 Y9.513 Z-0.625 F60.000
G1 X13.701 Y8.023 Z-0.625 F200.000
G3 X13.715 Y8.008 Z-0.625 I0.010 J-0.004 K0.000 F200.000
G1 X15.269 Y8.008 Z-0.625 F200.000
G3 X15.284 Y8.023 Z-0.625 I0.004 J0.010 K0.000 F200.000
G1 X15.284 Y9.513 Z-0.625 F200.000
G3 X15.269 Y9.528 Z-0.625 I-0.010 J0.004 K0.000 F200.000
G1 X13.715 Y9.528 Z-0.625 F200.000
G3 X13.701 Y9.513 Z-0.625 I-0.004 J-0.010 K0.000 F200.000
G1 X13.701 Y9.513 Z-0.750 F60.000
G1 X13.701 Y8.023 Z-0.750 F200.000
G3 X13.715 Y8.008 Z-0.750 I0.010 J-0.004 K0.000 F200.000
G1 X15.269 Y8.008 Z-0.750 F200.000
G3 X15.284 Y8.023 Z-0.750 I0.004 J0.010 K0.000 F200.000
G1 X15.284 Y9.513 Z-0.750 F200.000
G3 X15.269 Y9.528 Z-0.750 I-0.010 J0.004 K0.000 F200.000
G1 X13.715 Y9.528 Z-0.750 F200.000
G3 X13.701 Y9.513 Z-0.750 I-0.004 J-0.010 K0.000 F200.000
G1 X13.701 Y9.513 Z-0.875 F60.000
G1 X13.701 Y8.023 Z-0.875 F200.000
G3 X13.715 Y8.008 Z-0.875 I0.010 J-0.004 K0.000 F200.000
G1 X15.269 Y8.008 Z-0.875 F200.000
G3 X15.284 Y8.023 Z-0.875 I0.004 J0.010 K0.000 F200.000
G1 X15.284 Y9.513 Z-0.875 F200.000
G3 X15.269 Y9.528 Z-0.875 I-0.010 J0.004 K0.000 F200.000
G1 X13.715 Y9.528 Z-0.875 F200.000
G3 X13.701 Y9.513 Z-0.875 I-0.004 J-0.010 K0.000 F200.000
G1 X13.701 Y9.513 Z-1.000 F60.000
G1 X13.701 Y8.023 Z-1.000 F200.000
G3 X13.715 Y8.008 Z-1.000 I0.010 J-0.004 K0.000 F200.000
G1 X15.269 Y8.008 Z-1.000 F200.000
G3 X15.284 Y8.023 Z-1.000 I0.004 J0.010 K0.000 F200.000
G1 X15.284 Y9.513 Z-1.000 F200.000
G3 X15.269 Y9.528 Z-1.000 I-0.010 J0.004 K0.000 F200.000
G1 X13.715 Y9.528 Z-1.000 F200.000
G3 X13.701 Y9.513 Z-1.000 I-0.004 J-0.010 K0.000 F200.000
G1 X13.701 Y9.513 Z-1.125 F60.000
G1 X13.701 Y8.023 Z-1.125 F200.000
G3 X13.715 Y8.008 Z-1.125 I0.010 J-0.004 K0.000 F200.000
G1 X15.269 Y8.008 Z-1.125 F200.000
G3 X15.284 Y8.023 Z-1.125 I0.004 J0.010 K0.000 F200.000
G1 X15.284 Y9.513 Z-1.125 F200.000
G3 X15.269 Y9.528 Z-1.125 I-0.010 J0.004 K0.000 F200.000
G1 X13.715 Y9.528 Z-1.125 F200.000
G3 X13.701 Y9.513 Z-1.125 I-0.004 J-0.010 K0.000 F200.000
G1 X13.701 Y9.513 Z-1.250 F60.000
G1 X13.701 Y8.023 Z-1.250 F200.000
G3 X13.715 Y8.008 Z-1.250 I0.010 J-0.004 K0.000 F200.000
G1 X15.269 Y8.008 Z-1.250 F200.000
G3 X15.284 Y8.023 Z-1.250 I0.004 J0.010 K0.000 F200.000
G1 X15.284 Y9.513 Z-1.250 F200.000
G3 X15.269 Y9.528 Z-1.250 I-0.010 J0.004 K0.000 F200.000
G1 X13.715 Y9.528 Z-1.250 F200.000
G3 X13.701 Y9.513 Z-1.250 I-0.004 J-0.010 K0.000 F200.000
G1 X13.701 Y9.513 Z-1.375 F60.000
G1 X13.701 Y8.023 Z-1.375 F200.000
G3 X13.715 Y8.008 Z-1.375 I0.010 J-0.004 K0.000 F200.000
G1 X15.269 Y8.008 Z-1.375 F200.000
G3 X15.284 Y8.023 Z-1.375 I0.004 J0.010 K0.000 F200.000
G1 X15.284 Y9.513 Z-1.375 F200.000
G3 X15.269 Y9.528 Z-1.375 I-0.010 J0.004 K0.000 F200.000
G1 X13.715 Y9.528 Z-1.375 F200.000
G3 X13.701 Y9.513 Z-1.375 I-0.004 J-0.010 K0.000 F200.000
G1 X13.701 Y9.513 Z-1.500 F60.000
G1 X13.701 Y8.023 Z-1.500 F200.000
G3 X13.715 Y8.008 Z-1.500 I0.010 J-0.004 K0.000 F200.000
G1 X15.269 Y8.008 Z-1.500 F200.000
G3 X15.284 Y8.023 Z-1.500 I0.004 J0.010 K0.000 F200.000
G1 X15.284 Y9.513 Z-1.500 F200.000
G3 X15.269 Y9.528 Z-1.500 I-0.010 J0.004 K0.000 F200.000
G1 X13.715 Y9.528 Z-1.500 F200.000
G3 X13.701 Y9.513 Z-1.500 I-0.004 J-0.010 K0.000 F200.000
G1 X13.701 Y9.513 Z-1.625 F60.000
G1 X13.701 Y8.023 Z-1.625 F200.000
G3 X13.715 Y8.008 Z-1.625 I0.010 J-0.004 K0.000 F200.000
G1 X15.269 Y8.008 Z-1.625 F200.000
G3 X15.284 Y8.023 Z-1.625 I0.004 J0.010 K0.000 F200.000
G1 X15.284 Y9.513 Z-1.625 F200.000
G3 X15.269 Y9.528 Z-1.625 I-0.010 J0.004 K0.000 F200.000
G1 X13.715 Y9.528 Z-1.625 F200.000
G3 X13.701 Y9.513 Z-1.625 I-0.004 J-0.010 K0.000 F200.000
G1 X13.701 Y9.513 Z-1.750 F60.000
G1 X13.701 Y8.023 Z-1.750 F200.000
G3 X13.715 Y8.008 Z-1.750 I0.010 J-0.004 K0.000 F200.000
G1 X15.269 Y8.008 Z-1.750 F200.000
G3 X15.284 Y8.023 Z-1.750 I0.004 J0.010 K0.000 F200.000
G1 X15.284 Y9.513 Z-1.750 F200.000
G3 X15.269 Y9.528 Z-1.750 I-0.010 J0.004 K0.000 F200.000
G1 X13.715 Y9.528 Z-1.750 F200.000
G3 X13.701 Y9.513 Z-1.750 I-0.004 J-0.010 K0.000 F200.000
G1 X13.701 Y9.513 Z-1.875 F60.000
G1 X13.701 Y8.023 Z-1.875 F200.000
G3 X13.715 Y8.008 Z-1.875 I0.010 J-0.004 K0.000 F200.000
G1 X15.269 Y8.008 Z-1.875 F200.000
G3 X15.284 Y8.023 Z-1.875 I0.004 J0.010 K0.000 F200.000
G1 X15.284 Y9.513 Z-1.875 F200.000
G3 X15.269 Y9.528 Z-1.875 I-0.010 J0.004 K0.000 F200.000
G1 X13.715 Y9.528 Z-1.875 F200.000
G3 X13.701 Y9.513 Z-1.875 I-0.004 J-0.010 K0.000 F200.000
G1 X13.701 Y9.513 Z-2.000 F60.000
G1 X13.701 Y8.023 Z-2.000 F200.000
G3 X13.715 Y8.008 Z-2.000 I0.010 J-0.004 K0.000 F200.000
G1 X15.269 Y8.008 Z-2.000 F200.000
G3 X15.284 Y8.023 Z-2.000 I0.004 J0.010 K0.000 F200.000
G1 X15.284 Y9.513 Z-2.000 F200.000
G3 X15.269 Y9.528 Z-2.000 I-0.010 J0.004 K0.000 F200.000
G1 X13.715 Y9.528 Z-2.000 F200.000
G3 X13.701 Y9.513 Z-2.000 I-0.004 J-0.010 K0.000 F200.000
G1 X13.701 Y9.513 Z-2.125 F60.000
G1 X13.701 Y8.023 Z-2.125 F200.000
G3 X13.715 Y8.008 Z-2.125 I0.010 J-0.004 K0.000 F200.000
G1 X15.269 Y8.008 Z-2.125 F200.000
G3 X15.284 Y8.023 Z-2.125 I0.004 J0.010 K0.000 F200.000
G1 X15.284 Y9.513 Z-2.125 F200.000
G3 X15.269 Y9.528 Z-2.125 I-0.010 J0.004 K0.000 F200.000
G1 X13.715 Y9.528 Z-2.125 F200.000
G3 X13.701 Y9.513 Z-2.125 I-0.004 J-0.010 K0.000 F200.000
G1 X13.701 Y9.513 Z-2.250 F60.000
G1 X13.701 Y8.023 Z-2.250 F200.000
G3 X13.715 Y8.008 Z-2.250 I0.010 J-0.004 K0.000 F200.000
G1 X15.269 Y8.008 Z-2.250 F200.000
G3 X15.284 Y8.023 Z-2.250 I0.004 J0.010 K0.000 F200.000
G1 X15.284 Y9.513 Z-2.250 F200.000
G3 X15.269 Y9.528 Z-2.250 I-0.010 J0.004 K0.000 F200.000
G1 X13.715 Y9.528 Z-2.250 F200.000
G3 X13.701 Y9.513 Z-2.250 I-0.004 J-0.010 K0.000 F200.000
G1 X13.701 Y9.513 Z-2.375 F60.000
G1 X13.701 Y8.023 Z-2.375 F200.000
G3 X13.715 Y8.008 Z-2.375 I0.010 J-0.004 K0.000 F200.000
G1 X15.269 Y8.008 Z-2.375 F200.000
G3 X15.284 Y8.023 Z-2.375 I0.004 J0.010 K0.000 F200.000
G1 X15.284 Y9.513 Z-2.375 F200.000
G3 X15.269 Y9.528 Z-2.375 I-0.010 J0.004 K0.000 F200.000
G1 X13.715 Y9.528 Z-2.375 F200.000
G3 X13.701 Y9.513 Z-2.375 I-0.004 J-0.010 K0.000 F200.000
G1 X13.701 Y9.513 Z-2.500 F60.000
G1 X13.701 Y8.023 Z-2.500 F200.000
G3 X13.715 Y8.008 Z-2.500 I0.010 J-0.004 K0.000 F200.000
G1 X15.269 Y8.008 Z-2.500 F200.000
G3 X15.284 Y8.023 Z-2.500 I0.004 J0.010 K0.000 F200.000
G1 X15.284 Y9.513 Z-2.500 F200.000
G3 X15.269 Y9.528 Z-2.500 I-0.010 J0.004 K0.000 F200.000
G1 X13.715 Y9.528 Z-2.500 F200.000
G3 X13.701 Y9.513 Z-2.500 I-0.004 J-0.010 K0.000 F200.000
G1 X13.701 Y9.513 Z-2.625 F60.000
G1 X13.701 Y8.023 Z-2.625 F200.000
G3 X13.715 Y8.008 Z-2.625 I0.010 J-0.004 K0.000 F200.000
G1 X15.269 Y8.008 Z-2.625 F200.000
G3 X15.284 Y8.023 Z-2.625 I0.004 J0.010 K0.000 F200.000
G1 X15.284 Y9.513 Z-2.625 F200.000
G3 X15.269 Y9.528 Z-2.625 I-0.010 J0.004 K0.000 F200.000
G1 X13.715 Y9.528 Z-2.625 F200.000
G3 X13.701 Y9.513 Z-2.625 I-0.004 J-0.010 K0.000 F200.000
G1 X13.701 Y9.513 Z-2.750 F60.000
G1 X13.701 Y8.023 Z-2.750 F200.000
G3 X13.715 Y8.008 Z-2.750 I0.010 J-0.004 K0.000 F200.000
G1 X15.269 Y8.008 Z-2.750 F200.000
G3 X15.284 Y8.023 Z-2.750 I0.004 J0.010 K0.000 F200.000
G1 X15.284 Y9.513 Z-2.750 F200.000
G3 X15.269 Y9.528 Z-2.750 I-0.010 J0.004 K0.000 F200.000
G1 X13.715 Y9.528 Z-2.750 F200.000
G3 X13.701 Y9.513 Z-2.750 I-0.004 J-0.010 K0.000 F200.000
G1 X13.701 Y9.513 Z-2.875 F60.000
G1 X13.701 Y8.023 Z-2.875 F200.000
G3 X13.715 Y8.008 Z-2.875 I0.010 J-0.004 K0.000 F200.000
G1 X15.269 Y8.008 Z-2.875 F200.000
G3 X15.284 Y8.023 Z-2.875 I0.004 J0.010 K0.000 F200.000
G1 X15.284 Y9.513 Z-2.875 F200.000
G3 X15.269 Y9.528 Z-2.875 I-0.010 J0.004 K0.000 F200.000
G1 X13.715 Y9.528 Z-2.875 F200.000
G3 X13.701 Y9.513 Z-2.875 I-0.004 J-0.010 K0.000 F200.000
G1 X13.701 Y9.513 Z-3.000 F60.000
G1 X13.701 Y8.023 Z-3.000 F200.000
G3 X13.715 Y8.008 Z-3.000 I0.010 J-0.004 K0.000 F200.000
G1 X15.269 Y8.008 Z-3.000 F200.000
G3 X15.284 Y8.023 Z-3.000 I0.004 J0.010 K0.000 F200.000
G1 X15.284 Y9.513 Z-3.000 F200.000
G3 X15.269 Y9.528 Z-3.000 I-0.010 J0.004 K0.000 F200.000
G1 X13.715 Y9.528 Z-3.000 F200.000
G3 X13.701 Y9.513 Z-3.000 I-0.004 J-0.010 K0.000 F200.000
G0 Z5.000
G0 Z5.000
G0 X13.701 Y9.513
G0 X13.178 Y11.904
G0 X13.178 Y11.904 Z3.000
G1 X13.178 Y11.904 Z-0.125 F60.000
G3 X13.202 Y11.945 Z-0.125 I-0.007 J0.032 K0.000 F200.000
G1 X13.202 Y13.409 Z-0.125 F200.000
G2 X13.349 Y13.781 Z-0.125 I0.552 J-0.003 K0.000 F200.000
G1 X15.292 Y15.690 Z-0.125 F200.000
G2 X15.667 Y15.852 Z-0.125 I0.400 J-0.412 K0.000 F200.000
G1 X17.060 Y15.854 Z-0.125 F200.000
G2 X17.531 Y15.427 Z-0.125 I-0.005 J-0.478 K0.000 F200.000
G1 X17.536 Y13.913 Z-0.125 F200.000
G2 X17.415 Y13.571 Z-0.125 I-0.550 J0.002 K0.000 F200.000
G1 X15.958 Y11.905 Z-0.125 F200.000
G1 X17.068 Y11.905 Z-0.125 F200.000
G2 X17.531 Y11.486 Z-0.125 I-0.004 J-0.470 K0.000 F200.000
G1 X17.536 Y10.036 Z-0.125 F200.000
G3 X17.545 Y10.026 Z-0.125 I0.007 J-0.003 K0.000 F200.000
G1 X19.129 Y10.026 Z-0.125 F200.000
G2 X19.639 Y9.560 Z-0.125 I-0.005 J-0.518 K0.000 F200.000
G1 X19.644 Y8.052 Z-0.125 F200.000
G3 X19.663 Y8.033 Z-0.125 I0.014 J-0.006 K0.000 F200.000
G1 X21.108 Y8.033 Z-0.125 F200.000
G2 X21.595 Y7.589 Z-0.125 I-0.005 J-0.494 K0.000 F200.000
G1 X21.599 Y2.193 Z-0.125 F200.000
G2 X21.122 Y1.672 Z-0.125 I-0.529 J0.005 K0.000 F200.000
G1 X19.632 Y1.667 Z-0.125 F200.000
G2 X19.149 Y2.106 Z-0.125 I0.005 J0.490 K0.000 F200.000
G1 X19.144 Y5.477 Z-0.125 F200.000
G3 X19.082 Y5.539 Z-0.125 I-0.052 J0.010 K0.000 F200.000
G1 X17.634 Y5.539 Z-0.125 F200.000
G3 X17.612 Y5.518 Z-0.125 I-0.006 J-0.015 K0.000 F200.000
G1 X17.612 Y2.129 Z-0.125 F200.000
G2 X17.403 Y1.608 Z-0.125 I-0.760 J0.003 K0.000 F200.000
G1 X15.719 Y-0.045 Z-0.125 F200.000
G2 X15.240 Y-0.249 Z-0.125 I-0.504 J0.518 K0.000 F200.000
G1 X11.998 Y-0.250 Z-0.125 F200.000
G2 X11.481 Y0.222 Z-0.125 I0.005 J0.524 K0.000 F200.000
G1 X11.477 Y1.684 Z-0.125 F200.000
G2 X11.911 Y2.162 Z-0.125 I0.485 J-0.005 K0.000 F200.000
G1 X15.259 Y2.167 Z-0.125 F200.000
G3 X15.310 Y2.218 Z-0.125 I0.010 J0.041 K0.000 F200.000
G1 X15.310 Y3.610 Z-0.125 F200.000
G3 X15.298 Y3.622 Z-0.125 I-0.009 J0.004 K0.000 F200.000
G1 X6.051 Y3.622 Z-0.125 F200.000
G3 X6.039 Y3.610 Z-0.125 I-0.004 J-0.009 K0.000 F200.000
G1 X6.039 Y2.218 Z-0.125 F200.000
G3 X6.090 Y2.167 Z-0.125 I0.041 J-0.010 K0.000 F200.000
G1 X9.390 Y2.167 Z-0.125 F200.000
G2 X9.866 Y1.735 Z-0.125 I-0.005 J-0.484 K0.000 F200.000
G1 X9.871 Y0.271 Z-0.125 F200.000
G2 X9.401 Y-0.243 Z-0.125 I-0.522 J0.005 K0.000 F200.000
G1 X6.133 Y-0.248 Z-0.125 F200.000
G2 X5.649 Y-0.059 Z-0.125 I0.003 J0.723 K0.000 F200.000
G1 X3.964 Y1.590 Z-0.125 F200.000
G2 X3.738 Y2.104 Z-0.125 I0.534 J0.541 K0.000 F200.000
G1 X3.737 Y5.518 Z-0.125 F200.000
G3 X3.716 Y5.539 Z-0.125 I-0.015 J0.006 K0.000 F200.000
G1 X2.266 Y5.539 Z-0.125 F200.000
G3 X2.204 Y5.477 Z-0.125 I-0.010 J-0.052 K0.000 F200.000
G1 X2.204 Y2.154 Z-0.125 F200.000
G2 X1.765 Y1.672 Z-0.125 I-0.490 J0.005 K0.000 F200.000
G1 X0.277 Y1.667 Z-0.125 F200.000
G2 X-0.245 Y2.145 Z-0.125 I0.005 J0.529 K0.000 F200.000
G1 X-0.250 Y7.541 Z-0.125 F200.000
G2 X0.193 Y8.028 Z-0.125 I0.494 J-0.005 K0.000 F200.000
G1 X1.684 Y8.033 Z-0.125 F200.000
G3 X1.704 Y8.052 Z-0.125 I0.006 J0.014 K0.000 F200.000
G1 X1.704 Y9.510 Z-0.125 F200.000
G2 X2.171 Y10.021 Z-0.125 I0.519 J-0.005 K0.000 F200.000
G1 X3.804 Y10.026 Z-0.125 F200.000
G3 X3.814 Y10.036 Z-0.125 I0.003 J0.007 K0.000 F200.000
G1 X3.814 Y11.437 Z-0.125 F200.000
G2 X4.232 Y11.900 Z-0.125 I0.470 J-0.004 K0.000 F200.000
G1 X5.392 Y11.904 Z-0.125 F200.000
G1 X3.949 Y13.554 Z-0.125 F200.000
G2 X3.815 Y13.890 Z-0.125 I0.415 J0.360 K0.000 F200.000
G1 X3.814 Y15.378 Z-0.125 F200.000
G2 X4.241 Y15.849 Z-0.125 I0.478 J-0.005 K0.000 F200.000
G1 X5.658 Y15.854 Z-0.125 F200.000
G2 X6.039 Y15.707 Z-0.125 I-0.003 J-0.574 K0.000 F200.000
G1 X7.984 Y13.799 Z-0.125 F200.000
G2 X8.146 Y13.433 Z-0.125 I-0.389 J-0.392 K0.000 F200.000
G1 X8.148 Y11.945 Z-0.125 F200.000
G3 X8.188 Y11.905 Z-0.125 I0.031 J-0.009 K0.000 F200.000
G1 X13.162 Y11.905 Z-0.125 F200.000
G3 X13.178 Y11.904 Z-0.125 I0.009 J0.031 K0.000 F200.000
G1 X13.178 Y11.904 Z-0.250 F60.000
G3 X13.202 Y11.945 Z-0.250 I-0.007 J0.032 K0.000 F200.000
G1 X13.202 Y13.409 Z-0.250 F200.000
G2 X13.349 Y13.781 Z-0.250 I0.552 J-0.003 K0.000 F200.000
G1 X15.292 Y15.690 Z-0.250 F200.000
G2 X15.667 Y15.852 Z-0.250 I0.400 J-0.412 K0.000 F200.000
G1 X17.060 Y15.854 Z-0.250 F200.000
G2 X17.531 Y15.427 Z-0.250 I-0.005 J-0.478 K0.000 F200.000
G1 X17.536 Y13.913 Z-0.250 F200.000
G2 X17.415 Y13.571 Z-0.250 I-0.550 J0.002 K0.000 F200.000
G1 X15.958 Y11.905 Z-0.250 F200.000
G1 X17.068 Y11.905 Z-0.250 F200.000
G2 X17.531 Y11.486 Z-0.250 I-0.004 J-0.470 K0.000 F200.000
G1 X17.536 Y10.036 Z-0.250 F200.000
G3 X17.545 Y10.026 Z-0.250 I0.007 J-0.003 K0.000 F200.000
G1 X19.129 Y10.026 Z-0.250 F200.000
G2 X19.639 Y9.560 Z-0.250 I-0.005 J-0.518 K0.000 F200.000
G1 X19.644 Y8.052 Z-0.250 F200.000
G3 X19.663 Y8.033 Z-0.250 I0.014 J-0.006 K0.000 F200.000
G1 X21.108 Y8.033 Z-0.250 F200.000
G2 X21.595 Y7.589 Z-0.250 I-0.005 J-0.494 K0.000 F200.000
G1 X21.599 Y2.193 Z-0.250 F200.000
G2 X21.122 Y1.672 Z-0.250 I-0.529 J0.005 K0.000 F200.000
G1 X19.632 Y1.667 Z-0.250 F200.000
G2 X19.149 Y2.106 Z-0.250 I0.005 J0.490 K0.000 F200.000
G1 X19.144 Y5.477 Z-0.250 F200.000
G3 X19.082 Y5.539 Z-0.250 I-0.052 J0.010 K0.000 F200.000
G1 X17.634 Y5.539 Z-0.250 F200.000
G3 X17.612 Y5.518 Z-0.250 I-0.006 J-0.015 K0.000 F200.000
G1 X17.612 Y2.129 Z-0.250 F200.000
G2 X17.403 Y1.608 Z-0.250 I-0.760 J0.003 K0.000 F200.000
G1 X15.719 Y-0.045 Z-0.250 F200.000
G2 X15.240 Y-0.249 Z-0.250 I-0.504 J0.518 K0.000 F200.000
G1 X11.998 Y-0.250 Z-0.250 F200.000
G2 X11.481 Y0.222 Z-0.250 I0.005 J0.524 K0.000 F200.000
G1 X11.477 Y1.684 Z-0.250 F200.000
G2 X11.911 Y2.162 Z-0.250 I0.485 J-0.005 K0.000 F200.000
G1 X15.259 Y2.167 Z-0.250 F200.000
G3 X15.310 Y2.218 Z-0.250 I0.010 J0.041 K0.000 F200.000
G1 X15.310 Y3.610 Z-0.250 F200.000
G3 X15.298 Y3.622 Z-0.250 I-0.009 J0.004 K0.000 F200.000
G1 X6.051 Y3.622 Z-0.250 F200.000
G3 X6.039 Y3.610 Z-0.250 I-0.004 J-0.009 K0.000 F200.000
G1 X6.039 Y2.218 Z-0.250 F200.000
G3 X6.090 Y2.167 Z-0.250 I0.041 J-0.010 K0.000 F200.000
G1 X9.390 Y2.167 Z-0.250 F200.000
G2 X9.866 Y1.735 Z-0.250 I-0.005 J-0.484 K0.000 F200.000
G1 X9.871 Y0.271 Z-0.250 F200.000
G2 X9.401 Y-0.243 Z-0.250 I-0.522 J0.005 K0.000 F200.000
G1 X6.133 Y-0.248 Z-0.250 F200.000
G2 X5.649 Y-0.059 Z-0.250 I0.003 J0.723 K0.000 F200.000
G1 X3.964 Y1.590 Z-0.250 F200.000
G2 X3.738 Y2.104 Z-0.250 I0.534 J0.541 K0.000 F200.000
G1 X3.737 Y5.518 Z-0.250 F200.000
G3 X3.716 Y5.539 Z-0.250 I-0.015 J0.006 K0.000 F200.000
G1 X2.266 Y5.539 Z-0.250 F200.000
G3 X2.204 Y5.477 Z-0.250 I-0.010 J-0.052 K0.000 F200.000
G1 X2.204 Y2.154 Z-0.250 F200.000
G2 X1.765 Y1.672 Z-0.250 I-0.490 J0.005 K0.000 F200.000
G1 X0.277 Y1.667 Z-0.250 F200.000
G2 X-0.245 Y2.145 Z-0.250 I0.005 J0.529 K0.000 F200.000
G1 X-0.250 Y7.541 Z-0.250 F200.000
G2 X0.193 Y8.028 Z-0.250 I0.494 J-0.005 K0.000 F200.000
G1 X1.684 Y8.033 Z-0.250 F200.000
G3 X1.704 Y8.052 Z-0.250 I0.006 J0.014 K0.000 F200.000
G1 X1.704 Y9.510 Z-0.250 F200.000
G2 X2.171 Y10.021 Z-0.250 I0.519 J-0.005 K0.000 F200.000
G1 X3.804 Y10.026 Z-0.250 F200.000
G3 X3.814 Y10.036 Z-0.250 I0.003 J0.007 K0.000 F200.000
G1 X3.814 Y11.437 Z-0.250 F200.000
G2 X4.232 Y11.900 Z-0.250 I0.470 J-0.004 K0.000 F200.000
G1 X5.392 Y11.904 Z-0.250 F200.000
G1 X3.949 Y13.554 Z-0.250 F200.000
G2 X3.815 Y13.890 Z-0.250 I0.415 J0.360 K0.000 F200.000
G1 X3.814 Y15.378 Z-0.250 F200.000
G2 X4.241 Y15.849 Z-0.250 I0.478 J-0.005 K0.000 F200.000
G1 X5.658 Y15.854 Z-0.250 F200.000
G2 X6.039 Y15.707 Z-0.250 I-0.003 J-0.574 K0.000 F200.000
G1 X7.984 Y13.799 Z-0.250 F200.000
G2 X8.146 Y13.433 Z-0.250 I-0.389 J-0.392 K0.000 F200.000
G1 X8.148 Y11.945 Z-0.250 F200.000
G3 X8.188 Y11.905 Z-0.250 I0.031 J-0.009 K0.000 F200.000
G1 X13.162 Y11.905 Z-0.250 F200.000
G3 X13.178 Y11.904 Z-0.250 I0.009 J0.031 K0.000 F200.000
G1 X13.178 Y11.904 Z-0.375 F60.000
G3 X13.202 Y11.945 Z-0.375 I-0.007 J0.032 K0.000 F200.000
G1 X13.202 Y13.409 Z-0.375 F200.000
G2 X13.349 Y13.781 Z-0.375 I0.552 J-0.003 K0.000 F200.000
G1 X15.292 Y15.690 Z-0.375 F200.000
G2 X15.667 Y15.852 Z-0.375 I0.400 J-0.412 K0.000 F200.000
G1 X17.060 Y15.854 Z-0.375 F200.000
G2 X17.531 Y15.427 Z-0.375 I-0.005 J-0.478 K0.000 F200.000
G1 X17.536 Y13.913 Z-0.375 F200.000
G2 X17.415 Y13.571 Z-0.375 I-0.550 J0.002 K0.000 F200.000
G1 X15.958 Y11.905 Z-0.375 F200.000
G1 X17.068 Y11.905 Z-0.375 F200.000
G2 X17.531 Y11.486 Z-0.375 I-0.004 J-0.470 K0.000 F200.000
G1 X17.536 Y10.036 Z-0.375 F200.000
G3 X17.545 Y10.026 Z-0.375 I0.007 J-0.003 K0.000 F200.000
G1 X19.129 Y10.026 Z-0.375 F200.000
G2 X19.639 Y9.560 Z-0.375 I-0.005 J-0.518 K0.000 F200.000
G1 X19.644 Y8.052 Z-0.375 F200.000
G3 X19.663 Y8.033 Z-0.375 I0.014 J-0.006 K0.000 F200.000
G1 X21.108 Y8.033 Z-0.375 F200.000
G2 X21.595 Y7.589 Z-0.375 I-0.005 J-0.494 K0.000 F200.000
G1 X21.599 Y2.193 Z-0.375 F200.000
G2 X21.122 Y1.672 Z-0.375 I-0.529 J0.005 K0.000 F200.000
G1 X19.632 Y1.667 Z-0.375 F200.000
G2 X19.149 Y2.106 Z-0.375 I0.005 J0.490 K0.000 F200.000
G1 X19.144 Y5.477 Z-0.375 F200.000
G3 X19.082 Y5.539 Z-0.375 I-0.052 J0.010 K0.000 F200.000
G1 X17.634 Y5.539 Z-0.375 F200.000
G3 X17.612 Y5.518 Z-0.375 I-0.006 J-0.015 K0.000 F200.000
G1 X17.612 Y2.129 Z-0.375 F200.000
G2 X17.403 Y1.608 Z-0.375 I-0.760 J0.003 K0.000 F200.000
G1 X15.719 Y-0.045 Z-0.375 F200.000
G2 X15.240 Y-0.249 Z-0.375 I-0.504 J0.518 K0.000 F200.000
G1 X11.998 Y-0.250 Z-0.375 F200.000
G2 X11.481 Y0.222 Z-0.375 I0.005 J0.524 K0.000 F200.000
G1 X11.477 Y1.684 Z-0.375 F200.000
G2 X11.911 Y2.162 Z-0.375 I0.485 J-0.005 K0.000 F200.000
G1 X15.259 Y2.167 Z-0.375 F200.000
G3 X15.310 Y2.218 Z-0.375 I0.010 J0.041 K0.000 F200.000
G1 X15.310 Y3.610 Z-0.375 F200.000
G3 X15.298 Y3.622 Z-0.375 I-0.009 J0.004 K0.000 F200.000
G1 X6.051 Y3.622 Z-0.375 F200.000
G3 X6.039 Y3.610 Z-0.375 I-0.004 J-0.009 K0.000 F200.000
G1 X6.039 Y2.218 Z-0.375 F200.000
G3 X6.090 Y2.167 Z-0.375 I0.041 J-0.010 K0.000 F200.000
G1 X9.390 Y2.167 Z-0.375 F200.000
G2 X9.866 Y1.735 Z-0.375 I-0.005 J-0.484 K0.000 F200.000
G1 X9.871 Y0.271 Z-0.375 F200.000
G2 X9.401 Y-0.243 Z-0.375 I-0.522 J0.005 K0.000 F200.000
G1 X6.133 Y-0.248 Z-0.375 F200.000
G2 X5.649 Y-0.059 Z-0.375 I0.003 J0.723 K0.000 F200.000
G1 X3.964 Y1.590 Z-0.375 F200.000
G2 X3.738 Y2.104 Z-0.375 I0.534 J0.541 K0.000 F200.000
G1 X3.737 Y5.518 Z-0.375 F200.000
G3 X3.716 Y5.539 Z-0.375 I-0.015 J0.006 K0.000 F200.000
G1 X2.266 Y5.539 Z-0.375 F200.000
G3 X2.204 Y5.477 Z-0.375 I-0.010 J-0.052 K0.000 F200.000
G1 X2.204 Y2.154 Z-0.375 F200.000
G2 X1.765 Y1.672 Z-0.375 I-0.490 J0.005 K0.000 F200.000
G1 X0.277 Y1.667 Z-0.375 F200.000
G2 X-0.245 Y2.145 Z-0.375 I0.005 J0.529 K0.000 F200.000
G1 X-0.250 Y7.541 Z-0.375 F200.000
G2 X0.193 Y8.028 Z-0.375 I0.494 J-0.005 K0.000 F200.000
G1 X1.684 Y8.033 Z-0.375 F200.000
G3 X1.704 Y8.052 Z-0.375 I0.006 J0.014 K0.000 F200.000
G1 X1.704 Y9.510 Z-0.375 F200.000
G2 X2.171 Y10.021 Z-0.375 I0.519 J-0.005 K0.000 F200.000
G1 X3.804 Y10.026 Z-0.375 F200.000
G3 X3.814 Y10.036 Z-0.375 I0.003 J0.007 K0.000 F200.000
G1 X3.814 Y11.437 Z-0.375 F200.000
G2 X4.232 Y11.900 Z-0.375 I0.470 J-0.004 K0.000 F200.000
G1 X5.392 Y11.904 Z-0.375 F200.000
G1 X3.949 Y13.554 Z-0.375 F200.000
G2 X3.815 Y13.890 Z-0.375 I0.415 J0.360 K0.000 F200.000
G1 X3.814 Y15.378 Z-0.375 F200.000
G2 X4.241 Y15.849 Z-0.375 I0.478 J-0.005 K0.000 F200.000
G1 X5.658 Y15.854 Z-0.375 F200.000
G2 X6.039 Y15.707 Z-0.375 I-0.003 J-0.574 K0.000 F200.000
G1 X7.984 Y13.799 Z-0.375 F200.000
G2 X8.146 Y13.433 Z-0.375 I-0.389 J-0.392 K0.000 F200.000
G1 X8.148 Y11.945 Z-0.375 F200.000
G3 X8.188 Y11.905 Z-0.375 I0.031 J-0.009 K0.000 F200.000
G1 X13.162 Y11.905 Z-0.375 F200.000
G3 X13.178 Y11.904 Z-0.375 I0.009 J0.031 K0.000 F200.000
G1 X13.178 Y11.904 Z-0.500 F60.000
G3 X13.202 Y11.945 Z-0.500 I-0.007 J0.032 K0.000 F200.000
G1 X13.202 Y13.409 Z-0.500 F200.000
G2 X13.349 Y13.781 Z-0.500 I0.552 J-0.003 K0.000 F200.000
G1 X15.292 Y15.690 Z-0.500 F200.000
G2 X15.667 Y15.852 Z-0.500 I0.400 J-0.412 K0.000 F200.000
G1 X17.060 Y15.854 Z-0.500 F200.000
G2 X17.531 Y15.427 Z-0.500 I-0.005 J-0.478 K0.000 F200.000
G1 X17.536 Y13.913 Z-0.500 F200.000
G2 X17.415 Y13.571 Z-0.500 I-0.550 J0.002 K0.000 F200.000
G1 X15.958 Y11.905 Z-0.500 F200.000
G1 X17.068 Y11.905 Z-0.500 F200.000
G2 X17.531 Y11.486 Z-0.500 I-0.004 J-0.470 K0.000 F200.000
G1 X17.536 Y10.036 Z-0.500 F200.000
G3 X17.545 Y10.026 Z-0.500 I0.007 J-0.003 K0.000 F200.000
G1 X19.129 Y10.026 Z-0.500 F200.000
G2 X19.639 Y9.560 Z-0.500 I-0.005 J-0.518 K0.000 F200.000
G1 X19.644 Y8.052 Z-0.500 F200.000
G3 X19.663 Y8.033 Z-0.500 I0.014 J-0.006 K0.000 F200.000
G1 X21.108 Y8.033 Z-0.500 F200.000
G2 X21.595 Y7.589 Z-0.500 I-0.005 J-0.494 K0.000 F200.000
G1 X21.599 Y2.193 Z-0.500 F200.000
G2 X21.122 Y1.672 Z-0.500 I-0.529 J0.005 K0.000 F200.000
G1 X19.632 Y1.667 Z-0.500 F200.000
G2 X19.149 Y2.106 Z-0.500 I0.005 J0.490 K0.000 F200.000
G1 X19.144 Y5.477 Z-0.500 F200.000
G3 X19.082 Y5.539 Z-0.500 I-0.052 J0.010 K0.000 F200.000
G1 X17.634 Y5.539 Z-0.500 F200.000
G3 X17.612 Y5.518 Z-0.500 I-0.006 J-0.015 K0.000 F200.000
G1 X17.612 Y2.129 Z-0.500 F200.000
G2 X17.403 Y1.608 Z-0.500 I-0.760 J0.003 K0.000 F200.000
G1 X15.719 Y-0.045 Z-0.500 F200.000
G2 X15.240 Y-0.249 Z-0.500 I-0.504 J0.518 K0.000 F200.000
G1 X11.998 Y-0.250 Z-0.500 F200.000
G2 X11.481 Y0.222 Z-0.500 I0.005 J0.524 K0.000 F200.000
G1 X11.477 Y1.684 Z-0.500 F200.000
G2 X11.911 Y2.162 Z-0.500 I0.485 J-0.005 K0.000 F200.000
G1 X15.259 Y2.167 Z-0.500 F200.000
G3 X15.310 Y2.218 Z-0.500 I0.010 J0.041 K0.000 F200.000
G1 X15.310 Y3.610 Z-0.500 F200.000
G3 X15.298 Y3.622 Z-0.500 I-0.009 J0.004 K0.000 F200.000
G1 X6.051 Y3.622 Z-0.500 F200.000
G3 X6.039 Y3.610 Z-0.500 I-0.004 J-0.009 K0.000 F200.000
G1 X6.039 Y2.218 Z-0.500 F200.000
G3 X6.090 Y2.167 Z-0.500 I0.041 J-0.010 K0.000 F200.000
G1 X9.390 Y2.167 Z-0.500 F200.000
G2 X9.866 Y1.735 Z-0.500 I-0.005 J-0.484 K0.000 F200.000
G1 X9.871 Y0.271 Z-0.500 F200.000
G2 X9.401 Y-0.243 Z-0.500 I-0.522 J0.005 K0.000 F200.000
G1 X6.133 Y-0.248 Z-0.500 F200.000
G2 X5.649 Y-0.059 Z-0.500 I0.003 J0.723 K0.000 F200.000
G1 X3.964 Y1.590 Z-0.500 F200.000
G2 X3.738 Y2.104 Z-0.500 I0.534 J0.541 K0.000 F200.000
G1 X3.737 Y5.518 Z-0.500 F200.000
G3 X3.716 Y5.539 Z-0.500 I-0.015 J0.006 K0.000 F200.000
G1 X2.266 Y5.539 Z-0.500 F200.000
G3 X2.204 Y5.477 Z-0.500 I-0.010 J-0.052 K0.000 F200.000
G1 X2.204 Y2.154 Z-0.500 F200.000
G2 X1.765 Y1.672 Z-0.500 I-0.490 J0.005 K0.000 F200.000
G1 X0.277 Y1.667 Z-0.500 F200.000
G2 X-0.245 Y2.145 Z-0.500 I0.005 J0.529 K0.000 F200.000
G1 X-0.250 Y7.541 Z-0.500 F200.000
G2 X0.193 Y8.028 Z-0.500 I0.494 J-0.005 K0.000 F200.000
G1 X1.684 Y8.033 Z-0.500 F200.000
G3 X1.704 Y8.052 Z-0.500 I0.006 J0.014 K0.000 F200.000
G1 X1.704 Y9.510 Z-0.500 F200.000
G2 X2.171 Y10.021 Z-0.500 I0.519 J-0.005 K0.000 F200.000
G1 X3.804 Y10.026 Z-0.500 F200.000
G3 X3.814 Y10.036 Z-0.500 I0.003 J0.007 K0.000 F200.000
G1 X3.814 Y11.437 Z-0.500 F200.000
G2 X4.232 Y11.900 Z-0.500 I0.470 J-0.004 K0.000 F200.000
G1 X5.392 Y11.904 Z-0.500 F200.000
G1 X3.949 Y13.554 Z-0.500 F200.000
G2 X3.815 Y13.890 Z-0.500 I0.415 J0.360 K0.000 F200.000
G1 X3.814 Y15.378 Z-0.500 F200.000
G2 X4.241 Y15.849 Z-0.500 I0.478 J-0.005 K0.000 F200.000
G1 X5.658 Y15.854 Z-0.500 F200.000
G2 X6.039 Y15.707 Z-0.500 I-0.003 J-0.574 K0.000 F200.000
G1 X7.984 Y13.799 Z-0.500 F200.000
G2 X8.146 Y13.433 Z-0.500 I-0.389 J-0.392 K0.000 F200.000
G1 X8.148 Y11.945 Z-0.500 F200.000
G3 X8.188 Y11.905 Z-0.500 I0.031 J-0.009 K0.000 F200.000
G1 X13.162 Y11.905 Z-0.500 F200.000
G3 X13.178 Y11.904 Z-0.500 I0.009 J0.031 K0.000 F200.000
G1 X13.178 Y11.904 Z-0.625 F60.000
G3 X13.202 Y11.945 Z-0.625 I-0.007 J0.032 K0.000 F200.000
G1 X13.202 Y13.409 Z-0.625 F200.000
G2 X13.349 Y13.781 Z-0.625 I0.552 J-0.003 K0.000 F200.000
G1 X15.292 Y15.690 Z-0.625 F200.000
G2 X15.667 Y15.852 Z-0.625 I0.400 J-0.412 K0.000 F200.000
G1 X17.060 Y15.854 Z-0.625 F200.000
G2 X17.531 Y15.427 Z-0.625 I-0.005 J-0.478 K0.000 F200.000
G1 X17.536 Y13.913 Z-0.625 F200.000
G2 X17.415 Y13.571 Z-0.625 I-0.550 J0.002 K0.000 F200.000
G1 X15.958 Y11.905 Z-0.625 F200.000
G1 X17.068 Y11.905 Z-0.625 F200.000
G2 X17.531 Y11.486 Z-0.625 I-0.004 J-0.470 K0.000 F200.000
G1 X17.536 Y10.036 Z-0.625 F200.000
G3 X17.545 Y10.026 Z-0.625 I0.007 J-0.003 K0.000 F200.000
G1 X19.129 Y10.026 Z-0.625 F200.000
G2 X19.639 Y9.560 Z-0.625 I-0.005 J-0.518 K0.000 F200.000
G1 X19.644 Y8.052 Z-0.625 F200.000
G3 X19.663 Y8.033 Z-0.625 I0.014 J-0.006 K0.000 F200.000
G1 X21.108 Y8.033 Z-0.625 F200.000
G2 X21.595 Y7.589 Z-0.625 I-0.005 J-0.494 K0.000 F200.000
G1 X21.599 Y2.193 Z-0.625 F200.000
G2 X21.122 Y1.672 Z-0.625 I-0.529 J0.005 K0.000 F200.000
G1 X19.632 Y1.667 Z-0.625 F200.000
G2 X19.149 Y2.106 Z-0.625 I0.005 J0.490 K0.000 F200.000
G1 X19.144 Y5.477 Z-0.625 F200.000
G3 X19.082 Y5.539 Z-0.625 I-0.052 J0.010 K0.000 F200.000
G1 X17.634 Y5.539 Z-0.625 F200.000
G3 X17.612 Y5.518 Z-0.625 I-0.006 J-0.015 K0.000 F200.000
G1 X17.612 Y2.129 Z-0.625 F200.000
G2 X17.403 Y1.608 Z-0.625 I-0.760 J0.003 K0.000 F200.000
G1 X15.719 Y-0.045 Z-0.625 F200.000
G2 X15.240 Y-0.249 Z-0.625 I-0.504 J0.518 K0.000 F200.000
G1 X11.998 Y-0.250 Z-0.625 F200.000
G2 X11.481 Y0.222 Z-0.625 I0.005 J0.524 K0.000 F200.000
G1 X11.477 Y1.684 Z-0.625 F200.000
G2 X11.911 Y2.162 Z-0.625 I0.485 J-0.005 K0.000 F200.000
G1 X15.259 Y2.167 Z-0.625 F200.000
G3 X15.310 Y2.218 Z-0.625 I0.010 J0.041 K0.000 F200.000
G1 X15.310 Y3.610 Z-0.625 F200.000
G3 X15.298 Y3.622 Z-0.625 I-0.009 J0.004 K0.000 F200.000
G1 X6.051 Y3.622 Z-0.625 F200.000
G3 X6.039 Y3.610 Z-0.625 I-0.004 J-0.009 K0.000 F200.000
G1 X6.039 Y2.218 Z-0.625 F200.000
G3 X6.090 Y2.167 Z-0.625 I0.041 J-0.010 K0.000 F200.000
G1 X9.390 Y2.167 Z-0.625 F200.000
G2 X9.866 Y1.735 Z-0.625 I-0.005 J-0.484 K0.000 F200.000
G1 X9.871 Y0.271 Z-0.625 F200.000
G2 X9.401 Y-0.243 Z-0.625 I-0.522 J0.005 K0.000 F200.000
G1 X6.133 Y-0.248 Z-0.625 F200.000
G2 X5.649 Y-0.059 Z-0.625 I0.003 J0.723 K0.000 F200.000
G1 X3.964 Y1.590 Z-0.625 F200.000
G2 X3.738 Y2.104 Z-0.625 I0.534 J0.541 K0.000 F200.000
G1 X3.737 Y5.518 Z-0.625 F200.000
G3 X3.716 Y5.539 Z-0.625 I-0.015 J0.006 K0.000 F200.000
G1 X2.266 Y5.539 Z-0.625 F200.000
G3 X2.204 Y5.477 Z-0.625 I-0.010 J-0.052 K0.000 F200.000
G1 X2.204 Y2.154 Z-0.625 F200.000
G2 X1.765 Y1.672 Z-0.625 I-0.490 J0.005 K0.000 F200.000
G1 X0.277 Y1.667 Z-0.625 F200.000
G2 X-0.245 Y2.145 Z-0.625 I0.005 J0.529 K0.000 F200.000
G1 X-0.250 Y7.541 Z-0.625 F200.000
G2 X0.193 Y8.028 Z-0.625 I0.494 J-0.005 K0.000 F200.000
G1 X1.684 Y8.033 Z-0.625 F200.000
G3 X1.704 Y8.052 Z-0.625 I0.006 J0.014 K0.000 F200.000
G1 X1.704 Y9.510 Z-0.625 F200.000
G2 X2.171 Y10.021 Z-0.625 I0.519 J-0.005 K0.000 F200.000
G1 X3.804 Y10.026 Z-0.625 F200.000
G3 X3.814 Y10.036 Z-0.625 I0.003 J0.007 K0.000 F200.000
G1 X3.814 Y11.437 Z-0.625 F200.000
G2 X4.232 Y11.900 Z-0.625 I0.470 J-0.004 K0.000 F200.000
G1 X5.392 Y11.904 Z-0.625 F200.000
G1 X3.949 Y13.554 Z-0.625 F200.000
G2 X3.815 Y13.890 Z-0.625 I0.415 J0.360 K0.000 F200.000
G1 X3.814 Y15.378 Z-0.625 F200.000
G2 X4.241 Y15.849 Z-0.625 I0.478 J-0.005 K0.000 F200.000
G1 X5.658 Y15.854 Z-0.625 F200.000
G2 X6.039 Y15.707 Z-0.625 I-0.003 J-0.574 K0.000 F200.000
G1 X7.984 Y13.799 Z-0.625 F200.000
G2 X8.146 Y13.433 Z-0.625 I-0.389 J-0.392 K0.000 F200.000
G1 X8.148 Y11.945 Z-0.625 F200.000
G3 X8.188 Y11.905 Z-0.625 I0.031 J-0.009 K0.000 F200.000
G1 X13.162 Y11.905 Z-0.625 F200.000
G3 X13.178 Y11.904 Z-0.625 I0.009 J0.031 K0.000 F200.000
G1 X13.178 Y11.904 Z-0.750 F60.000
G3 X13.202 Y11.945 Z-0.750 I-0.007 J0.032 K0.000 F200.000
G1 X13.202 Y13.409 Z-0.750 F200.000
G2 X13.349 Y13.781 Z-0.750 I0.552 J-0.003 K0.000 F200.000
G1 X15.292 Y15.690 Z-0.750 F200.000
G2 X15.667 Y15.852 Z-0.750 I0.400 J-0.412 K0.000 F200.000
G1 X17.060 Y15.854 Z-0.750 F200.000
G2 X17.531 Y15.427 Z-0.750 I-0.005 J-0.478 K0.000 F200.000
G1 X17.536 Y13.913 Z-0.750 F200.000
G2 X17.415 Y13.571 Z-0.750 I-0.550 J0.002 K0.000 F200.000
G1 X15.958 Y11.905 Z-0.750 F200.000
G1 X17.068 Y11.905 Z-0.750 F200.000
G2 X17.531 Y11.486 Z-0.750 I-0.004 J-0.470 K0.000 F200.000
G1 X17.536 Y10.036 Z-0.750 F200.000
G3 X17.545 Y10.026 Z-0.750 I0.007 J-0.003 K0.000 F200.000
G1 X19.129 Y10.026 Z-0.750 F200.000
G2 X19.639 Y9.560 Z-0.750 I-0.005 J-0.518 K0.000 F200.000
G1 X19.644 Y8.052 Z-0.750 F200.000
G3 X19.663 Y8.033 Z-0.750 I0.014 J-0.006 K0.000 F200.000
G1 X21.108 Y8.033 Z-0.750 F200.000
G2 X21.595 Y7.589 Z-0.750 I-0.005 J-0.494 K0.000 F200.000
G1 X21.599 Y2.193 Z-0.750 F200.000
G2 X21.122 Y1.672 Z-0.750 I-0.529 J0.005 K0.000 F200.000
G1 X19.632 Y1.667 Z-0.750 F200.000
G2 X19.149 Y2.106 Z-0.750 I0.005 J0.490 K0.000 F200.000
G1 X19.144 Y5.477 Z-0.750 F200.000
G3 X19.082 Y5.539 Z-0.750 I-0.052 J0.010 K0.000 F200.000
G1 X17.634 Y5.539 Z-0.750 F200.000
G3 X17.612 Y5.518 Z-0.750 I-0.006 J-0.015 K0.000 F200.000
G1 X17.612 Y2.129 Z-0.750 F200.000
G2 X17.403 Y1.608 Z-0.750 I-0.760 J0.003 K0.000 F200.000
G1 X15.719 Y-0.045 Z-0.750 F200.000
G2 X15.240 Y-0.249 Z-0.750 I-0.504 J0.518 K0.000 F200.000
G1 X11.998 Y-0.250 Z-0.750 F200.000
G2 X11.481 Y0.222 Z-0.750 I0.005 J0.524 K0.000 F200.000
G1 X11.477 Y1.684 Z-0.750 F200.000
G2 X11.911 Y2.162 Z-0.750 I0.485 J-0.005 K0.000 F200.000
G1 X15.259 Y2.167 Z-0.750 F200.000
G3 X15.310 Y2.218 Z-0.750 I0.010 J0.041 K0.000 F200.000
G1 X15.310 Y3.610 Z-0.750 F200.000
G3 X15.298 Y3.622 Z-0.750 I-0.009 J0.004 K0.000 F200.000
G1 X6.051 Y3.622 Z-0.750 F200.000
G3 X6.039 Y3.610 Z-0.750 I-0.004 J-0.009 K0.000 F200.000
G1 X6.039 Y2.218 Z-0.750 F200.000
G3 X6.090 Y2.167 Z-0.750 I0.041 J-0.010 K0.000 F200.000
G1 X9.390 Y2.167 Z-0.750 F200.000
G2 X9.866 Y1.735 Z-0.750 I-0.005 J-0.484 K0.000 F200.000
G1 X9.871 Y0.271 Z-0.750 F200.000
G2 X9.401 Y-0.243 Z-0.750 I-0.522 J0.005 K0.000 F200.000
G1 X6.133 Y-0.248 Z-0.750 F200.000
G2 X5.649 Y-0.059 Z-0.750 I0.003 J0.723 K0.000 F200.000
G1 X3.964 Y1.590 Z-0.750 F200.000
G2 X3.738 Y2.104 Z-0.750 I0.534 J0.541 K0.000 F200.000
G1 X3.737 Y5.518 Z-0.750 F200.000
G3 X3.716 Y5.539 Z-0.750 I-0.015 J0.006 K0.000 F200.000
G1 X2.266 Y5.539 Z-0.750 F200.000
G3 X2.204 Y5.477 Z-0.750 I-0.010 J-0.052 K0.000 F200.000
G1 X2.204 Y2.154 Z-0.750 F200.000
G2 X1.765 Y1.672 Z-0.750 I-0.490 J0.005 K0.000 F200.000
G1 X0.277 Y1.667 Z-0.750 F200.000
G2 X-0.245 Y2.145 Z-0.750 I0.005 J0.529 K0.000 F200.000
G1 X-0.250 Y7.541 Z-0.750 F200.000
G2 X0.193 Y8.028 Z-0.750 I0.494 J-0.005 K0.000 F200.000
G1 X1.684 Y8.033 Z-0.750 F200.000
G3 X1.704 Y8.052 Z-0.750 I0.006 J0.014 K0.000 F200.000
G1 X1.704 Y9.510 Z-0.750 F200.000
G2 X2.171 Y10.021 Z-0.750 I0.519 J-0.005 K0.000 F200.000
G1 X3.804 Y10.026 Z-0.750 F200.000
G3 X3.814 Y10.036 Z-0.750 I0.003 J0.007 K0.000 F200.000
G1 X3.814 Y11.437 Z-0.750 F200.000
G2 X4.232 Y11.900 Z-0.750 I0.470 J-0.004 K0.000 F200.000
G1 X5.392 Y11.904 Z-0.750 F200.000
G1 X3.949 Y13.554 Z-0.750 F200.000
G2 X3.815 Y13.890 Z-0.750 I0.415 J0.360 K0.000 F200.000
G1 X3.814 Y15.378 Z-0.750 F200.000
G2 X4.241 Y15.849 Z-0.750 I0.478 J-0.005 K0.000 F200.000
G1 X5.658 Y15.854 Z-0.750 F200.000
G2 X6.039 Y15.707 Z-0.750 I-0.003 J-0.574 K0.000 F200.000
G1 X7.984 Y13.799 Z-0.750 F200.000
G2 X8.146 Y13.433 Z-0.750 I-0.389 J-0.392 K0.000 F200.000
G1 X8.148 Y11.945 Z-0.750 F200.000
G3 X8.188 Y11.905 Z-0.750 I0.031 J-0.009 K0.000 F200.000
G1 X13.162 Y11.905 Z-0.750 F200.000
G3 X13.178 Y11.904 Z-0.750 I0.009 J0.031 K0.000 F200.000
G1 X13.178 Y11.904 Z-0.875 F60.000
G3 X13.202 Y11.945 Z-0.875 I-0.007 J0.032 K0.000 F200.000
G1 X13.202 Y13.409 Z-0.875 F200.000
G2 X13.349 Y13.781 Z-0.875 I0.552 J-0.003 K0.000 F200.000
G1 X15.292 Y15.690 Z-0.875 F200.000
G2 X15.667 Y15.852 Z-0.875 I0.400 J-0.412 K0.000 F200.000
G1 X17.060 Y15.854 Z-0.875 F200.000
G2 X17.531 Y15.427 Z-0.875 I-0.005 J-0.478 K0.000 F200.000
G1 X17.536 Y13.913 Z-0.875 F200.000
G2 X17.415 Y13.571 Z-0.875 I-0.550 J0.002 K0.000 F200.000
G1 X15.958 Y11.905 Z-0.875 F200.000
G1 X17.068 Y11.905 Z-0.875 F200.000
G2 X17.531 Y11.486 Z-0.875 I-0.004 J-0.470 K0.000 F200.000
G1 X17.536 Y10.036 Z-0.875 F200.000
G3 X17.545 Y10.026 Z-0.875 I0.007 J-0.003 K0.000 F200.000
G1 X19.129 Y10.026 Z-0.875 F200.000
G2 X19.639 Y9.560 Z-0.875 I-0.005 J-0.518 K0.000 F200.000
G1 X19.644 Y8.052 Z-0.875 F200.000
G3 X19.663 Y8.033 Z-0.875 I0.014 J-0.006 K0.000 F200.000
G1 X21.108 Y8.033 Z-0.875 F200.000
G2 X21.595 Y7.589 Z-0.875 I-0.005 J-0.494 K0.000 F200.000
G1 X21.599 Y2.193 Z-0.875 F200.000
G2 X21.122 Y1.672 Z-0.875 I-0.529 J0.005 K0.000 F200.000
G1 X19.632 Y1.667 Z-0.875 F200.000
G2 X19.149 Y2.106 Z-0.875 I0.005 J0.490 K0.000 F200.000
G1 X19.144 Y5.477 Z-0.875 F200.000
G3 X19.082 Y5.539 Z-0.875 I-0.052 J0.010 K0.000 F200.000
G1 X17.634 Y5.539 Z-0.875 F200.000
G3 X17.612 Y5.518 Z-0.875 I-0.006 J-0.015 K0.000 F200.000
G1 X17.612 Y2.129 Z-0.875 F200.000
G2 X17.403 Y1.608 Z-0.875 I-0.760 J0.003 K0.000 F200.000
G1 X15.719 Y-0.045 Z-0.875 F200.000
G2 X15.240 Y-0.249 Z-0.875 I-0.504 J0.518 K0.000 F200.000
G1 X11.998 Y-0.250 Z-0.875 F200.000
G2 X11.481 Y0.222 Z-0.875 I0.005 J0.524 K0.000 F200.000
G1 X11.477 Y1.684 Z-0.875 F200.000
G2 X11.911 Y2.162 Z-0.875 I0.485 J-0.005 K0.000 F200.000
G1 X15.259 Y2.167 Z-0.875 F200.000
G3 X15.310 Y2.218 Z-0.875 I0.010 J0.041 K0.000 F200.000
G1 X15.310 Y3.610 Z-0.875 F200.000
G3 X15.298 Y3.622 Z-0.875 I-0.009 J0.004 K0.000 F200.000
G1 X6.051 Y3.622 Z-0.875 F200.000
G3 X6.039 Y3.610 Z-0.875 I-0.004 J-0.009 K0.000 F200.000
G1 X6.039 Y2.218 Z-0.875 F200.000
G3 X6.090 Y2.167 Z-0.875 I0.041 J-0.010 K0.000 F200.000
G1 X9.390 Y2.167 Z-0.875 F200.000
G2 X9.866 Y1.735 Z-0.875 I-0.005 J-0.484 K0.000 F200.000
G1 X9.871 Y0.271 Z-0.875 F200.000
G2 X9.401 Y-0.243 Z-0.875 I-0.522 J0.005 K0.000 F200.000
G1 X6.133 Y-0.248 Z-0.875 F200.000
G2 X5.649 Y-0.059 Z-0.875 I0.003 J0.723 K0.000 F200.000
G1 X3.964 Y1.590 Z-0.875 F200.000
G2 X3.738 Y2.104 Z-0.875 I0.534 J0.541 K0.000 F200.000
G1 X3.737 Y5.518 Z-0.875 F200.000
G3 X3.716 Y5.539 Z-0.875 I-0.015 J0.006 K0.000 F200.000
G1 X2.266 Y5.539 Z-0.875 F200.000
G3 X2.204 Y5.477 Z-0.875 I-0.010 J-0.052 K0.000 F200.000
G1 X2.204 Y2.154 Z-0.875 F200.000
G2 X1.765 Y1.672 Z-0.875 I-0.490 J0.005 K0.000 F200.000
G1 X0.277 Y1.667 Z-0.875 F200.000
G2 X-0.245 Y2.145 Z-0.875 I0.005 J0.529 K0.000 F200.000
G1 X-0.250 Y7.541 Z-0.875 F200.000
G2 X0.193 Y8.028 Z-0.875 I0.494 J-0.005 K0.000 F200.000
G1 X1.684 Y8.033 Z-0.875 F200.000
G3 X1.704 Y8.052 Z-0.875 I0.006 J0.014 K0.000 F200.000
G1 X1.704 Y9.510 Z-0.875 F200.000
G2 X2.171 Y10.021 Z-0.875 I0.519 J-0.005 K0.000 F200.000
G1 X3.804 Y10.026 Z-0.875 F200.000
G3 X3.814 Y10.036 Z-0.875 I0.003 J0.007 K0.000 F200.000
G1 X3.814 Y11.437 Z-0.875 F200.000
G2 X4.232 Y11.900 Z-0.875 I0.470 J-0.004 K0.000 F200.000
G1 X5.392 Y11.904 Z-0.875 F200.000
G1 X3.949 Y13.554 Z-0.875 F200.000
G2 X3.815 Y13.890 Z-0.875 I0.415 J0.360 K0.000 F200.000
G1 X3.814 Y15.378 Z-0.875 F200.000
G2 X4.241 Y15.849 Z-0.875 I0.478 J-0.005 K0.000 F200.000
G1 X5.658 Y15.854 Z-0.875 F200.000
G2 X6.039 Y15.707 Z-0.875 I-0.003 J-0.574 K0.000 F200.000
G1 X7.984 Y13.799 Z-0.875 F200.000
G2 X8.146 Y13.433 Z-0.875 I-0.389 J-0.392 K0.000 F200.000
G1 X8.148 Y11.945 Z-0.875 F200.000
G3 X8.188 Y11.905 Z-0.875 I0.031 J-0.009 K0.000 F200.000
G1 X13.162 Y11.905 Z-0.875 F200.000
G3 X13.178 Y11.904 Z-0.875 I0.009 J0.031 K0.000 F200.000
G1 X13.178 Y11.904 Z-1.000 F60.000
G3 X13.202 Y11.945 Z-1.000 I-0.007 J0.032 K0.000 F200.000
G1 X13.202 Y13.409 Z-1.000 F200.000
G2 X13.349 Y13.781 Z-1.000 I0.552 J-0.003 K0.000 F200.000
G1 X15.292 Y15.690 Z-1.000 F200.000
G2 X15.667 Y15.852 Z-1.000 I0.400 J-0.412 K0.000 F200.000
G1 X17.060 Y15.854 Z-1.000 F200.000
G2 X17.531 Y15.427 Z-1.000 I-0.005 J-0.478 K0.000 F200.000
G1 X17.536 Y13.913 Z-1.000 F200.000
G2 X17.415 Y13.571 Z-1.000 I-0.550 J0.002 K0.000 F200.000
G1 X15.958 Y11.905 Z-1.000 F200.000
G1 X17.068 Y11.905 Z-1.000 F200.000
G2 X17.531 Y11.486 Z-1.000 I-0.004 J-0.470 K0.000 F200.000
G1 X17.536 Y10.036 Z-1.000 F200.000
G3 X17.545 Y10.026 Z-1.000 I0.007 J-0.003 K0.000 F200.000
G1 X19.129 Y10.026 Z-1.000 F200.000
G2 X19.639 Y9.560 Z-1.000 I-0.005 J-0.518 K0.000 F200.000
G1 X19.644 Y8.052 Z-1.000 F200.000
G3 X19.663 Y8.033 Z-1.000 I0.014 J-0.006 K0.000 F200.000
G1 X21.108 Y8.033 Z-1.000 F200.000
G2 X21.595 Y7.589 Z-1.000 I-0.005 J-0.494 K0.000 F200.000
G1 X21.599 Y2.193 Z-1.000 F200.000
G2 X21.122 Y1.672 Z-1.000 I-0.529 J0.005 K0.000 F200.000
G1 X19.632 Y1.667 Z-1.000 F200.000
G2 X19.149 Y2.106 Z-1.000 I0.005 J0.490 K0.000 F200.000
G1 X19.144 Y5.477 Z-1.000 F200.000
G3 X19.082 Y5.539 Z-1.000 I-0.052 J0.010 K0.000 F200.000
G1 X17.634 Y5.539 Z-1.000 F200.000
G3 X17.612 Y5.518 Z-1.000 I-0.006 J-0.015 K0.000 F200.000
G1 X17.612 Y2.129 Z-1.000 F200.000
G2 X17.403 Y1.608 Z-1.000 I-0.760 J0.003 K0.000 F200.000
G1 X15.719 Y-0.045 Z-1.000 F200.000
G2 X15.240 Y-0.249 Z-1.000 I-0.504 J0.518 K0.000 F200.000
G1 X11.998 Y-0.250 Z-1.000 F200.000
G2 X11.481 Y0.222 Z-1.000 I0.005 J0.524 K0.000 F200.000
G1 X11.477 Y1.684 Z-1.000 F200.000
G2 X11.911 Y2.162 Z-1.000 I0.485 J-0.005 K0.000 F200.000
G1 X15.259 Y2.167 Z-1.000 F200.000
G3 X15.310 Y2.218 Z-1.000 I0.010 J0.041 K0.000 F200.000
G1 X15.310 Y3.610 Z-1.000 F200.000
G3 X15.298 Y3.622 Z-1.000 I-0.009 J0.004 K0.000 F200.000
G1 X6.051 Y3.622 Z-1.000 F200.000
G3 X6.039 Y3.610 Z-1.000 I-0.004 J-0.009 K0.000 F200.000
G1 X6.039 Y2.218 Z-1.000 F200.000
G3 X6.090 Y2.167 Z-1.000 I0.041 J-0.010 K0.000 F200.000
G1 X9.390 Y2.167 Z-1.000 F200.000
G2 X9.866 Y1.735 Z-1.000 I-0.005 J-0.484 K0.000 F200.000
G1 X9.871 Y0.271 Z-1.000 F200.000
G2 X9.401 Y-0.243 Z-1.000 I-0.522 J0.005 K0.000 F200.000
G1 X6.133 Y-0.248 Z-1.000 F200.000
G2 X5.649 Y-0.059 Z-1.000 I0.003 J0.723 K0.000 F200.000
G1 X3.964 Y1.590 Z-1.000 F200.000
G2 X3.738 Y2.104 Z-1.000 I0.534 J0.541 K0.000 F200.000
G1 X3.737 Y5.518 Z-1.000 F200.000
G3 X3.716 Y5.539 Z-1.000 I-0.015 J0.006 K0.000 F200.000
G1 X2.266 Y5.539 Z-1.000 F200.000
G3 X2.204 Y5.477 Z-1.000 I-0.010 J-0.052 K0.000 F200.000
G1 X2.204 Y2.154 Z-1.000 F200.000
G2 X1.765 Y1.672 Z-1.000 I-0.490 J0.005 K0.000 F200.000
G1 X0.277 Y1.667 Z-1.000 F200.000
G2 X-0.245 Y2.145 Z-1.000 I0.005 J0.529 K0.000 F200.000
G1 X-0.250 Y7.541 Z-1.000 F200.000
G2 X0.193 Y8.028 Z-1.000 I0.494 J-0.005 K0.000 F200.000
G1 X1.684 Y8.033 Z-1.000 F200.000
G3 X1.704 Y8.052 Z-1.000 I0.006 J0.014 K0.000 F200.000
G1 X1.704 Y9.510 Z-1.000 F200.000
G2 X2.171 Y10.021 Z-1.000 I0.519 J-0.005 K0.000 F200.000
G1 X3.804 Y10.026 Z-1.000 F200.000
G3 X3.814 Y10.036 Z-1.000 I0.003 J0.007 K0.000 F200.000
G1 X3.814 Y11.437 Z-1.000 F200.000
G2 X4.232 Y11.900 Z-1.000 I0.470 J-0.004 K0.000 F200.000
G1 X5.392 Y11.904 Z-1.000 F200.000
G1 X3.949 Y13.554 Z-1.000 F200.000
G2 X3.815 Y13.890 Z-1.000 I0.415 J0.360 K0.000 F200.000
G1 X3.814 Y15.378 Z-1.000 F200.000
G2 X4.241 Y15.849 Z-1.000 I0.478 J-0.005 K0.000 F200.000
G1 X5.658 Y15.854 Z-1.000 F200.000
G2 X6.039 Y15.707 Z-1.000 I-0.003 J-0.574 K0.000 F200.000
G1 X7.984 Y13.799 Z-1.000 F200.000
G2 X8.146 Y13.433 Z-1.000 I-0.389 J-0.392 K0.000 F200.000
G1 X8.148 Y11.945 Z-1.000 F200.000
G3 X8.188 Y11.905 Z-1.000 I0.031 J-0.009 K0.000 F200.000
G1 X13.162 Y11.905 Z-1.000 F200.000
G3 X13.178 Y11.904 Z-1.000 I0.009 J0.031 K0.000 F200.000
G1 X13.178 Y11.904 Z-1.125 F60.000
G3 X13.202 Y11.945 Z-1.125 I-0.007 J0.032 K0.000 F200.000
G1 X13.202 Y13.409 Z-1.125 F200.000
G2 X13.349 Y13.781 Z-1.125 I0.552 J-0.003 K0.000 F200.000
G1 X15.292 Y15.690 Z-1.125 F200.000
G2 X15.667 Y15.852 Z-1.125 I0.400 J-0.412 K0.000 F200.000
G1 X17.060 Y15.854 Z-1.125 F200.000
G2 X17.531 Y15.427 Z-1.125 I-0.005 J-0.478 K0.000 F200.000
G1 X17.536 Y13.913 Z-1.125 F200.000
G2 X17.415 Y13.571 Z-1.125 I-0.550 J0.002 K0.000 F200.000
G1 X15.958 Y11.905 Z-1.125 F200.000
G1 X17.068 Y11.905 Z-1.125 F200.000
G2 X17.531 Y11.486 Z-1.125 I-0.004 J-0.470 K0.000 F200.000
G1 X17.536 Y10.036 Z-1.125 F200.000
G3 X17.545 Y10.026 Z-1.125 I0.007 J-0.003 K0.000 F200.000
G1 X19.129 Y10.026 Z-1.125 F200.000
G2 X19.639 Y9.560 Z-1.125 I-0.005 J-0.518 K0.000 F200.000
G1 X19.644 Y8.052 Z-1.125 F200.000
G3 X19.663 Y8.033 Z-1.125 I0.014 J-0.006 K0.000 F200.000
G1 X21.108 Y8.033 Z-1.125 F200.000
G2 X21.595 Y7.589 Z-1.125 I-0.005 J-0.494 K0.000 F200.000
G1 X21.599 Y2.193 Z-1.125 F200.000
G2 X21.122 Y1.672 Z-1.125 I-0.529 J0.005 K0.000 F200.000
G1 X19.632 Y1.667 Z-1.125 F200.000
G2 X19.149 Y2.106 Z-1.125 I0.005 J0.490 K0.000 F200.000
G1 X19.144 Y5.477 Z-1.125 F200.000
G3 X19.082 Y5.539 Z-1.125 I-0.052 J0.010 K0.000 F200.000
G1 X17.634 Y5.539 Z-1.125 F200.000
G3 X17.612 Y5.518 Z-1.125 I-0.006 J-0.015 K0.000 F200.000
G1 X17.612 Y2.129 Z-1.125 F200.000
G2 X17.403 Y1.608 Z-1.125 I-0.760 J0.003 K0.000 F200.000
G1 X15.719 Y-0.045 Z-1.125 F200.000
G2 X15.240 Y-0.249 Z-1.125 I-0.504 J0.518 K0.000 F200.000
G1 X11.998 Y-0.250 Z-1.125 F200.000
G2 X11.481 Y0.222 Z-1.125 I0.005 J0.524 K0.000 F200.000
G1 X11.477 Y1.684 Z-1.125 F200.000
G2 X11.911 Y2.162 Z-1.125 I0.485 J-0.005 K0.000 F200.000
G1 X15.259 Y2.167 Z-1.125 F200.000
G3 X15.310 Y2.218 Z-1.125 I0.010 J0.041 K0.000 F200.000
G1 X15.310 Y3.610 Z-1.125 F200.000
G3 X15.298 Y3.622 Z-1.125 I-0.009 J0.004 K0.000 F200.000
G1 X6.051 Y3.622 Z-1.125 F200.000
G3 X6.039 Y3.610 Z-1.125 I-0.004 J-0.009 K0.000 F200.000
G1 X6.039 Y2.218 Z-1.125 F200.000
G3 X6.090 Y2.167 Z-1.125 I0.041 J-0.010 K0.000 F200.000
G1 X9.390 Y2.167 Z-1.125 F200.000
G2 X9.866 Y1.735 Z-1.125 I-0.005 J-0.484 K0.000 F200.000
G1 X9.871 Y0.271 Z-1.125 F200.000
G2 X9.401 Y-0.243 Z-1.125 I-0.522 J0.005 K0.000 F200.000
G1 X6.133 Y-0.248 Z-1.125 F200.000
G2 X5.649 Y-0.059 Z-1.125 I0.003 J0.723 K0.000 F200.000
G1 X3.964 Y1.590 Z-1.125 F200.000
G2 X3.738 Y2.104 Z-1.125 I0.534 J0.541 K0.000 F200.000
G1 X3.737 Y5.518 Z-1.125 F200.000
G3 X3.716 Y5.539 Z-1.125 I-0.015 J0.006 K0.000 F200.000
G1 X2.266 Y5.539 Z-1.125 F200.000
G3 X2.204 Y5.477 Z-1.125 I-0.010 J-0.052 K0.000 F200.000
G1 X2.204 Y2.154 Z-1.125 F200.000
G2 X1.765 Y1.672 Z-1.125 I-0.490 J0.005 K0.000 F200.000
G1 X0.277 Y1.667 Z-1.125 F200.000
G2 X-0.245 Y2.145 Z-1.125 I0.005 J0.529 K0.000 F200.000
G1 X-0.250 Y7.541 Z-1.125 F200.000
G2 X0.193 Y8.028 Z-1.125 I0.494 J-0.005 K0.000 F200.000
G1 X1.684 Y8.033 Z-1.125 F200.000
G3 X1.704 Y8.052 Z-1.125 I0.006 J0.014 K0.000 F200.000
G1 X1.704 Y9.510 Z-1.125 F200.000
G2 X2.171 Y10.021 Z-1.125 I0.519 J-0.005 K0.000 F200.000
G1 X3.804 Y10.026 Z-1.125 F200.000
G3 X3.814 Y10.036 Z-1.125 I0.003 J0.007 K0.000 F200.000
G1 X3.814 Y11.437 Z-1.125 F200.000
G2 X4.232 Y11.900 Z-1.125 I0.470 J-0.004 K0.000 F200.000
G1 X5.392 Y11.904 Z-1.125 F200.000
G1 X3.949 Y13.554 Z-1.125 F200.000
G2 X3.815 Y13.890 Z-1.125 I0.415 J0.360 K0.000 F200.000
G1 X3.814 Y15.378 Z-1.125 F200.000
G2 X4.241 Y15.849 Z-1.125 I0.478 J-0.005 K0.000 F200.000
G1 X5.658 Y15.854 Z-1.125 F200.000
G2 X6.039 Y15.707 Z-1.125 I-0.003 J-0.574 K0.000 F200.000
G1 X7.984 Y13.799 Z-1.125 F200.000
G2 X8.146 Y13.433 Z-1.125 I-0.389 J-0.392 K0.000 F200.000
G1 X8.148 Y11.945 Z-1.125 F200.000
G3 X8.188 Y11.905 Z-1.125 I0.031 J-0.009 K0.000 F200.000
G1 X13.162 Y11.905 Z-1.125 F200.000
G3 X13.178 Y11.904 Z-1.125 I0.009 J0.031 K0.000 F200.000
G1 X13.178 Y11.904 Z-1.250 F60.000
G3 X13.202 Y11.945 Z-1.250 I-0.007 J0.032 K0.000 F200.000
G1 X13.202 Y13.409 Z-1.250 F200.000
G2 X13.349 Y13.781 Z-1.250 I0.552 J-0.003 K0.000 F200.000
G1 X15.292 Y15.690 Z-1.250 F200.000
G2 X15.667 Y15.852 Z-1.250 I0.400 J-0.412 K0.000 F200.000
G1 X17.060 Y15.854 Z-1.250 F200.000
G2 X17.531 Y15.427 Z-1.250 I-0.005 J-0.478 K0.000 F200.000
G1 X17.536 Y13.913 Z-1.250 F200.000
G2 X17.415 Y13.571 Z-1.250 I-0.550 J0.002 K0.000 F200.000
G1 X15.958 Y11.905 Z-1.250 F200.000
G1 X17.068 Y11.905 Z-1.250 F200.000
G2 X17.531 Y11.486 Z-1.250 I-0.004 J-0.470 K0.000 F200.000
G1 X17.536 Y10.036 Z-1.250 F200.000
G3 X17.545 Y10.026 Z-1.250 I0.007 J-0.003 K0.000 F200.000
G1 X19.129 Y10.026 Z-1.250 F200.000
G2 X19.639 Y9.560 Z-1.250 I-0.005 J-0.518 K0.000 F200.000
G1 X19.644 Y8.052 Z-1.250 F200.000
G3 X19.663 Y8.033 Z-1.250 I0.014 J-0.006 K0.000 F200.000
G1 X21.108 Y8.033 Z-1.250 F200.000
G2 X21.595 Y7.589 Z-1.250 I-0.005 J-0.494 K0.000 F200.000
G1 X21.599 Y2.193 Z-1.250 F200.000
G2 X21.122 Y1.672 Z-1.250 I-0.529 J0.005 K0.000 F200.000
G1 X19.632 Y1.667 Z-1.250 F200.000
G2 X19.149 Y2.106 Z-1.250 I0.005 J0.490 K0.000 F200.000
G1 X19.144 Y5.477 Z-1.250 F200.000
G3 X19.082 Y5.539 Z-1.250 I-0.052 J0.010 K0.000 F200.000
G1 X17.634 Y5.539 Z-1.250 F200.000
G3 X17.612 Y5.518 Z-1.250 I-0.006 J-0.015 K0.000 F200.000
G1 X17.612 Y2.129 Z-1.250 F200.000
G2 X17.403 Y1.608 Z-1.250 I-0.760 J0.003 K0.000 F200.000
G1 X15.719 Y-0.045 Z-1.250 F200.000
G2 X15.240 Y-0.249 Z-1.250 I-0.504 J0.518 K0.000 F200.000
G1 X11.998 Y-0.250 Z-1.250 F200.000
G2 X11.481 Y0.222 Z-1.250 I0.005 J0.524 K0.000 F200.000
G1 X11.477 Y1.684 Z-1.250 F200.000
G2 X11.911 Y2.162 Z-1.250 I0.485 J-0.005 K0.000 F200.000
G1 X15.259 Y2.167 Z-1.250 F200.000
G3 X15.310 Y2.218 Z-1.250 I0.010 J0.041 K0.000 F200.000
G1 X15.310 Y3.610 Z-1.250 F200.000
G3 X15.298 Y3.622 Z-1.250 I-0.009 J0.004 K0.000 F200.000
G1 X6.051 Y3.622 Z-1.250 F200.000
G3 X6.039 Y3.610 Z-1.250 I-0.004 J-0.009 K0.000 F200.000
G1 X6.039 Y2.218 Z-1.250 F200.000
G3 X6.090 Y2.167 Z-1.250 I0.041 J-0.010 K0.000 F200.000
G1 X9.390 Y2.167 Z-1.250 F200.000
G2 X9.866 Y1.735 Z-1.250 I-0.005 J-0.484 K0.000 F200.000
G1 X9.871 Y0.271 Z-1.250 F200.000
G2 X9.401 Y-0.243 Z-1.250 I-0.522 J0.005 K0.000 F200.000
G1 X6.133 Y-0.248 Z-1.250 F200.000
G2 X5.649 Y-0.059 Z-1.250 I0.003 J0.723 K0.000 F200.000
G1 X3.964 Y1.590 Z-1.250 F200.000
G2 X3.738 Y2.104 Z-1.250 I0.534 J0.541 K0.000 F200.000
G1 X3.737 Y5.518 Z-1.250 F200.000
G3 X3.716 Y5.539 Z-1.250 I-0.015 J0.006 K0.000 F200.000
G1 X2.266 Y5.539 Z-1.250 F200.000
G3 X2.204 Y5.477 Z-1.250 I-0.010 J-0.052 K0.000 F200.000
G1 X2.204 Y2.154 Z-1.250 F200.000
G2 X1.765 Y1.672 Z-1.250 I-0.490 J0.005 K0.000 F200.000
G1 X0.277 Y1.667 Z-1.250 F200.000
G2 X-0.245 Y2.145 Z-1.250 I0.005 J0.529 K0.000 F200.000
G1 X-0.250 Y7.541 Z-1.250 F200.000
G2 X0.193 Y8.028 Z-1.250 I0.494 J-0.005 K0.000 F200.000
G1 X1.684 Y8.033 Z-1.250 F200.000
G3 X1.704 Y8.052 Z-1.250 I0.006 J0.014 K0.000 F200.000
G1 X1.704 Y9.510 Z-1.250 F200.000
G2 X2.171 Y10.021 Z-1.250 I0.519 J-0.005 K0.000 F200.000
G1 X3.804 Y10.026 Z-1.250 F200.000
G3 X3.814 Y10.036 Z-1.250 I0.003 J0.007 K0.000 F200.000
G1 X3.814 Y11.437 Z-1.250 F200.000
G2 X4.232 Y11.900 Z-1.250 I0.470 J-0.004 K0.000 F200.000
G1 X5.392 Y11.904 Z-1.250 F200.000
G1 X3.949 Y13.554 Z-1.250 F200.000
G2 X3.815 Y13.890 Z-1.250 I0.415 J0.360 K0.000 F200.000
G1 X3.814 Y15.378 Z-1.250 F200.000
G2 X4.241 Y15.849 Z-1.250 I0.478 J-0.005 K0.000 F200.000
G1 X5.658 Y15.854 Z-1.250 F200.000
G2 X6.039 Y15.707 Z-1.250 I-0.003 J-0.574 K0.000 F200.000
G1 X7.984 Y13.799 Z-1.250 F200.000
G2 X8.146 Y13.433 Z-1.250 I-0.389 J-0.392 K0.000 F200.000
G1 X8.148 Y11.945 Z-1.250 F200.000
G3 X8.188 Y11.905 Z-1.250 I0.031 J-0.009 K0.000 F200.000
G1 X13.162 Y11.905 Z-1.250 F200.000
G3 X13.178 Y11.904 Z-1.250 I0.009 J0.031 K0.000 F200.000
G1 X13.178 Y11.904 Z-1.375 F60.000
G3 X13.202 Y11.945 Z-1.375 I-0.007 J0.032 K0.000 F200.000
G1 X13.202 Y13.409 Z-1.375 F200.000
G2 X13.349 Y13.781 Z-1.375 I0.552 J-0.003 K0.000 F200.000
G1 X15.292 Y15.690 Z-1.375 F200.000
G2 X15.667 Y15.852 Z-1.375 I0.400 J-0.412 K0.000 F200.000
G1 X17.060 Y15.854 Z-1.375 F200.000
G2 X17.531 Y15.427 Z-1.375 I-0.005 J-0.478 K0.000 F200.000
G1 X17.536 Y13.913 Z-1.375 F200.000
G2 X17.415 Y13.571 Z-1.375 I-0.550 J0.002 K0.000 F200.000
G1 X15.958 Y11.905 Z-1.375 F200.000
G1 X17.068 Y11.905 Z-1.375 F200.000
G2 X17.531 Y11.486 Z-1.375 I-0.004 J-0.470 K0.000 F200.000
G1 X17.536 Y10.036 Z-1.375 F200.000
G3 X17.545 Y10.026 Z-1.375 I0.007 J-0.003 K0.000 F200.000
G1 X19.129 Y10.026 Z-1.375 F200.000
G2 X19.639 Y9.560 Z-1.375 I-0.005 J-0.518 K0.000 F200.000
G1 X19.644 Y8.052 Z-1.375 F200.000
G3 X19.663 Y8.033 Z-1.375 I0.014 J-0.006 K0.000 F200.000
G1 X21.108 Y8.033 Z-1.375 F200.000
G2 X21.595 Y7.589 Z-1.375 I-0.005 J-0.494 K0.000 F200.000
G1 X21.599 Y2.193 Z-1.375 F200.000
G2 X21.122 Y1.672 Z-1.375 I-0.529 J0.005 K0.000 F200.000
G1 X19.632 Y1.667 Z-1.375 F200.000
G2 X19.149 Y2.106 Z-1.375 I0.005 J0.490 K0.000 F200.000
G1 X19.144 Y5.477 Z-1.375 F200.000
G3 X19.082 Y5.539 Z-1.375 I-0.052 J0.010 K0.000 F200.000
G1 X17.634 Y5.539 Z-1.375 F200.000
G3 X17.612 Y5.518 Z-1.375 I-0.006 J-0.015 K0.000 F200.000
G1 X17.612 Y2.129 Z-1.375 F200.000
G2 X17.403 Y1.608 Z-1.375 I-0.760 J0.003 K0.000 F200.000
G1 X15.719 Y-0.045 Z-1.375 F200.000
G2 X15.240 Y-0.249 Z-1.375 I-0.504 J0.518 K0.000 F200.000
G1 X11.998 Y-0.250 Z-1.375 F200.000
G2 X11.481 Y0.222 Z-1.375 I0.005 J0.524 K0.000 F200.000
G1 X11.477 Y1.684 Z-1.375 F200.000
G2 X11.911 Y2.162 Z-1.375 I0.485 J-0.005 K0.000 F200.000
G1 X15.259 Y2.167 Z-1.375 F200.000
G3 X15.310 Y2.218 Z-1.375 I0.010 J0.041 K0.000 F200.000
G1 X15.310 Y3.610 Z-1.375 F200.000
G3 X15.298 Y3.622 Z-1.375 I-0.009 J0.004 K0.000 F200.000
G1 X6.051 Y3.622 Z-1.375 F200.000
G3 X6.039 Y3.610 Z-1.375 I-0.004 J-0.009 K0.000 F200.000
G1 X6.039 Y2.218 Z-1.375 F200.000
G3 X6.090 Y2.167 Z-1.375 I0.041 J-0.010 K0.000 F200.000
G1 X9.390 Y2.167 Z-1.375 F200.000
G2 X9.866 Y1.735 Z-1.375 I-0.005 J-0.484 K0.000 F200.000
G1 X9.871 Y0.271 Z-1.375 F200.000
G2 X9.401 Y-0.243 Z-1.375 I-0.522 J0.005 K0.000 F200.000
G1 X6.133 Y-0.248 Z-1.375 F200.000
G2 X5.649 Y-0.059 Z-1.375 I0.003 J0.723 K0.000 F200.000
G1 X3.964 Y1.590 Z-1.375 F200.000
G2 X3.738 Y2.104 Z-1.375 I0.534 J0.541 K0.000 F200.000
G1 X3.737 Y5.518 Z-1.375 F200.000
G3 X3.716 Y5.539 Z-1.375 I-0.015 J0.006 K0.000 F200.000
G1 X2.266 Y5.539 Z-1.375 F200.000
G3 X2.204 Y5.477 Z-1.375 I-0.010 J-0.052 K0.000 F200.000
G1 X2.204 Y2.154 Z-1.375 F200.000
G2 X1.765 Y1.672 Z-1.375 I-0.490 J0.005 K0.000 F200.000
G1 X0.277 Y1.667 Z-1.375 F200.000
G2 X-0.245 Y2.145 Z-1.375 I0.005 J0.529 K0.000 F200.000
G1 X-0.250 Y7.541 Z-1.375 F200.000
G2 X0.193 Y8.028 Z-1.375 I0.494 J-0.005 K0.000 F200.000
G1 X1.684 Y8.033 Z-1.375 F200.000
G3 X1.704 Y8.052 Z-1.375 I0.006 J0.014 K0.000 F200.000
G1 X1.704 Y9.510 Z-1.375 F200.000
G2 X2.171 Y10.021 Z-1.375 I0.519 J-0.005 K0.000 F200.000
G1 X3.804 Y10.026 Z-1.375 F200.000
G3 X3.814 Y10.036 Z-1.375 I0.003 J0.007 K0.000 F200.000
G1 X3.814 Y11.437 Z-1.375 F200.000
G2 X4.232 Y11.900 Z-1.375 I0.470 J-0.004 K0.000 F200.000
G1 X5.392 Y11.904 Z-1.375 F200.000
G1 X3.949 Y13.554 Z-1.375 F200.000
G2 X3.815 Y13.890 Z-1.375 I0.415 J0.360 K0.000 F200.000
G1 X3.814 Y15.378 Z-1.375 F200.000
G2 X4.241 Y15.849 Z-1.375 I0.478 J-0.005 K0.000 F200.000
G1 X5.658 Y15.854 Z-1.375 F200.000
G2 X6.039 Y15.707 Z-1.375 I-0.003 J-0.574 K0.000 F200.000
G1 X7.984 Y13.799 Z-1.375 F200.000
G2 X8.146 Y13.433 Z-1.375 I-0.389 J-0.392 K0.000 F200.000
G1 X8.148 Y11.945 Z-1.375 F200.000
G3 X8.188 Y11.905 Z-1.375 I0.031 J-0.009 K0.000 F200.000
G1 X13.162 Y11.905 Z-1.375 F200.000
G3 X13.178 Y11.904 Z-1.375 I0.009 J0.031 K0.000 F200.000
G1 X13.178 Y11.904 Z-1.500 F60.000
G3 X13.202 Y11.945 Z-1.500 I-0.007 J0.032 K0.000 F200.000
G1 X13.202 Y13.409 Z-1.500 F200.000
G2 X13.349 Y13.781 Z-1.500 I0.552 J-0.003 K0.000 F200.000
G1 X15.292 Y15.690 Z-1.500 F200.000
G2 X15.667 Y15.852 Z-1.500 I0.400 J-0.412 K0.000 F200.000
G1 X17.060 Y15.854 Z-1.500 F200.000
G2 X17.531 Y15.427 Z-1.500 I-0.005 J-0.478 K0.000 F200.000
G1 X17.536 Y13.913 Z-1.500 F200.000
G2 X17.415 Y13.571 Z-1.500 I-0.550 J0.002 K0.000 F200.000
G1 X15.958 Y11.905 Z-1.500 F200.000
G1 X17.068 Y11.905 Z-1.500 F200.000
G2 X17.531 Y11.486 Z-1.500 I-0.004 J-0.470 K0.000 F200.000
G1 X17.536 Y10.036 Z-1.500 F200.000
G3 X17.545 Y10.026 Z-1.500 I0.007 J-0.003 K0.000 F200.000
G1 X19.129 Y10.026 Z-1.500 F200.000
G2 X19.639 Y9.560 Z-1.500 I-0.005 J-0.518 K0.000 F200.000
G1 X19.644 Y8.052 Z-1.500 F200.000
G3 X19.663 Y8.033 Z-1.500 I0.014 J-0.006 K0.000 F200.000
G1 X21.108 Y8.033 Z-1.500 F200.000
G2 X21.595 Y7.589 Z-1.500 I-0.005 J-0.494 K0.000 F200.000
G1 X21.599 Y2.193 Z-1.500 F200.000
G2 X21.122 Y1.672 Z-1.500 I-0.529 J0.005 K0.000 F200.000
G1 X19.632 Y1.667 Z-1.500 F200.000
G2 X19.149 Y2.106 Z-1.500 I0.005 J0.490 K0.000 F200.000
G1 X19.144 Y5.477 Z-1.500 F200.000
G3 X19.082 Y5.539 Z-1.500 I-0.052 J0.010 K0.000 F200.000
G1 X17.634 Y5.539 Z-1.500 F200.000
G3 X17.612 Y5.518 Z-1.500 I-0.006 J-0.015 K0.000 F200.000
G1 X17.612 Y2.129 Z-1.500 F200.000
G2 X17.403 Y1.608 Z-1.500 I-0.760 J0.003 K0.000 F200.000
G1 X15.719 Y-0.045 Z-1.500 F200.000
G2 X15.240 Y-0.249 Z-1.500 I-0.504 J0.518 K0.000 F200.000
G1 X11.998 Y-0.250 Z-1.500 F200.000
G2 X11.481 Y0.222 Z-1.500 I0.005 J0.524 K0.000 F200.000
G1 X11.477 Y1.684 Z-1.500 F200.000
G2 X11.911 Y2.162 Z-1.500 I0.485 J-0.005 K0.000 F200.000
G1 X15.259 Y2.167 Z-1.500 F200.000
G3 X15.310 Y2.218 Z-1.500 I0.010 J0.041 K0.000 F200.000
G1 X15.310 Y3.610 Z-1.500 F200.000
G3 X15.298 Y3.622 Z-1.500 I-0.009 J0.004 K0.000 F200.000
G1 X6.051 Y3.622 Z-1.500 F200.000
G3 X6.039 Y3.610 Z-1.500 I-0.004 J-0.009 K0.000 F200.000
G1 X6.039 Y2.218 Z-1.500 F200.000
G3 X6.090 Y2.167 Z-1.500 I0.041 J-0.010 K0.000 F200.000
G1 X9.390 Y2.167 Z-1.500 F200.000
G2 X9.866 Y1.735 Z-1.500 I-0.005 J-0.484 K0.000 F200.000
G1 X9.871 Y0.271 Z-1.500 F200.000
G2 X9.401 Y-0.243 Z-1.500 I-0.522 J0.005 K0.000 F200.000
G1 X6.133 Y-0.248 Z-1.500 F200.000
G2 X5.649 Y-0.059 Z-1.500 I0.003 J0.723 K0.000 F200.000
G1 X3.964 Y1.590 Z-1.500 F200.000
G2 X3.738 Y2.104 Z-1.500 I0.534 J0.541 K0.000 F200.000
G1 X3.737 Y5.518 Z-1.500 F200.000
G3 X3.716 Y5.539 Z-1.500 I-0.015 J0.006 K0.000 F200.000
G1 X2.266 Y5.539 Z-1.500 F200.000
G3 X2.204 Y5.477 Z-1.500 I-0.010 J-0.052 K0.000 F200.000
G1 X2.204 Y2.154 Z-1.500 F200.000
G2 X1.765 Y1.672 Z-1.500 I-0.490 J0.005 K0.000 F200.000
G1 X0.277 Y1.667 Z-1.500 F200.000
G2 X-0.245 Y2.145 Z-1.500 I0.005 J0.529 K0.000 F200.000
G1 X-0.250 Y7.541 Z-1.500 F200.000
G2 X0.193 Y8.028 Z-1.500 I0.494 J-0.005 K0.000 F200.000
G1 X1.684 Y8.033 Z-1.500 F200.000
G3 X1.704 Y8.052 Z-1.500 I0.006 J0.014 K0.000 F200.000
G1 X1.704 Y9.510 Z-1.500 F200.000
G2 X2.171 Y10.021 Z-1.500 I0.519 J-0.005 K0.000 F200.000
G1 X3.804 Y10.026 Z-1.500 F200.000
G3 X3.814 Y10.036 Z-1.500 I0.003 J0.007 K0.000 F200.000
G1 X3.814 Y11.437 Z-1.500 F200.000
G2 X4.232 Y11.900 Z-1.500 I0.470 J-0.004 K0.000 F200.000
G1 X5.392 Y11.904 Z-1.500 F200.000
G1 X3.949 Y13.554 Z-1.500 F200.000
G2 X3.815 Y13.890 Z-1.500 I0.415 J0.360 K0.000 F200.000
G1 X3.814 Y15.378 Z-1.500 F200.000
G2 X4.241 Y15.849 Z-1.500 I0.478 J-0.005 K0.000 F200.000
G1 X5.658 Y15.854 Z-1.500 F200.000
G2 X6.039 Y15.707 Z-1.500 I-0.003 J-0.574 K0.000 F200.000
G1 X7.984 Y13.799 Z-1.500 F200.000
G2 X8.146 Y13.433 Z-1.500 I-0.389 J-0.392 K0.000 F200.000
G1 X8.148 Y11.945 Z-1.500 F200.000
G3 X8.188 Y11.905 Z-1.500 I0.031 J-0.009 K0.000 F200.000
G1 X13.162 Y11.905 Z-1.500 F200.000
G3 X13.178 Y11.904 Z-1.500 I0.009 J0.031 K0.000 F200.000
G1 X13.178 Y11.904 Z-1.625 F60.000
G3 X13.202 Y11.945 Z-1.625 I-0.007 J0.032 K0.000 F200.000
G1 X13.202 Y13.409 Z-1.625 F200.000
G2 X13.349 Y13.781 Z-1.625 I0.552 J-0.003 K0.000 F200.000
G1 X15.292 Y15.690 Z-1.625 F200.000
G2 X15.667 Y15.852 Z-1.625 I0.400 J-0.412 K0.000 F200.000
G1 X17.060 Y15.854 Z-1.625 F200.000
G2 X17.531 Y15.427 Z-1.625 I-0.005 J-0.478 K0.000 F200.000
G1 X17.536 Y13.913 Z-1.625 F200.000
G2 X17.415 Y13.571 Z-1.625 I-0.550 J0.002 K0.000 F200.000
G1 X15.958 Y11.905 Z-1.625 F200.000
G1 X17.068 Y11.905 Z-1.625 F200.000
G2 X17.531 Y11.486 Z-1.625 I-0.004 J-0.470 K0.000 F200.000
G1 X17.536 Y10.036 Z-1.625 F200.000
G3 X17.545 Y10.026 Z-1.625 I0.007 J-0.003 K0.000 F200.000
G1 X19.129 Y10.026 Z-1.625 F200.000
G2 X19.639 Y9.560 Z-1.625 I-0.005 J-0.518 K0.000 F200.000
G1 X19.644 Y8.052 Z-1.625 F200.000
G3 X19.663 Y8.033 Z-1.625 I0.014 J-0.006 K0.000 F200.000
G1 X21.108 Y8.033 Z-1.625 F200.000
G2 X21.595 Y7.589 Z-1.625 I-0.005 J-0.494 K0.000 F200.000
G1 X21.599 Y2.193 Z-1.625 F200.000
G2 X21.122 Y1.672 Z-1.625 I-0.529 J0.005 K0.000 F200.000
G1 X19.632 Y1.667 Z-1.625 F200.000
G2 X19.149 Y2.106 Z-1.625 I0.005 J0.490 K0.000 F200.000
G1 X19.144 Y5.477 Z-1.625 F200.000
G3 X19.082 Y5.539 Z-1.625 I-0.052 J0.010 K0.000 F200.000
G1 X17.634 Y5.539 Z-1.625 F200.000
G3 X17.612 Y5.518 Z-1.625 I-0.006 J-0.015 K0.000 F200.000
G1 X17.612 Y2.129 Z-1.625 F200.000
G2 X17.403 Y1.608 Z-1.625 I-0.760 J0.003 K0.000 F200.000
G1 X15.719 Y-0.045 Z-1.625 F200.000
G2 X15.240 Y-0.249 Z-1.625 I-0.504 J0.518 K0.000 F200.000
G1 X11.998 Y-0.250 Z-1.625 F200.000
G2 X11.481 Y0.222 Z-1.625 I0.005 J0.524 K0.000 F200.000
G1 X11.477 Y1.684 Z-1.625 F200.000
G2 X11.911 Y2.162 Z-1.625 I0.485 J-0.005 K0.000 F200.000
G1 X15.259 Y2.167 Z-1.625 F200.000
G3 X15.310 Y2.218 Z-1.625 I0.010 J0.041 K0.000 F200.000
G1 X15.310 Y3.610 Z-1.625 F200.000
G3 X15.298 Y3.622 Z-1.625 I-0.009 J0.004 K0.000 F200.000
G1 X6.051 Y3.622 Z-1.625 F200.000
G3 X6.039 Y3.610 Z-1.625 I-0.004 J-0.009 K0.000 F200.000
G1 X6.039 Y2.218 Z-1.625 F200.000
G3 X6.090 Y2.167 Z-1.625 I0.041 J-0.010 K0.000 F200.000
G1 X9.390 Y2.167 Z-1.625 F200.000
G2 X9.866 Y1.735 Z-1.625 I-0.005 J-0.484 K0.000 F200.000
G1 X9.871 Y0.271 Z-1.625 F200.000
G2 X9.401 Y-0.243 Z-1.625 I-0.522 J0.005 K0.000 F200.000
G1 X6.133 Y-0.248 Z-1.625 F200.000
G2 X5.649 Y-0.059 Z-1.625 I0.003 J0.723 K0.000 F200.000
G1 X3.964 Y1.590 Z-1.625 F200.000
G2 X3.738 Y2.104 Z-1.625 I0.534 J0.541 K0.000 F200.000
G1 X3.737 Y5.518 Z-1.625 F200.000
G3 X3.716 Y5.539 Z-1.625 I-0.015 J0.006 K0.000 F200.000
G1 X2.266 Y5.539 Z-1.625 F200.000
G3 X2.204 Y5.477 Z-1.625 I-0.010 J-0.052 K0.000 F200.000
G1 X2.204 Y2.154 Z-1.625 F200.000
G2 X1.765 Y1.672 Z-1.625 I-0.490 J0.005 K0.000 F200.000
G1 X0.277 Y1.667 Z-1.625 F200.000
G2 X-0.245 Y2.145 Z-1.625 I0.005 J0.529 K0.000 F200.000
G1 X-0.250 Y7.541 Z-1.625 F200.000
G2 X0.193 Y8.028 Z-1.625 I0.494 J-0.005 K0.000 F200.000
G1 X1.684 Y8.033 Z-1.625 F200.000
G3 X1.704 Y8.052 Z-1.625 I0.006 J0.014 K0.000 F200.000
G1 X1.704 Y9.510 Z-1.625 F200.000
G2 X2.171 Y10.021 Z-1.625 I0.519 J-0.005 K0.000 F200.000
G1 X3.804 Y10.026 Z-1.625 F200.000
G3 X3.814 Y10.036 Z-1.625 I0.003 J0.007 K0.000 F200.000
G1 X3.814 Y11.437 Z-1.625 F200.000
G2 X4.232 Y11.900 Z-1.625 I0.470 J-0.004 K0.000 F200.000
G1 X5.392 Y11.904 Z-1.625 F200.000
G1 X3.949 Y13.554 Z-1.625 F200.000
G2 X3.815 Y13.890 Z-1.625 I0.415 J0.360 K0.000 F200.000
G1 X3.814 Y15.378 Z-1.625 F200.000
G2 X4.241 Y15.849 Z-1.625 I0.478 J-0.005 K0.000 F200.000
G1 X5.658 Y15.854 Z-1.625 F200.000
G2 X6.039 Y15.707 Z-1.625 I-0.003 J-0.574 K0.000 F200.000
G1 X7.984 Y13.799 Z-1.625 F200.000
G2 X8.146 Y13.433 Z-1.625 I-0.389 J-0.392 K0.000 F200.000
G1 X8.148 Y11.945 Z-1.625 F200.000
G3 X8.188 Y11.905 Z-1.625 I0.031 J-0.009 K0.000 F200.000
G1 X13.162 Y11.905 Z-1.625 F200.000
G3 X13.178 Y11.904 Z-1.625 I0.009 J0.031 K0.000 F200.000
G1 X13.178 Y11.904 Z-1.750 F60.000
G3 X13.202 Y11.945 Z-1.750 I-0.007 J0.032 K0.000 F200.000
G1 X13.202 Y13.409 Z-1.750 F200.000
G2 X13.349 Y13.781 Z-1.750 I0.552 J-0.003 K0.000 F200.000
G1 X15.292 Y15.690 Z-1.750 F200.000
G2 X15.667 Y15.852 Z-1.750 I0.400 J-0.412 K0.000 F200.000
G1 X17.060 Y15.854 Z-1.750 F200.000
G2 X17.531 Y15.427 Z-1.750 I-0.005 J-0.478 K0.000 F200.000
G1 X17.536 Y13.913 Z-1.750 F200.000
G2 X17.415 Y13.571 Z-1.750 I-0.550 J0.002 K0.000 F200.000
G1 X15.958 Y11.905 Z-1.750 F200.000
G1 X17.068 Y11.905 Z-1.750 F200.000
G2 X17.531 Y11.486 Z-1.750 I-0.004 J-0.470 K0.000 F200.000
G1 X17.536 Y10.036 Z-1.750 F200.000
G3 X17.545 Y10.026 Z-1.750 I0.007 J-0.003 K0.000 F200.000
G1 X19.129 Y10.026 Z-1.750 F200.000
G2 X19.639 Y9.560 Z-1.750 I-0.005 J-0.518 K0.000 F200.000
G1 X19.644 Y8.052 Z-1.750 F200.000
G3 X19.663 Y8.033 Z-1.750 I0.014 J-0.006 K0.000 F200.000
G1 X21.108 Y8.033 Z-1.750 F200.000
G2 X21.595 Y7.589 Z-1.750 I-0.005 J-0.494 K0.000 F200.000
G1 X21.599 Y2.193 Z-1.750 F200.000
G2 X21.122 Y1.672 Z-1.750 I-0.529 J0.005 K0.000 F200.000
G1 X19.632 Y1.667 Z-1.750 F200.000
G2 X19.149 Y2.106 Z-1.750 I0.005 J0.490 K0.000 F200.000
G1 X19.144 Y5.477 Z-1.750 F200.000
G3 X19.082 Y5.539 Z-1.750 I-0.052 J0.010 K0.000 F200.000
G1 X17.634 Y5.539 Z-1.750 F200.000
G3 X17.612 Y5.518 Z-1.750 I-0.006 J-0.015 K0.000 F200.000
G1 X17.612 Y2.129 Z-1.750 F200.000
G2 X17.403 Y1.608 Z-1.750 I-0.760 J0.003 K0.000 F200.000
G1 X15.719 Y-0.045 Z-1.750 F200.000
G2 X15.240 Y-0.249 Z-1.750 I-0.504 J0.518 K0.000 F200.000
G1 X11.998 Y-0.250 Z-1.750 F200.000
G2 X11.481 Y0.222 Z-1.750 I0.005 J0.524 K0.000 F200.000
G1 X11.477 Y1.684 Z-1.750 F200.000
G2 X11.911 Y2.162 Z-1.750 I0.485 J-0.005 K0.000 F200.000
G1 X15.259 Y2.167 Z-1.750 F200.000
G3 X15.310 Y2.218 Z-1.750 I0.010 J0.041 K0.000 F200.000
G1 X15.310 Y3.610 Z-1.750 F200.000
G3 X15.298 Y3.622 Z-1.750 I-0.009 J0.004 K0.000 F200.000
G1 X6.051 Y3.622 Z-1.750 F200.000
G3 X6.039 Y3.610 Z-1.750 I-0.004 J-0.009 K0.000 F200.000
G1 X6.039 Y2.218 Z-1.750 F200.000
G3 X6.090 Y2.167 Z-1.750 I0.041 J-0.010 K0.000 F200.000
G1 X9.390 Y2.167 Z-1.750 F200.000
G2 X9.866 Y1.735 Z-1.750 I-0.005 J-0.484 K0.000 F200.000
G1 X9.871 Y0.271 Z-1.750 F200.000
G2 X9.401 Y-0.243 Z-1.750 I-0.522 J0.005 K0.000 F200.000
G1 X6.133 Y-0.248 Z-1.750 F200.000
G2 X5.649 Y-0.059 Z-1.750 I0.003 J0.723 K0.000 F200.000
G1 X3.964 Y1.590 Z-1.750 F200.000
G2 X3.738 Y2.104 Z-1.750 I0.534 J0.541 K0.000 F200.000
G1 X3.737 Y5.518 Z-1.750 F200.000
G3 X3.716 Y5.539 Z-1.750 I-0.015 J0.006 K0.000 F200.000
G1 X2.266 Y5.539 Z-1.750 F200.000
G3 X2.204 Y5.477 Z-1.750 I-0.010 J-0.052 K0.000 F200.000
G1 X2.204 Y2.154 Z-1.750 F200.000
G2 X1.765 Y1.672 Z-1.750 I-0.490 J0.005 K0.000 F200.000
G1 X0.277 Y1.667 Z-1.750 F200.000
G2 X-0.245 Y2.145 Z-1.750 I0.005 J0.529 K0.000 F200.000
G1 X-0.250 Y7.541 Z-1.750 F200.000
G2 X0.193 Y8.028 Z-1.750 I0.494 J-0.005 K0.000 F200.000
G1 X1.684 Y8.033 Z-1.750 F200.000
G3 X1.704 Y8.052 Z-1.750 I0.006 J0.014 K0.000 F200.000
G1 X1.704 Y9.510 Z-1.750 F200.000
G2 X2.171 Y10.021 Z-1.750 I0.519 J-0.005 K0.000 F200.000
G1 X3.804 Y10.026 Z-1.750 F200.000
G3 X3.814 Y10.036 Z-1.750 I0.003 J0.007 K0.000 F200.000
G1 X3.814 Y11.437 Z-1.750 F200.000
G2 X4.232 Y11.900 Z-1.750 I0.470 J-0.004 K0.000 F200.000
G1 X5.392 Y11.904 Z-1.750 F200.000
G1 X3.949 Y13.554 Z-1.750 F200.000
G2 X3.815 Y13.890 Z-1.750 I0.415 J0.360 K0.000 F200.000
G1 X3.814 Y15.378 Z-1.750 F200.000
G2 X4.241 Y15.849 Z-1.750 I0.478 J-0.005 K0.000 F200.000
G1 X5.658 Y15.854 Z-1.750 F200.000
G2 X6.039 Y15.707 Z-1.750 I-0.003 J-0.574 K0.000 F200.000
G1 X7.984 Y13.799 Z-1.750 F200.000
G2 X8.146 Y13.433 Z-1.750 I-0.389 J-0.392 K0.000 F200.000
G1 X8.148 Y11.945 Z-1.750 F200.000
G3 X8.188 Y11.905 Z-1.750 I0.031 J-0.009 K0.000 F200.000
G1 X13.162 Y11.905 Z-1.750 F200.000
G3 X13.178 Y11.904 Z-1.750 I0.009 J0.031 K0.000 F200.000
G1 X13.178 Y11.904 Z-1.875 F60.000
G3 X13.202 Y11.945 Z-1.875 I-0.007 J0.032 K0.000 F200.000
G1 X13.202 Y13.409 Z-1.875 F200.000
G2 X13.349 Y13.781 Z-1.875 I0.552 J-0.003 K0.000 F200.000
G1 X15.292 Y15.690 Z-1.875 F200.000
G2 X15.667 Y15.852 Z-1.875 I0.400 J-0.412 K0.000 F200.000
G1 X17.060 Y15.854 Z-1.875 F200.000
G2 X17.531 Y15.427 Z-1.875 I-0.005 J-0.478 K0.000 F200.000
G1 X17.536 Y13.913 Z-1.875 F200.000
G2 X17.415 Y13.571 Z-1.875 I-0.550 J0.002 K0.000 F200.000
G1 X15.958 Y11.905 Z-1.875 F200.000
G1 X17.068 Y11.905 Z-1.875 F200.000
G2 X17.531 Y11.486 Z-1.875 I-0.004 J-0.470 K0.000 F200.000
G1 X17.536 Y10.036 Z-1.875 F200.000
G3 X17.545 Y10.026 Z-1.875 I0.007 J-0.003 K0.000 F200.000
G1 X19.129 Y10.026 Z-1.875 F200.000
G2 X19.639 Y9.560 Z-1.875 I-0.005 J-0.518 K0.000 F200.000
G1 X19.644 Y8.052 Z-1.875 F200.000
G3 X19.663 Y8.033 Z-1.875 I0.014 J-0.006 K0.000 F200.000
G1 X21.108 Y8.033 Z-1.875 F200.000
G2 X21.595 Y7.589 Z-1.875 I-0.005 J-0.494 K0.000 F200.000
G1 X21.599 Y2.193 Z-1.875 F200.000
G2 X21.122 Y1.672 Z-1.875 I-0.529 J0.005 K0.000 F200.000
G1 X19.632 Y1.667 Z-1.875 F200.000
G2 X19.149 Y2.106 Z-1.875 I0.005 J0.490 K0.000 F200.000
G1 X19.144 Y5.477 Z-1.875 F200.000
G3 X19.082 Y5.539 Z-1.875 I-0.052 J0.010 K0.000 F200.000
G1 X17.634 Y5.539 Z-1.875 F200.000
G3 X17.612 Y5.518 Z-1.875 I-0.006 J-0.015 K0.000 F200.000
G1 X17.612 Y2.129 Z-1.875 F200.000
G2 X17.403 Y1.608 Z-1.875 I-0.760 J0.003 K0.000 F200.000
G1 X15.719 Y-0.045 Z-1.875 F200.000
G2 X15.240 Y-0.249 Z-1.875 I-0.504 J0.518 K0.000 F200.000
G1 X11.998 Y-0.250 Z-1.875 F200.000
G2 X11.481 Y0.222 Z-1.875 I0.005 J0.524 K0.000 F200.000
G1 X11.477 Y1.684 Z-1.875 F200.000
G2 X11.911 Y2.162 Z-1.875 I0.485 J-0.005 K0.000 F200.000
G1 X15.259 Y2.167 Z-1.875 F200.000
G3 X15.310 Y2.218 Z-1.875 I0.010 J0.041 K0.000 F200.000
G1 X15.310 Y3.610 Z-1.875 F200.000
G3 X15.298 Y3.622 Z-1.875 I-0.009 J0.004 K0.000 F200.000
G1 X6.051 Y3.622 Z-1.875 F200.000
G3 X6.039 Y3.610 Z-1.875 I-0.004 J-0.009 K0.000 F200.000
G1 X6.039 Y2.218 Z-1.875 F200.000
G3 X6.090 Y2.167 Z-1.875 I0.041 J-0.010 K0.000 F200.000
G1 X9.390 Y2.167 Z-1.875 F200.000
G2 X9.866 Y1.735 Z-1.875 I-0.005 J-0.484 K0.000 F200.000
G1 X9.871 Y0.271 Z-1.875 F200.000
G2 X9.401 Y-0.243 Z-1.875 I-0.522 J0.005 K0.000 F200.000
G1 X6.133 Y-0.248 Z-1.875 F200.000
G2 X5.649 Y-0.059 Z-1.875 I0.003 J0.723 K0.000 F200.000
G1 X3.964 Y1.590 Z-1.875 F200.000
G2 X3.738 Y2.104 Z-1.875 I0.534 J0.541 K0.000 F200.000
G1 X3.737 Y5.518 Z-1.875 F200.000
G3 X3.716 Y5.539 Z-1.875 I-0.015 J0.006 K0.000 F200.000
G1 X2.266 Y5.539 Z-1.875 F200.000
G3 X2.204 Y5.477 Z-1.875 I-0.010 J-0.052 K0.000 F200.000
G1 X2.204 Y2.154 Z-1.875 F200.000
G2 X1.765 Y1.672 Z-1.875 I-0.490 J0.005 K0.000 F200.000
G1 X0.277 Y1.667 Z-1.875 F200.000
G2 X-0.245 Y2.145 Z-1.875 I0.005 J0.529 K0.000 F200.000
G1 X-0.250 Y7.541 Z-1.875 F200.000
G2 X0.193 Y8.028 Z-1.875 I0.494 J-0.005 K0.000 F200.000
G1 X1.684 Y8.033 Z-1.875 F200.000
G3 X1.704 Y8.052 Z-1.875 I0.006 J0.014 K0.000 F200.000
G1 X1.704 Y9.510 Z-1.875 F200.000
G2 X2.171 Y10.021 Z-1.875 I0.519 J-0.005 K0.000 F200.000
G1 X3.804 Y10.026 Z-1.875 F200.000
G3 X3.814 Y10.036 Z-1.875 I0.003 J0.007 K0.000 F200.000
G1 X3.814 Y11.437 Z-1.875 F200.000
G2 X4.232 Y11.900 Z-1.875 I0.470 J-0.004 K0.000 F200.000
G1 X5.392 Y11.904 Z-1.875 F200.000
G1 X3.949 Y13.554 Z-1.875 F200.000
G2 X3.815 Y13.890 Z-1.875 I0.415 J0.360 K0.000 F200.000
G1 X3.814 Y15.378 Z-1.875 F200.000
G2 X4.241 Y15.849 Z-1.875 I0.478 J-0.005 K0.000 F200.000
G1 X5.658 Y15.854 Z-1.875 F200.000
G2 X6.039 Y15.707 Z-1.875 I-0.003 J-0.574 K0.000 F200.000
G1 X7.984 Y13.799 Z-1.875 F200.000
G2 X8.146 Y13.433 Z-1.875 I-0.389 J-0.392 K0.000 F200.000
G1 X8.148 Y11.945 Z-1.875 F200.000
G3 X8.188 Y11.905 Z-1.875 I0.031 J-0.009 K0.000 F200.000
G1 X13.162 Y11.905 Z-1.875 F200.000
G3 X13.178 Y11.904 Z-1.875 I0.009 J0.031 K0.000 F200.000
G1 X13.178 Y11.904 Z-2.000 F60.000
G3 X13.202 Y11.945 Z-2.000 I-0.007 J0.032 K0.000 F200.000
G1 X13.202 Y13.409 Z-2.000 F200.000
G2 X13.349 Y13.781 Z-2.000 I0.552 J-0.003 K0.000 F200.000
G1 X15.292 Y15.690 Z-2.000 F200.000
G2 X15.667 Y15.852 Z-2.000 I0.400 J-0.412 K0.000 F200.000
G1 X17.060 Y15.854 Z-2.000 F200.000
G2 X17.531 Y15.427 Z-2.000 I-0.005 J-0.478 K0.000 F200.000
G1 X17.536 Y13.913 Z-2.000 F200.000
G2 X17.415 Y13.571 Z-2.000 I-0.550 J0.002 K0.000 F200.000
G1 X15.958 Y11.905 Z-2.000 F200.000
G1 X17.068 Y11.905 Z-2.000 F200.000
G2 X17.531 Y11.486 Z-2.000 I-0.004 J-0.470 K0.000 F200.000
G1 X17.536 Y10.036 Z-2.000 F200.000
G3 X17.545 Y10.026 Z-2.000 I0.007 J-0.003 K0.000 F200.000
G1 X19.129 Y10.026 Z-2.000 F200.000
G2 X19.639 Y9.560 Z-2.000 I-0.005 J-0.518 K0.000 F200.000
G1 X19.644 Y8.052 Z-2.000 F200.000
G3 X19.663 Y8.033 Z-2.000 I0.014 J-0.006 K0.000 F200.000
G1 X21.108 Y8.033 Z-2.000 F200.000
G2 X21.595 Y7.589 Z-2.000 I-0.005 J-0.494 K0.000 F200.000
G1 X21.599 Y2.193 Z-2.000 F200.000
G2 X21.122 Y1.672 Z-2.000 I-0.529 J0.005 K0.000 F200.000
G1 X19.632 Y1.667 Z-2.000 F200.000
G2 X19.149 Y2.106 Z-2.000 I0.005 J0.490 K0.000 F200.000
G1 X19.144 Y5.477 Z-2.000 F200.000
G3 X19.082 Y5.539 Z-2.000 I-0.052 J0.010 K0.000 F200.000
G1 X17.634 Y5.539 Z-2.000 F200.000
G3 X17.612 Y5.518 Z-2.000 I-0.006 J-0.015 K0.000 F200.000
G1 X17.612 Y2.129 Z-2.000 F200.000
G2 X17.403 Y1.608 Z-2.000 I-0.760 J0.003 K0.000 F200.000
G1 X15.719 Y-0.045 Z-2.000 F200.000
G2 X15.240 Y-0.249 Z-2.000 I-0.504 J0.518 K0.000 F200.000
G1 X11.998 Y-0.250 Z-2.000 F200.000
G2 X11.481 Y0.222 Z-2.000 I0.005 J0.524 K0.000 F200.000
G1 X11.477 Y1.684 Z-2.000 F200.000
G2 X11.911 Y2.162 Z-2.000 I0.485 J-0.005 K0.000 F200.000
G1 X15.259 Y2.167 Z-2.000 F200.000
G3 X15.310 Y2.218 Z-2.000 I0.010 J0.041 K0.000 F200.000
G1 X15.310 Y3.610 Z-2.000 F200.000
G3 X15.298 Y3.622 Z-2.000 I-0.009 J0.004 K0.000 F200.000
G1 X6.051 Y3.622 Z-2.000 F200.000
G3 X6.039 Y3.610 Z-2.000 I-0.004 J-0.009 K0.000 F200.000
G1 X6.039 Y2.218 Z-2.000 F200.000
G3 X6.090 Y2.167 Z-2.000 I0.041 J-0.010 K0.000 F200.000
G1 X9.390 Y2.167 Z-2.000 F200.000
G2 X9.866 Y1.735 Z-2.000 I-0.005 J-0.484 K0.000 F200.000
G1 X9.871 Y0.271 Z-2.000 F200.000
G2 X9.401 Y-0.243 Z-2.000 I-0.522 J0.005 K0.000 F200.000
G1 X6.133 Y-0.248 Z-2.000 F200.000
G2 X5.649 Y-0.059 Z-2.000 I0.003 J0.723 K0.000 F200.000
G1 X3.964 Y1.590 Z-2.000 F200.000
G2 X3.738 Y2.104 Z-2.000 I0.534 J0.541 K0.000 F200.000
G1 X3.737 Y5.518 Z-2.000 F200.000
G3 X3.716 Y5.539 Z-2.000 I-0.015 J0.006 K0.000 F200.000
G1 X2.266 Y5.539 Z-2.000 F200.000
G3 X2.204 Y5.477 Z-2.000 I-0.010 J-0.052 K0.000 F200.000
G1 X2.204 Y2.154 Z-2.000 F200.000
G2 X1.765 Y1.672 Z-2.000 I-0.490 J0.005 K0.000 F200.000
G1 X0.277 Y1.667 Z-2.000 F200.000
G2 X-0.245 Y2.145 Z-2.000 I0.005 J0.529 K0.000 F200.000
G1 X-0.250 Y7.541 Z-2.000 F200.000
G2 X0.193 Y8.028 Z-2.000 I0.494 J-0.005 K0.000 F200.000
G1 X1.684 Y8.033 Z-2.000 F200.000
G3 X1.704 Y8.052 Z-2.000 I0.006 J0.014 K0.000 F200.000
G1 X1.704 Y9.510 Z-2.000 F200.000
G2 X2.171 Y10.021 Z-2.000 I0.519 J-0.005 K0.000 F200.000
G1 X3.804 Y10.026 Z-2.000 F200.000
G3 X3.814 Y10.036 Z-2.000 I0.003 J0.007 K0.000 F200.000
G1 X3.814 Y11.437 Z-2.000 F200.000
G2 X4.232 Y11.900 Z-2.000 I0.470 J-0.004 K0.000 F200.000
G1 X5.392 Y11.904 Z-2.000 F200.000
G1 X3.949 Y13.554 Z-2.000 F200.000
G2 X3.815 Y13.890 Z-2.000 I0.415 J0.360 K0.000 F200.000
G1 X3.814 Y15.378 Z-2.000 F200.000
G2 X4.241 Y15.849 Z-2.000 I0.478 J-0.005 K0.000 F200.000
G1 X5.658 Y15.854 Z-2.000 F200.000
G2 X6.039 Y15.707 Z-2.000 I-0.003 J-0.574 K0.000 F200.000
G1 X7.984 Y13.799 Z-2.000 F200.000
G2 X8.146 Y13.433 Z-2.000 I-0.389 J-0.392 K0.000 F200.000
G1 X8.148 Y11.945 Z-2.000 F200.000
G3 X8.188 Y11.905 Z-2.000 I0.031 J-0.009 K0.000 F200.000
G1 X13.162 Y11.905 Z-2.000 F200.000
G3 X13.178 Y11.904 Z-2.000 I0.009 J0.031 K0.000 F200.000
G1 X13.178 Y11.904 Z-2.125 F60.000
G3 X13.202 Y11.945 Z-2.125 I-0.007 J0.032 K0.000 F200.000
G1 X13.202 Y13.409 Z-2.125 F200.000
G2 X13.349 Y13.781 Z-2.125 I0.552 J-0.003 K0.000 F200.000
G1 X15.292 Y15.690 Z-2.125 F200.000
G2 X15.667 Y15.852 Z-2.125 I0.400 J-0.412 K0.000 F200.000
G1 X17.060 Y15.854 Z-2.125 F200.000
G2 X17.531 Y15.427 Z-2.125 I-0.005 J-0.478 K0.000 F200.000
G1 X17.536 Y13.913 Z-2.125 F200.000
G2 X17.415 Y13.571 Z-2.125 I-0.550 J0.002 K0.000 F200.000
G1 X15.958 Y11.905 Z-2.125 F200.000
G1 X17.068 Y11.905 Z-2.125 F200.000
G2 X17.531 Y11.486 Z-2.125 I-0.004 J-0.470 K0.000 F200.000
G1 X17.536 Y10.036 Z-2.125 F200.000
G3 X17.545 Y10.026 Z-2.125 I0.007 J-0.003 K0.000 F200.000
G1 X19.129 Y10.026 Z-2.125 F200.000
G2 X19.639 Y9.560 Z-2.125 I-0.005 J-0.518 K0.000 F200.000
G1 X19.644 Y8.052 Z-2.125 F200.000
G3 X19.663 Y8.033 Z-2.125 I0.014 J-0.006 K0.000 F200.000
G1 X21.108 Y8.033 Z-2.125 F200.000
G2 X21.595 Y7.589 Z-2.125 I-0.005 J-0.494 K0.000 F200.000
G1 X21.599 Y2.193 Z-2.125 F200.000
G2 X21.122 Y1.672 Z-2.125 I-0.529 J0.005 K0.000 F200.000
G1 X19.632 Y1.667 Z-2.125 F200.000
G2 X19.149 Y2.106 Z-2.125 I0.005 J0.490 K0.000 F200.000
G1 X19.144 Y5.477 Z-2.125 F200.000
G3 X19.082 Y5.539 Z-2.125 I-0.052 J0.010 K0.000 F200.000
G1 X17.634 Y5.539 Z-2.125 F200.000
G3 X17.612 Y5.518 Z-2.125 I-0.006 J-0.015 K0.000 F200.000
G1 X17.612 Y2.129 Z-2.125 F200.000
G2 X17.403 Y1.608 Z-2.125 I-0.760 J0.003 K0.000 F200.000
G1 X15.719 Y-0.045 Z-2.125 F200.000
G2 X15.240 Y-0.249 Z-2.125 I-0.504 J0.518 K0.000 F200.000
G1 X11.998 Y-0.250 Z-2.125 F200.000
G2 X11.481 Y0.222 Z-2.125 I0.005 J0.524 K0.000 F200.000
G1 X11.477 Y1.684 Z-2.125 F200.000
G2 X11.911 Y2.162 Z-2.125 I0.485 J-0.005 K0.000 F200.000
G1 X15.259 Y2.167 Z-2.125 F200.000
G3 X15.310 Y2.218 Z-2.125 I0.010 J0.041 K0.000 F200.000
G1 X15.310 Y3.610 Z-2.125 F200.000
G3 X15.298 Y3.622 Z-2.125 I-0.009 J0.004 K0.000 F200.000
G1 X6.051 Y3.622 Z-2.125 F200.000
G3 X6.039 Y3.610 Z-2.125 I-0.004 J-0.009 K0.000 F200.000
G1 X6.039 Y2.218 Z-2.125 F200.000
G3 X6.090 Y2.167 Z-2.125 I0.041 J-0.010 K0.000 F200.000
G1 X9.390 Y2.167 Z-2.125 F200.000
G2 X9.866 Y1.735 Z-2.125 I-0.005 J-0.484 K0.000 F200.000
G1 X9.871 Y0.271 Z-2.125 F200.000
G2 X9.401 Y-0.243 Z-2.125 I-0.522 J0.005 K0.000 F200.000
G1 X6.133 Y-0.248 Z-2.125 F200.000
G2 X5.649 Y-0.059 Z-2.125 I0.003 J0.723 K0.000 F200.000
G1 X3.964 Y1.590 Z-2.125 F200.000
G2 X3.738 Y2.104 Z-2.125 I0.534 J0.541 K0.000 F200.000
G1 X3.737 Y5.518 Z-2.125 F200.000
G3 X3.716 Y5.539 Z-2.125 I-0.015 J0.006 K0.000 F200.000
G1 X2.266 Y5.539 Z-2.125 F200.000
G3 X2.204 Y5.477 Z-2.125 I-0.010 J-0.052 K0.000 F200.000
G1 X2.204 Y2.154 Z-2.125 F200.000
G2 X1.765 Y1.672 Z-2.125 I-0.490 J0.005 K0.000 F200.000
G1 X0.277 Y1.667 Z-2.125 F200.000
G2 X-0.245 Y2.145 Z-2.125 I0.005 J0.529 K0.000 F200.000
G1 X-0.250 Y7.541 Z-2.125 F200.000
G2 X0.193 Y8.028 Z-2.125 I0.494 J-0.005 K0.000 F200.000
G1 X1.684 Y8.033 Z-2.125 F200.000
G3 X1.704 Y8.052 Z-2.125 I0.006 J0.014 K0.000 F200.000
G1 X1.704 Y9.510 Z-2.125 F200.000
G2 X2.171 Y10.021 Z-2.125 I0.519 J-0.005 K0.000 F200.000
G1 X3.804 Y10.026 Z-2.125 F200.000
G3 X3.814 Y10.036 Z-2.125 I0.003 J0.007 K0.000 F200.000
G1 X3.814 Y11.437 Z-2.125 F200.000
G2 X4.232 Y11.900 Z-2.125 I0.470 J-0.004 K0.000 F200.000
G1 X5.392 Y11.904 Z-2.125 F200.000
G1 X3.949 Y13.554 Z-2.125 F200.000
G2 X3.815 Y13.890 Z-2.125 I0.415 J0.360 K0.000 F200.000
G1 X3.814 Y15.378 Z-2.125 F200.000
G2 X4.241 Y15.849 Z-2.125 I0.478 J-0.005 K0.000 F200.000
G1 X5.658 Y15.854 Z-2.125 F200.000
G2 X6.039 Y15.707 Z-2.125 I-0.003 J-0.574 K0.000 F200.000
G1 X7.984 Y13.799 Z-2.125 F200.000
G2 X8.146 Y13.433 Z-2.125 I-0.389 J-0.392 K0.000 F200.000
G1 X8.148 Y11.945 Z-2.125 F200.000
G3 X8.188 Y11.905 Z-2.125 I0.031 J-0.009 K0.000 F200.000
G1 X13.162 Y11.905 Z-2.125 F200.000
G3 X13.178 Y11.904 Z-2.125 I0.009 J0.031 K0.000 F200.000
G1 X13.178 Y11.904 Z-2.250 F60.000
G3 X13.202 Y11.945 Z-2.250 I-0.007 J0.032 K0.000 F200.000
G1 X13.202 Y13.409 Z-2.250 F200.000
G2 X13.349 Y13.781 Z-2.250 I0.552 J-0.003 K0.000 F200.000
G1 X15.292 Y15.690 Z-2.250 F200.000
G2 X15.667 Y15.852 Z-2.250 I0.400 J-0.412 K0.000 F200.000
G1 X17.060 Y15.854 Z-2.250 F200.000
G2 X17.531 Y15.427 Z-2.250 I-0.005 J-0.478 K0.000 F200.000
G1 X17.536 Y13.913 Z-2.250 F200.000
G2 X17.415 Y13.571 Z-2.250 I-0.550 J0.002 K0.000 F200.000
G1 X15.958 Y11.905 Z-2.250 F200.000
G1 X17.068 Y11.905 Z-2.250 F200.000
G2 X17.531 Y11.486 Z-2.250 I-0.004 J-0.470 K0.000 F200.000
G1 X17.536 Y10.036 Z-2.250 F200.000
G3 X17.545 Y10.026 Z-2.250 I0.007 J-0.003 K0.000 F200.000
G1 X19.129 Y10.026 Z-2.250 F200.000
G2 X19.639 Y9.560 Z-2.250 I-0.005 J-0.518 K0.000 F200.000
G1 X19.644 Y8.052 Z-2.250 F200.000
G3 X19.663 Y8.033 Z-2.250 I0.014 J-0.006 K0.000 F200.000
G1 X21.108 Y8.033 Z-2.250 F200.000
G2 X21.595 Y7.589 Z-2.250 I-0.005 J-0.494 K0.000 F200.000
G1 X21.599 Y2.193 Z-2.250 F200.000
G2 X21.122 Y1.672 Z-2.250 I-0.529 J0.005 K0.000 F200.000
G1 X19.632 Y1.667 Z-2.250 F200.000
G2 X19.149 Y2.106 Z-2.250 I0.005 J0.490 K0.000 F200.000
G1 X19.144 Y5.477 Z-2.250 F200.000
G3 X19.082 Y5.539 Z-2.250 I-0.052 J0.010 K0.000 F200.000
G1 X17.634 Y5.539 Z-2.250 F200.000
G3 X17.612 Y5.518 Z-2.250 I-0.006 J-0.015 K0.000 F200.000
G1 X17.612 Y2.129 Z-2.250 F200.000
G2 X17.403 Y1.608 Z-2.250 I-0.760 J0.003 K0.000 F200.000
G1 X15.719 Y-0.045 Z-2.250 F200.000
G2 X15.240 Y-0.249 Z-2.250 I-0.504 J0.518 K0.000 F200.000
G1 X11.998 Y-0.250 Z-2.250 F200.000
G2 X11.481 Y0.222 Z-2.250 I0.005 J0.524 K0.000 F200.000
G1 X11.477 Y1.684 Z-2.250 F200.000
G2 X11.911 Y2.162 Z-2.250 I0.485 J-0.005 K0.000 F200.000
G1 X15.259 Y2.167 Z-2.250 F200.000
G3 X15.310 Y2.218 Z-2.250 I0.010 J0.041 K0.000 F200.000
G1 X15.310 Y3.610 Z-2.250 F200.000
G3 X15.298 Y3.622 Z-2.250 I-0.009 J0.004 K0.000 F200.000
G1 X6.051 Y3.622 Z-2.250 F200.000
G3 X6.039 Y3.610 Z-2.250 I-0.004 J-0.009 K0.000 F200.000
G1 X6.039 Y2.218 Z-2.250 F200.000
G3 X6.090 Y2.167 Z-2.250 I0.041 J-0.010 K0.000 F200.000
G1 X9.390 Y2.167 Z-2.250 F200.000
G2 X9.866 Y1.735 Z-2.250 I-0.005 J-0.484 K0.000 F200.000
G1 X9.871 Y0.271 Z-2.250 F200.000
G2 X9.401 Y-0.243 Z-2.250 I-0.522 J0.005 K0.000 F200.000
G1 X6.133 Y-0.248 Z-2.250 F200.000
G2 X5.649 Y-0.059 Z-2.250 I0.003 J0.723 K0.000 F200.000
G1 X3.964 Y1.590 Z-2.250 F200.000
G2 X3.738 Y2.104 Z-2.250 I0.534 J0.541 K0.000 F200.000
G1 X3.737 Y5.518 Z-2.250 F200.000
G3 X3.716 Y5.539 Z-2.250 I-0.015 J0.006 K0.000 F200.000
G1 X2.266 Y5.539 Z-2.250 F200.000
G3 X2.204 Y5.477 Z-2.250 I-0.010 J-0.052 K0.000 F200.000
G1 X2.204 Y2.154 Z-2.250 F200.000
G2 X1.765 Y1.672 Z-2.250 I-0.490 J0.005 K0.000 F200.000
G1 X0.277 Y1.667 Z-2.250 F200.000
G2 X-0.245 Y2.145 Z-2.250 I0.005 J0.529 K0.000 F200.000
G1 X-0.250 Y7.541 Z-2.250 F200.000
G2 X0.193 Y8.028 Z-2.250 I0.494 J-0.005 K0.000 F200.000
G1 X1.684 Y8.033 Z-2.250 F200.000
G3 X1.704 Y8.052 Z-2.250 I0.006 J0.014 K0.000 F200.000
G1 X1.704 Y9.510 Z-2.250 F200.000
G2 X2.171 Y10.021 Z-2.250 I0.519 J-0.005 K0.000 F200.000
G1 X3.804 Y10.026 Z-2.250 F200.000
G3 X3.814 Y10.036 Z-2.250 I0.003 J0.007 K0.000 F200.000
G1 X3.814 Y11.437 Z-2.250 F200.000
G2 X4.232 Y11.900 Z-2.250 I0.470 J-0.004 K0.000 F200.000
G1 X5.392 Y11.904 Z-2.250 F200.000
G1 X3.949 Y13.554 Z-2.250 F200.000
G2 X3.815 Y13.890 Z-2.250 I0.415 J0.360 K0.000 F200.000
G1 X3.814 Y15.378 Z-2.250 F200.000
G2 X4.241 Y15.849 Z-2.250 I0.478 J-0.005 K0.000 F200.000
G1 X5.658 Y15.854 Z-2.250 F200.000
G2 X6.039 Y15.707 Z-2.250 I-0.003 J-0.574 K0.000 F200.000
G1 X7.984 Y13.799 Z-2.250 F200.000
G2 X8.146 Y13.433 Z-2.250 I-0.389 J-0.392 K0.000 F200.000
G1 X8.148 Y11.945 Z-2.250 F200.000
G3 X8.188 Y11.905 Z-2.250 I0.031 J-0.009 K0.000 F200.000
G1 X13.162 Y11.905 Z-2.250 F200.000
G3 X13.178 Y11.904 Z-2.250 I0.009 J0.031 K0.000 F200.000
G1 X13.178 Y11.904 Z-2.375 F60.000
G3 X13.202 Y11.945 Z-2.375 I-0.007 J0.032 K0.000 F200.000
G1 X13.202 Y13.409 Z-2.375 F200.000
G2 X13.349 Y13.781 Z-2.375 I0.552 J-0.003 K0.000 F200.000
G1 X15.292 Y15.690 Z-2.375 F200.000
G2 X15.667 Y15.852 Z-2.375 I0.400 J-0.412 K0.000 F200.000
G1 X17.060 Y15.854 Z-2.375 F200.000
G2 X17.531 Y15.427 Z-2.375 I-0.005 J-0.478 K0.000 F200.000
G1 X17.536 Y13.913 Z-2.375 F200.000
G2 X17.415 Y13.571 Z-2.375 I-0.550 J0.002 K0.000 F200.000
G1 X15.958 Y11.905 Z-2.375 F200.000
G1 X17.068 Y11.905 Z-2.375 F200.000
G2 X17.531 Y11.486 Z-2.375 I-0.004 J-0.470 K0.000 F200.000
G1 X17.536 Y10.036 Z-2.375 F200.000
G3 X17.545 Y10.026 Z-2.375 I0.007 J-0.003 K0.000 F200.000
G1 X19.129 Y10.026 Z-2.375 F200.000
G2 X19.639 Y9.560 Z-2.375 I-0.005 J-0.518 K0.000 F200.000
G1 X19.644 Y8.052 Z-2.375 F200.000
G3 X19.663 Y8.033 Z-2.375 I0.014 J-0.006 K0.000 F200.000
G1 X21.108 Y8.033 Z-2.375 F200.000
G2 X21.595 Y7.589 Z-2.375 I-0.005 J-0.494 K0.000 F200.000
G1 X21.599 Y2.193 Z-2.375 F200.000
G2 X21.122 Y1.672 Z-2.375 I-0.529 J0.005 K0.000 F200.000
G1 X19.632 Y1.667 Z-2.375 F200.000
G2 X19.149 Y2.106 Z-2.375 I0.005 J0.490 K0.000 F200.000
G1 X19.144 Y5.477 Z-2.375 F200.000
G3 X19.082 Y5.539 Z-2.375 I-0.052 J0.010 K0.000 F200.000
G1 X17.634 Y5.539 Z-2.375 F200.000
G3 X17.612 Y5.518 Z-2.375 I-0.006 J-0.015 K0.000 F200.000
G1 X17.612 Y2.129 Z-2.375 F200.000
G2 X17.403 Y1.608 Z-2.375 I-0.760 J0.003 K0.000 F200.000
G1 X15.719 Y-0.045 Z-2.375 F200.000
G2 X15.240 Y-0.249 Z-2.375 I-0.504 J0.518 K0.000 F200.000
G1 X11.998 Y-0.250 Z-2.375 F200.000
G2 X11.481 Y0.222 Z-2.375 I0.005 J0.524 K0.000 F200.000
G1 X11.477 Y1.684 Z-2.375 F200.000
G2 X11.911 Y2.162 Z-2.375 I0.485 J-0.005 K0.000 F200.000
G1 X15.259 Y2.167 Z-2.375 F200.000
G3 X15.310 Y2.218 Z-2.375 I0.010 J0.041 K0.000 F200.000
G1 X15.310 Y3.610 Z-2.375 F200.000
G3 X15.298 Y3.622 Z-2.375 I-0.009 J0.004 K0.000 F200.000
G1 X6.051 Y3.622 Z-2.375 F200.000
G3 X6.039 Y3.610 Z-2.375 I-0.004 J-0.009 K0.000 F200.000
G1 X6.039 Y2.218 Z-2.375 F200.000
G3 X6.090 Y2.167 Z-2.375 I0.041 J-0.010 K0.000 F200.000
G1 X9.390 Y2.167 Z-2.375 F200.000
G2 X9.866 Y1.735 Z-2.375 I-0.005 J-0.484 K0.000 F200.000
G1 X9.871 Y0.271 Z-2.375 F200.000
G2 X9.401 Y-0.243 Z-2.375 I-0.522 J0.005 K0.000 F200.000
G1 X6.133 Y-0.248 Z-2.375 F200.000
G2 X5.649 Y-0.059 Z-2.375 I0.003 J0.723 K0.000 F200.000
G1 X3.964 Y1.590 Z-2.375 F200.000
G2 X3.738 Y2.104 Z-2.375 I0.534 J0.541 K0.000 F200.000
G1 X3.737 Y5.518 Z-2.375 F200.000
G3 X3.716 Y5.539 Z-2.375 I-0.015 J0.006 K0.000 F200.000
G1 X2.266 Y5.539 Z-2.375 F200.000
G3 X2.204 Y5.477 Z-2.375 I-0.010 J-0.052 K0.000 F200.000
G1 X2.204 Y2.154 Z-2.375 F200.000
G2 X1.765 Y1.672 Z-2.375 I-0.490 J0.005 K0.000 F200.000
G1 X0.277 Y1.667 Z-2.375 F200.000
G2 X-0.245 Y2.145 Z-2.375 I0.005 J0.529 K0.000 F200.000
G1 X-0.250 Y7.541 Z-2.375 F200.000
G2 X0.193 Y8.028 Z-2.375 I0.494 J-0.005 K0.000 F200.000
G1 X1.684 Y8.033 Z-2.375 F200.000
G3 X1.704 Y8.052 Z-2.375 I0.006 J0.014 K0.000 F200.000
G1 X1.704 Y9.510 Z-2.375 F200.000
G2 X2.171 Y10.021 Z-2.375 I0.519 J-0.005 K0.000 F200.000
G1 X3.804 Y10.026 Z-2.375 F200.000
G3 X3.814 Y10.036 Z-2.375 I0.003 J0.007 K0.000 F200.000
G1 X3.814 Y11.437 Z-2.375 F200.000
G2 X4.232 Y11.900 Z-2.375 I0.470 J-0.004 K0.000 F200.000
G1 X5.392 Y11.904 Z-2.375 F200.000
G1 X3.949 Y13.554 Z-2.375 F200.000
G2 X3.815 Y13.890 Z-2.375 I0.415 J0.360 K0.000 F200.000
G1 X3.814 Y15.378 Z-2.375 F200.000
G2 X4.241 Y15.849 Z-2.375 I0.478 J-0.005 K0.000 F200.000
G1 X5.658 Y15.854 Z-2.375 F200.000
G2 X6.039 Y15.707 Z-2.375 I-0.003 J-0.574 K0.000 F200.000
G1 X7.984 Y13.799 Z-2.375 F200.000
G2 X8.146 Y13.433 Z-2.375 I-0.389 J-0.392 K0.000 F200.000
G1 X8.148 Y11.945 Z-2.375 F200.000
G3 X8.188 Y11.905 Z-2.375 I0.031 J-0.009 K0.000 F200.000
G1 X13.162 Y11.905 Z-2.375 F200.000
G3 X13.178 Y11.904 Z-2.375 I0.009 J0.031 K0.000 F200.000
G1 X13.178 Y11.904 Z-2.500 F60.000
G3 X13.202 Y11.945 Z-2.500 I-0.007 J0.032 K0.000 F200.000
G1 X13.202 Y13.409 Z-2.500 F200.000
G2 X13.349 Y13.781 Z-2.500 I0.552 J-0.003 K0.000 F200.000
G1 X15.292 Y15.690 Z-2.500 F200.000
G2 X15.667 Y15.852 Z-2.500 I0.400 J-0.412 K0.000 F200.000
G1 X17.060 Y15.854 Z-2.500 F200.000
G2 X17.531 Y15.427 Z-2.500 I-0.005 J-0.478 K0.000 F200.000
G1 X17.536 Y13.913 Z-2.500 F200.000
G2 X17.415 Y13.571 Z-2.500 I-0.550 J0.002 K0.000 F200.000
G1 X15.958 Y11.905 Z-2.500 F200.000
G1 X17.068 Y11.905 Z-2.500 F200.000
G2 X17.531 Y11.486 Z-2.500 I-0.004 J-0.470 K0.000 F200.000
G1 X17.536 Y10.036 Z-2.500 F200.000
G3 X17.545 Y10.026 Z-2.500 I0.007 J-0.003 K0.000 F200.000
G1 X19.129 Y10.026 Z-2.500 F200.000
G2 X19.639 Y9.560 Z-2.500 I-0.005 J-0.518 K0.000 F200.000
G1 X19.644 Y8.052 Z-2.500 F200.000
G3 X19.663 Y8.033 Z-2.500 I0.014 J-0.006 K0.000 F200.000
G1 X21.108 Y8.033 Z-2.500 F200.000
G2 X21.595 Y7.589 Z-2.500 I-0.005 J-0.494 K0.000 F200.000
G1 X21.599 Y2.193 Z-2.500 F200.000
G2 X21.122 Y1.672 Z-2.500 I-0.529 J0.005 K0.000 F200.000
G1 X19.632 Y1.667 Z-2.500 F200.000
G2 X19.149 Y2.106 Z-2.500 I0.005 J0.490 K0.000 F200.000
G1 X19.144 Y5.477 Z-2.500 F200.000
G3 X19.082 Y5.539 Z-2.500 I-0.052 J0.010 K0.000 F200.000
G1 X17.634 Y5.539 Z-2.500 F200.000
G3 X17.612 Y5.518 Z-2.500 I-0.006 J-0.015 K0.000 F200.000
G1 X17.612 Y2.129 Z-2.500 F200.000
G2 X17.403 Y1.608 Z-2.500 I-0.760 J0.003 K0.000 F200.000
G1 X15.719 Y-0.045 Z-2.500 F200.000
G2 X15.240 Y-0.249 Z-2.500 I-0.504 J0.518 K0.000 F200.000
G1 X11.998 Y-0.250 Z-2.500 F200.000
G2 X11.481 Y0.222 Z-2.500 I0.005 J0.524 K0.000 F200.000
G1 X11.477 Y1.684 Z-2.500 F200.000
G2 X11.911 Y2.162 Z-2.500 I0.485 J-0.005 K0.000 F200.000
G1 X15.259 Y2.167 Z-2.500 F200.000
G3 X15.310 Y2.218 Z-2.500 I0.010 J0.041 K0.000 F200.000
G1 X15.310 Y3.610 Z-2.500 F200.000
G3 X15.298 Y3.622 Z-2.500 I-0.009 J0.004 K0.000 F200.000
G1 X6.051 Y3.622 Z-2.500 F200.000
G3 X6.039 Y3.610 Z-2.500 I-0.004 J-0.009 K0.000 F200.000
G1 X6.039 Y2.218 Z-2.500 F200.000
G3 X6.090 Y2.167 Z-2.500 I0.041 J-0.010 K0.000 F200.000
G1 X9.390 Y2.167 Z-2.500 F200.000
G2 X9.866 Y1.735 Z-2.500 I-0.005 J-0.484 K0.000 F200.000
G1 X9.871 Y0.271 Z-2.500 F200.000
G2 X9.401 Y-0.243 Z-2.500 I-0.522 J0.005 K0.000 F200.000
G1 X6.133 Y-0.248 Z-2.500 F200.000
G2 X5.649 Y-0.059 Z-2.500 I0.003 J0.723 K0.000 F200.000
G1 X3.964 Y1.590 Z-2.500 F200.000
G2 X3.738 Y2.104 Z-2.500 I0.534 J0.541 K0.000 F200.000
G1 X3.737 Y5.518 Z-2.500 F200.000
G3 X3.716 Y5.539 Z-2.500 I-0.015 J0.006 K0.000 F200.000
G1 X2.266 Y5.539 Z-2.500 F200.000
G3 X2.204 Y5.477 Z-2.500 I-0.010 J-0.052 K0.000 F200.000
G1 X2.204 Y2.154 Z-2.500 F200.000
G2 X1.765 Y1.672 Z-2.500 I-0.490 J0.005 K0.000 F200.000
G1 X0.277 Y1.667 Z-2.500 F200.000
G2 X-0.245 Y2.145 Z-2.500 I0.005 J0.529 K0.000 F200.000
G1 X-0.250 Y7.541 Z-2.500 F200.000
G2 X0.193 Y8.028 Z-2.500 I0.494 J-0.005 K0.000 F200.000
G1 X1.684 Y8.033 Z-2.500 F200.000
G3 X1.704 Y8.052 Z-2.500 I0.006 J0.014 K0.000 F200.000
G1 X1.704 Y9.510 Z-2.500 F200.000
G2 X2.171 Y10.021 Z-2.500 I0.519 J-0.005 K0.000 F200.000
G1 X3.804 Y10.026 Z-2.500 F200.000
G3 X3.814 Y10.036 Z-2.500 I0.003 J0.007 K0.000 F200.000
G1 X3.814 Y11.437 Z-2.500 F200.000
G2 X4.232 Y11.900 Z-2.500 I0.470 J-0.004 K0.000 F200.000
G1 X5.392 Y11.904 Z-2.500 F200.000
G1 X3.949 Y13.554 Z-2.500 F200.000
G2 X3.815 Y13.890 Z-2.500 I0.415 J0.360 K0.000 F200.000
G1 X3.814 Y15.378 Z-2.500 F200.000
G2 X4.241 Y15.849 Z-2.500 I0.478 J-0.005 K0.000 F200.000
G1 X5.658 Y15.854 Z-2.500 F200.000
G2 X6.039 Y15.707 Z-2.500 I-0.003 J-0.574 K0.000 F200.000
G1 X7.984 Y13.799 Z-2.500 F200.000
G2 X8.146 Y13.433 Z-2.500 I-0.389 J-0.392 K0.000 F200.000
G1 X8.148 Y11.945 Z-2.500 F200.000
G3 X8.188 Y11.905 Z-2.500 I0.031 J-0.009 K0.000 F200.000
G1 X13.162 Y11.905 Z-2.500 F200.000
G3 X13.178 Y11.904 Z-2.500 I0.009 J0.031 K0.000 F200.000
G1 X13.178 Y11.904 Z-2.625 F60.000
G3 X13.202 Y11.945 Z-2.625 I-0.007 J0.032 K0.000 F200.000
G1 X13.202 Y13.409 Z-2.625 F200.000
G2 X13.349 Y13.781 Z-2.625 I0.552 J-0.003 K0.000 F200.000
G1 X15.292 Y15.690 Z-2.625 F200.000
G2 X15.667 Y15.852 Z-2.625 I0.400 J-0.412 K0.000 F200.000
G1 X17.060 Y15.854 Z-2.625 F200.000
G2 X17.531 Y15.427 Z-2.625 I-0.005 J-0.478 K0.000 F200.000
G1 X17.536 Y13.913 Z-2.625 F200.000
G2 X17.415 Y13.571 Z-2.625 I-0.550 J0.002 K0.000 F200.000
G1 X15.958 Y11.905 Z-2.625 F200.000
G1 X17.068 Y11.905 Z-2.625 F200.000
G2 X17.531 Y11.486 Z-2.625 I-0.004 J-0.470 K0.000 F200.000
G1 X17.536 Y10.036 Z-2.625 F200.000
G3 X17.545 Y10.026 Z-2.625 I0.007 J-0.003 K0.000 F200.000
G1 X19.129 Y10.026 Z-2.625 F200.000
G2 X19.639 Y9.560 Z-2.625 I-0.005 J-0.518 K0.000 F200.000
G1 X19.644 Y8.052 Z-2.625 F200.000
G3 X19.663 Y8.033 Z-2.625 I0.014 J-0.006 K0.000 F200.000
G1 X21.108 Y8.033 Z-2.625 F200.000
G2 X21.595 Y7.589 Z-2.625 I-0.005 J-0.494 K0.000 F200.000
G1 X21.599 Y2.193 Z-2.625 F200.000
G2 X21.122 Y1.672 Z-2.625 I-0.529 J0.005 K0.000 F200.000
G1 X19.632 Y1.667 Z-2.625 F200.000
G2 X19.149 Y2.106 Z-2.625 I0.005 J0.490 K0.000 F200.000
G1 X19.144 Y5.477 Z-2.625 F200.000
G3 X19.082 Y5.539 Z-2.625 I-0.052 J0.010 K0.000 F200.000
G1 X17.634 Y5.539 Z-2.625 F200.000
G3 X17.612 Y5.518 Z-2.625 I-0.006 J-0.015 K0.000 F200.000
G1 X17.612 Y2.129 Z-2.625 F200.000
G2 X17.403 Y1.608 Z-2.625 I-0.760 J0.003 K0.000 F200.000
G1 X15.719 Y-0.045 Z-2.625 F200.000
G2 X15.240 Y-0.249 Z-2.625 I-0.504 J0.518 K0.000 F200.000
G1 X11.998 Y-0.250 Z-2.625 F200.000
G2 X11.481 Y0.222 Z-2.625 I0.005 J0.524 K0.000 F200.000
G1 X11.477 Y1.684 Z-2.625 F200.000
G2 X11.911 Y2.162 Z-2.625 I0.485 J-0.005 K0.000 F200.000
G1 X15.259 Y2.167 Z-2.625 F200.000
G3 X15.310 Y2.218 Z-2.625 I0.010 J0.041 K0.000 F200.000
G1 X15.310 Y3.610 Z-2.625 F200.000
G3 X15.298 Y3.622 Z-2.625 I-0.009 J0.004 K0.000 F200.000
G1 X6.051 Y3.622 Z-2.625 F200.000
G3 X6.039 Y3.610 Z-2.625 I-0.004 J-0.009 K0.000 F200.000
G1 X6.039 Y2.218 Z-2.625 F200.000
