(Exported by FreeCAD)
(Post Processor: script_module)
(Output Time:2024-08-18 14:15:16.963149)
(Begin preamble)
G17 G90
G21
(Begin operation: TC: 0.5mm_droite001)
(Path: TC: 0.5mm_droite001)
(TC: 0.5mm_droite001)
(Begin toolchange)
( M6 T2 )
M3 S24000
(Finish operation: TC: 0.5mm_droite001)
(Begin operation: Fixture)
(Path: Fixture)
G54
(Finish operation: Fixture)
(Begin operation: Profile)
(Path: Profile)
(Profile)
(Compensated Tool Path. Diameter: 0.5)
G0 Z5.000
G0 X7.233 Y9.124
G0 Z3.000
G1 X7.233 Y9.124 Z-0.125 F60.000
G3 X7.213 Y9.128 Z-0.125 I-0.013 J-0.013 K0.000 F200.000
G1 X6.075 Y9.128 Z-0.125 F200.000
G3 X6.051 Y9.103 Z-0.125 I-0.007 J-0.017 K0.000 F200.000
G1 X6.051 Y7.780 Z-0.125 F200.000
G3 X6.075 Y7.755 Z-0.125 I0.017 J-0.007 K0.000 F200.000
G1 X7.213 Y7.755 Z-0.125 F200.000
G3 X7.238 Y7.780 Z-0.125 I0.007 J0.017 K0.000 F200.000
G1 X7.238 Y9.103 Z-0.125 F200.000
G3 X7.233 Y9.124 Z-0.125 I-0.017 J0.007 K0.000 F200.000
G1 X7.233 Y9.124 Z-0.250 F60.000
G3 X7.213 Y9.128 Z-0.250 I-0.013 J-0.013 K0.000 F200.000
G1 X6.075 Y9.128 Z-0.250 F200.000
G3 X6.051 Y9.103 Z-0.250 I-0.007 J-0.017 K0.000 F200.000
G1 X6.051 Y7.780 Z-0.250 F200.000
G3 X6.075 Y7.755 Z-0.250 I0.017 J-0.007 K0.000 F200.000
G1 X7.213 Y7.755 Z-0.250 F200.000
G3 X7.238 Y7.780 Z-0.250 I0.007 J0.017 K0.000 F200.000
G1 X7.238 Y9.103 Z-0.250 F200.000
G3 X7.233 Y9.124 Z-0.250 I-0.017 J0.007 K0.000 F200.000
G1 X7.233 Y9.124 Z-0.375 F60.000
G3 X7.213 Y9.128 Z-0.375 I-0.013 J-0.013 K0.000 F200.000
G1 X6.075 Y9.128 Z-0.375 F200.000
G3 X6.051 Y9.103 Z-0.375 I-0.007 J-0.017 K0.000 F200.000
G1 X6.051 Y7.780 Z-0.375 F200.000
G3 X6.075 Y7.755 Z-0.375 I0.017 J-0.007 K0.000 F200.000
G1 X7.213 Y7.755 Z-0.375 F200.000
G3 X7.238 Y7.780 Z-0.375 I0.007 J0.017 K0.000 F200.000
G1 X7.238 Y9.103 Z-0.375 F200.000
G3 X7.233 Y9.124 Z-0.375 I-0.017 J0.007 K0.000 F200.000
G1 X7.233 Y9.124 Z-0.500 F60.000
G3 X7.213 Y9.128 Z-0.500 I-0.013 J-0.013 K0.000 F200.000
G1 X6.075 Y9.128 Z-0.500 F200.000
G3 X6.051 Y9.103 Z-0.500 I-0.007 J-0.017 K0.000 F200.000
G1 X6.051 Y7.780 Z-0.500 F200.000
G3 X6.075 Y7.755 Z-0.500 I0.017 J-0.007 K0.000 F200.000
G1 X7.213 Y7.755 Z-0.500 F200.000
G3 X7.238 Y7.780 Z-0.500 I0.007 J0.017 K0.000 F200.000
G1 X7.238 Y9.103 Z-0.500 F200.000
G3 X7.233 Y9.124 Z-0.500 I-0.017 J0.007 K0.000 F200.000
G1 X7.233 Y9.124 Z-0.625 F60.000
G3 X7.213 Y9.128 Z-0.625 I-0.013 J-0.013 K0.000 F200.000
G1 X6.075 Y9.128 Z-0.625 F200.000
G3 X6.051 Y9.103 Z-0.625 I-0.007 J-0.017 K0.000 F200.000
G1 X6.051 Y7.780 Z-0.625 F200.000
G3 X6.075 Y7.755 Z-0.625 I0.017 J-0.007 K0.000 F200.000
G1 X7.213 Y7.755 Z-0.625 F200.000
G3 X7.238 Y7.780 Z-0.625 I0.007 J0.017 K0.000 F200.000
G1 X7.238 Y9.103 Z-0.625 F200.000
G3 X7.233 Y9.124 Z-0.625 I-0.017 J0.007 K0.000 F200.000
G1 X7.233 Y9.124 Z-0.750 F60.000
G3 X7.213 Y9.128 Z-0.750 I-0.013 J-0.013 K0.000 F200.000
G1 X6.075 Y9.128 Z-0.750 F200.000
G3 X6.051 Y9.103 Z-0.750 I-0.007 J-0.017 K0.000 F200.000
G1 X6.051 Y7.780 Z-0.750 F200.000
G3 X6.075 Y7.755 Z-0.750 I0.017 J-0.007 K0.000 F200.000
G1 X7.213 Y7.755 Z-0.750 F200.000
G3 X7.238 Y7.780 Z-0.750 I0.007 J0.017 K0.000 F200.000
G1 X7.238 Y9.103 Z-0.750 F200.000
G3 X7.233 Y9.124 Z-0.750 I-0.017 J0.007 K0.000 F200.000
G1 X7.233 Y9.124 Z-0.875 F60.000
G3 X7.213 Y9.128 Z-0.875 I-0.013 J-0.013 K0.000 F200.000
G1 X6.075 Y9.128 Z-0.875 F200.000
G3 X6.051 Y9.103 Z-0.875 I-0.007 J-0.017 K0.000 F200.000
G1 X6.051 Y7.780 Z-0.875 F200.000
G3 X6.075 Y7.755 Z-0.875 I0.017 J-0.007 K0.000 F200.000
G1 X7.213 Y7.755 Z-0.875 F200.000
G3 X7.238 Y7.780 Z-0.875 I0.007 J0.017 K0.000 F200.000
G1 X7.238 Y9.103 Z-0.875 F200.000
G3 X7.233 Y9.124 Z-0.875 I-0.017 J0.007 K0.000 F200.000
G1 X7.233 Y9.124 Z-1.000 F60.000
G3 X7.213 Y9.128 Z-1.000 I-0.013 J-0.013 K0.000 F200.000
G1 X6.075 Y9.128 Z-1.000 F200.000
G3 X6.051 Y9.103 Z-1.000 I-0.007 J-0.017 K0.000 F200.000
G1 X6.051 Y7.780 Z-1.000 F200.000
G3 X6.075 Y7.755 Z-1.000 I0.017 J-0.007 K0.000 F200.000
G1 X7.213 Y7.755 Z-1.000 F200.000
G3 X7.238 Y7.780 Z-1.000 I0.007 J0.017 K0.000 F200.000
G1 X7.238 Y9.103 Z-1.000 F200.000
G3 X7.233 Y9.124 Z-1.000 I-0.017 J0.007 K0.000 F200.000
G1 X7.233 Y9.124 Z-1.125 F60.000
G3 X7.213 Y9.128 Z-1.125 I-0.013 J-0.013 K0.000 F200.000
G1 X6.075 Y9.128 Z-1.125 F200.000
G3 X6.051 Y9.103 Z-1.125 I-0.007 J-0.017 K0.000 F200.000
G1 X6.051 Y7.780 Z-1.125 F200.000
G3 X6.075 Y7.755 Z-1.125 I0.017 J-0.007 K0.000 F200.000
G1 X7.213 Y7.755 Z-1.125 F200.000
G3 X7.238 Y7.780 Z-1.125 I0.007 J0.017 K0.000 F200.000
G1 X7.238 Y9.103 Z-1.125 F200.000
G3 X7.233 Y9.124 Z-1.125 I-0.017 J0.007 K0.000 F200.000
G1 X7.233 Y9.124 Z-1.250 F60.000
G3 X7.213 Y9.128 Z-1.250 I-0.013 J-0.013 K0.000 F200.000
G1 X6.075 Y9.128 Z-1.250 F200.000
G3 X6.051 Y9.103 Z-1.250 I-0.007 J-0.017 K0.000 F200.000
G1 X6.051 Y7.780 Z-1.250 F200.000
G3 X6.075 Y7.755 Z-1.250 I0.017 J-0.007 K0.000 F200.000
G1 X7.213 Y7.755 Z-1.250 F200.000
G3 X7.238 Y7.780 Z-1.250 I0.007 J0.017 K0.000 F200.000
G1 X7.238 Y9.103 Z-1.250 F200.000
G3 X7.233 Y9.124 Z-1.250 I-0.017 J0.007 K0.000 F200.000
G1 X7.233 Y9.124 Z-1.375 F60.000
G3 X7.213 Y9.128 Z-1.375 I-0.013 J-0.013 K0.000 F200.000
G1 X6.075 Y9.128 Z-1.375 F200.000
G3 X6.051 Y9.103 Z-1.375 I-0.007 J-0.017 K0.000 F200.000
G1 X6.051 Y7.780 Z-1.375 F200.000
G3 X6.075 Y7.755 Z-1.375 I0.017 J-0.007 K0.000 F200.000
G1 X7.213 Y7.755 Z-1.375 F200.000
G3 X7.238 Y7.780 Z-1.375 I0.007 J0.017 K0.000 F200.000
G1 X7.238 Y9.103 Z-1.375 F200.000
G3 X7.233 Y9.124 Z-1.375 I-0.017 J0.007 K0.000 F200.000
G1 X7.233 Y9.124 Z-1.500 F60.000
G3 X7.213 Y9.128 Z-1.500 I-0.013 J-0.013 K0.000 F200.000
G1 X6.075 Y9.128 Z-1.500 F200.000
G3 X6.051 Y9.103 Z-1.500 I-0.007 J-0.017 K0.000 F200.000
G1 X6.051 Y7.780 Z-1.500 F200.000
G3 X6.075 Y7.755 Z-1.500 I0.017 J-0.007 K0.000 F200.000
G1 X7.213 Y7.755 Z-1.500 F200.000
G3 X7.238 Y7.780 Z-1.500 I0.007 J0.017 K0.000 F200.000
G1 X7.238 Y9.103 Z-1.500 F200.000
G3 X7.233 Y9.124 Z-1.500 I-0.017 J0.007 K0.000 F200.000
G1 X7.233 Y9.124 Z-1.625 F60.000
G3 X7.213 Y9.128 Z-1.625 I-0.013 J-0.013 K0.000 F200.000
G1 X6.075 Y9.128 Z-1.625 F200.000
G3 X6.051 Y9.103 Z-1.625 I-0.007 J-0.017 K0.000 F200.000
G1 X6.051 Y7.780 Z-1.625 F200.000
G3 X6.075 Y7.755 Z-1.625 I0.017 J-0.007 K0.000 F200.000
G1 X7.213 Y7.755 Z-1.625 F200.000
G3 X7.238 Y7.780 Z-1.625 I0.007 J0.017 K0.000 F200.000
G1 X7.238 Y9.103 Z-1.625 F200.000
G3 X7.233 Y9.124 Z-1.625 I-0.017 J0.007 K0.000 F200.000
G1 X7.233 Y9.124 Z-1.750 F60.000
G3 X7.213 Y9.128 Z-1.750 I-0.013 J-0.013 K0.000 F200.000
G1 X6.075 Y9.128 Z-1.750 F200.000
G3 X6.051 Y9.103 Z-1.750 I-0.007 J-0.017 K0.000 F200.000
G1 X6.051 Y7.780 Z-1.750 F200.000
G3 X6.075 Y7.755 Z-1.750 I0.017 J-0.007 K0.000 F200.000
G1 X7.213 Y7.755 Z-1.750 F200.000
G3 X7.238 Y7.780 Z-1.750 I0.007 J0.017 K0.000 F200.000
G1 X7.238 Y9.103 Z-1.750 F200.000
G3 X7.233 Y9.124 Z-1.750 I-0.017 J0.007 K0.000 F200.000
G1 X7.233 Y9.124 Z-1.875 F60.000
G3 X7.213 Y9.128 Z-1.875 I-0.013 J-0.013 K0.000 F200.000
G1 X6.075 Y9.128 Z-1.875 F200.000
G3 X6.051 Y9.103 Z-1.875 I-0.007 J-0.017 K0.000 F200.000
G1 X6.051 Y7.780 Z-1.875 F200.000
G3 X6.075 Y7.755 Z-1.875 I0.017 J-0.007 K0.000 F200.000
G1 X7.213 Y7.755 Z-1.875 F200.000
G3 X7.238 Y7.780 Z-1.875 I0.007 J0.017 K0.000 F200.000
G1 X7.238 Y9.103 Z-1.875 F200.000
G3 X7.233 Y9.124 Z-1.875 I-0.017 J0.007 K0.000 F200.000
G1 X7.233 Y9.124 Z-2.000 F60.000
G3 X7.213 Y9.128 Z-2.000 I-0.013 J-0.013 K0.000 F200.000
G1 X6.075 Y9.128 Z-2.000 F200.000
G3 X6.051 Y9.103 Z-2.000 I-0.007 J-0.017 K0.000 F200.000
G1 X6.051 Y7.780 Z-2.000 F200.000
G3 X6.075 Y7.755 Z-2.000 I0.017 J-0.007 K0.000 F200.000
G1 X7.213 Y7.755 Z-2.000 F200.000
G3 X7.238 Y7.780 Z-2.000 I0.007 J0.017 K0.000 F200.000
G1 X7.238 Y9.103 Z-2.000 F200.000
G3 X7.233 Y9.124 Z-2.000 I-0.017 J0.007 K0.000 F200.000
G1 X7.233 Y9.124 Z-2.125 F60.000
G3 X7.213 Y9.128 Z-2.125 I-0.013 J-0.013 K0.000 F200.000
G1 X6.075 Y9.128 Z-2.125 F200.000
G3 X6.051 Y9.103 Z-2.125 I-0.007 J-0.017 K0.000 F200.000
G1 X6.051 Y7.780 Z-2.125 F200.000
G3 X6.075 Y7.755 Z-2.125 I0.017 J-0.007 K0.000 F200.000
G1 X7.213 Y7.755 Z-2.125 F200.000
G3 X7.238 Y7.780 Z-2.125 I0.007 J0.017 K0.000 F200.000
G1 X7.238 Y9.103 Z-2.125 F200.000
G3 X7.233 Y9.124 Z-2.125 I-0.017 J0.007 K0.000 F200.000
G1 X7.233 Y9.124 Z-2.250 F60.000
G3 X7.213 Y9.128 Z-2.250 I-0.013 J-0.013 K0.000 F200.000
G1 X6.075 Y9.128 Z-2.250 F200.000
G3 X6.051 Y9.103 Z-2.250 I-0.007 J-0.017 K0.000 F200.000
G1 X6.051 Y7.780 Z-2.250 F200.000
G3 X6.075 Y7.755 Z-2.250 I0.017 J-0.007 K0.000 F200.000
G1 X7.213 Y7.755 Z-2.250 F200.000
G3 X7.238 Y7.780 Z-2.250 I0.007 J0.017 K0.000 F200.000
G1 X7.238 Y9.103 Z-2.250 F200.000
G3 X7.233 Y9.124 Z-2.250 I-0.017 J0.007 K0.000 F200.000
G1 X7.233 Y9.124 Z-2.375 F60.000
G3 X7.213 Y9.128 Z-2.375 I-0.013 J-0.013 K0.000 F200.000
G1 X6.075 Y9.128 Z-2.375 F200.000
G3 X6.051 Y9.103 Z-2.375 I-0.007 J-0.017 K0.000 F200.000
G1 X6.051 Y7.780 Z-2.375 F200.000
G3 X6.075 Y7.755 Z-2.375 I0.017 J-0.007 K0.000 F200.000
G1 X7.213 Y7.755 Z-2.375 F200.000
G3 X7.238 Y7.780 Z-2.375 I0.007 J0.017 K0.000 F200.000
G1 X7.238 Y9.103 Z-2.375 F200.000
G3 X7.233 Y9.124 Z-2.375 I-0.017 J0.007 K0.000 F200.000
G1 X7.233 Y9.124 Z-2.500 F60.000
G3 X7.213 Y9.128 Z-2.500 I-0.013 J-0.013 K0.000 F200.000
G1 X6.075 Y9.128 Z-2.500 F200.000
G3 X6.051 Y9.103 Z-2.500 I-0.007 J-0.017 K0.000 F200.000
G1 X6.051 Y7.780 Z-2.500 F200.000
G3 X6.075 Y7.755 Z-2.500 I0.017 J-0.007 K0.000 F200.000
G1 X7.213 Y7.755 Z-2.500 F200.000
G3 X7.238 Y7.780 Z-2.500 I0.007 J0.017 K0.000 F200.000
G1 X7.238 Y9.103 Z-2.500 F200.000
G3 X7.233 Y9.124 Z-2.500 I-0.017 J0.007 K0.000 F200.000
G0 Z5.000
G0 Z5.000
G0 X7.233 Y9.124
G0 X15.262 Y9.103
G0 X15.262 Y9.103 Z3.000
G1 X15.262 Y9.103 Z-0.125 F60.000
G1 X15.262 Y7.780 Z-0.125 F200.000
G3 X15.287 Y7.755 Z-0.125 I0.017 J-0.007 K0.000 F200.000
G1 X16.425 Y7.755 Z-0.125 F200.000
G3 X16.449 Y7.780 Z-0.125 I0.007 J0.017 K0.000 F200.000
G1 X16.449 Y9.103 Z-0.125 F200.000
G3 X16.425 Y9.128 Z-0.125 I-0.017 J0.007 K0.000 F200.000
G1 X15.287 Y9.128 Z-0.125 F200.000
G3 X15.262 Y9.103 Z-0.125 I-0.007 J-0.017 K0.000 F200.000
G1 X15.262 Y9.103 Z-0.250 F60.000
G1 X15.262 Y7.780 Z-0.250 F200.000
G3 X15.287 Y7.755 Z-0.250 I0.017 J-0.007 K0.000 F200.000
G1 X16.425 Y7.755 Z-0.250 F200.000
G3 X16.449 Y7.780 Z-0.250 I0.007 J0.017 K0.000 F200.000
G1 X16.449 Y9.103 Z-0.250 F200.000
G3 X16.425 Y9.128 Z-0.250 I-0.017 J0.007 K0.000 F200.000
G1 X15.287 Y9.128 Z-0.250 F200.000
G3 X15.262 Y9.103 Z-0.250 I-0.007 J-0.017 K0.000 F200.000
G1 X15.262 Y9.103 Z-0.375 F60.000
G1 X15.262 Y7.780 Z-0.375 F200.000
G3 X15.287 Y7.755 Z-0.375 I0.017 J-0.007 K0.000 F200.000
G1 X16.425 Y7.755 Z-0.375 F200.000
G3 X16.449 Y7.780 Z-0.375 I0.007 J0.017 K0.000 F200.000
G1 X16.449 Y9.103 Z-0.375 F200.000
G3 X16.425 Y9.128 Z-0.375 I-0.017 J0.007 K0.000 F200.000
G1 X15.287 Y9.128 Z-0.375 F200.000
G3 X15.262 Y9.103 Z-0.375 I-0.007 J-0.017 K0.000 F200.000
G1 X15.262 Y9.103 Z-0.500 F60.000
G1 X15.262 Y7.780 Z-0.500 F200.000
G3 X15.287 Y7.755 Z-0.500 I0.017 J-0.007 K0.000 F200.000
G1 X16.425 Y7.755 Z-0.500 F200.000
G3 X16.449 Y7.780 Z-0.500 I0.007 J0.017 K0.000 F200.000
G1 X16.449 Y9.103 Z-0.500 F200.000
G3 X16.425 Y9.128 Z-0.500 I-0.017 J0.007 K0.000 F200.000
G1 X15.287 Y9.128 Z-0.500 F200.000
G3 X15.262 Y9.103 Z-0.500 I-0.007 J-0.017 K0.000 F200.000
G1 X15.262 Y9.103 Z-0.625 F60.000
G1 X15.262 Y7.780 Z-0.625 F200.000
G3 X15.287 Y7.755 Z-0.625 I0.017 J-0.007 K0.000 F200.000
G1 X16.425 Y7.755 Z-0.625 F200.000
G3 X16.449 Y7.780 Z-0.625 I0.007 J0.017 K0.000 F200.000
G1 X16.449 Y9.103 Z-0.625 F200.000
G3 X16.425 Y9.128 Z-0.625 I-0.017 J0.007 K0.000 F200.000
G1 X15.287 Y9.128 Z-0.625 F200.000
G3 X15.262 Y9.103 Z-0.625 I-0.007 J-0.017 K0.000 F200.000
G1 X15.262 Y9.103 Z-0.750 F60.000
G1 X15.262 Y7.780 Z-0.750 F200.000
G3 X15.287 Y7.755 Z-0.750 I0.017 J-0.007 K0.000 F200.000
G1 X16.425 Y7.755 Z-0.750 F200.000
G3 X16.449 Y7.780 Z-0.750 I0.007 J0.017 K0.000 F200.000
G1 X16.449 Y9.103 Z-0.750 F200.000
G3 X16.425 Y9.128 Z-0.750 I-0.017 J0.007 K0.000 F200.000
G1 X15.287 Y9.128 Z-0.750 F200.000
G3 X15.262 Y9.103 Z-0.750 I-0.007 J-0.017 K0.000 F200.000
G1 X15.262 Y9.103 Z-0.875 F60.000
G1 X15.262 Y7.780 Z-0.875 F200.000
G3 X15.287 Y7.755 Z-0.875 I0.017 J-0.007 K0.000 F200.000
G1 X16.425 Y7.755 Z-0.875 F200.000
G3 X16.449 Y7.780 Z-0.875 I0.007 J0.017 K0.000 F200.000
G1 X16.449 Y9.103 Z-0.875 F200.000
G3 X16.425 Y9.128 Z-0.875 I-0.017 J0.007 K0.000 F200.000
G1 X15.287 Y9.128 Z-0.875 F200.000
G3 X15.262 Y9.103 Z-0.875 I-0.007 J-0.017 K0.000 F200.000
G1 X15.262 Y9.103 Z-1.000 F60.000
G1 X15.262 Y7.780 Z-1.000 F200.000
G3 X15.287 Y7.755 Z-1.000 I0.017 J-0.007 K0.000 F200.000
G1 X16.425 Y7.755 Z-1.000 F200.000
G3 X16.449 Y7.780 Z-1.000 I0.007 J0.017 K0.000 F200.000
G1 X16.449 Y9.103 Z-1.000 F200.000
G3 X16.425 Y9.128 Z-1.000 I-0.017 J0.007 K0.000 F200.000
G1 X15.287 Y9.128 Z-1.000 F200.000
G3 X15.262 Y9.103 Z-1.000 I-0.007 J-0.017 K0.000 F200.000
G1 X15.262 Y9.103 Z-1.125 F60.000
G1 X15.262 Y7.780 Z-1.125 F200.000
G3 X15.287 Y7.755 Z-1.125 I0.017 J-0.007 K0.000 F200.000
G1 X16.425 Y7.755 Z-1.125 F200.000
G3 X16.449 Y7.780 Z-1.125 I0.007 J0.017 K0.000 F200.000
G1 X16.449 Y9.103 Z-1.125 F200.000
G3 X16.425 Y9.128 Z-1.125 I-0.017 J0.007 K0.000 F200.000
G1 X15.287 Y9.128 Z-1.125 F200.000
G3 X15.262 Y9.103 Z-1.125 I-0.007 J-0.017 K0.000 F200.000
G1 X15.262 Y9.103 Z-1.250 F60.000
G1 X15.262 Y7.780 Z-1.250 F200.000
G3 X15.287 Y7.755 Z-1.250 I0.017 J-0.007 K0.000 F200.000
G1 X16.425 Y7.755 Z-1.250 F200.000
G3 X16.449 Y7.780 Z-1.250 I0.007 J0.017 K0.000 F200.000
G1 X16.449 Y9.103 Z-1.250 F200.000
G3 X16.425 Y9.128 Z-1.250 I-0.017 J0.007 K0.000 F200.000
G1 X15.287 Y9.128 Z-1.250 F200.000
G3 X15.262 Y9.103 Z-1.250 I-0.007 J-0.017 K0.000 F200.000
G1 X15.262 Y9.103 Z-1.375 F60.000
G1 X15.262 Y7.780 Z-1.375 F200.000
G3 X15.287 Y7.755 Z-1.375 I0.017 J-0.007 K0.000 F200.000
G1 X16.425 Y7.755 Z-1.375 F200.000
G3 X16.449 Y7.780 Z-1.375 I0.007 J0.017 K0.000 F200.000
G1 X16.449 Y9.103 Z-1.375 F200.000
G3 X16.425 Y9.128 Z-1.375 I-0.017 J0.007 K0.000 F200.000
G1 X15.287 Y9.128 Z-1.375 F200.000
G3 X15.262 Y9.103 Z-1.375 I-0.007 J-0.017 K0.000 F200.000
G1 X15.262 Y9.103 Z-1.500 F60.000
G1 X15.262 Y7.780 Z-1.500 F200.000
G3 X15.287 Y7.755 Z-1.500 I0.017 J-0.007 K0.000 F200.000
G1 X16.425 Y7.755 Z-1.500 F200.000
G3 X16.449 Y7.780 Z-1.500 I0.007 J0.017 K0.000 F200.000
G1 X16.449 Y9.103 Z-1.500 F200.000
G3 X16.425 Y9.128 Z-1.500 I-0.017 J0.007 K0.000 F200.000
G1 X15.287 Y9.128 Z-1.500 F200.000
G3 X15.262 Y9.103 Z-1.500 I-0.007 J-0.017 K0.000 F200.000
G1 X15.262 Y9.103 Z-1.625 F60.000
G1 X15.262 Y7.780 Z-1.625 F200.000
G3 X15.287 Y7.755 Z-1.625 I0.017 J-0.007 K0.000 F200.000
G1 X16.425 Y7.755 Z-1.625 F200.000
G3 X16.449 Y7.780 Z-1.625 I0.007 J0.017 K0.000 F200.000
G1 X16.449 Y9.103 Z-1.625 F200.000
G3 X16.425 Y9.128 Z-1.625 I-0.017 J0.007 K0.000 F200.000
G1 X15.287 Y9.128 Z-1.625 F200.000
G3 X15.262 Y9.103 Z-1.625 I-0.007 J-0.017 K0.000 F200.000
G1 X15.262 Y9.103 Z-1.750 F60.000
G1 X15.262 Y7.780 Z-1.750 F200.000
G3 X15.287 Y7.755 Z-1.750 I0.017 J-0.007 K0.000 F200.000
G1 X16.425 Y7.755 Z-1.750 F200.000
G3 X16.449 Y7.780 Z-1.750 I0.007 J0.017 K0.000 F200.000
G1 X16.449 Y9.103 Z-1.750 F200.000
G3 X16.425 Y9.128 Z-1.750 I-0.017 J0.007 K0.000 F200.000
G1 X15.287 Y9.128 Z-1.750 F200.000
G3 X15.262 Y9.103 Z-1.750 I-0.007 J-0.017 K0.000 F200.000
G1 X15.262 Y9.103 Z-1.875 F60.000
G1 X15.262 Y7.780 Z-1.875 F200.000
G3 X15.287 Y7.755 Z-1.875 I0.017 J-0.007 K0.000 F200.000
G1 X16.425 Y7.755 Z-1.875 F200.000
G3 X16.449 Y7.780 Z-1.875 I0.007 J0.017 K0.000 F200.000
G1 X16.449 Y9.103 Z-1.875 F200.000
G3 X16.425 Y9.128 Z-1.875 I-0.017 J0.007 K0.000 F200.000
G1 X15.287 Y9.128 Z-1.875 F200.000
G3 X15.262 Y9.103 Z-1.875 I-0.007 J-0.017 K0.000 F200.000
G1 X15.262 Y9.103 Z-2.000 F60.000
G1 X15.262 Y7.780 Z-2.000 F200.000
G3 X15.287 Y7.755 Z-2.000 I0.017 J-0.007 K0.000 F200.000
G1 X16.425 Y7.755 Z-2.000 F200.000
G3 X16.449 Y7.780 Z-2.000 I0.007 J0.017 K0.000 F200.000
G1 X16.449 Y9.103 Z-2.000 F200.000
G3 X16.425 Y9.128 Z-2.000 I-0.017 J0.007 K0.000 F200.000
G1 X15.287 Y9.128 Z-2.000 F200.000
G3 X15.262 Y9.103 Z-2.000 I-0.007 J-0.017 K0.000 F200.000
G1 X15.262 Y9.103 Z-2.125 F60.000
G1 X15.262 Y7.780 Z-2.125 F200.000
G3 X15.287 Y7.755 Z-2.125 I0.017 J-0.007 K0.000 F200.000
G1 X16.425 Y7.755 Z-2.125 F200.000
G3 X16.449 Y7.780 Z-2.125 I0.007 J0.017 K0.000 F200.000
G1 X16.449 Y9.103 Z-2.125 F200.000
G3 X16.425 Y9.128 Z-2.125 I-0.017 J0.007 K0.000 F200.000
G1 X15.287 Y9.128 Z-2.125 F200.000
G3 X15.262 Y9.103 Z-2.125 I-0.007 J-0.017 K0.000 F200.000
G1 X15.262 Y9.103 Z-2.250 F60.000
G1 X15.262 Y7.780 Z-2.250 F200.000
G3 X15.287 Y7.755 Z-2.250 I0.017 J-0.007 K0.000 F200.000
G1 X16.425 Y7.755 Z-2.250 F200.000
G3 X16.449 Y7.780 Z-2.250 I0.007 J0.017 K0.000 F200.000
G1 X16.449 Y9.103 Z-2.250 F200.000
G3 X16.425 Y9.128 Z-2.250 I-0.017 J0.007 K0.000 F200.000
G1 X15.287 Y9.128 Z-2.250 F200.000
G3 X15.262 Y9.103 Z-2.250 I-0.007 J-0.017 K0.000 F200.000
G1 X15.262 Y9.103 Z-2.375 F60.000
G1 X15.262 Y7.780 Z-2.375 F200.000
G3 X15.287 Y7.755 Z-2.375 I0.017 J-0.007 K0.000 F200.000
G1 X16.425 Y7.755 Z-2.375 F200.000
G3 X16.449 Y7.780 Z-2.375 I0.007 J0.017 K0.000 F200.000
G1 X16.449 Y9.103 Z-2.375 F200.000
G3 X16.425 Y9.128 Z-2.375 I-0.017 J0.007 K0.000 F200.000
G1 X15.287 Y9.128 Z-2.375 F200.000
G3 X15.262 Y9.103 Z-2.375 I-0.007 J-0.017 K0.000 F200.000
G1 X15.262 Y9.103 Z-2.500 F60.000
G1 X15.262 Y7.780 Z-2.500 F200.000
G3 X15.287 Y7.755 Z-2.500 I0.017 J-0.007 K0.000 F200.000
G1 X16.425 Y7.755 Z-2.500 F200.000
G3 X16.449 Y7.780 Z-2.500 I0.007 J0.017 K0.000 F200.000
G1 X16.449 Y9.103 Z-2.500 F200.000
G3 X16.425 Y9.128 Z-2.500 I-0.017 J0.007 K0.000 F200.000
G1 X15.287 Y9.128 Z-2.500 F200.000
G3 X15.262 Y9.103 Z-2.500 I-0.007 J-0.017 K0.000 F200.000
G0 Z5.000
G0 Z5.000
G0 X15.262 Y9.103
G0 X14.749 Y11.405
G0 X14.749 Y11.405 Z3.000
G1 X14.749 Y11.405 Z-0.125 F60.000
G3 X14.762 Y11.431 Z-0.125 I-0.004 J0.018 K0.000 F200.000
G1 X14.762 Y12.882 Z-0.125 F200.000
G2 X15.214 Y13.377 Z-0.125 I0.503 J-0.005 K0.000 F200.000
G1 X16.653 Y13.382 Z-0.125 F200.000
G3 X16.678 Y13.406 Z-0.125 I0.007 J0.018 K0.000 F200.000
G1 X16.678 Y14.750 Z-0.125 F200.000
G2 X17.130 Y15.245 Z-0.125 I0.503 J-0.005 K0.000 F200.000
G1 X18.418 Y15.250 Z-0.125 F200.000
G2 X18.913 Y14.799 Z-0.125 I-0.005 J-0.503 K0.000 F200.000
G1 X18.918 Y13.255 Z-0.125 F200.000
G2 X18.790 Y12.922 Z-0.125 I-0.504 J0.003 K0.000 F200.000
G1 X17.318 Y11.427 Z-0.125 F200.000
G1 X17.308 Y11.411 Z-0.125 F200.000
G1 X17.326 Y11.406 Z-0.125 F200.000
G1 X18.500 Y11.406 Z-0.125 F200.000
G2 X18.995 Y10.955 Z-0.125 I-0.005 J-0.503 K0.000 F200.000
G1 X19.000 Y9.654 Z-0.125 F200.000
G3 X19.025 Y9.629 Z-0.125 I0.018 J-0.007 K0.000 F200.000
G1 X20.382 Y9.629 Z-0.125 F200.000
G3 X20.406 Y9.653 Z-0.125 I0.007 J0.017 K0.000 F200.000
G1 X20.406 Y12.875 Z-0.125 F200.000
G2 X20.857 Y13.370 Z-0.125 I0.503 J-0.005 K0.000 F200.000
G1 X22.250 Y13.375 Z-0.125 F200.000
G2 X22.745 Y12.924 Z-0.125 I-0.005 J-0.503 K0.000 F200.000
G1 X22.750 Y5.906 Z-0.125 F200.000
G2 X22.299 Y5.411 Z-0.125 I-0.503 J0.005 K0.000 F200.000
G1 X20.900 Y5.406 Z-0.125 F200.000
G3 X20.875 Y5.382 Z-0.125 I-0.007 J-0.018 K0.000 F200.000
G1 X20.875 Y4.104 Z-0.125 F200.000
G2 X20.424 Y3.609 Z-0.125 I-0.503 J0.005 K0.000 F200.000
G1 X19.324 Y3.604 Z-0.125 F200.000
G1 X19.305 Y3.600 Z-0.125 F200.000
G1 X19.315 Y3.583 Z-0.125 F200.000
G1 X20.819 Y2.079 Z-0.125 F200.000
G2 X20.965 Y1.750 Z-0.125 I-0.358 J-0.355 K0.000 F200.000
G1 X20.966 Y0.250 Z-0.125 F200.000
G2 X20.515 Y-0.245 Z-0.125 I-0.503 J0.005 K0.000 F200.000
G1 X18.940 Y-0.250 Z-0.125 F200.000
G2 X18.445 Y0.201 Z-0.125 I0.005 J0.503 K0.000 F200.000
G1 X18.441 Y1.554 Z-0.125 F200.000
G3 X18.416 Y1.579 Z-0.125 I-0.018 J0.007 K0.000 F200.000
G1 X16.949 Y1.579 Z-0.125 F200.000
G2 X16.454 Y2.030 Z-0.125 I0.005 J0.503 K0.000 F200.000
G1 X16.449 Y3.579 Z-0.125 F200.000
G3 X16.425 Y3.604 Z-0.125 I-0.018 J0.007 K0.000 F200.000
G1 X6.075 Y3.604 Z-0.125 F200.000
G3 X6.051 Y3.579 Z-0.125 I-0.007 J-0.017 K0.000 F200.000
G1 X6.051 Y2.079 Z-0.125 F200.000
G2 X5.600 Y1.584 Z-0.125 I-0.503 J0.005 K0.000 F200.000
G1 X4.085 Y1.579 Z-0.125 F200.000
G3 X4.060 Y1.554 Z-0.125 I-0.007 J-0.018 K0.000 F200.000
G1 X4.060 Y0.250 Z-0.125 F200.000
G2 X3.608 Y-0.245 Z-0.125 I-0.503 J0.005 K0.000 F200.000
G1 X2.034 Y-0.250 Z-0.125 F200.000
G2 X1.539 Y0.201 Z-0.125 I0.005 J0.503 K0.000 F200.000
G1 X1.534 Y1.725 Z-0.125 F200.000
G2 X1.664 Y2.061 Z-0.125 I0.504 J-0.003 K0.000 F200.000
G1 X3.185 Y3.583 Z-0.125 F200.000
G1 X3.195 Y3.600 Z-0.125 F200.000
G1 X3.176 Y3.604 Z-0.125 F200.000
G1 X2.125 Y3.604 Z-0.125 F200.000
G2 X1.630 Y4.055 Z-0.125 I0.005 J0.503 K0.000 F200.000
G1 X1.625 Y5.381 Z-0.125 F200.000
G3 X1.600 Y5.406 Z-0.125 I-0.018 J0.007 K0.000 F200.000
G1 X0.250 Y5.406 Z-0.125 F200.000
G2 X-0.245 Y5.858 Z-0.125 I0.005 J0.503 K0.000 F200.000
G1 X-0.250 Y12.875 Z-0.125 F200.000
G2 X0.201 Y13.370 Z-0.125 I0.503 J-0.005 K0.000 F200.000
G1 X1.625 Y13.375 Z-0.125 F200.000
G2 X2.120 Y12.924 Z-0.125 I-0.005 J-0.503 K0.000 F200.000
G1 X2.125 Y9.653 Z-0.125 F200.000
G3 X2.150 Y9.628 Z-0.125 I0.017 J-0.007 K0.000 F200.000
G1 X3.535 Y9.628 Z-0.125 F200.000
G3 X3.560 Y9.653 Z-0.125 I0.007 J0.017 K0.000 F200.000
G1 X3.560 Y10.906 Z-0.125 F200.000
G2 X4.011 Y11.401 Z-0.125 I0.503 J-0.005 K0.000 F200.000
G1 X5.167 Y11.406 Z-0.125 F200.000
G1 X5.186 Y11.411 Z-0.125 F200.000
G1 X5.176 Y11.427 Z-0.125 F200.000
G1 X3.729 Y12.875 Z-0.125 F200.000
G2 X3.583 Y13.204 Z-0.125 I0.358 J0.355 K0.000 F200.000
G1 X3.582 Y14.750 Z-0.125 F200.000
G2 X4.033 Y15.245 Z-0.125 I0.503 J-0.005 K0.000 F200.000
G1 X5.551 Y15.250 Z-0.125 F200.000
G2 X6.046 Y14.799 Z-0.125 I-0.005 J-0.503 K0.000 F200.000
G1 X6.051 Y13.400 Z-0.125 F200.000
G3 X6.075 Y13.375 Z-0.125 I0.018 J-0.007 K0.000 F200.000
G1 X7.238 Y13.375 Z-0.125 F200.000
G2 X7.733 Y12.924 Z-0.125 I-0.005 J-0.503 K0.000 F200.000
G1 X7.737 Y11.431 Z-0.125 F200.000
G3 X7.762 Y11.406 Z-0.125 I0.018 J-0.007 K0.000 F200.000
G1 X14.738 Y11.406 Z-0.125 F200.000
G3 X14.749 Y11.405 Z-0.125 I0.007 J0.017 K0.000 F200.000
G1 X14.749 Y11.405 Z-0.250 F60.000
G3 X14.762 Y11.431 Z-0.250 I-0.004 J0.018 K0.000 F200.000
G1 X14.762 Y12.882 Z-0.250 F200.000
G2 X15.214 Y13.377 Z-0.250 I0.503 J-0.005 K0.000 F200.000
G1 X16.653 Y13.382 Z-0.250 F200.000
G3 X16.678 Y13.406 Z-0.250 I0.007 J0.018 K0.000 F200.000
G1 X16.678 Y14.750 Z-0.250 F200.000
G2 X17.130 Y15.245 Z-0.250 I0.503 J-0.005 K0.000 F200.000
G1 X18.418 Y15.250 Z-0.250 F200.000
G2 X18.913 Y14.799 Z-0.250 I-0.005 J-0.503 K0.000 F200.000
G1 X18.918 Y13.255 Z-0.250 F200.000
G2 X18.790 Y12.922 Z-0.250 I-0.504 J0.003 K0.000 F200.000
G1 X17.318 Y11.427 Z-0.250 F200.000
G1 X17.308 Y11.411 Z-0.250 F200.000
G1 X17.326 Y11.406 Z-0.250 F200.000
G1 X18.500 Y11.406 Z-0.250 F200.000
G2 X18.995 Y10.955 Z-0.250 I-0.005 J-0.503 K0.000 F200.000
G1 X19.000 Y9.654 Z-0.250 F200.000
G3 X19.025 Y9.629 Z-0.250 I0.018 J-0.007 K0.000 F200.000
G1 X20.382 Y9.629 Z-0.250 F200.000
G3 X20.406 Y9.653 Z-0.250 I0.007 J0.017 K0.000 F200.000
G1 X20.406 Y12.875 Z-0.250 F200.000
G2 X20.857 Y13.370 Z-0.250 I0.503 J-0.005 K0.000 F200.000
G1 X22.250 Y13.375 Z-0.250 F200.000
G2 X22.745 Y12.924 Z-0.250 I-0.005 J-0.503 K0.000 F200.000
G1 X22.750 Y5.906 Z-0.250 F200.000
G2 X22.299 Y5.411 Z-0.250 I-0.503 J0.005 K0.000 F200.000
G1 X20.900 Y5.406 Z-0.250 F200.000
G3 X20.875 Y5.382 Z-0.250 I-0.007 J-0.018 K0.000 F200.000
G1 X20.875 Y4.104 Z-0.250 F200.000
G2 X20.424 Y3.609 Z-0.250 I-0.503 J0.005 K0.000 F200.000
G1 X19.324 Y3.604 Z-0.250 F200.000
G1 X19.305 Y3.600 Z-0.250 F200.000
G1 X19.315 Y3.583 Z-0.250 F200.000
G1 X20.819 Y2.079 Z-0.250 F200.000
G2 X20.965 Y1.750 Z-0.250 I-0.358 J-0.355 K0.000 F200.000
G1 X20.966 Y0.250 Z-0.250 F200.000
G2 X20.515 Y-0.245 Z-0.250 I-0.503 J0.005 K0.000 F200.000
G1 X18.940 Y-0.250 Z-0.250 F200.000
G2 X18.445 Y0.201 Z-0.250 I0.005 J0.503 K0.000 F200.000
G1 X18.441 Y1.554 Z-0.250 F200.000
G3 X18.416 Y1.579 Z-0.250 I-0.018 J0.007 K0.000 F200.000
G1 X16.949 Y1.579 Z-0.250 F200.000
G2 X16.454 Y2.030 Z-0.250 I0.005 J0.503 K0.000 F200.000
G1 X16.449 Y3.579 Z-0.250 F200.000
G3 X16.425 Y3.604 Z-0.250 I-0.018 J0.007 K0.000 F200.000
G1 X6.075 Y3.604 Z-0.250 F200.000
G3 X6.051 Y3.579 Z-0.250 I-0.007 J-0.017 K0.000 F200.000
G1 X6.051 Y2.079 Z-0.250 F200.000
G2 X5.600 Y1.584 Z-0.250 I-0.503 J0.005 K0.000 F200.000
G1 X4.085 Y1.579 Z-0.250 F200.000
G3 X4.060 Y1.554 Z-0.250 I-0.007 J-0.018 K0.000 F200.000
G1 X4.060 Y0.250 Z-0.250 F200.000
G2 X3.608 Y-0.245 Z-0.250 I-0.503 J0.005 K0.000 F200.000
G1 X2.034 Y-0.250 Z-0.250 F200.000
G2 X1.539 Y0.201 Z-0.250 I0.005 J0.503 K0.000 F200.000
G1 X1.534 Y1.725 Z-0.250 F200.000
G2 X1.664 Y2.061 Z-0.250 I0.504 J-0.003 K0.000 F200.000
G1 X3.185 Y3.583 Z-0.250 F200.000
G1 X3.195 Y3.600 Z-0.250 F200.000
G1 X3.176 Y3.604 Z-0.250 F200.000
G1 X2.125 Y3.604 Z-0.250 F200.000
G2 X1.630 Y4.055 Z-0.250 I0.005 J0.503 K0.000 F200.000
G1 X1.625 Y5.381 Z-0.250 F200.000
G3 X1.600 Y5.406 Z-0.250 I-0.018 J0.007 K0.000 F200.000
G1 X0.250 Y5.406 Z-0.250 F200.000
G2 X-0.245 Y5.858 Z-0.250 I0.005 J0.503 K0.000 F200.000
G1 X-0.250 Y12.875 Z-0.250 F200.000
G2 X0.201 Y13.370 Z-0.250 I0.503 J-0.005 K0.000 F200.000
G1 X1.625 Y13.375 Z-0.250 F200.000
G2 X2.120 Y12.924 Z-0.250 I-0.005 J-0.503 K0.000 F200.000
G1 X2.125 Y9.653 Z-0.250 F200.000
G3 X2.150 Y9.628 Z-0.250 I0.017 J-0.007 K0.000 F200.000
G1 X3.535 Y9.628 Z-0.250 F200.000
G3 X3.560 Y9.653 Z-0.250 I0.007 J0.017 K0.000 F200.000
G1 X3.560 Y10.906 Z-0.250 F200.000
G2 X4.011 Y11.401 Z-0.250 I0.503 J-0.005 K0.000 F200.000
G1 X5.167 Y11.406 Z-0.250 F200.000
G1 X5.186 Y11.411 Z-0.250 F200.000
G1 X5.176 Y11.427 Z-0.250 F200.000
G1 X3.729 Y12.875 Z-0.250 F200.000
G2 X3.583 Y13.204 Z-0.250 I0.358 J0.355 K0.000 F200.000
G1 X3.582 Y14.750 Z-0.250 F200.000
G2 X4.033 Y15.245 Z-0.250 I0.503 J-0.005 K0.000 F200.000
G1 X5.551 Y15.250 Z-0.250 F200.000
G2 X6.046 Y14.799 Z-0.250 I-0.005 J-0.503 K0.000 F200.000
G1 X6.051 Y13.400 Z-0.250 F200.000
G3 X6.075 Y13.375 Z-0.250 I0.018 J-0.007 K0.000 F200.000
G1 X7.238 Y13.375 Z-0.250 F200.000
G2 X7.733 Y12.924 Z-0.250 I-0.005 J-0.503 K0.000 F200.000
G1 X7.737 Y11.431 Z-0.250 F200.000
G3 X7.762 Y11.406 Z-0.250 I0.018 J-0.007 K0.000 F200.000
G1 X14.738 Y11.406 Z-0.250 F200.000
G3 X14.749 Y11.405 Z-0.250 I0.007 J0.017 K0.000 F200.000
G1 X14.749 Y11.405 Z-0.375 F60.000
G3 X14.762 Y11.431 Z-0.375 I-0.004 J0.018 K0.000 F200.000
G1 X14.762 Y12.882 Z-0.375 F200.000
G2 X15.214 Y13.377 Z-0.375 I0.503 J-0.005 K0.000 F200.000
G1 X16.653 Y13.382 Z-0.375 F200.000
G3 X16.678 Y13.406 Z-0.375 I0.007 J0.018 K0.000 F200.000
G1 X16.678 Y14.750 Z-0.375 F200.000
G2 X17.130 Y15.245 Z-0.375 I0.503 J-0.005 K0.000 F200.000
G1 X18.418 Y15.250 Z-0.375 F200.000
G2 X18.913 Y14.799 Z-0.375 I-0.005 J-0.503 K0.000 F200.000
G1 X18.918 Y13.255 Z-0.375 F200.000
G2 X18.790 Y12.922 Z-0.375 I-0.504 J0.003 K0.000 F200.000
G1 X17.318 Y11.427 Z-0.375 F200.000
G1 X17.308 Y11.411 Z-0.375 F200.000
G1 X17.326 Y11.406 Z-0.375 F200.000
G1 X18.500 Y11.406 Z-0.375 F200.000
G2 X18.995 Y10.955 Z-0.375 I-0.005 J-0.503 K0.000 F200.000
G1 X19.000 Y9.654 Z-0.375 F200.000
G3 X19.025 Y9.629 Z-0.375 I0.018 J-0.007 K0.000 F200.000
G1 X20.382 Y9.629 Z-0.375 F200.000
G3 X20.406 Y9.653 Z-0.375 I0.007 J0.017 K0.000 F200.000
G1 X20.406 Y12.875 Z-0.375 F200.000
G2 X20.857 Y13.370 Z-0.375 I0.503 J-0.005 K0.000 F200.000
G1 X22.250 Y13.375 Z-0.375 F200.000
G2 X22.745 Y12.924 Z-0.375 I-0.005 J-0.503 K0.000 F200.000
G1 X22.750 Y5.906 Z-0.375 F200.000
G2 X22.299 Y5.411 Z-0.375 I-0.503 J0.005 K0.000 F200.000
G1 X20.900 Y5.406 Z-0.375 F200.000
G3 X20.875 Y5.382 Z-0.375 I-0.007 J-0.018 K0.000 F200.000
G1 X20.875 Y4.104 Z-0.375 F200.000
G2 X20.424 Y3.609 Z-0.375 I-0.503 J0.005 K0.000 F200.000
G1 X19.324 Y3.604 Z-0.375 F200.000
G1 X19.305 Y3.600 Z-0.375 F200.000
G1 X19.315 Y3.583 Z-0.375 F200.000
G1 X20.819 Y2.079 Z-0.375 F200.000
G2 X20.965 Y1.750 Z-0.375 I-0.358 J-0.355 K0.000 F200.000
G1 X20.966 Y0.250 Z-0.375 F200.000
G2 X20.515 Y-0.245 Z-0.375 I-0.503 J0.005 K0.000 F200.000
G1 X18.940 Y-0.250 Z-0.375 F200.000
G2 X18.445 Y0.201 Z-0.375 I0.005 J0.503 K0.000 F200.000
G1 X18.441 Y1.554 Z-0.375 F200.000
G3 X18.416 Y1.579 Z-0.375 I-0.018 J0.007 K0.000 F200.000
G1 X16.949 Y1.579 Z-0.375 F200.000
G2 X16.454 Y2.030 Z-0.375 I0.005 J0.503 K0.000 F200.000
G1 X16.449 Y3.579 Z-0.375 F200.000
G3 X16.425 Y3.604 Z-0.375 I-0.018 J0.007 K0.000 F200.000
G1 X6.075 Y3.604 Z-0.375 F200.000
G3 X6.051 Y3.579 Z-0.375 I-0.007 J-0.017 K0.000 F200.000
G1 X6.051 Y2.079 Z-0.375 F200.000
G2 X5.600 Y1.584 Z-0.375 I-0.503 J0.005 K0.000 F200.000
G1 X4.085 Y1.579 Z-0.375 F200.000
G3 X4.060 Y1.554 Z-0.375 I-0.007 J-0.018 K0.000 F200.000
G1 X4.060 Y0.250 Z-0.375 F200.000
G2 X3.608 Y-0.245 Z-0.375 I-0.503 J0.005 K0.000 F200.000
G1 X2.034 Y-0.250 Z-0.375 F200.000
G2 X1.539 Y0.201 Z-0.375 I0.005 J0.503 K0.000 F200.000
G1 X1.534 Y1.725 Z-0.375 F200.000
G2 X1.664 Y2.061 Z-0.375 I0.504 J-0.003 K0.000 F200.000
G1 X3.185 Y3.583 Z-0.375 F200.000
G1 X3.195 Y3.600 Z-0.375 F200.000
G1 X3.176 Y3.604 Z-0.375 F200.000
G1 X2.125 Y3.604 Z-0.375 F200.000
G2 X1.630 Y4.055 Z-0.375 I0.005 J0.503 K0.000 F200.000
G1 X1.625 Y5.381 Z-0.375 F200.000
G3 X1.600 Y5.406 Z-0.375 I-0.018 J0.007 K0.000 F200.000
G1 X0.250 Y5.406 Z-0.375 F200.000
G2 X-0.245 Y5.858 Z-0.375 I0.005 J0.503 K0.000 F200.000
G1 X-0.250 Y12.875 Z-0.375 F200.000
G2 X0.201 Y13.370 Z-0.375 I0.503 J-0.005 K0.000 F200.000
G1 X1.625 Y13.375 Z-0.375 F200.000
G2 X2.120 Y12.924 Z-0.375 I-0.005 J-0.503 K0.000 F200.000
G1 X2.125 Y9.653 Z-0.375 F200.000
G3 X2.150 Y9.628 Z-0.375 I0.017 J-0.007 K0.000 F200.000
G1 X3.535 Y9.628 Z-0.375 F200.000
G3 X3.560 Y9.653 Z-0.375 I0.007 J0.017 K0.000 F200.000
G1 X3.560 Y10.906 Z-0.375 F200.000
G2 X4.011 Y11.401 Z-0.375 I0.503 J-0.005 K0.000 F200.000
G1 X5.167 Y11.406 Z-0.375 F200.000
G1 X5.186 Y11.411 Z-0.375 F200.000
G1 X5.176 Y11.427 Z-0.375 F200.000
G1 X3.729 Y12.875 Z-0.375 F200.000
G2 X3.583 Y13.204 Z-0.375 I0.358 J0.355 K0.000 F200.000
G1 X3.582 Y14.750 Z-0.375 F200.000
G2 X4.033 Y15.245 Z-0.375 I0.503 J-0.005 K0.000 F200.000
G1 X5.551 Y15.250 Z-0.375 F200.000
G2 X6.046 Y14.799 Z-0.375 I-0.005 J-0.503 K0.000 F200.000
G1 X6.051 Y13.400 Z-0.375 F200.000
G3 X6.075 Y13.375 Z-0.375 I0.018 J-0.007 K0.000 F200.000
G1 X7.238 Y13.375 Z-0.375 F200.000
G2 X7.733 Y12.924 Z-0.375 I-0.005 J-0.503 K0.000 F200.000
G1 X7.737 Y11.431 Z-0.375 F200.000
G3 X7.762 Y11.406 Z-0.375 I0.018 J-0.007 K0.000 F200.000
G1 X14.738 Y11.406 Z-0.375 F200.000
G3 X14.749 Y11.405 Z-0.375 I0.007 J0.017 K0.000 F200.000
G1 X14.749 Y11.405 Z-0.500 F60.000
G3 X14.762 Y11.431 Z-0.500 I-0.004 J0.018 K0.000 F200.000
G1 X14.762 Y12.882 Z-0.500 F200.000
G2 X15.214 Y13.377 Z-0.500 I0.503 J-0.005 K0.000 F200.000
G1 X16.653 Y13.382 Z-0.500 F200.000
G3 X16.678 Y13.406 Z-0.500 I0.007 J0.018 K0.000 F200.000
G1 X16.678 Y14.750 Z-0.500 F200.000
G2 X17.130 Y15.245 Z-0.500 I0.503 J-0.005 K0.000 F200.000
G1 X18.418 Y15.250 Z-0.500 F200.000
G2 X18.913 Y14.799 Z-0.500 I-0.005 J-0.503 K0.000 F200.000
G1 X18.918 Y13.255 Z-0.500 F200.000
G2 X18.790 Y12.922 Z-0.500 I-0.504 J0.003 K0.000 F200.000
G1 X17.318 Y11.427 Z-0.500 F200.000
G1 X17.308 Y11.411 Z-0.500 F200.000
G1 X17.326 Y11.406 Z-0.500 F200.000
G1 X18.500 Y11.406 Z-0.500 F200.000
G2 X18.995 Y10.955 Z-0.500 I-0.005 J-0.503 K0.000 F200.000
G1 X19.000 Y9.654 Z-0.500 F200.000
G3 X19.025 Y9.629 Z-0.500 I0.018 J-0.007 K0.000 F200.000
G1 X20.382 Y9.629 Z-0.500 F200.000
G3 X20.406 Y9.653 Z-0.500 I0.007 J0.017 K0.000 F200.000
G1 X20.406 Y12.875 Z-0.500 F200.000
G2 X20.857 Y13.370 Z-0.500 I0.503 J-0.005 K0.000 F200.000
G1 X22.250 Y13.375 Z-0.500 F200.000
G2 X22.745 Y12.924 Z-0.500 I-0.005 J-0.503 K0.000 F200.000
G1 X22.750 Y5.906 Z-0.500 F200.000
G2 X22.299 Y5.411 Z-0.500 I-0.503 J0.005 K0.000 F200.000
G1 X20.900 Y5.406 Z-0.500 F200.000
G3 X20.875 Y5.382 Z-0.500 I-0.007 J-0.018 K0.000 F200.000
G1 X20.875 Y4.104 Z-0.500 F200.000
G2 X20.424 Y3.609 Z-0.500 I-0.503 J0.005 K0.000 F200.000
G1 X19.324 Y3.604 Z-0.500 F200.000
G1 X19.305 Y3.600 Z-0.500 F200.000
G1 X19.315 Y3.583 Z-0.500 F200.000
G1 X20.819 Y2.079 Z-0.500 F200.000
G2 X20.965 Y1.750 Z-0.500 I-0.358 J-0.355 K0.000 F200.000
G1 X20.966 Y0.250 Z-0.500 F200.000
G2 X20.515 Y-0.245 Z-0.500 I-0.503 J0.005 K0.000 F200.000
G1 X18.940 Y-0.250 Z-0.500 F200.000
G2 X18.445 Y0.201 Z-0.500 I0.005 J0.503 K0.000 F200.000
G1 X18.441 Y1.554 Z-0.500 F200.000
G3 X18.416 Y1.579 Z-0.500 I-0.018 J0.007 K0.000 F200.000
G1 X16.949 Y1.579 Z-0.500 F200.000
G2 X16.454 Y2.030 Z-0.500 I0.005 J0.503 K0.000 F200.000
G1 X16.449 Y3.579 Z-0.500 F200.000
G3 X16.425 Y3.604 Z-0.500 I-0.018 J0.007 K0.000 F200.000
G1 X6.075 Y3.604 Z-0.500 F200.000
G3 X6.051 Y3.579 Z-0.500 I-0.007 J-0.017 K0.000 F200.000
G1 X6.051 Y2.079 Z-0.500 F200.000
G2 X5.600 Y1.584 Z-0.500 I-0.503 J0.005 K0.000 F200.000
G1 X4.085 Y1.579 Z-0.500 F200.000
G3 X4.060 Y1.554 Z-0.500 I-0.007 J-0.018 K0.000 F200.000
G1 X4.060 Y0.250 Z-0.500 F200.000
G2 X3.608 Y-0.245 Z-0.500 I-0.503 J0.005 K0.000 F200.000
G1 X2.034 Y-0.250 Z-0.500 F200.000
G2 X1.539 Y0.201 Z-0.500 I0.005 J0.503 K0.000 F200.000
G1 X1.534 Y1.725 Z-0.500 F200.000
G2 X1.664 Y2.061 Z-0.500 I0.504 J-0.003 K0.000 F200.000
G1 X3.185 Y3.583 Z-0.500 F200.000
G1 X3.195 Y3.600 Z-0.500 F200.000
G1 X3.176 Y3.604 Z-0.500 F200.000
G1 X2.125 Y3.604 Z-0.500 F200.000
G2 X1.630 Y4.055 Z-0.500 I0.005 J0.503 K0.000 F200.000
G1 X1.625 Y5.381 Z-0.500 F200.000
G3 X1.600 Y5.406 Z-0.500 I-0.018 J0.007 K0.000 F200.000
G1 X0.250 Y5.406 Z-0.500 F200.000
G2 X-0.245 Y5.858 Z-0.500 I0.005 J0.503 K0.000 F200.000
G1 X-0.250 Y12.875 Z-0.500 F200.000
G2 X0.201 Y13.370 Z-0.500 I0.503 J-0.005 K0.000 F200.000
G1 X1.625 Y13.375 Z-0.500 F200.000
G2 X2.120 Y12.924 Z-0.500 I-0.005 J-0.503 K0.000 F200.000
G1 X2.125 Y9.653 Z-0.500 F200.000
G3 X2.150 Y9.628 Z-0.500 I0.017 J-0.007 K0.000 F200.000
G1 X3.535 Y9.628 Z-0.500 F200.000
G3 X3.560 Y9.653 Z-0.500 I0.007 J0.017 K0.000 F200.000
G1 X3.560 Y10.906 Z-0.500 F200.000
G2 X4.011 Y11.401 Z-0.500 I0.503 J-0.005 K0.000 F200.000
G1 X5.167 Y11.406 Z-0.500 F200.000
G1 X5.186 Y11.411 Z-0.500 F200.000
G1 X5.176 Y11.427 Z-0.500 F200.000
G1 X3.729 Y12.875 Z-0.500 F200.000
G2 X3.583 Y13.204 Z-0.500 I0.358 J0.355 K0.000 F200.000
G1 X3.582 Y14.750 Z-0.500 F200.000
G2 X4.033 Y15.245 Z-0.500 I0.503 J-0.005 K0.000 F200.000
G1 X5.551 Y15.250 Z-0.500 F200.000
G2 X6.046 Y14.799 Z-0.500 I-0.005 J-0.503 K0.000 F200.000
G1 X6.051 Y13.400 Z-0.500 F200.000
G3 X6.075 Y13.375 Z-0.500 I0.018 J-0.007 K0.000 F200.000
G1 X7.238 Y13.375 Z-0.500 F200.000
G2 X7.733 Y12.924 Z-0.500 I-0.005 J-0.503 K0.000 F200.000
G1 X7.737 Y11.431 Z-0.500 F200.000
G3 X7.762 Y11.406 Z-0.500 I0.018 J-0.007 K0.000 F200.000
G1 X14.738 Y11.406 Z-0.500 F200.000
G3 X14.749 Y11.405 Z-0.500 I0.007 J0.017 K0.000 F200.000
G1 X14.749 Y11.405 Z-0.625 F60.000
G3 X14.762 Y11.431 Z-0.625 I-0.004 J0.018 K0.000 F200.000
G1 X14.762 Y12.882 Z-0.625 F200.000
G2 X15.214 Y13.377 Z-0.625 I0.503 J-0.005 K0.000 F200.000
G1 X16.653 Y13.382 Z-0.625 F200.000
G3 X16.678 Y13.406 Z-0.625 I0.007 J0.018 K0.000 F200.000
G1 X16.678 Y14.750 Z-0.625 F200.000
G2 X17.130 Y15.245 Z-0.625 I0.503 J-0.005 K0.000 F200.000
G1 X18.418 Y15.250 Z-0.625 F200.000
G2 X18.913 Y14.799 Z-0.625 I-0.005 J-0.503 K0.000 F200.000
G1 X18.918 Y13.255 Z-0.625 F200.000
G2 X18.790 Y12.922 Z-0.625 I-0.504 J0.003 K0.000 F200.000
G1 X17.318 Y11.427 Z-0.625 F200.000
G1 X17.308 Y11.411 Z-0.625 F200.000
G1 X17.326 Y11.406 Z-0.625 F200.000
G1 X18.500 Y11.406 Z-0.625 F200.000
G2 X18.995 Y10.955 Z-0.625 I-0.005 J-0.503 K0.000 F200.000
G1 X19.000 Y9.654 Z-0.625 F200.000
G3 X19.025 Y9.629 Z-0.625 I0.018 J-0.007 K0.000 F200.000
G1 X20.382 Y9.629 Z-0.625 F200.000
G3 X20.406 Y9.653 Z-0.625 I0.007 J0.017 K0.000 F200.000
G1 X20.406 Y12.875 Z-0.625 F200.000
G2 X20.857 Y13.370 Z-0.625 I0.503 J-0.005 K0.000 F200.000
G1 X22.250 Y13.375 Z-0.625 F200.000
G2 X22.745 Y12.924 Z-0.625 I-0.005 J-0.503 K0.000 F200.000
G1 X22.750 Y5.906 Z-0.625 F200.000
G2 X22.299 Y5.411 Z-0.625 I-0.503 J0.005 K0.000 F200.000
G1 X20.900 Y5.406 Z-0.625 F200.000
G3 X20.875 Y5.382 Z-0.625 I-0.007 J-0.018 K0.000 F200.000
G1 X20.875 Y4.104 Z-0.625 F200.000
G2 X20.424 Y3.609 Z-0.625 I-0.503 J0.005 K0.000 F200.000
G1 X19.324 Y3.604 Z-0.625 F200.000
G1 X19.305 Y3.600 Z-0.625 F200.000
G1 X19.315 Y3.583 Z-0.625 F200.000
G1 X20.819 Y2.079 Z-0.625 F200.000
G2 X20.965 Y1.750 Z-0.625 I-0.358 J-0.355 K0.000 F200.000
G1 X20.966 Y0.250 Z-0.625 F200.000
G2 X20.515 Y-0.245 Z-0.625 I-0.503 J0.005 K0.000 F200.000
G1 X18.940 Y-0.250 Z-0.625 F200.000
G2 X18.445 Y0.201 Z-0.625 I0.005 J0.503 K0.000 F200.000
G1 X18.441 Y1.554 Z-0.625 F200.000
G3 X18.416 Y1.579 Z-0.625 I-0.018 J0.007 K0.000 F200.000
G1 X16.949 Y1.579 Z-0.625 F200.000
G2 X16.454 Y2.030 Z-0.625 I0.005 J0.503 K0.000 F200.000
G1 X16.449 Y3.579 Z-0.625 F200.000
G3 X16.425 Y3.604 Z-0.625 I-0.018 J0.007 K0.000 F200.000
G1 X6.075 Y3.604 Z-0.625 F200.000
G3 X6.051 Y3.579 Z-0.625 I-0.007 J-0.017 K0.000 F200.000
G1 X6.051 Y2.079 Z-0.625 F200.000
G2 X5.600 Y1.584 Z-0.625 I-0.503 J0.005 K0.000 F200.000
G1 X4.085 Y1.579 Z-0.625 F200.000
G3 X4.060 Y1.554 Z-0.625 I-0.007 J-0.018 K0.000 F200.000
G1 X4.060 Y0.250 Z-0.625 F200.000
G2 X3.608 Y-0.245 Z-0.625 I-0.503 J0.005 K0.000 F200.000
G1 X2.034 Y-0.250 Z-0.625 F200.000
G2 X1.539 Y0.201 Z-0.625 I0.005 J0.503 K0.000 F200.000
G1 X1.534 Y1.725 Z-0.625 F200.000
G2 X1.664 Y2.061 Z-0.625 I0.504 J-0.003 K0.000 F200.000
G1 X3.185 Y3.583 Z-0.625 F200.000
G1 X3.195 Y3.600 Z-0.625 F200.000
G1 X3.176 Y3.604 Z-0.625 F200.000
G1 X2.125 Y3.604 Z-0.625 F200.000
G2 X1.630 Y4.055 Z-0.625 I0.005 J0.503 K0.000 F200.000
G1 X1.625 Y5.381 Z-0.625 F200.000
G3 X1.600 Y5.406 Z-0.625 I-0.018 J0.007 K0.000 F200.000
G1 X0.250 Y5.406 Z-0.625 F200.000
G2 X-0.245 Y5.858 Z-0.625 I0.005 J0.503 K0.000 F200.000
G1 X-0.250 Y12.875 Z-0.625 F200.000
G2 X0.201 Y13.370 Z-0.625 I0.503 J-0.005 K0.000 F200.000
G1 X1.625 Y13.375 Z-0.625 F200.000
G2 X2.120 Y12.924 Z-0.625 I-0.005 J-0.503 K0.000 F200.000
G1 X2.125 Y9.653 Z-0.625 F200.000
G3 X2.150 Y9.628 Z-0.625 I0.017 J-0.007 K0.000 F200.000
G1 X3.535 Y9.628 Z-0.625 F200.000
G3 X3.560 Y9.653 Z-0.625 I0.007 J0.017 K0.000 F200.000
G1 X3.560 Y10.906 Z-0.625 F200.000
G2 X4.011 Y11.401 Z-0.625 I0.503 J-0.005 K0.000 F200.000
G1 X5.167 Y11.406 Z-0.625 F200.000
G1 X5.186 Y11.411 Z-0.625 F200.000
G1 X5.176 Y11.427 Z-0.625 F200.000
G1 X3.729 Y12.875 Z-0.625 F200.000
G2 X3.583 Y13.204 Z-0.625 I0.358 J0.355 K0.000 F200.000
G1 X3.582 Y14.750 Z-0.625 F200.000
G2 X4.033 Y15.245 Z-0.625 I0.503 J-0.005 K0.000 F200.000
G1 X5.551 Y15.250 Z-0.625 F200.000
G2 X6.046 Y14.799 Z-0.625 I-0.005 J-0.503 K0.000 F200.000
G1 X6.051 Y13.400 Z-0.625 F200.000
G3 X6.075 Y13.375 Z-0.625 I0.018 J-0.007 K0.000 F200.000
G1 X7.238 Y13.375 Z-0.625 F200.000
G2 X7.733 Y12.924 Z-0.625 I-0.005 J-0.503 K0.000 F200.000
G1 X7.737 Y11.431 Z-0.625 F200.000
G3 X7.762 Y11.406 Z-0.625 I0.018 J-0.007 K0.000 F200.000
G1 X14.738 Y11.406 Z-0.625 F200.000
G3 X14.749 Y11.405 Z-0.625 I0.007 J0.017 K0.000 F200.000
G1 X14.749 Y11.405 Z-0.750 F60.000
G3 X14.762 Y11.431 Z-0.750 I-0.004 J0.018 K0.000 F200.000
G1 X14.762 Y12.882 Z-0.750 F200.000
G2 X15.214 Y13.377 Z-0.750 I0.503 J-0.005 K0.000 F200.000
G1 X16.653 Y13.382 Z-0.750 F200.000
G3 X16.678 Y13.406 Z-0.750 I0.007 J0.018 K0.000 F200.000
G1 X16.678 Y14.750 Z-0.750 F200.000
G2 X17.130 Y15.245 Z-0.750 I0.503 J-0.005 K0.000 F200.000
G1 X18.418 Y15.250 Z-0.750 F200.000
G2 X18.913 Y14.799 Z-0.750 I-0.005 J-0.503 K0.000 F200.000
G1 X18.918 Y13.255 Z-0.750 F200.000
G2 X18.790 Y12.922 Z-0.750 I-0.504 J0.003 K0.000 F200.000
G1 X17.318 Y11.427 Z-0.750 F200.000
G1 X17.308 Y11.411 Z-0.750 F200.000
G1 X17.326 Y11.406 Z-0.750 F200.000
G1 X18.500 Y11.406 Z-0.750 F200.000
G2 X18.995 Y10.955 Z-0.750 I-0.005 J-0.503 K0.000 F200.000
G1 X19.000 Y9.654 Z-0.750 F200.000
G3 X19.025 Y9.629 Z-0.750 I0.018 J-0.007 K0.000 F200.000
G1 X20.382 Y9.629 Z-0.750 F200.000
G3 X20.406 Y9.653 Z-0.750 I0.007 J0.017 K0.000 F200.000
G1 X20.406 Y12.875 Z-0.750 F200.000
G2 X20.857 Y13.370 Z-0.750 I0.503 J-0.005 K0.000 F200.000
G1 X22.250 Y13.375 Z-0.750 F200.000
G2 X22.745 Y12.924 Z-0.750 I-0.005 J-0.503 K0.000 F200.000
G1 X22.750 Y5.906 Z-0.750 F200.000
G2 X22.299 Y5.411 Z-0.750 I-0.503 J0.005 K0.000 F200.000
G1 X20.900 Y5.406 Z-0.750 F200.000
G3 X20.875 Y5.382 Z-0.750 I-0.007 J-0.018 K0.000 F200.000
G1 X20.875 Y4.104 Z-0.750 F200.000
G2 X20.424 Y3.609 Z-0.750 I-0.503 J0.005 K0.000 F200.000
G1 X19.324 Y3.604 Z-0.750 F200.000
G1 X19.305 Y3.600 Z-0.750 F200.000
G1 X19.315 Y3.583 Z-0.750 F200.000
G1 X20.819 Y2.079 Z-0.750 F200.000
G2 X20.965 Y1.750 Z-0.750 I-0.358 J-0.355 K0.000 F200.000
G1 X20.966 Y0.250 Z-0.750 F200.000
G2 X20.515 Y-0.245 Z-0.750 I-0.503 J0.005 K0.000 F200.000
G1 X18.940 Y-0.250 Z-0.750 F200.000
G2 X18.445 Y0.201 Z-0.750 I0.005 J0.503 K0.000 F200.000
G1 X18.441 Y1.554 Z-0.750 F200.000
G3 X18.416 Y1.579 Z-0.750 I-0.018 J0.007 K0.000 F200.000
G1 X16.949 Y1.579 Z-0.750 F200.000
G2 X16.454 Y2.030 Z-0.750 I0.005 J0.503 K0.000 F200.000
G1 X16.449 Y3.579 Z-0.750 F200.000
G3 X16.425 Y3.604 Z-0.750 I-0.018 J0.007 K0.000 F200.000
G1 X6.075 Y3.604 Z-0.750 F200.000
G3 X6.051 Y3.579 Z-0.750 I-0.007 J-0.017 K0.000 F200.000
G1 X6.051 Y2.079 Z-0.750 F200.000
G2 X5.600 Y1.584 Z-0.750 I-0.503 J0.005 K0.000 F200.000
G1 X4.085 Y1.579 Z-0.750 F200.000
G3 X4.060 Y1.554 Z-0.750 I-0.007 J-0.018 K0.000 F200.000
G1 X4.060 Y0.250 Z-0.750 F200.000
G2 X3.608 Y-0.245 Z-0.750 I-0.503 J0.005 K0.000 F200.000
G1 X2.034 Y-0.250 Z-0.750 F200.000
G2 X1.539 Y0.201 Z-0.750 I0.005 J0.503 K0.000 F200.000
G1 X1.534 Y1.725 Z-0.750 F200.000
G2 X1.664 Y2.061 Z-0.750 I0.504 J-0.003 K0.000 F200.000
G1 X3.185 Y3.583 Z-0.750 F200.000
G1 X3.195 Y3.600 Z-0.750 F200.000
G1 X3.176 Y3.604 Z-0.750 F200.000
G1 X2.125 Y3.604 Z-0.750 F200.000
G2 X1.630 Y4.055 Z-0.750 I0.005 J0.503 K0.000 F200.000
G1 X1.625 Y5.381 Z-0.750 F200.000
G3 X1.600 Y5.406 Z-0.750 I-0.018 J0.007 K0.000 F200.000
G1 X0.250 Y5.406 Z-0.750 F200.000
G2 X-0.245 Y5.858 Z-0.750 I0.005 J0.503 K0.000 F200.000
G1 X-0.250 Y12.875 Z-0.750 F200.000
G2 X0.201 Y13.370 Z-0.750 I0.503 J-0.005 K0.000 F200.000
G1 X1.625 Y13.375 Z-0.750 F200.000
G2 X2.120 Y12.924 Z-0.750 I-0.005 J-0.503 K0.000 F200.000
G1 X2.125 Y9.653 Z-0.750 F200.000
G3 X2.150 Y9.628 Z-0.750 I0.017 J-0.007 K0.000 F200.000
G1 X3.535 Y9.628 Z-0.750 F200.000
G3 X3.560 Y9.653 Z-0.750 I0.007 J0.017 K0.000 F200.000
G1 X3.560 Y10.906 Z-0.750 F200.000
G2 X4.011 Y11.401 Z-0.750 I0.503 J-0.005 K0.000 F200.000
G1 X5.167 Y11.406 Z-0.750 F200.000
G1 X5.186 Y11.411 Z-0.750 F200.000
G1 X5.176 Y11.427 Z-0.750 F200.000
G1 X3.729 Y12.875 Z-0.750 F200.000
G2 X3.583 Y13.204 Z-0.750 I0.358 J0.355 K0.000 F200.000
G1 X3.582 Y14.750 Z-0.750 F200.000
G2 X4.033 Y15.245 Z-0.750 I0.503 J-0.005 K0.000 F200.000
G1 X5.551 Y15.250 Z-0.750 F200.000
G2 X6.046 Y14.799 Z-0.750 I-0.005 J-0.503 K0.000 F200.000
G1 X6.051 Y13.400 Z-0.750 F200.000
G3 X6.075 Y13.375 Z-0.750 I0.018 J-0.007 K0.000 F200.000
G1 X7.238 Y13.375 Z-0.750 F200.000
G2 X7.733 Y12.924 Z-0.750 I-0.005 J-0.503 K0.000 F200.000
G1 X7.737 Y11.431 Z-0.750 F200.000
G3 X7.762 Y11.406 Z-0.750 I0.018 J-0.007 K0.000 F200.000
G1 X14.738 Y11.406 Z-0.750 F200.000
G3 X14.749 Y11.405 Z-0.750 I0.007 J0.017 K0.000 F200.000
G1 X14.749 Y11.405 Z-0.875 F60.000
G3 X14.762 Y11.431 Z-0.875 I-0.004 J0.018 K0.000 F200.000
G1 X14.762 Y12.882 Z-0.875 F200.000
G2 X15.214 Y13.377 Z-0.875 I0.503 J-0.005 K0.000 F200.000
G1 X16.653 Y13.382 Z-0.875 F200.000
G3 X16.678 Y13.406 Z-0.875 I0.007 J0.018 K0.000 F200.000
G1 X16.678 Y14.750 Z-0.875 F200.000
G2 X17.130 Y15.245 Z-0.875 I0.503 J-0.005 K0.000 F200.000
G1 X18.418 Y15.250 Z-0.875 F200.000
G2 X18.913 Y14.799 Z-0.875 I-0.005 J-0.503 K0.000 F200.000
G1 X18.918 Y13.255 Z-0.875 F200.000
G2 X18.790 Y12.922 Z-0.875 I-0.504 J0.003 K0.000 F200.000
G1 X17.318 Y11.427 Z-0.875 F200.000
G1 X17.308 Y11.411 Z-0.875 F200.000
G1 X17.326 Y11.406 Z-0.875 F200.000
G1 X18.500 Y11.406 Z-0.875 F200.000
G2 X18.995 Y10.955 Z-0.875 I-0.005 J-0.503 K0.000 F200.000
G1 X19.000 Y9.654 Z-0.875 F200.000
G3 X19.025 Y9.629 Z-0.875 I0.018 J-0.007 K0.000 F200.000
G1 X20.382 Y9.629 Z-0.875 F200.000
G3 X20.406 Y9.653 Z-0.875 I0.007 J0.017 K0.000 F200.000
G1 X20.406 Y12.875 Z-0.875 F200.000
G2 X20.857 Y13.370 Z-0.875 I0.503 J-0.005 K0.000 F200.000
G1 X22.250 Y13.375 Z-0.875 F200.000
G2 X22.745 Y12.924 Z-0.875 I-0.005 J-0.503 K0.000 F200.000
G1 X22.750 Y5.906 Z-0.875 F200.000
G2 X22.299 Y5.411 Z-0.875 I-0.503 J0.005 K0.000 F200.000
G1 X20.900 Y5.406 Z-0.875 F200.000
G3 X20.875 Y5.382 Z-0.875 I-0.007 J-0.018 K0.000 F200.000
G1 X20.875 Y4.104 Z-0.875 F200.000
G2 X20.424 Y3.609 Z-0.875 I-0.503 J0.005 K0.000 F200.000
G1 X19.324 Y3.604 Z-0.875 F200.000
G1 X19.305 Y3.600 Z-0.875 F200.000
G1 X19.315 Y3.583 Z-0.875 F200.000
G1 X20.819 Y2.079 Z-0.875 F200.000
G2 X20.965 Y1.750 Z-0.875 I-0.358 J-0.355 K0.000 F200.000
G1 X20.966 Y0.250 Z-0.875 F200.000
G2 X20.515 Y-0.245 Z-0.875 I-0.503 J0.005 K0.000 F200.000
G1 X18.940 Y-0.250 Z-0.875 F200.000
G2 X18.445 Y0.201 Z-0.875 I0.005 J0.503 K0.000 F200.000
G1 X18.441 Y1.554 Z-0.875 F200.000
G3 X18.416 Y1.579 Z-0.875 I-0.018 J0.007 K0.000 F200.000
G1 X16.949 Y1.579 Z-0.875 F200.000
G2 X16.454 Y2.030 Z-0.875 I0.005 J0.503 K0.000 F200.000
G1 X16.449 Y3.579 Z-0.875 F200.000
G3 X16.425 Y3.604 Z-0.875 I-0.018 J0.007 K0.000 F200.000
G1 X6.075 Y3.604 Z-0.875 F200.000
G3 X6.051 Y3.579 Z-0.875 I-0.007 J-0.017 K0.000 F200.000
G1 X6.051 Y2.079 Z-0.875 F200.000
G2 X5.600 Y1.584 Z-0.875 I-0.503 J0.005 K0.000 F200.000
G1 X4.085 Y1.579 Z-0.875 F200.000
G3 X4.060 Y1.554 Z-0.875 I-0.007 J-0.018 K0.000 F200.000
G1 X4.060 Y0.250 Z-0.875 F200.000
G2 X3.608 Y-0.245 Z-0.875 I-0.503 J0.005 K0.000 F200.000
G1 X2.034 Y-0.250 Z-0.875 F200.000
G2 X1.539 Y0.201 Z-0.875 I0.005 J0.503 K0.000 F200.000
G1 X1.534 Y1.725 Z-0.875 F200.000
G2 X1.664 Y2.061 Z-0.875 I0.504 J-0.003 K0.000 F200.000
G1 X3.185 Y3.583 Z-0.875 F200.000
G1 X3.195 Y3.600 Z-0.875 F200.000
G1 X3.176 Y3.604 Z-0.875 F200.000
G1 X2.125 Y3.604 Z-0.875 F200.000
G2 X1.630 Y4.055 Z-0.875 I0.005 J0.503 K0.000 F200.000
G1 X1.625 Y5.381 Z-0.875 F200.000
G3 X1.600 Y5.406 Z-0.875 I-0.018 J0.007 K0.000 F200.000
G1 X0.250 Y5.406 Z-0.875 F200.000
G2 X-0.245 Y5.858 Z-0.875 I0.005 J0.503 K0.000 F200.000
G1 X-0.250 Y12.875 Z-0.875 F200.000
G2 X0.201 Y13.370 Z-0.875 I0.503 J-0.005 K0.000 F200.000
G1 X1.625 Y13.375 Z-0.875 F200.000
G2 X2.120 Y12.924 Z-0.875 I-0.005 J-0.503 K0.000 F200.000
G1 X2.125 Y9.653 Z-0.875 F200.000
G3 X2.150 Y9.628 Z-0.875 I0.017 J-0.007 K0.000 F200.000
G1 X3.535 Y9.628 Z-0.875 F200.000
G3 X3.560 Y9.653 Z-0.875 I0.007 J0.017 K0.000 F200.000
G1 X3.560 Y10.906 Z-0.875 F200.000
G2 X4.011 Y11.401 Z-0.875 I0.503 J-0.005 K0.000 F200.000
G1 X5.167 Y11.406 Z-0.875 F200.000
G1 X5.186 Y11.411 Z-0.875 F200.000
G1 X5.176 Y11.427 Z-0.875 F200.000
G1 X3.729 Y12.875 Z-0.875 F200.000
G2 X3.583 Y13.204 Z-0.875 I0.358 J0.355 K0.000 F200.000
G1 X3.582 Y14.750 Z-0.875 F200.000
G2 X4.033 Y15.245 Z-0.875 I0.503 J-0.005 K0.000 F200.000
G1 X5.551 Y15.250 Z-0.875 F200.000
G2 X6.046 Y14.799 Z-0.875 I-0.005 J-0.503 K0.000 F200.000
G1 X6.051 Y13.400 Z-0.875 F200.000
G3 X6.075 Y13.375 Z-0.875 I0.018 J-0.007 K0.000 F200.000
G1 X7.238 Y13.375 Z-0.875 F200.000
G2 X7.733 Y12.924 Z-0.875 I-0.005 J-0.503 K0.000 F200.000
G1 X7.737 Y11.431 Z-0.875 F200.000
G3 X7.762 Y11.406 Z-0.875 I0.018 J-0.007 K0.000 F200.000
G1 X14.738 Y11.406 Z-0.875 F200.000
G3 X14.749 Y11.405 Z-0.875 I0.007 J0.017 K0.000 F200.000
G1 X14.749 Y11.405 Z-1.000 F60.000
G3 X14.762 Y11.431 Z-1.000 I-0.004 J0.018 K0.000 F200.000
G1 X14.762 Y12.882 Z-1.000 F200.000
G2 X15.214 Y13.377 Z-1.000 I0.503 J-0.005 K0.000 F200.000
G1 X16.653 Y13.382 Z-1.000 F200.000
G3 X16.678 Y13.406 Z-1.000 I0.007 J0.018 K0.000 F200.000
G1 X16.678 Y14.750 Z-1.000 F200.000
G2 X17.130 Y15.245 Z-1.000 I0.503 J-0.005 K0.000 F200.000
G1 X18.418 Y15.250 Z-1.000 F200.000
G2 X18.913 Y14.799 Z-1.000 I-0.005 J-0.503 K0.000 F200.000
G1 X18.918 Y13.255 Z-1.000 F200.000
G2 X18.790 Y12.922 Z-1.000 I-0.504 J0.003 K0.000 F200.000
G1 X17.318 Y11.427 Z-1.000 F200.000
G1 X17.308 Y11.411 Z-1.000 F200.000
G1 X17.326 Y11.406 Z-1.000 F200.000
G1 X18.500 Y11.406 Z-1.000 F200.000
G2 X18.995 Y10.955 Z-1.000 I-0.005 J-0.503 K0.000 F200.000
G1 X19.000 Y9.654 Z-1.000 F200.000
G3 X19.025 Y9.629 Z-1.000 I0.018 J-0.007 K0.000 F200.000
G1 X20.382 Y9.629 Z-1.000 F200.000
G3 X20.406 Y9.653 Z-1.000 I0.007 J0.017 K0.000 F200.000
G1 X20.406 Y12.875 Z-1.000 F200.000
G2 X20.857 Y13.370 Z-1.000 I0.503 J-0.005 K0.000 F200.000
G1 X22.250 Y13.375 Z-1.000 F200.000
G2 X22.745 Y12.924 Z-1.000 I-0.005 J-0.503 K0.000 F200.000
G1 X22.750 Y5.906 Z-1.000 F200.000
G2 X22.299 Y5.411 Z-1.000 I-0.503 J0.005 K0.000 F200.000
G1 X20.900 Y5.406 Z-1.000 F200.000
G3 X20.875 Y5.382 Z-1.000 I-0.007 J-0.018 K0.000 F200.000
G1 X20.875 Y4.104 Z-1.000 F200.000
G2 X20.424 Y3.609 Z-1.000 I-0.503 J0.005 K0.000 F200.000
G1 X19.324 Y3.604 Z-1.000 F200.000
G1 X19.305 Y3.600 Z-1.000 F200.000
G1 X19.315 Y3.583 Z-1.000 F200.000
G1 X20.819 Y2.079 Z-1.000 F200.000
G2 X20.965 Y1.750 Z-1.000 I-0.358 J-0.355 K0.000 F200.000
G1 X20.966 Y0.250 Z-1.000 F200.000
G2 X20.515 Y-0.245 Z-1.000 I-0.503 J0.005 K0.000 F200.000
G1 X18.940 Y-0.250 Z-1.000 F200.000
G2 X18.445 Y0.201 Z-1.000 I0.005 J0.503 K0.000 F200.000
G1 X18.441 Y1.554 Z-1.000 F200.000
G3 X18.416 Y1.579 Z-1.000 I-0.018 J0.007 K0.000 F200.000
G1 X16.949 Y1.579 Z-1.000 F200.000
G2 X16.454 Y2.030 Z-1.000 I0.005 J0.503 K0.000 F200.000
G1 X16.449 Y3.579 Z-1.000 F200.000
G3 X16.425 Y3.604 Z-1.000 I-0.018 J0.007 K0.000 F200.000
G1 X6.075 Y3.604 Z-1.000 F200.000
G3 X6.051 Y3.579 Z-1.000 I-0.007 J-0.017 K0.000 F200.000
G1 X6.051 Y2.079 Z-1.000 F200.000
G2 X5.600 Y1.584 Z-1.000 I-0.503 J0.005 K0.000 F200.000
G1 X4.085 Y1.579 Z-1.000 F200.000
G3 X4.060 Y1.554 Z-1.000 I-0.007 J-0.018 K0.000 F200.000
G1 X4.060 Y0.250 Z-1.000 F200.000
G2 X3.608 Y-0.245 Z-1.000 I-0.503 J0.005 K0.000 F200.000
G1 X2.034 Y-0.250 Z-1.000 F200.000
G2 X1.539 Y0.201 Z-1.000 I0.005 J0.503 K0.000 F200.000
G1 X1.534 Y1.725 Z-1.000 F200.000
G2 X1.664 Y2.061 Z-1.000 I0.504 J-0.003 K0.000 F200.000
G1 X3.185 Y3.583 Z-1.000 F200.000
G1 X3.195 Y3.600 Z-1.000 F200.000
G1 X3.176 Y3.604 Z-1.000 F200.000
G1 X2.125 Y3.604 Z-1.000 F200.000
G2 X1.630 Y4.055 Z-1.000 I0.005 J0.503 K0.000 F200.000
G1 X1.625 Y5.381 Z-1.000 F200.000
G3 X1.600 Y5.406 Z-1.000 I-0.018 J0.007 K0.000 F200.000
G1 X0.250 Y5.406 Z-1.000 F200.000
G2 X-0.245 Y5.858 Z-1.000 I0.005 J0.503 K0.000 F200.000
G1 X-0.250 Y12.875 Z-1.000 F200.000
G2 X0.201 Y13.370 Z-1.000 I0.503 J-0.005 K0.000 F200.000
G1 X1.625 Y13.375 Z-1.000 F200.000
G2 X2.120 Y12.924 Z-1.000 I-0.005 J-0.503 K0.000 F200.000
G1 X2.125 Y9.653 Z-1.000 F200.000
G3 X2.150 Y9.628 Z-1.000 I0.017 J-0.007 K0.000 F200.000
G1 X3.535 Y9.628 Z-1.000 F200.000
G3 X3.560 Y9.653 Z-1.000 I0.007 J0.017 K0.000 F200.000
G1 X3.560 Y10.906 Z-1.000 F200.000
G2 X4.011 Y11.401 Z-1.000 I0.503 J-0.005 K0.000 F200.000
G1 X5.167 Y11.406 Z-1.000 F200.000
G1 X5.186 Y11.411 Z-1.000 F200.000
G1 X5.176 Y11.427 Z-1.000 F200.000
G1 X3.729 Y12.875 Z-1.000 F200.000
G2 X3.583 Y13.204 Z-1.000 I0.358 J0.355 K0.000 F200.000
G1 X3.582 Y14.750 Z-1.000 F200.000
G2 X4.033 Y15.245 Z-1.000 I0.503 J-0.005 K0.000 F200.000
G1 X5.551 Y15.250 Z-1.000 F200.000
G2 X6.046 Y14.799 Z-1.000 I-0.005 J-0.503 K0.000 F200.000
G1 X6.051 Y13.400 Z-1.000 F200.000
G3 X6.075 Y13.375 Z-1.000 I0.018 J-0.007 K0.000 F200.000
G1 X7.238 Y13.375 Z-1.000 F200.000
G2 X7.733 Y12.924 Z-1.000 I-0.005 J-0.503 K0.000 F200.000
G1 X7.737 Y11.431 Z-1.000 F200.000
G3 X7.762 Y11.406 Z-1.000 I0.018 J-0.007 K0.000 F200.000
G1 X14.738 Y11.406 Z-1.000 F200.000
G3 X14.749 Y11.405 Z-1.000 I0.007 J0.017 K0.000 F200.000
G1 X14.749 Y11.405 Z-1.125 F60.000
G3 X14.762 Y11.431 Z-1.125 I-0.004 J0.018 K0.000 F200.000
G1 X14.762 Y12.882 Z-1.125 F200.000
G2 X15.214 Y13.377 Z-1.125 I0.503 J-0.005 K0.000 F200.000
G1 X16.653 Y13.382 Z-1.125 F200.000
G3 X16.678 Y13.406 Z-1.125 I0.007 J0.018 K0.000 F200.000
G1 X16.678 Y14.750 Z-1.125 F200.000
G2 X17.130 Y15.245 Z-1.125 I0.503 J-0.005 K0.000 F200.000
G1 X18.418 Y15.250 Z-1.125 F200.000
G2 X18.913 Y14.799 Z-1.125 I-0.005 J-0.503 K0.000 F200.000
G1 X18.918 Y13.255 Z-1.125 F200.000
G2 X18.790 Y12.922 Z-1.125 I-0.504 J0.003 K0.000 F200.000
G1 X17.318 Y11.427 Z-1.125 F200.000
G1 X17.308 Y11.411 Z-1.125 F200.000
G1 X17.326 Y11.406 Z-1.125 F200.000
G1 X18.500 Y11.406 Z-1.125 F200.000
G2 X18.995 Y10.955 Z-1.125 I-0.005 J-0.503 K0.000 F200.000
G1 X19.000 Y9.654 Z-1.125 F200.000
G3 X19.025 Y9.629 Z-1.125 I0.018 J-0.007 K0.000 F200.000
G1 X20.382 Y9.629 Z-1.125 F200.000
G3 X20.406 Y9.653 Z-1.125 I0.007 J0.017 K0.000 F200.000
G1 X20.406 Y12.875 Z-1.125 F200.000
G2 X20.857 Y13.370 Z-1.125 I0.503 J-0.005 K0.000 F200.000
G1 X22.250 Y13.375 Z-1.125 F200.000
G2 X22.745 Y12.924 Z-1.125 I-0.005 J-0.503 K0.000 F200.000
G1 X22.750 Y5.906 Z-1.125 F200.000
G2 X22.299 Y5.411 Z-1.125 I-0.503 J0.005 K0.000 F200.000
G1 X20.900 Y5.406 Z-1.125 F200.000
G3 X20.875 Y5.382 Z-1.125 I-0.007 J-0.018 K0.000 F200.000
G1 X20.875 Y4.104 Z-1.125 F200.000
G2 X20.424 Y3.609 Z-1.125 I-0.503 J0.005 K0.000 F200.000
G1 X19.324 Y3.604 Z-1.125 F200.000
G1 X19.305 Y3.600 Z-1.125 F200.000
G1 X19.315 Y3.583 Z-1.125 F200.000
G1 X20.819 Y2.079 Z-1.125 F200.000
G2 X20.965 Y1.750 Z-1.125 I-0.358 J-0.355 K0.000 F200.000
G1 X20.966 Y0.250 Z-1.125 F200.000
G2 X20.515 Y-0.245 Z-1.125 I-0.503 J0.005 K0.000 F200.000
G1 X18.940 Y-0.250 Z-1.125 F200.000
G2 X18.445 Y0.201 Z-1.125 I0.005 J0.503 K0.000 F200.000
G1 X18.441 Y1.554 Z-1.125 F200.000
G3 X18.416 Y1.579 Z-1.125 I-0.018 J0.007 K0.000 F200.000
G1 X16.949 Y1.579 Z-1.125 F200.000
G2 X16.454 Y2.030 Z-1.125 I0.005 J0.503 K0.000 F200.000
G1 X16.449 Y3.579 Z-1.125 F200.000
G3 X16.425 Y3.604 Z-1.125 I-0.018 J0.007 K0.000 F200.000
G1 X6.075 Y3.604 Z-1.125 F200.000
G3 X6.051 Y3.579 Z-1.125 I-0.007 J-0.017 K0.000 F200.000
G1 X6.051 Y2.079 Z-1.125 F200.000
G2 X5.600 Y1.584 Z-1.125 I-0.503 J0.005 K0.000 F200.000
G1 X4.085 Y1.579 Z-1.125 F200.000
G3 X4.060 Y1.554 Z-1.125 I-0.007 J-0.018 K0.000 F200.000
G1 X4.060 Y0.250 Z-1.125 F200.000
G2 X3.608 Y-0.245 Z-1.125 I-0.503 J0.005 K0.000 F200.000
G1 X2.034 Y-0.250 Z-1.125 F200.000
G2 X1.539 Y0.201 Z-1.125 I0.005 J0.503 K0.000 F200.000
G1 X1.534 Y1.725 Z-1.125 F200.000
G2 X1.664 Y2.061 Z-1.125 I0.504 J-0.003 K0.000 F200.000
G1 X3.185 Y3.583 Z-1.125 F200.000
G1 X3.195 Y3.600 Z-1.125 F200.000
G1 X3.176 Y3.604 Z-1.125 F200.000
G1 X2.125 Y3.604 Z-1.125 F200.000
G2 X1.630 Y4.055 Z-1.125 I0.005 J0.503 K0.000 F200.000
G1 X1.625 Y5.381 Z-1.125 F200.000
G3 X1.600 Y5.406 Z-1.125 I-0.018 J0.007 K0.000 F200.000
G1 X0.250 Y5.406 Z-1.125 F200.000
G2 X-0.245 Y5.858 Z-1.125 I0.005 J0.503 K0.000 F200.000
G1 X-0.250 Y12.875 Z-1.125 F200.000
G2 X0.201 Y13.370 Z-1.125 I0.503 J-0.005 K0.000 F200.000
G1 X1.625 Y13.375 Z-1.125 F200.000
G2 X2.120 Y12.924 Z-1.125 I-0.005 J-0.503 K0.000 F200.000
G1 X2.125 Y9.653 Z-1.125 F200.000
G3 X2.150 Y9.628 Z-1.125 I0.017 J-0.007 K0.000 F200.000
G1 X3.535 Y9.628 Z-1.125 F200.000
G3 X3.560 Y9.653 Z-1.125 I0.007 J0.017 K0.000 F200.000
G1 X3.560 Y10.906 Z-1.125 F200.000
G2 X4.011 Y11.401 Z-1.125 I0.503 J-0.005 K0.000 F200.000
G1 X5.167 Y11.406 Z-1.125 F200.000
G1 X5.186 Y11.411 Z-1.125 F200.000
G1 X5.176 Y11.427 Z-1.125 F200.000
G1 X3.729 Y12.875 Z-1.125 F200.000
G2 X3.583 Y13.204 Z-1.125 I0.358 J0.355 K0.000 F200.000
G1 X3.582 Y14.750 Z-1.125 F200.000
G2 X4.033 Y15.245 Z-1.125 I0.503 J-0.005 K0.000 F200.000
G1 X5.551 Y15.250 Z-1.125 F200.000
G2 X6.046 Y14.799 Z-1.125 I-0.005 J-0.503 K0.000 F200.000
G1 X6.051 Y13.400 Z-1.125 F200.000
G3 X6.075 Y13.375 Z-1.125 I0.018 J-0.007 K0.000 F200.000
G1 X7.238 Y13.375 Z-1.125 F200.000
G2 X7.733 Y12.924 Z-1.125 I-0.005 J-0.503 K0.000 F200.000
G1 X7.737 Y11.431 Z-1.125 F200.000
G3 X7.762 Y11.406 Z-1.125 I0.018 J-0.007 K0.000 F200.000
G1 X14.738 Y11.406 Z-1.125 F200.000
G3 X14.749 Y11.405 Z-1.125 I0.007 J0.017 K0.000 F200.000
G1 X14.749 Y11.405 Z-1.250 F60.000
G3 X14.762 Y11.431 Z-1.250 I-0.004 J0.018 K0.000 F200.000
G1 X14.762 Y12.882 Z-1.250 F200.000
G2 X15.214 Y13.377 Z-1.250 I0.503 J-0.005 K0.000 F200.000
G1 X16.653 Y13.382 Z-1.250 F200.000
G3 X16.678 Y13.406 Z-1.250 I0.007 J0.018 K0.000 F200.000
G1 X16.678 Y14.750 Z-1.250 F200.000
G2 X17.130 Y15.245 Z-1.250 I0.503 J-0.005 K0.000 F200.000
G1 X18.418 Y15.250 Z-1.250 F200.000
G2 X18.913 Y14.799 Z-1.250 I-0.005 J-0.503 K0.000 F200.000
G1 X18.918 Y13.255 Z-1.250 F200.000
G2 X18.790 Y12.922 Z-1.250 I-0.504 J0.003 K0.000 F200.000
G1 X17.318 Y11.427 Z-1.250 F200.000
G1 X17.308 Y11.411 Z-1.250 F200.000
G1 X17.326 Y11.406 Z-1.250 F200.000
G1 X18.500 Y11.406 Z-1.250 F200.000
G2 X18.995 Y10.955 Z-1.250 I-0.005 J-0.503 K0.000 F200.000
G1 X19.000 Y9.654 Z-1.250 F200.000
G3 X19.025 Y9.629 Z-1.250 I0.018 J-0.007 K0.000 F200.000
G1 X20.382 Y9.629 Z-1.250 F200.000
G3 X20.406 Y9.653 Z-1.250 I0.007 J0.017 K0.000 F200.000
G1 X20.406 Y12.875 Z-1.250 F200.000
G2 X20.857 Y13.370 Z-1.250 I0.503 J-0.005 K0.000 F200.000
G1 X22.250 Y13.375 Z-1.250 F200.000
G2 X22.745 Y12.924 Z-1.250 I-0.005 J-0.503 K0.000 F200.000
G1 X22.750 Y5.906 Z-1.250 F200.000
G2 X22.299 Y5.411 Z-1.250 I-0.503 J0.005 K0.000 F200.000
G1 X20.900 Y5.406 Z-1.250 F200.000
G3 X20.875 Y5.382 Z-1.250 I-0.007 J-0.018 K0.000 F200.000
G1 X20.875 Y4.104 Z-1.250 F200.000
G2 X20.424 Y3.609 Z-1.250 I-0.503 J0.005 K0.000 F200.000
G1 X19.324 Y3.604 Z-1.250 F200.000
G1 X19.305 Y3.600 Z-1.250 F200.000
G1 X19.315 Y3.583 Z-1.250 F200.000
G1 X20.819 Y2.079 Z-1.250 F200.000
G2 X20.965 Y1.750 Z-1.250 I-0.358 J-0.355 K0.000 F200.000
G1 X20.966 Y0.250 Z-1.250 F200.000
G2 X20.515 Y-0.245 Z-1.250 I-0.503 J0.005 K0.000 F200.000
G1 X18.940 Y-0.250 Z-1.250 F200.000
G2 X18.445 Y0.201 Z-1.250 I0.005 J0.503 K0.000 F200.000
G1 X18.441 Y1.554 Z-1.250 F200.000
G3 X18.416 Y1.579 Z-1.250 I-0.018 J0.007 K0.000 F200.000
G1 X16.949 Y1.579 Z-1.250 F200.000
G2 X16.454 Y2.030 Z-1.250 I0.005 J0.503 K0.000 F200.000
G1 X16.449 Y3.579 Z-1.250 F200.000
G3 X16.425 Y3.604 Z-1.250 I-0.018 J0.007 K0.000 F200.000
G1 X6.075 Y3.604 Z-1.250 F200.000
G3 X6.051 Y3.579 Z-1.250 I-0.007 J-0.017 K0.000 F200.000
G1 X6.051 Y2.079 Z-1.250 F200.000
G2 X5.600 Y1.584 Z-1.250 I-0.503 J0.005 K0.000 F200.000
G1 X4.085 Y1.579 Z-1.250 F200.000
G3 X4.060 Y1.554 Z-1.250 I-0.007 J-0.018 K0.000 F200.000
G1 X4.060 Y0.250 Z-1.250 F200.000
G2 X3.608 Y-0.245 Z-1.250 I-0.503 J0.005 K0.000 F200.000
G1 X2.034 Y-0.250 Z-1.250 F200.000
G2 X1.539 Y0.201 Z-1.250 I0.005 J0.503 K0.000 F200.000
G1 X1.534 Y1.725 Z-1.250 F200.000
G2 X1.664 Y2.061 Z-1.250 I0.504 J-0.003 K0.000 F200.000
G1 X3.185 Y3.583 Z-1.250 F200.000
G1 X3.195 Y3.600 Z-1.250 F200.000
G1 X3.176 Y3.604 Z-1.250 F200.000
G1 X2.125 Y3.604 Z-1.250 F200.000
G2 X1.630 Y4.055 Z-1.250 I0.005 J0.503 K0.000 F200.000
G1 X1.625 Y5.381 Z-1.250 F200.000
G3 X1.600 Y5.406 Z-1.250 I-0.018 J0.007 K0.000 F200.000
G1 X0.250 Y5.406 Z-1.250 F200.000
G2 X-0.245 Y5.858 Z-1.250 I0.005 J0.503 K0.000 F200.000
G1 X-0.250 Y12.875 Z-1.250 F200.000
G2 X0.201 Y13.370 Z-1.250 I0.503 J-0.005 K0.000 F200.000
G1 X1.625 Y13.375 Z-1.250 F200.000
G2 X2.120 Y12.924 Z-1.250 I-0.005 J-0.503 K0.000 F200.000
G1 X2.125 Y9.653 Z-1.250 F200.000
G3 X2.150 Y9.628 Z-1.250 I0.017 J-0.007 K0.000 F200.000
G1 X3.535 Y9.628 Z-1.250 F200.000
G3 X3.560 Y9.653 Z-1.250 I0.007 J0.017 K0.000 F200.000
G1 X3.560 Y10.906 Z-1.250 F200.000
G2 X4.011 Y11.401 Z-1.250 I0.503 J-0.005 K0.000 F200.000
G1 X5.167 Y11.406 Z-1.250 F200.000
G1 X5.186 Y11.411 Z-1.250 F200.000
G1 X5.176 Y11.427 Z-1.250 F200.000
G1 X3.729 Y12.875 Z-1.250 F200.000
G2 X3.583 Y13.204 Z-1.250 I0.358 J0.355 K0.000 F200.000
G1 X3.582 Y14.750 Z-1.250 F200.000
G2 X4.033 Y15.245 Z-1.250 I0.503 J-0.005 K0.000 F200.000
G1 X5.551 Y15.250 Z-1.250 F200.000
G2 X6.046 Y14.799 Z-1.250 I-0.005 J-0.503 K0.000 F200.000
G1 X6.051 Y13.400 Z-1.250 F200.000
G3 X6.075 Y13.375 Z-1.250 I0.018 J-0.007 K0.000 F200.000
G1 X7.238 Y13.375 Z-1.250 F200.000
G2 X7.733 Y12.924 Z-1.250 I-0.005 J-0.503 K0.000 F200.000
G1 X7.737 Y11.431 Z-1.250 F200.000
G3 X7.762 Y11.406 Z-1.250 I0.018 J-0.007 K0.000 F200.000
G1 X14.738 Y11.406 Z-1.250 F200.000
G3 X14.749 Y11.405 Z-1.250 I0.007 J0.017 K0.000 F200.000
G1 X14.749 Y11.405 Z-1.375 F60.000
G3 X14.762 Y11.431 Z-1.375 I-0.004 J0.018 K0.000 F200.000
G1 X14.762 Y12.882 Z-1.375 F200.000
G2 X15.214 Y13.377 Z-1.375 I0.503 J-0.005 K0.000 F200.000
G1 X16.653 Y13.382 Z-1.375 F200.000
G3 X16.678 Y13.406 Z-1.375 I0.007 J0.018 K0.000 F200.000
G1 X16.678 Y14.750 Z-1.375 F200.000
G2 X17.130 Y15.245 Z-1.375 I0.503 J-0.005 K0.000 F200.000
G1 X18.418 Y15.250 Z-1.375 F200.000
G2 X18.913 Y14.799 Z-1.375 I-0.005 J-0.503 K0.000 F200.000
G1 X18.918 Y13.255 Z-1.375 F200.000
G2 X18.790 Y12.922 Z-1.375 I-0.504 J0.003 K0.000 F200.000
G1 X17.318 Y11.427 Z-1.375 F200.000
G1 X17.308 Y11.411 Z-1.375 F200.000
G1 X17.326 Y11.406 Z-1.375 F200.000
G1 X18.500 Y11.406 Z-1.375 F200.000
G2 X18.995 Y10.955 Z-1.375 I-0.005 J-0.503 K0.000 F200.000
G1 X19.000 Y9.654 Z-1.375 F200.000
G3 X19.025 Y9.629 Z-1.375 I0.018 J-0.007 K0.000 F200.000
G1 X20.382 Y9.629 Z-1.375 F200.000
G3 X20.406 Y9.653 Z-1.375 I0.007 J0.017 K0.000 F200.000
G1 X20.406 Y12.875 Z-1.375 F200.000
G2 X20.857 Y13.370 Z-1.375 I0.503 J-0.005 K0.000 F200.000
G1 X22.250 Y13.375 Z-1.375 F200.000
G2 X22.745 Y12.924 Z-1.375 I-0.005 J-0.503 K0.000 F200.000
G1 X22.750 Y5.906 Z-1.375 F200.000
G2 X22.299 Y5.411 Z-1.375 I-0.503 J0.005 K0.000 F200.000
G1 X20.900 Y5.406 Z-1.375 F200.000
G3 X20.875 Y5.382 Z-1.375 I-0.007 J-0.018 K0.000 F200.000
G1 X20.875 Y4.104 Z-1.375 F200.000
G2 X20.424 Y3.609 Z-1.375 I-0.503 J0.005 K0.000 F200.000
G1 X19.324 Y3.604 Z-1.375 F200.000
G1 X19.305 Y3.600 Z-1.375 F200.000
G1 X19.315 Y3.583 Z-1.375 F200.000
G1 X20.819 Y2.079 Z-1.375 F200.000
G2 X20.965 Y1.750 Z-1.375 I-0.358 J-0.355 K0.000 F200.000
G1 X20.966 Y0.250 Z-1.375 F200.000
G2 X20.515 Y-0.245 Z-1.375 I-0.503 J0.005 K0.000 F200.000
G1 X18.940 Y-0.250 Z-1.375 F200.000
G2 X18.445 Y0.201 Z-1.375 I0.005 J0.503 K0.000 F200.000
G1 X18.441 Y1.554 Z-1.375 F200.000
G3 X18.416 Y1.579 Z-1.375 I-0.018 J0.007 K0.000 F200.000
G1 X16.949 Y1.579 Z-1.375 F200.000
G2 X16.454 Y2.030 Z-1.375 I0.005 J0.503 K0.000 F200.000
G1 X16.449 Y3.579 Z-1.375 F200.000
G3 X16.425 Y3.604 Z-1.375 I-0.018 J0.007 K0.000 F200.000
G1 X6.075 Y3.604 Z-1.375 F200.000
G3 X6.051 Y3.579 Z-1.375 I-0.007 J-0.017 K0.000 F200.000
G1 X6.051 Y2.079 Z-1.375 F200.000
G2 X5.600 Y1.584 Z-1.375 I-0.503 J0.005 K0.000 F200.000
G1 X4.085 Y1.579 Z-1.375 F200.000
G3 X4.060 Y1.554 Z-1.375 I-0.007 J-0.018 K0.000 F200.000
G1 X4.060 Y0.250 Z-1.375 F200.000
G2 X3.608 Y-0.245 Z-1.375 I-0.503 J0.005 K0.000 F200.000
G1 X2.034 Y-0.250 Z-1.375 F200.000
G2 X1.539 Y0.201 Z-1.375 I0.005 J0.503 K0.000 F200.000
G1 X1.534 Y1.725 Z-1.375 F200.000
G2 X1.664 Y2.061 Z-1.375 I0.504 J-0.003 K0.000 F200.000
G1 X3.185 Y3.583 Z-1.375 F200.000
G1 X3.195 Y3.600 Z-1.375 F200.000
G1 X3.176 Y3.604 Z-1.375 F200.000
G1 X2.125 Y3.604 Z-1.375 F200.000
G2 X1.630 Y4.055 Z-1.375 I0.005 J0.503 K0.000 F200.000
G1 X1.625 Y5.381 Z-1.375 F200.000
G3 X1.600 Y5.406 Z-1.375 I-0.018 J0.007 K0.000 F200.000
G1 X0.250 Y5.406 Z-1.375 F200.000
G2 X-0.245 Y5.858 Z-1.375 I0.005 J0.503 K0.000 F200.000
G1 X-0.250 Y12.875 Z-1.375 F200.000
G2 X0.201 Y13.370 Z-1.375 I0.503 J-0.005 K0.000 F200.000
G1 X1.625 Y13.375 Z-1.375 F200.000
G2 X2.120 Y12.924 Z-1.375 I-0.005 J-0.503 K0.000 F200.000
G1 X2.125 Y9.653 Z-1.375 F200.000
G3 X2.150 Y9.628 Z-1.375 I0.017 J-0.007 K0.000 F200.000
G1 X3.535 Y9.628 Z-1.375 F200.000
G3 X3.560 Y9.653 Z-1.375 I0.007 J0.017 K0.000 F200.000
G1 X3.560 Y10.906 Z-1.375 F200.000
G2 X4.011 Y11.401 Z-1.375 I0.503 J-0.005 K0.000 F200.000
G1 X5.167 Y11.406 Z-1.375 F200.000
G1 X5.186 Y11.411 Z-1.375 F200.000
G1 X5.176 Y11.427 Z-1.375 F200.000
G1 X3.729 Y12.875 Z-1.375 F200.000
G2 X3.583 Y13.204 Z-1.375 I0.358 J0.355 K0.000 F200.000
G1 X3.582 Y14.750 Z-1.375 F200.000
G2 X4.033 Y15.245 Z-1.375 I0.503 J-0.005 K0.000 F200.000
G1 X5.551 Y15.250 Z-1.375 F200.000
G2 X6.046 Y14.799 Z-1.375 I-0.005 J-0.503 K0.000 F200.000
G1 X6.051 Y13.400 Z-1.375 F200.000
G3 X6.075 Y13.375 Z-1.375 I0.018 J-0.007 K0.000 F200.000
G1 X7.238 Y13.375 Z-1.375 F200.000
G2 X7.733 Y12.924 Z-1.375 I-0.005 J-0.503 K0.000 F200.000
G1 X7.737 Y11.431 Z-1.375 F200.000
G3 X7.762 Y11.406 Z-1.375 I0.018 J-0.007 K0.000 F200.000
G1 X14.738 Y11.406 Z-1.375 F200.000
G3 X14.749 Y11.405 Z-1.375 I0.007 J0.017 K0.000 F200.000
G1 X14.749 Y11.405 Z-1.500 F60.000
G3 X14.762 Y11.431 Z-1.500 I-0.004 J0.018 K0.000 F200.000
G1 X14.762 Y12.882 Z-1.500 F200.000
G2 X15.214 Y13.377 Z-1.500 I0.503 J-0.005 K0.000 F200.000
G1 X16.653 Y13.382 Z-1.500 F200.000
G3 X16.678 Y13.406 Z-1.500 I0.007 J0.018 K0.000 F200.000
G1 X16.678 Y14.750 Z-1.500 F200.000
G2 X17.130 Y15.245 Z-1.500 I0.503 J-0.005 K0.000 F200.000
G1 X18.418 Y15.250 Z-1.500 F200.000
G2 X18.913 Y14.799 Z-1.500 I-0.005 J-0.503 K0.000 F200.000
G1 X18.918 Y13.255 Z-1.500 F200.000
G2 X18.790 Y12.922 Z-1.500 I-0.504 J0.003 K0.000 F200.000
G1 X17.318 Y11.427 Z-1.500 F200.000
G1 X17.308 Y11.411 Z-1.500 F200.000
G1 X17.326 Y11.406 Z-1.500 F200.000
G1 X18.500 Y11.406 Z-1.500 F200.000
G2 X18.995 Y10.955 Z-1.500 I-0.005 J-0.503 K0.000 F200.000
G1 X19.000 Y9.654 Z-1.500 F200.000
G3 X19.025 Y9.629 Z-1.500 I0.018 J-0.007 K0.000 F200.000
G1 X20.382 Y9.629 Z-1.500 F200.000
G3 X20.406 Y9.653 Z-1.500 I0.007 J0.017 K0.000 F200.000
G1 X20.406 Y12.875 Z-1.500 F200.000
G2 X20.857 Y13.370 Z-1.500 I0.503 J-0.005 K0.000 F200.000
G1 X22.250 Y13.375 Z-1.500 F200.000
G2 X22.745 Y12.924 Z-1.500 I-0.005 J-0.503 K0.000 F200.000
G1 X22.750 Y5.906 Z-1.500 F200.000
G2 X22.299 Y5.411 Z-1.500 I-0.503 J0.005 K0.000 F200.000
G1 X20.900 Y5.406 Z-1.500 F200.000
G3 X20.875 Y5.382 Z-1.500 I-0.007 J-0.018 K0.000 F200.000
G1 X20.875 Y4.104 Z-1.500 F200.000
G2 X20.424 Y3.609 Z-1.500 I-0.503 J0.005 K0.000 F200.000
G1 X19.324 Y3.604 Z-1.500 F200.000
G1 X19.305 Y3.600 Z-1.500 F200.000
G1 X19.315 Y3.583 Z-1.500 F200.000
G1 X20.819 Y2.079 Z-1.500 F200.000
G2 X20.965 Y1.750 Z-1.500 I-0.358 J-0.355 K0.000 F200.000
G1 X20.966 Y0.250 Z-1.500 F200.000
G2 X20.515 Y-0.245 Z-1.500 I-0.503 J0.005 K0.000 F200.000
G1 X18.940 Y-0.250 Z-1.500 F200.000
G2 X18.445 Y0.201 Z-1.500 I0.005 J0.503 K0.000 F200.000
G1 X18.441 Y1.554 Z-1.500 F200.000
G3 X18.416 Y1.579 Z-1.500 I-0.018 J0.007 K0.000 F200.000
G1 X16.949 Y1.579 Z-1.500 F200.000
G2 X16.454 Y2.030 Z-1.500 I0.005 J0.503 K0.000 F200.000
G1 X16.449 Y3.579 Z-1.500 F200.000
G3 X16.425 Y3.604 Z-1.500 I-0.018 J0.007 K0.000 F200.000
G1 X6.075 Y3.604 Z-1.500 F200.000
G3 X6.051 Y3.579 Z-1.500 I-0.007 J-0.017 K0.000 F200.000
G1 X6.051 Y2.079 Z-1.500 F200.000
G2 X5.600 Y1.584 Z-1.500 I-0.503 J0.005 K0.000 F200.000
G1 X4.085 Y1.579 Z-1.500 F200.000
G3 X4.060 Y1.554 Z-1.500 I-0.007 J-0.018 K0.000 F200.000
G1 X4.060 Y0.250 Z-1.500 F200.000
G2 X3.608 Y-0.245 Z-1.500 I-0.503 J0.005 K0.000 F200.000
G1 X2.034 Y-0.250 Z-1.500 F200.000
G2 X1.539 Y0.201 Z-1.500 I0.005 J0.503 K0.000 F200.000
G1 X1.534 Y1.725 Z-1.500 F200.000
G2 X1.664 Y2.061 Z-1.500 I0.504 J-0.003 K0.000 F200.000
G1 X3.185 Y3.583 Z-1.500 F200.000
G1 X3.195 Y3.600 Z-1.500 F200.000
G1 X3.176 Y3.604 Z-1.500 F200.000
G1 X2.125 Y3.604 Z-1.500 F200.000
G2 X1.630 Y4.055 Z-1.500 I0.005 J0.503 K0.000 F200.000
G1 X1.625 Y5.381 Z-1.500 F200.000
G3 X1.600 Y5.406 Z-1.500 I-0.018 J0.007 K0.000 F200.000
G1 X0.250 Y5.406 Z-1.500 F200.000
G2 X-0.245 Y5.858 Z-1.500 I0.005 J0.503 K0.000 F200.000
G1 X-0.250 Y12.875 Z-1.500 F200.000
G2 X0.201 Y13.370 Z-1.500 I0.503 J-0.005 K0.000 F200.000
G1 X1.625 Y13.375 Z-1.500 F200.000
G2 X2.120 Y12.924 Z-1.500 I-0.005 J-0.503 K0.000 F200.000
G1 X2.125 Y9.653 Z-1.500 F200.000
G3 X2.150 Y9.628 Z-1.500 I0.017 J-0.007 K0.000 F200.000
G1 X3.535 Y9.628 Z-1.500 F200.000
G3 X3.560 Y9.653 Z-1.500 I0.007 J0.017 K0.000 F200.000
G1 X3.560 Y10.906 Z-1.500 F200.000
G2 X4.011 Y11.401 Z-1.500 I0.503 J-0.005 K0.000 F200.000
G1 X5.167 Y11.406 Z-1.500 F200.000
G1 X5.186 Y11.411 Z-1.500 F200.000
G1 X5.176 Y11.427 Z-1.500 F200.000
G1 X3.729 Y12.875 Z-1.500 F200.000
G2 X3.583 Y13.204 Z-1.500 I0.358 J0.355 K0.000 F200.000
G1 X3.582 Y14.750 Z-1.500 F200.000
G2 X4.033 Y15.245 Z-1.500 I0.503 J-0.005 K0.000 F200.000
G1 X5.551 Y15.250 Z-1.500 F200.000
G2 X6.046 Y14.799 Z-1.500 I-0.005 J-0.503 K0.000 F200.000
G1 X6.051 Y13.400 Z-1.500 F200.000
G3 X6.075 Y13.375 Z-1.500 I0.018 J-0.007 K0.000 F200.000
G1 X7.238 Y13.375 Z-1.500 F200.000
G2 X7.733 Y12.924 Z-1.500 I-0.005 J-0.503 K0.000 F200.000
G1 X7.737 Y11.431 Z-1.500 F200.000
G3 X7.762 Y11.406 Z-1.500 I0.018 J-0.007 K0.000 F200.000
G1 X14.738 Y11.406 Z-1.500 F200.000
G3 X14.749 Y11.405 Z-1.500 I0.007 J0.017 K0.000 F200.000
G1 X14.749 Y11.405 Z-1.625 F60.000
G3 X14.762 Y11.431 Z-1.625 I-0.004 J0.018 K0.000 F200.000
G1 X14.762 Y12.882 Z-1.625 F200.000
G2 X15.214 Y13.377 Z-1.625 I0.503 J-0.005 K0.000 F200.000
G1 X16.653 Y13.382 Z-1.625 F200.000
G3 X16.678 Y13.406 Z-1.625 I0.007 J0.018 K0.000 F200.000
G1 X16.678 Y14.750 Z-1.625 F200.000
G2 X17.130 Y15.245 Z-1.625 I0.503 J-0.005 K0.000 F200.000
G1 X18.418 Y15.250 Z-1.625 F200.000
G2 X18.913 Y14.799 Z-1.625 I-0.005 J-0.503 K0.000 F200.000
G1 X18.918 Y13.255 Z-1.625 F200.000
G2 X18.790 Y12.922 Z-1.625 I-0.504 J0.003 K0.000 F200.000
G1 X17.318 Y11.427 Z-1.625 F200.000
G1 X17.308 Y11.411 Z-1.625 F200.000
G1 X17.326 Y11.406 Z-1.625 F200.000
G1 X18.500 Y11.406 Z-1.625 F200.000
G2 X18.995 Y10.955 Z-1.625 I-0.005 J-0.503 K0.000 F200.000
G1 X19.000 Y9.654 Z-1.625 F200.000
G3 X19.025 Y9.629 Z-1.625 I0.018 J-0.007 K0.000 F200.000
G1 X20.382 Y9.629 Z-1.625 F200.000
G3 X20.406 Y9.653 Z-1.625 I0.007 J0.017 K0.000 F200.000
G1 X20.406 Y12.875 Z-1.625 F200.000
G2 X20.857 Y13.370 Z-1.625 I0.503 J-0.005 K0.000 F200.000
G1 X22.250 Y13.375 Z-1.625 F200.000
G2 X22.745 Y12.924 Z-1.625 I-0.005 J-0.503 K0.000 F200.000
G1 X22.750 Y5.906 Z-1.625 F200.000
G2 X22.299 Y5.411 Z-1.625 I-0.503 J0.005 K0.000 F200.000
G1 X20.900 Y5.406 Z-1.625 F200.000
G3 X20.875 Y5.382 Z-1.625 I-0.007 J-0.018 K0.000 F200.000
G1 X20.875 Y4.104 Z-1.625 F200.000
G2 X20.424 Y3.609 Z-1.625 I-0.503 J0.005 K0.000 F200.000
G1 X19.324 Y3.604 Z-1.625 F200.000
G1 X19.305 Y3.600 Z-1.625 F200.000
G1 X19.315 Y3.583 Z-1.625 F200.000
G1 X20.819 Y2.079 Z-1.625 F200.000
G2 X20.965 Y1.750 Z-1.625 I-0.358 J-0.355 K0.000 F200.000
G1 X20.966 Y0.250 Z-1.625 F200.000
G2 X20.515 Y-0.245 Z-1.625 I-0.503 J0.005 K0.000 F200.000
G1 X18.940 Y-0.250 Z-1.625 F200.000
G2 X18.445 Y0.201 Z-1.625 I0.005 J0.503 K0.000 F200.000
G1 X18.441 Y1.554 Z-1.625 F200.000
G3 X18.416 Y1.579 Z-1.625 I-0.018 J0.007 K0.000 F200.000
G1 X16.949 Y1.579 Z-1.625 F200.000
G2 X16.454 Y2.030 Z-1.625 I0.005 J0.503 K0.000 F200.000
G1 X16.449 Y3.579 Z-1.625 F200.000
G3 X16.425 Y3.604 Z-1.625 I-0.018 J0.007 K0.000 F200.000
G1 X6.075 Y3.604 Z-1.625 F200.000
G3 X6.051 Y3.579 Z-1.625 I-0.007 J-0.017 K0.000 F200.000
G1 X6.051 Y2.079 Z-1.625 F200.000
G2 X5.600 Y1.584 Z-1.625 I-0.503 J0.005 K0.000 F200.000
G1 X4.085 Y1.579 Z-1.625 F200.000
G3 X4.060 Y1.554 Z-1.625 I-0.007 J-0.018 K0.000 F200.000
G1 X4.060 Y0.250 Z-1.625 F200.000
G2 X3.608 Y-0.245 Z-1.625 I-0.503 J0.005 K0.000 F200.000
G1 X2.034 Y-0.250 Z-1.625 F200.000
G2 X1.539 Y0.201 Z-1.625 I0.005 J0.503 K0.000 F200.000
G1 X1.534 Y1.725 Z-1.625 F200.000
G2 X1.664 Y2.061 Z-1.625 I0.504 J-0.003 K0.000 F200.000
G1 X3.185 Y3.583 Z-1.625 F200.000
G1 X3.195 Y3.600 Z-1.625 F200.000
G1 X3.176 Y3.604 Z-1.625 F200.000
G1 X2.125 Y3.604 Z-1.625 F200.000
G2 X1.630 Y4.055 Z-1.625 I0.005 J0.503 K0.000 F200.000
G1 X1.625 Y5.381 Z-1.625 F200.000
G3 X1.600 Y5.406 Z-1.625 I-0.018 J0.007 K0.000 F200.000
G1 X0.250 Y5.406 Z-1.625 F200.000
G2 X-0.245 Y5.858 Z-1.625 I0.005 J0.503 K0.000 F200.000
G1 X-0.250 Y12.875 Z-1.625 F200.000
G2 X0.201 Y13.370 Z-1.625 I0.503 J-0.005 K0.000 F200.000
G1 X1.625 Y13.375 Z-1.625 F200.000
G2 X2.120 Y12.924 Z-1.625 I-0.005 J-0.503 K0.000 F200.000
G1 X2.125 Y9.653 Z-1.625 F200.000
G3 X2.150 Y9.628 Z-1.625 I0.017 J-0.007 K0.000 F200.000
G1 X3.535 Y9.628 Z-1.625 F200.000
G3 X3.560 Y9.653 Z-1.625 I0.007 J0.017 K0.000 F200.000
G1 X3.560 Y10.906 Z-1.625 F200.000
G2 X4.011 Y11.401 Z-1.625 I0.503 J-0.005 K0.000 F200.000
G1 X5.167 Y11.406 Z-1.625 F200.000
G1 X5.186 Y11.411 Z-1.625 F200.000
G1 X5.176 Y11.427 Z-1.625 F200.000
G1 X3.729 Y12.875 Z-1.625 F200.000
G2 X3.583 Y13.204 Z-1.625 I0.358 J0.355 K0.000 F200.000
G1 X3.582 Y14.750 Z-1.625 F200.000
G2 X4.033 Y15.245 Z-1.625 I0.503 J-0.005 K0.000 F200.000
G1 X5.551 Y15.250 Z-1.625 F200.000
G2 X6.046 Y14.799 Z-1.625 I-0.005 J-0.503 K0.000 F200.000
G1 X6.051 Y13.400 Z-1.625 F200.000
G3 X6.075 Y13.375 Z-1.625 I0.018 J-0.007 K0.000 F200.000
G1 X7.238 Y13.375 Z-1.625 F200.000
G2 X7.733 Y12.924 Z-1.625 I-0.005 J-0.503 K0.000 F200.000
G1 X7.737 Y11.431 Z-1.625 F200.000
G3 X7.762 Y11.406 Z-1.625 I0.018 J-0.007 K0.000 F200.000
G1 X14.738 Y11.406 Z-1.625 F200.000
G3 X14.749 Y11.405 Z-1.625 I0.007 J0.017 K0.000 F200.000
G1 X14.749 Y11.405 Z-1.750 F60.000
G3 X14.762 Y11.431 Z-1.750 I-0.004 J0.018 K0.000 F200.000
G1 X14.762 Y12.882 Z-1.750 F200.000
G2 X15.214 Y13.377 Z-1.750 I0.503 J-0.005 K0.000 F200.000
G1 X16.653 Y13.382 Z-1.750 F200.000
G3 X16.678 Y13.406 Z-1.750 I0.007 J0.018 K0.000 F200.000
G1 X16.678 Y14.750 Z-1.750 F200.000
G2 X17.130 Y15.245 Z-1.750 I0.503 J-0.005 K0.000 F200.000
G1 X18.418 Y15.250 Z-1.750 F200.000
G2 X18.913 Y14.799 Z-1.750 I-0.005 J-0.503 K0.000 F200.000
G1 X18.918 Y13.255 Z-1.750 F200.000
G2 X18.790 Y12.922 Z-1.750 I-0.504 J0.003 K0.000 F200.000
G1 X17.318 Y11.427 Z-1.750 F200.000
G1 X17.308 Y11.411 Z-1.750 F200.000
G1 X17.326 Y11.406 Z-1.750 F200.000
G1 X18.500 Y11.406 Z-1.750 F200.000
G2 X18.995 Y10.955 Z-1.750 I-0.005 J-0.503 K0.000 F200.000
G1 X19.000 Y9.654 Z-1.750 F200.000
G3 X19.025 Y9.629 Z-1.750 I0.018 J-0.007 K0.000 F200.000
G1 X20.382 Y9.629 Z-1.750 F200.000
G3 X20.406 Y9.653 Z-1.750 I0.007 J0.017 K0.000 F200.000
G1 X20.406 Y12.875 Z-1.750 F200.000
G2 X20.857 Y13.370 Z-1.750 I0.503 J-0.005 K0.000 F200.000
G1 X22.250 Y13.375 Z-1.750 F200.000
G2 X22.745 Y12.924 Z-1.750 I-0.005 J-0.503 K0.000 F200.000
G1 X22.750 Y5.906 Z-1.750 F200.000
G2 X22.299 Y5.411 Z-1.750 I-0.503 J0.005 K0.000 F200.000
G1 X20.900 Y5.406 Z-1.750 F200.000
G3 X20.875 Y5.382 Z-1.750 I-0.007 J-0.018 K0.000 F200.000
G1 X20.875 Y4.104 Z-1.750 F200.000
G2 X20.424 Y3.609 Z-1.750 I-0.503 J0.005 K0.000 F200.000
G1 X19.324 Y3.604 Z-1.750 F200.000
G1 X19.305 Y3.600 Z-1.750 F200.000
G1 X19.315 Y3.583 Z-1.750 F200.000
G1 X20.819 Y2.079 Z-1.750 F200.000
G2 X20.965 Y1.750 Z-1.750 I-0.358 J-0.355 K0.000 F200.000
G1 X20.966 Y0.250 Z-1.750 F200.000
G2 X20.515 Y-0.245 Z-1.750 I-0.503 J0.005 K0.000 F200.000
G1 X18.940 Y-0.250 Z-1.750 F200.000
G2 X18.445 Y0.201 Z-1.750 I0.005 J0.503 K0.000 F200.000
G1 X18.441 Y1.554 Z-1.750 F200.000
G3 X18.416 Y1.579 Z-1.750 I-0.018 J0.007 K0.000 F200.000
G1 X16.949 Y1.579 Z-1.750 F200.000
G2 X16.454 Y2.030 Z-1.750 I0.005 J0.503 K0.000 F200.000
G1 X16.449 Y3.579 Z-1.750 F200.000
G3 X16.425 Y3.604 Z-1.750 I-0.018 J0.007 K0.000 F200.000
G1 X6.075 Y3.604 Z-1.750 F200.000
G3 X6.051 Y3.579 Z-1.750 I-0.007 J-0.017 K0.000 F200.000
G1 X6.051 Y2.079 Z-1.750 F200.000
G2 X5.600 Y1.584 Z-1.750 I-0.503 J0.005 K0.000 F200.000
G1 X4.085 Y1.579 Z-1.750 F200.000
G3 X4.060 Y1.554 Z-1.750 I-0.007 J-0.018 K0.000 F200.000
G1 X4.060 Y0.250 Z-1.750 F200.000
G2 X3.608 Y-0.245 Z-1.750 I-0.503 J0.005 K0.000 F200.000
G1 X2.034 Y-0.250 Z-1.750 F200.000
G2 X1.539 Y0.201 Z-1.750 I0.005 J0.503 K0.000 F200.000
G1 X1.534 Y1.725 Z-1.750 F200.000
G2 X1.664 Y2.061 Z-1.750 I0.504 J-0.003 K0.000 F200.000
G1 X3.185 Y3.583 Z-1.750 F200.000
G1 X3.195 Y3.600 Z-1.750 F200.000
G1 X3.176 Y3.604 Z-1.750 F200.000
G1 X2.125 Y3.604 Z-1.750 F200.000
G2 X1.630 Y4.055 Z-1.750 I0.005 J0.503 K0.000 F200.000
G1 X1.625 Y5.381 Z-1.750 F200.000
G3 X1.600 Y5.406 Z-1.750 I-0.018 J0.007 K0.000 F200.000
G1 X0.250 Y5.406 Z-1.750 F200.000
G2 X-0.245 Y5.858 Z-1.750 I0.005 J0.503 K0.000 F200.000
G1 X-0.250 Y12.875 Z-1.750 F200.000
G2 X0.201 Y13.370 Z-1.750 I0.503 J-0.005 K0.000 F200.000
G1 X1.625 Y13.375 Z-1.750 F200.000
G2 X2.120 Y12.924 Z-1.750 I-0.005 J-0.503 K0.000 F200.000
G1 X2.125 Y9.653 Z-1.750 F200.000
G3 X2.150 Y9.628 Z-1.750 I0.017 J-0.007 K0.000 F200.000
G1 X3.535 Y9.628 Z-1.750 F200.000
G3 X3.560 Y9.653 Z-1.750 I0.007 J0.017 K0.000 F200.000
G1 X3.560 Y10.906 Z-1.750 F200.000
G2 X4.011 Y11.401 Z-1.750 I0.503 J-0.005 K0.000 F200.000
G1 X5.167 Y11.406 Z-1.750 F200.000
G1 X5.186 Y11.411 Z-1.750 F200.000
G1 X5.176 Y11.427 Z-1.750 F200.000
G1 X3.729 Y12.875 Z-1.750 F200.000
G2 X3.583 Y13.204 Z-1.750 I0.358 J0.355 K0.000 F200.000
G1 X3.582 Y14.750 Z-1.750 F200.000
G2 X4.033 Y15.245 Z-1.750 I0.503 J-0.005 K0.000 F200.000
G1 X5.551 Y15.250 Z-1.750 F200.000
G2 X6.046 Y14.799 Z-1.750 I-0.005 J-0.503 K0.000 F200.000
G1 X6.051 Y13.400 Z-1.750 F200.000
G3 X6.075 Y13.375 Z-1.750 I0.018 J-0.007 K0.000 F200.000
G1 X7.238 Y13.375 Z-1.750 F200.000
G2 X7.733 Y12.924 Z-1.750 I-0.005 J-0.503 K0.000 F200.000
G1 X7.737 Y11.431 Z-1.750 F200.000
G3 X7.762 Y11.406 Z-1.750 I0.018 J-0.007 K0.000 F200.000
G1 X14.738 Y11.406 Z-1.750 F200.000
G3 X14.749 Y11.405 Z-1.750 I0.007 J0.017 K0.000 F200.000
G1 X14.749 Y11.405 Z-1.875 F60.000
G3 X14.762 Y11.431 Z-1.875 I-0.004 J0.018 K0.000 F200.000
G1 X14.762 Y12.882 Z-1.875 F200.000
G2 X15.214 Y13.377 Z-1.875 I0.503 J-0.005 K0.000 F200.000
G1 X16.653 Y13.382 Z-1.875 F200.000
G3 X16.678 Y13.406 Z-1.875 I0.007 J0.018 K0.000 F200.000
G1 X16.678 Y14.750 Z-1.875 F200.000
G2 X17.130 Y15.245 Z-1.875 I0.503 J-0.005 K0.000 F200.000
G1 X18.418 Y15.250 Z-1.875 F200.000
G2 X18.913 Y14.799 Z-1.875 I-0.005 J-0.503 K0.000 F200.000
G1 X18.918 Y13.255 Z-1.875 F200.000
G2 X18.790 Y12.922 Z-1.875 I-0.504 J0.003 K0.000 F200.000
G1 X17.318 Y11.427 Z-1.875 F200.000
G1 X17.308 Y11.411 Z-1.875 F200.000
G1 X17.326 Y11.406 Z-1.875 F200.000
G1 X18.500 Y11.406 Z-1.875 F200.000
G2 X18.995 Y10.955 Z-1.875 I-0.005 J-0.503 K0.000 F200.000
G1 X19.000 Y9.654 Z-1.875 F200.000
G3 X19.025 Y9.629 Z-1.875 I0.018 J-0.007 K0.000 F200.000
G1 X20.382 Y9.629 Z-1.875 F200.000
G3 X20.406 Y9.653 Z-1.875 I0.007 J0.017 K0.000 F200.000
G1 X20.406 Y12.875 Z-1.875 F200.000
G2 X20.857 Y13.370 Z-1.875 I0.503 J-0.005 K0.000 F200.000
G1 X22.250 Y13.375 Z-1.875 F200.000
G2 X22.745 Y12.924 Z-1.875 I-0.005 J-0.503 K0.000 F200.000
G1 X22.750 Y5.906 Z-1.875 F200.000
G2 X22.299 Y5.411 Z-1.875 I-0.503 J0.005 K0.000 F200.000
G1 X20.900 Y5.406 Z-1.875 F200.000
G3 X20.875 Y5.382 Z-1.875 I-0.007 J-0.018 K0.000 F200.000
G1 X20.875 Y4.104 Z-1.875 F200.000
G2 X20.424 Y3.609 Z-1.875 I-0.503 J0.005 K0.000 F200.000
G1 X19.324 Y3.604 Z-1.875 F200.000
G1 X19.305 Y3.600 Z-1.875 F200.000
G1 X19.315 Y3.583 Z-1.875 F200.000
G1 X20.819 Y2.079 Z-1.875 F200.000
G2 X20.965 Y1.750 Z-1.875 I-0.358 J-0.355 K0.000 F200.000
G1 X20.966 Y0.250 Z-1.875 F200.000
G2 X20.515 Y-0.245 Z-1.875 I-0.503 J0.005 K0.000 F200.000
G1 X18.940 Y-0.250 Z-1.875 F200.000
G2 X18.445 Y0.201 Z-1.875 I0.005 J0.503 K0.000 F200.000
G1 X18.441 Y1.554 Z-1.875 F200.000
G3 X18.416 Y1.579 Z-1.875 I-0.018 J0.007 K0.000 F200.000
G1 X16.949 Y1.579 Z-1.875 F200.000
G2 X16.454 Y2.030 Z-1.875 I0.005 J0.503 K0.000 F200.000
G1 X16.449 Y3.579 Z-1.875 F200.000
G3 X16.425 Y3.604 Z-1.875 I-0.018 J0.007 K0.000 F200.000
G1 X6.075 Y3.604 Z-1.875 F200.000
G3 X6.051 Y3.579 Z-1.875 I-0.007 J-0.017 K0.000 F200.000
G1 X6.051 Y2.079 Z-1.875 F200.000
G2 X5.600 Y1.584 Z-1.875 I-0.503 J0.005 K0.000 F200.000
G1 X4.085 Y1.579 Z-1.875 F200.000
G3 X4.060 Y1.554 Z-1.875 I-0.007 J-0.018 K0.000 F200.000
G1 X4.060 Y0.250 Z-1.875 F200.000
G2 X3.608 Y-0.245 Z-1.875 I-0.503 J0.005 K0.000 F200.000
G1 X2.034 Y-0.250 Z-1.875 F200.000
G2 X1.539 Y0.201 Z-1.875 I0.005 J0.503 K0.000 F200.000
G1 X1.534 Y1.725 Z-1.875 F200.000
G2 X1.664 Y2.061 Z-1.875 I0.504 J-0.003 K0.000 F200.000
G1 X3.185 Y3.583 Z-1.875 F200.000
G1 X3.195 Y3.600 Z-1.875 F200.000
G1 X3.176 Y3.604 Z-1.875 F200.000
G1 X2.125 Y3.604 Z-1.875 F200.000
G2 X1.630 Y4.055 Z-1.875 I0.005 J0.503 K0.000 F200.000
G1 X1.625 Y5.381 Z-1.875 F200.000
G3 X1.600 Y5.406 Z-1.875 I-0.018 J0.007 K0.000 F200.000
G1 X0.250 Y5.406 Z-1.875 F200.000
G2 X-0.245 Y5.858 Z-1.875 I0.005 J0.503 K0.000 F200.000
G1 X-0.250 Y12.875 Z-1.875 F200.000
G2 X0.201 Y13.370 Z-1.875 I0.503 J-0.005 K0.000 F200.000
G1 X1.625 Y13.375 Z-1.875 F200.000
G2 X2.120 Y12.924 Z-1.875 I-0.005 J-0.503 K0.000 F200.000
G1 X2.125 Y9.653 Z-1.875 F200.000
G3 X2.150 Y9.628 Z-1.875 I0.017 J-0.007 K0.000 F200.000
G1 X3.535 Y9.628 Z-1.875 F200.000
G3 X3.560 Y9.653 Z-1.875 I0.007 J0.017 K0.000 F200.000
G1 X3.560 Y10.906 Z-1.875 F200.000
G2 X4.011 Y11.401 Z-1.875 I0.503 J-0.005 K0.000 F200.000
G1 X5.167 Y11.406 Z-1.875 F200.000
G1 X5.186 Y11.411 Z-1.875 F200.000
G1 X5.176 Y11.427 Z-1.875 F200.000
G1 X3.729 Y12.875 Z-1.875 F200.000
G2 X3.583 Y13.204 Z-1.875 I0.358 J0.355 K0.000 F200.000
G1 X3.582 Y14.750 Z-1.875 F200.000
G2 X4.033 Y15.245 Z-1.875 I0.503 J-0.005 K0.000 F200.000
G1 X5.551 Y15.250 Z-1.875 F200.000
G2 X6.046 Y14.799 Z-1.875 I-0.005 J-0.503 K0.000 F200.000
G1 X6.051 Y13.400 Z-1.875 F200.000
G3 X6.075 Y13.375 Z-1.875 I0.018 J-0.007 K0.000 F200.000
G1 X7.238 Y13.375 Z-1.875 F200.000
G2 X7.733 Y12.924 Z-1.875 I-0.005 J-0.503 K0.000 F200.000
G1 X7.737 Y11.431 Z-1.875 F200.000
G3 X7.762 Y11.406 Z-1.875 I0.018 J-0.007 K0.000 F200.000
G1 X14.738 Y11.406 Z-1.875 F200.000
G3 X14.749 Y11.405 Z-1.875 I0.007 J0.017 K0.000 F200.000
G1 X14.749 Y11.405 Z-2.000 F60.000
G3 X14.762 Y11.431 Z-2.000 I-0.004 J0.018 K0.000 F200.000
G1 X14.762 Y12.882 Z-2.000 F200.000
G2 X15.214 Y13.377 Z-2.000 I0.503 J-0.005 K0.000 F200.000
G1 X16.653 Y13.382 Z-2.000 F200.000
G3 X16.678 Y13.406 Z-2.000 I0.007 J0.018 K0.000 F200.000
G1 X16.678 Y14.750 Z-2.000 F200.000
G2 X17.130 Y15.245 Z-2.000 I0.503 J-0.005 K0.000 F200.000
G1 X18.418 Y15.250 Z-2.000 F200.000
G2 X18.913 Y14.799 Z-2.000 I-0.005 J-0.503 K0.000 F200.000
G1 X18.918 Y13.255 Z-2.000 F200.000
G2 X18.790 Y12.922 Z-2.000 I-0.504 J0.003 K0.000 F200.000
G1 X17.318 Y11.427 Z-2.000 F200.000
G1 X17.308 Y11.411 Z-2.000 F200.000
G1 X17.326 Y11.406 Z-2.000 F200.000
G1 X18.500 Y11.406 Z-2.000 F200.000
G2 X18.995 Y10.955 Z-2.000 I-0.005 J-0.503 K0.000 F200.000
G1 X19.000 Y9.654 Z-2.000 F200.000
G3 X19.025 Y9.629 Z-2.000 I0.018 J-0.007 K0.000 F200.000
G1 X20.382 Y9.629 Z-2.000 F200.000
G3 X20.406 Y9.653 Z-2.000 I0.007 J0.017 K0.000 F200.000
G1 X20.406 Y12.875 Z-2.000 F200.000
G2 X20.857 Y13.370 Z-2.000 I0.503 J-0.005 K0.000 F200.000
G1 X22.250 Y13.375 Z-2.000 F200.000
G2 X22.745 Y12.924 Z-2.000 I-0.005 J-0.503 K0.000 F200.000
G1 X22.750 Y5.906 Z-2.000 F200.000
G2 X22.299 Y5.411 Z-2.000 I-0.503 J0.005 K0.000 F200.000
G1 X20.900 Y5.406 Z-2.000 F200.000
G3 X20.875 Y5.382 Z-2.000 I-0.007 J-0.018 K0.000 F200.000
G1 X20.875 Y4.104 Z-2.000 F200.000
G2 X20.424 Y3.609 Z-2.000 I-0.503 J0.005 K0.000 F200.000
G1 X19.324 Y3.604 Z-2.000 F200.000
G1 X19.305 Y3.600 Z-2.000 F200.000
G1 X19.315 Y3.583 Z-2.000 F200.000
G1 X20.819 Y2.079 Z-2.000 F200.000
G2 X20.965 Y1.750 Z-2.000 I-0.358 J-0.355 K0.000 F200.000
G1 X20.966 Y0.250 Z-2.000 F200.000
G2 X20.515 Y-0.245 Z-2.000 I-0.503 J0.005 K0.000 F200.000
G1 X18.940 Y-0.250 Z-2.000 F200.000
G2 X18.445 Y0.201 Z-2.000 I0.005 J0.503 K0.000 F200.000
G1 X18.441 Y1.554 Z-2.000 F200.000
G3 X18.416 Y1.579 Z-2.000 I-0.018 J0.007 K0.000 F200.000
G1 X16.949 Y1.579 Z-2.000 F200.000
G2 X16.454 Y2.030 Z-2.000 I0.005 J0.503 K0.000 F200.000
G1 X16.449 Y3.579 Z-2.000 F200.000
G3 X16.425 Y3.604 Z-2.000 I-0.018 J0.007 K0.000 F200.000
G1 X6.075 Y3.604 Z-2.000 F200.000
G3 X6.051 Y3.579 Z-2.000 I-0.007 J-0.017 K0.000 F200.000
G1 X6.051 Y2.079 Z-2.000 F200.000
G2 X5.600 Y1.584 Z-2.000 I-0.503 J0.005 K0.000 F200.000
G1 X4.085 Y1.579 Z-2.000 F200.000
G3 X4.060 Y1.554 Z-2.000 I-0.007 J-0.018 K0.000 F200.000
G1 X4.060 Y0.250 Z-2.000 F200.000
G2 X3.608 Y-0.245 Z-2.000 I-0.503 J0.005 K0.000 F200.000
G1 X2.034 Y-0.250 Z-2.000 F200.000
G2 X1.539 Y0.201 Z-2.000 I0.005 J0.503 K0.000 F200.000
G1 X1.534 Y1.725 Z-2.000 F200.000
G2 X1.664 Y2.061 Z-2.000 I0.504 J-0.003 K0.000 F200.000
G1 X3.185 Y3.583 Z-2.000 F200.000
G1 X3.195 Y3.600 Z-2.000 F200.000
G1 X3.176 Y3.604 Z-2.000 F200.000
G1 X2.125 Y3.604 Z-2.000 F200.000
G2 X1.630 Y4.055 Z-2.000 I0.005 J0.503 K0.000 F200.000
G1 X1.625 Y5.381 Z-2.000 F200.000
G3 X1.600 Y5.406 Z-2.000 I-0.018 J0.007 K0.000 F200.000
G1 X0.250 Y5.406 Z-2.000 F200.000
G2 X-0.245 Y5.858 Z-2.000 I0.005 J0.503 K0.000 F200.000
G1 X-0.250 Y12.875 Z-2.000 F200.000
G2 X0.201 Y13.370 Z-2.000 I0.503 J-0.005 K0.000 F200.000
G1 X1.625 Y13.375 Z-2.000 F200.000
G2 X2.120 Y12.924 Z-2.000 I-0.005 J-0.503 K0.000 F200.000
G1 X2.125 Y9.653 Z-2.000 F200.000
G3 X2.150 Y9.628 Z-2.000 I0.017 J-0.007 K0.000 F200.000
G1 X3.535 Y9.628 Z-2.000 F200.000
G3 X3.560 Y9.653 Z-2.000 I0.007 J0.017 K0.000 F200.000
G1 X3.560 Y10.906 Z-2.000 F200.000
G2 X4.011 Y11.401 Z-2.000 I0.503 J-0.005 K0.000 F200.000
G1 X5.167 Y11.406 Z-2.000 F200.000
G1 X5.186 Y11.411 Z-2.000 F200.000
G1 X5.176 Y11.427 Z-2.000 F200.000
G1 X3.729 Y12.875 Z-2.000 F200.000
G2 X3.583 Y13.204 Z-2.000 I0.358 J0.355 K0.000 F200.000
G1 X3.582 Y14.750 Z-2.000 F200.000
G2 X4.033 Y15.245 Z-2.000 I0.503 J-0.005 K0.000 F200.000
G1 X5.551 Y15.250 Z-2.000 F200.000
G2 X6.046 Y14.799 Z-2.000 I-0.005 J-0.503 K0.000 F200.000
G1 X6.051 Y13.400 Z-2.000 F200.000
G3 X6.075 Y13.375 Z-2.000 I0.018 J-0.007 K0.000 F200.000
G1 X7.238 Y13.375 Z-2.000 F200.000
G2 X7.733 Y12.924 Z-2.000 I-0.005 J-0.503 K0.000 F200.000
G1 X7.737 Y11.431 Z-2.000 F200.000
G3 X7.762 Y11.406 Z-2.000 I0.018 J-0.007 K0.000 F200.000
G1 X14.738 Y11.406 Z-2.000 F200.000
G3 X14.749 Y11.405 Z-2.000 I0.007 J0.017 K0.000 F200.000
G1 X14.749 Y11.405 Z-2.125 F60.000
G3 X14.762 Y11.431 Z-2.125 I-0.004 J0.018 K0.000 F200.000
G1 X14.762 Y12.882 Z-2.125 F200.000
G2 X15.214 Y13.377 Z-2.125 I0.503 J-0.005 K0.000 F200.000
G1 X16.653 Y13.382 Z-2.125 F200.000
G3 X16.678 Y13.406 Z-2.125 I0.007 J0.018 K0.000 F200.000
G1 X16.678 Y14.750 Z-2.125 F200.000
G2 X17.130 Y15.245 Z-2.125 I0.503 J-0.005 K0.000 F200.000
G1 X18.418 Y15.250 Z-2.125 F200.000
G2 X18.913 Y14.799 Z-2.125 I-0.005 J-0.503 K0.000 F200.000
G1 X18.918 Y13.255 Z-2.125 F200.000
G2 X18.790 Y12.922 Z-2.125 I-0.504 J0.003 K0.000 F200.000
G1 X17.318 Y11.427 Z-2.125 F200.000
G1 X17.308 Y11.411 Z-2.125 F200.000
G1 X17.326 Y11.406 Z-2.125 F200.000
G1 X18.500 Y11.406 Z-2.125 F200.000
G2 X18.995 Y10.955 Z-2.125 I-0.005 J-0.503 K0.000 F200.000
G1 X19.000 Y9.654 Z-2.125 F200.000
G3 X19.025 Y9.629 Z-2.125 I0.018 J-0.007 K0.000 F200.000
G1 X20.382 Y9.629 Z-2.125 F200.000
G3 X20.406 Y9.653 Z-2.125 I0.007 J0.017 K0.000 F200.000
G1 X20.406 Y12.875 Z-2.125 F200.000
G2 X20.857 Y13.370 Z-2.125 I0.503 J-0.005 K0.000 F200.000
G1 X22.250 Y13.375 Z-2.125 F200.000
G2 X22.745 Y12.924 Z-2.125 I-0.005 J-0.503 K0.000 F200.000
G1 X22.750 Y5.906 Z-2.125 F200.000
G2 X22.299 Y5.411 Z-2.125 I-0.503 J0.005 K0.000 F200.000
G1 X20.900 Y5.406 Z-2.125 F200.000
G3 X20.875 Y5.382 Z-2.125 I-0.007 J-0.018 K0.000 F200.000
G1 X20.875 Y4.104 Z-2.125 F200.000
G2 X20.424 Y3.609 Z-2.125 I-0.503 J0.005 K0.000 F200.000
G1 X19.324 Y3.604 Z-2.125 F200.000
G1 X19.305 Y3.600 Z-2.125 F200.000
G1 X19.315 Y3.583 Z-2.125 F200.000
G1 X20.819 Y2.079 Z-2.125 F200.000
G2 X20.965 Y1.750 Z-2.125 I-0.358 J-0.355 K0.000 F200.000
G1 X20.966 Y0.250 Z-2.125 F200.000
G2 X20.515 Y-0.245 Z-2.125 I-0.503 J0.005 K0.000 F200.000
G1 X18.940 Y-0.250 Z-2.125 F200.000
G2 X18.445 Y0.201 Z-2.125 I0.005 J0.503 K0.000 F200.000
G1 X18.441 Y1.554 Z-2.125 F200.000
G3 X18.416 Y1.579 Z-2.125 I-0.018 J0.007 K0.000 F200.000
G1 X16.949 Y1.579 Z-2.125 F200.000
G2 X16.454 Y2.030 Z-2.125 I0.005 J0.503 K0.000 F200.000
G1 X16.449 Y3.579 Z-2.125 F200.000
G3 X16.425 Y3.604 Z-2.125 I-0.018 J0.007 K0.000 F200.000
G1 X6.075 Y3.604 Z-2.125 F200.000
G3 X6.051 Y3.579 Z-2.125 I-0.007 J-0.017 K0.000 F200.000
G1 X6.051 Y2.079 Z-2.125 F200.000
G2 X5.600 Y1.584 Z-2.125 I-0.503 J0.005 K0.000 F200.000
G1 X4.085 Y1.579 Z-2.125 F200.000
G3 X4.060 Y1.554 Z-2.125 I-0.007 J-0.018 K0.000 F200.000
G1 X4.060 Y0.250 Z-2.125 F200.000
G2 X3.608 Y-0.245 Z-2.125 I-0.503 J0.005 K0.000 F200.000
G1 X2.034 Y-0.250 Z-2.125 F200.000
G2 X1.539 Y0.201 Z-2.125 I0.005 J0.503 K0.000 F200.000
G1 X1.534 Y1.725 Z-2.125 F200.000
G2 X1.664 Y2.061 Z-2.125 I0.504 J-0.003 K0.000 F200.000
G1 X3.185 Y3.583 Z-2.125 F200.000
G1 X3.195 Y3.600 Z-2.125 F200.000
G1 X3.176 Y3.604 Z-2.125 F200.000
G1 X2.125 Y3.604 Z-2.125 F200.000
G2 X1.630 Y4.055 Z-2.125 I0.005 J0.503 K0.000 F200.000
G1 X1.625 Y5.381 Z-2.125 F200.000
G3 X1.600 Y5.406 Z-2.125 I-0.018 J0.007 K0.000 F200.000
G1 X0.250 Y5.406 Z-2.125 F200.000
G2 X-0.245 Y5.858 Z-2.125 I0.005 J0.503 K0.000 F200.000
G1 X-0.250 Y12.875 Z-2.125 F200.000
G2 X0.201 Y13.370 Z-2.125 I0.503 J-0.005 K0.000 F200.000
G1 X1.625 Y13.375 Z-2.125 F200.000
G2 X2.120 Y12.924 Z-2.125 I-0.005 J-0.503 K0.000 F200.000
G1 X2.125 Y9.653 Z-2.125 F200.000
G3 X2.150 Y9.628 Z-2.125 I0.017 J-0.007 K0.000 F200.000
G1 X3.535 Y9.628 Z-2.125 F200.000
G3 X3.560 Y9.653 Z-2.125 I0.007 J0.017 K0.000 F200.000
G1 X3.560 Y10.906 Z-2.125 F200.000
G2 X4.011 Y11.401 Z-2.125 I0.503 J-0.005 K0.000 F200.000
G1 X5.167 Y11.406 Z-2.125 F200.000
G1 X5.186 Y11.411 Z-2.125 F200.000
G1 X5.176 Y11.427 Z-2.125 F200.000
G1 X3.729 Y12.875 Z-2.125 F200.000
G2 X3.583 Y13.204 Z-2.125 I0.358 J0.355 K0.000 F200.000
G1 X3.582 Y14.750 Z-2.125 F200.000
G2 X4.033 Y15.245 Z-2.125 I0.503 J-0.005 K0.000 F200.000
G1 X5.551 Y15.250 Z-2.125 F200.000
G2 X6.046 Y14.799 Z-2.125 I-0.005 J-0.503 K0.000 F200.000
G1 X6.051 Y13.400 Z-2.125 F200.000
G3 X6.075 Y13.375 Z-2.125 I0.018 J-0.007 K0.000 F200.000
G1 X7.238 Y13.375 Z-2.125 F200.000
G2 X7.733 Y12.924 Z-2.125 I-0.005 J-0.503 K0.000 F200.000
G1 X7.737 Y11.431 Z-2.125 F200.000
G3 X7.762 Y11.406 Z-2.125 I0.018 J-0.007 K0.000 F200.000
G1 X14.738 Y11.406 Z-2.125 F200.000
G3 X14.749 Y11.405 Z-2.125 I0.007 J0.017 K0.000 F200.000
G1 X14.749 Y11.405 Z-2.250 F60.000
G3 X14.762 Y11.431 Z-2.250 I-0.004 J0.018 K0.000 F200.000
G1 X14.762 Y12.882 Z-2.250 F200.000
G2 X15.214 Y13.377 Z-2.250 I0.503 J-0.005 K0.000 F200.000
G1 X16.653 Y13.382 Z-2.250 F200.000
G3 X16.678 Y13.406 Z-2.250 I0.007 J0.018 K0.000 F200.000
G1 X16.678 Y14.750 Z-2.250 F200.000
G2 X17.130 Y15.245 Z-2.250 I0.503 J-0.005 K0.000 F200.000
G1 X18.418 Y15.250 Z-2.250 F200.000
G2 X18.913 Y14.799 Z-2.250 I-0.005 J-0.503 K0.000 F200.000
G1 X18.918 Y13.255 Z-2.250 F200.000
G2 X18.790 Y12.922 Z-2.250 I-0.504 J0.003 K0.000 F200.000
G1 X17.318 Y11.427 Z-2.250 F200.000
G1 X17.308 Y11.411 Z-2.250 F200.000
G1 X17.326 Y11.406 Z-2.250 F200.000
G1 X18.500 Y11.406 Z-2.250 F200.000
G2 X18.995 Y10.955 Z-2.250 I-0.005 J-0.503 K0.000 F200.000
G1 X19.000 Y9.654 Z-2.250 F200.000
G3 X19.025 Y9.629 Z-2.250 I0.018 J-0.007 K0.000 F200.000
G1 X20.382 Y9.629 Z-2.250 F200.000
G3 X20.406 Y9.653 Z-2.250 I0.007 J0.017 K0.000 F200.000
G1 X20.406 Y12.875 Z-2.250 F200.000
G2 X20.857 Y13.370 Z-2.250 I0.503 J-0.005 K0.000 F200.000
G1 X22.250 Y13.375 Z-2.250 F200.000
G2 X22.745 Y12.924 Z-2.250 I-0.005 J-0.503 K0.000 F200.000
G1 X22.750 Y5.906 Z-2.250 F200.000
G2 X22.299 Y5.411 Z-2.250 I-0.503 J0.005 K0.000 F200.000
G1 X20.900 Y5.406 Z-2.250 F200.000
G3 X20.875 Y5.382 Z-2.250 I-0.007 J-0.018 K0.000 F200.000
G1 X20.875 Y4.104 Z-2.250 F200.000
G2 X20.424 Y3.609 Z-2.250 I-0.503 J0.005 K0.000 F200.000
G1 X19.324 Y3.604 Z-2.250 F200.000
G1 X19.305 Y3.600 Z-2.250 F200.000
G1 X19.315 Y3.583 Z-2.250 F200.000
G1 X20.819 Y2.079 Z-2.250 F200.000
G2 X20.965 Y1.750 Z-2.250 I-0.358 J-0.355 K0.000 F200.000
G1 X20.966 Y0.250 Z-2.250 F200.000
G2 X20.515 Y-0.245 Z-2.250 I-0.503 J0.005 K0.000 F200.000
G1 X18.940 Y-0.250 Z-2.250 F200.000
G2 X18.445 Y0.201 Z-2.250 I0.005 J0.503 K0.000 F200.000
G1 X18.441 Y1.554 Z-2.250 F200.000
G3 X18.416 Y1.579 Z-2.250 I-0.018 J0.007 K0.000 F200.000
G1 X16.949 Y1.579 Z-2.250 F200.000
G2 X16.454 Y2.030 Z-2.250 I0.005 J0.503 K0.000 F200.000
G1 X16.449 Y3.579 Z-2.250 F200.000
G3 X16.425 Y3.604 Z-2.250 I-0.018 J0.007 K0.000 F200.000
G1 X6.075 Y3.604 Z-2.250 F200.000
G3 X6.051 Y3.579 Z-2.250 I-0.007 J-0.017 K0.000 F200.000
G1 X6.051 Y2.079 Z-2.250 F200.000
G2 X5.600 Y1.584 Z-2.250 I-0.503 J0.005 K0.000 F200.000
G1 X4.085 Y1.579 Z-2.250 F200.000
G3 X4.060 Y1.554 Z-2.250 I-0.007 J-0.018 K0.000 F200.000
G1 X4.060 Y0.250 Z-2.250 F200.000
G2 X3.608 Y-0.245 Z-2.250 I-0.503 J0.005 K0.000 F200.000
G1 X2.034 Y-0.250 Z-2.250 F200.000
G2 X1.539 Y0.201 Z-2.250 I0.005 J0.503 K0.000 F200.000
G1 X1.534 Y1.725 Z-2.250 F200.000
G2 X1.664 Y2.061 Z-2.250 I0.504 J-0.003 K0.000 F200.000
G1 X3.185 Y3.583 Z-2.250 F200.000
G1 X3.195 Y3.600 Z-2.250 F200.000
G1 X3.176 Y3.604 Z-2.250 F200.000
G1 X2.125 Y3.604 Z-2.250 F200.000
G2 X1.630 Y4.055 Z-2.250 I0.005 J0.503 K0.000 F200.000
G1 X1.625 Y5.381 Z-2.250 F200.000
G3 X1.600 Y5.406 Z-2.250 I-0.018 J0.007 K0.000 F200.000
G1 X0.250 Y5.406 Z-2.250 F200.000
G2 X-0.245 Y5.858 Z-2.250 I0.005 J0.503 K0.000 F200.000
G1 X-0.250 Y12.875 Z-2.250 F200.000
G2 X0.201 Y13.370 Z-2.250 I0.503 J-0.005 K0.000 F200.000
G1 X1.625 Y13.375 Z-2.250 F200.000
G2 X2.120 Y12.924 Z-2.250 I-0.005 J-0.503 K0.000 F200.000
G1 X2.125 Y9.653 Z-2.250 F200.000
G3 X2.150 Y9.628 Z-2.250 I0.017 J-0.007 K0.000 F200.000
G1 X3.535 Y9.628 Z-2.250 F200.000
G3 X3.560 Y9.653 Z-2.250 I0.007 J0.017 K0.000 F200.000
G1 X3.560 Y10.906 Z-2.250 F200.000
G2 X4.011 Y11.401 Z-2.250 I0.503 J-0.005 K0.000 F200.000
G1 X5.167 Y11.406 Z-2.250 F200.000
G1 X5.186 Y11.411 Z-2.250 F200.000
G1 X5.176 Y11.427 Z-2.250 F200.000
G1 X3.729 Y12.875 Z-2.250 F200.000
G2 X3.583 Y13.204 Z-2.250 I0.358 J0.355 K0.000 F200.000
G1 X3.582 Y14.750 Z-2.250 F200.000
G2 X4.033 Y15.245 Z-2.250 I0.503 J-0.005 K0.000 F200.000
G1 X5.551 Y15.250 Z-2.250 F200.000
G2 X6.046 Y14.799 Z-2.250 I-0.005 J-0.503 K0.000 F200.000
G1 X6.051 Y13.400 Z-2.250 F200.000
G3 X6.075 Y13.375 Z-2.250 I0.018 J-0.007 K0.000 F200.000
G1 X7.238 Y13.375 Z-2.250 F200.000
G2 X7.733 Y12.924 Z-2.250 I-0.005 J-0.503 K0.000 F200.000
G1 X7.737 Y11.431 Z-2.250 F200.000
G3 X7.762 Y11.406 Z-2.250 I0.018 J-0.007 K0.000 F200.000
G1 X14.738 Y11.406 Z-2.250 F200.000
G3 X14.749 Y11.405 Z-2.250 I0.007 J0.017 K0.000 F200.000
G1 X14.749 Y11.405 Z-2.375 F60.000
G3 X14.762 Y11.431 Z-2.375 I-0.004 J0.018 K0.000 F200.000
G1 X14.762 Y12.882 Z-2.375 F200.000
G2 X15.214 Y13.377 Z-2.375 I0.503 J-0.005 K0.000 F200.000
G1 X16.653 Y13.382 Z-2.375 F200.000
G3 X16.678 Y13.406 Z-2.375 I0.007 J0.018 K0.000 F200.000
G1 X16.678 Y14.750 Z-2.375 F200.000
G2 X17.130 Y15.245 Z-2.375 I0.503 J-0.005 K0.000 F200.000
G1 X18.418 Y15.250 Z-2.375 F200.000
G2 X18.913 Y14.799 Z-2.375 I-0.005 J-0.503 K0.000 F200.000
G1 X18.918 Y13.255 Z-2.375 F200.000
G2 X18.790 Y12.922 Z-2.375 I-0.504 J0.003 K0.000 F200.000
G1 X17.318 Y11.427 Z-2.375 F200.000
G1 X17.308 Y11.411 Z-2.375 F200.000
G1 X17.326 Y11.406 Z-2.375 F200.000
G1 X18.500 Y11.406 Z-2.375 F200.000
G2 X18.995 Y10.955 Z-2.375 I-0.005 J-0.503 K0.000 F200.000
G1 X19.000 Y9.654 Z-2.375 F200.000
G3 X19.025 Y9.629 Z-2.375 I0.018 J-0.007 K0.000 F200.000
G1 X20.382 Y9.629 Z-2.375 F200.000
G3 X20.406 Y9.653 Z-2.375 I0.007 J0.017 K0.000 F200.000
G1 X20.406 Y12.875 Z-2.375 F200.000
G2 X20.857 Y13.370 Z-2.375 I0.503 J-0.005 K0.000 F200.000
G1 X22.250 Y13.375 Z-2.375 F200.000
G2 X22.745 Y12.924 Z-2.375 I-0.005 J-0.503 K0.000 F200.000
G1 X22.750 Y5.906 Z-2.375 F200.000
G2 X22.299 Y5.411 Z-2.375 I-0.503 J0.005 K0.000 F200.000
G1 X20.900 Y5.406 Z-2.375 F200.000
G3 X20.875 Y5.382 Z-2.375 I-0.007 J-0.018 K0.000 F200.000
G1 X20.875 Y4.104 Z-2.375 F200.000
G2 X20.424 Y3.609 Z-2.375 I-0.503 J0.005 K0.000 F200.000
G1 X19.324 Y3.604 Z-2.375 F200.000
G1 X19.305 Y3.600 Z-2.375 F200.000
G1 X19.315 Y3.583 Z-2.375 F200.000
G1 X20.819 Y2.079 Z-2.375 F200.000
G2 X20.965 Y1.750 Z-2.375 I-0.358 J-0.355 K0.000 F200.000
G1 X20.966 Y0.250 Z-2.375 F200.000
G2 X20.515 Y-0.245 Z-2.375 I-0.503 J0.005 K0.000 F200.000
G1 X18.940 Y-0.250 Z-2.375 F200.000
G2 X18.445 Y0.201 Z-2.375 I0.005 J0.503 K0.000 F200.000
G1 X18.441 Y1.554 Z-2.375 F200.000
G3 X18.416 Y1.579 Z-2.375 I-0.018 J0.007 K0.000 F200.000
G1 X16.949 Y1.579 Z-2.375 F200.000
G2 X16.454 Y2.030 Z-2.375 I0.005 J0.503 K0.000 F200.000
G1 X16.449 Y3.579 Z-2.375 F200.000
G3 X16.425 Y3.604 Z-2.375 I-0.018 J0.007 K0.000 F200.000
G1 X6.075 Y3.604 Z-2.375 F200.000
G3 X6.051 Y3.579 Z-2.375 I-0.007 J-0.017 K0.000 F200.000
G1 X6.051 Y2.079 Z-2.375 F200.000
G2 X5.600 Y1.584 Z-2.375 I-0.503 J0.005 K0.000 F200.000
G1 X4.085 Y1.579 Z-2.375 F200.000
G3 X4.060 Y1.554 Z-2.375 I-0.007 J-0.018 K0.000 F200.000
G1 X4.060 Y0.250 Z-2.375 F200.000
G2 X3.608 Y-0.245 Z-2.375 I-0.503 J0.005 K0.000 F200.000
G1 X2.034 Y-0.250 Z-2.375 F200.000
G2 X1.539 Y0.201 Z-2.375 I0.005 J0.503 K0.000 F200.000
G1 X1.534 Y1.725 Z-2.375 F200.000
G2 X1.664 Y2.061 Z-2.375 I0.504 J-0.003 K0.000 F200.000
G1 X3.185 Y3.583 Z-2.375 F200.000
G1 X3.195 Y3.600 Z-2.375 F200.000
G1 X3.176 Y3.604 Z-2.375 F200.000
G1 X2.125 Y3.604 Z-2.375 F200.000
G2 X1.630 Y4.055 Z-2.375 I0.005 J0.503 K0.000 F200.000
G1 X1.625 Y5.381 Z-2.375 F200.000
G3 X1.600 Y5.406 Z-2.375 I-0.018 J0.007 K0.000 F200.000
G1 X0.250 Y5.406 Z-2.375 F200.000
G2 X-0.245 Y5.858 Z-2.375 I0.005 J0.503 K0.000 F200.000
G1 X-0.250 Y12.875 Z-2.375 F200.000
G2 X0.201 Y13.370 Z-2.375 I0.503 J-0.005 K0.000 F200.000
G1 X1.625 Y13.375 Z-2.375 F200.000
G2 X2.120 Y12.924 Z-2.375 I-0.005 J-0.503 K0.000 F200.000
G1 X2.125 Y9.653 Z-2.375 F200.000
G3 X2.150 Y9.628 Z-2.375 I0.017 J-0.007 K0.000 F200.000
G1 X3.535 Y9.628 Z-2.375 F200.000
G3 X3.560 Y9.653 Z-2.375 I0.007 J0.017 K0.000 F200.000
G1 X3.560 Y10.906 Z-2.375 F200.000
G2 X4.011 Y11.401 Z-2.375 I0.503 J-0.005 K0.000 F200.000
G1 X5.167 Y11.406 Z-2.375 F200.000
G1 X5.186 Y11.411 Z-2.375 F200.000
G1 X5.176 Y11.427 Z-2.375 F200.000
G1 X3.729 Y12.875 Z-2.375 F200.000
G2 X3.583 Y13.204 Z-2.375 I0.358 J0.355 K0.000 F200.000
G1 X3.582 Y14.750 Z-2.375 F200.000
G2 X4.033 Y15.245 Z-2.375 I0.503 J-0.005 K0.000 F200.000
G1 X5.551 Y15.250 Z-2.375 F200.000
G2 X6.046 Y14.799 Z-2.375 I-0.005 J-0.503 K0.000 F200.000
G1 X6.051 Y13.400 Z-2.375 F200.000
G3 X6.075 Y13.375 Z-2.375 I0.018 J-0.007 K0.000 F200.000
G1 X7.238 Y13.375 Z-2.375 F200.000
G2 X7.733 Y12.924 Z-2.375 I-0.005 J-0.503 K0.000 F200.000
G1 X7.737 Y11.431 Z-2.375 F200.000
G3 X7.762 Y11.406 Z-2.375 I0.018 J-0.007 K0.000 F200.000
G1 X14.738 Y11.406 Z-2.375 F200.000
G3 X14.749 Y11.405 Z-2.375 I0.007 J0.017 K0.000 F200.000
G1 X14.749 Y11.405 Z-2.500 F60.000
G3 X14.762 Y11.431 Z-2.500 I-0.004 J0.018 K0.000 F200.000
G1 X14.762 Y12.882 Z-2.500 F200.000
G2 X15.214 Y13.377 Z-2.500 I0.503 J-0.005 K0.000 F200.000
G1 X16.653 Y13.382 Z-2.500 F200.000
G3 X16.678 Y13.406 Z-2.500 I0.007 J0.018 K0.000 F200.000
G1 X16.678 Y14.750 Z-2.500 F200.000
G2 X17.130 Y15.245 Z-2.500 I0.503 J-0.005 K0.000 F200.000
G1 X18.418 Y15.250 Z-2.500 F200.000
G2 X18.913 Y14.799 Z-2.500 I-0.005 J-0.503 K0.000 F200.000
G1 X18.918 Y13.255 Z-2.500 F200.000
G2 X18.790 Y12.922 Z-2.500 I-0.504 J0.003 K0.000 F200.000
G1 X17.318 Y11.427 Z-2.500 F200.000
G1 X17.308 Y11.411 Z-2.500 F200.000
G1 X17.326 Y11.406 Z-2.500 F200.000
G1 X18.500 Y11.406 Z-2.500 F200.000
G2 X18.995 Y10.955 Z-2.500 I-0.005 J-0.503 K0.000 F200.000
G1 X19.000 Y9.654 Z-2.500 F200.000
G3 X19.025 Y9.629 Z-2.500 I0.018 J-0.007 K0.000 F200.000
G1 X20.382 Y9.629 Z-2.500 F200.000
G3 X20.406 Y9.653 Z-2.500 I0.007 J0.017 K0.000 F200.000
G1 X20.406 Y12.875 Z-2.500 F200.000
G2 X20.857 Y13.370 Z-2.500 I0.503 J-0.005 K0.000 F200.000
G1 X22.250 Y13.375 Z-2.500 F200.000
G2 X22.745 Y12.924 Z-2.500 I-0.005 J-0.503 K0.000 F200.000
G1 X22.750 Y5.906 Z-2.500 F200.000
G2 X22.299 Y5.411 Z-2.500 I-0.503 J0.005 K0.000 F200.000
G1 X20.900 Y5.406 Z-2.500 F200.000
G3 X20.875 Y5.382 Z-2.500 I-0.007 J-0.018 K0.000 F200.000
G1 X20.875 Y4.104 Z-2.500 F200.000
G2 X20.424 Y3.609 Z-2.500 I-0.503 J0.005 K0.000 F200.000
G1 X19.324 Y3.604 Z-2.500 F200.000
G1 X19.305 Y3.600 Z-2.500 F200.000
G1 X19.315 Y3.583 Z-2.500 F200.000
G1 X20.819 Y2.079 Z-2.500 F200.000
G2 X20.965 Y1.750 Z-2.500 I-0.358 J-0.355 K0.000 F200.000
G1 X20.966 Y0.250 Z-2.500 F200.000
G2 X20.515 Y-0.245 Z-2.500 I-0.503 J0.005 K0.000 F200.000
G1 X18.940 Y-0.250 Z-2.500 F200.000
G2 X18.445 Y0.201 Z-2.500 I0.005 J0.503 K0.000 F200.000
G1 X18.441 Y1.554 Z-2.500 F200.000
G3 X18.416 Y1.579 Z-2.500 I-0.018 J0.007 K0.000 F200.000
G1 X16.949 Y1.579 Z-2.500 F200.000
G2 X16.454 Y2.030 Z-2.500 I0.005 J0.503 K0.000 F200.000
G1 X16.449 Y3.579 Z-2.500 F200.000
G3 X16.425 Y3.604 Z-2.500 I-0.018 J0.007 K0.000 F200.000
G1 X6.075 Y3.604 Z-2.500 F200.000
G3 X6.051 Y3.579 Z-2.500 I-0.007 J-0.017 K0.000 F200.000
G1 X6.051 Y2.079 Z-2.500 F200.000
G2 X5.600 Y1.584 Z-2.500 I-0.503 J0.005 K0.000 F200.000
G1 X4.085 Y1.579 Z-2.500 F200.000
G3 X4.060 Y1.554 Z-2.500 I-0.007 J-0.018 K0.000 F200.000
G1 X4.060 Y0.250 Z-2.500 F200.000
G2 X3.608 Y-0.245 Z-2.500 I-0.503 J0.005 K0.000 F200.000
G1 X2.034 Y-0.250 Z-2.500 F200.000
G2 X1.539 Y0.201 Z-2.500 I0.005 J0.503 K0.000 F200.000
G1 X1.534 Y1.725 Z-2.500 F200.000
