(Exported by FreeCAD)
(Post Processor: script_module)
(Output Time:2025-01-01 01:49:12.226378)
(Begin preamble)
G17 G90
G21
(Begin operation: TC: 3.175 Z1 UP Helicoidale007)
(Path: TC: 3.175 Z1 UP Helicoidale007)
(TC: 3.175 Z1 UP Helicoidale007)
(Begin toolchange)
( M6 T1 )
M3 S24000
(Finish operation: TC: 3.175 Z1 UP Helicoidale007)
(Begin operation: Fixture)
(Path: Fixture)
G54
(Finish operation: Fixture)
(Begin operation: MillFace)
(Path: MillFace)
(MillFace)
G0 Z17.300
G0 X40.098 Y9.098
G0 Z15.300
G1 X40.098 Y9.098 Z11.507 F1000.000
G1 X40.063 Y9.100 Z11.507 F2500.000
G1 X-40.063 Y9.100 Z11.507 F2500.000
G1 X-40.098 Y9.098 Z11.507 F2500.000
G1 X-40.100 Y9.063 Z11.507 F2500.000
G1 X-40.100 Y-0.063 Z11.507 F2500.000
G1 X-40.098 Y-0.098 Z11.507 F2500.000
G1 X-40.063 Y-0.100 Z11.507 F2500.000
G1 X40.063 Y-0.100 Z11.507 F2500.000
G1 X40.098 Y-0.098 Z11.507 F2500.000
G1 X40.100 Y-0.063 Z11.507 F2500.000
G1 X40.100 Y9.063 Z11.507 F2500.000
G1 X40.098 Y9.098 Z11.507 F2500.000
G0 Z17.300
G0 X38.515 Y7.515 Z17.300
G0 X38.515 Y7.515 Z15.300
G1 X38.515 Y7.515 Z11.507 F1000.000
G1 X-38.515 Y7.515 Z11.507 F2500.000
G1 X-38.515 Y1.485 Z11.507 F2500.000
G1 X38.515 Y1.485 Z11.507 F2500.000
G1 X38.515 Y7.515 Z11.507 F2500.000
G0 Z17.300
G0 X36.930 Y5.930 Z17.300
G0 X36.930 Y5.930 Z15.300
G1 X36.930 Y5.930 Z11.507 F1000.000
G1 X-36.930 Y5.930 Z11.507 F2500.000
G1 X-36.930 Y3.070 Z11.507 F2500.000
G1 X36.930 Y3.070 Z11.507 F2500.000
G1 X36.930 Y5.930 Z11.507 F2500.000
G0 Z17.300
G0 X36.137 Y5.137 Z17.300
G0 X36.137 Y5.137 Z15.300
G1 X36.137 Y5.137 Z11.507 F1000.000
G1 X-36.138 Y5.137 Z11.507 F2500.000
G1 X-36.138 Y3.863 Z11.507 F2500.000
G1 X36.138 Y3.863 Z11.507 F2500.000
G1 X36.137 Y5.137 Z11.507 F2500.000
G1 X36.137 Y5.137 Z10.715 F1000.000
G1 X-36.138 Y5.137 Z10.715 F2500.000
G1 X-36.138 Y3.863 Z10.715 F2500.000
G1 X36.138 Y3.863 Z10.715 F2500.000
G1 X36.137 Y5.137 Z10.715 F2500.000
G0 Z17.300
G0 X36.930 Z17.300
G0 X36.930 Z15.300
G1 X36.930 Y5.137 Z10.715 F1000.000
G1 X36.930 Y5.930 Z10.715 F2500.000
G1 X-36.930 Y5.930 Z10.715 F2500.000
G1 X-36.930 Y3.070 Z10.715 F2500.000
G1 X36.930 Y3.070 Z10.715 F2500.000
G1 X36.930 Y5.137 Z10.715 F2500.000
G0 Z17.300
G0 X38.515 Z17.300
G0 X38.515 Z15.300
G1 X38.515 Y5.137 Z10.715 F1000.000
G1 X38.515 Y7.515 Z10.715 F2500.000
G1 X-38.515 Y7.515 Z10.715 F2500.000
G1 X-38.515 Y1.485 Z10.715 F2500.000
G1 X38.515 Y1.485 Z10.715 F2500.000
G1 X38.515 Y5.137 Z10.715 F2500.000
G0 Z17.300
G0 X40.100 Z17.300
G0 X40.100 Z15.300
G1 X40.100 Y5.137 Z10.715 F1000.000
G1 X40.100 Y9.063 Z10.715 F2500.000
G1 X40.098 Y9.098 Z10.715 F2500.000
G1 X40.063 Y9.100 Z10.715 F2500.000
G1 X-40.063 Y9.100 Z10.715 F2500.000
G1 X-40.098 Y9.098 Z10.715 F2500.000
G1 X-40.100 Y9.063 Z10.715 F2500.000
G1 X-40.100 Y-0.063 Z10.715 F2500.000
G1 X-40.098 Y-0.098 Z10.715 F2500.000
G1 X-40.063 Y-0.100 Z10.715 F2500.000
G1 X40.063 Y-0.100 Z10.715 F2500.000
G1 X40.098 Y-0.098 Z10.715 F2500.000
G1 X40.100 Y-0.063 Z10.715 F2500.000
G1 X40.100 Y5.137 Z10.715 F2500.000
G0 Z17.300
G0 Z17.300
(Finish operation: MillFace)
(Begin operation: MillFace001)
(Path: MillFace001)
(MillFace001)
G0 Z17.300
G0 X93.415 Y28.415
G0 Z15.300
G1 X93.415 Y28.415 Z11.243 F1000.000
G1 X41.585 Y28.415 Z11.243 F2500.000
G1 X41.585 Y1.585 Z11.243 F2500.000
G1 X93.415 Y1.585 Z11.243 F2500.000
G1 X93.415 Y28.415 Z11.243 F2500.000
G1 X91.830 Y26.830 Z11.243 F1000.000
G1 X43.170 Y26.830 Z11.243 F2500.000
G1 X43.170 Y3.170 Z11.243 F2500.000
G1 X91.830 Y3.170 Z11.243 F2500.000
G1 X91.830 Y26.830 Z11.243 F2500.000
G1 X90.245 Y25.245 Z11.243 F1000.000
G1 X44.755 Y25.245 Z11.243 F2500.000
G1 X44.755 Y4.755 Z11.243 F2500.000
G1 X90.245 Y4.755 Z11.243 F2500.000
G1 X90.245 Y25.245 Z11.243 F2500.000
G1 X88.660 Y23.660 Z11.243 F1000.000
G1 X46.340 Y23.660 Z11.243 F2500.000
G1 X46.340 Y6.340 Z11.243 F2500.000
G1 X88.660 Y6.340 Z11.243 F2500.000
G1 X88.660 Y23.660 Z11.243 F2500.000
G1 X87.075 Y22.075 Z11.243 F1000.000
G1 X47.925 Y22.075 Z11.243 F2500.000
G1 X47.925 Y7.925 Z11.243 F2500.000
G1 X87.075 Y7.925 Z11.243 F2500.000
G1 X87.075 Y22.075 Z11.243 F2500.000
G1 X85.490 Y20.490 Z11.243 F1000.000
G1 X49.510 Y20.490 Z11.243 F2500.000
G1 X49.510 Y9.510 Z11.243 F2500.000
G1 X85.490 Y9.510 Z11.243 F2500.000
G1 X85.490 Y20.490 Z11.243 F2500.000
G1 X83.905 Y18.905 Z11.243 F1000.000
G1 X51.095 Y18.905 Z11.243 F2500.000
G1 X51.095 Y11.095 Z11.243 F2500.000
G1 X83.905 Y11.095 Z11.243 F2500.000
G1 X83.905 Y18.905 Z11.243 F2500.000
G1 X82.320 Y17.320 Z11.243 F1000.000
G1 X52.680 Y17.320 Z11.243 F2500.000
G1 X52.680 Y12.680 Z11.243 F2500.000
G1 X82.320 Y12.680 Z11.243 F2500.000
G1 X82.320 Y17.320 Z11.243 F2500.000
G1 X80.735 Y15.735 Z11.243 F1000.000
G1 X54.265 Y15.735 Z11.243 F2500.000
G1 X54.265 Y14.265 Z11.243 F2500.000
G1 X80.735 Y14.265 Z11.243 F2500.000
G1 X80.735 Y15.735 Z11.243 F2500.000
G1 X80.735 Y15.735 Z10.187 F1000.000
G1 X54.265 Y15.735 Z10.187 F2500.000
G1 X54.265 Y14.265 Z10.187 F2500.000
G1 X80.735 Y14.265 Z10.187 F2500.000
G1 X80.735 Y15.735 Z10.187 F2500.000
G1 X80.735 Y17.320 Z10.187 F1000.000
G1 X52.680 Y17.320 Z10.187 F2500.000
G1 X52.680 Y12.680 Z10.187 F2500.000
G1 X82.320 Y12.680 Z10.187 F2500.000
G1 X82.320 Y17.320 Z10.187 F2500.000
G1 X80.735 Y17.320 Z10.187 F2500.000
G1 X80.735 Y18.905 Z10.187 F1000.000
G1 X51.095 Y18.905 Z10.187 F2500.000
G1 X51.095 Y11.095 Z10.187 F2500.000
G1 X83.905 Y11.095 Z10.187 F2500.000
G1 X83.905 Y18.905 Z10.187 F2500.000
G1 X80.735 Y18.905 Z10.187 F2500.000
G1 X80.735 Y20.490 Z10.187 F1000.000
G1 X49.510 Y20.490 Z10.187 F2500.000
G1 X49.510 Y9.510 Z10.187 F2500.000
G1 X85.490 Y9.510 Z10.187 F2500.000
G1 X85.490 Y20.490 Z10.187 F2500.000
G1 X80.735 Y20.490 Z10.187 F2500.000
G1 X80.735 Y22.075 Z10.187 F1000.000
G1 X47.925 Y22.075 Z10.187 F2500.000
G1 X47.925 Y7.925 Z10.187 F2500.000
G1 X87.075 Y7.925 Z10.187 F2500.000
G1 X87.075 Y22.075 Z10.187 F2500.000
G1 X80.735 Y22.075 Z10.187 F2500.000
G1 X80.735 Y23.660 Z10.187 F1000.000
G1 X46.340 Y23.660 Z10.187 F2500.000
G1 X46.340 Y6.340 Z10.187 F2500.000
G1 X88.660 Y6.340 Z10.187 F2500.000
G1 X88.660 Y23.660 Z10.187 F2500.000
G1 X80.735 Y23.660 Z10.187 F2500.000
G1 X80.735 Y25.245 Z10.187 F1000.000
G1 X44.755 Y25.245 Z10.187 F2500.000
G1 X44.755 Y4.755 Z10.187 F2500.000
G1 X90.245 Y4.755 Z10.187 F2500.000
G1 X90.245 Y25.245 Z10.187 F2500.000
G1 X80.735 Y25.245 Z10.187 F2500.000
G1 X80.735 Y26.830 Z10.187 F1000.000
G1 X43.170 Y26.830 Z10.187 F2500.000
G1 X43.170 Y3.170 Z10.187 F2500.000
G1 X91.830 Y3.170 Z10.187 F2500.000
G1 X91.830 Y26.830 Z10.187 F2500.000
G1 X80.735 Y26.830 Z10.187 F2500.000
G1 X80.735 Y28.415 Z10.187 F1000.000
G1 X41.585 Y28.415 Z10.187 F2500.000
G1 X41.585 Y1.585 Z10.187 F2500.000
G1 X93.415 Y1.585 Z10.187 F2500.000
G1 X93.415 Y28.415 Z10.187 F2500.000
G1 X80.735 Y28.415 Z10.187 F2500.000
G1 X80.735 Y28.415 Z9.130 F1000.000
G1 X41.585 Y28.415 Z9.130 F2500.000
G1 X41.585 Y1.585 Z9.130 F2500.000
G1 X93.415 Y1.585 Z9.130 F2500.000
G1 X93.415 Y28.415 Z9.130 F2500.000
G1 X80.735 Y28.415 Z9.130 F2500.000
G1 X80.735 Y26.830 Z9.130 F1000.000
G1 X43.170 Y26.830 Z9.130 F2500.000
G1 X43.170 Y3.170 Z9.130 F2500.000
G1 X91.830 Y3.170 Z9.130 F2500.000
G1 X91.830 Y26.830 Z9.130 F2500.000
G1 X80.735 Y26.830 Z9.130 F2500.000
G1 X80.735 Y25.245 Z9.130 F1000.000
G1 X44.755 Y25.245 Z9.130 F2500.000
G1 X44.755 Y4.755 Z9.130 F2500.000
G1 X90.245 Y4.755 Z9.130 F2500.000
G1 X90.245 Y25.245 Z9.130 F2500.000
G1 X80.735 Y25.245 Z9.130 F2500.000
G1 X80.735 Y23.660 Z9.130 F1000.000
G1 X46.340 Y23.660 Z9.130 F2500.000
G1 X46.340 Y6.340 Z9.130 F2500.000
G1 X88.660 Y6.340 Z9.130 F2500.000
G1 X88.660 Y23.660 Z9.130 F2500.000
G1 X80.735 Y23.660 Z9.130 F2500.000
G1 X80.735 Y22.075 Z9.130 F1000.000
G1 X47.925 Y22.075 Z9.130 F2500.000
G1 X47.925 Y7.925 Z9.130 F2500.000
G1 X87.075 Y7.925 Z9.130 F2500.000
G1 X87.075 Y22.075 Z9.130 F2500.000
G1 X80.735 Y22.075 Z9.130 F2500.000
G1 X80.735 Y20.490 Z9.130 F1000.000
G1 X49.510 Y20.490 Z9.130 F2500.000
G1 X49.510 Y9.510 Z9.130 F2500.000
G1 X85.490 Y9.510 Z9.130 F2500.000
G1 X85.490 Y20.490 Z9.130 F2500.000
G1 X80.735 Y20.490 Z9.130 F2500.000
G1 X80.735 Y18.905 Z9.130 F1000.000
G1 X51.095 Y18.905 Z9.130 F2500.000
G1 X51.095 Y11.095 Z9.130 F2500.000
G1 X83.905 Y11.095 Z9.130 F2500.000
G1 X83.905 Y18.905 Z9.130 F2500.000
G1 X80.735 Y18.905 Z9.130 F2500.000
G1 X80.735 Y17.320 Z9.130 F1000.000
G1 X52.680 Y17.320 Z9.130 F2500.000
G1 X52.680 Y12.680 Z9.130 F2500.000
G1 X82.320 Y12.680 Z9.130 F2500.000
G1 X82.320 Y17.320 Z9.130 F2500.000
G1 X80.735 Y17.320 Z9.130 F2500.000
G1 X80.735 Y15.735 Z9.130 F1000.000
G1 X54.265 Y15.735 Z9.130 F2500.000
G1 X54.265 Y14.265 Z9.130 F2500.000
G1 X80.735 Y14.265 Z9.130 F2500.000
G1 X80.735 Y15.735 Z9.130 F2500.000
G1 X80.735 Y15.735 Z8.073 F1000.000
G1 X54.265 Y15.735 Z8.073 F2500.000
G1 X54.265 Y14.265 Z8.073 F2500.000
G1 X80.735 Y14.265 Z8.073 F2500.000
G1 X80.735 Y15.735 Z8.073 F2500.000
G1 X80.735 Y17.320 Z8.073 F1000.000
G1 X52.680 Y17.320 Z8.073 F2500.000
G1 X52.680 Y12.680 Z8.073 F2500.000
G1 X82.320 Y12.680 Z8.073 F2500.000
G1 X82.320 Y17.320 Z8.073 F2500.000
G1 X80.735 Y17.320 Z8.073 F2500.000
G1 X80.735 Y18.905 Z8.073 F1000.000
G1 X51.095 Y18.905 Z8.073 F2500.000
G1 X51.095 Y11.095 Z8.073 F2500.000
G1 X83.905 Y11.095 Z8.073 F2500.000
G1 X83.905 Y18.905 Z8.073 F2500.000
G1 X80.735 Y18.905 Z8.073 F2500.000
G1 X80.735 Y20.490 Z8.073 F1000.000
G1 X49.510 Y20.490 Z8.073 F2500.000
G1 X49.510 Y9.510 Z8.073 F2500.000
G1 X85.490 Y9.510 Z8.073 F2500.000
G1 X85.490 Y20.490 Z8.073 F2500.000
G1 X80.735 Y20.490 Z8.073 F2500.000
G1 X80.735 Y22.075 Z8.073 F1000.000
G1 X47.925 Y22.075 Z8.073 F2500.000
G1 X47.925 Y7.925 Z8.073 F2500.000
G1 X87.075 Y7.925 Z8.073 F2500.000
G1 X87.075 Y22.075 Z8.073 F2500.000
G1 X80.735 Y22.075 Z8.073 F2500.000
G1 X80.735 Y23.660 Z8.073 F1000.000
G1 X46.340 Y23.660 Z8.073 F2500.000
G1 X46.340 Y6.340 Z8.073 F2500.000
G1 X88.660 Y6.340 Z8.073 F2500.000
G1 X88.660 Y23.660 Z8.073 F2500.000
G1 X80.735 Y23.660 Z8.073 F2500.000
G1 X80.735 Y25.245 Z8.073 F1000.000
G1 X44.755 Y25.245 Z8.073 F2500.000
G1 X44.755 Y4.755 Z8.073 F2500.000
G1 X90.245 Y4.755 Z8.073 F2500.000
G1 X90.245 Y25.245 Z8.073 F2500.000
G1 X80.735 Y25.245 Z8.073 F2500.000
G1 X80.735 Y26.830 Z8.073 F1000.000
G1 X43.170 Y26.830 Z8.073 F2500.000
G1 X43.170 Y3.170 Z8.073 F2500.000
G1 X91.830 Y3.170 Z8.073 F2500.000
G1 X91.830 Y26.830 Z8.073 F2500.000
G1 X80.735 Y26.830 Z8.073 F2500.000
G1 X80.735 Y28.415 Z8.073 F1000.000
G1 X41.585 Y28.415 Z8.073 F2500.000
G1 X41.585 Y1.585 Z8.073 F2500.000
G1 X93.415 Y1.585 Z8.073 F2500.000
G1 X93.415 Y28.415 Z8.073 F2500.000
G1 X80.735 Y28.415 Z8.073 F2500.000
G1 X80.735 Y28.415 Z7.017 F1000.000
G1 X41.585 Y28.415 Z7.017 F2500.000
G1 X41.585 Y1.585 Z7.017 F2500.000
G1 X93.415 Y1.585 Z7.017 F2500.000
G1 X93.415 Y28.415 Z7.017 F2500.000
G1 X80.735 Y28.415 Z7.017 F2500.000
G1 X80.735 Y26.830 Z7.017 F1000.000
G1 X43.170 Y26.830 Z7.017 F2500.000
G1 X43.170 Y3.170 Z7.017 F2500.000
G1 X91.830 Y3.170 Z7.017 F2500.000
G1 X91.830 Y26.830 Z7.017 F2500.000
G1 X80.735 Y26.830 Z7.017 F2500.000
G1 X80.735 Y25.245 Z7.017 F1000.000
G1 X44.755 Y25.245 Z7.017 F2500.000
G1 X44.755 Y4.755 Z7.017 F2500.000
G1 X90.245 Y4.755 Z7.017 F2500.000
G1 X90.245 Y25.245 Z7.017 F2500.000
G1 X80.735 Y25.245 Z7.017 F2500.000
G1 X80.735 Y23.660 Z7.017 F1000.000
G1 X46.340 Y23.660 Z7.017 F2500.000
G1 X46.340 Y6.340 Z7.017 F2500.000
G1 X88.660 Y6.340 Z7.017 F2500.000
G1 X88.660 Y23.660 Z7.017 F2500.000
G1 X80.735 Y23.660 Z7.017 F2500.000
G1 X80.735 Y22.075 Z7.017 F1000.000
G1 X47.925 Y22.075 Z7.017 F2500.000
G1 X47.925 Y7.925 Z7.017 F2500.000
G1 X87.075 Y7.925 Z7.017 F2500.000
G1 X87.075 Y22.075 Z7.017 F2500.000
G1 X80.735 Y22.075 Z7.017 F2500.000
G1 X80.735 Y20.490 Z7.017 F1000.000
G1 X49.510 Y20.490 Z7.017 F2500.000
G1 X49.510 Y9.510 Z7.017 F2500.000
G1 X85.490 Y9.510 Z7.017 F2500.000
G1 X85.490 Y20.490 Z7.017 F2500.000
G1 X80.735 Y20.490 Z7.017 F2500.000
G1 X80.735 Y18.905 Z7.017 F1000.000
G1 X51.095 Y18.905 Z7.017 F2500.000
G1 X51.095 Y11.095 Z7.017 F2500.000
G1 X83.905 Y11.095 Z7.017 F2500.000
G1 X83.905 Y18.905 Z7.017 F2500.000
G1 X80.735 Y18.905 Z7.017 F2500.000
G1 X80.735 Y17.320 Z7.017 F1000.000
G1 X52.680 Y17.320 Z7.017 F2500.000
G1 X52.680 Y12.680 Z7.017 F2500.000
G1 X82.320 Y12.680 Z7.017 F2500.000
G1 X82.320 Y17.320 Z7.017 F2500.000
G1 X80.735 Y17.320 Z7.017 F2500.000
G1 X80.735 Y15.735 Z7.017 F1000.000
G1 X54.265 Y15.735 Z7.017 F2500.000
G1 X54.265 Y14.265 Z7.017 F2500.000
G1 X80.735 Y14.265 Z7.017 F2500.000
G1 X80.735 Y15.735 Z7.017 F2500.000
G1 X80.735 Y15.735 Z5.960 F1000.000
G1 X54.265 Y15.735 Z5.960 F2500.000
G1 X54.265 Y14.265 Z5.960 F2500.000
G1 X80.735 Y14.265 Z5.960 F2500.000
G1 X80.735 Y15.735 Z5.960 F2500.000
G1 X80.735 Y17.320 Z5.960 F1000.000
G1 X52.680 Y17.320 Z5.960 F2500.000
G1 X52.680 Y12.680 Z5.960 F2500.000
G1 X82.320 Y12.680 Z5.960 F2500.000
G1 X82.320 Y17.320 Z5.960 F2500.000
G1 X80.735 Y17.320 Z5.960 F2500.000
G1 X80.735 Y18.905 Z5.960 F1000.000
G1 X51.095 Y18.905 Z5.960 F2500.000
G1 X51.095 Y11.095 Z5.960 F2500.000
G1 X83.905 Y11.095 Z5.960 F2500.000
G1 X83.905 Y18.905 Z5.960 F2500.000
G1 X80.735 Y18.905 Z5.960 F2500.000
G1 X80.735 Y20.490 Z5.960 F1000.000
G1 X49.510 Y20.490 Z5.960 F2500.000
G1 X49.510 Y9.510 Z5.960 F2500.000
G1 X85.490 Y9.510 Z5.960 F2500.000
G1 X85.490 Y20.490 Z5.960 F2500.000
G1 X80.735 Y20.490 Z5.960 F2500.000
G1 X80.735 Y22.075 Z5.960 F1000.000
G1 X47.925 Y22.075 Z5.960 F2500.000
G1 X47.925 Y7.925 Z5.960 F2500.000
G1 X87.075 Y7.925 Z5.960 F2500.000
G1 X87.075 Y22.075 Z5.960 F2500.000
G1 X80.735 Y22.075 Z5.960 F2500.000
G1 X80.735 Y23.660 Z5.960 F1000.000
G1 X46.340 Y23.660 Z5.960 F2500.000
G1 X46.340 Y6.340 Z5.960 F2500.000
G1 X88.660 Y6.340 Z5.960 F2500.000
G1 X88.660 Y23.660 Z5.960 F2500.000
G1 X80.735 Y23.660 Z5.960 F2500.000
G1 X80.735 Y25.245 Z5.960 F1000.000
G1 X44.755 Y25.245 Z5.960 F2500.000
G1 X44.755 Y4.755 Z5.960 F2500.000
G1 X90.245 Y4.755 Z5.960 F2500.000
G1 X90.245 Y25.245 Z5.960 F2500.000
G1 X80.735 Y25.245 Z5.960 F2500.000
G1 X80.735 Y26.830 Z5.960 F1000.000
G1 X43.170 Y26.830 Z5.960 F2500.000
G1 X43.170 Y3.170 Z5.960 F2500.000
G1 X91.830 Y3.170 Z5.960 F2500.000
G1 X91.830 Y26.830 Z5.960 F2500.000
G1 X80.735 Y26.830 Z5.960 F2500.000
G1 X80.735 Y28.415 Z5.960 F1000.000
G1 X41.585 Y28.415 Z5.960 F2500.000
G1 X41.585 Y1.585 Z5.960 F2500.000
G1 X93.415 Y1.585 Z5.960 F2500.000
G1 X93.415 Y28.415 Z5.960 F2500.000
G1 X80.735 Y28.415 Z5.960 F2500.000
G1 X80.735 Y28.415 Z4.903 F1000.000
G1 X41.585 Y28.415 Z4.903 F2500.000
G1 X41.585 Y1.585 Z4.903 F2500.000
G1 X93.415 Y1.585 Z4.903 F2500.000
G1 X93.415 Y28.415 Z4.903 F2500.000
G1 X80.735 Y28.415 Z4.903 F2500.000
G1 X80.735 Y26.830 Z4.903 F1000.000
G1 X43.170 Y26.830 Z4.903 F2500.000
G1 X43.170 Y3.170 Z4.903 F2500.000
G1 X91.830 Y3.170 Z4.903 F2500.000
G1 X91.830 Y26.830 Z4.903 F2500.000
G1 X80.735 Y26.830 Z4.903 F2500.000
G1 X80.735 Y25.245 Z4.903 F1000.000
G1 X44.755 Y25.245 Z4.903 F2500.000
G1 X44.755 Y4.755 Z4.903 F2500.000
G1 X90.245 Y4.755 Z4.903 F2500.000
G1 X90.245 Y25.245 Z4.903 F2500.000
G1 X80.735 Y25.245 Z4.903 F2500.000
G1 X80.735 Y23.660 Z4.903 F1000.000
G1 X46.340 Y23.660 Z4.903 F2500.000
G1 X46.340 Y6.340 Z4.903 F2500.000
G1 X88.660 Y6.340 Z4.903 F2500.000
G1 X88.660 Y23.660 Z4.903 F2500.000
G1 X80.735 Y23.660 Z4.903 F2500.000
G1 X80.735 Y22.075 Z4.903 F1000.000
G1 X47.925 Y22.075 Z4.903 F2500.000
G1 X47.925 Y7.925 Z4.903 F2500.000
G1 X87.075 Y7.925 Z4.903 F2500.000
G1 X87.075 Y22.075 Z4.903 F2500.000
G1 X80.735 Y22.075 Z4.903 F2500.000
G1 X80.735 Y20.490 Z4.903 F1000.000
G1 X49.510 Y20.490 Z4.903 F2500.000
G1 X49.510 Y9.510 Z4.903 F2500.000
G1 X85.490 Y9.510 Z4.903 F2500.000
G1 X85.490 Y20.490 Z4.903 F2500.000
G1 X80.735 Y20.490 Z4.903 F2500.000
G1 X80.735 Y18.905 Z4.903 F1000.000
G1 X51.095 Y18.905 Z4.903 F2500.000
G1 X51.095 Y11.095 Z4.903 F2500.000
G1 X83.905 Y11.095 Z4.903 F2500.000
G1 X83.905 Y18.905 Z4.903 F2500.000
G1 X80.735 Y18.905 Z4.903 F2500.000
G1 X80.735 Y17.320 Z4.903 F1000.000
G1 X52.680 Y17.320 Z4.903 F2500.000
G1 X52.680 Y12.680 Z4.903 F2500.000
G1 X82.320 Y12.680 Z4.903 F2500.000
G1 X82.320 Y17.320 Z4.903 F2500.000
G1 X80.735 Y17.320 Z4.903 F2500.000
G1 X80.735 Y15.735 Z4.903 F1000.000
G1 X54.265 Y15.735 Z4.903 F2500.000
G1 X54.265 Y14.265 Z4.903 F2500.000
G1 X80.735 Y14.265 Z4.903 F2500.000
G1 X80.735 Y15.735 Z4.903 F2500.000
G0 Z17.300
(Finish operation: MillFace001)
(Begin operation: MillFace002)
(Path: MillFace002)
(MillFace002)
G0 Z17.300
G0 X-41.585 Y28.415
G0 Z15.300
G1 X-41.585 Y28.415 Z11.243 F1000.000
G1 X-93.415 Y28.415 Z11.243 F2500.000
G1 X-93.415 Y1.585 Z11.243 F2500.000
G1 X-41.585 Y1.585 Z11.243 F2500.000
G1 X-41.585 Y28.415 Z11.243 F2500.000
G0 Z17.300
G0 X-43.170 Y26.830 Z17.300
G0 X-43.170 Y26.830 Z15.300
G1 X-43.170 Y26.830 Z11.243 F1000.000
G1 X-91.830 Y26.830 Z11.243 F2500.000
G1 X-91.830 Y3.170 Z11.243 F2500.000
G1 X-43.170 Y3.170 Z11.243 F2500.000
G1 X-43.170 Y26.830 Z11.243 F2500.000
G0 Z17.300
G0 X-44.755 Y25.245 Z17.300
G0 X-44.755 Y25.245 Z15.300
G1 X-44.755 Y25.245 Z11.243 F1000.000
G1 X-90.245 Y25.245 Z11.243 F2500.000
G1 X-90.245 Y4.755 Z11.243 F2500.000
G1 X-44.755 Y4.755 Z11.243 F2500.000
G1 X-44.755 Y25.245 Z11.243 F2500.000
G0 Z17.300
G0 X-46.340 Y23.660 Z17.300
G0 X-46.340 Y23.660 Z15.300
G1 X-46.340 Y23.660 Z11.243 F1000.000
G1 X-88.660 Y23.660 Z11.243 F2500.000
G1 X-88.660 Y6.340 Z11.243 F2500.000
G1 X-46.340 Y6.340 Z11.243 F2500.000
G1 X-46.340 Y23.660 Z11.243 F2500.000
G0 Z17.300
G0 X-47.925 Y22.075 Z17.300
G0 X-47.925 Y22.075 Z15.300
G1 X-47.925 Y22.075 Z11.243 F1000.000
G1 X-87.075 Y22.075 Z11.243 F2500.000
G1 X-87.075 Y7.925 Z11.243 F2500.000
G1 X-47.925 Y7.925 Z11.243 F2500.000
G1 X-47.925 Y22.075 Z11.243 F2500.000
G0 Z17.300
G0 X-49.510 Y20.490 Z17.300
G0 X-49.510 Y20.490 Z15.300
G1 X-49.510 Y20.490 Z11.243 F1000.000
G1 X-85.490 Y20.490 Z11.243 F2500.000
G1 X-85.490 Y9.510 Z11.243 F2500.000
G1 X-49.510 Y9.510 Z11.243 F2500.000
G1 X-49.510 Y20.490 Z11.243 F2500.000
G0 Z17.300
G0 X-51.095 Y18.905 Z17.300
G0 X-51.095 Y18.905 Z15.300
G1 X-51.095 Y18.905 Z11.243 F1000.000
G1 X-83.905 Y18.905 Z11.243 F2500.000
G1 X-83.905 Y11.095 Z11.243 F2500.000
G1 X-51.095 Y11.095 Z11.243 F2500.000
G1 X-51.095 Y18.905 Z11.243 F2500.000
G0 Z17.300
G0 X-52.680 Y17.320 Z17.300
G0 X-52.680 Y17.320 Z15.300
G1 X-52.680 Y17.320 Z11.243 F1000.000
G1 X-82.320 Y17.320 Z11.243 F2500.000
G1 X-82.320 Y12.680 Z11.243 F2500.000
G1 X-52.680 Y12.680 Z11.243 F2500.000
G1 X-52.680 Y17.320 Z11.243 F2500.000
G0 Z17.300
G0 X-54.265 Y15.735 Z17.300
G0 X-54.265 Y15.735 Z15.300
G1 X-54.265 Y15.735 Z11.243 F1000.000
G1 X-80.735 Y15.735 Z11.243 F2500.000
G1 X-80.735 Y14.265 Z11.243 F2500.000
G1 X-54.265 Y14.265 Z11.243 F2500.000
G1 X-54.265 Y15.735 Z11.243 F2500.000
G1 X-54.265 Y15.735 Z10.187 F1000.000
G1 X-80.735 Y15.735 Z10.187 F2500.000
G1 X-80.735 Y14.265 Z10.187 F2500.000
G1 X-54.265 Y14.265 Z10.187 F2500.000
G1 X-54.265 Y15.735 Z10.187 F2500.000
G0 Z17.300
G0 X-52.680 Z17.300
G0 X-52.680 Z15.300
G1 X-52.680 Y15.735 Z10.187 F1000.000
G1 X-52.680 Y17.320 Z10.187 F2500.000
G1 X-82.320 Y17.320 Z10.187 F2500.000
G1 X-82.320 Y12.680 Z10.187 F2500.000
G1 X-52.680 Y12.680 Z10.187 F2500.000
G1 X-52.680 Y15.735 Z10.187 F2500.000
G0 Z17.300
G0 X-51.095 Z17.300
G0 X-51.095 Z15.300
G1 X-51.095 Y15.735 Z10.187 F1000.000
G1 X-51.095 Y18.905 Z10.187 F2500.000
G1 X-83.905 Y18.905 Z10.187 F2500.000
G1 X-83.905 Y11.095 Z10.187 F2500.000
G1 X-51.095 Y11.095 Z10.187 F2500.000
G1 X-51.095 Y15.735 Z10.187 F2500.000
G0 Z17.300
G0 X-49.510 Z17.300
G0 X-49.510 Z15.300
G1 X-49.510 Y15.735 Z10.187 F1000.000
G1 X-49.510 Y20.490 Z10.187 F2500.000
G1 X-85.490 Y20.490 Z10.187 F2500.000
G1 X-85.490 Y9.510 Z10.187 F2500.000
G1 X-49.510 Y9.510 Z10.187 F2500.000
G1 X-49.510 Y15.735 Z10.187 F2500.000
G0 Z17.300
G0 X-47.925 Z17.300
G0 X-47.925 Z15.300
G1 X-47.925 Y15.735 Z10.187 F1000.000
G1 X-47.925 Y22.075 Z10.187 F2500.000
G1 X-87.075 Y22.075 Z10.187 F2500.000
G1 X-87.075 Y7.925 Z10.187 F2500.000
G1 X-47.925 Y7.925 Z10.187 F2500.000
G1 X-47.925 Y15.735 Z10.187 F2500.000
G0 Z17.300
G0 X-46.340 Z17.300
G0 X-46.340 Z15.300
G1 X-46.340 Y15.735 Z10.187 F1000.000
G1 X-46.340 Y23.660 Z10.187 F2500.000
G1 X-88.660 Y23.660 Z10.187 F2500.000
G1 X-88.660 Y6.340 Z10.187 F2500.000
G1 X-46.340 Y6.340 Z10.187 F2500.000
G1 X-46.340 Y15.735 Z10.187 F2500.000
G0 Z17.300
G0 X-44.755 Z17.300
G0 X-44.755 Z15.300
G1 X-44.755 Y15.735 Z10.187 F1000.000
G1 X-44.755 Y25.245 Z10.187 F2500.000
G1 X-90.245 Y25.245 Z10.187 F2500.000
G1 X-90.245 Y4.755 Z10.187 F2500.000
G1 X-44.755 Y4.755 Z10.187 F2500.000
G1 X-44.755 Y15.735 Z10.187 F2500.000
G0 Z17.300
G0 X-43.170 Z17.300
G0 X-43.170 Z15.300
G1 X-43.170 Y15.735 Z10.187 F1000.000
G1 X-43.170 Y26.830 Z10.187 F2500.000
G1 X-91.830 Y26.830 Z10.187 F2500.000
G1 X-91.830 Y3.170 Z10.187 F2500.000
G1 X-43.170 Y3.170 Z10.187 F2500.000
G1 X-43.170 Y15.735 Z10.187 F2500.000
G0 Z17.300
G0 X-41.585 Z17.300
G0 X-41.585 Z15.300
G1 X-41.585 Y15.735 Z10.187 F1000.000
G1 X-41.585 Y28.415 Z10.187 F2500.000
G1 X-93.415 Y28.415 Z10.187 F2500.000
G1 X-93.415 Y1.585 Z10.187 F2500.000
G1 X-41.585 Y1.585 Z10.187 F2500.000
G1 X-41.585 Y15.735 Z10.187 F2500.000
G1 X-41.585 Y15.735 Z9.130 F1000.000
G1 X-41.585 Y28.415 Z9.130 F2500.000
G1 X-93.415 Y28.415 Z9.130 F2500.000
G1 X-93.415 Y1.585 Z9.130 F2500.000
G1 X-41.585 Y1.585 Z9.130 F2500.000
G1 X-41.585 Y15.735 Z9.130 F2500.000
G0 Z17.300
G0 X-43.170 Z17.300
G0 X-43.170 Z15.300
G1 X-43.170 Y15.735 Z9.130 F1000.000
G1 X-43.170 Y26.830 Z9.130 F2500.000
G1 X-91.830 Y26.830 Z9.130 F2500.000
G1 X-91.830 Y3.170 Z9.130 F2500.000
G1 X-43.170 Y3.170 Z9.130 F2500.000
G1 X-43.170 Y15.735 Z9.130 F2500.000
G0 Z17.300
G0 X-44.755 Z17.300
G0 X-44.755 Z15.300
G1 X-44.755 Y15.735 Z9.130 F1000.000
G1 X-44.755 Y25.245 Z9.130 F2500.000
G1 X-90.245 Y25.245 Z9.130 F2500.000
G1 X-90.245 Y4.755 Z9.130 F2500.000
G1 X-44.755 Y4.755 Z9.130 F2500.000
G1 X-44.755 Y15.735 Z9.130 F2500.000
G0 Z17.300
G0 X-46.340 Z17.300
G0 X-46.340 Z15.300
G1 X-46.340 Y15.735 Z9.130 F1000.000
G1 X-46.340 Y23.660 Z9.130 F2500.000
G1 X-88.660 Y23.660 Z9.130 F2500.000
G1 X-88.660 Y6.340 Z9.130 F2500.000
G1 X-46.340 Y6.340 Z9.130 F2500.000
G1 X-46.340 Y15.735 Z9.130 F2500.000
G0 Z17.300
G0 X-47.925 Z17.300
G0 X-47.925 Z15.300
G1 X-47.925 Y15.735 Z9.130 F1000.000
G1 X-47.925 Y22.075 Z9.130 F2500.000
G1 X-87.075 Y22.075 Z9.130 F2500.000
G1 X-87.075 Y7.925 Z9.130 F2500.000
G1 X-47.925 Y7.925 Z9.130 F2500.000
G1 X-47.925 Y15.735 Z9.130 F2500.000
G0 Z17.300
G0 X-49.510 Z17.300
G0 X-49.510 Z15.300
G1 X-49.510 Y15.735 Z9.130 F1000.000
G1 X-49.510 Y20.490 Z9.130 F2500.000
G1 X-85.490 Y20.490 Z9.130 F2500.000
G1 X-85.490 Y9.510 Z9.130 F2500.000
G1 X-49.510 Y9.510 Z9.130 F2500.000
G1 X-49.510 Y15.735 Z9.130 F2500.000
G0 Z17.300
G0 X-51.095 Z17.300
G0 X-51.095 Z15.300
G1 X-51.095 Y15.735 Z9.130 F1000.000
G1 X-51.095 Y18.905 Z9.130 F2500.000
G1 X-83.905 Y18.905 Z9.130 F2500.000
G1 X-83.905 Y11.095 Z9.130 F2500.000
G1 X-51.095 Y11.095 Z9.130 F2500.000
G1 X-51.095 Y15.735 Z9.130 F2500.000
G0 Z17.300
G0 X-52.680 Z17.300
G0 X-52.680 Z15.300
G1 X-52.680 Y15.735 Z9.130 F1000.000
G1 X-52.680 Y17.320 Z9.130 F2500.000
G1 X-82.320 Y17.320 Z9.130 F2500.000
G1 X-82.320 Y12.680 Z9.130 F2500.000
G1 X-52.680 Y12.680 Z9.130 F2500.000
G1 X-52.680 Y15.735 Z9.130 F2500.000
G0 Z17.300
G0 X-54.265 Z17.300
G0 X-54.265 Z15.300
G1 X-54.265 Y15.735 Z9.130 F1000.000
G1 X-80.735 Y15.735 Z9.130 F2500.000
G1 X-80.735 Y14.265 Z9.130 F2500.000
G1 X-54.265 Y14.265 Z9.130 F2500.000
G1 X-54.265 Y15.735 Z9.130 F2500.000
G1 X-54.265 Y15.735 Z8.073 F1000.000
G1 X-80.735 Y15.735 Z8.073 F2500.000
G1 X-80.735 Y14.265 Z8.073 F2500.000
G1 X-54.265 Y14.265 Z8.073 F2500.000
G1 X-54.265 Y15.735 Z8.073 F2500.000
G0 Z17.300
G0 X-52.680 Z17.300
G0 X-52.680 Z15.300
G1 X-52.680 Y15.735 Z8.073 F1000.000
G1 X-52.680 Y17.320 Z8.073 F2500.000
G1 X-82.320 Y17.320 Z8.073 F2500.000
G1 X-82.320 Y12.680 Z8.073 F2500.000
G1 X-52.680 Y12.680 Z8.073 F2500.000
G1 X-52.680 Y15.735 Z8.073 F2500.000
G0 Z17.300
G0 X-51.095 Z17.300
G0 X-51.095 Z15.300
G1 X-51.095 Y15.735 Z8.073 F1000.000
G1 X-51.095 Y18.905 Z8.073 F2500.000
G1 X-83.905 Y18.905 Z8.073 F2500.000
G1 X-83.905 Y11.095 Z8.073 F2500.000
G1 X-51.095 Y11.095 Z8.073 F2500.000
G1 X-51.095 Y15.735 Z8.073 F2500.000
G0 Z17.300
G0 X-49.510 Z17.300
G0 X-49.510 Z15.300
G1 X-49.510 Y15.735 Z8.073 F1000.000
G1 X-49.510 Y20.490 Z8.073 F2500.000
G1 X-85.490 Y20.490 Z8.073 F2500.000
G1 X-85.490 Y9.510 Z8.073 F2500.000
G1 X-49.510 Y9.510 Z8.073 F2500.000
G1 X-49.510 Y15.735 Z8.073 F2500.000
G0 Z17.300
G0 X-47.925 Z17.300
G0 X-47.925 Z15.300
G1 X-47.925 Y15.735 Z8.073 F1000.000
G1 X-47.925 Y22.075 Z8.073 F2500.000
G1 X-87.075 Y22.075 Z8.073 F2500.000
G1 X-87.075 Y7.925 Z8.073 F2500.000
G1 X-47.925 Y7.925 Z8.073 F2500.000
G1 X-47.925 Y15.735 Z8.073 F2500.000
G0 Z17.300
G0 X-46.340 Z17.300
G0 X-46.340 Z15.300
G1 X-46.340 Y15.735 Z8.073 F1000.000
G1 X-46.340 Y23.660 Z8.073 F2500.000
G1 X-88.660 Y23.660 Z8.073 F2500.000
G1 X-88.660 Y6.340 Z8.073 F2500.000
G1 X-46.340 Y6.340 Z8.073 F2500.000
G1 X-46.340 Y15.735 Z8.073 F2500.000
G0 Z17.300
G0 X-44.755 Z17.300
G0 X-44.755 Z15.300
G1 X-44.755 Y15.735 Z8.073 F1000.000
G1 X-44.755 Y25.245 Z8.073 F2500.000
G1 X-90.245 Y25.245 Z8.073 F2500.000
G1 X-90.245 Y4.755 Z8.073 F2500.000
G1 X-44.755 Y4.755 Z8.073 F2500.000
G1 X-44.755 Y15.735 Z8.073 F2500.000
G0 Z17.300
G0 X-43.170 Z17.300
G0 X-43.170 Z15.300
G1 X-43.170 Y15.735 Z8.073 F1000.000
G1 X-43.170 Y26.830 Z8.073 F2500.000
G1 X-91.830 Y26.830 Z8.073 F2500.000
G1 X-91.830 Y3.170 Z8.073 F2500.000
G1 X-43.170 Y3.170 Z8.073 F2500.000
G1 X-43.170 Y15.735 Z8.073 F2500.000
G0 Z17.300
G0 X-41.585 Z17.300
G0 X-41.585 Z15.300
G1 X-41.585 Y15.735 Z8.073 F1000.000
G1 X-41.585 Y28.415 Z8.073 F2500.000
G1 X-93.415 Y28.415 Z8.073 F2500.000
G1 X-93.415 Y1.585 Z8.073 F2500.000
G1 X-41.585 Y1.585 Z8.073 F2500.000
G1 X-41.585 Y15.735 Z8.073 F2500.000
G1 X-41.585 Y15.735 Z7.017 F1000.000
G1 X-41.585 Y28.415 Z7.017 F2500.000
G1 X-93.415 Y28.415 Z7.017 F2500.000
G1 X-93.415 Y1.585 Z7.017 F2500.000
G1 X-41.585 Y1.585 Z7.017 F2500.000
G1 X-41.585 Y15.735 Z7.017 F2500.000
G0 Z17.300
G0 X-43.170 Z17.300
G0 X-43.170 Z15.300
G1 X-43.170 Y15.735 Z7.017 F1000.000
G1 X-43.170 Y26.830 Z7.017 F2500.000
G1 X-91.830 Y26.830 Z7.017 F2500.000
G1 X-91.830 Y3.170 Z7.017 F2500.000
G1 X-43.170 Y3.170 Z7.017 F2500.000
G1 X-43.170 Y15.735 Z7.017 F2500.000
G0 Z17.300
G0 X-44.755 Z17.300
G0 X-44.755 Z15.300
G1 X-44.755 Y15.735 Z7.017 F1000.000
G1 X-44.755 Y25.245 Z7.017 F2500.000
G1 X-90.245 Y25.245 Z7.017 F2500.000
G1 X-90.245 Y4.755 Z7.017 F2500.000
G1 X-44.755 Y4.755 Z7.017 F2500.000
G1 X-44.755 Y15.735 Z7.017 F2500.000
G0 Z17.300
G0 X-46.340 Z17.300
G0 X-46.340 Z15.300
G1 X-46.340 Y15.735 Z7.017 F1000.000
G1 X-46.340 Y23.660 Z7.017 F2500.000
G1 X-88.660 Y23.660 Z7.017 F2500.000
G1 X-88.660 Y6.340 Z7.017 F2500.000
G1 X-46.340 Y6.340 Z7.017 F2500.000
G1 X-46.340 Y15.735 Z7.017 F2500.000
G0 Z17.300
G0 X-47.925 Z17.300
G0 X-47.925 Z15.300
G1 X-47.925 Y15.735 Z7.017 F1000.000
G1 X-47.925 Y22.075 Z7.017 F2500.000
G1 X-87.075 Y22.075 Z7.017 F2500.000
G1 X-87.075 Y7.925 Z7.017 F2500.000
G1 X-47.925 Y7.925 Z7.017 F2500.000
G1 X-47.925 Y15.735 Z7.017 F2500.000
G0 Z17.300
G0 X-49.510 Z17.300
G0 X-49.510 Z15.300
G1 X-49.510 Y15.735 Z7.017 F1000.000
G1 X-49.510 Y20.490 Z7.017 F2500.000
G1 X-85.490 Y20.490 Z7.017 F2500.000
G1 X-85.490 Y9.510 Z7.017 F2500.000
G1 X-49.510 Y9.510 Z7.017 F2500.000
G1 X-49.510 Y15.735 Z7.017 F2500.000
G0 Z17.300
G0 X-51.095 Z17.300
G0 X-51.095 Z15.300
G1 X-51.095 Y15.735 Z7.017 F1000.000
G1 X-51.095 Y18.905 Z7.017 F2500.000
G1 X-83.905 Y18.905 Z7.017 F2500.000
G1 X-83.905 Y11.095 Z7.017 F2500.000
G1 X-51.095 Y11.095 Z7.017 F2500.000
G1 X-51.095 Y15.735 Z7.017 F2500.000
G0 Z17.300
G0 X-52.680 Z17.300
G0 X-52.680 Z15.300
G1 X-52.680 Y15.735 Z7.017 F1000.000
G1 X-52.680 Y17.320 Z7.017 F2500.000
G1 X-82.320 Y17.320 Z7.017 F2500.000
G1 X-82.320 Y12.680 Z7.017 F2500.000
G1 X-52.680 Y12.680 Z7.017 F2500.000
G1 X-52.680 Y15.735 Z7.017 F2500.000
G0 Z17.300
G0 X-54.265 Z17.300
G0 X-54.265 Z15.300
G1 X-54.265 Y15.735 Z7.017 F1000.000
G1 X-80.735 Y15.735 Z7.017 F2500.000
G1 X-80.735 Y14.265 Z7.017 F2500.000
G1 X-54.265 Y14.265 Z7.017 F2500.000
G1 X-54.265 Y15.735 Z7.017 F2500.000
G1 X-54.265 Y15.735 Z5.960 F1000.000
G1 X-80.735 Y15.735 Z5.960 F2500.000
G1 X-80.735 Y14.265 Z5.960 F2500.000
G1 X-54.265 Y14.265 Z5.960 F2500.000
G1 X-54.265 Y15.735 Z5.960 F2500.000
G0 Z17.300
G0 X-52.680 Z17.300
G0 X-52.680 Z15.300
G1 X-52.680 Y15.735 Z5.960 F1000.000
G1 X-52.680 Y17.320 Z5.960 F2500.000
G1 X-82.320 Y17.320 Z5.960 F2500.000
G1 X-82.320 Y12.680 Z5.960 F2500.000
G1 X-52.680 Y12.680 Z5.960 F2500.000
G1 X-52.680 Y15.735 Z5.960 F2500.000
G0 Z17.300
G0 X-51.095 Z17.300
G0 X-51.095 Z15.300
G1 X-51.095 Y15.735 Z5.960 F1000.000
G1 X-51.095 Y18.905 Z5.960 F2500.000
G1 X-83.905 Y18.905 Z5.960 F2500.000
G1 X-83.905 Y11.095 Z5.960 F2500.000
G1 X-51.095 Y11.095 Z5.960 F2500.000
G1 X-51.095 Y15.735 Z5.960 F2500.000
G0 Z17.300
G0 X-49.510 Z17.300
G0 X-49.510 Z15.300
G1 X-49.510 Y15.735 Z5.960 F1000.000
G1 X-49.510 Y20.490 Z5.960 F2500.000
G1 X-85.490 Y20.490 Z5.960 F2500.000
G1 X-85.490 Y9.510 Z5.960 F2500.000
G1 X-49.510 Y9.510 Z5.960 F2500.000
G1 X-49.510 Y15.735 Z5.960 F2500.000
G0 Z17.300
G0 X-47.925 Z17.300
G0 X-47.925 Z15.300
G1 X-47.925 Y15.735 Z5.960 F1000.000
G1 X-47.925 Y22.075 Z5.960 F2500.000
G1 X-87.075 Y22.075 Z5.960 F2500.000
G1 X-87.075 Y7.925 Z5.960 F2500.000
G1 X-47.925 Y7.925 Z5.960 F2500.000
G1 X-47.925 Y15.735 Z5.960 F2500.000
G0 Z17.300
G0 X-46.340 Z17.300
G0 X-46.340 Z15.300
G1 X-46.340 Y15.735 Z5.960 F1000.000
G1 X-46.340 Y23.660 Z5.960 F2500.000
G1 X-88.660 Y23.660 Z5.960 F2500.000
G1 X-88.660 Y6.340 Z5.960 F2500.000
G1 X-46.340 Y6.340 Z5.960 F2500.000
G1 X-46.340 Y15.735 Z5.960 F2500.000
G0 Z17.300
G0 X-44.755 Z17.300
G0 X-44.755 Z15.300
G1 X-44.755 Y15.735 Z5.960 F1000.000
G1 X-44.755 Y25.245 Z5.960 F2500.000
G1 X-90.245 Y25.245 Z5.960 F2500.000
G1 X-90.245 Y4.755 Z5.960 F2500.000
G1 X-44.755 Y4.755 Z5.960 F2500.000
G1 X-44.755 Y15.735 Z5.960 F2500.000
G0 Z17.300
G0 X-43.170 Z17.300
G0 X-43.170 Z15.300
G1 X-43.170 Y15.735 Z5.960 F1000.000
G1 X-43.170 Y26.830 Z5.960 F2500.000
G1 X-91.830 Y26.830 Z5.960 F2500.000
G1 X-91.830 Y3.170 Z5.960 F2500.000
G1 X-43.170 Y3.170 Z5.960 F2500.000
G1 X-43.170 Y15.735 Z5.960 F2500.000
G0 Z17.300
G0 X-41.585 Z17.300
G0 X-41.585 Z15.300
G1 X-41.585 Y15.735 Z5.960 F1000.000
G1 X-41.585 Y28.415 Z5.960 F2500.000
G1 X-93.415 Y28.415 Z5.960 F2500.000
G1 X-93.415 Y1.585 Z5.960 F2500.000
G1 X-41.585 Y1.585 Z5.960 F2500.000
G1 X-41.585 Y15.735 Z5.960 F2500.000
G1 X-41.585 Y15.735 Z4.903 F1000.000
G1 X-41.585 Y28.415 Z4.903 F2500.000
G1 X-93.415 Y28.415 Z4.903 F2500.000
G1 X-93.415 Y1.585 Z4.903 F2500.000
G1 X-41.585 Y1.585 Z4.903 F2500.000
G1 X-41.585 Y15.735 Z4.903 F2500.000
G0 Z17.300
G0 X-43.170 Z17.300
G0 X-43.170 Z15.300
G1 X-43.170 Y15.735 Z4.903 F1000.000
G1 X-43.170 Y26.830 Z4.903 F2500.000
G1 X-91.830 Y26.830 Z4.903 F2500.000
G1 X-91.830 Y3.170 Z4.903 F2500.000
G1 X-43.170 Y3.170 Z4.903 F2500.000
G1 X-43.170 Y15.735 Z4.903 F2500.000
G0 Z17.300
G0 X-44.755 Z17.300
G0 X-44.755 Z15.300
G1 X-44.755 Y15.735 Z4.903 F1000.000
G1 X-44.755 Y25.245 Z4.903 F2500.000
G1 X-90.245 Y25.245 Z4.903 F2500.000
G1 X-90.245 Y4.755 Z4.903 F2500.000
G1 X-44.755 Y4.755 Z4.903 F2500.000
G1 X-44.755 Y15.735 Z4.903 F2500.000
G0 Z17.300
G0 X-46.340 Z17.300
G0 X-46.340 Z15.300
G1 X-46.340 Y15.735 Z4.903 F1000.000
G1 X-46.340 Y23.660 Z4.903 F2500.000
G1 X-88.660 Y23.660 Z4.903 F2500.000
G1 X-88.660 Y6.340 Z4.903 F2500.000
G1 X-46.340 Y6.340 Z4.903 F2500.000
G1 X-46.340 Y15.735 Z4.903 F2500.000
G0 Z17.300
G0 X-47.925 Z17.300
G0 X-47.925 Z15.300
G1 X-47.925 Y15.735 Z4.903 F1000.000
G1 X-47.925 Y22.075 Z4.903 F2500.000
G1 X-87.075 Y22.075 Z4.903 F2500.000
G1 X-87.075 Y7.925 Z4.903 F2500.000
G1 X-47.925 Y7.925 Z4.903 F2500.000
G1 X-47.925 Y15.735 Z4.903 F2500.000
G0 Z17.300
G0 X-49.510 Z17.300
G0 X-49.510 Z15.300
G1 X-49.510 Y15.735 Z4.903 F1000.000
G1 X-49.510 Y20.490 Z4.903 F2500.000
G1 X-85.490 Y20.490 Z4.903 F2500.000
G1 X-85.490 Y9.510 Z4.903 F2500.000
G1 X-49.510 Y9.510 Z4.903 F2500.000
G1 X-49.510 Y15.735 Z4.903 F2500.000
G0 Z17.300
G0 X-51.095 Z17.300
G0 X-51.095 Z15.300
G1 X-51.095 Y15.735 Z4.903 F1000.000
G1 X-51.095 Y18.905 Z4.903 F2500.000
G1 X-83.905 Y18.905 Z4.903 F2500.000
G1 X-83.905 Y11.095 Z4.903 F2500.000
G1 X-51.095 Y11.095 Z4.903 F2500.000
G1 X-51.095 Y15.735 Z4.903 F2500.000
G0 Z17.300
G0 X-52.680 Z17.300
G0 X-52.680 Z15.300
G1 X-52.680 Y15.735 Z4.903 F1000.000
G1 X-52.680 Y17.320 Z4.903 F2500.000
G1 X-82.320 Y17.320 Z4.903 F2500.000
G1 X-82.320 Y12.680 Z4.903 F2500.000
G1 X-52.680 Y12.680 Z4.903 F2500.000
G1 X-52.680 Y15.735 Z4.903 F2500.000
G0 Z17.300
G0 X-54.265 Z17.300
G0 X-54.265 Z15.300
G1 X-54.265 Y15.735 Z4.903 F1000.000
G1 X-80.735 Y15.735 Z4.903 F2500.000
G1 X-80.735 Y14.265 Z4.903 F2500.000
G1 X-54.265 Y14.265 Z4.903 F2500.000
G1 X-54.265 Y15.735 Z4.903 F2500.000
G0 Z17.300
G0 Z17.300
(Finish operation: MillFace002)
(Begin operation: Pocket_Shape003)
(Path: Pocket_Shape003)
(Pocket_Shape003)
G0 Z17.300
G0 X38.415 Y17.074
G0 Z15.300
G1 X38.415 Y17.074 Z9.130 F1000.000
G1 X-40.000 Y17.074 Z9.130 F2500.000
G1 X-40.000 Y15.244 Z9.130 F2500.000
G1 X38.415 Y15.244 Z9.130 F2500.000
G1 X38.415 Y17.074 Z9.130 F2500.000
G0 Z17.300
G0 X37.622 Y16.281 Z17.300
G0 X37.622 Y16.281 Z15.300
G1 X37.622 Y16.281 Z9.130 F1000.000
G1 X-39.207 Y16.281 Z9.130 F2500.000
G1 X-39.207 Y16.036 Z9.130 F2500.000
G1 X37.622 Y16.036 Z9.130 F2500.000
G1 X37.622 Y16.281 Z9.130 F2500.000
G1 X37.622 Y16.281 Z5.960 F1000.000
G1 X-39.207 Y16.281 Z5.960 F2500.000
G1 X-39.207 Y16.036 Z5.960 F2500.000
G1 X37.622 Y16.036 Z5.960 F2500.000
G1 X37.622 Y16.281 Z5.960 F2500.000
G0 Z17.300
G0 Y17.074 Z17.300
G0 Y17.074 Z15.300
G1 X37.622 Y17.074 Z5.960 F1000.000
G1 X-40.000 Y17.074 Z5.960 F2500.000
G1 X-40.000 Y15.244 Z5.960 F2500.000
G1 X38.415 Y15.244 Z5.960 F2500.000
G1 X38.415 Y17.074 Z5.960 F2500.000
G1 X37.622 Y17.074 Z5.960 F2500.000
G1 X37.622 Y17.074 Z4.422 F1000.000
G1 X-40.000 Y17.074 Z4.422 F2500.000
G1 X-40.000 Y15.244 Z4.422 F2500.000
G1 X38.415 Y15.244 Z4.422 F2500.000
G1 X38.415 Y17.074 Z4.422 F2500.000
G1 X37.622 Y17.074 Z4.422 F2500.000
G0 Z17.300
G0 Y16.281 Z17.300
G0 Y16.281 Z15.300
G1 X37.622 Y16.281 Z4.422 F1000.000
G1 X-39.207 Y16.281 Z4.422 F2500.000
G1 X-39.207 Y16.036 Z4.422 F2500.000
G1 X37.622 Y16.036 Z4.422 F2500.000
G1 X37.622 Y16.281 Z4.422 F2500.000
G0 Z17.300
G0 Z17.300
(Finish operation: Pocket_Shape003)
(Begin operation: Profile)
(Path: Profile)
(Profile)
(Compensated Tool Path. Diameter: 3.17)
G0 Z17.300
G0 X96.121 Y31.121
G0 Z15.300
G1 X96.121 Y31.121 Z11.243 F1000.000
G2 X96.585 Y30.000 Z11.243 I-1.121 J-1.121 K0.000 F2500.000
G1 X96.585 Y0.000 Z11.243 F2500.000
G2 X95.000 Y-1.585 Z11.243 I-1.585 J0.000 K0.000 F2500.000
G1 X-95.000 Y-1.585 Z11.243 F2500.000
G2 X-96.585 Y0.000 Z11.243 I0.000 J1.585 K0.000 F2500.000
G1 X-96.585 Y30.000 Z11.243 F2500.000
G2 X-95.000 Y31.585 Z11.243 I1.585 J-0.000 K0.000 F2500.000
G1 X95.000 Y31.585 Z11.243 F2500.000
G2 X96.121 Y31.121 Z11.243 I-0.000 J-1.585 K0.000 F2500.000
G1 X96.121 Y31.121 Z10.187 F1000.000
G2 X96.585 Y30.000 Z10.187 I-1.121 J-1.121 K0.000 F2500.000
G1 X96.585 Y0.000 Z10.187 F2500.000
G2 X95.000 Y-1.585 Z10.187 I-1.585 J0.000 K0.000 F2500.000
G1 X-95.000 Y-1.585 Z10.187 F2500.000
G2 X-96.585 Y0.000 Z10.187 I0.000 J1.585 K0.000 F2500.000
G1 X-96.585 Y30.000 Z10.187 F2500.000
G2 X-95.000 Y31.585 Z10.187 I1.585 J-0.000 K0.000 F2500.000
G1 X95.000 Y31.585 Z10.187 F2500.000
G2 X96.121 Y31.121 Z10.187 I-0.000 J-1.585 K0.000 F2500.000
G1 X96.121 Y31.121 Z9.130 F1000.000
G2 X96.585 Y30.000 Z9.130 I-1.121 J-1.121 K0.000 F2500.000
G1 X96.585 Y0.000 Z9.130 F2500.000
G2 X95.000 Y-1.585 Z9.130 I-1.585 J0.000 K0.000 F2500.000
G1 X-95.000 Y-1.585 Z9.130 F2500.000
G2 X-96.585 Y0.000 Z9.130 I0.000 J1.585 K0.000 F2500.000
G1 X-96.585 Y30.000 Z9.130 F2500.000
G2 X-95.000 Y31.585 Z9.130 I1.585 J-0.000 K0.000 F2500.000
G1 X95.000 Y31.585 Z9.130 F2500.000
G2 X96.121 Y31.121 Z9.130 I-0.000 J-1.585 K0.000 F2500.000
G1 X96.121 Y31.121 Z8.073 F1000.000
G2 X96.585 Y30.000 Z8.073 I-1.121 J-1.121 K0.000 F2500.000
G1 X96.585 Y0.000 Z8.073 F2500.000
G2 X95.000 Y-1.585 Z8.073 I-1.585 J0.000 K0.000 F2500.000
G1 X-95.000 Y-1.585 Z8.073 F2500.000
G2 X-96.585 Y0.000 Z8.073 I0.000 J1.585 K0.000 F2500.000
G1 X-96.585 Y30.000 Z8.073 F2500.000
G2 X-95.000 Y31.585 Z8.073 I1.585 J-0.000 K0.000 F2500.000
G1 X95.000 Y31.585 Z8.073 F2500.000
G2 X96.121 Y31.121 Z8.073 I-0.000 J-1.585 K0.000 F2500.000
G1 X96.121 Y31.121 Z7.017 F1000.000
G2 X96.585 Y30.000 Z7.017 I-1.121 J-1.121 K0.000 F2500.000
G1 X96.585 Y0.000 Z7.017 F2500.000
G2 X95.000 Y-1.585 Z7.017 I-1.585 J0.000 K0.000 F2500.000
G1 X-95.000 Y-1.585 Z7.017 F2500.000
G2 X-96.585 Y0.000 Z7.017 I0.000 J1.585 K0.000 F2500.000
G1 X-96.585 Y30.000 Z7.017 F2500.000
G2 X-95.000 Y31.585 Z7.017 I1.585 J-0.000 K0.000 F2500.000
G1 X95.000 Y31.585 Z7.017 F2500.000
G2 X96.121 Y31.121 Z7.017 I-0.000 J-1.585 K0.000 F2500.000
G1 X96.121 Y31.121 Z5.960 F1000.000
G2 X96.585 Y30.000 Z5.960 I-1.121 J-1.121 K0.000 F2500.000
G1 X96.585 Y0.000 Z5.960 F2500.000
G2 X95.000 Y-1.585 Z5.960 I-1.585 J0.000 K0.000 F2500.000
G1 X-95.000 Y-1.585 Z5.960 F2500.000
G2 X-96.585 Y0.000 Z5.960 I0.000 J1.585 K0.000 F2500.000
G1 X-96.585 Y30.000 Z5.960 F2500.000
G2 X-95.000 Y31.585 Z5.960 I1.585 J-0.000 K0.000 F2500.000
G1 X95.000 Y31.585 Z5.960 F2500.000
G2 X96.121 Y31.121 Z5.960 I-0.000 J-1.585 K0.000 F2500.000
G1 X96.121 Y31.121 Z4.903 F1000.000
G2 X96.585 Y30.000 Z4.903 I-1.121 J-1.121 K0.000 F2500.000
G1 X96.585 Y0.000 Z4.903 F2500.000
G2 X95.000 Y-1.585 Z4.903 I-1.585 J0.000 K0.000 F2500.000
G1 X-95.000 Y-1.585 Z4.903 F2500.000
G2 X-96.585 Y0.000 Z4.903 I0.000 J1.585 K0.000 F2500.000
G1 X-96.585 Y30.000 Z4.903 F2500.000
G2 X-95.000 Y31.585 Z4.903 I1.585 J-0.000 K0.000 F2500.000
G1 X95.000 Y31.585 Z4.903 F2500.000
G2 X96.121 Y31.121 Z4.903 I-0.000 J-1.585 K0.000 F2500.000
G1 X96.121 Y31.121 Z3.847 F1000.000
G2 X96.585 Y30.000 Z3.847 I-1.121 J-1.121 K0.000 F2500.000
G1 X96.585 Y0.000 Z3.847 F2500.000
G2 X95.000 Y-1.585 Z3.847 I-1.585 J0.000 K0.000 F2500.000
G1 X-95.000 Y-1.585 Z3.847 F2500.000
G2 X-96.585 Y0.000 Z3.847 I0.000 J1.585 K0.000 F2500.000
G1 X-96.585 Y30.000 Z3.847 F2500.000
G2 X-95.000 Y31.585 Z3.847 I1.585 J-0.000 K0.000 F2500.000
G1 X95.000 Y31.585 Z3.847 F2500.000
G2 X96.121 Y31.121 Z3.847 I-0.000 J-1.585 K0.000 F2500.000
G1 X96.121 Y31.121 Z2.790 F1000.000
G2 X96.585 Y30.000 Z2.790 I-1.121 J-1.121 K0.000 F2500.000
G1 X96.585 Y0.000 Z2.790 F2500.000
G2 X95.000 Y-1.585 Z2.790 I-1.585 J0.000 K0.000 F2500.000
G1 X-95.000 Y-1.585 Z2.790 F2500.000
G2 X-96.585 Y0.000 Z2.790 I0.000 J1.585 K0.000 F2500.000
G1 X-96.585 Y30.000 Z2.790 F2500.000
G2 X-95.000 Y31.585 Z2.790 I1.585 J-0.000 K0.000 F2500.000
G1 X95.000 Y31.585 Z2.790 F2500.000
G2 X96.121 Y31.121 Z2.790 I-0.000 J-1.585 K0.000 F2500.000
G1 X96.121 Y31.121 Z1.733 F1000.000
G2 X96.585 Y30.000 Z1.733 I-1.121 J-1.121 K0.000 F2500.000
G1 X96.585 Y0.000 Z1.733 F2500.000
G2 X95.000 Y-1.585 Z1.733 I-1.585 J0.000 K0.000 F2500.000
G1 X-95.000 Y-1.585 Z1.733 F2500.000
G2 X-96.585 Y0.000 Z1.733 I0.000 J1.585 K0.000 F2500.000
G1 X-96.585 Y30.000 Z1.733 F2500.000
G2 X-95.000 Y31.585 Z1.733 I1.585 J-0.000 K0.000 F2500.000
G1 X95.000 Y31.585 Z1.733 F2500.000
G2 X96.121 Y31.121 Z1.733 I-0.000 J-1.585 K0.000 F2500.000
G1 X96.121 Y31.121 Z0.677 F1000.000
G2 X96.585 Y30.000 Z0.677 I-1.121 J-1.121 K0.000 F2500.000
G1 X96.585 Y0.000 Z0.677 F2500.000
G2 X95.000 Y-1.585 Z0.677 I-1.585 J0.000 K0.000 F2500.000
G1 X-95.000 Y-1.585 Z0.677 F2500.000
G2 X-96.585 Y0.000 Z0.677 I0.000 J1.585 K0.000 F2500.000
G1 X-96.585 Y30.000 Z0.677 F2500.000
G2 X-95.000 Y31.585 Z0.677 I1.585 J-0.000 K0.000 F2500.000
G1 X95.000 Y31.585 Z0.677 F2500.000
G2 X96.121 Y31.121 Z0.677 I-0.000 J-1.585 K0.000 F2500.000
G1 X96.121 Y31.121 Z0.000 F1000.000
G2 X96.585 Y30.000 Z0.000 I-1.121 J-1.121 K0.000 F2500.000
G1 X96.585 Y0.000 Z0.000 F2500.000
G2 X95.000 Y-1.585 Z0.000 I-1.585 J0.000 K0.000 F2500.000
G1 X-95.000 Y-1.585 Z0.000 F2500.000
G2 X-96.585 Y0.000 Z0.000 I0.000 J1.585 K0.000 F2500.000
G1 X-96.585 Y30.000 Z0.000 F2500.000
G2 X-95.000 Y31.585 Z0.000 I1.585 J-0.000 K0.000 F2500.000
G1 X95.000 Y31.585 Z0.000 F2500.000
G2 X96.121 Y31.121 Z0.000 I-0.000 J-1.585 K0.000 F2500.000
G0 Z17.300
G0 Z17.300
(Finish operation: Profile)
(Begin postamble)
M5
G17 G90
M2
