(Exported by FreeCAD)
(Post Processor: grbl_post)
(Output Time:2024-04-18 13:50:10.447025)
(Begin preamble)
G17 G90
G21
(Begin operation: 1.5 z2 Q010)
(Path: 1.5 z2 Q010)
(1.5 z2 Q010)
(Begin toolchange)
( M6 T3 )
M3 S24000
(Finish operation: 1.5 z2 Q010)
(Begin operation: Fixture)
(Path: Fixture)
G54
(Finish operation: Fixture)
(Begin operation: Pocket_Shape)
(Path: Pocket_Shape)
(Pocket_Shape)
G0 Z5.000
G0 X224.360 Y395.937
G0 Z3.000
G1 X224.360 Y395.937 Z-2.500 F500.000
G1 X133.335 Y395.937 Z-2.500 F2500.000
G2 X132.704 Y396.469 Z-2.500 I0.000 J0.640 K0.000 F2500.000
G1 X115.041 Y499.360 Z-2.500 F2500.000
G1 X114.311 Y499.360 Z-2.500 F2500.000
G1 X131.936 Y396.685 Z-2.500 F2500.000
G2 X131.306 Y395.937 Z-2.500 I-0.631 J-0.108 K0.000 F2500.000
G1 X-131.540 Y395.937 Z-2.500 F2500.000
G2 X-132.171 Y396.685 Z-2.500 I-0.000 J0.640 K0.000 F2500.000
G1 X-114.614 Y499.360 Z-2.500 F2500.000
G1 X-115.344 Y499.360 Z-2.500 F2500.000
G1 X-132.938 Y396.469 Z-2.500 F2500.000
G2 X-133.569 Y395.937 Z-2.500 I-0.631 J0.108 K0.000 F2500.000
G1 X-224.360 Y395.937 Z-2.500 F2500.000
G1 X-224.360 Y395.217 Z-2.500 F2500.000
G1 X-133.887 Y395.217 Z-2.500 F2500.000
G2 X-133.256 Y394.469 Z-2.500 I0.000 J-0.640 K0.000 F2500.000
G1 X-197.630 Y18.011 Z-2.500 F2500.000
G2 X-198.260 Y17.479 Z-2.500 I-0.631 J0.108 K0.000 F2500.000
G1 X-224.360 Y17.479 Z-2.500 F2500.000
G1 X-224.360 Y16.759 Z-2.500 F2500.000
G1 X-198.602 Y16.759 Z-2.500 F2500.000
G2 X-197.972 Y16.011 Z-2.500 I0.000 J-0.640 K0.000 F2500.000
G1 X-200.305 Y2.374 Z-2.500 F2500.000
G3 X-199.812 Y1.854 Z-2.500 I0.305 J-0.205 K0.000 F2500.000
G3 X-199.638 Y2.137 Z-2.500 I-0.230 J0.336 K0.000 F2500.000
G1 X-197.228 Y16.227 Z-2.500 F2500.000
G2 X-196.597 Y16.759 Z-2.500 I0.631 J-0.108 K0.000 F2500.000
G1 X196.617 Y16.759 Z-2.500 F2500.000
G2 X197.247 Y16.228 Z-2.500 I-0.000 J-0.640 K0.000 F2500.000
G1 X199.638 Y2.302 Z-2.500 F2500.000
G3 X200.353 Y2.285 Z-2.500 I0.358 J0.023 K0.000 F2500.000
G1 X200.349 Y2.415 Z-2.500 F2500.000
G1 X198.015 Y16.011 Z-2.500 F2500.000
G2 X198.646 Y16.759 Z-2.500 I0.631 J0.108 K0.000 F2500.000
G1 X224.360 Y16.759 Z-2.500 F2500.000
G1 X224.360 Y17.479 Z-2.500 F2500.000
G1 X198.302 Y17.479 Z-2.500 F2500.000
G2 X197.671 Y18.011 Z-2.500 I0.000 J0.640 K0.000 F2500.000
G1 X133.047 Y394.469 Z-2.500 F2500.000
G2 X133.678 Y395.217 Z-2.500 I0.631 J0.108 K0.000 F2500.000
G1 X224.360 Y395.217 Z-2.500 F2500.000
G1 X224.360 Y395.937 Z-2.500 F2500.000
G0 Z5.000
G0 X224.040 Y395.617 Z5.000
G0 X224.040 Y395.617 Z3.000
G1 X224.040 Y395.617 Z-2.500 F500.000
G1 X133.335 Y395.617 Z-2.500 F2500.000
G2 X132.389 Y396.415 Z-2.500 I-0.000 J0.960 K0.000 F2500.000
G1 X114.772 Y499.040 Z-2.500 F2500.000
G1 X114.690 Y499.040 Z-2.500 F2500.000
G1 X132.252 Y396.739 Z-2.500 F2500.000
G2 X131.306 Y395.617 Z-2.500 I-0.946 J-0.162 K0.000 F2500.000
G1 X-131.540 Y395.617 Z-2.500 F2500.000
G2 X-132.487 Y396.739 Z-2.500 I-0.000 J0.960 K0.000 F2500.000
G1 X-114.993 Y499.040 Z-2.500 F2500.000
G1 X-115.075 Y499.040 Z-2.500 F2500.000
G1 X-132.623 Y396.415 Z-2.500 F2500.000
G2 X-133.569 Y395.617 Z-2.500 I-0.946 J0.162 K0.000 F2500.000
G1 X-224.040 Y395.617 Z-2.500 F2500.000
G1 X-224.040 Y395.537 Z-2.500 F2500.000
G1 X-133.887 Y395.537 Z-2.500 F2500.000
G2 X-132.941 Y394.415 Z-2.500 I0.000 J-0.960 K0.000 F2500.000
G1 X-197.314 Y17.957 Z-2.500 F2500.000
G2 X-198.260 Y17.159 Z-2.500 I-0.946 J0.162 K0.000 F2500.000
G1 X-224.040 Y17.159 Z-2.500 F2500.000
G1 X-224.040 Y17.079 Z-2.500 F2500.000
G1 X-198.602 Y17.079 Z-2.500 F2500.000
G2 X-197.656 Y15.957 Z-2.500 I0.000 J-0.960 K0.000 F2500.000
G1 X-199.995 Y2.296 Z-2.500 F2500.000
G3 X-200.027 Y2.140 Z-2.500 I0.113 J-0.105 K0.000 F2500.000
G3 X-199.984 Y2.127 Z-2.500 I0.027 J0.013 K0.000 F2500.000
G3 X-199.949 Y2.213 Z-2.500 I-0.078 J0.081 K0.000 F2500.000
G1 X-197.544 Y16.281 Z-2.500 F2500.000
G2 X-196.597 Y17.079 Z-2.500 I0.946 J-0.162 K0.000 F2500.000
G1 X196.617 Y17.079 Z-2.500 F2500.000
G2 X197.563 Y16.282 Z-2.500 I0.000 J-0.960 K0.000 F2500.000
G1 X199.950 Y2.376 Z-2.500 F2500.000
G3 X200.020 Y2.296 Z-2.500 I0.046 J-0.030 K0.000 F2500.000
G3 X200.030 Y2.383 Z-2.500 I-0.056 J0.050 K0.000 F2500.000
G1 X197.700 Y15.957 Z-2.500 F2500.000
G2 X198.646 Y17.079 Z-2.500 I0.946 J0.162 K0.000 F2500.000
G1 X224.040 Y17.079 Z-2.500 F2500.000
G1 X224.040 Y17.159 Z-2.500 F2500.000
G1 X198.302 Y17.159 Z-2.500 F2500.000
G2 X197.355 Y17.957 Z-2.500 I0.000 J0.960 K0.000 F2500.000
G1 X132.732 Y394.415 Z-2.500 F2500.000
G2 X133.678 Y395.537 Z-2.500 I0.946 J0.162 K0.000 F2500.000
G1 X224.040 Y395.537 Z-2.500 F2500.000
G1 X224.040 Y395.617 Z-2.500 F2500.000
G0 Z5.000
G0 X135.066 Y380.343 Z5.000
G0 X135.066 Y380.343 Z3.000
G1 X135.066 Y380.343 Z-2.500 F500.000
G1 X132.595 Y394.739 Z-2.500 F2500.000
G3 X131.649 Y395.537 Z-2.500 I-0.946 J-0.162 K0.000 F2500.000
G1 X-131.882 Y395.537 Z-2.500 F2500.000
G3 X-132.829 Y394.739 Z-2.500 I-0.000 J-0.960 K0.000 F2500.000
G1 X-197.202 Y18.281 Z-2.500 F2500.000
G3 X-196.255 Y17.159 Z-2.500 I0.946 J-0.162 K0.000 F2500.000
G1 X196.273 Y17.159 Z-2.500 F2500.000
G3 X197.219 Y18.282 Z-2.500 I-0.000 J0.960 K0.000 F2500.000
G1 X135.066 Y380.343 Z-2.500 F2500.000
G0 Z5.000
G0 X134.751 Y380.289 Z5.000
G0 X134.751 Y380.289 Z3.000
G1 X134.751 Y380.289 Z-2.500 F500.000
G1 X132.280 Y394.685 Z-2.500 F2500.000
G3 X131.649 Y395.217 Z-2.500 I-0.631 J-0.108 K0.000 F2500.000
G1 X-131.882 Y395.217 Z-2.500 F2500.000
G3 X-132.513 Y394.685 Z-2.500 I0.000 J-0.640 K0.000 F2500.000
G1 X-196.886 Y18.227 Z-2.500 F2500.000
G3 X-196.255 Y17.479 Z-2.500 I0.631 J-0.108 K0.000 F2500.000
G1 X196.273 Y17.479 Z-2.500 F2500.000
G3 X196.904 Y18.228 Z-2.500 I0.000 J0.640 K0.000 F2500.000
G1 X134.751 Y380.289 Z-2.500 F2500.000
G0 Z5.000
G0 X132.666 Y395.345 Z5.000
G0 X132.666 Y395.345 Z3.000
G1 X132.666 Y395.345 Z-2.500 F500.000
G1 X132.743 Y395.442 Z-2.500 F2500.000
G2 X132.318 Y395.808 Z-2.500 I0.521 J1.036 K0.000 F2500.000
G1 X132.240 Y395.712 Z-2.500 F2500.000
G2 X132.666 Y395.345 Z-2.500 I-0.521 J-1.036 K0.000 F2500.000
G0 Z5.000
G0 X-132.469 Y395.709 Z5.000
G0 X-132.469 Y395.709 Z3.000
G1 X-132.469 Y395.709 Z-2.500 F500.000
G1 X-132.551 Y395.802 Z-2.500 F2500.000
G2 X-132.968 Y395.455 Z-2.500 I-0.906 J0.664 K0.000 F2500.000
G1 X-132.888 Y395.365 Z-2.500 F2500.000
G2 X-132.469 Y395.709 Z-2.500 I0.906 J-0.680 K0.000 F2500.000
G0 Z5.000
G0 X-197.254 Y17.331 Z5.000
G0 X-197.254 Y17.331 Z3.000
G1 X-197.254 Y17.331 Z-2.500 F500.000
G2 X-197.674 Y16.988 Z-2.500 I-0.906 J0.680 K0.000 F2500.000
G1 X-197.603 Y16.908 Z-2.500 F2500.000
G2 X-197.184 Y17.251 Z-2.500 I0.906 J-0.680 K0.000 F2500.000
G1 X-197.254 Y17.331 Z-2.500 F2500.000
G0 Z5.000
G0 X197.208 Y17.254 Z5.000
G0 X197.208 Y17.254 Z3.000
G1 X197.208 Y17.254 Z-2.500 F500.000
G2 X197.633 Y16.888 Z-2.500 I-0.521 J-1.035 K0.000 F2500.000
G1 X197.711 Y16.984 Z-2.500 F2500.000
G2 X197.285 Y17.350 Z-2.500 I0.519 J1.034 K0.000 F2500.000
G1 X197.208 Y17.254 Z-2.500 F2500.000
G1 X197.208 Y17.254 Z-5.000 F500.000
G2 X197.633 Y16.888 Z-5.000 I-0.521 J-1.035 K0.000 F2500.000
G1 X197.711 Y16.984 Z-5.000 F2500.000
G2 X197.285 Y17.350 Z-5.000 I0.519 J1.034 K0.000 F2500.000
G1 X197.208 Y17.254 Z-5.000 F2500.000
G0 Z5.000
G0 X197.060 Y16.971 Z5.000
G0 X197.060 Y16.971 Z3.000
G1 X197.060 Y16.971 Z-5.000 F500.000
G2 X197.563 Y16.282 Z-5.000 I-0.444 J-0.851 K0.000 F2500.000
G1 X199.950 Y2.376 Z-5.000 F2500.000
G3 X200.020 Y2.296 Z-5.000 I0.046 J-0.030 K0.000 F2500.000
G3 X200.030 Y2.383 Z-5.000 I-0.056 J0.050 K0.000 F2500.000
G1 X197.700 Y15.957 Z-5.000 F2500.000
G2 X198.646 Y17.079 Z-5.000 I0.946 J0.162 K0.000 F2500.000
G1 X224.040 Y17.079 Z-5.000 F2500.000
G1 X224.040 Y17.159 Z-5.000 F2500.000
G1 X198.302 Y17.159 Z-5.000 F2500.000
G2 X197.355 Y17.957 Z-5.000 I0.000 J0.960 K0.000 F2500.000
G1 X132.732 Y394.415 Z-5.000 F2500.000
G2 X133.678 Y395.537 Z-5.000 I0.946 J0.162 K0.000 F2500.000
G1 X224.040 Y395.537 Z-5.000 F2500.000
G1 X224.040 Y395.617 Z-5.000 F2500.000
G1 X133.335 Y395.617 Z-5.000 F2500.000
G2 X132.389 Y396.415 Z-5.000 I-0.000 J0.960 K0.000 F2500.000
G1 X114.772 Y499.040 Z-5.000 F2500.000
G1 X114.690 Y499.040 Z-5.000 F2500.000
G1 X132.252 Y396.739 Z-5.000 F2500.000
G2 X131.306 Y395.617 Z-5.000 I-0.946 J-0.162 K0.000 F2500.000
G1 X-131.540 Y395.617 Z-5.000 F2500.000
G2 X-132.487 Y396.739 Z-5.000 I-0.000 J0.960 K0.000 F2500.000
G1 X-114.993 Y499.040 Z-5.000 F2500.000
G1 X-115.075 Y499.040 Z-5.000 F2500.000
G1 X-132.623 Y396.415 Z-5.000 F2500.000
G2 X-133.569 Y395.617 Z-5.000 I-0.946 J0.162 K0.000 F2500.000
G1 X-224.040 Y395.617 Z-5.000 F2500.000
G1 X-224.040 Y395.537 Z-5.000 F2500.000
G1 X-133.887 Y395.537 Z-5.000 F2500.000
G2 X-132.941 Y394.415 Z-5.000 I0.000 J-0.960 K0.000 F2500.000
G1 X-197.314 Y17.957 Z-5.000 F2500.000
G2 X-198.260 Y17.159 Z-5.000 I-0.946 J0.162 K0.000 F2500.000
G1 X-224.040 Y17.159 Z-5.000 F2500.000
G1 X-224.040 Y17.079 Z-5.000 F2500.000
G1 X-198.602 Y17.079 Z-5.000 F2500.000
G2 X-197.656 Y15.957 Z-5.000 I0.000 J-0.960 K0.000 F2500.000
G1 X-199.995 Y2.296 Z-5.000 F2500.000
G3 X-200.027 Y2.140 Z-5.000 I0.113 J-0.105 K0.000 F2500.000
G3 X-199.984 Y2.127 Z-5.000 I0.027 J0.013 K0.000 F2500.000
G3 X-199.949 Y2.213 Z-5.000 I-0.078 J0.081 K0.000 F2500.000
G1 X-197.544 Y16.281 Z-5.000 F2500.000
G2 X-196.597 Y17.079 Z-5.000 I0.946 J-0.162 K0.000 F2500.000
G1 X196.617 Y17.079 Z-5.000 F2500.000
G2 X197.060 Y16.971 Z-5.000 I0.000 J-0.960 K0.000 F2500.000
G0 Z5.000
G0 X196.912 Y16.687 Z5.000
G0 X196.912 Y16.687 Z3.000
G1 X196.912 Y16.687 Z-5.000 F500.000
G2 X197.247 Y16.228 Z-5.000 I-0.296 J-0.568 K0.000 F2500.000
G1 X199.638 Y2.302 Z-5.000 F2500.000
G3 X200.353 Y2.285 Z-5.000 I0.358 J0.023 K0.000 F2500.000
G1 X200.349 Y2.415 Z-5.000 F2500.000
G1 X198.015 Y16.011 Z-5.000 F2500.000
G2 X198.646 Y16.759 Z-5.000 I0.631 J0.108 K0.000 F2500.000
G1 X224.360 Y16.759 Z-5.000 F2500.000
G1 X224.360 Y17.479 Z-5.000 F2500.000
G1 X198.302 Y17.479 Z-5.000 F2500.000
G2 X197.671 Y18.011 Z-5.000 I0.000 J0.640 K0.000 F2500.000
G1 X133.047 Y394.469 Z-5.000 F2500.000
G2 X133.678 Y395.217 Z-5.000 I0.631 J0.108 K0.000 F2500.000
G1 X224.360 Y395.217 Z-5.000 F2500.000
G1 X224.360 Y395.937 Z-5.000 F2500.000
G1 X133.335 Y395.937 Z-5.000 F2500.000
G2 X132.704 Y396.469 Z-5.000 I0.000 J0.640 K0.000 F2500.000
G1 X115.041 Y499.360 Z-5.000 F2500.000
G1 X114.311 Y499.360 Z-5.000 F2500.000
G1 X131.936 Y396.685 Z-5.000 F2500.000
G2 X131.306 Y395.937 Z-5.000 I-0.631 J-0.108 K0.000 F2500.000
G1 X-131.540 Y395.937 Z-5.000 F2500.000
G2 X-132.171 Y396.685 Z-5.000 I-0.000 J0.640 K0.000 F2500.000
G1 X-114.614 Y499.360 Z-5.000 F2500.000
G1 X-115.344 Y499.360 Z-5.000 F2500.000
G1 X-132.938 Y396.469 Z-5.000 F2500.000
G2 X-133.569 Y395.937 Z-5.000 I-0.631 J0.108 K0.000 F2500.000
G1 X-224.360 Y395.937 Z-5.000 F2500.000
G1 X-224.360 Y395.217 Z-5.000 F2500.000
G1 X-133.887 Y395.217 Z-5.000 F2500.000
G2 X-133.256 Y394.469 Z-5.000 I0.000 J-0.640 K0.000 F2500.000
G1 X-197.630 Y18.011 Z-5.000 F2500.000
G2 X-198.260 Y17.479 Z-5.000 I-0.631 J0.108 K0.000 F2500.000
G1 X-224.360 Y17.479 Z-5.000 F2500.000
G1 X-224.360 Y16.759 Z-5.000 F2500.000
G1 X-198.602 Y16.759 Z-5.000 F2500.000
G2 X-197.972 Y16.011 Z-5.000 I0.000 J-0.640 K0.000 F2500.000
G1 X-200.305 Y2.374 Z-5.000 F2500.000
G3 X-199.812 Y1.854 Z-5.000 I0.305 J-0.205 K0.000 F2500.000
G3 X-199.638 Y2.137 Z-5.000 I-0.230 J0.336 K0.000 F2500.000
G1 X-197.228 Y16.227 Z-5.000 F2500.000
G2 X-196.597 Y16.759 Z-5.000 I0.631 J-0.108 K0.000 F2500.000
G1 X196.617 Y16.759 Z-5.000 F2500.000
G2 X196.912 Y16.687 Z-5.000 I-0.000 J-0.640 K0.000 F2500.000
G0 Z5.000
G0 X196.664 Y17.243 Z5.000
G0 X196.664 Y17.243 Z3.000
G1 X196.664 Y17.243 Z-5.000 F500.000
G3 X197.219 Y18.282 Z-5.000 I-0.391 J0.877 K0.000 F2500.000
G1 X132.595 Y394.739 Z-5.000 F2500.000
G3 X131.649 Y395.537 Z-5.000 I-0.946 J-0.162 K0.000 F2500.000
G1 X-131.882 Y395.537 Z-5.000 F2500.000
G3 X-132.829 Y394.739 Z-5.000 I-0.000 J-0.960 K0.000 F2500.000
G1 X-197.202 Y18.281 Z-5.000 F2500.000
G3 X-196.255 Y17.159 Z-5.000 I0.946 J-0.162 K0.000 F2500.000
G1 X196.273 Y17.159 Z-5.000 F2500.000
G3 X196.664 Y17.243 Z-5.000 I-0.000 J0.960 K0.000 F2500.000
G0 Z5.000
G0 X196.534 Y17.535 Z5.000
G0 X196.534 Y17.535 Z3.000
G1 X196.534 Y17.535 Z-5.000 F500.000
G3 X196.904 Y18.228 Z-5.000 I-0.261 J0.584 K0.000 F2500.000
G1 X132.280 Y394.685 Z-5.000 F2500.000
G3 X131.649 Y395.217 Z-5.000 I-0.631 J-0.108 K0.000 F2500.000
G1 X-131.882 Y395.217 Z-5.000 F2500.000
G3 X-132.513 Y394.685 Z-5.000 I0.000 J-0.640 K0.000 F2500.000
G1 X-196.886 Y18.227 Z-5.000 F2500.000
G3 X-196.255 Y17.479 Z-5.000 I0.631 J-0.108 K0.000 F2500.000
G1 X196.273 Y17.479 Z-5.000 F2500.000
G3 X196.534 Y17.535 Z-5.000 I0.000 J0.640 K0.000 F2500.000
G0 Z5.000
G0 X132.666 Y395.345 Z5.000
G0 X132.666 Y395.345 Z3.000
G1 X132.666 Y395.345 Z-5.000 F500.000
G1 X132.743 Y395.442 Z-5.000 F2500.000
G2 X132.318 Y395.808 Z-5.000 I0.521 J1.036 K0.000 F2500.000
G1 X132.240 Y395.712 Z-5.000 F2500.000
G2 X132.666 Y395.345 Z-5.000 I-0.521 J-1.036 K0.000 F2500.000
G0 Z5.000
G0 X-132.469 Y395.709 Z5.000
G0 X-132.469 Y395.709 Z3.000
G1 X-132.469 Y395.709 Z-5.000 F500.000
G1 X-132.551 Y395.802 Z-5.000 F2500.000
G2 X-132.968 Y395.455 Z-5.000 I-0.906 J0.664 K0.000 F2500.000
G1 X-132.888 Y395.365 Z-5.000 F2500.000
G2 X-132.469 Y395.709 Z-5.000 I0.906 J-0.680 K0.000 F2500.000
G0 Z5.000
G0 X-197.254 Y17.331 Z5.000
G0 X-197.254 Y17.331 Z3.000
G1 X-197.254 Y17.331 Z-5.000 F500.000
G2 X-197.674 Y16.988 Z-5.000 I-0.906 J0.680 K0.000 F2500.000
G1 X-197.603 Y16.908 Z-5.000 F2500.000
G2 X-197.184 Y17.251 Z-5.000 I0.906 J-0.680 K0.000 F2500.000
G1 X-197.254 Y17.331 Z-5.000 F2500.000
G0 Z5.000
G0 Z5.000
(Finish operation: Pocket_Shape)
(Begin postamble)
M5
G17 G90
M2
