(Exported by FreeCAD)
(Post Processor: script_module)
(Output Time:2024-11-17 17:38:19.743573)
(Begin preamble)
G17 G90
G21
(Begin operation: TC: 3.175 Z1 UP Helicoidale007)
(Path: TC: 3.175 Z1 UP Helicoidale007)
(TC: 3.175 Z1 UP Helicoidale007)
(Begin toolchange)
( M6 T1 )
M3 S24000
(Finish operation: TC: 3.175 Z1 UP Helicoidale007)
(Begin operation: Fixture)
(Path: Fixture)
G54
(Finish operation: Fixture)
(Begin operation: RampEntryDressup)
(Path: RampEntryDressup)
G0 X0.000 Y0.000 Z5.000
G0 X130.558 Y455.212 Z5.000
G0 X130.558 Y455.212 Z3.000
G1 X128.602 Y457.677 Z1.183 F2000.000
G1 X130.558 Y455.212 Z-0.634 F2000.000
G1 X126.291 Y460.590 Z-0.634 F2000.000
G1 X121.393 Y465.827 Z-0.634 F2000.000
G1 X115.825 Y470.873 Z-0.634 F2000.000
G1 X109.551 Y475.682 Z-0.634 F2000.000
G1 X102.536 Y480.207 Z-0.634 F2000.000
G1 X94.744 Y484.409 Z-0.634 F2000.000
G1 X86.140 Y488.249 Z-0.634 F2000.000
G1 X76.686 Y491.689 Z-0.634 F2000.000
G1 X66.341 Y494.695 Z-0.634 F2000.000
G1 X55.062 Y497.233 Z-0.634 F2000.000
G1 X42.806 Y499.268 Z-0.634 F2000.000
G1 X29.528 Y500.765 Z-0.634 F2000.000
G1 X15.180 Y501.689 Z-0.634 F2000.000
G1 X-0.284 Y502.005 Z-0.634 F2000.000
G1 X-15.753 Y501.686 Z-0.634 F2000.000
G1 X-30.107 Y500.758 Z-0.634 F2000.000
G1 X-43.392 Y499.256 Z-0.634 F2000.000
G1 X-55.654 Y497.216 Z-0.634 F2000.000
G1 X-66.939 Y494.671 Z-0.634 F2000.000
G1 X-77.289 Y491.656 Z-0.634 F2000.000
G1 X-86.748 Y488.207 Z-0.634 F2000.000
G1 X-95.354 Y484.357 Z-0.634 F2000.000
G1 X-103.146 Y480.144 Z-0.634 F2000.000
G1 X-110.159 Y475.608 Z-0.634 F2000.000
G1 X-116.428 Y470.789 Z-0.634 F2000.000
G1 X-121.989 Y465.735 Z-0.634 F2000.000
G1 X-126.879 Y460.492 Z-0.634 F2000.000
G1 X-131.127 Y455.124 Z-0.634 F2000.000
G1 X-133.944 Y451.007 Z-0.634 F2000.000
G1 X-136.445 Y446.863 Z-0.634 F2000.000
G1 X-138.649 Y442.713 Z-0.634 F2000.000
G1 X-140.578 Y438.578 Z-0.634 F2000.000
G1 X-142.250 Y434.489 Z-0.634 F2000.000
G3 X-148.857 Y403.355 Z-0.634 I95.832 J-36.605 K0.000 F2000.000
G1 X-148.948 Y400.742 Z-0.634 F2000.000
G1 X-148.935 Y396.461 Z-0.634 F2000.000
G3 X-146.501 Y377.123 Z-0.634 I101.135 J2.909 K0.000 F2000.000
G3 X-142.123 Y361.462 Z-0.634 I145.983 J32.368 K0.000 F2000.000
G3 X-136.868 Y346.633 Z-0.634 I367.756 J121.960 K0.000 F2000.000
G2 X-131.651 Y331.674 Z-0.634 I-451.940 J-166.008 K0.000 F2000.000
G2 X-128.023 Y316.193 Z-0.634 I-101.261 J-31.895 K0.000 F2000.000
G2 X-128.110 Y297.323 Z-0.634 I-62.330 J-9.149 K0.000 F2000.000
G2 X-133.485 Y279.867 Z-0.634 I-67.459 J11.216 K0.000 F2000.000
G2 X-140.632 Y266.969 Z-0.634 I-85.157 J38.756 K0.000 F2000.000
G2 X-145.972 Y259.424 Z-0.634 I-101.660 J66.297 K0.000 F2000.000
G3 X-146.268 Y259.000 Z-0.634 I5.090 J-3.862 K0.000 F2000.000
G3 X-162.169 Y232.528 Z-0.634 I964.702 J-597.478 K0.000 F2000.000
G1 X-167.285 Y223.389 Z-0.634 F2000.000
G1 X-172.191 Y214.066 Z-0.634 F2000.000
G1 X-176.809 Y204.552 Z-0.634 F2000.000
G1 X-181.060 Y194.840 Z-0.634 F2000.000
G1 X-184.863 Y184.924 Z-0.634 F2000.000
G1 X-188.136 Y174.796 Z-0.634 F2000.000
G1 X-190.795 Y164.452 Z-0.634 F2000.000
G1 X-192.754 Y153.890 Z-0.634 F2000.000
G1 X-193.928 Y143.112 Z-0.634 F2000.000
G1 X-194.232 Y132.122 Z-0.634 F2000.000
G1 X-193.590 Y120.984 Z-0.634 F2000.000
G3 X-184.217 Y83.933 Z-0.634 I132.961 J13.926 K0.000 F2000.000
G3 X-170.011 Y56.867 Z-0.634 I155.263 J64.227 K0.000 F2000.000
G1 X-168.566 Y54.829 Z-0.634 F2000.000
G3 X-164.116 Y48.571 Z-0.634 I768.928 J542.114 K0.000 F2000.000
G1 X-157.324 Y41.049 Z-0.634 F2000.000
G1 X-157.198 Y40.924 Z-0.634 F2000.000
G1 X-149.285 Y33.936 Z-0.634 F2000.000
G1 X-140.402 Y27.609 Z-0.634 F2000.000
G1 X-130.568 Y21.933 Z-0.634 F2000.000
G1 X-119.795 Y16.898 Z-0.634 F2000.000
G1 X-108.090 Y12.491 Z-0.634 F2000.000
G1 X-95.454 Y8.699 Z-0.634 F2000.000
G1 X-81.887 Y5.511 Z-0.634 F2000.000
G1 X-67.386 Y2.921 Z-0.634 F2000.000
G1 X-51.947 Y0.921 Z-0.634 F2000.000
G1 X-35.568 Y-0.495 Z-0.634 F2000.000
G1 X-18.245 Y-1.329 Z-0.634 F2000.000
G1 X0.027 Y-1.585 Z-0.634 F2000.000
G1 X18.232 Y-1.268 Z-0.634 F2000.000
G1 X35.496 Y-0.382 Z-0.634 F2000.000
G1 X51.821 Y1.078 Z-0.634 F2000.000
G1 X67.211 Y3.114 Z-0.634 F2000.000
G1 X81.670 Y5.733 Z-0.634 F2000.000
G1 X95.200 Y8.942 Z-0.634 F2000.000
G1 X107.805 Y12.748 Z-0.634 F2000.000
G1 X119.485 Y17.163 Z-0.634 F2000.000
G1 X130.236 Y22.199 Z-0.634 F2000.000
G1 X140.051 Y27.869 Z-0.634 F2000.000
G1 X148.918 Y34.183 Z-0.634 F2000.000
G1 X156.815 Y41.148 Z-0.634 F2000.000
G1 X163.602 Y48.619 Z-0.634 F2000.000
G1 X163.718 Y48.763 Z-0.634 F2000.000
G1 X169.550 Y56.930 Z-0.634 F2000.000
G3 X184.162 Y85.052 Z-0.634 I-138.426 J89.782 K0.000 F2000.000
G3 X192.773 Y118.361 Z-0.634 I-123.422 J49.676 K0.000 F2000.000
G1 X193.092 Y121.250 Z-0.634 F2000.000
G1 X193.702 Y132.431 Z-0.634 F2000.000
G1 X193.357 Y143.409 Z-0.634 F2000.000
G1 X192.143 Y154.175 Z-0.634 F2000.000
G1 X190.142 Y164.726 Z-0.634 F2000.000
G1 X187.440 Y175.061 Z-0.634 F2000.000
G1 X184.121 Y185.184 Z-0.634 F2000.000
G1 X180.267 Y195.100 Z-0.634 F2000.000
G1 X175.959 Y204.816 Z-0.634 F2000.000
G1 X171.277 Y214.339 Z-0.634 F2000.000
G1 X166.299 Y223.677 Z-0.634 F2000.000
G1 X161.102 Y232.836 Z-0.634 F2000.000
G3 X144.783 Y259.565 Z-0.634 I-882.394 J-520.371 K0.000 F2000.000
G2 X135.617 Y273.766 Z-0.634 I93.429 J70.370 K0.000 F2000.000
G2 X129.400 Y288.570 Z-0.634 I71.654 J38.798 K0.000 F2000.000
G2 X126.926 Y311.100 Z-0.634 I59.883 J17.976 K0.000 F2000.000
G2 X129.966 Y327.660 Z-0.634 I84.147 J-6.891 K0.000 F2000.000
G2 X135.770 Y344.959 Z-0.634 I220.138 J-64.225 K0.000 F2000.000
G3 X141.448 Y360.889 Z-0.634 I-958.946 J350.805 K0.000 F2000.000
G3 X146.371 Y378.828 Z-0.634 I-160.758 J53.766 K0.000 F2000.000
G3 X148.183 Y406.124 Z-0.634 I-96.888 J20.138 K0.000 F2000.000
G3 X140.044 Y438.649 Z-0.634 I-103.214 J-8.548 K0.000 F2000.000
G1 X138.109 Y442.786 Z-0.634 F2000.000
G1 X135.899 Y446.938 Z-0.634 F2000.000
G1 X133.392 Y451.083 Z-0.634 F2000.000
G1 X130.558 Y455.212 Z-0.634 F2000.000
G1 X130.217 Y455.642 Z-0.951 F2000.000
G1 X130.558 Y455.212 Z-1.268 F2000.000
G1 X126.291 Y460.590 Z-1.268 F2000.000
G1 X121.393 Y465.827 Z-1.268 F2000.000
G1 X115.825 Y470.873 Z-1.268 F2000.000
G1 X109.551 Y475.682 Z-1.268 F2000.000
G1 X102.536 Y480.207 Z-1.268 F2000.000
G1 X94.744 Y484.409 Z-1.268 F2000.000
G1 X86.140 Y488.249 Z-1.268 F2000.000
G1 X76.686 Y491.689 Z-1.268 F2000.000
G1 X66.341 Y494.695 Z-1.268 F2000.000
G1 X55.062 Y497.233 Z-1.268 F2000.000
G1 X42.806 Y499.268 Z-1.268 F2000.000
G1 X29.528 Y500.765 Z-1.268 F2000.000
G1 X15.180 Y501.689 Z-1.268 F2000.000
G1 X-0.284 Y502.005 Z-1.268 F2000.000
G1 X-15.753 Y501.686 Z-1.268 F2000.000
G1 X-30.107 Y500.758 Z-1.268 F2000.000
G1 X-43.392 Y499.256 Z-1.268 F2000.000
G1 X-55.654 Y497.216 Z-1.268 F2000.000
G1 X-66.939 Y494.671 Z-1.268 F2000.000
G1 X-77.289 Y491.656 Z-1.268 F2000.000
G1 X-86.748 Y488.207 Z-1.268 F2000.000
G1 X-95.354 Y484.357 Z-1.268 F2000.000
G1 X-103.146 Y480.144 Z-1.268 F2000.000
G1 X-110.159 Y475.608 Z-1.268 F2000.000
G1 X-116.428 Y470.789 Z-1.268 F2000.000
G1 X-121.989 Y465.735 Z-1.268 F2000.000
G1 X-126.879 Y460.492 Z-1.268 F2000.000
G1 X-131.127 Y455.124 Z-1.268 F2000.000
G1 X-133.944 Y451.007 Z-1.268 F2000.000
G1 X-136.445 Y446.863 Z-1.268 F2000.000
G1 X-138.649 Y442.713 Z-1.268 F2000.000
G1 X-140.578 Y438.578 Z-1.268 F2000.000
G1 X-142.250 Y434.489 Z-1.268 F2000.000
G3 X-148.857 Y403.355 Z-1.268 I95.832 J-36.605 K0.000 F2000.000
G1 X-148.948 Y400.742 Z-1.268 F2000.000
G1 X-148.935 Y396.461 Z-1.268 F2000.000
G3 X-146.501 Y377.123 Z-1.268 I101.135 J2.909 K0.000 F2000.000
G3 X-142.123 Y361.462 Z-1.268 I145.983 J32.368 K0.000 F2000.000
G3 X-136.868 Y346.633 Z-1.268 I367.756 J121.960 K0.000 F2000.000
G2 X-131.651 Y331.674 Z-1.268 I-451.940 J-166.008 K0.000 F2000.000
G2 X-128.023 Y316.193 Z-1.268 I-101.261 J-31.895 K0.000 F2000.000
G2 X-128.110 Y297.323 Z-1.268 I-62.330 J-9.149 K0.000 F2000.000
G2 X-133.485 Y279.867 Z-1.268 I-67.459 J11.216 K0.000 F2000.000
G2 X-140.632 Y266.969 Z-1.268 I-85.157 J38.756 K0.000 F2000.000
G2 X-145.972 Y259.424 Z-1.268 I-101.660 J66.297 K0.000 F2000.000
G3 X-146.268 Y259.000 Z-1.268 I5.090 J-3.862 K0.000 F2000.000
G3 X-162.169 Y232.528 Z-1.268 I964.702 J-597.478 K0.000 F2000.000
G1 X-167.285 Y223.389 Z-1.268 F2000.000
G1 X-172.191 Y214.066 Z-1.268 F2000.000
G1 X-176.809 Y204.552 Z-1.268 F2000.000
G1 X-181.060 Y194.840 Z-1.268 F2000.000
G1 X-184.863 Y184.924 Z-1.268 F2000.000
G1 X-188.136 Y174.796 Z-1.268 F2000.000
G1 X-190.795 Y164.452 Z-1.268 F2000.000
G1 X-192.754 Y153.890 Z-1.268 F2000.000
G1 X-193.928 Y143.112 Z-1.268 F2000.000
G1 X-194.232 Y132.122 Z-1.268 F2000.000
G1 X-193.590 Y120.984 Z-1.268 F2000.000
G3 X-184.217 Y83.933 Z-1.268 I132.961 J13.926 K0.000 F2000.000
G3 X-170.011 Y56.867 Z-1.268 I155.263 J64.227 K0.000 F2000.000
G1 X-168.566 Y54.829 Z-1.268 F2000.000
G3 X-164.116 Y48.571 Z-1.268 I768.928 J542.114 K0.000 F2000.000
G1 X-157.324 Y41.049 Z-1.268 F2000.000
G1 X-157.198 Y40.924 Z-1.268 F2000.000
G1 X-149.285 Y33.936 Z-1.268 F2000.000
G1 X-140.402 Y27.609 Z-1.268 F2000.000
G1 X-130.568 Y21.933 Z-1.268 F2000.000
G1 X-119.795 Y16.898 Z-1.268 F2000.000
G1 X-108.090 Y12.491 Z-1.268 F2000.000
G1 X-95.454 Y8.699 Z-1.268 F2000.000
G1 X-81.887 Y5.511 Z-1.268 F2000.000
G1 X-67.386 Y2.921 Z-1.268 F2000.000
G1 X-51.947 Y0.921 Z-1.268 F2000.000
G1 X-35.568 Y-0.495 Z-1.268 F2000.000
G1 X-18.245 Y-1.329 Z-1.268 F2000.000
G1 X0.027 Y-1.585 Z-1.268 F2000.000
G1 X18.232 Y-1.268 Z-1.268 F2000.000
G1 X35.496 Y-0.382 Z-1.268 F2000.000
G1 X51.821 Y1.078 Z-1.268 F2000.000
G1 X67.211 Y3.114 Z-1.268 F2000.000
G1 X81.670 Y5.733 Z-1.268 F2000.000
G1 X95.200 Y8.942 Z-1.268 F2000.000
G1 X107.805 Y12.748 Z-1.268 F2000.000
G1 X119.485 Y17.163 Z-1.268 F2000.000
G1 X130.236 Y22.199 Z-1.268 F2000.000
G1 X140.051 Y27.869 Z-1.268 F2000.000
G1 X148.918 Y34.183 Z-1.268 F2000.000
G1 X156.815 Y41.148 Z-1.268 F2000.000
G1 X163.602 Y48.619 Z-1.268 F2000.000
G1 X163.718 Y48.763 Z-1.268 F2000.000
G1 X169.550 Y56.930 Z-1.268 F2000.000
G3 X184.162 Y85.052 Z-1.268 I-138.426 J89.782 K0.000 F2000.000
G3 X192.773 Y118.361 Z-1.268 I-123.422 J49.676 K0.000 F2000.000
G1 X193.092 Y121.250 Z-1.268 F2000.000
G1 X193.702 Y132.431 Z-1.268 F2000.000
G1 X193.357 Y143.409 Z-1.268 F2000.000
G1 X192.143 Y154.175 Z-1.268 F2000.000
G1 X190.142 Y164.726 Z-1.268 F2000.000
G1 X187.440 Y175.061 Z-1.268 F2000.000
G1 X184.121 Y185.184 Z-1.268 F2000.000
G1 X180.267 Y195.100 Z-1.268 F2000.000
G1 X175.959 Y204.816 Z-1.268 F2000.000
G1 X171.277 Y214.339 Z-1.268 F2000.000
G1 X166.299 Y223.677 Z-1.268 F2000.000
G1 X161.102 Y232.836 Z-1.268 F2000.000
G3 X144.783 Y259.565 Z-1.268 I-882.394 J-520.371 K0.000 F2000.000
G2 X135.617 Y273.766 Z-1.268 I93.429 J70.370 K0.000 F2000.000
G2 X129.400 Y288.570 Z-1.268 I71.654 J38.798 K0.000 F2000.000
G2 X126.926 Y311.100 Z-1.268 I59.883 J17.976 K0.000 F2000.000
G2 X129.966 Y327.660 Z-1.268 I84.147 J-6.891 K0.000 F2000.000
G2 X135.770 Y344.959 Z-1.268 I220.138 J-64.225 K0.000 F2000.000
G3 X141.448 Y360.889 Z-1.268 I-958.946 J350.805 K0.000 F2000.000
G3 X146.371 Y378.828 Z-1.268 I-160.758 J53.766 K0.000 F2000.000
G3 X148.183 Y406.124 Z-1.268 I-96.888 J20.138 K0.000 F2000.000
G3 X140.044 Y438.649 Z-1.268 I-103.214 J-8.548 K0.000 F2000.000
G1 X138.109 Y442.786 Z-1.268 F2000.000
G1 X135.899 Y446.938 Z-1.268 F2000.000
G1 X133.392 Y451.083 Z-1.268 F2000.000
G1 X130.558 Y455.212 Z-1.268 F2000.000
G1 X130.217 Y455.642 Z-1.585 F2000.000
G1 X130.558 Y455.212 Z-1.902 F2000.000
G1 X126.291 Y460.590 Z-1.902 F2000.000
G1 X121.393 Y465.827 Z-1.902 F2000.000
G1 X115.825 Y470.873 Z-1.902 F2000.000
G1 X109.551 Y475.682 Z-1.902 F2000.000
G1 X102.536 Y480.207 Z-1.902 F2000.000
G1 X94.744 Y484.409 Z-1.902 F2000.000
G1 X86.140 Y488.249 Z-1.902 F2000.000
G1 X76.686 Y491.689 Z-1.902 F2000.000
G1 X66.341 Y494.695 Z-1.902 F2000.000
G1 X55.062 Y497.233 Z-1.902 F2000.000
G1 X42.806 Y499.268 Z-1.902 F2000.000
G1 X29.528 Y500.765 Z-1.902 F2000.000
G1 X15.180 Y501.689 Z-1.902 F2000.000
G1 X-0.284 Y502.005 Z-1.902 F2000.000
G1 X-15.753 Y501.686 Z-1.902 F2000.000
G1 X-30.107 Y500.758 Z-1.902 F2000.000
G1 X-43.392 Y499.256 Z-1.902 F2000.000
G1 X-55.654 Y497.216 Z-1.902 F2000.000
G1 X-66.939 Y494.671 Z-1.902 F2000.000
G1 X-77.289 Y491.656 Z-1.902 F2000.000
G1 X-86.748 Y488.207 Z-1.902 F2000.000
G1 X-95.354 Y484.357 Z-1.902 F2000.000
G1 X-103.146 Y480.144 Z-1.902 F2000.000
G1 X-110.159 Y475.608 Z-1.902 F2000.000
G1 X-116.428 Y470.789 Z-1.902 F2000.000
G1 X-121.989 Y465.735 Z-1.902 F2000.000
G1 X-126.879 Y460.492 Z-1.902 F2000.000
G1 X-131.127 Y455.124 Z-1.902 F2000.000
G1 X-133.944 Y451.007 Z-1.902 F2000.000
G1 X-136.445 Y446.863 Z-1.902 F2000.000
G1 X-138.649 Y442.713 Z-1.902 F2000.000
G1 X-140.578 Y438.578 Z-1.902 F2000.000
G1 X-142.250 Y434.489 Z-1.902 F2000.000
G3 X-148.857 Y403.355 Z-1.902 I95.832 J-36.605 K0.000 F2000.000
G1 X-148.948 Y400.742 Z-1.902 F2000.000
G1 X-148.935 Y396.461 Z-1.902 F2000.000
G3 X-146.501 Y377.123 Z-1.902 I101.135 J2.909 K0.000 F2000.000
G3 X-142.123 Y361.462 Z-1.902 I145.983 J32.368 K0.000 F2000.000
G3 X-136.868 Y346.633 Z-1.902 I367.756 J121.960 K0.000 F2000.000
G2 X-131.651 Y331.674 Z-1.902 I-451.940 J-166.008 K0.000 F2000.000
G2 X-128.023 Y316.193 Z-1.902 I-101.261 J-31.895 K0.000 F2000.000
G2 X-128.110 Y297.323 Z-1.902 I-62.330 J-9.149 K0.000 F2000.000
G2 X-133.485 Y279.867 Z-1.902 I-67.459 J11.216 K0.000 F2000.000
G2 X-140.632 Y266.969 Z-1.902 I-85.157 J38.756 K0.000 F2000.000
G2 X-145.972 Y259.424 Z-1.902 I-101.660 J66.297 K0.000 F2000.000
G3 X-146.268 Y259.000 Z-1.902 I5.090 J-3.862 K0.000 F2000.000
G3 X-162.169 Y232.528 Z-1.902 I964.702 J-597.478 K0.000 F2000.000
G1 X-167.285 Y223.389 Z-1.902 F2000.000
G1 X-172.191 Y214.066 Z-1.902 F2000.000
G1 X-176.809 Y204.552 Z-1.902 F2000.000
G1 X-181.060 Y194.840 Z-1.902 F2000.000
G1 X-184.863 Y184.924 Z-1.902 F2000.000
G1 X-188.136 Y174.796 Z-1.902 F2000.000
G1 X-190.795 Y164.452 Z-1.902 F2000.000
G1 X-192.754 Y153.890 Z-1.902 F2000.000
G1 X-193.928 Y143.112 Z-1.902 F2000.000
G1 X-194.232 Y132.122 Z-1.902 F2000.000
G1 X-193.590 Y120.984 Z-1.902 F2000.000
G3 X-184.217 Y83.933 Z-1.902 I132.961 J13.926 K0.000 F2000.000
G3 X-170.011 Y56.867 Z-1.902 I155.263 J64.227 K0.000 F2000.000
G1 X-168.566 Y54.829 Z-1.902 F2000.000
G3 X-164.116 Y48.571 Z-1.902 I768.928 J542.114 K0.000 F2000.000
G1 X-157.324 Y41.049 Z-1.902 F2000.000
G1 X-157.198 Y40.924 Z-1.902 F2000.000
G1 X-149.285 Y33.936 Z-1.902 F2000.000
G1 X-140.402 Y27.609 Z-1.902 F2000.000
G1 X-130.568 Y21.933 Z-1.902 F2000.000
G1 X-119.795 Y16.898 Z-1.902 F2000.000
G1 X-108.090 Y12.491 Z-1.902 F2000.000
G1 X-95.454 Y8.699 Z-1.902 F2000.000
G1 X-81.887 Y5.511 Z-1.902 F2000.000
G1 X-67.386 Y2.921 Z-1.902 F2000.000
G1 X-51.947 Y0.921 Z-1.902 F2000.000
G1 X-35.568 Y-0.495 Z-1.902 F2000.000
G1 X-18.245 Y-1.329 Z-1.902 F2000.000
G1 X0.027 Y-1.585 Z-1.902 F2000.000
G1 X18.232 Y-1.268 Z-1.902 F2000.000
G1 X35.496 Y-0.382 Z-1.902 F2000.000
G1 X51.821 Y1.078 Z-1.902 F2000.000
G1 X67.211 Y3.114 Z-1.902 F2000.000
G1 X81.670 Y5.733 Z-1.902 F2000.000
G1 X95.200 Y8.942 Z-1.902 F2000.000
G1 X107.805 Y12.748 Z-1.902 F2000.000
G1 X119.485 Y17.163 Z-1.902 F2000.000
G1 X130.236 Y22.199 Z-1.902 F2000.000
G1 X140.051 Y27.869 Z-1.902 F2000.000
G1 X148.918 Y34.183 Z-1.902 F2000.000
G1 X156.815 Y41.148 Z-1.902 F2000.000
G1 X163.602 Y48.619 Z-1.902 F2000.000
G1 X163.718 Y48.763 Z-1.902 F2000.000
G1 X169.550 Y56.930 Z-1.902 F2000.000
G3 X184.162 Y85.052 Z-1.902 I-138.426 J89.782 K0.000 F2000.000
G3 X192.773 Y118.361 Z-1.902 I-123.422 J49.676 K0.000 F2000.000
G1 X193.092 Y121.250 Z-1.902 F2000.000
G1 X193.702 Y132.431 Z-1.902 F2000.000
G1 X193.357 Y143.409 Z-1.902 F2000.000
G1 X192.143 Y154.175 Z-1.902 F2000.000
G1 X190.142 Y164.726 Z-1.902 F2000.000
G1 X187.440 Y175.061 Z-1.902 F2000.000
G1 X184.121 Y185.184 Z-1.902 F2000.000
G1 X180.267 Y195.100 Z-1.902 F2000.000
G1 X175.959 Y204.816 Z-1.902 F2000.000
G1 X171.277 Y214.339 Z-1.902 F2000.000
G1 X166.299 Y223.677 Z-1.902 F2000.000
G1 X161.102 Y232.836 Z-1.902 F2000.000
G3 X144.783 Y259.565 Z-1.902 I-882.394 J-520.371 K0.000 F2000.000
G2 X135.617 Y273.766 Z-1.902 I93.429 J70.370 K0.000 F2000.000
G2 X129.400 Y288.570 Z-1.902 I71.654 J38.798 K0.000 F2000.000
G2 X126.926 Y311.100 Z-1.902 I59.883 J17.976 K0.000 F2000.000
G2 X129.966 Y327.660 Z-1.902 I84.147 J-6.891 K0.000 F2000.000
G2 X135.770 Y344.959 Z-1.902 I220.138 J-64.225 K0.000 F2000.000
G3 X141.448 Y360.889 Z-1.902 I-958.946 J350.805 K0.000 F2000.000
G3 X146.371 Y378.828 Z-1.902 I-160.758 J53.766 K0.000 F2000.000
G3 X148.183 Y406.124 Z-1.902 I-96.888 J20.138 K0.000 F2000.000
G3 X140.044 Y438.649 Z-1.902 I-103.214 J-8.548 K0.000 F2000.000
G1 X138.109 Y442.786 Z-1.902 F2000.000
G1 X135.899 Y446.938 Z-1.902 F2000.000
G1 X133.392 Y451.083 Z-1.902 F2000.000
G1 X130.558 Y455.212 Z-1.902 F2000.000
G1 X130.217 Y455.642 Z-2.219 F2000.000
G1 X130.558 Y455.212 Z-2.536 F2000.000
G1 X126.291 Y460.590 Z-2.536 F2000.000
G1 X121.393 Y465.827 Z-2.536 F2000.000
G1 X115.825 Y470.873 Z-2.536 F2000.000
G1 X109.551 Y475.682 Z-2.536 F2000.000
G1 X102.536 Y480.207 Z-2.536 F2000.000
G1 X94.744 Y484.409 Z-2.536 F2000.000
G1 X86.140 Y488.249 Z-2.536 F2000.000
G1 X76.686 Y491.689 Z-2.536 F2000.000
G1 X66.341 Y494.695 Z-2.536 F2000.000
G1 X55.062 Y497.233 Z-2.536 F2000.000
G1 X42.806 Y499.268 Z-2.536 F2000.000
G1 X29.528 Y500.765 Z-2.536 F2000.000
G1 X15.180 Y501.689 Z-2.536 F2000.000
G1 X-0.284 Y502.005 Z-2.536 F2000.000
G1 X-15.753 Y501.686 Z-2.536 F2000.000
G1 X-30.107 Y500.758 Z-2.536 F2000.000
G1 X-43.392 Y499.256 Z-2.536 F2000.000
G1 X-55.654 Y497.216 Z-2.536 F2000.000
G1 X-66.939 Y494.671 Z-2.536 F2000.000
G1 X-77.289 Y491.656 Z-2.536 F2000.000
G1 X-86.748 Y488.207 Z-2.536 F2000.000
G1 X-95.354 Y484.357 Z-2.536 F2000.000
G1 X-103.146 Y480.144 Z-2.536 F2000.000
G1 X-110.159 Y475.608 Z-2.536 F2000.000
G1 X-116.428 Y470.789 Z-2.536 F2000.000
G1 X-121.989 Y465.735 Z-2.536 F2000.000
G1 X-126.879 Y460.492 Z-2.536 F2000.000
G1 X-131.127 Y455.124 Z-2.536 F2000.000
G1 X-133.944 Y451.007 Z-2.536 F2000.000
G1 X-136.445 Y446.863 Z-2.536 F2000.000
G1 X-138.649 Y442.713 Z-2.536 F2000.000
G1 X-140.578 Y438.578 Z-2.536 F2000.000
G1 X-142.250 Y434.489 Z-2.536 F2000.000
G3 X-148.857 Y403.355 Z-2.536 I95.832 J-36.605 K0.000 F2000.000
G1 X-148.948 Y400.742 Z-2.536 F2000.000
G1 X-148.935 Y396.461 Z-2.536 F2000.000
G3 X-146.501 Y377.123 Z-2.536 I101.135 J2.909 K0.000 F2000.000
G3 X-142.123 Y361.462 Z-2.536 I145.983 J32.368 K0.000 F2000.000
G3 X-136.868 Y346.633 Z-2.536 I367.756 J121.960 K0.000 F2000.000
G2 X-131.651 Y331.674 Z-2.536 I-451.940 J-166.008 K0.000 F2000.000
G2 X-128.023 Y316.193 Z-2.536 I-101.261 J-31.895 K0.000 F2000.000
G2 X-128.110 Y297.323 Z-2.536 I-62.330 J-9.149 K0.000 F2000.000
G2 X-133.485 Y279.867 Z-2.536 I-67.459 J11.216 K0.000 F2000.000
G2 X-140.632 Y266.969 Z-2.536 I-85.157 J38.756 K0.000 F2000.000
G2 X-145.972 Y259.424 Z-2.536 I-101.660 J66.297 K0.000 F2000.000
G3 X-146.268 Y259.000 Z-2.536 I5.090 J-3.862 K0.000 F2000.000
G3 X-162.169 Y232.528 Z-2.536 I964.702 J-597.478 K0.000 F2000.000
G1 X-167.285 Y223.389 Z-2.536 F2000.000
G1 X-172.191 Y214.066 Z-2.536 F2000.000
G1 X-176.809 Y204.552 Z-2.536 F2000.000
G1 X-181.060 Y194.840 Z-2.536 F2000.000
G1 X-184.863 Y184.924 Z-2.536 F2000.000
G1 X-188.136 Y174.796 Z-2.536 F2000.000
G1 X-190.795 Y164.452 Z-2.536 F2000.000
G1 X-192.754 Y153.890 Z-2.536 F2000.000
G1 X-193.928 Y143.112 Z-2.536 F2000.000
G1 X-194.232 Y132.122 Z-2.536 F2000.000
G1 X-193.590 Y120.984 Z-2.536 F2000.000
G3 X-184.217 Y83.933 Z-2.536 I132.961 J13.926 K0.000 F2000.000
G3 X-170.011 Y56.867 Z-2.536 I155.263 J64.227 K0.000 F2000.000
G1 X-168.566 Y54.829 Z-2.536 F2000.000
G3 X-164.116 Y48.571 Z-2.536 I768.928 J542.114 K0.000 F2000.000
G1 X-157.324 Y41.049 Z-2.536 F2000.000
G1 X-157.198 Y40.924 Z-2.536 F2000.000
G1 X-149.285 Y33.936 Z-2.536 F2000.000
G1 X-140.402 Y27.609 Z-2.536 F2000.000
G1 X-130.568 Y21.933 Z-2.536 F2000.000
G1 X-119.795 Y16.898 Z-2.536 F2000.000
G1 X-108.090 Y12.491 Z-2.536 F2000.000
G1 X-95.454 Y8.699 Z-2.536 F2000.000
G1 X-81.887 Y5.511 Z-2.536 F2000.000
G1 X-67.386 Y2.921 Z-2.536 F2000.000
G1 X-51.947 Y0.921 Z-2.536 F2000.000
G1 X-35.568 Y-0.495 Z-2.536 F2000.000
G1 X-18.245 Y-1.329 Z-2.536 F2000.000
G1 X0.027 Y-1.585 Z-2.536 F2000.000
G1 X18.232 Y-1.268 Z-2.536 F2000.000
G1 X35.496 Y-0.382 Z-2.536 F2000.000
G1 X51.821 Y1.078 Z-2.536 F2000.000
G1 X67.211 Y3.114 Z-2.536 F2000.000
G1 X81.670 Y5.733 Z-2.536 F2000.000
G1 X95.200 Y8.942 Z-2.536 F2000.000
G1 X107.805 Y12.748 Z-2.536 F2000.000
G1 X119.485 Y17.163 Z-2.536 F2000.000
G1 X130.236 Y22.199 Z-2.536 F2000.000
G1 X140.051 Y27.869 Z-2.536 F2000.000
G1 X148.918 Y34.183 Z-2.536 F2000.000
G1 X156.815 Y41.148 Z-2.536 F2000.000
G1 X163.602 Y48.619 Z-2.536 F2000.000
G1 X163.718 Y48.763 Z-2.536 F2000.000
G1 X169.550 Y56.930 Z-2.536 F2000.000
G3 X184.162 Y85.052 Z-2.536 I-138.426 J89.782 K0.000 F2000.000
G3 X192.773 Y118.361 Z-2.536 I-123.422 J49.676 K0.000 F2000.000
G1 X193.092 Y121.250 Z-2.536 F2000.000
G1 X193.702 Y132.431 Z-2.536 F2000.000
G1 X193.357 Y143.409 Z-2.536 F2000.000
G1 X192.143 Y154.175 Z-2.536 F2000.000
G1 X190.142 Y164.726 Z-2.536 F2000.000
G1 X187.440 Y175.061 Z-2.536 F2000.000
G1 X184.121 Y185.184 Z-2.536 F2000.000
G1 X180.267 Y195.100 Z-2.536 F2000.000
G1 X175.959 Y204.816 Z-2.536 F2000.000
G1 X171.277 Y214.339 Z-2.536 F2000.000
G1 X166.299 Y223.677 Z-2.536 F2000.000
G1 X161.102 Y232.836 Z-2.536 F2000.000
G3 X144.783 Y259.565 Z-2.536 I-882.394 J-520.371 K0.000 F2000.000
G2 X135.617 Y273.766 Z-2.536 I93.429 J70.370 K0.000 F2000.000
G2 X129.400 Y288.570 Z-2.536 I71.654 J38.798 K0.000 F2000.000
G2 X126.926 Y311.100 Z-2.536 I59.883 J17.976 K0.000 F2000.000
G2 X129.966 Y327.660 Z-2.536 I84.147 J-6.891 K0.000 F2000.000
G2 X135.770 Y344.959 Z-2.536 I220.138 J-64.225 K0.000 F2000.000
G3 X141.448 Y360.889 Z-2.536 I-958.946 J350.805 K0.000 F2000.000
G3 X146.371 Y378.828 Z-2.536 I-160.758 J53.766 K0.000 F2000.000
G3 X148.183 Y406.124 Z-2.536 I-96.888 J20.138 K0.000 F2000.000
G3 X140.044 Y438.649 Z-2.536 I-103.214 J-8.548 K0.000 F2000.000
G1 X138.109 Y442.786 Z-2.536 F2000.000
G1 X135.899 Y446.938 Z-2.536 F2000.000
G1 X133.392 Y451.083 Z-2.536 F2000.000
G1 X130.558 Y455.212 Z-2.536 F2000.000
G1 X130.217 Y455.642 Z-2.853 F2000.000
G1 X130.558 Y455.212 Z-3.170 F2000.000
G1 X126.291 Y460.590 Z-3.170 F2000.000
G1 X121.393 Y465.827 Z-3.170 F2000.000
G1 X115.825 Y470.873 Z-3.170 F2000.000
G1 X109.551 Y475.682 Z-3.170 F2000.000
G1 X102.536 Y480.207 Z-3.170 F2000.000
G1 X94.744 Y484.409 Z-3.170 F2000.000
G1 X86.140 Y488.249 Z-3.170 F2000.000
G1 X76.686 Y491.689 Z-3.170 F2000.000
G1 X66.341 Y494.695 Z-3.170 F2000.000
G1 X55.062 Y497.233 Z-3.170 F2000.000
G1 X42.806 Y499.268 Z-3.170 F2000.000
G1 X29.528 Y500.765 Z-3.170 F2000.000
G1 X15.180 Y501.689 Z-3.170 F2000.000
G1 X-0.284 Y502.005 Z-3.170 F2000.000
G1 X-15.753 Y501.686 Z-3.170 F2000.000
G1 X-30.107 Y500.758 Z-3.170 F2000.000
G1 X-43.392 Y499.256 Z-3.170 F2000.000
G1 X-55.654 Y497.216 Z-3.170 F2000.000
G1 X-66.939 Y494.671 Z-3.170 F2000.000
G1 X-77.289 Y491.656 Z-3.170 F2000.000
G1 X-86.748 Y488.207 Z-3.170 F2000.000
G1 X-95.354 Y484.357 Z-3.170 F2000.000
G1 X-103.146 Y480.144 Z-3.170 F2000.000
G1 X-110.159 Y475.608 Z-3.170 F2000.000
G1 X-116.428 Y470.789 Z-3.170 F2000.000
G1 X-121.989 Y465.735 Z-3.170 F2000.000
G1 X-126.879 Y460.492 Z-3.170 F2000.000
G1 X-131.127 Y455.124 Z-3.170 F2000.000
G1 X-133.944 Y451.007 Z-3.170 F2000.000
G1 X-136.445 Y446.863 Z-3.170 F2000.000
G1 X-138.649 Y442.713 Z-3.170 F2000.000
G1 X-140.578 Y438.578 Z-3.170 F2000.000
G1 X-142.250 Y434.489 Z-3.170 F2000.000
G3 X-148.857 Y403.355 Z-3.170 I95.832 J-36.605 K0.000 F2000.000
G1 X-148.948 Y400.742 Z-3.170 F2000.000
G1 X-148.935 Y396.461 Z-3.170 F2000.000
G3 X-146.501 Y377.123 Z-3.170 I101.135 J2.909 K0.000 F2000.000
G3 X-142.123 Y361.462 Z-3.170 I145.983 J32.368 K0.000 F2000.000
G3 X-136.868 Y346.633 Z-3.170 I367.756 J121.960 K0.000 F2000.000
G2 X-131.651 Y331.674 Z-3.170 I-451.940 J-166.008 K0.000 F2000.000
G2 X-128.023 Y316.193 Z-3.170 I-101.261 J-31.895 K0.000 F2000.000
G2 X-128.110 Y297.323 Z-3.170 I-62.330 J-9.149 K0.000 F2000.000
G2 X-133.485 Y279.867 Z-3.170 I-67.459 J11.216 K0.000 F2000.000
G2 X-140.632 Y266.969 Z-3.170 I-85.157 J38.756 K0.000 F2000.000
G2 X-145.972 Y259.424 Z-3.170 I-101.660 J66.297 K0.000 F2000.000
G3 X-146.268 Y259.000 Z-3.170 I5.090 J-3.862 K0.000 F2000.000
G3 X-162.169 Y232.528 Z-3.170 I964.702 J-597.478 K0.000 F2000.000
G1 X-167.285 Y223.389 Z-3.170 F2000.000
G1 X-172.191 Y214.066 Z-3.170 F2000.000
G1 X-176.809 Y204.552 Z-3.170 F2000.000
G1 X-181.060 Y194.840 Z-3.170 F2000.000
G1 X-184.863 Y184.924 Z-3.170 F2000.000
G1 X-188.136 Y174.796 Z-3.170 F2000.000
G1 X-190.795 Y164.452 Z-3.170 F2000.000
G1 X-192.754 Y153.890 Z-3.170 F2000.000
G1 X-193.928 Y143.112 Z-3.170 F2000.000
G1 X-194.232 Y132.122 Z-3.170 F2000.000
G1 X-193.590 Y120.984 Z-3.170 F2000.000
G3 X-184.217 Y83.933 Z-3.170 I132.961 J13.926 K0.000 F2000.000
G3 X-170.011 Y56.867 Z-3.170 I155.263 J64.227 K0.000 F2000.000
G1 X-168.566 Y54.829 Z-3.170 F2000.000
G3 X-164.116 Y48.571 Z-3.170 I768.928 J542.114 K0.000 F2000.000
G1 X-157.324 Y41.049 Z-3.170 F2000.000
G1 X-157.198 Y40.924 Z-3.170 F2000.000
G1 X-149.285 Y33.936 Z-3.170 F2000.000
G1 X-140.402 Y27.609 Z-3.170 F2000.000
G1 X-130.568 Y21.933 Z-3.170 F2000.000
G1 X-119.795 Y16.898 Z-3.170 F2000.000
G1 X-108.090 Y12.491 Z-3.170 F2000.000
G1 X-95.454 Y8.699 Z-3.170 F2000.000
G1 X-81.887 Y5.511 Z-3.170 F2000.000
G1 X-67.386 Y2.921 Z-3.170 F2000.000
G1 X-51.947 Y0.921 Z-3.170 F2000.000
G1 X-35.568 Y-0.495 Z-3.170 F2000.000
G1 X-18.245 Y-1.329 Z-3.170 F2000.000
G1 X0.027 Y-1.585 Z-3.170 F2000.000
G1 X18.232 Y-1.268 Z-3.170 F2000.000
G1 X35.496 Y-0.382 Z-3.170 F2000.000
G1 X51.821 Y1.078 Z-3.170 F2000.000
G1 X67.211 Y3.114 Z-3.170 F2000.000
G1 X81.670 Y5.733 Z-3.170 F2000.000
G1 X95.200 Y8.942 Z-3.170 F2000.000
G1 X107.805 Y12.748 Z-3.170 F2000.000
G1 X119.485 Y17.163 Z-3.170 F2000.000
G1 X130.236 Y22.199 Z-3.170 F2000.000
G1 X140.051 Y27.869 Z-3.170 F2000.000
G1 X148.918 Y34.183 Z-3.170 F2000.000
G1 X156.815 Y41.148 Z-3.170 F2000.000
G1 X163.602 Y48.619 Z-3.170 F2000.000
G1 X163.718 Y48.763 Z-3.170 F2000.000
G1 X169.550 Y56.930 Z-3.170 F2000.000
G3 X184.162 Y85.052 Z-3.170 I-138.426 J89.782 K0.000 F2000.000
G3 X192.773 Y118.361 Z-3.170 I-123.422 J49.676 K0.000 F2000.000
G1 X193.092 Y121.250 Z-3.170 F2000.000
G1 X193.702 Y132.431 Z-3.170 F2000.000
G1 X193.357 Y143.409 Z-3.170 F2000.000
G1 X192.143 Y154.175 Z-3.170 F2000.000
G1 X190.142 Y164.726 Z-3.170 F2000.000
G1 X187.440 Y175.061 Z-3.170 F2000.000
G1 X184.121 Y185.184 Z-3.170 F2000.000
G1 X180.267 Y195.100 Z-3.170 F2000.000
G1 X175.959 Y204.816 Z-3.170 F2000.000
G1 X171.277 Y214.339 Z-3.170 F2000.000
G1 X166.299 Y223.677 Z-3.170 F2000.000
G1 X161.102 Y232.836 Z-3.170 F2000.000
G3 X144.783 Y259.565 Z-3.170 I-882.394 J-520.371 K0.000 F2000.000
G2 X135.617 Y273.766 Z-3.170 I93.429 J70.370 K0.000 F2000.000
G2 X129.400 Y288.570 Z-3.170 I71.654 J38.798 K0.000 F2000.000
G2 X126.926 Y311.100 Z-3.170 I59.883 J17.976 K0.000 F2000.000
G2 X129.966 Y327.660 Z-3.170 I84.147 J-6.891 K0.000 F2000.000
G2 X135.770 Y344.959 Z-3.170 I220.138 J-64.225 K0.000 F2000.000
G3 X141.448 Y360.889 Z-3.170 I-958.946 J350.805 K0.000 F2000.000
G3 X146.371 Y378.828 Z-3.170 I-160.758 J53.766 K0.000 F2000.000
G3 X148.183 Y406.124 Z-3.170 I-96.888 J20.138 K0.000 F2000.000
G3 X140.044 Y438.649 Z-3.170 I-103.214 J-8.548 K0.000 F2000.000
G1 X138.109 Y442.786 Z-3.170 F2000.000
G1 X135.899 Y446.938 Z-3.170 F2000.000
G1 X133.392 Y451.083 Z-3.170 F2000.000
G1 X130.558 Y455.212 Z-3.170 F2000.000
G1 X130.217 Y455.642 Z-3.487 F2000.000
G1 X130.558 Y455.212 Z-3.804 F2000.000
G1 X126.291 Y460.590 Z-3.804 F2000.000
G1 X121.393 Y465.827 Z-3.804 F2000.000
G1 X115.825 Y470.873 Z-3.804 F2000.000
G1 X109.551 Y475.682 Z-3.804 F2000.000
G1 X102.536 Y480.207 Z-3.804 F2000.000
G1 X94.744 Y484.409 Z-3.804 F2000.000
G1 X86.140 Y488.249 Z-3.804 F2000.000
G1 X76.686 Y491.689 Z-3.804 F2000.000
G1 X66.341 Y494.695 Z-3.804 F2000.000
G1 X55.062 Y497.233 Z-3.804 F2000.000
G1 X42.806 Y499.268 Z-3.804 F2000.000
G1 X29.528 Y500.765 Z-3.804 F2000.000
G1 X15.180 Y501.689 Z-3.804 F2000.000
G1 X-0.284 Y502.005 Z-3.804 F2000.000
G1 X-15.753 Y501.686 Z-3.804 F2000.000
G1 X-30.107 Y500.758 Z-3.804 F2000.000
G1 X-43.392 Y499.256 Z-3.804 F2000.000
G1 X-55.654 Y497.216 Z-3.804 F2000.000
G1 X-66.939 Y494.671 Z-3.804 F2000.000
G1 X-77.289 Y491.656 Z-3.804 F2000.000
G1 X-86.748 Y488.207 Z-3.804 F2000.000
G1 X-95.354 Y484.357 Z-3.804 F2000.000
G1 X-103.146 Y480.144 Z-3.804 F2000.000
G1 X-110.159 Y475.608 Z-3.804 F2000.000
G1 X-116.428 Y470.789 Z-3.804 F2000.000
G1 X-121.989 Y465.735 Z-3.804 F2000.000
G1 X-126.879 Y460.492 Z-3.804 F2000.000
G1 X-131.127 Y455.124 Z-3.804 F2000.000
G1 X-133.944 Y451.007 Z-3.804 F2000.000
G1 X-136.445 Y446.863 Z-3.804 F2000.000
G1 X-138.649 Y442.713 Z-3.804 F2000.000
G1 X-140.578 Y438.578 Z-3.804 F2000.000
G1 X-142.250 Y434.489 Z-3.804 F2000.000
G3 X-148.857 Y403.355 Z-3.804 I95.832 J-36.605 K0.000 F2000.000
G1 X-148.948 Y400.742 Z-3.804 F2000.000
G1 X-148.935 Y396.461 Z-3.804 F2000.000
G3 X-146.501 Y377.123 Z-3.804 I101.135 J2.909 K0.000 F2000.000
G3 X-142.123 Y361.462 Z-3.804 I145.983 J32.368 K0.000 F2000.000
G3 X-136.868 Y346.633 Z-3.804 I367.756 J121.960 K0.000 F2000.000
G2 X-131.651 Y331.674 Z-3.804 I-451.940 J-166.008 K0.000 F2000.000
G2 X-128.023 Y316.193 Z-3.804 I-101.261 J-31.895 K0.000 F2000.000
G2 X-128.110 Y297.323 Z-3.804 I-62.330 J-9.149 K0.000 F2000.000
G2 X-133.485 Y279.867 Z-3.804 I-67.459 J11.216 K0.000 F2000.000
G2 X-140.632 Y266.969 Z-3.804 I-85.157 J38.756 K0.000 F2000.000
G2 X-145.972 Y259.424 Z-3.804 I-101.660 J66.297 K0.000 F2000.000
G3 X-146.268 Y259.000 Z-3.804 I5.090 J-3.862 K0.000 F2000.000
G3 X-162.169 Y232.528 Z-3.804 I964.702 J-597.478 K0.000 F2000.000
G1 X-167.285 Y223.389 Z-3.804 F2000.000
G1 X-172.191 Y214.066 Z-3.804 F2000.000
G1 X-176.809 Y204.552 Z-3.804 F2000.000
G1 X-181.060 Y194.840 Z-3.804 F2000.000
G1 X-184.863 Y184.924 Z-3.804 F2000.000
G1 X-188.136 Y174.796 Z-3.804 F2000.000
G1 X-190.795 Y164.452 Z-3.804 F2000.000
G1 X-192.754 Y153.890 Z-3.804 F2000.000
G1 X-193.928 Y143.112 Z-3.804 F2000.000
G1 X-194.232 Y132.122 Z-3.804 F2000.000
G1 X-193.590 Y120.984 Z-3.804 F2000.000
G3 X-184.217 Y83.933 Z-3.804 I132.961 J13.926 K0.000 F2000.000
G3 X-170.011 Y56.867 Z-3.804 I155.263 J64.227 K0.000 F2000.000
G1 X-168.566 Y54.829 Z-3.804 F2000.000
G3 X-164.116 Y48.571 Z-3.804 I768.928 J542.114 K0.000 F2000.000
G1 X-157.324 Y41.049 Z-3.804 F2000.000
G1 X-157.198 Y40.924 Z-3.804 F2000.000
G1 X-149.285 Y33.936 Z-3.804 F2000.000
G1 X-140.402 Y27.609 Z-3.804 F2000.000
G1 X-130.568 Y21.933 Z-3.804 F2000.000
G1 X-119.795 Y16.898 Z-3.804 F2000.000
G1 X-108.090 Y12.491 Z-3.804 F2000.000
G1 X-95.454 Y8.699 Z-3.804 F2000.000
G1 X-81.887 Y5.511 Z-3.804 F2000.000
G1 X-67.386 Y2.921 Z-3.804 F2000.000
G1 X-51.947 Y0.921 Z-3.804 F2000.000
G1 X-35.568 Y-0.495 Z-3.804 F2000.000
G1 X-18.245 Y-1.329 Z-3.804 F2000.000
G1 X0.027 Y-1.585 Z-3.804 F2000.000
G1 X18.232 Y-1.268 Z-3.804 F2000.000
G1 X35.496 Y-0.382 Z-3.804 F2000.000
G1 X51.821 Y1.078 Z-3.804 F2000.000
G1 X67.211 Y3.114 Z-3.804 F2000.000
G1 X81.670 Y5.733 Z-3.804 F2000.000
G1 X95.200 Y8.942 Z-3.804 F2000.000
G1 X107.805 Y12.748 Z-3.804 F2000.000
G1 X119.485 Y17.163 Z-3.804 F2000.000
G1 X130.236 Y22.199 Z-3.804 F2000.000
G1 X140.051 Y27.869 Z-3.804 F2000.000
G1 X148.918 Y34.183 Z-3.804 F2000.000
G1 X156.815 Y41.148 Z-3.804 F2000.000
G1 X163.602 Y48.619 Z-3.804 F2000.000
G1 X163.718 Y48.763 Z-3.804 F2000.000
G1 X169.550 Y56.930 Z-3.804 F2000.000
G3 X184.162 Y85.052 Z-3.804 I-138.426 J89.782 K0.000 F2000.000
G3 X192.773 Y118.361 Z-3.804 I-123.422 J49.676 K0.000 F2000.000
G1 X193.092 Y121.250 Z-3.804 F2000.000
G1 X193.702 Y132.431 Z-3.804 F2000.000
G1 X193.357 Y143.409 Z-3.804 F2000.000
G1 X192.143 Y154.175 Z-3.804 F2000.000
G1 X190.142 Y164.726 Z-3.804 F2000.000
G1 X187.440 Y175.061 Z-3.804 F2000.000
G1 X184.121 Y185.184 Z-3.804 F2000.000
G1 X180.267 Y195.100 Z-3.804 F2000.000
G1 X175.959 Y204.816 Z-3.804 F2000.000
G1 X171.277 Y214.339 Z-3.804 F2000.000
G1 X166.299 Y223.677 Z-3.804 F2000.000
G1 X161.102 Y232.836 Z-3.804 F2000.000
G3 X144.783 Y259.565 Z-3.804 I-882.394 J-520.371 K0.000 F2000.000
G2 X135.617 Y273.766 Z-3.804 I93.429 J70.370 K0.000 F2000.000
G2 X129.400 Y288.570 Z-3.804 I71.654 J38.798 K0.000 F2000.000
G2 X126.926 Y311.100 Z-3.804 I59.883 J17.976 K0.000 F2000.000
G2 X129.966 Y327.660 Z-3.804 I84.147 J-6.891 K0.000 F2000.000
G2 X135.770 Y344.959 Z-3.804 I220.138 J-64.225 K0.000 F2000.000
G3 X141.448 Y360.889 Z-3.804 I-958.946 J350.805 K0.000 F2000.000
G3 X146.371 Y378.828 Z-3.804 I-160.758 J53.766 K0.000 F2000.000
G3 X148.183 Y406.124 Z-3.804 I-96.888 J20.138 K0.000 F2000.000
G3 X140.044 Y438.649 Z-3.804 I-103.214 J-8.548 K0.000 F2000.000
G1 X138.109 Y442.786 Z-3.804 F2000.000
G1 X135.899 Y446.938 Z-3.804 F2000.000
G1 X133.392 Y451.083 Z-3.804 F2000.000
G1 X130.558 Y455.212 Z-3.804 F2000.000
G1 X130.217 Y455.642 Z-4.121 F2000.000
G1 X130.558 Y455.212 Z-4.438 F2000.000
G1 X126.291 Y460.590 Z-4.438 F2000.000
G1 X121.393 Y465.827 Z-4.438 F2000.000
G1 X115.825 Y470.873 Z-4.438 F2000.000
G1 X109.551 Y475.682 Z-4.438 F2000.000
G1 X102.536 Y480.207 Z-4.438 F2000.000
G1 X94.744 Y484.409 Z-4.438 F2000.000
G1 X86.140 Y488.249 Z-4.438 F2000.000
G1 X76.686 Y491.689 Z-4.438 F2000.000
G1 X66.341 Y494.695 Z-4.438 F2000.000
G1 X55.062 Y497.233 Z-4.438 F2000.000
G1 X42.806 Y499.268 Z-4.438 F2000.000
G1 X29.528 Y500.765 Z-4.438 F2000.000
G1 X15.180 Y501.689 Z-4.438 F2000.000
G1 X-0.284 Y502.005 Z-4.438 F2000.000
G1 X-15.753 Y501.686 Z-4.438 F2000.000
G1 X-30.107 Y500.758 Z-4.438 F2000.000
G1 X-43.392 Y499.256 Z-4.438 F2000.000
G1 X-55.654 Y497.216 Z-4.438 F2000.000
G1 X-66.939 Y494.671 Z-4.438 F2000.000
G1 X-77.289 Y491.656 Z-4.438 F2000.000
G1 X-86.748 Y488.207 Z-4.438 F2000.000
G1 X-95.354 Y484.357 Z-4.438 F2000.000
G1 X-103.146 Y480.144 Z-4.438 F2000.000
G1 X-110.159 Y475.608 Z-4.438 F2000.000
G1 X-116.428 Y470.789 Z-4.438 F2000.000
G1 X-121.989 Y465.735 Z-4.438 F2000.000
G1 X-126.879 Y460.492 Z-4.438 F2000.000
G1 X-131.127 Y455.124 Z-4.438 F2000.000
G1 X-133.944 Y451.007 Z-4.438 F2000.000
G1 X-136.445 Y446.863 Z-4.438 F2000.000
G1 X-138.649 Y442.713 Z-4.438 F2000.000
G1 X-140.578 Y438.578 Z-4.438 F2000.000
G1 X-142.250 Y434.489 Z-4.438 F2000.000
G3 X-148.857 Y403.355 Z-4.438 I95.832 J-36.605 K0.000 F2000.000
G1 X-148.948 Y400.742 Z-4.438 F2000.000
G1 X-148.935 Y396.461 Z-4.438 F2000.000
G3 X-146.501 Y377.123 Z-4.438 I101.135 J2.909 K0.000 F2000.000
G3 X-142.123 Y361.462 Z-4.438 I145.983 J32.368 K0.000 F2000.000
G3 X-136.868 Y346.633 Z-4.438 I367.756 J121.960 K0.000 F2000.000
G2 X-131.651 Y331.674 Z-4.438 I-451.940 J-166.008 K0.000 F2000.000
G2 X-128.023 Y316.193 Z-4.438 I-101.261 J-31.895 K0.000 F2000.000
G2 X-128.110 Y297.323 Z-4.438 I-62.330 J-9.149 K0.000 F2000.000
G2 X-133.485 Y279.867 Z-4.438 I-67.459 J11.216 K0.000 F2000.000
G2 X-140.632 Y266.969 Z-4.438 I-85.157 J38.756 K0.000 F2000.000
G2 X-145.972 Y259.424 Z-4.438 I-101.660 J66.297 K0.000 F2000.000
G3 X-146.268 Y259.000 Z-4.438 I5.090 J-3.862 K0.000 F2000.000
G3 X-162.169 Y232.528 Z-4.438 I964.702 J-597.478 K0.000 F2000.000
G1 X-167.285 Y223.389 Z-4.438 F2000.000
G1 X-172.191 Y214.066 Z-4.438 F2000.000
G1 X-176.809 Y204.552 Z-4.438 F2000.000
G1 X-181.060 Y194.840 Z-4.438 F2000.000
G1 X-184.863 Y184.924 Z-4.438 F2000.000
G1 X-188.136 Y174.796 Z-4.438 F2000.000
G1 X-190.795 Y164.452 Z-4.438 F2000.000
G1 X-192.754 Y153.890 Z-4.438 F2000.000
G1 X-193.928 Y143.112 Z-4.438 F2000.000
G1 X-194.232 Y132.122 Z-4.438 F2000.000
G1 X-193.590 Y120.984 Z-4.438 F2000.000
G3 X-184.217 Y83.933 Z-4.438 I132.961 J13.926 K0.000 F2000.000
G3 X-170.011 Y56.867 Z-4.438 I155.263 J64.227 K0.000 F2000.000
G1 X-168.566 Y54.829 Z-4.438 F2000.000
G3 X-164.116 Y48.571 Z-4.438 I768.928 J542.114 K0.000 F2000.000
G1 X-157.324 Y41.049 Z-4.438 F2000.000
G1 X-157.198 Y40.924 Z-4.438 F2000.000
G1 X-149.285 Y33.936 Z-4.438 F2000.000
G1 X-140.402 Y27.609 Z-4.438 F2000.000
G1 X-130.568 Y21.933 Z-4.438 F2000.000
G1 X-119.795 Y16.898 Z-4.438 F2000.000
G1 X-108.090 Y12.491 Z-4.438 F2000.000
G1 X-95.454 Y8.699 Z-4.438 F2000.000
G1 X-81.887 Y5.511 Z-4.438 F2000.000
G1 X-67.386 Y2.921 Z-4.438 F2000.000
G1 X-51.947 Y0.921 Z-4.438 F2000.000
G1 X-35.568 Y-0.495 Z-4.438 F2000.000
G1 X-18.245 Y-1.329 Z-4.438 F2000.000
G1 X0.027 Y-1.585 Z-4.438 F2000.000
G1 X18.232 Y-1.268 Z-4.438 F2000.000
G1 X35.496 Y-0.382 Z-4.438 F2000.000
G1 X51.821 Y1.078 Z-4.438 F2000.000
G1 X67.211 Y3.114 Z-4.438 F2000.000
G1 X81.670 Y5.733 Z-4.438 F2000.000
G1 X95.200 Y8.942 Z-4.438 F2000.000
G1 X107.805 Y12.748 Z-4.438 F2000.000
G1 X119.485 Y17.163 Z-4.438 F2000.000
G1 X130.236 Y22.199 Z-4.438 F2000.000
G1 X140.051 Y27.869 Z-4.438 F2000.000
G1 X148.918 Y34.183 Z-4.438 F2000.000
G1 X156.815 Y41.148 Z-4.438 F2000.000
G1 X163.602 Y48.619 Z-4.438 F2000.000
G1 X163.718 Y48.763 Z-4.438 F2000.000
G1 X169.550 Y56.930 Z-4.438 F2000.000
G3 X184.162 Y85.052 Z-4.438 I-138.426 J89.782 K0.000 F2000.000
G3 X192.773 Y118.361 Z-4.438 I-123.422 J49.676 K0.000 F2000.000
G1 X193.092 Y121.250 Z-4.438 F2000.000
G1 X193.702 Y132.431 Z-4.438 F2000.000
G1 X193.357 Y143.409 Z-4.438 F2000.000
G1 X192.143 Y154.175 Z-4.438 F2000.000
G1 X190.142 Y164.726 Z-4.438 F2000.000
G1 X187.440 Y175.061 Z-4.438 F2000.000
G1 X184.121 Y185.184 Z-4.438 F2000.000
G1 X180.267 Y195.100 Z-4.438 F2000.000
G1 X175.959 Y204.816 Z-4.438 F2000.000
G1 X171.277 Y214.339 Z-4.438 F2000.000
G1 X166.299 Y223.677 Z-4.438 F2000.000
G1 X161.102 Y232.836 Z-4.438 F2000.000
G3 X144.783 Y259.565 Z-4.438 I-882.394 J-520.371 K0.000 F2000.000
G2 X135.617 Y273.766 Z-4.438 I93.429 J70.370 K0.000 F2000.000
G2 X129.400 Y288.570 Z-4.438 I71.654 J38.798 K0.000 F2000.000
G2 X126.926 Y311.100 Z-4.438 I59.883 J17.976 K0.000 F2000.000
G2 X129.966 Y327.660 Z-4.438 I84.147 J-6.891 K0.000 F2000.000
G2 X135.770 Y344.959 Z-4.438 I220.138 J-64.225 K0.000 F2000.000
G3 X141.448 Y360.889 Z-4.438 I-958.946 J350.805 K0.000 F2000.000
G3 X146.371 Y378.828 Z-4.438 I-160.758 J53.766 K0.000 F2000.000
G3 X148.183 Y406.124 Z-4.438 I-96.888 J20.138 K0.000 F2000.000
G3 X140.044 Y438.649 Z-4.438 I-103.214 J-8.548 K0.000 F2000.000
G1 X138.109 Y442.786 Z-4.438 F2000.000
G1 X135.899 Y446.938 Z-4.438 F2000.000
G1 X133.392 Y451.083 Z-4.438 F2000.000
G1 X130.558 Y455.212 Z-4.438 F2000.000
G1 X130.363 Y455.458 Z-4.619 F2000.000
G1 X130.558 Y455.212 Z-4.800 F2000.000
G1 X126.291 Y460.590 Z-4.800 F2000.000
G1 X121.393 Y465.827 Z-4.800 F2000.000
G1 X115.825 Y470.873 Z-4.800 F2000.000
G1 X109.551 Y475.682 Z-4.800 F2000.000
G1 X102.536 Y480.207 Z-4.800 F2000.000
G1 X94.744 Y484.409 Z-4.800 F2000.000
G1 X86.140 Y488.249 Z-4.800 F2000.000
G1 X76.686 Y491.689 Z-4.800 F2000.000
G1 X66.341 Y494.695 Z-4.800 F2000.000
G1 X55.062 Y497.233 Z-4.800 F2000.000
G1 X42.806 Y499.268 Z-4.800 F2000.000
G1 X29.528 Y500.765 Z-4.800 F2000.000
G1 X15.180 Y501.689 Z-4.800 F2000.000
G1 X-0.284 Y502.005 Z-4.800 F2000.000
G1 X-15.753 Y501.686 Z-4.800 F2000.000
G1 X-30.107 Y500.758 Z-4.800 F2000.000
G1 X-43.392 Y499.256 Z-4.800 F2000.000
G1 X-55.654 Y497.216 Z-4.800 F2000.000
G1 X-66.939 Y494.671 Z-4.800 F2000.000
G1 X-77.289 Y491.656 Z-4.800 F2000.000
G1 X-86.748 Y488.207 Z-4.800 F2000.000
G1 X-95.354 Y484.357 Z-4.800 F2000.000
G1 X-103.146 Y480.144 Z-4.800 F2000.000
G1 X-110.159 Y475.608 Z-4.800 F2000.000
G1 X-116.428 Y470.789 Z-4.800 F2000.000
G1 X-121.989 Y465.735 Z-4.800 F2000.000
G1 X-126.879 Y460.492 Z-4.800 F2000.000
G1 X-131.127 Y455.124 Z-4.800 F2000.000
G1 X-133.944 Y451.007 Z-4.800 F2000.000
G1 X-136.445 Y446.863 Z-4.800 F2000.000
G1 X-138.649 Y442.713 Z-4.800 F2000.000
G1 X-140.578 Y438.578 Z-4.800 F2000.000
G1 X-142.250 Y434.489 Z-4.800 F2000.000
G3 X-148.857 Y403.355 Z-4.800 I95.832 J-36.605 K0.000 F2000.000
G1 X-148.948 Y400.742 Z-4.800 F2000.000
G1 X-148.935 Y396.461 Z-4.800 F2000.000
G3 X-146.501 Y377.123 Z-4.800 I101.135 J2.909 K0.000 F2000.000
G3 X-142.123 Y361.462 Z-4.800 I145.983 J32.368 K0.000 F2000.000
G3 X-136.868 Y346.633 Z-4.800 I367.756 J121.960 K0.000 F2000.000
G2 X-131.651 Y331.674 Z-4.800 I-451.940 J-166.008 K0.000 F2000.000
G2 X-128.023 Y316.193 Z-4.800 I-101.261 J-31.895 K0.000 F2000.000
G2 X-128.110 Y297.323 Z-4.800 I-62.330 J-9.149 K0.000 F2000.000
G2 X-133.485 Y279.867 Z-4.800 I-67.459 J11.216 K0.000 F2000.000
G2 X-140.632 Y266.969 Z-4.800 I-85.157 J38.756 K0.000 F2000.000
G2 X-145.972 Y259.424 Z-4.800 I-101.660 J66.297 K0.000 F2000.000
G3 X-146.268 Y259.000 Z-4.800 I5.090 J-3.862 K0.000 F2000.000
G3 X-162.169 Y232.528 Z-4.800 I964.702 J-597.478 K0.000 F2000.000
G1 X-167.285 Y223.389 Z-4.800 F2000.000
G1 X-172.191 Y214.066 Z-4.800 F2000.000
G1 X-176.809 Y204.552 Z-4.800 F2000.000
G1 X-181.060 Y194.840 Z-4.800 F2000.000
G1 X-184.863 Y184.924 Z-4.800 F2000.000
G1 X-188.136 Y174.796 Z-4.800 F2000.000
G1 X-190.795 Y164.452 Z-4.800 F2000.000
G1 X-192.754 Y153.890 Z-4.800 F2000.000
G1 X-193.928 Y143.112 Z-4.800 F2000.000
G1 X-194.232 Y132.122 Z-4.800 F2000.000
G1 X-193.590 Y120.984 Z-4.800 F2000.000
G3 X-184.217 Y83.933 Z-4.800 I132.961 J13.926 K0.000 F2000.000
G3 X-170.011 Y56.867 Z-4.800 I155.263 J64.227 K0.000 F2000.000
G1 X-168.566 Y54.829 Z-4.800 F2000.000
G3 X-164.116 Y48.571 Z-4.800 I768.928 J542.114 K0.000 F2000.000
G1 X-157.324 Y41.049 Z-4.800 F2000.000
G1 X-157.198 Y40.924 Z-4.800 F2000.000
G1 X-149.285 Y33.936 Z-4.800 F2000.000
G1 X-140.402 Y27.609 Z-4.800 F2000.000
G1 X-130.568 Y21.933 Z-4.800 F2000.000
G1 X-119.795 Y16.898 Z-4.800 F2000.000
G1 X-108.090 Y12.491 Z-4.800 F2000.000
G1 X-95.454 Y8.699 Z-4.800 F2000.000
G1 X-81.887 Y5.511 Z-4.800 F2000.000
G1 X-67.386 Y2.921 Z-4.800 F2000.000
G1 X-51.947 Y0.921 Z-4.800 F2000.000
G1 X-35.568 Y-0.495 Z-4.800 F2000.000
G1 X-18.245 Y-1.329 Z-4.800 F2000.000
G1 X0.027 Y-1.585 Z-4.800 F2000.000
G1 X18.232 Y-1.268 Z-4.800 F2000.000
G1 X35.496 Y-0.382 Z-4.800 F2000.000
G1 X51.821 Y1.078 Z-4.800 F2000.000
G1 X67.211 Y3.114 Z-4.800 F2000.000
G1 X81.670 Y5.733 Z-4.800 F2000.000
G1 X95.200 Y8.942 Z-4.800 F2000.000
G1 X107.805 Y12.748 Z-4.800 F2000.000
G1 X119.485 Y17.163 Z-4.800 F2000.000
G1 X130.236 Y22.199 Z-4.800 F2000.000
G1 X140.051 Y27.869 Z-4.800 F2000.000
G1 X148.918 Y34.183 Z-4.800 F2000.000
G1 X156.815 Y41.148 Z-4.800 F2000.000
G1 X163.602 Y48.619 Z-4.800 F2000.000
G1 X163.718 Y48.763 Z-4.800 F2000.000
G1 X169.550 Y56.930 Z-4.800 F2000.000
G3 X184.162 Y85.052 Z-4.800 I-138.426 J89.782 K0.000 F2000.000
G3 X192.773 Y118.361 Z-4.800 I-123.422 J49.676 K0.000 F2000.000
G1 X193.092 Y121.250 Z-4.800 F2000.000
G1 X193.702 Y132.431 Z-4.800 F2000.000
G1 X193.357 Y143.409 Z-4.800 F2000.000
G1 X192.143 Y154.175 Z-4.800 F2000.000
G1 X190.142 Y164.726 Z-4.800 F2000.000
G1 X187.440 Y175.061 Z-4.800 F2000.000
G1 X184.121 Y185.184 Z-4.800 F2000.000
G1 X180.267 Y195.100 Z-4.800 F2000.000
G1 X175.959 Y204.816 Z-4.800 F2000.000
G1 X171.277 Y214.339 Z-4.800 F2000.000
G1 X166.299 Y223.677 Z-4.800 F2000.000
G1 X161.102 Y232.836 Z-4.800 F2000.000
G3 X144.783 Y259.565 Z-4.800 I-882.394 J-520.371 K0.000 F2000.000
G2 X135.617 Y273.766 Z-4.800 I93.429 J70.370 K0.000 F2000.000
G2 X129.400 Y288.570 Z-4.800 I71.654 J38.798 K0.000 F2000.000
G2 X126.926 Y311.100 Z-4.800 I59.883 J17.976 K0.000 F2000.000
G2 X129.966 Y327.660 Z-4.800 I84.147 J-6.891 K0.000 F2000.000
G2 X135.770 Y344.959 Z-4.800 I220.138 J-64.225 K0.000 F2000.000
G3 X141.448 Y360.889 Z-4.800 I-958.946 J350.805 K0.000 F2000.000
G3 X146.371 Y378.828 Z-4.800 I-160.758 J53.766 K0.000 F2000.000
G3 X148.183 Y406.124 Z-4.800 I-96.888 J20.138 K0.000 F2000.000
G3 X140.044 Y438.649 Z-4.800 I-103.214 J-8.548 K0.000 F2000.000
G1 X138.109 Y442.786 Z-4.800 F2000.000
G1 X135.899 Y446.938 Z-4.800 F2000.000
G1 X133.392 Y451.083 Z-4.800 F2000.000
G1 X130.558 Y455.212 Z-4.800 F2000.000
G0 X130.558 Y455.212 Z5.000
(Finish operation: RampEntryDressup)
(Begin postamble)
M5
G17 G90
M2
