(Exported by FreeCAD)
(Post Processor: grbl_post)
(Output Time:2024-03-04 17:44:53.042348)
(Begin preamble)
G17 G90
G21
(Begin operation: TC: 1.5)
(Path: TC: 1.5)
(TC: 1.5)
(Begin toolchange)
( M6 T5 )
M3 S24000
(Finish operation: TC: 1.5)
(Begin operation: Fixture)
(Path: Fixture)
G54
(Finish operation: Fixture)
(Begin operation: Pocket_Shape)
(Path: Pocket_Shape)
(Pocket_Shape)
G0 Z12.000
G0 X0.154 Y92.273
G0 Z10.000
G1 X0.154 Y92.273 Z6.260 F200.000
G3 X0.097 Y92.280 Z6.260 I-0.034 J-0.038 K0.000 F1000.000
G3 X-0.345 Y92.271 Z6.260 I-0.192 J-1.400 K0.000 F1000.000
G3 X-0.354 Y92.212 Z6.260 I0.025 J-0.034 K0.000 F1000.000
G1 X-0.354 Y81.829 Z6.260 F1000.000
G3 X-0.286 Y81.760 Z6.260 I0.045 J-0.023 K0.000 F1000.000
G3 X0.156 Y81.770 Z6.260 I0.192 J1.400 K0.000 F1000.000
G3 X0.166 Y81.829 Z6.260 I-0.025 J0.034 K0.000 F1000.000
G1 X0.166 Y92.212 Z6.260 F1000.000
G3 X0.154 Y92.273 Z6.260 I-0.045 J0.023 K0.000 F1000.000
G1 X0.154 Y92.273 Z5.520 F200.000
G3 X0.097 Y92.280 Z5.520 I-0.034 J-0.038 K0.000 F1000.000
G3 X-0.345 Y92.271 Z5.520 I-0.192 J-1.400 K0.000 F1000.000
G3 X-0.354 Y92.212 Z5.520 I0.025 J-0.034 K0.000 F1000.000
G1 X-0.354 Y81.829 Z5.520 F1000.000
G3 X-0.286 Y81.760 Z5.520 I0.045 J-0.023 K0.000 F1000.000
G3 X0.156 Y81.770 Z5.520 I0.192 J1.400 K0.000 F1000.000
G3 X0.166 Y81.829 Z5.520 I-0.025 J0.034 K0.000 F1000.000
G1 X0.166 Y92.212 Z5.520 F1000.000
G3 X0.154 Y92.273 Z5.520 I-0.045 J0.023 K0.000 F1000.000
G1 X0.154 Y92.273 Z4.780 F200.000
G3 X0.097 Y92.280 Z4.780 I-0.034 J-0.038 K0.000 F1000.000
G3 X-0.345 Y92.271 Z4.780 I-0.192 J-1.400 K0.000 F1000.000
G3 X-0.354 Y92.212 Z4.780 I0.025 J-0.034 K0.000 F1000.000
G1 X-0.354 Y81.829 Z4.780 F1000.000
G3 X-0.286 Y81.760 Z4.780 I0.045 J-0.023 K0.000 F1000.000
G3 X0.156 Y81.770 Z4.780 I0.192 J1.400 K0.000 F1000.000
G3 X0.166 Y81.829 Z4.780 I-0.025 J0.034 K0.000 F1000.000
G1 X0.166 Y92.212 Z4.780 F1000.000
G3 X0.154 Y92.273 Z4.780 I-0.045 J0.023 K0.000 F1000.000
G1 X0.154 Y92.273 Z4.040 F200.000
G3 X0.097 Y92.280 Z4.040 I-0.034 J-0.038 K0.000 F1000.000
G3 X-0.345 Y92.271 Z4.040 I-0.192 J-1.400 K0.000 F1000.000
G3 X-0.354 Y92.212 Z4.040 I0.025 J-0.034 K0.000 F1000.000
G1 X-0.354 Y81.829 Z4.040 F1000.000
G3 X-0.286 Y81.760 Z4.040 I0.045 J-0.023 K0.000 F1000.000
G3 X0.156 Y81.770 Z4.040 I0.192 J1.400 K0.000 F1000.000
G3 X0.166 Y81.829 Z4.040 I-0.025 J0.034 K0.000 F1000.000
G1 X0.166 Y92.212 Z4.040 F1000.000
G3 X0.154 Y92.273 Z4.040 I-0.045 J0.023 K0.000 F1000.000
G1 X0.154 Y92.273 Z4.000 F200.000
G3 X0.097 Y92.280 Z4.000 I-0.034 J-0.038 K0.000 F1000.000
G3 X-0.345 Y92.271 Z4.000 I-0.192 J-1.400 K0.000 F1000.000
G3 X-0.354 Y92.212 Z4.000 I0.025 J-0.034 K0.000 F1000.000
G1 X-0.354 Y81.829 Z4.000 F1000.000
G3 X-0.286 Y81.760 Z4.000 I0.045 J-0.023 K0.000 F1000.000
G3 X0.156 Y81.770 Z4.000 I0.192 J1.400 K0.000 F1000.000
G3 X0.166 Y81.829 Z4.000 I-0.025 J0.034 K0.000 F1000.000
G1 X0.166 Y92.212 Z4.000 F1000.000
G3 X0.154 Y92.273 Z4.000 I-0.045 J0.023 K0.000 F1000.000
G0 Z12.000
G0 Z12.000
G0 X0.154 Y92.273
G0 X-0.088 Y143.187
G0 X-0.088 Y143.187 Z10.000
G1 X-0.088 Y143.187 Z6.260 F200.000
G3 X0.156 Y143.210 Z6.260 I-0.007 J1.413 K0.000 F1000.000
G1 X0.156 Y143.210 Z6.260 F1000.000
G3 X0.166 Y143.269 Z6.260 I-0.053 J0.039 K0.000 F1000.000
G1 X0.166 Y153.652 Z6.260 F1000.000
G3 X0.097 Y153.720 Z6.260 I-0.045 J0.023 K0.000 F1000.000
G3 X-0.345 Y153.711 Z6.260 I-0.192 J-1.400 K0.000 F1000.000
G3 X-0.354 Y153.652 Z6.260 I0.025 J-0.034 K0.000 F1000.000
G1 X-0.354 Y143.269 Z6.260 F1000.000
G3 X-0.286 Y143.200 Z6.260 I0.045 J-0.023 K0.000 F1000.000
G3 X-0.088 Y143.187 Z6.260 I0.192 J1.400 K0.000 F1000.000
G1 X-0.088 Y143.187 Z5.520 F200.000
G3 X0.156 Y143.210 Z5.520 I-0.007 J1.413 K0.000 F1000.000
G1 X0.156 Y143.210 Z5.520 F1000.000
G3 X0.166 Y143.269 Z5.520 I-0.053 J0.039 K0.000 F1000.000
G1 X0.166 Y153.652 Z5.520 F1000.000
G3 X0.097 Y153.720 Z5.520 I-0.045 J0.023 K0.000 F1000.000
G3 X-0.345 Y153.711 Z5.520 I-0.192 J-1.400 K0.000 F1000.000
G3 X-0.354 Y153.652 Z5.520 I0.025 J-0.034 K0.000 F1000.000
G1 X-0.354 Y143.269 Z5.520 F1000.000
G3 X-0.286 Y143.200 Z5.520 I0.045 J-0.023 K0.000 F1000.000
G3 X-0.088 Y143.187 Z5.520 I0.192 J1.400 K0.000 F1000.000
G1 X-0.088 Y143.187 Z4.780 F200.000
G3 X0.156 Y143.210 Z4.780 I-0.007 J1.413 K0.000 F1000.000
G1 X0.156 Y143.210 Z4.780 F1000.000
G3 X0.166 Y143.269 Z4.780 I-0.053 J0.039 K0.000 F1000.000
G1 X0.166 Y153.652 Z4.780 F1000.000
G3 X0.097 Y153.720 Z4.780 I-0.045 J0.023 K0.000 F1000.000
G3 X-0.345 Y153.711 Z4.780 I-0.192 J-1.400 K0.000 F1000.000
G3 X-0.354 Y153.652 Z4.780 I0.025 J-0.034 K0.000 F1000.000
G1 X-0.354 Y143.269 Z4.780 F1000.000
G3 X-0.286 Y143.200 Z4.780 I0.045 J-0.023 K0.000 F1000.000
G3 X-0.088 Y143.187 Z4.780 I0.192 J1.400 K0.000 F1000.000
G1 X-0.088 Y143.187 Z4.040 F200.000
G3 X0.156 Y143.210 Z4.040 I-0.007 J1.413 K0.000 F1000.000
G1 X0.156 Y143.210 Z4.040 F1000.000
G3 X0.166 Y143.269 Z4.040 I-0.053 J0.039 K0.000 F1000.000
G1 X0.166 Y153.652 Z4.040 F1000.000
G3 X0.097 Y153.720 Z4.040 I-0.045 J0.023 K0.000 F1000.000
G3 X-0.345 Y153.711 Z4.040 I-0.192 J-1.400 K0.000 F1000.000
G3 X-0.354 Y153.652 Z4.040 I0.025 J-0.034 K0.000 F1000.000
G1 X-0.354 Y143.269 Z4.040 F1000.000
G3 X-0.286 Y143.200 Z4.040 I0.045 J-0.023 K0.000 F1000.000
G3 X-0.088 Y143.187 Z4.040 I0.192 J1.400 K0.000 F1000.000
G1 X-0.088 Y143.187 Z4.000 F200.000
G3 X0.156 Y143.210 Z4.000 I-0.007 J1.413 K0.000 F1000.000
G1 X0.156 Y143.210 Z4.000 F1000.000
G3 X0.166 Y143.269 Z4.000 I-0.053 J0.039 K0.000 F1000.000
G1 X0.166 Y153.652 Z4.000 F1000.000
G3 X0.097 Y153.720 Z4.000 I-0.045 J0.023 K0.000 F1000.000
G3 X-0.345 Y153.711 Z4.000 I-0.192 J-1.400 K0.000 F1000.000
G3 X-0.354 Y153.652 Z4.000 I0.025 J-0.034 K0.000 F1000.000
G1 X-0.354 Y143.269 Z4.000 F1000.000
G3 X-0.286 Y143.200 Z4.000 I0.045 J-0.023 K0.000 F1000.000
G3 X-0.088 Y143.187 Z4.000 I0.192 J1.400 K0.000 F1000.000
G0 Z12.000
G0 Z12.000
G0 X-0.088 Y143.187
G0 X-0.094 Y197.919
G0 X-0.094 Y197.919 Z10.000
G1 X-0.094 Y197.919 Z6.260 F200.000
G3 X0.156 Y197.942 Z6.260 I-0.000 J1.413 K0.000 F1000.000
G1 X0.156 Y197.942 Z6.260 F1000.000
G3 X0.166 Y198.001 Z6.260 I-0.053 J0.039 K0.000 F1000.000
G1 X0.166 Y208.384 Z6.260 F1000.000
G3 X0.097 Y208.453 Z6.260 I-0.045 J0.023 K0.000 F1000.000
G3 X-0.345 Y208.443 Z6.260 I-0.192 J-1.400 K0.000 F1000.000
G3 X-0.354 Y208.384 Z6.260 I0.025 J-0.034 K0.000 F1000.000
G1 X-0.354 Y198.001 Z6.260 F1000.000
G3 X-0.286 Y197.933 Z6.260 I0.045 J-0.023 K0.000 F1000.000
G3 X-0.094 Y197.919 Z6.260 I0.192 J1.400 K0.000 F1000.000
G1 X-0.094 Y197.919 Z5.520 F200.000
G3 X0.156 Y197.942 Z5.520 I-0.000 J1.413 K0.000 F1000.000
G1 X0.156 Y197.942 Z5.520 F1000.000
G3 X0.166 Y198.001 Z5.520 I-0.053 J0.039 K0.000 F1000.000
G1 X0.166 Y208.384 Z5.520 F1000.000
G3 X0.097 Y208.453 Z5.520 I-0.045 J0.023 K0.000 F1000.000
G3 X-0.345 Y208.443 Z5.520 I-0.192 J-1.400 K0.000 F1000.000
G3 X-0.354 Y208.384 Z5.520 I0.025 J-0.034 K0.000 F1000.000
G1 X-0.354 Y198.001 Z5.520 F1000.000
G3 X-0.286 Y197.933 Z5.520 I0.045 J-0.023 K0.000 F1000.000
G3 X-0.094 Y197.919 Z5.520 I0.192 J1.400 K0.000 F1000.000
G1 X-0.094 Y197.919 Z4.780 F200.000
G3 X0.156 Y197.942 Z4.780 I-0.000 J1.413 K0.000 F1000.000
G1 X0.156 Y197.942 Z4.780 F1000.000
G3 X0.166 Y198.001 Z4.780 I-0.053 J0.039 K0.000 F1000.000
G1 X0.166 Y208.384 Z4.780 F1000.000
G3 X0.097 Y208.453 Z4.780 I-0.045 J0.023 K0.000 F1000.000
G3 X-0.345 Y208.443 Z4.780 I-0.192 J-1.400 K0.000 F1000.000
G3 X-0.354 Y208.384 Z4.780 I0.025 J-0.034 K0.000 F1000.000
G1 X-0.354 Y198.001 Z4.780 F1000.000
G3 X-0.286 Y197.933 Z4.780 I0.045 J-0.023 K0.000 F1000.000
G3 X-0.094 Y197.919 Z4.780 I0.192 J1.400 K0.000 F1000.000
G1 X-0.094 Y197.919 Z4.040 F200.000
G3 X0.156 Y197.942 Z4.040 I-0.000 J1.413 K0.000 F1000.000
G1 X0.156 Y197.942 Z4.040 F1000.000
G3 X0.166 Y198.001 Z4.040 I-0.053 J0.039 K0.000 F1000.000
G1 X0.166 Y208.384 Z4.040 F1000.000
G3 X0.097 Y208.453 Z4.040 I-0.045 J0.023 K0.000 F1000.000
G3 X-0.345 Y208.443 Z4.040 I-0.192 J-1.400 K0.000 F1000.000
G3 X-0.354 Y208.384 Z4.040 I0.025 J-0.034 K0.000 F1000.000
G1 X-0.354 Y198.001 Z4.040 F1000.000
G3 X-0.286 Y197.933 Z4.040 I0.045 J-0.023 K0.000 F1000.000
G3 X-0.094 Y197.919 Z4.040 I0.192 J1.400 K0.000 F1000.000
G1 X-0.094 Y197.919 Z4.000 F200.000
G3 X0.156 Y197.942 Z4.000 I-0.000 J1.413 K0.000 F1000.000
G1 X0.156 Y197.942 Z4.000 F1000.000
G3 X0.166 Y198.001 Z4.000 I-0.053 J0.039 K0.000 F1000.000
G1 X0.166 Y208.384 Z4.000 F1000.000
G3 X0.097 Y208.453 Z4.000 I-0.045 J0.023 K0.000 F1000.000
G3 X-0.345 Y208.443 Z4.000 I-0.192 J-1.400 K0.000 F1000.000
G3 X-0.354 Y208.384 Z4.000 I0.025 J-0.034 K0.000 F1000.000
G1 X-0.354 Y198.001 Z4.000 F1000.000
G3 X-0.286 Y197.933 Z4.000 I0.045 J-0.023 K0.000 F1000.000
G3 X-0.094 Y197.919 Z4.000 I0.192 J1.400 K0.000 F1000.000
G0 Z12.000
G0 Z12.000
G0 X-0.094 Y197.919
G0 X-0.094 Y246.677
G0 X-0.094 Y246.677 Z10.000
G1 X-0.094 Y246.677 Z6.260 F200.000
G3 X0.156 Y246.699 Z6.260 I-0.000 J1.413 K0.000 F1000.000
G1 X0.156 Y246.700 Z6.260 F1000.000
G3 X0.166 Y246.758 Z6.260 I-0.053 J0.039 K0.000 F1000.000
G1 X0.166 Y257.142 Z6.260 F1000.000
G3 X0.097 Y257.210 Z6.260 I-0.045 J0.023 K0.000 F1000.000
G3 X-0.345 Y257.201 Z6.260 I-0.192 J-1.400 K0.000 F1000.000
G3 X-0.354 Y257.142 Z6.260 I0.025 J-0.034 K0.000 F1000.000
G1 X-0.354 Y246.758 Z6.260 F1000.000
G3 X-0.286 Y246.690 Z6.260 I0.045 J-0.023 K0.000 F1000.000
G3 X-0.094 Y246.677 Z6.260 I0.192 J1.400 K0.000 F1000.000
G1 X-0.094 Y246.677 Z5.520 F200.000
G3 X0.156 Y246.699 Z5.520 I-0.000 J1.413 K0.000 F1000.000
G1 X0.156 Y246.700 Z5.520 F1000.000
G3 X0.166 Y246.758 Z5.520 I-0.053 J0.039 K0.000 F1000.000
G1 X0.166 Y257.142 Z5.520 F1000.000
G3 X0.097 Y257.210 Z5.520 I-0.045 J0.023 K0.000 F1000.000
G3 X-0.345 Y257.201 Z5.520 I-0.192 J-1.400 K0.000 F1000.000
G3 X-0.354 Y257.142 Z5.520 I0.025 J-0.034 K0.000 F1000.000
G1 X-0.354 Y246.758 Z5.520 F1000.000
G3 X-0.286 Y246.690 Z5.520 I0.045 J-0.023 K0.000 F1000.000
G3 X-0.094 Y246.677 Z5.520 I0.192 J1.400 K0.000 F1000.000
G1 X-0.094 Y246.677 Z4.780 F200.000
G3 X0.156 Y246.699 Z4.780 I-0.000 J1.413 K0.000 F1000.000
G1 X0.156 Y246.700 Z4.780 F1000.000
G3 X0.166 Y246.758 Z4.780 I-0.053 J0.039 K0.000 F1000.000
G1 X0.166 Y257.142 Z4.780 F1000.000
G3 X0.097 Y257.210 Z4.780 I-0.045 J0.023 K0.000 F1000.000
G3 X-0.345 Y257.201 Z4.780 I-0.192 J-1.400 K0.000 F1000.000
G3 X-0.354 Y257.142 Z4.780 I0.025 J-0.034 K0.000 F1000.000
G1 X-0.354 Y246.758 Z4.780 F1000.000
G3 X-0.286 Y246.690 Z4.780 I0.045 J-0.023 K0.000 F1000.000
G3 X-0.094 Y246.677 Z4.780 I0.192 J1.400 K0.000 F1000.000
G1 X-0.094 Y246.677 Z4.040 F200.000
G3 X0.156 Y246.699 Z4.040 I-0.000 J1.413 K0.000 F1000.000
G1 X0.156 Y246.700 Z4.040 F1000.000
G3 X0.166 Y246.758 Z4.040 I-0.053 J0.039 K0.000 F1000.000
G1 X0.166 Y257.142 Z4.040 F1000.000
G3 X0.097 Y257.210 Z4.040 I-0.045 J0.023 K0.000 F1000.000
G3 X-0.345 Y257.201 Z4.040 I-0.192 J-1.400 K0.000 F1000.000
G3 X-0.354 Y257.142 Z4.040 I0.025 J-0.034 K0.000 F1000.000
G1 X-0.354 Y246.758 Z4.040 F1000.000
G3 X-0.286 Y246.690 Z4.040 I0.045 J-0.023 K0.000 F1000.000
G3 X-0.094 Y246.677 Z4.040 I0.192 J1.400 K0.000 F1000.000
G1 X-0.094 Y246.677 Z4.000 F200.000
G3 X0.156 Y246.699 Z4.000 I-0.000 J1.413 K0.000 F1000.000
G1 X0.156 Y246.700 Z4.000 F1000.000
G3 X0.166 Y246.758 Z4.000 I-0.053 J0.039 K0.000 F1000.000
G1 X0.166 Y257.142 Z4.000 F1000.000
G3 X0.097 Y257.210 Z4.000 I-0.045 J0.023 K0.000 F1000.000
G3 X-0.345 Y257.201 Z4.000 I-0.192 J-1.400 K0.000 F1000.000
G3 X-0.354 Y257.142 Z4.000 I0.025 J-0.034 K0.000 F1000.000
G1 X-0.354 Y246.758 Z4.000 F1000.000
G3 X-0.286 Y246.690 Z4.000 I0.045 J-0.023 K0.000 F1000.000
G3 X-0.094 Y246.677 Z4.000 I0.192 J1.400 K0.000 F1000.000
G0 Z12.000
G0 Z12.000
G0 X-0.094 Y246.677
G0 X2.708 Y310.435
G0 X2.708 Y310.435 Z10.000
G1 X2.708 Y310.435 Z6.260 F200.000
G3 X2.720 Y310.437 Z6.260 I0.001 J0.025 K0.000 F1000.000
G1 X9.331 Y310.437 Z6.260 F1000.000
G3 X9.661 Y310.573 Z6.260 I0.017 J0.432 K0.000 F1000.000
G1 X13.083 Y313.927 Z6.260 F1000.000
G3 X13.248 Y314.320 Z6.260 I-0.344 J0.375 K0.000 F1000.000
G1 X13.248 Y321.394 Z6.260 F1000.000
G2 X14.352 Y322.498 Z6.260 I1.116 J-0.012 K0.000 F1000.000
G1 X17.473 Y322.498 Z6.260 F1000.000
G2 X18.661 Y321.309 Z6.260 I-0.014 J-1.202 K0.000 F1000.000
G1 X18.661 Y314.431 Z6.260 F1000.000
G1 X21.510 Y314.431 Z6.260 F1000.000
G3 X21.555 Y314.475 Z6.260 I0.015 J0.029 K0.000 F1000.000
G1 X21.555 Y325.471 Z6.260 F1000.000
G1 X18.581 Y325.471 Z6.260 F1000.000
G2 X17.481 Y326.571 Z6.260 I0.012 J1.111 K0.000 F1000.000
G1 X17.481 Y329.604 Z6.260 F1000.000
G3 X17.461 Y329.625 Z6.260 I-0.013 J0.007 K0.000 F1000.000
G1 X14.168 Y329.625 Z6.260 F1000.000
G2 X13.088 Y330.704 Z6.260 I0.011 J1.091 K0.000 F1000.000
G1 X13.088 Y333.538 Z6.260 F1000.000
G1 X10.478 Y333.538 Z6.260 F1000.000
G2 X9.790 Y335.053 Z6.260 I0.000 J0.913 K0.000 F1000.000
G1 X13.060 Y338.791 Z6.260 F1000.000
G3 X13.088 Y338.865 Z6.260 I-0.053 J0.063 K0.000 F1000.000
G1 X13.088 Y341.765 Z6.260 F1000.000
G1 X10.392 Y341.765 Z6.260 F1000.000
G3 X10.278 Y341.718 Z6.260 I-0.014 J-0.129 K0.000 F1000.000
G1 X6.316 Y337.829 Z6.260 F1000.000
G3 X6.281 Y337.745 Z6.260 I0.050 J-0.070 K0.000 F1000.000
G1 X6.281 Y334.682 Z6.260 F1000.000
G2 X5.138 Y333.538 Z6.260 I-1.156 J0.013 K0.000 F1000.000
G1 X-5.327 Y333.538 Z6.260 F1000.000
G2 X-6.470 Y334.682 Z6.260 I0.013 J1.156 K0.000 F1000.000
G1 X-6.470 Y337.745 Z6.260 F1000.000
G3 X-6.505 Y337.829 Z6.260 I-0.085 J0.013 K0.000 F1000.000
G1 X-10.466 Y341.718 Z6.260 F1000.000
G3 X-10.581 Y341.765 Z6.260 I-0.100 J-0.082 K0.000 F1000.000
G1 X-13.277 Y341.765 Z6.260 F1000.000
G1 X-13.277 Y338.865 Z6.260 F1000.000
G3 X-13.249 Y338.791 Z6.260 I0.082 J-0.012 K0.000 F1000.000
G1 X-9.979 Y335.053 Z6.260 F1000.000
G2 X-10.666 Y333.538 Z6.260 I-0.688 J-0.601 K0.000 F1000.000
G1 X-13.277 Y333.538 Z6.260 F1000.000
G1 X-13.277 Y330.704 Z6.260 F1000.000
G2 X-14.357 Y329.625 Z6.260 I-1.091 J0.011 K0.000 F1000.000
G1 X-17.650 Y329.625 Z6.260 F1000.000
G3 X-17.673 Y329.601 Z6.260 I-0.008 J-0.016 K0.000 F1000.000
G1 X-17.673 Y326.571 Z6.260 F1000.000
G2 X-18.773 Y325.471 Z6.260 I-1.111 J0.012 K0.000 F1000.000
G1 X-21.743 Y325.471 Z6.260 F1000.000
G1 X-21.743 Y314.475 Z6.260 F1000.000
G3 X-21.699 Y314.431 Z6.260 I0.029 J-0.015 K0.000 F1000.000
G1 X-18.853 Y314.431 Z6.260 F1000.000
G1 X-18.853 Y321.309 Z6.260 F1000.000
G2 X-17.665 Y322.498 Z6.260 I1.202 J-0.014 K0.000 F1000.000
G1 X-14.541 Y322.498 Z6.260 F1000.000
G2 X-13.437 Y321.394 Z6.260 I-0.012 J-1.116 K0.000 F1000.000
G1 X-13.437 Y314.320 Z6.260 F1000.000
G3 X-13.272 Y313.927 Z6.260 I0.509 J-0.017 K0.000 F1000.000
G1 X-9.850 Y310.576 Z6.260 F1000.000
G3 X-9.520 Y310.441 Z6.260 I0.314 J0.297 K0.000 F1000.000
G1 X-2.909 Y310.441 Z6.260 F1000.000
G3 X-2.879 Y310.471 Z6.260 I0.010 J0.020 K0.000 F1000.000
G1 X-2.879 Y313.251 Z6.260 F1000.000
G1 X-9.697 Y313.251 Z6.260 F1000.000
G2 X-10.863 Y314.417 Z6.260 I0.013 J1.179 K0.000 F1000.000
G1 X-10.863 Y317.420 Z6.260 F1000.000
G2 X-9.778 Y318.504 Z6.260 I1.096 J-0.011 K0.000 F1000.000
G1 X9.590 Y318.504 Z6.260 F1000.000
G2 X10.674 Y317.420 Z6.260 I-0.011 J-1.096 K0.000 F1000.000
G1 X10.674 Y314.417 Z6.260 F1000.000
G2 X9.508 Y313.251 Z6.260 I-1.179 J0.013 K0.000 F1000.000
G1 X2.687 Y313.251 Z6.260 F1000.000
G1 X2.687 Y310.471 Z6.260 F1000.000
G3 X2.708 Y310.435 Z6.260 I0.022 J-0.011 K0.000 F1000.000
G0 Z12.000
G0 X3.427 Y311.177 Z12.000
G0 X3.427 Y311.177 Z10.000
G1 X3.427 Y311.177 Z6.260 F200.000
G1 X9.222 Y311.177 Z6.260 F1000.000
G1 X12.508 Y314.400 Z6.260 F1000.000
G1 X12.508 Y321.394 Z6.260 F1000.000
G2 X14.352 Y323.238 Z6.260 I1.844 J-0.000 K0.000 F1000.000
G1 X17.473 Y323.238 Z6.260 F1000.000
G2 X19.401 Y321.309 Z6.260 I-0.000 J-1.929 K0.000 F1000.000
G1 X19.401 Y315.171 Z6.260 F1000.000
G1 X20.815 Y315.171 Z6.260 F1000.000
G1 X20.815 Y324.731 Z6.260 F1000.000
G1 X18.581 Y324.731 Z6.260 F1000.000
G2 X16.741 Y326.571 Z6.260 I0.000 J1.840 K0.000 F1000.000
G1 X16.741 Y328.885 Z6.260 F1000.000
G1 X14.168 Y328.885 Z6.260 F1000.000
G2 X12.348 Y330.704 Z6.260 I0.000 J1.820 K0.000 F1000.000
G1 X12.348 Y332.798 Z6.260 F1000.000
G1 X10.478 Y332.798 Z6.260 F1000.000
G2 X9.233 Y335.540 Z6.260 I0.003 J1.655 K0.000 F1000.000
G1 X12.348 Y339.101 Z6.260 F1000.000
G1 X12.348 Y341.025 Z6.260 F1000.000
G1 X10.628 Y341.025 Z6.260 F1000.000
G1 X7.021 Y337.484 Z6.260 F1000.000
G1 X7.021 Y334.682 Z6.260 F1000.000
G2 X5.138 Y332.798 Z6.260 I-1.884 J0.000 K0.000 F1000.000
G1 X-5.327 Y332.798 Z6.260 F1000.000
G2 X-7.210 Y334.682 Z6.260 I0.000 J1.884 K0.000 F1000.000
G1 X-7.210 Y337.484 Z6.260 F1000.000
G1 X-10.817 Y341.025 Z6.260 F1000.000
G1 X-12.537 Y341.025 Z6.260 F1000.000
G1 X-12.537 Y339.101 Z6.260 F1000.000
G1 X-9.422 Y335.540 Z6.260 F1000.000
G2 X-10.666 Y332.798 Z6.260 I-1.248 J-1.087 K0.000 F1000.000
G1 X-12.537 Y332.798 Z6.260 F1000.000
G1 X-12.537 Y330.704 Z6.260 F1000.000
G2 X-14.357 Y328.885 Z6.260 I-1.820 J0.000 K0.000 F1000.000
G1 X-16.933 Y328.885 Z6.260 F1000.000
G1 X-16.933 Y326.571 Z6.260 F1000.000
G2 X-18.773 Y324.731 Z6.260 I-1.840 J0.000 K0.000 F1000.000
G1 X-21.003 Y324.731 Z6.260 F1000.000
G1 X-21.003 Y315.171 Z6.260 F1000.000
G1 X-19.593 Y315.171 Z6.260 F1000.000
G1 X-19.593 Y321.309 Z6.260 F1000.000
G2 X-17.665 Y323.238 Z6.260 I1.929 J-0.000 K0.000 F1000.000
G1 X-14.541 Y323.238 Z6.260 F1000.000
G2 X-12.697 Y321.394 Z6.260 I-0.000 J-1.844 K0.000 F1000.000
G1 X-12.697 Y314.400 Z6.260 F1000.000
G1 X-9.411 Y311.181 Z6.260 F1000.000
G1 X-3.619 Y311.181 Z6.260 F1000.000
G1 X-3.619 Y312.511 Z6.260 F1000.000
G1 X-9.697 Y312.511 Z6.260 F1000.000
G2 X-11.603 Y314.417 Z6.260 I0.000 J1.906 K0.000 F1000.000
G1 X-11.603 Y317.420 Z6.260 F1000.000
G2 X-9.778 Y319.244 Z6.260 I1.825 J-0.000 K0.000 F1000.000
G1 X9.590 Y319.244 Z6.260 F1000.000
G2 X11.414 Y317.420 Z6.260 I-0.000 J-1.825 K0.000 F1000.000
G1 X11.414 Y314.417 Z6.260 F1000.000
G2 X9.508 Y312.511 Z6.260 I-1.906 J0.000 K0.000 F1000.000
G1 X3.427 Y312.511 Z6.260 F1000.000
G1 X3.427 Y311.177 Z6.260 F1000.000
G0 Z12.000
G0 Y319.984 Z12.000
G0 Y319.984 Z10.000
G1 X3.427 Y319.984 Z6.260 F200.000
G1 X9.590 Y319.984 Z6.260 F1000.000
G2 X11.768 Y318.759 Z6.260 I-0.011 J-2.569 K0.000 F1000.000
G1 X11.768 Y321.394 Z6.260 F1000.000
G2 X14.352 Y323.978 Z6.260 I2.584 J-0.000 K0.000 F1000.000
G1 X17.473 Y323.978 Z6.260 F1000.000
G2 X20.075 Y321.863 Z6.260 I0.009 J-2.647 K0.000 F1000.000
G1 X20.075 Y323.991 Z6.260 F1000.000
G1 X18.581 Y323.991 Z6.260 F1000.000
G2 X16.001 Y326.571 Z6.260 I0.000 J2.579 K0.000 F1000.000
G1 X16.001 Y328.145 Z6.260 F1000.000
G1 X14.168 Y328.145 Z6.260 F1000.000
G2 X11.999 Y329.359 Z6.260 I0.012 J2.566 K0.000 F1000.000
G1 X11.999 Y326.510 Z6.260 F1000.000
G2 X9.529 Y324.040 Z6.260 I-2.470 J0.000 K0.000 F1000.000
G1 X6.189 Y324.040 Z6.260 F1000.000
G2 X3.719 Y326.510 Z6.260 I0.000 J2.470 K0.000 F1000.000
G1 X3.719 Y329.719 Z6.260 F1000.000
G2 X5.586 Y332.104 Z6.260 I2.465 J-0.006 K0.000 F1000.000
G2 X5.138 Y332.058 Z6.260 I-0.456 J2.252 K0.000 F1000.000
G1 X-5.327 Y332.058 Z6.260 F1000.000
G2 X-5.765 Y332.102 Z6.260 I0.003 J2.248 K0.000 F1000.000
G2 X-3.908 Y329.719 Z6.260 I-0.609 J-2.390 K0.000 F1000.000
G1 X-3.908 Y326.510 Z6.260 F1000.000
G2 X-6.378 Y324.040 Z6.260 I-2.470 J0.000 K0.000 F1000.000
G1 X-9.718 Y324.040 Z6.260 F1000.000
G2 X-12.188 Y326.510 Z6.260 I0.000 J2.470 K0.000 F1000.000
G1 X-12.188 Y329.359 Z6.260 F1000.000
G2 X-14.357 Y328.145 Z6.260 I-2.182 J1.354 K0.000 F1000.000
G1 X-16.193 Y328.145 Z6.260 F1000.000
G1 X-16.193 Y326.571 Z6.260 F1000.000
G2 X-18.773 Y323.991 Z6.260 I-2.579 J0.000 K0.000 F1000.000
G1 X-20.263 Y323.991 Z6.260 F1000.000
G1 X-20.263 Y321.880 Z6.260 F1000.000
G2 X-17.665 Y323.978 Z6.260 I2.614 J-0.579 K0.000 F1000.000
G1 X-14.541 Y323.978 Z6.260 F1000.000
G2 X-11.957 Y321.394 Z6.260 I-0.000 J-2.584 K0.000 F1000.000
G1 X-11.957 Y318.757 Z6.260 F1000.000
G2 X-9.778 Y319.984 Z6.260 I2.191 J-1.343 K0.000 F1000.000
G1 X3.427 Y319.984 Z6.260 F1000.000
G0 Z12.000
G0 Y320.724 Z12.000
G0 Y320.724 Z10.000
G1 X3.427 Y320.724 Z6.260 F200.000
G1 X9.590 Y320.724 Z6.260 F1000.000
G2 X11.028 Y320.372 Z6.260 I-0.010 J-3.157 K0.000 F1000.000
G2 X11.085 Y321.971 Z6.260 I8.146 J0.511 K0.000 F1000.000
G2 X14.352 Y324.718 Z6.260 I3.281 J-0.586 K0.000 F1000.000
G1 X15.835 Y324.718 Z6.260 F1000.000
G2 X15.261 Y326.571 Z6.260 I2.831 J1.891 K0.000 F1000.000
G1 X15.261 Y327.405 Z6.260 F1000.000
G2 X13.590 Y327.461 Z6.260 I-0.547 J8.511 K0.000 F1000.000
G2 X12.739 Y327.753 Z6.260 I0.244 J2.107 K0.000 F1000.000
G2 X12.682 Y325.933 Z6.260 I-9.265 J-0.621 K0.000 F1000.000
G2 X9.529 Y323.300 Z6.260 I-3.163 J0.584 K0.000 F1000.000
G1 X6.189 Y323.300 Z6.260 F1000.000
G2 X2.979 Y326.510 Z6.260 I0.000 J3.210 K0.000 F1000.000
G1 X2.979 Y329.719 Z6.260 F1000.000
G2 X3.425 Y331.318 Z6.260 I3.139 J-0.013 K0.000 F1000.000
G1 X-3.607 Y331.318 Z6.260 F1000.000
G1 X-3.454 Y331.043 Z6.260 F1000.000
G2 X-3.168 Y329.719 Z6.260 I-3.131 J-1.369 K0.000 F1000.000
G1 X-3.168 Y326.510 Z6.260 F1000.000
G2 X-6.378 Y323.300 Z6.260 I-3.210 J0.000 K0.000 F1000.000
G1 X-9.718 Y323.300 Z6.260 F1000.000
G2 X-12.928 Y326.510 Z6.260 I0.000 J3.210 K0.000 F1000.000
G1 X-12.928 Y327.737 Z6.260 F1000.000
G1 X-12.998 Y327.697 Z6.260 F1000.000
G2 X-14.357 Y327.405 Z6.260 I-1.419 J3.288 K0.000 F1000.000
G1 X-15.453 Y327.405 Z6.260 F1000.000
G2 X-15.510 Y325.993 Z6.260 I-7.194 J-0.417 K0.000 F1000.000
G2 X-16.027 Y324.718 Z6.260 I-3.013 J0.478 K0.000 F1000.000
G1 X-14.541 Y324.718 Z6.260 F1000.000
G2 X-11.217 Y321.394 Z6.260 I-0.000 J-3.324 K0.000 F1000.000
G1 X-11.217 Y320.387 Z6.260 F1000.000
G1 X-11.139 Y320.431 Z6.260 F1000.000
G2 X-9.778 Y320.724 Z6.260 I1.422 J-3.297 K0.000 F1000.000
G1 X3.427 Y320.724 Z6.260 F1000.000
G0 Z12.000
G0 Y321.464 Z12.000
G0 Y321.464 Z10.000
G1 X3.427 Y321.464 Z6.260 F200.000
G1 X9.590 Y321.464 Z6.260 F1000.000
G1 X10.288 Y321.396 Z6.260 F1000.000
G2 X10.507 Y322.691 Z6.260 I4.251 J-0.053 K0.000 F1000.000
G2 X9.529 Y322.560 Z6.260 I-0.990 J3.683 K0.000 F1000.000
G1 X6.189 Y322.560 Z6.260 F1000.000
G2 X2.239 Y326.510 Z6.260 I0.003 J3.953 K0.000 F1000.000
G1 X2.239 Y329.719 Z6.260 F1000.000
G2 X2.329 Y330.536 Z6.260 I4.195 J-0.049 K0.000 F1000.000
G1 X2.341 Y330.578 Z6.260 F1000.000
G1 X-2.528 Y330.578 Z6.260 F1000.000
G2 X-2.428 Y329.719 Z6.260 I-3.715 J-0.871 K0.000 F1000.000
G1 X-2.428 Y326.510 Z6.260 F1000.000
G2 X-6.378 Y322.560 Z6.260 I-3.953 J0.003 K0.000 F1000.000
G1 X-9.718 Y322.560 Z6.260 F1000.000
G2 X-10.698 Y322.696 Z6.260 I-0.071 J3.112 K0.000 F1000.000
G2 X-10.477 Y321.396 Z6.260 I-4.038 J-1.353 K0.000 F1000.000
G1 X-9.778 Y321.464 Z6.260 F1000.000
G1 X3.427 Y321.464 Z6.260 F1000.000
G0 Z12.000
G0 Y322.204 Z12.000
G0 Y322.204 Z10.000
G1 X3.427 Y322.204 Z6.260 F200.000
G1 X4.355 Y322.204 Z6.260 F1000.000
G2 X1.499 Y326.510 Z6.260 I1.826 J4.312 K0.000 F1000.000
G1 X1.499 Y329.719 Z6.260 F1000.000
G1 X1.511 Y329.838 Z6.260 F1000.000
G1 X-1.699 Y329.838 Z6.260 F1000.000
G1 X-1.688 Y329.719 Z6.260 F1000.000
G1 X-1.688 Y326.510 Z6.260 F1000.000
G2 X-4.543 Y322.204 Z6.260 I-4.684 J0.006 K0.000 F1000.000
G1 X3.427 Y322.204 Z6.260 F1000.000
G0 Z12.000
G0 X2.104 Y322.944 Z12.000
G0 X2.104 Y322.944 Z10.000
G1 X2.104 Y322.944 Z6.260 F200.000
G2 X0.759 Y326.510 Z6.260 I4.034 J3.558 K0.000 F1000.000
G1 X0.759 Y329.098 Z6.260 F1000.000
G1 X-0.948 Y329.098 Z6.260 F1000.000
G1 X-0.948 Y326.510 Z6.260 F1000.000
G2 X-2.284 Y322.944 Z6.260 I-5.425 J-0.000 K0.000 F1000.000
G1 X2.104 Y322.944 Z6.260 F1000.000
G0 Z12.000
G0 X0.707 Y323.684 Z12.000
G0 X0.707 Y323.684 Z10.000
G1 X0.707 Y323.684 Z6.260 F200.000
G2 X0.019 Y326.510 Z6.260 I5.609 J2.862 K0.000 F1000.000
G1 X0.019 Y328.358 Z6.260 F1000.000
G1 X-0.208 Y328.358 Z6.260 F1000.000
G2 X-0.246 Y325.836 Z6.260 I-22.077 J-0.924 K0.000 F1000.000
G2 X-0.914 Y323.684 Z6.260 I-5.576 J0.552 K0.000 F1000.000
G1 X0.707 Y323.684 Z6.260 F1000.000
G0 Z12.000
G0 X0.134 Y324.054 Z12.000
G0 X0.134 Y324.054 Z10.000
G1 X0.134 Y324.054 Z6.260 F200.000
G2 X-0.096 Y324.729 Z6.260 I2.877 J1.358 K0.000 F1000.000
G2 X-0.326 Y324.054 Z6.260 I-3.106 J0.682 K0.000 F1000.000
G1 X0.134 Y324.054 Z6.260 F1000.000
G0 Z12.000
G0 X4.586 Y325.860 Z12.000
G0 X4.586 Y325.860 Z10.000
G1 X4.586 Y325.860 Z6.260 F200.000
G3 X6.189 Y324.780 Z6.260 I1.603 J0.650 K0.000 F1000.000
G1 X9.529 Y324.780 Z6.260 F1000.000
G3 X11.259 Y326.510 Z6.260 I-0.000 J1.730 K0.000 F1000.000
G1 X11.259 Y329.719 Z6.260 F1000.000
G3 X9.529 Y331.449 Z6.260 I-1.730 J-0.000 K0.000 F1000.000
G1 X6.189 Y331.449 Z6.260 F1000.000
G3 X4.459 Y329.719 Z6.260 I0.000 J-1.730 K0.000 F1000.000
G1 X4.459 Y326.510 Z6.260 F1000.000
G3 X4.586 Y325.860 Z6.260 I1.730 J0.000 K0.000 F1000.000
G0 Z12.000
G0 X5.273 Y326.141 Z12.000
G0 X5.273 Y326.141 Z10.000
G1 X5.273 Y326.141 Z6.260 F200.000
G3 X6.189 Y325.520 Z6.260 I0.925 J0.378 K0.000 F1000.000
G1 X9.529 Y325.520 Z6.260 F1000.000
G3 X10.519 Y326.510 Z6.260 I-0.009 J0.999 K0.000 F1000.000
G1 X10.519 Y329.719 Z6.260 F1000.000
G3 X9.529 Y330.709 Z6.260 I-0.999 J-0.009 K0.000 F1000.000
G1 X6.189 Y330.709 Z6.260 F1000.000
G3 X5.199 Y329.719 Z6.260 I0.009 J-0.999 K0.000 F1000.000
G1 X5.199 Y326.510 Z6.260 F1000.000
G3 X5.273 Y326.141 Z6.260 I0.999 J0.009 K0.000 F1000.000
G0 Z12.000
G0 X5.779 Y332.148 Z12.000
G0 X5.779 Y332.148 Z10.000
G1 X5.779 Y332.148 Z6.260 F200.000
G1 X6.189 Y332.189 Z6.260 F1000.000
G1 X9.529 Y332.189 Z6.260 F1000.000
G1 X9.808 Y332.161 Z6.260 F1000.000
G2 X8.676 Y336.028 Z6.260 I0.675 J2.297 K0.000 F1000.000
G1 X11.608 Y339.379 Z6.260 F1000.000
G1 X11.608 Y340.285 Z6.260 F1000.000
G1 X10.931 Y340.285 Z6.260 F1000.000
G1 X7.761 Y337.173 Z6.260 F1000.000
G1 X7.761 Y334.682 Z6.260 F1000.000
G2 X5.779 Y332.148 Z6.260 I-2.625 J0.012 K0.000 F1000.000
G0 Z12.000
G0 X10.203 Y332.084 Z12.000
G0 X10.203 Y332.084 Z10.000
G1 X10.203 Y332.084 Z6.260 F200.000
G2 X11.608 Y331.042 Z6.260 I-0.601 J-2.280 K0.000 F1000.000
G1 X11.608 Y332.058 Z6.260 F1000.000
G2 X10.203 Y332.084 Z6.260 I-0.565 J7.598 K0.000 F1000.000
G0 Z12.000
G0 X13.479 Y326.732 Z12.000
G0 X13.479 Y326.732 Z10.000
G1 X13.479 Y326.732 Z6.260 F200.000
G2 X13.282 Y325.307 Z6.260 I-4.018 J-0.172 K0.000 F1000.000
G2 X14.683 Y325.458 Z6.260 I1.173 J-4.288 K0.000 F1000.000
G2 X14.521 Y326.665 Z6.260 I4.135 J1.170 K0.000 F1000.000
G2 X13.479 Y326.732 Z6.260 I-0.177 J5.328 K0.000 F1000.000
G0 Z12.000
G0 X-4.648 Z12.000
G0 X-4.648 Z10.000
G1 X-4.648 Y326.732 Z6.260 F200.000
G1 X-4.648 Y329.719 Z6.260 F1000.000
G3 X-6.378 Y331.449 Z6.260 I-1.730 J-0.000 K0.000 F1000.000
G1 X-9.718 Y331.449 Z6.260 F1000.000
G3 X-11.448 Y329.719 Z6.260 I0.000 J-1.730 K0.000 F1000.000
G1 X-11.448 Y326.510 Z6.260 F1000.000
G3 X-9.718 Y324.780 Z6.260 I1.730 J0.000 K0.000 F1000.000
G1 X-6.378 Y324.780 Z6.260 F1000.000
G3 X-4.648 Y326.510 Z6.260 I-0.000 J1.730 K0.000 F1000.000
G1 X-4.648 Y326.732 Z6.260 F1000.000
G0 Z12.000
G0 X-5.388 Z12.000
G0 X-5.388 Z10.000
G1 X-5.388 Y326.732 Z6.260 F200.000
G1 X-5.388 Y329.719 Z6.260 F1000.000
G3 X-6.378 Y330.709 Z6.260 I-0.999 J-0.009 K0.000 F1000.000
G1 X-9.718 Y330.709 Z6.260 F1000.000
G3 X-10.708 Y329.719 Z6.260 I0.009 J-0.999 K0.000 F1000.000
G1 X-10.708 Y326.510 Z6.260 F1000.000
G3 X-9.718 Y325.520 Z6.260 I0.999 J0.009 K0.000 F1000.000
G1 X-6.378 Y325.520 Z6.260 F1000.000
G3 X-5.388 Y326.510 Z6.260 I-0.009 J0.999 K0.000 F1000.000
G1 X-5.388 Y326.732 Z6.260 F1000.000
G0 Z12.000
G0 X-5.971 Y332.148 Z12.000
G0 X-5.971 Y332.148 Z10.000
G1 X-5.971 Y332.148 Z6.260 F200.000
G2 X-7.950 Y334.682 Z6.260 I0.647 J2.546 K0.000 F1000.000
G1 X-7.950 Y337.173 Z6.260 F1000.000
G1 X-11.119 Y340.285 Z6.260 F1000.000
G1 X-11.797 Y340.285 Z6.260 F1000.000
G1 X-11.797 Y339.379 Z6.260 F1000.000
G1 X-8.865 Y336.028 Z6.260 F1000.000
G2 X-9.997 Y332.161 Z6.260 I-1.794 J-1.574 K0.000 F1000.000
G1 X-9.718 Y332.189 Z6.260 F1000.000
G1 X-6.378 Y332.189 Z6.260 F1000.000
G1 X-5.971 Y332.148 Z6.260 F1000.000
G0 Z12.000
G0 X-10.414 Y332.075 Z12.000
G0 X-10.414 Y332.075 Z10.000
G1 X-10.414 Y332.075 Z6.260 F200.000
G2 X-11.797 Y332.058 Z6.260 I-0.818 J10.341 K0.000 F1000.000
G1 X-11.797 Y331.043 Z6.260 F1000.000
G2 X-10.414 Y332.075 Z6.260 I2.025 J-1.270 K0.000 F1000.000
G0 Z12.000
G0 X-13.668 Y326.732 Z12.000
G0 X-13.668 Y326.732 Z10.000
G1 X-13.668 Y326.732 Z6.260 F200.000
G2 X-14.713 Y326.665 Z6.260 I-0.867 J5.275 K0.000 F1000.000
G2 X-14.882 Y325.458 Z6.260 I-3.893 J-0.072 K0.000 F1000.000
G2 X-13.475 Y325.303 Z6.260 I0.260 J-4.095 K0.000 F1000.000
G2 X-13.668 Y326.732 Z6.260 I4.080 J1.277 K0.000 F1000.000
G1 X-13.668 Y326.732 Z5.520 F200.000
G2 X-14.713 Y326.665 Z5.520 I-0.867 J5.275 K0.000 F1000.000
G2 X-14.882 Y325.458 Z5.520 I-3.893 J-0.072 K0.000 F1000.000
G2 X-13.475 Y325.303 Z5.520 I0.260 J-4.095 K0.000 F1000.000
G2 X-13.668 Y326.732 Z5.520 I4.080 J1.277 K0.000 F1000.000
G0 Z12.000
G0 X-13.796 Y327.458 Z12.000
G0 X-13.796 Y327.458 Z10.000
G1 X-13.796 Y327.458 Z5.520 F200.000
G2 X-14.357 Y327.405 Z5.520 I-0.622 J3.527 K0.000 F1000.000
G1 X-15.453 Y327.405 Z5.520 F1000.000
G2 X-15.510 Y325.993 Z5.520 I-7.194 J-0.417 K0.000 F1000.000
G2 X-16.027 Y324.718 Z5.520 I-3.013 J0.478 K0.000 F1000.000
G1 X-14.541 Y324.718 Z5.520 F1000.000
G2 X-11.217 Y321.394 Z5.520 I-0.000 J-3.324 K0.000 F1000.000
G1 X-11.217 Y320.387 Z5.520 F1000.000
G1 X-11.139 Y320.431 Z5.520 F1000.000
G2 X-9.778 Y320.724 Z5.520 I1.422 J-3.297 K0.000 F1000.000
G1 X9.590 Y320.724 Z5.520 F1000.000
G2 X11.028 Y320.372 Z5.520 I-0.010 J-3.157 K0.000 F1000.000
G2 X11.085 Y321.971 Z5.520 I8.146 J0.511 K0.000 F1000.000
G2 X14.352 Y324.718 Z5.520 I3.281 J-0.586 K0.000 F1000.000
G1 X15.835 Y324.718 Z5.520 F1000.000
G2 X15.261 Y326.571 Z5.520 I2.831 J1.891 K0.000 F1000.000
G1 X15.261 Y327.405 Z5.520 F1000.000
G2 X13.590 Y327.461 Z5.520 I-0.547 J8.511 K0.000 F1000.000
G2 X12.739 Y327.753 Z5.520 I0.244 J2.107 K0.000 F1000.000
G2 X12.682 Y325.933 Z5.520 I-9.265 J-0.621 K0.000 F1000.000
G2 X9.529 Y323.300 Z5.520 I-3.163 J0.584 K0.000 F1000.000
G1 X6.189 Y323.300 Z5.520 F1000.000
G2 X2.979 Y326.510 Z5.520 I0.000 J3.210 K0.000 F1000.000
G1 X2.979 Y329.719 Z5.520 F1000.000
G2 X3.425 Y331.318 Z5.520 I3.139 J-0.013 K0.000 F1000.000
G1 X-3.607 Y331.318 Z5.520 F1000.000
G1 X-3.454 Y331.043 Z5.520 F1000.000
G2 X-3.168 Y329.719 Z5.520 I-3.131 J-1.369 K0.000 F1000.000
G1 X-3.168 Y326.510 Z5.520 F1000.000
G2 X-6.378 Y323.300 Z5.520 I-3.210 J0.000 K0.000 F1000.000
G1 X-9.718 Y323.300 Z5.520 F1000.000
G2 X-12.928 Y326.510 Z5.520 I0.000 J3.210 K0.000 F1000.000
G1 X-12.928 Y327.737 Z5.520 F1000.000
G1 X-12.998 Y327.697 Z5.520 F1000.000
G2 X-13.796 Y327.458 Z5.520 I-1.419 J3.288 K0.000 F1000.000
G0 Z12.000
G0 X-13.924 Y328.184 Z12.000
G0 X-13.924 Y328.184 Z10.000
G1 X-13.924 Y328.184 Z5.520 F200.000
G2 X-14.357 Y328.145 Z5.520 I-0.446 J2.529 K0.000 F1000.000
G1 X-16.193 Y328.145 Z5.520 F1000.000
G1 X-16.193 Y326.571 Z5.520 F1000.000
G2 X-18.773 Y323.991 Z5.520 I-2.579 J0.000 K0.000 F1000.000
G1 X-20.263 Y323.991 Z5.520 F1000.000
G1 X-20.263 Y321.880 Z5.520 F1000.000
G2 X-17.665 Y323.978 Z5.520 I2.614 J-0.579 K0.000 F1000.000
G1 X-14.541 Y323.978 Z5.520 F1000.000
G2 X-11.957 Y321.394 Z5.520 I-0.000 J-2.584 K0.000 F1000.000
G1 X-11.957 Y318.757 Z5.520 F1000.000
G2 X-9.778 Y319.984 Z5.520 I2.191 J-1.343 K0.000 F1000.000
G1 X9.590 Y319.984 Z5.520 F1000.000
G2 X11.768 Y318.759 Z5.520 I-0.011 J-2.569 K0.000 F1000.000
G1 X11.768 Y321.394 Z5.520 F1000.000
G2 X14.352 Y323.978 Z5.520 I2.584 J-0.000 K0.000 F1000.000
G1 X17.473 Y323.978 Z5.520 F1000.000
G2 X20.075 Y321.863 Z5.520 I0.009 J-2.647 K0.000 F1000.000
G1 X20.075 Y323.991 Z5.520 F1000.000
G1 X18.581 Y323.991 Z5.520 F1000.000
G2 X16.001 Y326.571 Z5.520 I0.000 J2.579 K0.000 F1000.000
G1 X16.001 Y328.145 Z5.520 F1000.000
G1 X14.168 Y328.145 Z5.520 F1000.000
G2 X11.999 Y329.359 Z5.520 I0.012 J2.566 K0.000 F1000.000
G1 X11.999 Y326.510 Z5.520 F1000.000
G2 X9.529 Y324.040 Z5.520 I-2.470 J0.000 K0.000 F1000.000
G1 X6.189 Y324.040 Z5.520 F1000.000
G2 X3.719 Y326.510 Z5.520 I0.000 J2.470 K0.000 F1000.000
G1 X3.719 Y329.719 Z5.520 F1000.000
G2 X5.586 Y332.104 Z5.520 I2.465 J-0.006 K0.000 F1000.000
G2 X5.138 Y332.058 Z5.520 I-0.456 J2.252 K0.000 F1000.000
G1 X-5.327 Y332.058 Z5.520 F1000.000
G2 X-5.765 Y332.102 Z5.520 I0.003 J2.248 K0.000 F1000.000
G2 X-3.908 Y329.719 Z5.520 I-0.609 J-2.390 K0.000 F1000.000
G1 X-3.908 Y326.510 Z5.520 F1000.000
G2 X-6.378 Y324.040 Z5.520 I-2.470 J0.000 K0.000 F1000.000
G1 X-9.718 Y324.040 Z5.520 F1000.000
G2 X-12.188 Y326.510 Z5.520 I0.000 J2.470 K0.000 F1000.000
G1 X-12.188 Y329.359 Z5.520 F1000.000
G2 X-13.924 Y328.184 Z5.520 I-2.182 J1.354 K0.000 F1000.000
G0 Z12.000
G0 X-14.049 Y328.911 Z12.000
G0 X-14.049 Y328.911 Z10.000
G1 X-14.049 Y328.911 Z5.520 F200.000
G2 X-14.357 Y328.885 Z5.520 I-0.308 J1.793 K0.000 F1000.000
G1 X-16.933 Y328.885 Z5.520 F1000.000
G1 X-16.933 Y326.571 Z5.520 F1000.000
G2 X-18.773 Y324.731 Z5.520 I-1.840 J0.000 K0.000 F1000.000
G1 X-21.003 Y324.731 Z5.520 F1000.000
G1 X-21.003 Y315.171 Z5.520 F1000.000
G1 X-19.593 Y315.171 Z5.520 F1000.000
G1 X-19.593 Y321.309 Z5.520 F1000.000
G2 X-17.665 Y323.238 Z5.520 I1.929 J-0.000 K0.000 F1000.000
G1 X-14.541 Y323.238 Z5.520 F1000.000
G2 X-12.697 Y321.394 Z5.520 I-0.000 J-1.844 K0.000 F1000.000
G1 X-12.697 Y314.400 Z5.520 F1000.000
G1 X-9.411 Y311.181 Z5.520 F1000.000
G1 X-3.619 Y311.181 Z5.520 F1000.000
G1 X-3.619 Y312.511 Z5.520 F1000.000
G1 X-9.697 Y312.511 Z5.520 F1000.000
G2 X-11.603 Y314.417 Z5.520 I0.000 J1.906 K0.000 F1000.000
G1 X-11.603 Y317.420 Z5.520 F1000.000
G2 X-9.778 Y319.244 Z5.520 I1.825 J-0.000 K0.000 F1000.000
G1 X9.590 Y319.244 Z5.520 F1000.000
G2 X11.414 Y317.420 Z5.520 I-0.000 J-1.825 K0.000 F1000.000
G1 X11.414 Y314.417 Z5.520 F1000.000
G2 X9.508 Y312.511 Z5.520 I-1.906 J0.000 K0.000 F1000.000
G1 X3.427 Y312.511 Z5.520 F1000.000
G1 X3.427 Y311.177 Z5.520 F1000.000
G1 X9.222 Y311.177 Z5.520 F1000.000
G1 X12.508 Y314.400 Z5.520 F1000.000
G1 X12.508 Y321.394 Z5.520 F1000.000
G2 X14.352 Y323.238 Z5.520 I1.844 J-0.000 K0.000 F1000.000
G1 X17.473 Y323.238 Z5.520 F1000.000
G2 X19.401 Y321.309 Z5.520 I-0.000 J-1.929 K0.000 F1000.000
G1 X19.401 Y315.171 Z5.520 F1000.000
G1 X20.815 Y315.171 Z5.520 F1000.000
G1 X20.815 Y324.731 Z5.520 F1000.000
G1 X18.581 Y324.731 Z5.520 F1000.000
G2 X16.741 Y326.571 Z5.520 I0.000 J1.840 K0.000 F1000.000
G1 X16.741 Y328.885 Z5.520 F1000.000
G1 X14.168 Y328.885 Z5.520 F1000.000
G2 X12.348 Y330.704 Z5.520 I0.000 J1.820 K0.000 F1000.000
G1 X12.348 Y332.798 Z5.520 F1000.000
G1 X10.478 Y332.798 Z5.520 F1000.000
G2 X9.233 Y335.540 Z5.520 I0.003 J1.655 K0.000 F1000.000
G1 X12.348 Y339.101 Z5.520 F1000.000
G1 X12.348 Y341.025 Z5.520 F1000.000
G1 X10.628 Y341.025 Z5.520 F1000.000
G1 X7.021 Y337.484 Z5.520 F1000.000
G1 X7.021 Y334.682 Z5.520 F1000.000
G2 X5.138 Y332.798 Z5.520 I-1.884 J0.000 K0.000 F1000.000
G1 X-5.327 Y332.798 Z5.520 F1000.000
G2 X-7.210 Y334.682 Z5.520 I0.000 J1.884 K0.000 F1000.000
G1 X-7.210 Y337.484 Z5.520 F1000.000
G1 X-10.817 Y341.025 Z5.520 F1000.000
G1 X-12.537 Y341.025 Z5.520 F1000.000
G1 X-12.537 Y339.101 Z5.520 F1000.000
G1 X-9.422 Y335.540 Z5.520 F1000.000
G2 X-10.666 Y332.798 Z5.520 I-1.248 J-1.087 K0.000 F1000.000
G1 X-12.537 Y332.798 Z5.520 F1000.000
G1 X-12.537 Y330.704 Z5.520 F1000.000
G2 X-14.049 Y328.911 Z5.520 I-1.820 J0.000 K0.000 F1000.000
G0 Z12.000
G0 X-14.178 Y329.641 Z12.000
G0 X-14.178 Y329.641 Z10.000
G1 X-14.178 Y329.641 Z5.520 F200.000
G2 X-14.357 Y329.625 Z5.520 I-0.190 J1.074 K0.000 F1000.000
G1 X-17.650 Y329.625 Z5.520 F1000.000
G3 X-17.673 Y329.601 Z5.520 I-0.008 J-0.016 K0.000 F1000.000
G1 X-17.673 Y326.571 Z5.520 F1000.000
G2 X-18.773 Y325.471 Z5.520 I-1.111 J0.012 K0.000 F1000.000
G1 X-21.743 Y325.471 Z5.520 F1000.000
G1 X-21.743 Y314.475 Z5.520 F1000.000
G3 X-21.699 Y314.431 Z5.520 I0.029 J-0.015 K0.000 F1000.000
G1 X-18.853 Y314.431 Z5.520 F1000.000
G1 X-18.853 Y321.309 Z5.520 F1000.000
G2 X-17.665 Y322.498 Z5.520 I1.202 J-0.014 K0.000 F1000.000
G1 X-14.541 Y322.498 Z5.520 F1000.000
G2 X-13.437 Y321.394 Z5.520 I-0.012 J-1.116 K0.000 F1000.000
G1 X-13.437 Y314.320 Z5.520 F1000.000
G3 X-13.272 Y313.927 Z5.520 I0.509 J-0.017 K0.000 F1000.000
G1 X-9.850 Y310.576 Z5.520 F1000.000
G3 X-9.520 Y310.441 Z5.520 I0.314 J0.297 K0.000 F1000.000
G1 X-2.909 Y310.441 Z5.520 F1000.000
G3 X-2.879 Y310.471 Z5.520 I0.010 J0.020 K0.000 F1000.000
G1 X-2.879 Y313.251 Z5.520 F1000.000
G1 X-9.697 Y313.251 Z5.520 F1000.000
G2 X-10.863 Y314.417 Z5.520 I0.013 J1.179 K0.000 F1000.000
G1 X-10.863 Y317.420 Z5.520 F1000.000
G2 X-9.778 Y318.504 Z5.520 I1.096 J-0.011 K0.000 F1000.000
G1 X9.590 Y318.504 Z5.520 F1000.000
G2 X10.674 Y317.420 Z5.520 I-0.011 J-1.096 K0.000 F1000.000
G1 X10.674 Y314.417 Z5.520 F1000.000
G2 X9.508 Y313.251 Z5.520 I-1.179 J0.013 K0.000 F1000.000
G1 X2.687 Y313.251 Z5.520 F1000.000
G1 X2.687 Y310.471 Z5.520 F1000.000
G3 X2.720 Y310.437 Z5.520 I0.022 J-0.011 K0.000 F1000.000
G1 X9.331 Y310.437 Z5.520 F1000.000
G3 X9.661 Y310.573 Z5.520 I0.017 J0.432 K0.000 F1000.000
G1 X13.083 Y313.927 Z5.520 F1000.000
G3 X13.248 Y314.320 Z5.520 I-0.344 J0.375 K0.000 F1000.000
G1 X13.248 Y321.394 Z5.520 F1000.000
G2 X14.352 Y322.498 Z5.520 I1.116 J-0.012 K0.000 F1000.000
G1 X17.473 Y322.498 Z5.520 F1000.000
G2 X18.661 Y321.309 Z5.520 I-0.014 J-1.202 K0.000 F1000.000
G1 X18.661 Y314.431 Z5.520 F1000.000
G1 X21.510 Y314.431 Z5.520 F1000.000
G3 X21.555 Y314.475 Z5.520 I0.015 J0.029 K0.000 F1000.000
G1 X21.555 Y325.471 Z5.520 F1000.000
G1 X18.581 Y325.471 Z5.520 F1000.000
G2 X17.481 Y326.571 Z5.520 I0.012 J1.111 K0.000 F1000.000
G1 X17.481 Y329.604 Z5.520 F1000.000
G3 X17.461 Y329.625 Z5.520 I-0.013 J0.007 K0.000 F1000.000
G1 X14.168 Y329.625 Z5.520 F1000.000
G2 X13.088 Y330.704 Z5.520 I0.011 J1.091 K0.000 F1000.000
G1 X13.088 Y333.538 Z5.520 F1000.000
G1 X10.478 Y333.538 Z5.520 F1000.000
G2 X9.790 Y335.053 Z5.520 I0.000 J0.913 K0.000 F1000.000
G1 X13.060 Y338.791 Z5.520 F1000.000
G3 X13.088 Y338.865 Z5.520 I-0.053 J0.063 K0.000 F1000.000
G1 X13.088 Y341.765 Z5.520 F1000.000
G1 X10.392 Y341.765 Z5.520 F1000.000
G3 X10.278 Y341.718 Z5.520 I-0.014 J-0.129 K0.000 F1000.000
G1 X6.316 Y337.829 Z5.520 F1000.000
G3 X6.281 Y337.745 Z5.520 I0.050 J-0.070 K0.000 F1000.000
G1 X6.281 Y334.682 Z5.520 F1000.000
G2 X5.138 Y333.538 Z5.520 I-1.156 J0.013 K0.000 F1000.000
G1 X-5.327 Y333.538 Z5.520 F1000.000
G2 X-6.470 Y334.682 Z5.520 I0.013 J1.156 K0.000 F1000.000
G1 X-6.470 Y337.745 Z5.520 F1000.000
G3 X-6.505 Y337.829 Z5.520 I-0.085 J0.013 K0.000 F1000.000
G1 X-10.466 Y341.718 Z5.520 F1000.000
G3 X-10.581 Y341.765 Z5.520 I-0.100 J-0.082 K0.000 F1000.000
G1 X-13.277 Y341.765 Z5.520 F1000.000
G1 X-13.277 Y338.865 Z5.520 F1000.000
G3 X-13.249 Y338.791 Z5.520 I0.082 J-0.012 K0.000 F1000.000
G1 X-9.979 Y335.053 Z5.520 F1000.000
G2 X-10.666 Y333.538 Z5.520 I-0.688 J-0.601 K0.000 F1000.000
G1 X-13.277 Y333.538 Z5.520 F1000.000
G1 X-13.277 Y330.704 Z5.520 F1000.000
G2 X-14.178 Y329.641 Z5.520 I-1.091 J0.011 K0.000 F1000.000
G0 Z12.000
G0 X-11.448 Z12.000
G0 X-11.448 Z10.000
G1 X-11.448 Y329.641 Z5.520 F200.000
G1 X-11.448 Y326.510 Z5.520 F1000.000
G3 X-9.718 Y324.780 Z5.520 I1.730 J0.000 K0.000 F1000.000
G1 X-6.378 Y324.780 Z5.520 F1000.000
G3 X-4.648 Y326.510 Z5.520 I-0.000 J1.730 K0.000 F1000.000
G1 X-4.648 Y329.719 Z5.520 F1000.000
G3 X-6.378 Y331.449 Z5.520 I-1.730 J-0.000 K0.000 F1000.000
G1 X-9.718 Y331.449 Z5.520 F1000.000
G3 X-11.448 Y329.719 Z5.520 I0.000 J-1.730 K0.000 F1000.000
G1 X-11.448 Y329.641 Z5.520 F1000.000
G0 Z12.000
G0 X-10.708 Z12.000
G0 X-10.708 Z10.000
G1 X-10.708 Y329.641 Z5.520 F200.000
G1 X-10.708 Y326.510 Z5.520 F1000.000
G3 X-9.718 Y325.520 Z5.520 I0.999 J0.009 K0.000 F1000.000
G1 X-6.378 Y325.520 Z5.520 F1000.000
G3 X-5.388 Y326.510 Z5.520 I-0.009 J0.999 K0.000 F1000.000
G1 X-5.388 Y329.719 Z5.520 F1000.000
G3 X-6.378 Y330.709 Z5.520 I-0.999 J-0.009 K0.000 F1000.000
G1 X-9.718 Y330.709 Z5.520 F1000.000
G3 X-10.708 Y329.719 Z5.520 I0.009 J-0.999 K0.000 F1000.000
G1 X-10.708 Y329.641 Z5.520 F1000.000
G0 Z12.000
G0 X-11.797 Y331.043 Z12.000
G0 X-11.797 Y331.043 Z10.000
G1 X-11.797 Y331.043 Z5.520 F200.000
G2 X-10.414 Y332.075 Z5.520 I2.025 J-1.270 K0.000 F1000.000
G2 X-11.797 Y332.058 Z5.520 I-0.818 J10.341 K0.000 F1000.000
G1 X-11.797 Y331.043 Z5.520 F1000.000
G0 Z12.000
G0 X-9.997 Y332.161 Z12.000
G0 X-9.997 Y332.161 Z10.000
G1 X-9.997 Y332.161 Z5.520 F200.000
G1 X-9.718 Y332.189 Z5.520 F1000.000
G1 X-6.378 Y332.189 Z5.520 F1000.000
G1 X-5.971 Y332.148 Z5.520 F1000.000
G2 X-7.950 Y334.682 Z5.520 I0.647 J2.546 K0.000 F1000.000
G1 X-7.950 Y337.173 Z5.520 F1000.000
G1 X-11.119 Y340.285 Z5.520 F1000.000
G1 X-11.797 Y340.285 Z5.520 F1000.000
G1 X-11.797 Y339.379 Z5.520 F1000.000
G1 X-8.865 Y336.028 Z5.520 F1000.000
G2 X-9.997 Y332.161 Z5.520 I-1.794 J-1.574 K0.000 F1000.000
G0 Z12.000
G0 X-2.528 Y330.578 Z12.000
G0 X-2.528 Y330.578 Z10.000
G1 X-2.528 Y330.578 Z5.520 F200.000
G2 X-2.428 Y329.719 Z5.520 I-3.715 J-0.871 K0.000 F1000.000
G1 X-2.428 Y326.510 Z5.520 F1000.000
G2 X-6.378 Y322.560 Z5.520 I-3.953 J0.003 K0.000 F1000.000
G1 X-9.718 Y322.560 Z5.520 F1000.000
G2 X-10.698 Y322.696 Z5.520 I-0.071 J3.112 K0.000 F1000.000
G2 X-10.477 Y321.396 Z5.520 I-4.038 J-1.353 K0.000 F1000.000
G1 X-9.778 Y321.464 Z5.520 F1000.000
G1 X9.590 Y321.464 Z5.520 F1000.000
G1 X10.288 Y321.396 Z5.520 F1000.000
G2 X10.507 Y322.691 Z5.520 I4.251 J-0.053 K0.000 F1000.000
G2 X9.529 Y322.560 Z5.520 I-0.990 J3.683 K0.000 F1000.000
G1 X6.189 Y322.560 Z5.520 F1000.000
G2 X2.239 Y326.510 Z5.520 I0.003 J3.953 K0.000 F1000.000
G1 X2.239 Y329.719 Z5.520 F1000.000
G2 X2.329 Y330.536 Z5.520 I4.195 J-0.049 K0.000 F1000.000
G1 X2.341 Y330.578 Z5.520 F1000.000
G1 X-2.528 Y330.578 Z5.520 F1000.000
G0 Z12.000
G0 X-1.699 Y329.838 Z12.000
G0 X-1.699 Y329.838 Z10.000
G1 X-1.699 Y329.838 Z5.520 F200.000
G1 X-1.688 Y329.719 Z5.520 F1000.000
G1 X-1.688 Y326.510 Z5.520 F1000.000
G2 X-4.543 Y322.204 Z5.520 I-4.684 J0.006 K0.000 F1000.000
G1 X4.355 Y322.204 Z5.520 F1000.000
G2 X1.499 Y326.510 Z5.520 I1.826 J4.312 K0.000 F1000.000
G1 X1.499 Y329.719 Z5.520 F1000.000
G1 X1.511 Y329.838 Z5.520 F1000.000
G1 X-1.699 Y329.838 Z5.520 F1000.000
G0 Z12.000
G0 X-0.948 Y329.098 Z12.000
G0 X-0.948 Y329.098 Z10.000
G1 X-0.948 Y329.098 Z5.520 F200.000
G1 X-0.948 Y326.510 Z5.520 F1000.000
G2 X-2.284 Y322.944 Z5.520 I-5.425 J-0.000 K0.000 F1000.000
G1 X2.104 Y322.944 Z5.520 F1000.000
G2 X0.759 Y326.510 Z5.520 I4.034 J3.558 K0.000 F1000.000
G1 X0.759 Y329.098 Z5.520 F1000.000
G1 X-0.948 Y329.098 Z5.520 F1000.000
G0 Z12.000
G0 X-0.208 Y328.358 Z12.000
G0 X-0.208 Y328.358 Z10.000
G1 X-0.208 Y328.358 Z5.520 F200.000
G2 X-0.246 Y325.836 Z5.520 I-22.077 J-0.924 K0.000 F1000.000
G2 X-0.914 Y323.684 Z5.520 I-5.576 J0.552 K0.000 F1000.000
G1 X0.707 Y323.684 Z5.520 F1000.000
G2 X0.019 Y326.510 Z5.520 I5.609 J2.862 K0.000 F1000.000
G1 X0.019 Y328.358 Z5.520 F1000.000
G1 X-0.208 Y328.358 Z5.520 F1000.000
G0 Z12.000
G0 X-0.096 Y324.729 Z12.000
G0 X-0.096 Y324.729 Z10.000
G1 X-0.096 Y324.729 Z5.520 F200.000
G2 X-0.326 Y324.054 Z5.520 I-3.106 J0.682 K0.000 F1000.000
G1 X0.134 Y324.054 Z5.520 F1000.000
G2 X-0.096 Y324.729 Z5.520 I2.877 J1.358 K0.000 F1000.000
G0 Z12.000
G0 X4.525 Y326.039 Z12.000
G0 X4.525 Y326.039 Z10.000
G1 X4.525 Y326.039 Z5.520 F200.000
G3 X6.189 Y324.780 Z5.520 I1.665 J0.472 K0.000 F1000.000
G1 X9.529 Y324.780 Z5.520 F1000.000
G3 X11.259 Y326.510 Z5.520 I-0.000 J1.730 K0.000 F1000.000
G1 X11.259 Y329.719 Z5.520 F1000.000
G3 X9.529 Y331.449 Z5.520 I-1.730 J-0.000 K0.000 F1000.000
G1 X6.189 Y331.449 Z5.520 F1000.000
G3 X4.459 Y329.719 Z5.520 I0.000 J-1.730 K0.000 F1000.000
G1 X4.459 Y326.510 Z5.520 F1000.000
G3 X4.525 Y326.039 Z5.520 I1.730 J0.000 K0.000 F1000.000
G0 Z12.000
G0 X5.238 Y326.244 Z12.000
G0 X5.238 Y326.244 Z10.000
G1 X5.238 Y326.244 Z5.520 F200.000
G3 X6.189 Y325.520 Z5.520 I0.960 J0.276 K0.000 F1000.000
G1 X9.529 Y325.520 Z5.520 F1000.000
G3 X10.519 Y326.510 Z5.520 I-0.009 J0.999 K0.000 F1000.000
G1 X10.519 Y329.719 Z5.520 F1000.000
G3 X9.529 Y330.709 Z5.520 I-0.999 J-0.009 K0.000 F1000.000
G1 X6.189 Y330.709 Z5.520 F1000.000
G3 X5.199 Y329.719 Z5.520 I0.009 J-0.999 K0.000 F1000.000
G1 X5.199 Y326.510 Z5.520 F1000.000
G3 X5.238 Y326.244 Z5.520 I0.999 J0.009 K0.000 F1000.000
G0 Z12.000
G0 X5.779 Y332.148 Z12.000
G0 X5.779 Y332.148 Z10.000
G1 X5.779 Y332.148 Z5.520 F200.000
G1 X6.189 Y332.189 Z5.520 F1000.000
G1 X9.529 Y332.189 Z5.520 F1000.000
G1 X9.808 Y332.161 Z5.520 F1000.000
G2 X8.676 Y336.028 Z5.520 I0.675 J2.297 K0.000 F1000.000
G1 X11.608 Y339.379 Z5.520 F1000.000
G1 X11.608 Y340.285 Z5.520 F1000.000
G1 X10.931 Y340.285 Z5.520 F1000.000
G1 X7.761 Y337.173 Z5.520 F1000.000
G1 X7.761 Y334.682 Z5.520 F1000.000
G2 X5.779 Y332.148 Z5.520 I-2.625 J0.012 K0.000 F1000.000
G0 Z12.000
G0 X10.203 Y332.084 Z12.000
G0 X10.203 Y332.084 Z10.000
G1 X10.203 Y332.084 Z5.520 F200.000
G2 X11.608 Y331.042 Z5.520 I-0.601 J-2.280 K0.000 F1000.000
G1 X11.608 Y332.058 Z5.520 F1000.000
G2 X10.203 Y332.084 Z5.520 I-0.565 J7.598 K0.000 F1000.000
G0 Z12.000
G0 X13.479 Y326.732 Z12.000
G0 X13.479 Y326.732 Z10.000
G1 X13.479 Y326.732 Z5.520 F200.000
G2 X13.282 Y325.307 Z5.520 I-4.018 J-0.172 K0.000 F1000.000
G2 X14.683 Y325.458 Z5.520 I1.173 J-4.288 K0.000 F1000.000
G2 X14.521 Y326.665 Z5.520 I4.135 J1.170 K0.000 F1000.000
G2 X13.479 Y326.732 Z5.520 I-0.177 J5.328 K0.000 F1000.000
G1 X13.479 Y326.732 Z4.780 F200.000
G2 X13.282 Y325.307 Z4.780 I-4.018 J-0.172 K0.000 F1000.000
G2 X14.683 Y325.458 Z4.780 I1.173 J-4.288 K0.000 F1000.000
G2 X14.521 Y326.665 Z4.780 I4.135 J1.170 K0.000 F1000.000
G2 X13.479 Y326.732 Z4.780 I-0.177 J5.328 K0.000 F1000.000
G0 Z12.000
G0 X12.752 Y326.761 Z12.000
G0 X12.752 Y326.761 Z10.000
G1 X12.752 Y326.761 Z4.780 F200.000
G2 X12.682 Y325.933 Z4.780 I-9.279 J0.370 K0.000 F1000.000
G2 X9.529 Y323.300 Z4.780 I-3.163 J0.584 K0.000 F1000.000
G1 X6.189 Y323.300 Z4.780 F1000.000
G2 X2.979 Y326.510 Z4.780 I0.000 J3.210 K0.000 F1000.000
G1 X2.979 Y329.719 Z4.780 F1000.000
G2 X3.425 Y331.318 Z4.780 I3.139 J-0.013 K0.000 F1000.000
G1 X-3.607 Y331.318 Z4.780 F1000.000
G1 X-3.454 Y331.043 Z4.780 F1000.000
G2 X-3.168 Y329.719 Z4.780 I-3.131 J-1.369 K0.000 F1000.000
G1 X-3.168 Y326.510 Z4.780 F1000.000
G2 X-6.378 Y323.300 Z4.780 I-3.210 J0.000 K0.000 F1000.000
G1 X-9.718 Y323.300 Z4.780 F1000.000
G2 X-12.928 Y326.510 Z4.780 I0.000 J3.210 K0.000 F1000.000
G1 X-12.928 Y327.737 Z4.780 F1000.000
G1 X-12.998 Y327.697 Z4.780 F1000.000
G2 X-14.357 Y327.405 Z4.780 I-1.419 J3.288 K0.000 F1000.000
G1 X-15.453 Y327.405 Z4.780 F1000.000
G2 X-15.510 Y325.993 Z4.780 I-7.194 J-0.417 K0.000 F1000.000
G2 X-16.027 Y324.718 Z4.780 I-3.013 J0.478 K0.000 F1000.000
G1 X-14.541 Y324.718 Z4.780 F1000.000
G2 X-11.217 Y321.394 Z4.780 I-0.000 J-3.324 K0.000 F1000.000
G1 X-11.217 Y320.387 Z4.780 F1000.000
G1 X-11.139 Y320.431 Z4.780 F1000.000
G2 X-9.778 Y320.724 Z4.780 I1.422 J-3.297 K0.000 F1000.000
G1 X9.590 Y320.724 Z4.780 F1000.000
G2 X11.028 Y320.372 Z4.780 I-0.010 J-3.157 K0.000 F1000.000
G2 X11.085 Y321.971 Z4.780 I8.146 J0.511 K0.000 F1000.000
G2 X14.352 Y324.718 Z4.780 I3.281 J-0.586 K0.000 F1000.000
G1 X15.835 Y324.718 Z4.780 F1000.000
G2 X15.261 Y326.571 Z4.780 I2.831 J1.891 K0.000 F1000.000
G1 X15.261 Y327.405 Z4.780 F1000.000
G2 X13.590 Y327.461 Z4.780 I-0.547 J8.511 K0.000 F1000.000
G2 X12.739 Y327.753 Z4.780 I0.244 J2.107 K0.000 F1000.000
G2 X12.752 Y326.761 Z4.780 I-9.265 J-0.621 K0.000 F1000.000
G0 Z12.000
G0 X11.999 Z12.000
G0 X11.999 Z10.000
G1 X11.999 Y326.761 Z4.780 F200.000
G1 X11.999 Y326.510 Z4.780 F1000.000
G2 X9.529 Y324.040 Z4.780 I-2.470 J0.000 K0.000 F1000.000
G1 X6.189 Y324.040 Z4.780 F1000.000
G2 X3.719 Y326.510 Z4.780 I0.000 J2.470 K0.000 F1000.000
G1 X3.719 Y329.719 Z4.780 F1000.000
G2 X5.586 Y332.104 Z4.780 I2.465 J-0.006 K0.000 F1000.000
G2 X5.138 Y332.058 Z4.780 I-0.456 J2.252 K0.000 F1000.000
G1 X-5.327 Y332.058 Z4.780 F1000.000
G2 X-5.765 Y332.102 Z4.780 I0.003 J2.248 K0.000 F1000.000
G2 X-3.908 Y329.719 Z4.780 I-0.609 J-2.390 K0.000 F1000.000
G1 X-3.908 Y326.510 Z4.780 F1000.000
G2 X-6.378 Y324.040 Z4.780 I-2.470 J0.000 K0.000 F1000.000
G1 X-9.718 Y324.040 Z4.780 F1000.000
G2 X-12.188 Y326.510 Z4.780 I0.000 J2.470 K0.000 F1000.000
G1 X-12.188 Y329.359 Z4.780 F1000.000
G2 X-14.357 Y328.145 Z4.780 I-2.182 J1.354 K0.000 F1000.000
G1 X-16.193 Y328.145 Z4.780 F1000.000
G1 X-16.193 Y326.571 Z4.780 F1000.000
G2 X-18.773 Y323.991 Z4.780 I-2.579 J0.000 K0.000 F1000.000
G1 X-20.263 Y323.991 Z4.780 F1000.000
G1 X-20.263 Y321.880 Z4.780 F1000.000
G2 X-17.665 Y323.978 Z4.780 I2.614 J-0.579 K0.000 F1000.000
G1 X-14.541 Y323.978 Z4.780 F1000.000
G2 X-11.957 Y321.394 Z4.780 I-0.000 J-2.584 K0.000 F1000.000
G1 X-11.957 Y318.757 Z4.780 F1000.000
G2 X-9.778 Y319.984 Z4.780 I2.191 J-1.343 K0.000 F1000.000
G1 X9.590 Y319.984 Z4.780 F1000.000
G2 X11.768 Y318.759 Z4.780 I-0.011 J-2.569 K0.000 F1000.000
G1 X11.768 Y321.394 Z4.780 F1000.000
G2 X14.352 Y323.978 Z4.780 I2.584 J-0.000 K0.000 F1000.000
G1 X17.473 Y323.978 Z4.780 F1000.000
G2 X20.075 Y321.863 Z4.780 I0.009 J-2.647 K0.000 F1000.000
G1 X20.075 Y323.991 Z4.780 F1000.000
G1 X18.581 Y323.991 Z4.780 F1000.000
G2 X16.001 Y326.571 Z4.780 I0.000 J2.579 K0.000 F1000.000
G1 X16.001 Y328.145 Z4.780 F1000.000
G1 X14.168 Y328.145 Z4.780 F1000.000
G2 X11.999 Y329.359 Z4.780 I0.012 J2.566 K0.000 F1000.000
G1 X11.999 Y326.761 Z4.780 F1000.000
G0 Z12.000
G0 X11.259 Z12.000
G0 X11.259 Z10.000
G1 X11.259 Y326.761 Z4.780 F200.000
G1 X11.259 Y329.719 Z4.780 F1000.000
G3 X9.529 Y331.449 Z4.780 I-1.730 J-0.000 K0.000 F1000.000
G1 X6.189 Y331.449 Z4.780 F1000.000
G3 X4.459 Y329.719 Z4.780 I0.000 J-1.730 K0.000 F1000.000
G1 X4.459 Y326.510 Z4.780 F1000.000
G3 X6.189 Y324.780 Z4.780 I1.730 J0.000 K0.000 F1000.000
G1 X9.529 Y324.780 Z4.780 F1000.000
G3 X11.259 Y326.510 Z4.780 I-0.000 J1.730 K0.000 F1000.000
G1 X11.259 Y326.761 Z4.780 F1000.000
G0 Z12.000
G0 X10.519 Z12.000
G0 X10.519 Z10.000
G1 X10.519 Y326.761 Z4.780 F200.000
G1 X10.519 Y329.719 Z4.780 F1000.000
G3 X9.529 Y330.709 Z4.780 I-0.999 J-0.009 K0.000 F1000.000
G1 X6.189 Y330.709 Z4.780 F1000.000
G3 X5.199 Y329.719 Z4.780 I0.009 J-0.999 K0.000 F1000.000
G1 X5.199 Y326.510 Z4.780 F1000.000
G3 X6.189 Y325.520 Z4.780 I0.999 J0.009 K0.000 F1000.000
G1 X9.529 Y325.520 Z4.780 F1000.000
G3 X10.519 Y326.510 Z4.780 I-0.009 J0.999 K0.000 F1000.000
G1 X10.519 Y326.761 Z4.780 F1000.000
G0 Z12.000
G0 X12.932 Y329.369 Z12.000
G0 X12.932 Y329.369 Z10.000
G1 X12.932 Y329.369 Z4.780 F200.000
G2 X12.348 Y330.704 Z4.780 I1.236 J1.335 K0.000 F1000.000
G1 X12.348 Y332.798 Z4.780 F1000.000
G1 X10.478 Y332.798 Z4.780 F1000.000
G2 X9.233 Y335.540 Z4.780 I0.003 J1.655 K0.000 F1000.000
G1 X12.348 Y339.101 Z4.780 F1000.000
G1 X12.348 Y341.025 Z4.780 F1000.000
G1 X10.628 Y341.025 Z4.780 F1000.000
G1 X7.021 Y337.484 Z4.780 F1000.000
G1 X7.021 Y334.682 Z4.780 F1000.000
G2 X5.138 Y332.798 Z4.780 I-1.884 J0.000 K0.000 F1000.000
G1 X-5.327 Y332.798 Z4.780 F1000.000
G2 X-7.210 Y334.682 Z4.780 I0.000 J1.884 K0.000 F1000.000
G1 X-7.210 Y337.484 Z4.780 F1000.000
G1 X-10.817 Y341.025 Z4.780 F1000.000
G1 X-12.537 Y341.025 Z4.780 F1000.000
G1 X-12.537 Y339.101 Z4.780 F1000.000
G1 X-9.422 Y335.540 Z4.780 F1000.000
G2 X-10.666 Y332.798 Z4.780 I-1.248 J-1.087 K0.000 F1000.000
G1 X-12.537 Y332.798 Z4.780 F1000.000
G1 X-12.537 Y330.704 Z4.780 F1000.000
G2 X-14.357 Y328.885 Z4.780 I-1.820 J0.000 K0.000 F1000.000
G1 X-16.933 Y328.885 Z4.780 F1000.000
G1 X-16.933 Y326.571 Z4.780 F1000.000
G2 X-18.773 Y324.731 Z4.780 I-1.840 J0.000 K0.000 F1000.000
G1 X-21.003 Y324.731 Z4.780 F1000.000
G1 X-21.003 Y315.171 Z4.780 F1000.000
G1 X-19.593 Y315.171 Z4.780 F1000.000
G1 X-19.593 Y321.309 Z4.780 F1000.000
G2 X-17.665 Y323.238 Z4.780 I1.929 J-0.000 K0.000 F1000.000
G1 X-14.541 Y323.238 Z4.780 F1000.000
G2 X-12.697 Y321.394 Z4.780 I-0.000 J-1.844 K0.000 F1000.000
G1 X-12.697 Y314.400 Z4.780 F1000.000
G1 X-9.411 Y311.181 Z4.780 F1000.000
G1 X-3.619 Y311.181 Z4.780 F1000.000
G1 X-3.619 Y312.511 Z4.780 F1000.000
G1 X-9.697 Y312.511 Z4.780 F1000.000
G2 X-11.603 Y314.417 Z4.780 I0.000 J1.906 K0.000 F1000.000
G1 X-11.603 Y317.420 Z4.780 F1000.000
G2 X-9.778 Y319.244 Z4.780 I1.825 J-0.000 K0.000 F1000.000
G1 X9.590 Y319.244 Z4.780 F1000.000
G2 X11.414 Y317.420 Z4.780 I-0.000 J-1.825 K0.000 F1000.000
G1 X11.414 Y314.417 Z4.780 F1000.000
G2 X9.508 Y312.511 Z4.780 I-1.906 J0.000 K0.000 F1000.000
G1 X3.427 Y312.511 Z4.780 F1000.000
G1 X3.427 Y311.177 Z4.780 F1000.000
G1 X9.222 Y311.177 Z4.780 F1000.000
G1 X12.508 Y314.400 Z4.780 F1000.000
G1 X12.508 Y321.394 Z4.780 F1000.000
G2 X14.352 Y323.238 Z4.780 I1.844 J-0.000 K0.000 F1000.000
G1 X17.473 Y323.238 Z4.780 F1000.000
G2 X19.401 Y321.309 Z4.780 I-0.000 J-1.929 K0.000 F1000.000
G1 X19.401 Y315.171 Z4.780 F1000.000
G1 X20.815 Y315.171 Z4.780 F1000.000
G1 X20.815 Y324.731 Z4.780 F1000.000
G1 X18.581 Y324.731 Z4.780 F1000.000
G2 X16.741 Y326.571 Z4.780 I0.000 J1.840 K0.000 F1000.000
G1 X16.741 Y328.885 Z4.780 F1000.000
G1 X14.168 Y328.885 Z4.780 F1000.000
G2 X12.932 Y329.369 Z4.780 I0.000 J1.820 K0.000 F1000.000
G0 Z12.000
G0 X13.438 Y329.915 Z12.000
G0 X13.438 Y329.915 Z10.000
G1 X13.438 Y329.915 Z4.780 F200.000
G2 X13.088 Y330.704 Z4.780 I0.741 J0.800 K0.000 F1000.000
G1 X13.088 Y333.538 Z4.780 F1000.000
G1 X10.478 Y333.538 Z4.780 F1000.000
G2 X9.790 Y335.053 Z4.780 I0.000 J0.913 K0.000 F1000.000
G1 X13.060 Y338.791 Z4.780 F1000.000
G3 X13.088 Y338.865 Z4.780 I-0.053 J0.063 K0.000 F1000.000
G1 X13.088 Y341.765 Z4.780 F1000.000
G1 X10.392 Y341.765 Z4.780 F1000.000
G3 X10.278 Y341.718 Z4.780 I-0.014 J-0.129 K0.000 F1000.000
G1 X6.316 Y337.829 Z4.780 F1000.000
G3 X6.281 Y337.745 Z4.780 I0.050 J-0.070 K0.000 F1000.000
G1 X6.281 Y334.682 Z4.780 F1000.000
G2 X5.138 Y333.538 Z4.780 I-1.156 J0.013 K0.000 F1000.000
G1 X-5.327 Y333.538 Z4.780 F1000.000
G2 X-6.470 Y334.682 Z4.780 I0.013 J1.156 K0.000 F1000.000
G1 X-6.470 Y337.745 Z4.780 F1000.000
G3 X-6.505 Y337.829 Z4.780 I-0.085 J0.013 K0.000 F1000.000
G1 X-10.466 Y341.718 Z4.780 F1000.000
G3 X-10.581 Y341.765 Z4.780 I-0.100 J-0.082 K0.000 F1000.000
G1 X-13.277 Y341.765 Z4.780 F1000.000
G1 X-13.277 Y338.865 Z4.780 F1000.000
G3 X-13.249 Y338.791 Z4.780 I0.082 J-0.012 K0.000 F1000.000
G1 X-9.979 Y335.053 Z4.780 F1000.000
G2 X-10.666 Y333.538 Z4.780 I-0.688 J-0.601 K0.000 F1000.000
G1 X-13.277 Y333.538 Z4.780 F1000.000
G1 X-13.277 Y330.704 Z4.780 F1000.000
G2 X-14.357 Y329.625 Z4.780 I-1.091 J0.011 K0.000 F1000.000
G1 X-17.650 Y329.625 Z4.780 F1000.000
G3 X-17.673 Y329.601 Z4.780 I-0.008 J-0.016 K0.000 F1000.000
G1 X-17.673 Y326.571 Z4.780 F1000.000
G2 X-18.773 Y325.471 Z4.780 I-1.111 J0.012 K0.000 F1000.000
G1 X-21.743 Y325.471 Z4.780 F1000.000
G1 X-21.743 Y314.475 Z4.780 F1000.000
G3 X-21.699 Y314.431 Z4.780 I0.029 J-0.015 K0.000 F1000.000
G1 X-18.853 Y314.431 Z4.780 F1000.000
G1 X-18.853 Y321.309 Z4.780 F1000.000
G2 X-17.665 Y322.498 Z4.780 I1.202 J-0.014 K0.000 F1000.000
G1 X-14.541 Y322.498 Z4.780 F1000.000
G2 X-13.437 Y321.394 Z4.780 I-0.012 J-1.116 K0.000 F1000.000
G1 X-13.437 Y314.320 Z4.780 F1000.000
G3 X-13.272 Y313.927 Z4.780 I0.509 J-0.017 K0.000 F1000.000
G1 X-9.850 Y310.576 Z4.780 F1000.000
G3 X-9.520 Y310.441 Z4.780 I0.314 J0.297 K0.000 F1000.000
G1 X-2.909 Y310.441 Z4.780 F1000.000
G3 X-2.879 Y310.471 Z4.780 I0.010 J0.020 K0.000 F1000.000
G1 X-2.879 Y313.251 Z4.780 F1000.000
G1 X-9.697 Y313.251 Z4.780 F1000.000
G2 X-10.863 Y314.417 Z4.780 I0.013 J1.179 K0.000 F1000.000
G1 X-10.863 Y317.420 Z4.780 F1000.000
G2 X-9.778 Y318.504 Z4.780 I1.096 J-0.011 K0.000 F1000.000
G1 X9.590 Y318.504 Z4.780 F1000.000
G2 X10.674 Y317.420 Z4.780 I-0.011 J-1.096 K0.000 F1000.000
G1 X10.674 Y314.417 Z4.780 F1000.000
G2 X9.508 Y313.251 Z4.780 I-1.179 J0.013 K0.000 F1000.000
G1 X2.687 Y313.251 Z4.780 F1000.000
G1 X2.687 Y310.471 Z4.780 F1000.000
G3 X2.720 Y310.437 Z4.780 I0.022 J-0.011 K0.000 F1000.000
G1 X9.331 Y310.437 Z4.780 F1000.000
G3 X9.661 Y310.573 Z4.780 I0.017 J0.432 K0.000 F1000.000
G1 X13.083 Y313.927 Z4.780 F1000.000
G3 X13.248 Y314.320 Z4.780 I-0.344 J0.375 K0.000 F1000.000
G1 X13.248 Y321.394 Z4.780 F1000.000
G2 X14.352 Y322.498 Z4.780 I1.116 J-0.012 K0.000 F1000.000
G1 X17.473 Y322.498 Z4.780 F1000.000
G2 X18.661 Y321.309 Z4.780 I-0.014 J-1.202 K0.000 F1000.000
G1 X18.661 Y314.431 Z4.780 F1000.000
G1 X21.510 Y314.431 Z4.780 F1000.000
G3 X21.555 Y314.475 Z4.780 I0.015 J0.029 K0.000 F1000.000
G1 X21.555 Y325.471 Z4.780 F1000.000
G1 X18.581 Y325.471 Z4.780 F1000.000
G2 X17.481 Y326.571 Z4.780 I0.012 J1.111 K0.000 F1000.000
G1 X17.481 Y329.604 Z4.780 F1000.000
G3 X17.461 Y329.625 Z4.780 I-0.013 J0.007 K0.000 F1000.000
G1 X14.168 Y329.625 Z4.780 F1000.000
G2 X13.438 Y329.915 Z4.780 I0.011 J1.091 K0.000 F1000.000
G0 Z12.000
G0 X11.608 Y331.042 Z12.000
G0 X11.608 Y331.042 Z10.000
G1 X11.608 Y331.042 Z4.780 F200.000
G1 X11.608 Y332.058 Z4.780 F1000.000
G2 X10.203 Y332.084 Z4.780 I-0.565 J7.598 K0.000 F1000.000
G2 X11.608 Y331.042 Z4.780 I-0.601 J-2.280 K0.000 F1000.000
G0 Z12.000
G0 X9.808 Y332.161 Z12.000
G0 X9.808 Y332.161 Z10.000
G1 X9.808 Y332.161 Z4.780 F200.000
G2 X8.676 Y336.028 Z4.780 I0.675 J2.297 K0.000 F1000.000
G1 X11.608 Y339.379 Z4.780 F1000.000
G1 X11.608 Y340.285 Z4.780 F1000.000
G1 X10.931 Y340.285 Z4.780 F1000.000
G1 X7.761 Y337.173 Z4.780 F1000.000
G1 X7.761 Y334.682 Z4.780 F1000.000
G2 X5.779 Y332.148 Z4.780 I-2.625 J0.012 K0.000 F1000.000
G1 X6.189 Y332.189 Z4.780 F1000.000
G1 X9.529 Y332.189 Z4.780 F1000.000
G1 X9.808 Y332.161 Z4.780 F1000.000
G0 Z12.000
G0 X2.341 Y330.578 Z12.000
G0 X2.341 Y330.578 Z10.000
G1 X2.341 Y330.578 Z4.780 F200.000
G1 X-2.528 Y330.578 Z4.780 F1000.000
G2 X-2.428 Y329.719 Z4.780 I-3.715 J-0.871 K0.000 F1000.000
G1 X-2.428 Y326.510 Z4.780 F1000.000
G2 X-6.378 Y322.560 Z4.780 I-3.953 J0.003 K0.000 F1000.000
G1 X-9.718 Y322.560 Z4.780 F1000.000
G2 X-10.698 Y322.696 Z4.780 I-0.071 J3.112 K0.000 F1000.000
G2 X-10.477 Y321.396 Z4.780 I-4.038 J-1.353 K0.000 F1000.000
G1 X-9.778 Y321.464 Z4.780 F1000.000
G1 X9.590 Y321.464 Z4.780 F1000.000
G1 X10.288 Y321.396 Z4.780 F1000.000
G2 X10.507 Y322.691 Z4.780 I4.251 J-0.053 K0.000 F1000.000
G2 X9.529 Y322.560 Z4.780 I-0.990 J3.683 K0.000 F1000.000
G1 X6.189 Y322.560 Z4.780 F1000.000
G2 X2.239 Y326.510 Z4.780 I0.003 J3.953 K0.000 F1000.000
G1 X2.239 Y329.719 Z4.780 F1000.000
G2 X2.329 Y330.536 Z4.780 I4.195 J-0.049 K0.000 F1000.000
G1 X2.341 Y330.578 Z4.780 F1000.000
G0 Z12.000
G0 X1.511 Y329.838 Z12.000
G0 X1.511 Y329.838 Z10.000
G1 X1.511 Y329.838 Z4.780 F200.000
G1 X-1.699 Y329.838 Z4.780 F1000.000
G1 X-1.688 Y329.719 Z4.780 F1000.000
G1 X-1.688 Y326.510 Z4.780 F1000.000
G2 X-4.543 Y322.204 Z4.780 I-4.684 J0.006 K0.000 F1000.000
G1 X4.355 Y322.204 Z4.780 F1000.000
G2 X1.499 Y326.510 Z4.780 I1.826 J4.312 K0.000 F1000.000
G1 X1.499 Y329.719 Z4.780 F1000.000
G1 X1.511 Y329.838 Z4.780 F1000.000
G0 Z12.000
G0 X0.759 Y329.098 Z12.000
G0 X0.759 Y329.098 Z10.000
G1 X0.759 Y329.098 Z4.780 F200.000
G1 X-0.948 Y329.098 Z4.780 F1000.000
G1 X-0.948 Y326.510 Z4.780 F1000.000
G2 X-2.284 Y322.944 Z4.780 I-5.425 J-0.000 K0.000 F1000.000
G1 X2.104 Y322.944 Z4.780 F1000.000
G2 X0.759 Y326.510 Z4.780 I4.034 J3.558 K0.000 F1000.000
G1 X0.759 Y329.098 Z4.780 F1000.000
G0 Z12.000
G0 X0.019 Y328.358 Z12.000
G0 X0.019 Y328.358 Z10.000
G1 X0.019 Y328.358 Z4.780 F200.000
G1 X-0.208 Y328.358 Z4.780 F1000.000
G2 X-0.246 Y325.836 Z4.780 I-22.077 J-0.924 K0.000 F1000.000
G2 X-0.914 Y323.684 Z4.780 I-5.576 J0.552 K0.000 F1000.000
G1 X0.707 Y323.684 Z4.780 F1000.000
G2 X0.019 Y326.510 Z4.780 I5.609 J2.862 K0.000 F1000.000
G1 X0.019 Y328.358 Z4.780 F1000.000
G0 Z12.000
G0 X-0.096 Y324.729 Z12.000
G0 X-0.096 Y324.729 Z10.000
G1 X-0.096 Y324.729 Z4.780 F200.000
G2 X-0.326 Y324.054 Z4.780 I-3.106 J0.682 K0.000 F1000.000
G1 X0.134 Y324.054 Z4.780 F1000.000
G2 X-0.096 Y324.729 Z4.780 I2.877 J1.358 K0.000 F1000.000
G0 Z12.000
G0 X-4.713 Y326.038 Z12.000
G0 X-4.713 Y326.038 Z10.000
G1 X-4.713 Y326.038 Z4.780 F200.000
G3 X-4.648 Y326.510 Z4.780 I-1.665 J0.472 K0.000 F1000.000
G1 X-4.648 Y329.719 Z4.780 F1000.000
G3 X-6.378 Y331.449 Z4.780 I-1.730 J-0.000 K0.000 F1000.000
G1 X-9.718 Y331.449 Z4.780 F1000.000
G3 X-11.448 Y329.719 Z4.780 I0.000 J-1.730 K0.000 F1000.000
G1 X-11.448 Y326.510 Z4.780 F1000.000
G3 X-9.718 Y324.780 Z4.780 I1.730 J0.000 K0.000 F1000.000
G1 X-6.378 Y324.780 Z4.780 F1000.000
G3 X-4.713 Y326.038 Z4.780 I-0.000 J1.730 K0.000 F1000.000
G0 Z12.000
G0 X-5.426 Y326.244 Z12.000
G0 X-5.426 Y326.244 Z10.000
G1 X-5.426 Y326.244 Z4.780 F200.000
G3 X-5.388 Y326.510 Z4.780 I-0.960 J0.276 K0.000 F1000.000
G1 X-5.388 Y329.719 Z4.780 F1000.000
G3 X-6.378 Y330.709 Z4.780 I-0.999 J-0.009 K0.000 F1000.000
G1 X-9.718 Y330.709 Z4.780 F1000.000
G3 X-10.708 Y329.719 Z4.780 I0.009 J-0.999 K0.000 F1000.000
G1 X-10.708 Y326.510 Z4.780 F1000.000
G3 X-9.718 Y325.520 Z4.780 I0.999 J0.009 K0.000 F1000.000
G1 X-6.378 Y325.520 Z4.780 F1000.000
G3 X-5.426 Y326.244 Z4.780 I-0.009 J0.999 K0.000 F1000.000
G0 Z12.000
G0 X-5.971 Y332.148 Z12.000
G0 X-5.971 Y332.148 Z10.000
G1 X-5.971 Y332.148 Z4.780 F200.000
G2 X-7.950 Y334.682 Z4.780 I0.647 J2.546 K0.000 F1000.000
G1 X-7.950 Y337.173 Z4.780 F1000.000
G1 X-11.119 Y340.285 Z4.780 F1000.000
G1 X-11.797 Y340.285 Z4.780 F1000.000
G1 X-11.797 Y339.379 Z4.780 F1000.000
G1 X-8.865 Y336.028 Z4.780 F1000.000
G2 X-9.997 Y332.161 Z4.780 I-1.794 J-1.574 K0.000 F1000.000
G1 X-9.718 Y332.189 Z4.780 F1000.000
G1 X-6.378 Y332.189 Z4.780 F1000.000
G1 X-5.971 Y332.148 Z4.780 F1000.000
G0 Z12.000
G0 X-10.414 Y332.075 Z12.000
G0 X-10.414 Y332.075 Z10.000
G1 X-10.414 Y332.075 Z4.780 F200.000
G2 X-11.797 Y332.058 Z4.780 I-0.818 J10.341 K0.000 F1000.000
G1 X-11.797 Y331.043 Z4.780 F1000.000
G2 X-10.414 Y332.075 Z4.780 I2.025 J-1.270 K0.000 F1000.000
G0 Z12.000
G0 X-13.668 Y326.732 Z12.000
G0 X-13.668 Y326.732 Z10.000
G1 X-13.668 Y326.732 Z4.780 F200.000
G2 X-14.713 Y326.665 Z4.780 I-0.867 J5.275 K0.000 F1000.000
G2 X-14.882 Y325.458 Z4.780 I-3.893 J-0.072 K0.000 F1000.000
G2 X-13.475 Y325.303 Z4.780 I0.260 J-4.095 K0.000 F1000.000
G2 X-13.668 Y326.732 Z4.780 I4.080 J1.277 K0.000 F1000.000
G1 X-13.668 Y326.732 Z4.040 F200.000
G2 X-14.713 Y326.665 Z4.040 I-0.867 J5.275 K0.000 F1000.000
G2 X-14.882 Y325.458 Z4.040 I-3.893 J-0.072 K0.000 F1000.000
G2 X-13.475 Y325.303 Z4.040 I0.260 J-4.095 K0.000 F1000.000
G2 X-13.668 Y326.732 Z4.040 I4.080 J1.277 K0.000 F1000.000
G0 Z12.000
G0 X-13.796 Y327.458 Z12.000
G0 X-13.796 Y327.458 Z10.000
G1 X-13.796 Y327.458 Z4.040 F200.000
G2 X-14.357 Y327.405 Z4.040 I-0.622 J3.527 K0.000 F1000.000
G1 X-15.453 Y327.405 Z4.040 F1000.000
G2 X-15.510 Y325.993 Z4.040 I-7.194 J-0.417 K0.000 F1000.000
G2 X-16.027 Y324.718 Z4.040 I-3.013 J0.478 K0.000 F1000.000
G1 X-14.541 Y324.718 Z4.040 F1000.000
G2 X-11.217 Y321.394 Z4.040 I-0.000 J-3.324 K0.000 F1000.000
G1 X-11.217 Y320.387 Z4.040 F1000.000
G1 X-11.139 Y320.431 Z4.040 F1000.000
G2 X-9.778 Y320.724 Z4.040 I1.422 J-3.297 K0.000 F1000.000
G1 X9.590 Y320.724 Z4.040 F1000.000
G2 X11.028 Y320.372 Z4.040 I-0.010 J-3.157 K0.000 F1000.000
G2 X11.085 Y321.971 Z4.040 I8.146 J0.511 K0.000 F1000.000
G2 X14.352 Y324.718 Z4.040 I3.281 J-0.586 K0.000 F1000.000
G1 X15.835 Y324.718 Z4.040 F1000.000
G2 X15.261 Y326.571 Z4.040 I2.831 J1.891 K0.000 F1000.000
G1 X15.261 Y327.405 Z4.040 F1000.000
G2 X13.590 Y327.461 Z4.040 I-0.547 J8.511 K0.000 F1000.000
G2 X12.739 Y327.753 Z4.040 I0.244 J2.107 K0.000 F1000.000
G2 X12.682 Y325.933 Z4.040 I-9.265 J-0.621 K0.000 F1000.000
G2 X9.529 Y323.300 Z4.040 I-3.163 J0.584 K0.000 F1000.000
G1 X6.189 Y323.300 Z4.040 F1000.000
G2 X2.979 Y326.510 Z4.040 I0.000 J3.210 K0.000 F1000.000
G1 X2.979 Y329.719 Z4.040 F1000.000
G2 X3.425 Y331.318 Z4.040 I3.139 J-0.013 K0.000 F1000.000
G1 X-3.607 Y331.318 Z4.040 F1000.000
G1 X-3.454 Y331.043 Z4.040 F1000.000
G2 X-3.168 Y329.719 Z4.040 I-3.131 J-1.369 K0.000 F1000.000
G1 X-3.168 Y326.510 Z4.040 F1000.000
G2 X-6.378 Y323.300 Z4.040 I-3.210 J0.000 K0.000 F1000.000
G1 X-9.718 Y323.300 Z4.040 F1000.000
G2 X-12.928 Y326.510 Z4.040 I0.000 J3.210 K0.000 F1000.000
G1 X-12.928 Y327.737 Z4.040 F1000.000
G1 X-12.998 Y327.697 Z4.040 F1000.000
G2 X-13.796 Y327.458 Z4.040 I-1.419 J3.288 K0.000 F1000.000
G0 Z12.000
G0 X-13.924 Y328.184 Z12.000
G0 X-13.924 Y328.184 Z10.000
G1 X-13.924 Y328.184 Z4.040 F200.000
G2 X-14.357 Y328.145 Z4.040 I-0.446 J2.529 K0.000 F1000.000
G1 X-16.193 Y328.145 Z4.040 F1000.000
G1 X-16.193 Y326.571 Z4.040 F1000.000
G2 X-18.773 Y323.991 Z4.040 I-2.579 J0.000 K0.000 F1000.000
G1 X-20.263 Y323.991 Z4.040 F1000.000
G1 X-20.263 Y321.880 Z4.040 F1000.000
G2 X-17.665 Y323.978 Z4.040 I2.614 J-0.579 K0.000 F1000.000
G1 X-14.541 Y323.978 Z4.040 F1000.000
G2 X-11.957 Y321.394 Z4.040 I-0.000 J-2.584 K0.000 F1000.000
G1 X-11.957 Y318.757 Z4.040 F1000.000
G2 X-9.778 Y319.984 Z4.040 I2.191 J-1.343 K0.000 F1000.000
G1 X9.590 Y319.984 Z4.040 F1000.000
G2 X11.768 Y318.759 Z4.040 I-0.011 J-2.569 K0.000 F1000.000
G1 X11.768 Y321.394 Z4.040 F1000.000
G2 X14.352 Y323.978 Z4.040 I2.584 J-0.000 K0.000 F1000.000
G1 X17.473 Y323.978 Z4.040 F1000.000
G2 X20.075 Y321.863 Z4.040 I0.009 J-2.647 K0.000 F1000.000
G1 X20.075 Y323.991 Z4.040 F1000.000
G1 X18.581 Y323.991 Z4.040 F1000.000
G2 X16.001 Y326.571 Z4.040 I0.000 J2.579 K0.000 F1000.000
G1 X16.001 Y328.145 Z4.040 F1000.000
G1 X14.168 Y328.145 Z4.040 F1000.000
G2 X11.999 Y329.359 Z4.040 I0.012 J2.566 K0.000 F1000.000
G1 X11.999 Y326.510 Z4.040 F1000.000
G2 X9.529 Y324.040 Z4.040 I-2.470 J0.000 K0.000 F1000.000
G1 X6.189 Y324.040 Z4.040 F1000.000
G2 X3.719 Y326.510 Z4.040 I0.000 J2.470 K0.000 F1000.000
G1 X3.719 Y329.719 Z4.040 F1000.000
G2 X5.586 Y332.104 Z4.040 I2.465 J-0.006 K0.000 F1000.000
G2 X5.138 Y332.058 Z4.040 I-0.456 J2.252 K0.000 F1000.000
G1 X-5.327 Y332.058 Z4.040 F1000.000
G2 X-5.765 Y332.102 Z4.040 I0.003 J2.248 K0.000 F1000.000
G2 X-3.908 Y329.719 Z4.040 I-0.609 J-2.390 K0.000 F1000.000
G1 X-3.908 Y326.510 Z4.040 F1000.000
G2 X-6.378 Y324.040 Z4.040 I-2.470 J0.000 K0.000 F1000.000
G1 X-9.718 Y324.040 Z4.040 F1000.000
G2 X-12.188 Y326.510 Z4.040 I0.000 J2.470 K0.000 F1000.000
G1 X-12.188 Y329.359 Z4.040 F1000.000
G2 X-13.924 Y328.184 Z4.040 I-2.182 J1.354 K0.000 F1000.000
G0 Z12.000
G0 X-14.049 Y328.911 Z12.000
G0 X-14.049 Y328.911 Z10.000
G1 X-14.049 Y328.911 Z4.040 F200.000
G2 X-14.357 Y328.885 Z4.040 I-0.308 J1.793 K0.000 F1000.000
G1 X-16.933 Y328.885 Z4.040 F1000.000
G1 X-16.933 Y326.571 Z4.040 F1000.000
G2 X-18.773 Y324.731 Z4.040 I-1.840 J0.000 K0.000 F1000.000
G1 X-21.003 Y324.731 Z4.040 F1000.000
G1 X-21.003 Y315.171 Z4.040 F1000.000
G1 X-19.593 Y315.171 Z4.040 F1000.000
G1 X-19.593 Y321.309 Z4.040 F1000.000
G2 X-17.665 Y323.238 Z4.040 I1.929 J-0.000 K0.000 F1000.000
G1 X-14.541 Y323.238 Z4.040 F1000.000
G2 X-12.697 Y321.394 Z4.040 I-0.000 J-1.844 K0.000 F1000.000
G1 X-12.697 Y314.400 Z4.040 F1000.000
G1 X-9.411 Y311.181 Z4.040 F1000.000
G1 X-3.619 Y311.181 Z4.040 F1000.000
G1 X-3.619 Y312.511 Z4.040 F1000.000
G1 X-9.697 Y312.511 Z4.040 F1000.000
G2 X-11.603 Y314.417 Z4.040 I0.000 J1.906 K0.000 F1000.000
G1 X-11.603 Y317.420 Z4.040 F1000.000
G2 X-9.778 Y319.244 Z4.040 I1.825 J-0.000 K0.000 F1000.000
G1 X9.590 Y319.244 Z4.040 F1000.000
G2 X11.414 Y317.420 Z4.040 I-0.000 J-1.825 K0.000 F1000.000
G1 X11.414 Y314.417 Z4.040 F1000.000
G2 X9.508 Y312.511 Z4.040 I-1.906 J0.000 K0.000 F1000.000
G1 X3.427 Y312.511 Z4.040 F1000.000
G1 X3.427 Y311.177 Z4.040 F1000.000
G1 X9.222 Y311.177 Z4.040 F1000.000
G1 X12.508 Y314.400 Z4.040 F1000.000
G1 X12.508 Y321.394 Z4.040 F1000.000
G2 X14.352 Y323.238 Z4.040 I1.844 J-0.000 K0.000 F1000.000
G1 X17.473 Y323.238 Z4.040 F1000.000
G2 X19.401 Y321.309 Z4.040 I-0.000 J-1.929 K0.000 F1000.000
G1 X19.401 Y315.171 Z4.040 F1000.000
G1 X20.815 Y315.171 Z4.040 F1000.000
G1 X20.815 Y324.731 Z4.040 F1000.000
G1 X18.581 Y324.731 Z4.040 F1000.000
G2 X16.741 Y326.571 Z4.040 I0.000 J1.840 K0.000 F1000.000
G1 X16.741 Y328.885 Z4.040 F1000.000
G1 X14.168 Y328.885 Z4.040 F1000.000
G2 X12.348 Y330.704 Z4.040 I0.000 J1.820 K0.000 F1000.000
G1 X12.348 Y332.798 Z4.040 F1000.000
G1 X10.478 Y332.798 Z4.040 F1000.000
G2 X9.233 Y335.540 Z4.040 I0.003 J1.655 K0.000 F1000.000
G1 X12.348 Y339.101 Z4.040 F1000.000
G1 X12.348 Y341.025 Z4.040 F1000.000
G1 X10.628 Y341.025 Z4.040 F1000.000
G1 X7.021 Y337.484 Z4.040 F1000.000
G1 X7.021 Y334.682 Z4.040 F1000.000
G2 X5.138 Y332.798 Z4.040 I-1.884 J0.000 K0.000 F1000.000
G1 X-5.327 Y332.798 Z4.040 F1000.000
G2 X-7.210 Y334.682 Z4.040 I0.000 J1.884 K0.000 F1000.000
G1 X-7.210 Y337.484 Z4.040 F1000.000
G1 X-10.817 Y341.025 Z4.040 F1000.000
G1 X-12.537 Y341.025 Z4.040 F1000.000
G1 X-12.537 Y339.101 Z4.040 F1000.000
G1 X-9.422 Y335.540 Z4.040 F1000.000
G2 X-10.666 Y332.798 Z4.040 I-1.248 J-1.087 K0.000 F1000.000
G1 X-12.537 Y332.798 Z4.040 F1000.000
G1 X-12.537 Y330.704 Z4.040 F1000.000
G2 X-14.049 Y328.911 Z4.040 I-1.820 J0.000 K0.000 F1000.000
G0 Z12.000
G0 X-14.178 Y329.641 Z12.000
G0 X-14.178 Y329.641 Z10.000
G1 X-14.178 Y329.641 Z4.040 F200.000
G2 X-14.357 Y329.625 Z4.040 I-0.190 J1.074 K0.000 F1000.000
G1 X-17.650 Y329.625 Z4.040 F1000.000
G3 X-17.673 Y329.601 Z4.040 I-0.008 J-0.016 K0.000 F1000.000
G1 X-17.673 Y326.571 Z4.040 F1000.000
G2 X-18.773 Y325.471 Z4.040 I-1.111 J0.012 K0.000 F1000.000
G1 X-21.743 Y325.471 Z4.040 F1000.000
G1 X-21.743 Y314.475 Z4.040 F1000.000
G3 X-21.699 Y314.431 Z4.040 I0.029 J-0.015 K0.000 F1000.000
G1 X-18.853 Y314.431 Z4.040 F1000.000
G1 X-18.853 Y321.309 Z4.040 F1000.000
G2 X-17.665 Y322.498 Z4.040 I1.202 J-0.014 K0.000 F1000.000
G1 X-14.541 Y322.498 Z4.040 F1000.000
G2 X-13.437 Y321.394 Z4.040 I-0.012 J-1.116 K0.000 F1000.000
G1 X-13.437 Y314.320 Z4.040 F1000.000
G3 X-13.272 Y313.927 Z4.040 I0.509 J-0.017 K0.000 F1000.000
G1 X-9.850 Y310.576 Z4.040 F1000.000
G3 X-9.520 Y310.441 Z4.040 I0.314 J0.297 K0.000 F1000.000
G1 X-2.909 Y310.441 Z4.040 F1000.000
G3 X-2.879 Y310.471 Z4.040 I0.010 J0.020 K0.000 F1000.000
G1 X-2.879 Y313.251 Z4.040 F1000.000
G1 X-9.697 Y313.251 Z4.040 F1000.000
G2 X-10.863 Y314.417 Z4.040 I0.013 J1.179 K0.000 F1000.000
G1 X-10.863 Y317.420 Z4.040 F1000.000
G2 X-9.778 Y318.504 Z4.040 I1.096 J-0.011 K0.000 F1000.000
G1 X9.590 Y318.504 Z4.040 F1000.000
G2 X10.674 Y317.420 Z4.040 I-0.011 J-1.096 K0.000 F1000.000
G1 X10.674 Y314.417 Z4.040 F1000.000
G2 X9.508 Y313.251 Z4.040 I-1.179 J0.013 K0.000 F1000.000
G1 X2.687 Y313.251 Z4.040 F1000.000
G1 X2.687 Y310.471 Z4.040 F1000.000
G3 X2.720 Y310.437 Z4.040 I0.022 J-0.011 K0.000 F1000.000
G1 X9.331 Y310.437 Z4.040 F1000.000
G3 X9.661 Y310.573 Z4.040 I0.017 J0.432 K0.000 F1000.000
G1 X13.083 Y313.927 Z4.040 F1000.000
G3 X13.248 Y314.320 Z4.040 I-0.344 J0.375 K0.000 F1000.000
G1 X13.248 Y321.394 Z4.040 F1000.000
G2 X14.352 Y322.498 Z4.040 I1.116 J-0.012 K0.000 F1000.000
G1 X17.473 Y322.498 Z4.040 F1000.000
G2 X18.661 Y321.309 Z4.040 I-0.014 J-1.202 K0.000 F1000.000
G1 X18.661 Y314.431 Z4.040 F1000.000
G1 X21.510 Y314.431 Z4.040 F1000.000
G3 X21.555 Y314.475 Z4.040 I0.015 J0.029 K0.000 F1000.000
G1 X21.555 Y325.471 Z4.040 F1000.000
G1 X18.581 Y325.471 Z4.040 F1000.000
G2 X17.481 Y326.571 Z4.040 I0.012 J1.111 K0.000 F1000.000
G1 X17.481 Y329.604 Z4.040 F1000.000
G3 X17.461 Y329.625 Z4.040 I-0.013 J0.007 K0.000 F1000.000
G1 X14.168 Y329.625 Z4.040 F1000.000
G2 X13.088 Y330.704 Z4.040 I0.011 J1.091 K0.000 F1000.000
G1 X13.088 Y333.538 Z4.040 F1000.000
G1 X10.478 Y333.538 Z4.040 F1000.000
G2 X9.790 Y335.053 Z4.040 I0.000 J0.913 K0.000 F1000.000
G1 X13.060 Y338.791 Z4.040 F1000.000
G3 X13.088 Y338.865 Z4.040 I-0.053 J0.063 K0.000 F1000.000
G1 X13.088 Y341.765 Z4.040 F1000.000
G1 X10.392 Y341.765 Z4.040 F1000.000
G3 X10.278 Y341.718 Z4.040 I-0.014 J-0.129 K0.000 F1000.000
G1 X6.316 Y337.829 Z4.040 F1000.000
G3 X6.281 Y337.745 Z4.040 I0.050 J-0.070 K0.000 F1000.000
G1 X6.281 Y334.682 Z4.040 F1000.000
G2 X5.138 Y333.538 Z4.040 I-1.156 J0.013 K0.000 F1000.000
G1 X-5.327 Y333.538 Z4.040 F1000.000
G2 X-6.470 Y334.682 Z4.040 I0.013 J1.156 K0.000 F1000.000
G1 X-6.470 Y337.745 Z4.040 F1000.000
G3 X-6.505 Y337.829 Z4.040 I-0.085 J0.013 K0.000 F1000.000
G1 X-10.466 Y341.718 Z4.040 F1000.000
G3 X-10.581 Y341.765 Z4.040 I-0.100 J-0.082 K0.000 F1000.000
G1 X-13.277 Y341.765 Z4.040 F1000.000
G1 X-13.277 Y338.865 Z4.040 F1000.000
G3 X-13.249 Y338.791 Z4.040 I0.082 J-0.012 K0.000 F1000.000
G1 X-9.979 Y335.053 Z4.040 F1000.000
G2 X-10.666 Y333.538 Z4.040 I-0.688 J-0.601 K0.000 F1000.000
G1 X-13.277 Y333.538 Z4.040 F1000.000
G1 X-13.277 Y330.704 Z4.040 F1000.000
G2 X-14.178 Y329.641 Z4.040 I-1.091 J0.011 K0.000 F1000.000
G0 Z12.000
G0 X-11.448 Z12.000
G0 X-11.448 Z10.000
G1 X-11.448 Y329.641 Z4.040 F200.000
G1 X-11.448 Y326.510 Z4.040 F1000.000
G3 X-9.718 Y324.780 Z4.040 I1.730 J0.000 K0.000 F1000.000
G1 X-6.378 Y324.780 Z4.040 F1000.000
G3 X-4.648 Y326.510 Z4.040 I-0.000 J1.730 K0.000 F1000.000
G1 X-4.648 Y329.719 Z4.040 F1000.000
G3 X-6.378 Y331.449 Z4.040 I-1.730 J-0.000 K0.000 F1000.000
G1 X-9.718 Y331.449 Z4.040 F1000.000
G3 X-11.448 Y329.719 Z4.040 I0.000 J-1.730 K0.000 F1000.000
G1 X-11.448 Y329.641 Z4.040 F1000.000
G0 Z12.000
G0 X-10.708 Z12.000
G0 X-10.708 Z10.000
G1 X-10.708 Y329.641 Z4.040 F200.000
G1 X-10.708 Y326.510 Z4.040 F1000.000
G3 X-9.718 Y325.520 Z4.040 I0.999 J0.009 K0.000 F1000.000
G1 X-6.378 Y325.520 Z4.040 F1000.000
G3 X-5.388 Y326.510 Z4.040 I-0.009 J0.999 K0.000 F1000.000
G1 X-5.388 Y329.719 Z4.040 F1000.000
G3 X-6.378 Y330.709 Z4.040 I-0.999 J-0.009 K0.000 F1000.000
G1 X-9.718 Y330.709 Z4.040 F1000.000
G3 X-10.708 Y329.719 Z4.040 I0.009 J-0.999 K0.000 F1000.000
G1 X-10.708 Y329.641 Z4.040 F1000.000
G0 Z12.000
G0 X-11.797 Y331.043 Z12.000
G0 X-11.797 Y331.043 Z10.000
G1 X-11.797 Y331.043 Z4.040 F200.000
G2 X-10.414 Y332.075 Z4.040 I2.025 J-1.270 K0.000 F1000.000
G2 X-11.797 Y332.058 Z4.040 I-0.818 J10.341 K0.000 F1000.000
G1 X-11.797 Y331.043 Z4.040 F1000.000
G0 Z12.000
G0 X-9.997 Y332.161 Z12.000
G0 X-9.997 Y332.161 Z10.000
G1 X-9.997 Y332.161 Z4.040 F200.000
G1 X-9.718 Y332.189 Z4.040 F1000.000
G1 X-6.378 Y332.189 Z4.040 F1000.000
G1 X-5.971 Y332.148 Z4.040 F1000.000
G2 X-7.950 Y334.682 Z4.040 I0.647 J2.546 K0.000 F1000.000
G1 X-7.950 Y337.173 Z4.040 F1000.000
G1 X-11.119 Y340.285 Z4.040 F1000.000
G1 X-11.797 Y340.285 Z4.040 F1000.000
G1 X-11.797 Y339.379 Z4.040 F1000.000
G1 X-8.865 Y336.028 Z4.040 F1000.000
G2 X-9.997 Y332.161 Z4.040 I-1.794 J-1.574 K0.000 F1000.000
G0 Z12.000
G0 X-2.528 Y330.578 Z12.000
G0 X-2.528 Y330.578 Z10.000
G1 X-2.528 Y330.578 Z4.040 F200.000
G2 X-2.428 Y329.719 Z4.040 I-3.715 J-0.871 K0.000 F1000.000
G1 X-2.428 Y326.510 Z4.040 F1000.000
G2 X-6.378 Y322.560 Z4.040 I-3.953 J0.003 K0.000 F1000.000
G1 X-9.718 Y322.560 Z4.040 F1000.000
G2 X-10.698 Y322.696 Z4.040 I-0.071 J3.112 K0.000 F1000.000
G2 X-10.477 Y321.396 Z4.040 I-4.038 J-1.353 K0.000 F1000.000
G1 X-9.778 Y321.464 Z4.040 F1000.000
G1 X9.590 Y321.464 Z4.040 F1000.000
G1 X10.288 Y321.396 Z4.040 F1000.000
G2 X10.507 Y322.691 Z4.040 I4.251 J-0.053 K0.000 F1000.000
G2 X9.529 Y322.560 Z4.040 I-0.990 J3.683 K0.000 F1000.000
G1 X6.189 Y322.560 Z4.040 F1000.000
G2 X2.239 Y326.510 Z4.040 I0.003 J3.953 K0.000 F1000.000
G1 X2.239 Y329.719 Z4.040 F1000.000
G2 X2.329 Y330.536 Z4.040 I4.195 J-0.049 K0.000 F1000.000
G1 X2.341 Y330.578 Z4.040 F1000.000
G1 X-2.528 Y330.578 Z4.040 F1000.000
G0 Z12.000
G0 X-1.699 Y329.838 Z12.000
G0 X-1.699 Y329.838 Z10.000
G1 X-1.699 Y329.838 Z4.040 F200.000
G1 X-1.688 Y329.719 Z4.040 F1000.000
G1 X-1.688 Y326.510 Z4.040 F1000.000
G2 X-4.543 Y322.204 Z4.040 I-4.684 J0.006 K0.000 F1000.000
G1 X4.355 Y322.204 Z4.040 F1000.000
G2 X1.499 Y326.510 Z4.040 I1.826 J4.312 K0.000 F1000.000
G1 X1.499 Y329.719 Z4.040 F1000.000
G1 X1.511 Y329.838 Z4.040 F1000.000
G1 X-1.699 Y329.838 Z4.040 F1000.000
G0 Z12.000
G0 X-0.948 Y329.098 Z12.000
G0 X-0.948 Y329.098 Z10.000
G1 X-0.948 Y329.098 Z4.040 F200.000
G1 X-0.948 Y326.510 Z4.040 F1000.000
G2 X-2.284 Y322.944 Z4.040 I-5.425 J-0.000 K0.000 F1000.000
G1 X2.104 Y322.944 Z4.040 F1000.000
G2 X0.759 Y326.510 Z4.040 I4.034 J3.558 K0.000 F1000.000
G1 X0.759 Y329.098 Z4.040 F1000.000
G1 X-0.948 Y329.098 Z4.040 F1000.000
G0 Z12.000
G0 X-0.208 Y328.358 Z12.000
G0 X-0.208 Y328.358 Z10.000
G1 X-0.208 Y328.358 Z4.040 F200.000
G2 X-0.246 Y325.836 Z4.040 I-22.077 J-0.924 K0.000 F1000.000
G2 X-0.914 Y323.684 Z4.040 I-5.576 J0.552 K0.000 F1000.000
G1 X0.707 Y323.684 Z4.040 F1000.000
G2 X0.019 Y326.510 Z4.040 I5.609 J2.862 K0.000 F1000.000
G1 X0.019 Y328.358 Z4.040 F1000.000
G1 X-0.208 Y328.358 Z4.040 F1000.000
G0 Z12.000
G0 X-0.096 Y324.729 Z12.000
G0 X-0.096 Y324.729 Z10.000
G1 X-0.096 Y324.729 Z4.040 F200.000
G2 X-0.326 Y324.054 Z4.040 I-3.106 J0.682 K0.000 F1000.000
G1 X0.134 Y324.054 Z4.040 F1000.000
G2 X-0.096 Y324.729 Z4.040 I2.877 J1.358 K0.000 F1000.000
G0 Z12.000
G0 X4.525 Y326.039 Z12.000
G0 X4.525 Y326.039 Z10.000
G1 X4.525 Y326.039 Z4.040 F200.000
G3 X6.189 Y324.780 Z4.040 I1.665 J0.472 K0.000 F1000.000
G1 X9.529 Y324.780 Z4.040 F1000.000
G3 X11.259 Y326.510 Z4.040 I-0.000 J1.730 K0.000 F1000.000
G1 X11.259 Y329.719 Z4.040 F1000.000
G3 X9.529 Y331.449 Z4.040 I-1.730 J-0.000 K0.000 F1000.000
G1 X6.189 Y331.449 Z4.040 F1000.000
G3 X4.459 Y329.719 Z4.040 I0.000 J-1.730 K0.000 F1000.000
G1 X4.459 Y326.510 Z4.040 F1000.000
G3 X4.525 Y326.039 Z4.040 I1.730 J0.000 K0.000 F1000.000
G0 Z12.000
G0 X5.238 Y326.244 Z12.000
G0 X5.238 Y326.244 Z10.000
G1 X5.238 Y326.244 Z4.040 F200.000
G3 X6.189 Y325.520 Z4.040 I0.960 J0.276 K0.000 F1000.000
G1 X9.529 Y325.520 Z4.040 F1000.000
G3 X10.519 Y326.510 Z4.040 I-0.009 J0.999 K0.000 F1000.000
G1 X10.519 Y329.719 Z4.040 F1000.000
G3 X9.529 Y330.709 Z4.040 I-0.999 J-0.009 K0.000 F1000.000
G1 X6.189 Y330.709 Z4.040 F1000.000
G3 X5.199 Y329.719 Z4.040 I0.009 J-0.999 K0.000 F1000.000
G1 X5.199 Y326.510 Z4.040 F1000.000
G3 X5.238 Y326.244 Z4.040 I0.999 J0.009 K0.000 F1000.000
G0 Z12.000
G0 X5.779 Y332.148 Z12.000
G0 X5.779 Y332.148 Z10.000
G1 X5.779 Y332.148 Z4.040 F200.000
G1 X6.189 Y332.189 Z4.040 F1000.000
G1 X9.529 Y332.189 Z4.040 F1000.000
G1 X9.808 Y332.161 Z4.040 F1000.000
G2 X8.676 Y336.028 Z4.040 I0.675 J2.297 K0.000 F1000.000
G1 X11.608 Y339.379 Z4.040 F1000.000
G1 X11.608 Y340.285 Z4.040 F1000.000
G1 X10.931 Y340.285 Z4.040 F1000.000
G1 X7.761 Y337.173 Z4.040 F1000.000
G1 X7.761 Y334.682 Z4.040 F1000.000
G2 X5.779 Y332.148 Z4.040 I-2.625 J0.012 K0.000 F1000.000
G0 Z12.000
G0 X10.203 Y332.084 Z12.000
G0 X10.203 Y332.084 Z10.000
G1 X10.203 Y332.084 Z4.040 F200.000
G2 X11.608 Y331.042 Z4.040 I-0.601 J-2.280 K0.000 F1000.000
G1 X11.608 Y332.058 Z4.040 F1000.000
G2 X10.203 Y332.084 Z4.040 I-0.565 J7.598 K0.000 F1000.000
G0 Z12.000
G0 X13.479 Y326.732 Z12.000
G0 X13.479 Y326.732 Z10.000
G1 X13.479 Y326.732 Z4.040 F200.000
G2 X13.282 Y325.307 Z4.040 I-4.018 J-0.172 K0.000 F1000.000
G2 X14.683 Y325.458 Z4.040 I1.173 J-4.288 K0.000 F1000.000
G2 X14.521 Y326.665 Z4.040 I4.135 J1.170 K0.000 F1000.000
G2 X13.479 Y326.732 Z4.040 I-0.177 J5.328 K0.000 F1000.000
G1 X13.479 Y326.732 Z4.000 F200.000
G2 X13.282 Y325.307 Z4.000 I-4.018 J-0.172 K0.000 F1000.000
G2 X14.683 Y325.458 Z4.000 I1.173 J-4.288 K0.000 F1000.000
G2 X14.521 Y326.665 Z4.000 I4.135 J1.170 K0.000 F1000.000
G2 X13.479 Y326.732 Z4.000 I-0.177 J5.328 K0.000 F1000.000
G0 Z12.000
G0 X12.752 Y326.761 Z12.000
G0 X12.752 Y326.761 Z10.000
G1 X12.752 Y326.761 Z4.000 F200.000
G2 X12.682 Y325.933 Z4.000 I-9.279 J0.370 K0.000 F1000.000
G2 X9.529 Y323.300 Z4.000 I-3.163 J0.584 K0.000 F1000.000
G1 X6.189 Y323.300 Z4.000 F1000.000
G2 X2.979 Y326.510 Z4.000 I0.000 J3.210 K0.000 F1000.000
G1 X2.979 Y329.719 Z4.000 F1000.000
G2 X3.425 Y331.318 Z4.000 I3.139 J-0.013 K0.000 F1000.000
G1 X-3.607 Y331.318 Z4.000 F1000.000
G1 X-3.454 Y331.043 Z4.000 F1000.000
G2 X-3.168 Y329.719 Z4.000 I-3.131 J-1.369 K0.000 F1000.000
G1 X-3.168 Y326.510 Z4.000 F1000.000
G2 X-6.378 Y323.300 Z4.000 I-3.210 J0.000 K0.000 F1000.000
G1 X-9.718 Y323.300 Z4.000 F1000.000
G2 X-12.928 Y326.510 Z4.000 I0.000 J3.210 K0.000 F1000.000
G1 X-12.928 Y327.737 Z4.000 F1000.000
G1 X-12.998 Y327.697 Z4.000 F1000.000
G2 X-14.357 Y327.405 Z4.000 I-1.419 J3.288 K0.000 F1000.000
G1 X-15.453 Y327.405 Z4.000 F1000.000
G2 X-15.510 Y325.993 Z4.000 I-7.194 J-0.417 K0.000 F1000.000
G2 X-16.027 Y324.718 Z4.000 I-3.013 J0.478 K0.000 F1000.000
G1 X-14.541 Y324.718 Z4.000 F1000.000
G2 X-11.217 Y321.394 Z4.000 I-0.000 J-3.324 K0.000 F1000.000
G1 X-11.217 Y320.387 Z4.000 F1000.000
G1 X-11.139 Y320.431 Z4.000 F1000.000
G2 X-9.778 Y320.724 Z4.000 I1.422 J-3.297 K0.000 F1000.000
G1 X9.590 Y320.724 Z4.000 F1000.000
G2 X11.028 Y320.372 Z4.000 I-0.010 J-3.157 K0.000 F1000.000
G2 X11.085 Y321.971 Z4.000 I8.146 J0.511 K0.000 F1000.000
G2 X14.352 Y324.718 Z4.000 I3.281 J-0.586 K0.000 F1000.000
G1 X15.835 Y324.718 Z4.000 F1000.000
G2 X15.261 Y326.571 Z4.000 I2.831 J1.891 K0.000 F1000.000
G1 X15.261 Y327.405 Z4.000 F1000.000
G2 X13.590 Y327.461 Z4.000 I-0.547 J8.511 K0.000 F1000.000
G2 X12.739 Y327.753 Z4.000 I0.244 J2.107 K0.000 F1000.000
G2 X12.752 Y326.761 Z4.000 I-9.265 J-0.621 K0.000 F1000.000
G0 Z12.000
G0 X11.999 Z12.000
G0 X11.999 Z10.000
G1 X11.999 Y326.761 Z4.000 F200.000
G1 X11.999 Y326.510 Z4.000 F1000.000
G2 X9.529 Y324.040 Z4.000 I-2.470 J0.000 K0.000 F1000.000
G1 X6.189 Y324.040 Z4.000 F1000.000
G2 X3.719 Y326.510 Z4.000 I0.000 J2.470 K0.000 F1000.000
G1 X3.719 Y329.719 Z4.000 F1000.000
G2 X5.586 Y332.104 Z4.000 I2.465 J-0.006 K0.000 F1000.000
G2 X5.138 Y332.058 Z4.000 I-0.456 J2.252 K0.000 F1000.000
G1 X-5.327 Y332.058 Z4.000 F1000.000
G2 X-5.765 Y332.102 Z4.000 I0.003 J2.248 K0.000 F1000.000
G2 X-3.908 Y329.719 Z4.000 I-0.609 J-2.390 K0.000 F1000.000
G1 X-3.908 Y326.510 Z4.000 F1000.000
G2 X-6.378 Y324.040 Z4.000 I-2.470 J0.000 K0.000 F1000.000
G1 X-9.718 Y324.040 Z4.000 F1000.000
G2 X-12.188 Y326.510 Z4.000 I0.000 J2.470 K0.000 F1000.000
G1 X-12.188 Y329.359 Z4.000 F1000.000
G2 X-14.357 Y328.145 Z4.000 I-2.182 J1.354 K0.000 F1000.000
G1 X-16.193 Y328.145 Z4.000 F1000.000
G1 X-16.193 Y326.571 Z4.000 F1000.000
G2 X-18.773 Y323.991 Z4.000 I-2.579 J0.000 K0.000 F1000.000
G1 X-20.263 Y323.991 Z4.000 F1000.000
G1 X-20.263 Y321.880 Z4.000 F1000.000
G2 X-17.665 Y323.978 Z4.000 I2.614 J-0.579 K0.000 F1000.000
G1 X-14.541 Y323.978 Z4.000 F1000.000
G2 X-11.957 Y321.394 Z4.000 I-0.000 J-2.584 K0.000 F1000.000
G1 X-11.957 Y318.757 Z4.000 F1000.000
G2 X-9.778 Y319.984 Z4.000 I2.191 J-1.343 K0.000 F1000.000
G1 X9.590 Y319.984 Z4.000 F1000.000
G2 X11.768 Y318.759 Z4.000 I-0.011 J-2.569 K0.000 F1000.000
G1 X11.768 Y321.394 Z4.000 F1000.000
G2 X14.352 Y323.978 Z4.000 I2.584 J-0.000 K0.000 F1000.000
G1 X17.473 Y323.978 Z4.000 F1000.000
G2 X20.075 Y321.863 Z4.000 I0.009 J-2.647 K0.000 F1000.000
G1 X20.075 Y323.991 Z4.000 F1000.000
G1 X18.581 Y323.991 Z4.000 F1000.000
G2 X16.001 Y326.571 Z4.000 I0.000 J2.579 K0.000 F1000.000
G1 X16.001 Y328.145 Z4.000 F1000.000
G1 X14.168 Y328.145 Z4.000 F1000.000
G2 X11.999 Y329.359 Z4.000 I0.012 J2.566 K0.000 F1000.000
G1 X11.999 Y326.761 Z4.000 F1000.000
G0 Z12.000
G0 X11.259 Z12.000
G0 X11.259 Z10.000
G1 X11.259 Y326.761 Z4.000 F200.000
G1 X11.259 Y329.719 Z4.000 F1000.000
G3 X9.529 Y331.449 Z4.000 I-1.730 J-0.000 K0.000 F1000.000
G1 X6.189 Y331.449 Z4.000 F1000.000
G3 X4.459 Y329.719 Z4.000 I0.000 J-1.730 K0.000 F1000.000
G1 X4.459 Y326.510 Z4.000 F1000.000
G3 X6.189 Y324.780 Z4.000 I1.730 J0.000 K0.000 F1000.000
G1 X9.529 Y324.780 Z4.000 F1000.000
G3 X11.259 Y326.510 Z4.000 I-0.000 J1.730 K0.000 F1000.000
G1 X11.259 Y326.761 Z4.000 F1000.000
G0 Z12.000
G0 X10.519 Z12.000
G0 X10.519 Z10.000
G1 X10.519 Y326.761 Z4.000 F200.000
G1 X10.519 Y329.719 Z4.000 F1000.000
G3 X9.529 Y330.709 Z4.000 I-0.999 J-0.009 K0.000 F1000.000
G1 X6.189 Y330.709 Z4.000 F1000.000
G3 X5.199 Y329.719 Z4.000 I0.009 J-0.999 K0.000 F1000.000
G1 X5.199 Y326.510 Z4.000 F1000.000
G3 X6.189 Y325.520 Z4.000 I0.999 J0.009 K0.000 F1000.000
G1 X9.529 Y325.520 Z4.000 F1000.000
G3 X10.519 Y326.510 Z4.000 I-0.009 J0.999 K0.000 F1000.000
G1 X10.519 Y326.761 Z4.000 F1000.000
G0 Z12.000
G0 X12.932 Y329.369 Z12.000
G0 X12.932 Y329.369 Z10.000
G1 X12.932 Y329.369 Z4.000 F200.000
G2 X12.348 Y330.704 Z4.000 I1.236 J1.335 K0.000 F1000.000
G1 X12.348 Y332.798 Z4.000 F1000.000
G1 X10.478 Y332.798 Z4.000 F1000.000
G2 X9.233 Y335.540 Z4.000 I0.003 J1.655 K0.000 F1000.000
G1 X12.348 Y339.101 Z4.000 F1000.000
G1 X12.348 Y341.025 Z4.000 F1000.000
G1 X10.628 Y341.025 Z4.000 F1000.000
G1 X7.021 Y337.484 Z4.000 F1000.000
G1 X7.021 Y334.682 Z4.000 F1000.000
G2 X5.138 Y332.798 Z4.000 I-1.884 J0.000 K0.000 F1000.000
G1 X-5.327 Y332.798 Z4.000 F1000.000
G2 X-7.210 Y334.682 Z4.000 I0.000 J1.884 K0.000 F1000.000
G1 X-7.210 Y337.484 Z4.000 F1000.000
G1 X-10.817 Y341.025 Z4.000 F1000.000
G1 X-12.537 Y341.025 Z4.000 F1000.000
G1 X-12.537 Y339.101 Z4.000 F1000.000
G1 X-9.422 Y335.540 Z4.000 F1000.000
G2 X-10.666 Y332.798 Z4.000 I-1.248 J-1.087 K0.000 F1000.000
G1 X-12.537 Y332.798 Z4.000 F1000.000
G1 X-12.537 Y330.704 Z4.000 F1000.000
G2 X-14.357 Y328.885 Z4.000 I-1.820 J0.000 K0.000 F1000.000
G1 X-16.933 Y328.885 Z4.000 F1000.000
G1 X-16.933 Y326.571 Z4.000 F1000.000
G2 X-18.773 Y324.731 Z4.000 I-1.840 J0.000 K0.000 F1000.000
G1 X-21.003 Y324.731 Z4.000 F1000.000
G1 X-21.003 Y315.171 Z4.000 F1000.000
G1 X-19.593 Y315.171 Z4.000 F1000.000
G1 X-19.593 Y321.309 Z4.000 F1000.000
G2 X-17.665 Y323.238 Z4.000 I1.929 J-0.000 K0.000 F1000.000
G1 X-14.541 Y323.238 Z4.000 F1000.000
G2 X-12.697 Y321.394 Z4.000 I-0.000 J-1.844 K0.000 F1000.000
G1 X-12.697 Y314.400 Z4.000 F1000.000
G1 X-9.411 Y311.181 Z4.000 F1000.000
G1 X-3.619 Y311.181 Z4.000 F1000.000
G1 X-3.619 Y312.511 Z4.000 F1000.000
G1 X-9.697 Y312.511 Z4.000 F1000.000
G2 X-11.603 Y314.417 Z4.000 I0.000 J1.906 K0.000 F1000.000
G1 X-11.603 Y317.420 Z4.000 F1000.000
G2 X-9.778 Y319.244 Z4.000 I1.825 J-0.000 K0.000 F1000.000
G1 X9.590 Y319.244 Z4.000 F1000.000
G2 X11.414 Y317.420 Z4.000 I-0.000 J-1.825 K0.000 F1000.000
G1 X11.414 Y314.417 Z4.000 F1000.000
G2 X9.508 Y312.511 Z4.000 I-1.906 J0.000 K0.000 F1000.000
G1 X3.427 Y312.511 Z4.000 F1000.000
G1 X3.427 Y311.177 Z4.000 F1000.000
G1 X9.222 Y311.177 Z4.000 F1000.000
G1 X12.508 Y314.400 Z4.000 F1000.000
G1 X12.508 Y321.394 Z4.000 F1000.000
G2 X14.352 Y323.238 Z4.000 I1.844 J-0.000 K0.000 F1000.000
G1 X17.473 Y323.238 Z4.000 F1000.000
G2 X19.401 Y321.309 Z4.000 I-0.000 J-1.929 K0.000 F1000.000
G1 X19.401 Y315.171 Z4.000 F1000.000
G1 X20.815 Y315.171 Z4.000 F1000.000
G1 X20.815 Y324.731 Z4.000 F1000.000
G1 X18.581 Y324.731 Z4.000 F1000.000
G2 X16.741 Y326.571 Z4.000 I0.000 J1.840 K0.000 F1000.000
G1 X16.741 Y328.885 Z4.000 F1000.000
G1 X14.168 Y328.885 Z4.000 F1000.000
G2 X12.932 Y329.369 Z4.000 I0.000 J1.820 K0.000 F1000.000
G0 Z12.000
G0 X13.438 Y329.915 Z12.000
G0 X13.438 Y329.915 Z10.000
G1 X13.438 Y329.915 Z4.000 F200.000
G2 X13.088 Y330.704 Z4.000 I0.741 J0.800 K0.000 F1000.000
G1 X13.088 Y333.538 Z4.000 F1000.000
G1 X10.478 Y333.538 Z4.000 F1000.000
G2 X9.790 Y335.053 Z4.000 I0.000 J0.913 K0.000 F1000.000
G1 X13.060 Y338.791 Z4.000 F1000.000
G3 X13.088 Y338.865 Z4.000 I-0.053 J0.063 K0.000 F1000.000
G1 X13.088 Y341.765 Z4.000 F1000.000
G1 X10.392 Y341.765 Z4.000 F1000.000
G3 X10.278 Y341.718 Z4.000 I-0.014 J-0.129 K0.000 F1000.000
G1 X6.316 Y337.829 Z4.000 F1000.000
G3 X6.281 Y337.745 Z4.000 I0.050 J-0.070 K0.000 F1000.000
G1 X6.281 Y334.682 Z4.000 F1000.000
G2 X5.138 Y333.538 Z4.000 I-1.156 J0.013 K0.000 F1000.000
G1 X-5.327 Y333.538 Z4.000 F1000.000
G2 X-6.470 Y334.682 Z4.000 I0.013 J1.156 K0.000 F1000.000
G1 X-6.470 Y337.745 Z4.000 F1000.000
G3 X-6.505 Y337.829 Z4.000 I-0.085 J0.013 K0.000 F1000.000
G1 X-10.466 Y341.718 Z4.000 F1000.000
G3 X-10.581 Y341.765 Z4.000 I-0.100 J-0.082 K0.000 F1000.000
G1 X-13.277 Y341.765 Z4.000 F1000.000
G1 X-13.277 Y338.865 Z4.000 F1000.000
G3 X-13.249 Y338.791 Z4.000 I0.082 J-0.012 K0.000 F1000.000
G1 X-9.979 Y335.053 Z4.000 F1000.000
G2 X-10.666 Y333.538 Z4.000 I-0.688 J-0.601 K0.000 F1000.000
G1 X-13.277 Y333.538 Z4.000 F1000.000
G1 X-13.277 Y330.704 Z4.000 F1000.000
G2 X-14.357 Y329.625 Z4.000 I-1.091 J0.011 K0.000 F1000.000
G1 X-17.650 Y329.625 Z4.000 F1000.000
G3 X-17.673 Y329.601 Z4.000 I-0.008 J-0.016 K0.000 F1000.000
G1 X-17.673 Y326.571 Z4.000 F1000.000
G2 X-18.773 Y325.471 Z4.000 I-1.111 J0.012 K0.000 F1000.000
G1 X-21.743 Y325.471 Z4.000 F1000.000
G1 X-21.743 Y314.475 Z4.000 F1000.000
G3 X-21.699 Y314.431 Z4.000 I0.029 J-0.015 K0.000 F1000.000
G1 X-18.853 Y314.431 Z4.000 F1000.000
G1 X-18.853 Y321.309 Z4.000 F1000.000
G2 X-17.665 Y322.498 Z4.000 I1.202 J-0.014 K0.000 F1000.000
G1 X-14.541 Y322.498 Z4.000 F1000.000
G2 X-13.437 Y321.394 Z4.000 I-0.012 J-1.116 K0.000 F1000.000
G1 X-13.437 Y314.320 Z4.000 F1000.000
G3 X-13.272 Y313.927 Z4.000 I0.509 J-0.017 K0.000 F1000.000
G1 X-9.850 Y310.576 Z4.000 F1000.000
G3 X-9.520 Y310.441 Z4.000 I0.314 J0.297 K0.000 F1000.000
G1 X-2.909 Y310.441 Z4.000 F1000.000
G3 X-2.879 Y310.471 Z4.000 I0.010 J0.020 K0.000 F1000.000
G1 X-2.879 Y313.251 Z4.000 F1000.000
G1 X-9.697 Y313.251 Z4.000 F1000.000
G2 X-10.863 Y314.417 Z4.000 I0.013 J1.179 K0.000 F1000.000
G1 X-10.863 Y317.420 Z4.000 F1000.000
G2 X-9.778 Y318.504 Z4.000 I1.096 J-0.011 K0.000 F1000.000
G1 X9.590 Y318.504 Z4.000 F1000.000
G2 X10.674 Y317.420 Z4.000 I-0.011 J-1.096 K0.000 F1000.000
G1 X10.674 Y314.417 Z4.000 F1000.000
G2 X9.508 Y313.251 Z4.000 I-1.179 J0.013 K0.000 F1000.000
G1 X2.687 Y313.251 Z4.000 F1000.000
G1 X2.687 Y310.471 Z4.000 F1000.000
G3 X2.720 Y310.437 Z4.000 I0.022 J-0.011 K0.000 F1000.000
G1 X9.331 Y310.437 Z4.000 F1000.000
G3 X9.661 Y310.573 Z4.000 I0.017 J0.432 K0.000 F1000.000
G1 X13.083 Y313.927 Z4.000 F1000.000
G3 X13.248 Y314.320 Z4.000 I-0.344 J0.375 K0.000 F1000.000
G1 X13.248 Y321.394 Z4.000 F1000.000
G2 X14.352 Y322.498 Z4.000 I1.116 J-0.012 K0.000 F1000.000
G1 X17.473 Y322.498 Z4.000 F1000.000
G2 X18.661 Y321.309 Z4.000 I-0.014 J-1.202 K0.000 F1000.000
G1 X18.661 Y314.431 Z4.000 F1000.000
G1 X21.510 Y314.431 Z4.000 F1000.000
G3 X21.555 Y314.475 Z4.000 I0.015 J0.029 K0.000 F1000.000
G1 X21.555 Y325.471 Z4.000 F1000.000
G1 X18.581 Y325.471 Z4.000 F1000.000
G2 X17.481 Y326.571 Z4.000 I0.012 J1.111 K0.000 F1000.000
G1 X17.481 Y329.604 Z4.000 F1000.000
G3 X17.461 Y329.625 Z4.000 I-0.013 J0.007 K0.000 F1000.000
G1 X14.168 Y329.625 Z4.000 F1000.000
G2 X13.438 Y329.915 Z4.000 I0.011 J1.091 K0.000 F1000.000
G0 Z12.000
G0 X11.608 Y331.042 Z12.000
G0 X11.608 Y331.042 Z10.000
G1 X11.608 Y331.042 Z4.000 F200.000
G1 X11.608 Y332.058 Z4.000 F1000.000
G2 X10.203 Y332.084 Z4.000 I-0.565 J7.598 K0.000 F1000.000
G2 X11.608 Y331.042 Z4.000 I-0.601 J-2.280 K0.000 F1000.000
G0 Z12.000
G0 X9.808 Y332.161 Z12.000
G0 X9.808 Y332.161 Z10.000
G1 X9.808 Y332.161 Z4.000 F200.000
G2 X8.676 Y336.028 Z4.000 I0.675 J2.297 K0.000 F1000.000
G1 X11.608 Y339.379 Z4.000 F1000.000
G1 X11.608 Y340.285 Z4.000 F1000.000
G1 X10.931 Y340.285 Z4.000 F1000.000
G1 X7.761 Y337.173 Z4.000 F1000.000
G1 X7.761 Y334.682 Z4.000 F1000.000
G2 X5.779 Y332.148 Z4.000 I-2.625 J0.012 K0.000 F1000.000
G1 X6.189 Y332.189 Z4.000 F1000.000
G1 X9.529 Y332.189 Z4.000 F1000.000
G1 X9.808 Y332.161 Z4.000 F1000.000
G0 Z12.000
G0 X2.341 Y330.578 Z12.000
G0 X2.341 Y330.578 Z10.000
G1 X2.341 Y330.578 Z4.000 F200.000
G1 X-2.528 Y330.578 Z4.000 F1000.000
G2 X-2.428 Y329.719 Z4.000 I-3.715 J-0.871 K0.000 F1000.000
G1 X-2.428 Y326.510 Z4.000 F1000.000
G2 X-6.378 Y322.560 Z4.000 I-3.953 J0.003 K0.000 F1000.000
G1 X-9.718 Y322.560 Z4.000 F1000.000
G2 X-10.698 Y322.696 Z4.000 I-0.071 J3.112 K0.000 F1000.000
G2 X-10.477 Y321.396 Z4.000 I-4.038 J-1.353 K0.000 F1000.000
G1 X-9.778 Y321.464 Z4.000 F1000.000
G1 X9.590 Y321.464 Z4.000 F1000.000
G1 X10.288 Y321.396 Z4.000 F1000.000
G2 X10.507 Y322.691 Z4.000 I4.251 J-0.053 K0.000 F1000.000
G2 X9.529 Y322.560 Z4.000 I-0.990 J3.683 K0.000 F1000.000
G1 X6.189 Y322.560 Z4.000 F1000.000
G2 X2.239 Y326.510 Z4.000 I0.003 J3.953 K0.000 F1000.000
G1 X2.239 Y329.719 Z4.000 F1000.000
G2 X2.329 Y330.536 Z4.000 I4.195 J-0.049 K0.000 F1000.000
G1 X2.341 Y330.578 Z4.000 F1000.000
G0 Z12.000
G0 X1.511 Y329.838 Z12.000
G0 X1.511 Y329.838 Z10.000
G1 X1.511 Y329.838 Z4.000 F200.000
G1 X-1.699 Y329.838 Z4.000 F1000.000
G1 X-1.688 Y329.719 Z4.000 F1000.000
G1 X-1.688 Y326.510 Z4.000 F1000.000
G2 X-4.543 Y322.204 Z4.000 I-4.684 J0.006 K0.000 F1000.000
G1 X4.355 Y322.204 Z4.000 F1000.000
G2 X1.499 Y326.510 Z4.000 I1.826 J4.312 K0.000 F1000.000
G1 X1.499 Y329.719 Z4.000 F1000.000
G1 X1.511 Y329.838 Z4.000 F1000.000
G0 Z12.000
G0 X0.759 Y329.098 Z12.000
G0 X0.759 Y329.098 Z10.000
G1 X0.759 Y329.098 Z4.000 F200.000
G1 X-0.948 Y329.098 Z4.000 F1000.000
G1 X-0.948 Y326.510 Z4.000 F1000.000
G2 X-2.284 Y322.944 Z4.000 I-5.425 J-0.000 K0.000 F1000.000
G1 X2.104 Y322.944 Z4.000 F1000.000
G2 X0.759 Y326.510 Z4.000 I4.034 J3.558 K0.000 F1000.000
G1 X0.759 Y329.098 Z4.000 F1000.000
G0 Z12.000
G0 X0.019 Y328.358 Z12.000
G0 X0.019 Y328.358 Z10.000
G1 X0.019 Y328.358 Z4.000 F200.000
G1 X-0.208 Y328.358 Z4.000 F1000.000
G2 X-0.246 Y325.836 Z4.000 I-22.077 J-0.924 K0.000 F1000.000
G2 X-0.914 Y323.684 Z4.000 I-5.576 J0.552 K0.000 F1000.000
G1 X0.707 Y323.684 Z4.000 F1000.000
G2 X0.019 Y326.510 Z4.000 I5.609 J2.862 K0.000 F1000.000
G1 X0.019 Y328.358 Z4.000 F1000.000
G0 Z12.000
G0 X-0.096 Y324.729 Z12.000
G0 X-0.096 Y324.729 Z10.000
G1 X-0.096 Y324.729 Z4.000 F200.000
G2 X-0.326 Y324.054 Z4.000 I-3.106 J0.682 K0.000 F1000.000
G1 X0.134 Y324.054 Z4.000 F1000.000
G2 X-0.096 Y324.729 Z4.000 I2.877 J1.358 K0.000 F1000.000
G0 Z12.000
G0 X-4.713 Y326.038 Z12.000
G0 X-4.713 Y326.038 Z10.000
G1 X-4.713 Y326.038 Z4.000 F200.000
G3 X-4.648 Y326.510 Z4.000 I-1.665 J0.472 K0.000 F1000.000
G1 X-4.648 Y329.719 Z4.000 F1000.000
G3 X-6.378 Y331.449 Z4.000 I-1.730 J-0.000 K0.000 F1000.000
G1 X-9.718 Y331.449 Z4.000 F1000.000
G3 X-11.448 Y329.719 Z4.000 I0.000 J-1.730 K0.000 F1000.000
G1 X-11.448 Y326.510 Z4.000 F1000.000
G3 X-9.718 Y324.780 Z4.000 I1.730 J0.000 K0.000 F1000.000
G1 X-6.378 Y324.780 Z4.000 F1000.000
G3 X-4.713 Y326.038 Z4.000 I-0.000 J1.730 K0.000 F1000.000
G0 Z12.000
G0 X-5.426 Y326.244 Z12.000
G0 X-5.426 Y326.244 Z10.000
G1 X-5.426 Y326.244 Z4.000 F200.000
G3 X-5.388 Y326.510 Z4.000 I-0.960 J0.276 K0.000 F1000.000
G1 X-5.388 Y329.719 Z4.000 F1000.000
G3 X-6.378 Y330.709 Z4.000 I-0.999 J-0.009 K0.000 F1000.000
G1 X-9.718 Y330.709 Z4.000 F1000.000
G3 X-10.708 Y329.719 Z4.000 I0.009 J-0.999 K0.000 F1000.000
G1 X-10.708 Y326.510 Z4.000 F1000.000
G3 X-9.718 Y325.520 Z4.000 I0.999 J0.009 K0.000 F1000.000
G1 X-6.378 Y325.520 Z4.000 F1000.000
G3 X-5.426 Y326.244 Z4.000 I-0.009 J0.999 K0.000 F1000.000
G0 Z12.000
G0 X-5.971 Y332.148 Z12.000
G0 X-5.971 Y332.148 Z10.000
G1 X-5.971 Y332.148 Z4.000 F200.000
G2 X-7.950 Y334.682 Z4.000 I0.647 J2.546 K0.000 F1000.000
G1 X-7.950 Y337.173 Z4.000 F1000.000
G1 X-11.119 Y340.285 Z4.000 F1000.000
G1 X-11.797 Y340.285 Z4.000 F1000.000
G1 X-11.797 Y339.379 Z4.000 F1000.000
G1 X-8.865 Y336.028 Z4.000 F1000.000
G2 X-9.997 Y332.161 Z4.000 I-1.794 J-1.574 K0.000 F1000.000
G1 X-9.718 Y332.189 Z4.000 F1000.000
G1 X-6.378 Y332.189 Z4.000 F1000.000
G1 X-5.971 Y332.148 Z4.000 F1000.000
G0 Z12.000
G0 X-10.414 Y332.075 Z12.000
G0 X-10.414 Y332.075 Z10.000
G1 X-10.414 Y332.075 Z4.000 F200.000
G2 X-11.797 Y332.058 Z4.000 I-0.818 J10.341 K0.000 F1000.000
G1 X-11.797 Y331.043 Z4.000 F1000.000
G2 X-10.414 Y332.075 Z4.000 I2.025 J-1.270 K0.000 F1000.000
G0 Z12.000
G0 X-13.668 Y326.732 Z12.000
G0 X-13.668 Y326.732 Z10.000
G1 X-13.668 Y326.732 Z4.000 F200.000
G2 X-14.713 Y326.665 Z4.000 I-0.867 J5.275 K0.000 F1000.000
G2 X-14.882 Y325.458 Z4.000 I-3.893 J-0.072 K0.000 F1000.000
G2 X-13.475 Y325.303 Z4.000 I0.260 J-4.095 K0.000 F1000.000
G2 X-13.668 Y326.732 Z4.000 I4.080 J1.277 K0.000 F1000.000
G0 Z12.000
G0 Z12.000
(Finish operation: Pocket_Shape)
(Begin postamble)
M5
G17 G90
M2
