(Exported by FreeCAD)
(Post Processor: grbl_post)
(Output Time:2024-03-03 21:19:34.554038)
(Begin preamble)
G17 G90
G21
(Begin operation: 1.5 z2 Q007)
(Path: 1.5 z2 Q007)
(1.5 z2 Q007)
(Begin toolchange)
( M6 T15 )
M3 S24000
(Finish operation: 1.5 z2 Q007)
(Begin operation: Fixture)
(Path: Fixture)
G54
(Finish operation: Fixture)
(Begin operation: Profile)
(Path: Profile)
(Profile)
(Compensated Tool Path. Diameter: 1.5)
G0 Z7.000
G0 X-6.533 Y19.621
G0 Z5.000
G1 X-6.533 Y19.621 Z1.250 F200.000
G1 X-9.373 Y19.621 Z1.250 F1000.000
G1 X-9.373 Y16.913 Z1.250 F1000.000
G1 X-6.533 Y16.913 Z1.250 F1000.000
G1 X-6.533 Y19.621 Z1.250 F1000.000
G1 X-6.533 Y19.621 Z0.500 F200.000
G1 X-9.373 Y19.621 Z0.500 F1000.000
G1 X-9.373 Y16.913 Z0.500 F1000.000
G1 X-6.533 Y16.913 Z0.500 F1000.000
G1 X-6.533 Y19.621 Z0.500 F1000.000
G1 X-6.533 Y19.621 Z0.000 F200.000
G1 X-9.373 Y19.621 Z0.000 F1000.000
G1 X-9.373 Y16.913 Z0.000 F1000.000
G1 X-6.533 Y16.913 Z0.000 F1000.000
G1 X-6.533 Y19.621 Z0.000 F1000.000
G0 Z7.000
G0 Z7.000
G0 X-6.533 Y19.621
G0 X6.533
G0 X6.533 Z5.000
G1 X6.533 Y19.621 Z1.250 F200.000
G1 X6.533 Y16.913 Z1.250 F1000.000
G1 X9.373 Y16.913 Z1.250 F1000.000
G1 X9.373 Y19.621 Z1.250 F1000.000
G1 X6.533 Y19.621 Z1.250 F1000.000
G1 X6.533 Y19.621 Z0.500 F200.000
G1 X6.533 Y16.913 Z0.500 F1000.000
G1 X9.373 Y16.913 Z0.500 F1000.000
G1 X9.373 Y19.621 Z0.500 F1000.000
G1 X6.533 Y19.621 Z0.500 F1000.000
G1 X6.533 Y19.621 Z0.000 F200.000
G1 X6.533 Y16.913 Z0.000 F1000.000
G1 X9.373 Y16.913 Z0.000 F1000.000
G1 X9.373 Y19.621 Z0.000 F1000.000
G1 X6.533 Y19.621 Z0.000 F1000.000
G0 Z7.000
G0 Z7.000
G0 X6.533 Y19.621
G0 X5.036 Y25.031
G0 X5.036 Y25.031 Z5.000
G1 X5.036 Y25.031 Z1.250 F200.000
G1 X5.036 Y27.934 Z1.250 F1000.000
G2 X5.395 Y28.857 Z1.250 I1.381 J-0.007 K0.000 F1000.000
G1 X9.459 Y32.852 Z1.250 F1000.000
G2 X10.378 Y33.254 Z1.250 I0.995 J-1.024 K0.000 F1000.000
G1 X13.303 Y33.257 Z1.250 F1000.000
G2 X14.523 Y32.038 Z1.250 I-0.014 J-1.234 K0.000 F1000.000
G1 X14.523 Y28.985 Z1.250 F1000.000
G2 X14.227 Y28.138 Z1.250 I-1.377 J0.006 K0.000 F1000.000
G1 X11.511 Y25.031 Z1.250 F1000.000
G1 X13.320 Y25.031 Z1.250 F1000.000
G2 X14.523 Y23.828 Z1.250 I-0.014 J-1.216 K0.000 F1000.000
G1 X14.523 Y21.117 Z1.250 F1000.000
G1 X17.614 Y21.117 Z1.250 F1000.000
G2 X18.906 Y19.932 Z1.250 I-0.007 J-1.306 K0.000 F1000.000
G1 X18.915 Y16.964 Z1.250 F1000.000
G1 X21.735 Y16.964 Z1.250 F1000.000
G2 X22.989 Y15.710 Z1.250 I-0.015 J-1.269 K0.000 F1000.000
G1 X22.989 Y4.570 Z1.250 F1000.000
G2 X21.663 Y3.244 Z1.250 I-1.336 J0.010 K0.000 F1000.000
G1 X18.660 Y3.244 Z1.250 F1000.000
G2 X17.416 Y4.488 Z1.250 I0.014 J1.259 K0.000 F1000.000
G1 X17.416 Y11.310 Z1.250 F1000.000
G1 X14.682 Y11.310 Z1.250 F1000.000
G1 X14.682 Y4.435 Z1.250 F1000.000
G2 X14.193 Y3.203 Z1.250 I-1.816 J0.009 K0.000 F1000.000
G1 X10.668 Y-0.257 Z1.250 F1000.000
G2 X9.534 Y-0.746 Z1.250 I-1.211 J1.247 K0.000 F1000.000
G1 X2.756 Y-0.750 Z1.250 F1000.000
G2 X1.441 Y0.565 Z1.250 I0.010 J1.325 K0.000 F1000.000
G1 X1.441 Y3.509 Z1.250 F1000.000
G2 X2.676 Y4.744 Z1.250 I1.249 J-0.014 K0.000 F1000.000
G1 X9.429 Y4.744 Z1.250 F1000.000
G1 X9.429 Y7.317 Z1.250 F1000.000
G1 X-9.429 Y7.317 Z1.250 F1000.000
G1 X-9.429 Y4.744 Z1.250 F1000.000
G1 X-2.676 Y4.744 Z1.250 F1000.000
G2 X-1.441 Y3.509 Z1.250 I-0.014 J-1.249 K0.000 F1000.000
G1 X-1.441 Y0.565 Z1.250 F1000.000
G2 X-2.756 Y-0.750 Z1.250 I-1.325 J0.010 K0.000 F1000.000
G1 X-9.461 Y-0.750 Z1.250 F1000.000
G2 X-10.614 Y-0.305 Z1.250 I0.008 J1.738 K0.000 F1000.000
G1 X-14.142 Y3.149 Z1.250 F1000.000
G2 X-14.679 Y4.361 Z1.250 I1.278 J1.291 K0.000 F1000.000
G1 X-14.682 Y11.310 Z1.250 F1000.000
G1 X-17.416 Y11.310 Z1.250 F1000.000
G1 X-17.416 Y4.488 Z1.250 F1000.000
G2 X-18.660 Y3.244 Z1.250 I-1.259 J0.014 K0.000 F1000.000
G1 X-21.663 Y3.244 Z1.250 F1000.000
G2 X-22.980 Y4.452 Z1.250 I0.008 J1.330 K0.000 F1000.000
G1 X-22.989 Y15.710 Z1.250 F1000.000
G2 X-21.735 Y16.964 Z1.250 I1.269 J-0.015 K0.000 F1000.000
G1 X-18.916 Y16.964 Z1.250 F1000.000
G1 X-18.916 Y19.815 Z1.250 F1000.000
G2 X-17.731 Y21.108 Z1.250 I1.306 J-0.007 K0.000 F1000.000
G1 X-14.523 Y21.116 Z1.250 F1000.000
G1 X-14.523 Y23.828 Z1.250 F1000.000
G2 X-13.320 Y25.031 Z1.250 I1.216 J-0.014 K0.000 F1000.000
G1 X-11.512 Y25.031 Z1.250 F1000.000
G1 X-14.185 Y28.086 Z1.250 F1000.000
G2 X-14.520 Y28.917 Z1.250 I1.040 J0.902 K0.000 F1000.000
G1 X-14.523 Y32.038 Z1.250 F1000.000
G2 X-13.303 Y33.257 Z1.250 I1.234 J-0.014 K0.000 F1000.000
G1 X-10.451 Y33.257 Z1.250 F1000.000
G2 X-9.513 Y32.900 Z1.250 I-0.007 J-1.428 K0.000 F1000.000
G1 X-5.446 Y28.912 Z1.250 F1000.000
G2 X-5.039 Y28.009 Z1.250 I-0.973 J-0.981 K0.000 F1000.000
G1 X-5.036 Y25.031 Z1.250 F1000.000
G1 X5.036 Y25.031 Z1.250 F1000.000
G1 X5.036 Y25.031 Z0.500 F200.000
G1 X5.036 Y27.934 Z0.500 F1000.000
G2 X5.395 Y28.857 Z0.500 I1.381 J-0.007 K0.000 F1000.000
G1 X9.459 Y32.852 Z0.500 F1000.000
G2 X10.378 Y33.254 Z0.500 I0.995 J-1.024 K0.000 F1000.000
G1 X13.303 Y33.257 Z0.500 F1000.000
G2 X14.523 Y32.038 Z0.500 I-0.014 J-1.234 K0.000 F1000.000
G1 X14.523 Y28.985 Z0.500 F1000.000
G2 X14.227 Y28.138 Z0.500 I-1.377 J0.006 K0.000 F1000.000
G1 X11.511 Y25.031 Z0.500 F1000.000
G1 X13.320 Y25.031 Z0.500 F1000.000
G2 X14.523 Y23.828 Z0.500 I-0.014 J-1.216 K0.000 F1000.000
G1 X14.523 Y21.117 Z0.500 F1000.000
G1 X17.614 Y21.117 Z0.500 F1000.000
G2 X18.906 Y19.932 Z0.500 I-0.007 J-1.306 K0.000 F1000.000
G1 X18.915 Y16.964 Z0.500 F1000.000
G1 X21.735 Y16.964 Z0.500 F1000.000
G2 X22.989 Y15.710 Z0.500 I-0.015 J-1.269 K0.000 F1000.000
G1 X22.989 Y4.570 Z0.500 F1000.000
G2 X21.663 Y3.244 Z0.500 I-1.336 J0.010 K0.000 F1000.000
G1 X18.660 Y3.244 Z0.500 F1000.000
G2 X17.416 Y4.488 Z0.500 I0.014 J1.259 K0.000 F1000.000
G1 X17.416 Y11.310 Z0.500 F1000.000
G1 X14.682 Y11.310 Z0.500 F1000.000
G1 X14.682 Y4.435 Z0.500 F1000.000
G2 X14.193 Y3.203 Z0.500 I-1.816 J0.009 K0.000 F1000.000
G1 X10.668 Y-0.257 Z0.500 F1000.000
G2 X9.534 Y-0.746 Z0.500 I-1.211 J1.247 K0.000 F1000.000
G1 X2.756 Y-0.750 Z0.500 F1000.000
G2 X1.441 Y0.565 Z0.500 I0.010 J1.325 K0.000 F1000.000
G1 X1.441 Y3.509 Z0.500 F1000.000
G2 X2.676 Y4.744 Z0.500 I1.249 J-0.014 K0.000 F1000.000
G1 X9.429 Y4.744 Z0.500 F1000.000
G1 X9.429 Y7.317 Z0.500 F1000.000
G1 X-9.429 Y7.317 Z0.500 F1000.000
G1 X-9.429 Y4.744 Z0.500 F1000.000
G1 X-2.676 Y4.744 Z0.500 F1000.000
G2 X-1.441 Y3.509 Z0.500 I-0.014 J-1.249 K0.000 F1000.000
G1 X-1.441 Y0.565 Z0.500 F1000.000
G2 X-2.756 Y-0.750 Z0.500 I-1.325 J0.010 K0.000 F1000.000
G1 X-9.461 Y-0.750 Z0.500 F1000.000
G2 X-10.614 Y-0.305 Z0.500 I0.008 J1.738 K0.000 F1000.000
G1 X-14.142 Y3.149 Z0.500 F1000.000
G2 X-14.679 Y4.361 Z0.500 I1.278 J1.291 K0.000 F1000.000
G1 X-14.682 Y11.310 Z0.500 F1000.000
G1 X-17.416 Y11.310 Z0.500 F1000.000
G1 X-17.416 Y4.488 Z0.500 F1000.000
G2 X-18.660 Y3.244 Z0.500 I-1.259 J0.014 K0.000 F1000.000
G1 X-21.663 Y3.244 Z0.500 F1000.000
G2 X-22.980 Y4.452 Z0.500 I0.008 J1.330 K0.000 F1000.000
G1 X-22.989 Y15.710 Z0.500 F1000.000
G2 X-21.735 Y16.964 Z0.500 I1.269 J-0.015 K0.000 F1000.000
G1 X-18.916 Y16.964 Z0.500 F1000.000
G1 X-18.916 Y19.815 Z0.500 F1000.000
G2 X-17.731 Y21.108 Z0.500 I1.306 J-0.007 K0.000 F1000.000
G1 X-14.523 Y21.116 Z0.500 F1000.000
G1 X-14.523 Y23.828 Z0.500 F1000.000
G2 X-13.320 Y25.031 Z0.500 I1.216 J-0.014 K0.000 F1000.000
G1 X-11.512 Y25.031 Z0.500 F1000.000
G1 X-14.185 Y28.086 Z0.500 F1000.000
G2 X-14.520 Y28.917 Z0.500 I1.040 J0.902 K0.000 F1000.000
G1 X-14.523 Y32.038 Z0.500 F1000.000
G2 X-13.303 Y33.257 Z0.500 I1.234 J-0.014 K0.000 F1000.000
G1 X-10.451 Y33.257 Z0.500 F1000.000
G2 X-9.513 Y32.900 Z0.500 I-0.007 J-1.428 K0.000 F1000.000
G1 X-5.446 Y28.912 Z0.500 F1000.000
G2 X-5.039 Y28.009 Z0.500 I-0.973 J-0.981 K0.000 F1000.000
G1 X-5.036 Y25.031 Z0.500 F1000.000
G1 X5.036 Y25.031 Z0.500 F1000.000
G1 X5.036 Y25.031 Z0.000 F200.000
G1 X5.036 Y27.934 Z0.000 F1000.000
G2 X5.395 Y28.857 Z0.000 I1.381 J-0.007 K0.000 F1000.000
G1 X9.459 Y32.852 Z0.000 F1000.000
G2 X10.378 Y33.254 Z0.000 I0.995 J-1.024 K0.000 F1000.000
G1 X13.303 Y33.257 Z0.000 F1000.000
G2 X14.523 Y32.038 Z0.000 I-0.014 J-1.234 K0.000 F1000.000
G1 X14.523 Y28.985 Z0.000 F1000.000
G2 X14.227 Y28.138 Z0.000 I-1.377 J0.006 K0.000 F1000.000
G1 X11.511 Y25.031 Z0.000 F1000.000
G1 X13.320 Y25.031 Z0.000 F1000.000
G2 X14.523 Y23.828 Z0.000 I-0.014 J-1.216 K0.000 F1000.000
G1 X14.523 Y21.117 Z0.000 F1000.000
G1 X17.614 Y21.117 Z0.000 F1000.000
G2 X18.906 Y19.932 Z0.000 I-0.007 J-1.306 K0.000 F1000.000
G1 X18.915 Y16.964 Z0.000 F1000.000
G1 X21.735 Y16.964 Z0.000 F1000.000
G2 X22.989 Y15.710 Z0.000 I-0.015 J-1.269 K0.000 F1000.000
G1 X22.989 Y4.570 Z0.000 F1000.000
G2 X21.663 Y3.244 Z0.000 I-1.336 J0.010 K0.000 F1000.000
G1 X18.660 Y3.244 Z0.000 F1000.000
G2 X17.416 Y4.488 Z0.000 I0.014 J1.259 K0.000 F1000.000
G1 X17.416 Y11.310 Z0.000 F1000.000
G1 X14.682 Y11.310 Z0.000 F1000.000
G1 X14.682 Y4.435 Z0.000 F1000.000
G2 X14.193 Y3.203 Z0.000 I-1.816 J0.009 K0.000 F1000.000
G1 X10.668 Y-0.257 Z0.000 F1000.000
G2 X9.534 Y-0.746 Z0.000 I-1.211 J1.247 K0.000 F1000.000
G1 X2.756 Y-0.750 Z0.000 F1000.000
G2 X1.441 Y0.565 Z0.000 I0.010 J1.325 K0.000 F1000.000
G1 X1.441 Y3.509 Z0.000 F1000.000
G2 X2.676 Y4.744 Z0.000 I1.249 J-0.014 K0.000 F1000.000
G1 X9.429 Y4.744 Z0.000 F1000.000
G1 X9.429 Y7.317 Z0.000 F1000.000
G1 X-9.429 Y7.317 Z0.000 F1000.000
G1 X-9.429 Y4.744 Z0.000 F1000.000
G1 X-2.676 Y4.744 Z0.000 F1000.000
G2 X-1.441 Y3.509 Z0.000 I-0.014 J-1.249 K0.000 F1000.000
G1 X-1.441 Y0.565 Z0.000 F1000.000
G2 X-2.756 Y-0.750 Z0.000 I-1.325 J0.010 K0.000 F1000.000
G1 X-9.461 Y-0.750 Z0.000 F1000.000
G2 X-10.614 Y-0.305 Z0.000 I0.008 J1.738 K0.000 F1000.000
G1 X-14.142 Y3.149 Z0.000 F1000.000
G2 X-14.679 Y4.361 Z0.000 I1.278 J1.291 K0.000 F1000.000
G1 X-14.682 Y11.310 Z0.000 F1000.000
G1 X-17.416 Y11.310 Z0.000 F1000.000
G1 X-17.416 Y4.488 Z0.000 F1000.000
G2 X-18.660 Y3.244 Z0.000 I-1.259 J0.014 K0.000 F1000.000
G1 X-21.663 Y3.244 Z0.000 F1000.000
G2 X-22.980 Y4.452 Z0.000 I0.008 J1.330 K0.000 F1000.000
G1 X-22.989 Y15.710 Z0.000 F1000.000
G2 X-21.735 Y16.964 Z0.000 I1.269 J-0.015 K0.000 F1000.000
G1 X-18.916 Y16.964 Z0.000 F1000.000
G1 X-18.916 Y19.815 Z0.000 F1000.000
G2 X-17.731 Y21.108 Z0.000 I1.306 J-0.007 K0.000 F1000.000
G1 X-14.523 Y21.116 Z0.000 F1000.000
G1 X-14.523 Y23.828 Z0.000 F1000.000
G2 X-13.320 Y25.031 Z0.000 I1.216 J-0.014 K0.000 F1000.000
G1 X-11.512 Y25.031 Z0.000 F1000.000
G1 X-14.185 Y28.086 Z0.000 F1000.000
G2 X-14.520 Y28.917 Z0.000 I1.040 J0.902 K0.000 F1000.000
G1 X-14.523 Y32.038 Z0.000 F1000.000
G2 X-13.303 Y33.257 Z0.000 I1.234 J-0.014 K0.000 F1000.000
G1 X-10.451 Y33.257 Z0.000 F1000.000
G2 X-9.513 Y32.900 Z0.000 I-0.007 J-1.428 K0.000 F1000.000
G1 X-5.446 Y28.912 Z0.000 F1000.000
G2 X-5.039 Y28.009 Z0.000 I-0.973 J-0.981 K0.000 F1000.000
G1 X-5.036 Y25.031 Z0.000 F1000.000
G1 X5.036 Y25.031 Z0.000 F1000.000
G0 Z7.000
G0 Z7.000
(Finish operation: Profile)
(Begin postamble)
M5
G17 G90
M2
