(Exported by FreeCAD)
(Post Processor: grbl_post)
(Output Time:2024-03-03 20:46:18.583582)
(Begin preamble)
G17 G90
G21
(Begin operation: TC: 1.5)
(Path: TC: 1.5)
(TC: 1.5)
(Begin toolchange)
( M6 T5 )
M3 S24000
(Finish operation: TC: 1.5)
(Begin operation: Fixture)
(Path: Fixture)
G54
(Finish operation: Fixture)
(Begin operation: Pocket_Shape)
(Path: Pocket_Shape)
(Pocket_Shape)
G0 Z12.000
G0 X12.978 Y341.655
G0 Z10.000
G1 X12.978 Y341.655 Z6.250 F100.000
G1 X10.393 Y341.655 Z6.250 F600.000
G3 X10.355 Y341.639 Z6.250 I-0.007 J-0.037 K0.000 F600.000
G1 X6.394 Y337.751 Z6.250 F600.000
G3 X6.391 Y337.745 Z6.250 I0.003 J-0.005 K0.000 F600.000
G1 X6.391 Y334.682 Z6.250 F600.000
G2 X5.138 Y333.428 Z6.250 I-1.268 J0.015 K0.000 F600.000
G1 X-5.327 Y333.428 Z6.250 F600.000
G2 X-6.580 Y334.682 Z6.250 I0.015 J1.268 K0.000 F600.000
G1 X-6.580 Y337.745 Z6.250 F600.000
G3 X-6.583 Y337.751 Z6.250 I-0.006 J0.001 K0.000 F600.000
G1 X-10.543 Y341.639 Z6.250 F600.000
G3 X-10.581 Y341.655 Z6.250 I-0.031 J-0.021 K0.000 F600.000
G1 X-13.167 Y341.655 Z6.250 F600.000
G1 X-13.167 Y338.866 Z6.250 F600.000
G3 X-13.166 Y338.863 Z6.250 I0.003 J-0.001 K0.000 F600.000
G1 X-9.896 Y335.126 Z6.250 F600.000
G2 X-10.666 Y333.428 Z6.250 I-0.778 J-0.670 K0.000 F600.000
G1 X-13.167 Y333.428 Z6.250 F600.000
G1 X-13.167 Y330.704 Z6.250 F600.000
G2 X-14.357 Y329.515 Z6.250 I-1.203 J0.013 K0.000 F600.000
G1 X-17.560 Y329.515 Z6.250 F600.000
G1 X-17.560 Y326.571 Z6.250 F600.000
G2 X-18.769 Y325.361 Z6.250 I-1.223 J0.014 K0.000 F600.000
G1 X-21.633 Y325.361 Z6.250 F600.000
G1 X-21.633 Y314.541 Z6.250 F600.000
G1 X-18.960 Y314.541 Z6.250 F600.000
G1 X-18.960 Y321.309 Z6.250 F600.000
G2 X-17.661 Y322.608 Z6.250 I1.308 J-0.010 K0.000 F600.000
G1 X-14.541 Y322.608 Z6.250 F600.000
G2 X-13.327 Y321.394 Z6.250 I-0.014 J-1.228 K0.000 F600.000
G1 X-13.327 Y314.320 Z6.250 F600.000
G3 X-13.195 Y314.005 Z6.250 I0.400 J-0.017 K0.000 F600.000
G1 X-9.774 Y310.651 Z6.250 F600.000
G3 X-9.519 Y310.547 Z6.250 I0.238 J0.220 K0.000 F600.000
G1 X-2.986 Y310.547 Z6.250 F600.000
G1 X-2.986 Y313.141 Z6.250 F600.000
G1 X-9.814 Y313.150 Z6.250 F600.000
G2 X-10.973 Y314.417 Z6.250 I0.121 J1.274 K0.000 F600.000
G1 X-10.973 Y317.420 Z6.250 F600.000
G2 X-9.778 Y318.614 Z6.250 I1.208 J-0.014 K0.000 F600.000
G1 X9.590 Y318.614 Z6.250 F600.000
G2 X10.784 Y317.420 Z6.250 I-0.014 J-1.208 K0.000 F600.000
G1 X10.784 Y314.417 Z6.250 F600.000
G2 X9.508 Y313.141 Z6.250 I-1.285 J0.009 K0.000 F600.000
G1 X2.797 Y313.141 Z6.250 F600.000
G1 X2.797 Y310.547 Z6.250 F600.000
G1 X9.330 Y310.547 Z6.250 F600.000
G3 X9.585 Y310.651 Z6.250 I0.016 J0.324 K0.000 F600.000
G1 X13.006 Y314.005 Z6.250 F600.000
G3 X13.138 Y314.320 Z6.250 I-0.268 J0.298 K0.000 F600.000
G1 X13.138 Y321.394 Z6.250 F600.000
G2 X14.352 Y322.608 Z6.250 I1.228 J-0.014 K0.000 F600.000
G1 X17.473 Y322.608 Z6.250 F600.000
G2 X18.771 Y321.309 Z6.250 I-0.010 J-1.308 K0.000 F600.000
G1 X18.771 Y314.541 Z6.250 F600.000
G1 X21.445 Y314.541 Z6.250 F600.000
G1 X21.445 Y325.361 Z6.250 F600.000
G1 X18.581 Y325.361 Z6.250 F600.000
G2 X17.371 Y326.571 Z6.250 I0.014 J1.223 K0.000 F600.000
G1 X17.371 Y329.515 Z6.250 F600.000
G1 X14.168 Y329.515 Z6.250 F600.000
G2 X12.978 Y330.704 Z6.250 I0.013 J1.203 K0.000 F600.000
G1 X12.978 Y333.428 Z6.250 F600.000
G1 X10.478 Y333.428 Z6.250 F600.000
G2 X9.707 Y335.126 Z6.250 I0.008 J1.027 K0.000 F600.000
G1 X12.977 Y338.863 Z6.250 F600.000
G3 X12.978 Y338.866 Z6.250 I-0.002 J0.002 K0.000 F600.000
G1 X12.978 Y341.655 Z6.250 F600.000
G0 Z12.000
G0 X12.228 Y340.905 Z12.000
G0 X12.228 Y340.905 Z10.000
G1 X12.228 Y340.905 Z6.250 F100.000
G1 X10.677 Y340.905 Z6.250 F600.000
G1 X7.141 Y337.433 Z6.250 F600.000
G1 X7.141 Y334.682 Z6.250 F600.000
G2 X5.138 Y332.678 Z6.250 I-2.004 J0.000 K0.000 F600.000
G1 X-5.327 Y332.678 Z6.250 F600.000
G2 X-7.330 Y334.682 Z6.250 I0.000 J2.004 K0.000 F600.000
G1 X-7.330 Y337.433 Z6.250 F600.000
G1 X-10.866 Y340.905 Z6.250 F600.000
G1 X-12.417 Y340.905 Z6.250 F600.000
G1 X-12.417 Y339.146 Z6.250 F600.000
G1 X-9.332 Y335.619 Z6.250 F600.000
G2 X-10.666 Y332.678 Z6.250 I-1.344 J-1.164 K0.000 F600.000
G1 X-12.417 Y332.678 Z6.250 F600.000
G1 X-12.417 Y330.704 Z6.250 F600.000
G2 X-14.357 Y328.765 Z6.250 I-1.940 J0.000 K0.000 F600.000
G1 X-16.810 Y328.765 Z6.250 F600.000
G1 X-16.810 Y326.571 Z6.250 F600.000
G2 X-18.769 Y324.611 Z6.250 I-1.960 J0.000 K0.000 F600.000
G1 X-20.883 Y324.611 Z6.250 F600.000
G1 X-20.883 Y315.291 Z6.250 F600.000
G1 X-19.710 Y315.291 Z6.250 F600.000
G1 X-19.710 Y321.309 Z6.250 F600.000
G2 X-17.661 Y323.358 Z6.250 I2.061 J-0.012 K0.000 F600.000
G1 X-14.541 Y323.358 Z6.250 F600.000
G2 X-12.577 Y321.394 Z6.250 I-0.000 J-1.964 K0.000 F600.000
G1 X-12.577 Y314.450 Z6.250 F600.000
G1 X-11.275 Y313.174 Z6.250 F600.000
G2 X-11.723 Y314.417 Z6.250 I1.566 J1.266 K0.000 F600.000
G1 X-11.723 Y317.420 Z6.250 F600.000
G2 X-9.778 Y319.364 Z6.250 I1.945 J-0.000 K0.000 F600.000
G1 X9.590 Y319.364 Z6.250 F600.000
G2 X11.534 Y317.420 Z6.250 I-0.000 J-1.945 K0.000 F600.000
G1 X11.534 Y314.417 Z6.250 F600.000
G2 X11.086 Y313.174 Z6.250 I-1.908 J-0.015 K0.000 F600.000
G1 X12.388 Y314.450 Z6.250 F600.000
G1 X12.388 Y321.394 Z6.250 F600.000
G2 X14.352 Y323.358 Z6.250 I1.964 J-0.000 K0.000 F600.000
G1 X17.473 Y323.358 Z6.250 F600.000
G2 X19.521 Y321.309 Z6.250 I-0.012 J-2.061 K0.000 F600.000
G1 X19.521 Y315.291 Z6.250 F600.000
G1 X20.695 Y315.291 Z6.250 F600.000
G1 X20.695 Y324.611 Z6.250 F600.000
G1 X18.581 Y324.611 Z6.250 F600.000
G2 X16.621 Y326.571 Z6.250 I0.000 J1.960 K0.000 F600.000
G1 X16.621 Y328.765 Z6.250 F600.000
G1 X14.168 Y328.765 Z6.250 F600.000
G2 X12.228 Y330.704 Z6.250 I0.000 J1.940 K0.000 F600.000
G1 X12.228 Y332.678 Z6.250 F600.000
G1 X10.478 Y332.678 Z6.250 F600.000
G2 X9.143 Y335.619 Z6.250 I0.009 J1.778 K0.000 F600.000
G1 X12.228 Y339.146 Z6.250 F600.000
G1 X12.228 Y340.905 Z6.250 F600.000
G0 Z12.000
G0 X11.478 Y340.155 Z12.000
G0 X11.478 Y340.155 Z10.000
G1 X11.478 Y340.155 Z6.250 F100.000
G1 X10.984 Y340.155 Z6.250 F600.000
G1 X7.891 Y337.119 Z6.250 F600.000
G1 X7.891 Y334.682 Z6.250 F600.000
G2 X6.690 Y332.419 Z6.250 I-2.768 J0.019 K0.000 F600.000
G1 X9.008 Y332.419 Z6.250 F600.000
G2 X8.160 Y333.468 Z6.250 I1.253 J1.879 K0.000 F600.000
G2 X8.578 Y336.113 Z6.250 I2.301 J0.992 K0.000 F600.000
G1 X11.478 Y339.428 Z6.250 F600.000
G1 X11.478 Y340.155 Z6.250 F600.000
G0 Z12.000
G0 Y331.928 Z12.000
G0 Y331.928 Z10.000
G1 X11.478 Y331.928 Z6.250 F100.000
G1 X11.066 Y331.928 Z6.250 F600.000
G2 X11.478 Y331.576 Z6.250 I-0.646 J-1.172 K0.000 F600.000
G1 X11.478 Y331.928 Z6.250 F600.000
G0 Z12.000
G0 X10.819 Y331.181 Z12.000
G0 X10.819 Y331.181 Z10.000
G1 X10.819 Y331.181 Z6.250 F100.000
G3 X9.529 Y331.669 Z6.250 I-1.291 J-1.464 K0.000 F600.000
G1 X6.189 Y331.669 Z6.250 F600.000
G3 X4.225 Y329.717 Z6.250 I0.005 J-1.968 K0.000 F600.000
G1 X4.225 Y326.508 Z6.250 F600.000
G3 X6.177 Y324.557 Z6.250 I1.952 J0.000 K0.000 F600.000
G1 X9.529 Y324.557 Z6.250 F600.000
G3 X11.480 Y326.508 Z6.250 I-0.000 J1.952 K0.000 F600.000
G1 X11.480 Y329.717 Z6.250 F600.000
G3 X10.819 Y331.181 Z6.250 I-1.952 J-0.000 K0.000 F600.000
G0 Z12.000
G0 X10.319 Y330.614 Z12.000
G0 X10.319 Y330.614 Z10.000
G1 X10.319 Y330.614 Z6.250 F100.000
G3 X9.529 Y330.919 Z6.250 I-0.804 J-0.911 K0.000 F600.000
G1 X6.189 Y330.919 Z6.250 F600.000
G3 X4.975 Y329.717 Z6.250 I0.002 J-1.215 K0.000 F600.000
G1 X4.975 Y326.508 Z6.250 F600.000
G3 X6.177 Y325.307 Z6.250 I1.215 J0.014 K0.000 F600.000
G1 X9.529 Y325.307 Z6.250 F600.000
G3 X10.730 Y326.508 Z6.250 I-0.014 J1.215 K0.000 F600.000
G1 X10.730 Y329.717 Z6.250 F600.000
G3 X10.319 Y330.614 Z6.250 I-1.215 J-0.014 K0.000 F600.000
G0 Z12.000
G0 X12.230 Y328.850 Z12.000
G0 X12.230 Y328.850 Z10.000
G1 X12.230 Y328.850 Z6.250 F100.000
G1 X12.230 Y326.508 Z6.250 F600.000
G2 X9.529 Y323.807 Z6.250 I-2.702 J0.000 K0.000 F600.000
G1 X6.177 Y323.807 Z6.250 F600.000
G2 X3.475 Y326.508 Z6.250 I0.000 J2.702 K0.000 F600.000
G1 X3.475 Y329.717 Z6.250 F600.000
G2 X4.639 Y331.928 Z6.250 I2.717 J-0.018 K0.000 F600.000
G1 X-4.828 Y331.928 Z6.250 F600.000
G2 X-3.664 Y329.717 Z6.250 I-1.553 J-2.230 K0.000 F600.000
G1 X-3.664 Y326.508 Z6.250 F600.000
G2 X-6.366 Y323.807 Z6.250 I-2.702 J0.000 K0.000 F600.000
G1 X-9.717 Y323.807 Z6.250 F600.000
G2 X-12.419 Y326.508 Z6.250 I0.000 J2.702 K0.000 F600.000
G1 X-12.419 Y328.843 Z6.250 F600.000
G2 X-14.357 Y328.015 Z6.250 I-1.935 J1.846 K0.000 F600.000
G1 X-16.060 Y328.015 Z6.250 F600.000
G1 X-16.060 Y326.571 Z6.250 F600.000
G2 X-17.652 Y324.108 Z6.250 I-2.730 J0.020 K0.000 F600.000
G1 X-14.541 Y324.108 Z6.250 F600.000
G2 X-11.827 Y321.394 Z6.250 I-0.000 J-2.714 K0.000 F600.000
G1 X-11.827 Y319.153 Z6.250 F600.000
G2 X-9.778 Y320.114 Z6.250 I2.037 J-1.677 K0.000 F600.000
G1 X9.590 Y320.114 Z6.250 F600.000
G2 X11.638 Y319.149 Z6.250 I-0.006 J-2.668 K0.000 F600.000
G1 X11.638 Y321.394 Z6.250 F600.000
G2 X14.352 Y324.108 Z6.250 I2.714 J-0.000 K0.000 F600.000
G1 X17.472 Y324.108 Z6.250 F600.000
G2 X15.871 Y326.571 Z6.250 I1.120 J2.480 K0.000 F600.000
G1 X15.871 Y328.015 Z6.250 F600.000
G1 X14.168 Y328.015 Z6.250 F600.000
G2 X12.230 Y328.850 Z6.250 I0.020 J2.712 K0.000 F600.000
G0 Z12.000
G0 X12.980 Y327.479 Z12.000
G0 X12.980 Y327.479 Z10.000
G1 X12.980 Y327.479 Z6.250 F100.000
G2 X12.922 Y325.923 Z6.250 I-7.929 J-0.485 K0.000 F600.000
G2 X9.529 Y323.057 Z6.250 I-3.410 J0.596 K0.000 F600.000
G1 X6.177 Y323.057 Z6.250 F600.000
G2 X2.725 Y326.508 Z6.250 I0.001 J3.452 K0.000 F600.000
G1 X2.725 Y329.717 Z6.250 F600.000
G2 X3.072 Y331.178 Z6.250 I3.348 J-0.022 K0.000 F600.000
G1 X-3.243 Y331.178 Z6.250 F600.000
G1 X-3.219 Y331.135 Z6.250 F600.000
G2 X-2.914 Y329.717 Z6.250 I-3.523 J-1.499 K0.000 F600.000
G1 X-2.914 Y326.508 Z6.250 F600.000
G2 X-6.366 Y323.057 Z6.250 I-3.452 J0.001 K0.000 F600.000
G1 X-9.717 Y323.057 Z6.250 F600.000
G2 X-13.169 Y326.508 Z6.250 I0.001 J3.452 K0.000 F600.000
G1 X-13.169 Y327.496 Z6.250 F600.000
G2 X-14.357 Y327.265 Z6.250 I-1.221 J3.105 K0.000 F600.000
G1 X-15.310 Y327.265 Z6.250 F600.000
G2 X-15.535 Y325.345 Z6.250 I-4.613 J-0.433 K0.000 F600.000
G1 X-15.784 Y324.858 Z6.250 F600.000
G2 X-13.956 Y324.800 Z6.250 I0.622 J-9.311 K0.000 F600.000
G2 X-11.077 Y321.394 Z6.250 I-0.596 J-3.423 K0.000 F600.000
G1 X-11.077 Y320.598 Z6.250 F600.000
G2 X-9.778 Y320.864 Z6.250 I1.354 J-3.298 K0.000 F600.000
G1 X9.590 Y320.864 Z6.250 F600.000
G2 X10.888 Y320.601 Z6.250 I-0.049 J-3.570 K0.000 F600.000
G2 X10.981 Y322.157 Z6.250 I5.040 J0.480 K0.000 F600.000
G2 X14.352 Y324.858 Z6.250 I3.388 J-0.774 K0.000 F600.000
G1 X15.589 Y324.858 Z6.250 F600.000
G1 X15.427 Y325.150 Z6.250 F600.000
G2 X15.121 Y327.265 Z6.250 I4.106 J1.673 K0.000 F600.000
G2 X13.583 Y327.322 Z6.250 I-0.477 J7.840 K0.000 F600.000
G2 X12.980 Y327.479 Z6.250 I0.670 J3.810 K0.000 F600.000
G0 Z12.000
G0 X13.730 Y326.558 Z12.000
G0 X13.730 Y326.558 Z10.000
G1 X13.730 Y326.558 Z6.250 F100.000
G2 X13.604 Y325.533 Z6.250 I-4.128 J-0.013 K0.000 F600.000
G2 X14.492 Y325.608 Z6.250 I0.818 J-4.373 K0.000 F600.000
G2 X14.377 Y326.515 Z6.250 I4.006 J0.971 K0.000 F600.000
G2 X13.730 Y326.558 Z6.250 I-0.104 J3.305 K0.000 F600.000
G0 Z12.000
G0 X10.267 Y322.380 Z12.000
G0 X10.267 Y322.380 Z10.000
G1 X10.267 Y322.380 Z6.250 F100.000
G2 X9.529 Y322.307 Z6.250 I-0.741 J3.710 K0.000 F600.000
G1 X6.177 Y322.307 Z6.250 F600.000
G2 X1.975 Y326.508 Z6.250 I0.004 J4.206 K0.000 F600.000
G1 X1.975 Y329.717 Z6.250 F600.000
G1 X2.046 Y330.428 Z6.250 F600.000
G1 X-2.234 Y330.428 Z6.250 F600.000
G1 X-2.164 Y329.717 Z6.250 F600.000
G1 X-2.164 Y326.508 Z6.250 F600.000
G2 X-6.366 Y322.307 Z6.250 I-4.206 J0.004 K0.000 F600.000
G1 X-9.717 Y322.307 Z6.250 F600.000
G2 X-10.454 Y322.380 Z6.250 I0.002 J3.775 K0.000 F600.000
G2 X-10.343 Y321.559 Z6.250 I-3.515 J-0.892 K0.000 F600.000
G1 X-9.778 Y321.614 Z6.250 F600.000
G1 X9.590 Y321.614 Z6.250 F600.000
G1 X10.154 Y321.559 Z6.250 F600.000
G2 X10.267 Y322.380 Z6.250 I2.850 J0.029 K0.000 F600.000
G0 Z12.000
G0 X3.482 Y322.364 Z12.000
G0 X3.482 Y322.364 Z10.000
G1 X3.482 Y322.364 Z6.250 F100.000
G2 X1.225 Y326.508 Z6.250 I2.670 J4.140 K0.000 F600.000
G1 X1.225 Y329.678 Z6.250 F600.000
G1 X-1.414 Y329.678 Z6.250 F600.000
G1 X-1.414 Y326.508 Z6.250 F600.000
G2 X-3.670 Y322.364 Z6.250 I-4.971 J0.020 K0.000 F600.000
G1 X3.482 Y322.364 Z6.250 F600.000
G0 Z12.000
G0 X1.615 Y323.114 Z12.000
G0 X1.615 Y323.114 Z10.000
G1 X1.615 Y323.114 Z6.250 F100.000
G2 X0.475 Y326.508 Z6.250 I4.404 J3.368 K0.000 F600.000
G1 X0.475 Y328.928 Z6.250 F600.000
G1 X-0.664 Y328.928 Z6.250 F600.000
G1 X-0.664 Y326.508 Z6.250 F600.000
G2 X-1.801 Y323.114 Z6.250 I-5.587 J-0.015 K0.000 F600.000
G1 X1.615 Y323.114 Z6.250 F600.000
G0 Z12.000
G0 X0.303 Y323.864 Z12.000
G0 X0.303 Y323.864 Z10.000
G1 X0.303 Y323.864 Z6.250 F100.000
G2 X-0.093 Y325.053 Z6.250 I4.042 J2.006 K0.000 F600.000
G2 X-0.481 Y323.864 Z6.250 I-5.373 J1.098 K0.000 F600.000
G1 X0.303 Y323.864 Z6.250 F600.000
G0 Z12.000
G0 X-4.552 Y325.789 Z12.000
G0 X-4.552 Y325.789 Z10.000
G1 X-4.552 Y325.789 Z6.250 F100.000
G3 X-4.414 Y326.508 Z6.250 I-1.815 J0.719 K0.000 F600.000
G1 X-4.414 Y329.717 Z6.250 F600.000
G3 X-6.366 Y331.669 Z6.250 I-1.952 J-0.000 K0.000 F600.000
G2 X-9.717 Y331.669 Z6.250 I-1.676 J198399.700 K0.000 F600.000
G3 X-11.669 Y329.717 Z6.250 I0.000 J-1.952 K0.000 F600.000
G1 X-11.669 Y326.508 Z6.250 F600.000
G3 X-9.717 Y324.557 Z6.250 I1.952 J0.000 K0.000 F600.000
G1 X-6.366 Y324.557 Z6.250 F600.000
G3 X-4.552 Y325.789 Z6.250 I-0.000 J1.952 K0.000 F600.000
G0 Z12.000
G0 X-5.251 Y326.070 Z12.000
G0 X-5.251 Y326.070 Z10.000
G1 X-5.251 Y326.070 Z6.250 F100.000
G3 X-5.164 Y326.508 Z6.250 I-1.128 J0.452 K0.000 F600.000
G1 X-5.164 Y329.717 Z6.250 F600.000
G3 X-6.366 Y330.919 Z6.250 I-1.215 J-0.014 K0.000 F600.000
G2 X-9.717 Y330.919 Z6.250 I-1.676 J198400.074 K0.000 F600.000
G3 X-10.919 Y329.717 Z6.250 I0.014 J-1.215 K0.000 F600.000
G1 X-10.919 Y326.508 Z6.250 F600.000
G3 X-9.717 Y325.307 Z6.250 I1.215 J0.014 K0.000 F600.000
G1 X-6.366 Y325.307 Z6.250 F600.000
G3 X-5.251 Y326.070 Z6.250 I-0.014 J1.215 K0.000 F600.000
G0 Z12.000
G0 X-6.878 Y332.419 Z12.000
G0 X-6.878 Y332.419 Z10.000
G1 X-6.878 Y332.419 Z6.250 F100.000
G2 X-8.080 Y334.682 Z6.250 I1.566 J2.283 K0.000 F600.000
G1 X-8.080 Y337.119 Z6.250 F600.000
G1 X-11.172 Y340.155 Z6.250 F600.000
G1 X-11.667 Y340.155 Z6.250 F600.000
G1 X-11.667 Y339.428 Z6.250 F600.000
G1 X-8.767 Y336.113 Z6.250 F600.000
G2 X-9.119 Y332.467 Z6.250 I-1.888 J-1.658 K0.000 F600.000
G1 X-9.190 Y332.419 Z6.250 F600.000
G1 X-6.878 Y332.419 Z6.250 F600.000
G0 Z12.000
G0 X-11.255 Y331.928 Z12.000
G0 X-11.255 Y331.928 Z10.000
G1 X-11.255 Y331.928 Z6.250 F100.000
G1 X-11.667 Y331.928 Z6.250 F600.000
G1 X-11.667 Y331.583 Z6.250 F600.000
G2 X-11.255 Y331.928 Z6.250 I1.675 J-1.578 K0.000 F600.000
G0 Z12.000
G0 X-13.919 Y326.558 Z12.000
G0 X-13.919 Y326.558 Z10.000
G1 X-13.919 Y326.558 Z6.250 F100.000
G2 X-14.565 Y326.515 Z6.250 I-0.542 J3.261 K0.000 F600.000
G2 X-14.682 Y325.608 Z6.250 I-3.076 J-0.065 K0.000 F600.000
G2 X-13.794 Y325.533 Z6.250 I0.116 J-3.915 K0.000 F600.000
G2 X-13.919 Y326.558 Z6.250 I4.185 J1.028 K0.000 F600.000
G0 Z12.000
G0 X-18.789 Y323.861 Z12.000
G0 X-18.789 Y323.861 Z10.000
G1 X-18.789 Y323.861 Z6.250 F100.000
G1 X-20.133 Y323.861 Z6.250 F600.000
G1 X-20.133 Y322.607 Z6.250 F600.000
G2 X-18.789 Y323.861 Z6.250 I2.443 J-1.271 K0.000 F600.000
G0 Z12.000
G0 X-10.914 Y312.820 Z12.000
G0 X-10.914 Y312.820 Z10.000
G1 X-10.914 Y312.820 Z6.250 F100.000
G1 X-9.361 Y311.297 Z6.250 F600.000
G1 X-3.736 Y311.297 Z6.250 F600.000
G1 X-3.736 Y312.391 Z6.250 F600.000
G1 X-9.697 Y312.391 Z6.250 F600.000
G2 X-10.914 Y312.820 Z6.250 I-0.020 J1.884 K0.000 F600.000
G0 Z12.000
G0 X3.547 Y312.391 Z12.000
G0 X3.547 Y312.391 Z10.000
G1 X3.547 Y312.391 Z6.250 F100.000
G1 X3.547 Y311.297 Z6.250 F600.000
G1 X9.173 Y311.297 Z6.250 F600.000
G1 X10.726 Y312.820 Z6.250 F600.000
G2 X9.508 Y312.391 Z6.250 I-1.239 J1.575 K0.000 F600.000
G1 X3.547 Y312.391 Z6.250 F600.000
G0 Z12.000
G0 X18.605 Y323.861 Z12.000
G0 X18.605 Y323.861 Z10.000
G1 X18.605 Y323.861 Z6.250 F100.000
G2 X19.945 Y322.607 Z6.250 I-1.116 J-2.536 K0.000 F600.000
G1 X19.945 Y323.861 Z6.250 F600.000
G1 X18.605 Y323.861 Z6.250 F600.000
G1 X18.605 Y323.861 Z5.500 F100.000
G2 X19.945 Y322.607 Z5.500 I-1.116 J-2.536 K0.000 F600.000
G1 X19.945 Y323.861 Z5.500 F600.000
G1 X18.605 Y323.861 Z5.500 F600.000
G0 Z12.000
G0 X18.300 Y323.179 Z12.000
G0 X18.300 Y323.179 Z10.000
G1 X18.300 Y323.179 Z5.500 F100.000
G2 X19.521 Y321.309 Z5.500 I-0.840 J-1.882 K0.000 F600.000
G1 X19.521 Y315.291 Z5.500 F600.000
G1 X20.695 Y315.291 Z5.500 F600.000
G1 X20.695 Y324.611 Z5.500 F600.000
G1 X18.581 Y324.611 Z5.500 F600.000
G2 X16.621 Y326.571 Z5.500 I0.000 J1.960 K0.000 F600.000
G1 X16.621 Y328.765 Z5.500 F600.000
G1 X14.168 Y328.765 Z5.500 F600.000
G2 X12.228 Y330.704 Z5.500 I0.000 J1.940 K0.000 F600.000
G1 X12.228 Y332.678 Z5.500 F600.000
G1 X10.478 Y332.678 Z5.500 F600.000
G2 X9.143 Y335.619 Z5.500 I0.009 J1.778 K0.000 F600.000
G1 X12.228 Y339.146 Z5.500 F600.000
G1 X12.228 Y340.905 Z5.500 F600.000
G1 X10.677 Y340.905 Z5.500 F600.000
G1 X7.141 Y337.433 Z5.500 F600.000
G1 X7.141 Y334.682 Z5.500 F600.000
G2 X5.138 Y332.678 Z5.500 I-2.004 J0.000 K0.000 F600.000
G1 X-5.327 Y332.678 Z5.500 F600.000
G2 X-7.330 Y334.682 Z5.500 I0.000 J2.004 K0.000 F600.000
G1 X-7.330 Y337.433 Z5.500 F600.000
G1 X-10.866 Y340.905 Z5.500 F600.000
G1 X-12.417 Y340.905 Z5.500 F600.000
G1 X-12.417 Y339.146 Z5.500 F600.000
G1 X-9.332 Y335.619 Z5.500 F600.000
G2 X-10.666 Y332.678 Z5.500 I-1.344 J-1.164 K0.000 F600.000
G1 X-12.417 Y332.678 Z5.500 F600.000
G1 X-12.417 Y330.704 Z5.500 F600.000
G2 X-14.357 Y328.765 Z5.500 I-1.940 J0.000 K0.000 F600.000
G1 X-16.810 Y328.765 Z5.500 F600.000
G1 X-16.810 Y326.571 Z5.500 F600.000
G2 X-18.769 Y324.611 Z5.500 I-1.960 J0.000 K0.000 F600.000
G1 X-20.883 Y324.611 Z5.500 F600.000
G1 X-20.883 Y315.291 Z5.500 F600.000
G1 X-19.710 Y315.291 Z5.500 F600.000
G1 X-19.710 Y321.309 Z5.500 F600.000
G2 X-17.661 Y323.358 Z5.500 I2.061 J-0.012 K0.000 F600.000
G1 X-14.541 Y323.358 Z5.500 F600.000
G2 X-12.577 Y321.394 Z5.500 I-0.000 J-1.964 K0.000 F600.000
G1 X-12.577 Y314.450 Z5.500 F600.000
G1 X-11.275 Y313.174 Z5.500 F600.000
G2 X-11.723 Y314.417 Z5.500 I1.566 J1.266 K0.000 F600.000
G1 X-11.723 Y317.420 Z5.500 F600.000
G2 X-9.778 Y319.364 Z5.500 I1.945 J-0.000 K0.000 F600.000
G1 X9.590 Y319.364 Z5.500 F600.000
G2 X11.534 Y317.420 Z5.500 I-0.000 J-1.945 K0.000 F600.000
G1 X11.534 Y314.417 Z5.500 F600.000
G2 X11.086 Y313.174 Z5.500 I-1.908 J-0.015 K0.000 F600.000
G1 X12.388 Y314.450 Z5.500 F600.000
G1 X12.388 Y321.394 Z5.500 F600.000
G2 X14.352 Y323.358 Z5.500 I1.964 J-0.000 K0.000 F600.000
G1 X17.473 Y323.358 Z5.500 F600.000
G2 X18.300 Y323.179 Z5.500 I-0.012 J-2.061 K0.000 F600.000
G0 Z12.000
G0 X17.995 Y322.495 Z12.000
G0 X17.995 Y322.495 Z10.000
G1 X17.995 Y322.495 Z5.500 F100.000
G2 X18.771 Y321.309 Z5.500 I-0.532 J-1.195 K0.000 F600.000
G1 X18.771 Y314.541 Z5.500 F600.000
G1 X21.445 Y314.541 Z5.500 F600.000
G1 X21.445 Y325.361 Z5.500 F600.000
G1 X18.581 Y325.361 Z5.500 F600.000
G2 X17.371 Y326.571 Z5.500 I0.014 J1.223 K0.000 F600.000
G1 X17.371 Y329.515 Z5.500 F600.000
G1 X14.168 Y329.515 Z5.500 F600.000
G2 X12.978 Y330.704 Z5.500 I0.013 J1.203 K0.000 F600.000
G1 X12.978 Y333.428 Z5.500 F600.000
G1 X10.478 Y333.428 Z5.500 F600.000
G2 X9.707 Y335.126 Z5.500 I0.008 J1.027 K0.000 F600.000
G1 X12.977 Y338.863 Z5.500 F600.000
G3 X12.978 Y338.866 Z5.500 I-0.002 J0.002 K0.000 F600.000
G1 X12.978 Y341.655 Z5.500 F600.000
G1 X10.393 Y341.655 Z5.500 F600.000
G3 X10.355 Y341.639 Z5.500 I-0.007 J-0.037 K0.000 F600.000
G1 X6.394 Y337.751 Z5.500 F600.000
G3 X6.391 Y337.745 Z5.500 I0.003 J-0.005 K0.000 F600.000
G1 X6.391 Y334.682 Z5.500 F600.000
G2 X5.138 Y333.428 Z5.500 I-1.268 J0.015 K0.000 F600.000
G1 X-5.327 Y333.428 Z5.500 F600.000
G2 X-6.580 Y334.682 Z5.500 I0.015 J1.268 K0.000 F600.000
G1 X-6.580 Y337.745 Z5.500 F600.000
G3 X-6.583 Y337.751 Z5.500 I-0.006 J0.001 K0.000 F600.000
G1 X-10.543 Y341.639 Z5.500 F600.000
G3 X-10.581 Y341.655 Z5.500 I-0.031 J-0.021 K0.000 F600.000
G1 X-13.167 Y341.655 Z5.500 F600.000
G1 X-13.167 Y338.866 Z5.500 F600.000
G3 X-13.166 Y338.863 Z5.500 I0.003 J-0.001 K0.000 F600.000
G1 X-9.896 Y335.126 Z5.500 F600.000
G2 X-10.666 Y333.428 Z5.500 I-0.778 J-0.670 K0.000 F600.000
G1 X-13.167 Y333.428 Z5.500 F600.000
G1 X-13.167 Y330.704 Z5.500 F600.000
G2 X-14.357 Y329.515 Z5.500 I-1.203 J0.013 K0.000 F600.000
G1 X-17.560 Y329.515 Z5.500 F600.000
G1 X-17.560 Y326.571 Z5.500 F600.000
G2 X-18.769 Y325.361 Z5.500 I-1.223 J0.014 K0.000 F600.000
G1 X-21.633 Y325.361 Z5.500 F600.000
G1 X-21.633 Y314.541 Z5.500 F600.000
G1 X-18.960 Y314.541 Z5.500 F600.000
G1 X-18.960 Y321.309 Z5.500 F600.000
G2 X-17.661 Y322.608 Z5.500 I1.308 J-0.010 K0.000 F600.000
G1 X-14.541 Y322.608 Z5.500 F600.000
G2 X-13.327 Y321.394 Z5.500 I-0.014 J-1.228 K0.000 F600.000
G1 X-13.327 Y314.320 Z5.500 F600.000
G3 X-13.195 Y314.005 Z5.500 I0.400 J-0.017 K0.000 F600.000
G1 X-9.774 Y310.651 Z5.500 F600.000
G3 X-9.519 Y310.547 Z5.500 I0.238 J0.220 K0.000 F600.000
G1 X-2.986 Y310.547 Z5.500 F600.000
G1 X-2.986 Y313.141 Z5.500 F600.000
G1 X-9.814 Y313.150 Z5.500 F600.000
G2 X-10.973 Y314.417 Z5.500 I0.121 J1.274 K0.000 F600.000
G1 X-10.973 Y317.420 Z5.500 F600.000
G2 X-9.778 Y318.614 Z5.500 I1.208 J-0.014 K0.000 F600.000
G1 X9.590 Y318.614 Z5.500 F600.000
G2 X10.784 Y317.420 Z5.500 I-0.014 J-1.208 K0.000 F600.000
G1 X10.784 Y314.417 Z5.500 F600.000
G2 X9.508 Y313.141 Z5.500 I-1.285 J0.009 K0.000 F600.000
G1 X2.797 Y313.141 Z5.500 F600.000
G1 X2.797 Y310.547 Z5.500 F600.000
G1 X9.330 Y310.547 Z5.500 F600.000
G3 X9.585 Y310.651 Z5.500 I0.016 J0.324 K0.000 F600.000
G1 X13.006 Y314.005 Z5.500 F600.000
G3 X13.138 Y314.320 Z5.500 I-0.268 J0.298 K0.000 F600.000
G1 X13.138 Y321.394 Z5.500 F600.000
G2 X14.352 Y322.608 Z5.500 I1.228 J-0.014 K0.000 F600.000
G1 X17.473 Y322.608 Z5.500 F600.000
G2 X17.995 Y322.495 Z5.500 I-0.010 J-1.308 K0.000 F600.000
G0 Z12.000
G0 X17.472 Y324.108 Z12.000
G0 X17.472 Y324.108 Z10.000
G1 X17.472 Y324.108 Z5.500 F100.000
G2 X15.871 Y326.571 Z5.500 I1.120 J2.480 K0.000 F600.000
G1 X15.871 Y328.015 Z5.500 F600.000
G1 X14.168 Y328.015 Z5.500 F600.000
G2 X12.230 Y328.850 Z5.500 I0.020 J2.712 K0.000 F600.000
G1 X12.230 Y326.508 Z5.500 F600.000
G2 X9.529 Y323.807 Z5.500 I-2.702 J0.000 K0.000 F600.000
G1 X6.177 Y323.807 Z5.500 F600.000
G2 X3.475 Y326.508 Z5.500 I0.000 J2.702 K0.000 F600.000
G1 X3.475 Y329.717 Z5.500 F600.000
G2 X4.639 Y331.928 Z5.500 I2.717 J-0.018 K0.000 F600.000
G1 X-4.828 Y331.928 Z5.500 F600.000
G2 X-3.664 Y329.717 Z5.500 I-1.553 J-2.230 K0.000 F600.000
G1 X-3.664 Y326.508 Z5.500 F600.000
G2 X-6.366 Y323.807 Z5.500 I-2.702 J0.000 K0.000 F600.000
G1 X-9.717 Y323.807 Z5.500 F600.000
G2 X-12.419 Y326.508 Z5.500 I0.000 J2.702 K0.000 F600.000
G1 X-12.419 Y328.843 Z5.500 F600.000
G2 X-14.357 Y328.015 Z5.500 I-1.935 J1.846 K0.000 F600.000
G1 X-16.060 Y328.015 Z5.500 F600.000
G1 X-16.060 Y326.571 Z5.500 F600.000
G2 X-17.652 Y324.108 Z5.500 I-2.730 J0.020 K0.000 F600.000
G1 X-14.541 Y324.108 Z5.500 F600.000
G2 X-11.827 Y321.394 Z5.500 I-0.000 J-2.714 K0.000 F600.000
G1 X-11.827 Y319.153 Z5.500 F600.000
G2 X-9.778 Y320.114 Z5.500 I2.037 J-1.677 K0.000 F600.000
G1 X9.590 Y320.114 Z5.500 F600.000
G2 X11.638 Y319.149 Z5.500 I-0.006 J-2.668 K0.000 F600.000
G1 X11.638 Y321.394 Z5.500 F600.000
G2 X14.352 Y324.108 Z5.500 I2.714 J-0.000 K0.000 F600.000
G1 X17.472 Y324.108 Z5.500 F600.000
G0 Z12.000
G0 X15.589 Y324.858 Z12.000
G0 X15.589 Y324.858 Z10.000
G1 X15.589 Y324.858 Z5.500 F100.000
G1 X15.427 Y325.150 Z5.500 F600.000
G2 X15.121 Y327.265 Z5.500 I4.106 J1.673 K0.000 F600.000
G2 X13.583 Y327.322 Z5.500 I-0.477 J7.840 K0.000 F600.000
G2 X12.980 Y327.479 Z5.500 I0.670 J3.810 K0.000 F600.000
G2 X12.922 Y325.923 Z5.500 I-7.929 J-0.485 K0.000 F600.000
G2 X9.529 Y323.057 Z5.500 I-3.410 J0.596 K0.000 F600.000
G1 X6.177 Y323.057 Z5.500 F600.000
G2 X2.725 Y326.508 Z5.500 I0.001 J3.452 K0.000 F600.000
G1 X2.725 Y329.717 Z5.500 F600.000
G2 X3.072 Y331.178 Z5.500 I3.348 J-0.022 K0.000 F600.000
G1 X-3.243 Y331.178 Z5.500 F600.000
G1 X-3.219 Y331.135 Z5.500 F600.000
G2 X-2.914 Y329.717 Z5.500 I-3.523 J-1.499 K0.000 F600.000
G1 X-2.914 Y326.508 Z5.500 F600.000
G2 X-6.366 Y323.057 Z5.500 I-3.452 J0.001 K0.000 F600.000
G1 X-9.717 Y323.057 Z5.500 F600.000
G2 X-13.169 Y326.508 Z5.500 I0.001 J3.452 K0.000 F600.000
G1 X-13.169 Y327.496 Z5.500 F600.000
G2 X-14.357 Y327.265 Z5.500 I-1.221 J3.105 K0.000 F600.000
G1 X-15.310 Y327.265 Z5.500 F600.000
G2 X-15.535 Y325.345 Z5.500 I-4.613 J-0.433 K0.000 F600.000
G1 X-15.784 Y324.858 Z5.500 F600.000
G2 X-13.956 Y324.800 Z5.500 I0.622 J-9.311 K0.000 F600.000
G2 X-11.077 Y321.394 Z5.500 I-0.596 J-3.423 K0.000 F600.000
G1 X-11.077 Y320.598 Z5.500 F600.000
G2 X-9.778 Y320.864 Z5.500 I1.354 J-3.298 K0.000 F600.000
G1 X9.590 Y320.864 Z5.500 F600.000
G2 X10.888 Y320.601 Z5.500 I-0.049 J-3.570 K0.000 F600.000
G2 X10.981 Y322.157 Z5.500 I5.040 J0.480 K0.000 F600.000
G2 X14.352 Y324.858 Z5.500 I3.388 J-0.774 K0.000 F600.000
G1 X15.589 Y324.858 Z5.500 F600.000
G0 Z12.000
G0 X14.492 Y325.608 Z12.000
G0 X14.492 Y325.608 Z10.000
G1 X14.492 Y325.608 Z5.500 F100.000
G2 X14.377 Y326.515 Z5.500 I4.006 J0.971 K0.000 F600.000
G2 X13.730 Y326.558 Z5.500 I-0.104 J3.305 K0.000 F600.000
G2 X13.604 Y325.533 Z5.500 I-4.128 J-0.013 K0.000 F600.000
G2 X14.492 Y325.608 Z5.500 I0.818 J-4.373 K0.000 F600.000
G0 Z12.000
G0 X11.449 Y326.160 Z12.000
G0 X11.449 Y326.160 Z10.000
G1 X11.449 Y326.160 Z5.500 F100.000
G3 X11.480 Y326.508 Z5.500 I-1.921 J0.348 K0.000 F600.000
G1 X11.480 Y329.717 Z5.500 F600.000
G3 X9.529 Y331.669 Z5.500 I-1.952 J-0.000 K0.000 F600.000
G1 X6.189 Y331.669 Z5.500 F600.000
G3 X4.225 Y329.717 Z5.500 I0.005 J-1.968 K0.000 F600.000
G1 X4.225 Y326.508 Z5.500 F600.000
G3 X6.177 Y324.557 Z5.500 I1.952 J0.000 K0.000 F600.000
G1 X9.529 Y324.557 Z5.500 F600.000
G3 X11.449 Y326.160 Z5.500 I-0.000 J1.952 K0.000 F600.000
G0 Z12.000
G0 X10.709 Y326.298 Z12.000
G0 X10.709 Y326.298 Z10.000
G1 X10.709 Y326.298 Z5.500 F100.000
G3 X10.730 Y326.508 Z5.500 I-1.195 J0.223 K0.000 F600.000
G1 X10.730 Y329.717 Z5.500 F600.000
G3 X9.529 Y330.919 Z5.500 I-1.215 J-0.014 K0.000 F600.000
G1 X6.189 Y330.919 Z5.500 F600.000
G3 X4.975 Y329.717 Z5.500 I0.002 J-1.215 K0.000 F600.000
G1 X4.975 Y326.508 Z5.500 F600.000
G3 X6.177 Y325.307 Z5.500 I1.215 J0.014 K0.000 F600.000
G1 X9.529 Y325.307 Z5.500 F600.000
G3 X10.709 Y326.298 Z5.500 I-0.014 J1.215 K0.000 F600.000
G0 Z12.000
G0 X10.267 Y322.380 Z12.000
G0 X10.267 Y322.380 Z10.000
G1 X10.267 Y322.380 Z5.500 F100.000
G2 X9.529 Y322.307 Z5.500 I-0.741 J3.710 K0.000 F600.000
G1 X6.177 Y322.307 Z5.500 F600.000
G2 X1.975 Y326.508 Z5.500 I0.004 J4.206 K0.000 F600.000
G1 X1.975 Y329.717 Z5.500 F600.000
G1 X2.046 Y330.428 Z5.500 F600.000
G1 X-2.234 Y330.428 Z5.500 F600.000
G1 X-2.164 Y329.717 Z5.500 F600.000
G1 X-2.164 Y326.508 Z5.500 F600.000
G2 X-6.366 Y322.307 Z5.500 I-4.206 J0.004 K0.000 F600.000
G1 X-9.717 Y322.307 Z5.500 F600.000
G2 X-10.454 Y322.380 Z5.500 I0.002 J3.775 K0.000 F600.000
G2 X-10.343 Y321.559 Z5.500 I-3.515 J-0.892 K0.000 F600.000
G1 X-9.778 Y321.614 Z5.500 F600.000
G1 X9.590 Y321.614 Z5.500 F600.000
G1 X10.154 Y321.559 Z5.500 F600.000
G2 X10.267 Y322.380 Z5.500 I2.850 J0.029 K0.000 F600.000
G0 Z12.000
G0 X3.482 Y322.364 Z12.000
G0 X3.482 Y322.364 Z10.000
G1 X3.482 Y322.364 Z5.500 F100.000
G2 X1.225 Y326.508 Z5.500 I2.670 J4.140 K0.000 F600.000
G1 X1.225 Y329.678 Z5.500 F600.000
G1 X-1.414 Y329.678 Z5.500 F600.000
G1 X-1.414 Y326.508 Z5.500 F600.000
G2 X-3.670 Y322.364 Z5.500 I-4.971 J0.020 K0.000 F600.000
G1 X3.482 Y322.364 Z5.500 F600.000
G0 Z12.000
G0 X1.615 Y323.114 Z12.000
G0 X1.615 Y323.114 Z10.000
G1 X1.615 Y323.114 Z5.500 F100.000
G2 X0.475 Y326.508 Z5.500 I4.404 J3.368 K0.000 F600.000
G1 X0.475 Y328.928 Z5.500 F600.000
G1 X-0.664 Y328.928 Z5.500 F600.000
G1 X-0.664 Y326.508 Z5.500 F600.000
G2 X-1.801 Y323.114 Z5.500 I-5.587 J-0.015 K0.000 F600.000
G1 X1.615 Y323.114 Z5.500 F600.000
G0 Z12.000
G0 X0.303 Y323.864 Z12.000
G0 X0.303 Y323.864 Z10.000
G1 X0.303 Y323.864 Z5.500 F100.000
G2 X-0.093 Y325.053 Z5.500 I4.042 J2.006 K0.000 F600.000
G2 X-0.481 Y323.864 Z5.500 I-5.373 J1.098 K0.000 F600.000
G1 X0.303 Y323.864 Z5.500 F600.000
G0 Z12.000
G0 X-4.552 Y325.789 Z12.000
G0 X-4.552 Y325.789 Z10.000
G1 X-4.552 Y325.789 Z5.500 F100.000
G3 X-4.414 Y326.508 Z5.500 I-1.815 J0.719 K0.000 F600.000
G1 X-4.414 Y329.717 Z5.500 F600.000
G3 X-6.366 Y331.669 Z5.500 I-1.952 J-0.000 K0.000 F600.000
G2 X-9.717 Y331.669 Z5.500 I-1.676 J198399.700 K0.000 F600.000
G3 X-11.669 Y329.717 Z5.500 I0.000 J-1.952 K0.000 F600.000
G1 X-11.669 Y326.508 Z5.500 F600.000
G3 X-9.717 Y324.557 Z5.500 I1.952 J0.000 K0.000 F600.000
G1 X-6.366 Y324.557 Z5.500 F600.000
G3 X-4.552 Y325.789 Z5.500 I-0.000 J1.952 K0.000 F600.000
G0 Z12.000
G0 X-5.251 Y326.070 Z12.000
G0 X-5.251 Y326.070 Z10.000
G1 X-5.251 Y326.070 Z5.500 F100.000
G3 X-5.164 Y326.508 Z5.500 I-1.128 J0.452 K0.000 F600.000
G1 X-5.164 Y329.717 Z5.500 F600.000
G3 X-6.366 Y330.919 Z5.500 I-1.215 J-0.014 K0.000 F600.000
G2 X-9.717 Y330.919 Z5.500 I-1.676 J198400.074 K0.000 F600.000
G3 X-10.919 Y329.717 Z5.500 I0.014 J-1.215 K0.000 F600.000
G1 X-10.919 Y326.508 Z5.500 F600.000
G3 X-9.717 Y325.307 Z5.500 I1.215 J0.014 K0.000 F600.000
G1 X-6.366 Y325.307 Z5.500 F600.000
G3 X-5.251 Y326.070 Z5.500 I-0.014 J1.215 K0.000 F600.000
G0 Z12.000
G0 X-6.878 Y332.419 Z12.000
G0 X-6.878 Y332.419 Z10.000
G1 X-6.878 Y332.419 Z5.500 F100.000
G2 X-8.080 Y334.682 Z5.500 I1.566 J2.283 K0.000 F600.000
G1 X-8.080 Y337.119 Z5.500 F600.000
G1 X-11.172 Y340.155 Z5.500 F600.000
G1 X-11.667 Y340.155 Z5.500 F600.000
G1 X-11.667 Y339.428 Z5.500 F600.000
G1 X-8.767 Y336.113 Z5.500 F600.000
G2 X-9.119 Y332.467 Z5.500 I-1.888 J-1.658 K0.000 F600.000
G1 X-9.190 Y332.419 Z5.500 F600.000
G1 X-6.878 Y332.419 Z5.500 F600.000
G0 Z12.000
G0 X-11.255 Y331.928 Z12.000
G0 X-11.255 Y331.928 Z10.000
G1 X-11.255 Y331.928 Z5.500 F100.000
G1 X-11.667 Y331.928 Z5.500 F600.000
G1 X-11.667 Y331.583 Z5.500 F600.000
G2 X-11.255 Y331.928 Z5.500 I1.675 J-1.578 K0.000 F600.000
G0 Z12.000
G0 X-13.919 Y326.558 Z12.000
G0 X-13.919 Y326.558 Z10.000
G1 X-13.919 Y326.558 Z5.500 F100.000
G2 X-14.565 Y326.515 Z5.500 I-0.542 J3.261 K0.000 F600.000
G2 X-14.682 Y325.608 Z5.500 I-3.076 J-0.065 K0.000 F600.000
G2 X-13.794 Y325.533 Z5.500 I0.116 J-3.915 K0.000 F600.000
G2 X-13.919 Y326.558 Z5.500 I4.185 J1.028 K0.000 F600.000
G0 Z12.000
G0 X-18.789 Y323.861 Z12.000
G0 X-18.789 Y323.861 Z10.000
G1 X-18.789 Y323.861 Z5.500 F100.000
G1 X-20.133 Y323.861 Z5.500 F600.000
G1 X-20.133 Y322.607 Z5.500 F600.000
G2 X-18.789 Y323.861 Z5.500 I2.443 J-1.271 K0.000 F600.000
G0 Z12.000
G0 X-10.914 Y312.820 Z12.000
G0 X-10.914 Y312.820 Z10.000
G1 X-10.914 Y312.820 Z5.500 F100.000
G1 X-9.361 Y311.297 Z5.500 F600.000
G1 X-3.736 Y311.297 Z5.500 F600.000
G1 X-3.736 Y312.391 Z5.500 F600.000
G1 X-9.697 Y312.391 Z5.500 F600.000
G2 X-10.914 Y312.820 Z5.500 I-0.020 J1.884 K0.000 F600.000
G0 Z12.000
G0 X3.547 Y312.391 Z12.000
G0 X3.547 Y312.391 Z10.000
G1 X3.547 Y312.391 Z5.500 F100.000
G1 X3.547 Y311.297 Z5.500 F600.000
G1 X9.173 Y311.297 Z5.500 F600.000
G1 X10.726 Y312.820 Z5.500 F600.000
G2 X9.508 Y312.391 Z5.500 I-1.239 J1.575 K0.000 F600.000
G1 X3.547 Y312.391 Z5.500 F600.000
G0 Z12.000
G0 X6.690 Y332.419 Z12.000
G0 X6.690 Y332.419 Z10.000
G1 X6.690 Y332.419 Z5.500 F100.000
G1 X9.008 Y332.419 Z5.500 F600.000
G2 X8.160 Y333.468 Z5.500 I1.253 J1.879 K0.000 F600.000
G2 X8.578 Y336.113 Z5.500 I2.301 J0.992 K0.000 F600.000
G1 X11.478 Y339.428 Z5.500 F600.000
G1 X11.478 Y340.155 Z5.500 F600.000
G1 X10.984 Y340.155 Z5.500 F600.000
G1 X7.891 Y337.119 Z5.500 F600.000
G1 X7.891 Y334.682 Z5.500 F600.000
G2 X6.690 Y332.419 Z5.500 I-2.768 J0.019 K0.000 F600.000
G0 Z12.000
G0 X11.066 Y331.928 Z12.000
G0 X11.066 Y331.928 Z10.000
G1 X11.066 Y331.928 Z5.500 F100.000
G2 X11.478 Y331.576 Z5.500 I-0.646 J-1.172 K0.000 F600.000
G1 X11.478 Y331.928 Z5.500 F600.000
G1 X11.066 Y331.928 Z5.500 F600.000
G0 Z12.000
G0 Z12.000
(Finish operation: Pocket_Shape)
(Begin postamble)
M5
G17 G90
M2
