(Exported by FreeCAD)
(Post Processor: script_module)
(Output Time:2024-12-31 18:25:34.337035)
(Begin preamble)
G17 G90
G21
(Begin operation: TC: 1.5 z2 Q010)
(Path: TC: 1.5 z2 Q010)
(TC: 1.5 z2 Q010)
(Begin toolchange)
( M6 T4 )
M3 S24000
(Finish operation: TC: 1.5 z2 Q010)
(Begin operation: Fixture)
(Path: Fixture)
G54
(Finish operation: Fixture)
(Begin operation: Pocket_Shape)
(Path: Pocket_Shape)
(Pocket_Shape)
G0 Z17.500
G0 X39.260 Y5.260
G0 Z15.500
G1 X39.260 Y5.260 Z11.760 F500.000
G1 X-39.260 Y5.260 Z11.760 F1000.000
G1 X-39.260 Y3.740 Z11.760 F1000.000
G1 X39.260 Y3.740 Z11.760 F1000.000
G1 X39.260 Y5.260 Z11.760 F1000.000
G1 X38.520 Y4.520 Z11.760 F500.000
G1 X-38.520 Y4.520 Z11.760 F1000.000
G1 X-38.520 Y4.480 Z11.760 F1000.000
G1 X38.520 Y4.480 Z11.760 F1000.000
G1 X38.520 Y4.520 Z11.760 F1000.000
G1 X38.520 Y4.520 Z11.020 F500.000
G1 X-38.520 Y4.520 Z11.020 F1000.000
G1 X-38.520 Y4.480 Z11.020 F1000.000
G1 X38.520 Y4.480 Z11.020 F1000.000
G1 X38.520 Y4.520 Z11.020 F1000.000
G1 X38.520 Y5.260 Z11.020 F500.000
G1 X-39.260 Y5.260 Z11.020 F1000.000
G1 X-39.260 Y3.740 Z11.020 F1000.000
G1 X39.260 Y3.740 Z11.020 F1000.000
G1 X39.260 Y5.260 Z11.020 F1000.000
G1 X38.520 Y5.260 Z11.020 F1000.000
G1 X38.520 Y5.260 Z10.280 F500.000
G1 X-39.260 Y5.260 Z10.280 F1000.000
G1 X-39.260 Y3.740 Z10.280 F1000.000
G1 X39.260 Y3.740 Z10.280 F1000.000
G1 X39.260 Y5.260 Z10.280 F1000.000
G1 X38.520 Y5.260 Z10.280 F1000.000
G1 X38.520 Y4.520 Z10.280 F500.000
G1 X-38.520 Y4.520 Z10.280 F1000.000
G1 X-38.520 Y4.480 Z10.280 F1000.000
G1 X38.520 Y4.480 Z10.280 F1000.000
G1 X38.520 Y4.520 Z10.280 F1000.000
G1 X38.520 Y4.520 Z9.540 F500.000
G1 X-38.520 Y4.520 Z9.540 F1000.000
G1 X-38.520 Y4.480 Z9.540 F1000.000
G1 X38.520 Y4.480 Z9.540 F1000.000
G1 X38.520 Y4.520 Z9.540 F1000.000
G1 X38.520 Y5.260 Z9.540 F500.000
G1 X-39.260 Y5.260 Z9.540 F1000.000
G1 X-39.260 Y3.740 Z9.540 F1000.000
G1 X39.260 Y3.740 Z9.540 F1000.000
G1 X39.260 Y5.260 Z9.540 F1000.000
G1 X38.520 Y5.260 Z9.540 F1000.000
G1 X38.520 Y5.260 Z8.800 F500.000
G1 X-39.260 Y5.260 Z8.800 F1000.000
G1 X-39.260 Y3.740 Z8.800 F1000.000
G1 X39.260 Y3.740 Z8.800 F1000.000
G1 X39.260 Y5.260 Z8.800 F1000.000
G1 X38.520 Y5.260 Z8.800 F1000.000
G1 X38.520 Y4.520 Z8.800 F500.000
G1 X-38.520 Y4.520 Z8.800 F1000.000
G1 X-38.520 Y4.480 Z8.800 F1000.000
G1 X38.520 Y4.480 Z8.800 F1000.000
G1 X38.520 Y4.520 Z8.800 F1000.000
G1 X38.520 Y4.520 Z8.060 F500.000
G1 X-38.520 Y4.520 Z8.060 F1000.000
G1 X-38.520 Y4.480 Z8.060 F1000.000
G1 X38.520 Y4.480 Z8.060 F1000.000
G1 X38.520 Y4.520 Z8.060 F1000.000
G1 X38.520 Y5.260 Z8.060 F500.000
G1 X-39.260 Y5.260 Z8.060 F1000.000
G1 X-39.260 Y3.740 Z8.060 F1000.000
G1 X39.260 Y3.740 Z8.060 F1000.000
G1 X39.260 Y5.260 Z8.060 F1000.000
G1 X38.520 Y5.260 Z8.060 F1000.000
G1 X38.520 Y5.260 Z8.000 F500.000
G1 X-39.260 Y5.260 Z8.000 F1000.000
G1 X-39.260 Y3.740 Z8.000 F1000.000
G1 X39.260 Y3.740 Z8.000 F1000.000
G1 X39.260 Y5.260 Z8.000 F1000.000
G1 X38.520 Y5.260 Z8.000 F1000.000
G1 X38.520 Y4.520 Z8.000 F500.000
G1 X-38.520 Y4.520 Z8.000 F1000.000
G1 X-38.520 Y4.480 Z8.000 F1000.000
G1 X38.520 Y4.480 Z8.000 F1000.000
G1 X38.520 Y4.520 Z8.000 F1000.000
G0 Z17.500
G0 X38.520 Y4.520
G0 Y19.340
G0 Y19.340 Z15.500
G1 X38.520 Y19.340 Z11.760 F500.000
G1 X39.260 Y19.340 Z11.760 F1000.000
G1 X39.260 Y19.860 Z11.760 F1000.000
G1 X-39.260 Y19.860 Z11.760 F1000.000
G1 X-39.260 Y19.340 Z11.760 F1000.000
G1 X38.520 Y19.340 Z11.760 F1000.000
G1 X38.520 Y19.340 Z11.020 F500.000
G1 X39.260 Y19.340 Z11.020 F1000.000
G1 X39.260 Y19.860 Z11.020 F1000.000
G1 X-39.260 Y19.860 Z11.020 F1000.000
G1 X-39.260 Y19.340 Z11.020 F1000.000
G1 X38.520 Y19.340 Z11.020 F1000.000
G1 X38.520 Y19.340 Z10.280 F500.000
G1 X39.260 Y19.340 Z10.280 F1000.000
G1 X39.260 Y19.860 Z10.280 F1000.000
G1 X-39.260 Y19.860 Z10.280 F1000.000
G1 X-39.260 Y19.340 Z10.280 F1000.000
G1 X38.520 Y19.340 Z10.280 F1000.000
G1 X38.520 Y19.340 Z9.540 F500.000
G1 X39.260 Y19.340 Z9.540 F1000.000
G1 X39.260 Y19.860 Z9.540 F1000.000
G1 X-39.260 Y19.860 Z9.540 F1000.000
G1 X-39.260 Y19.340 Z9.540 F1000.000
G1 X38.520 Y19.340 Z9.540 F1000.000
G1 X38.520 Y19.340 Z8.800 F500.000
G1 X39.260 Y19.340 Z8.800 F1000.000
G1 X39.260 Y19.860 Z8.800 F1000.000
G1 X-39.260 Y19.860 Z8.800 F1000.000
G1 X-39.260 Y19.340 Z8.800 F1000.000
G1 X38.520 Y19.340 Z8.800 F1000.000
G1 X38.520 Y19.340 Z8.060 F500.000
G1 X39.260 Y19.340 Z8.060 F1000.000
G1 X39.260 Y19.860 Z8.060 F1000.000
G1 X-39.260 Y19.860 Z8.060 F1000.000
G1 X-39.260 Y19.340 Z8.060 F1000.000
G1 X38.520 Y19.340 Z8.060 F1000.000
G1 X38.520 Y19.340 Z8.000 F500.000
G1 X39.260 Y19.340 Z8.000 F1000.000
G1 X39.260 Y19.860 Z8.000 F1000.000
G1 X-39.260 Y19.860 Z8.000 F1000.000
G1 X-39.260 Y19.340 Z8.000 F1000.000
G1 X38.520 Y19.340 Z8.000 F1000.000
G0 Z17.500
G0 X38.520 Y19.340
G0 Y28.740
G0 Y28.740 Z15.500
G1 X38.520 Y28.740 Z11.760 F500.000
G1 X39.260 Y28.740 Z11.760 F1000.000
G1 X39.260 Y29.260 Z11.760 F1000.000
G1 X-39.260 Y29.260 Z11.760 F1000.000
G1 X-39.260 Y28.740 Z11.760 F1000.000
G1 X38.520 Y28.740 Z11.760 F1000.000
G1 X38.520 Y28.740 Z11.020 F500.000
G1 X39.260 Y28.740 Z11.020 F1000.000
G1 X39.260 Y29.260 Z11.020 F1000.000
G1 X-39.260 Y29.260 Z11.020 F1000.000
G1 X-39.260 Y28.740 Z11.020 F1000.000
G1 X38.520 Y28.740 Z11.020 F1000.000
G1 X38.520 Y28.740 Z10.280 F500.000
G1 X39.260 Y28.740 Z10.280 F1000.000
G1 X39.260 Y29.260 Z10.280 F1000.000
G1 X-39.260 Y29.260 Z10.280 F1000.000
G1 X-39.260 Y28.740 Z10.280 F1000.000
G1 X38.520 Y28.740 Z10.280 F1000.000
G1 X38.520 Y28.740 Z9.540 F500.000
G1 X39.260 Y28.740 Z9.540 F1000.000
G1 X39.260 Y29.260 Z9.540 F1000.000
G1 X-39.260 Y29.260 Z9.540 F1000.000
G1 X-39.260 Y28.740 Z9.540 F1000.000
G1 X38.520 Y28.740 Z9.540 F1000.000
G1 X38.520 Y28.740 Z8.800 F500.000
G1 X39.260 Y28.740 Z8.800 F1000.000
G1 X39.260 Y29.260 Z8.800 F1000.000
G1 X-39.260 Y29.260 Z8.800 F1000.000
G1 X-39.260 Y28.740 Z8.800 F1000.000
G1 X38.520 Y28.740 Z8.800 F1000.000
G1 X38.520 Y28.740 Z8.060 F500.000
G1 X39.260 Y28.740 Z8.060 F1000.000
G1 X39.260 Y29.260 Z8.060 F1000.000
G1 X-39.260 Y29.260 Z8.060 F1000.000
G1 X-39.260 Y28.740 Z8.060 F1000.000
G1 X38.520 Y28.740 Z8.060 F1000.000
G1 X38.520 Y28.740 Z8.000 F500.000
G1 X39.260 Y28.740 Z8.000 F1000.000
G1 X39.260 Y29.260 Z8.000 F1000.000
G1 X-39.260 Y29.260 Z8.000 F1000.000
G1 X-39.260 Y28.740 Z8.000 F1000.000
G1 X38.520 Y28.740 Z8.000 F1000.000
G0 Z17.500
(Finish operation: Pocket_Shape)
(Begin postamble)
M5
G17 G90
M2
