(Exported by FreeCAD)
(Post Processor: grbl_post)
(Output Time:2024-01-26 15:46:47.566134)
(Begin preamble)
G17 G90
G21
(Begin operation: TC: 6 Ball Q6)
(Path: TC: 6 Ball Q6)
(TC: 6 Ball Q6)
(Begin toolchange)
( M6 T9 )
M3 S24000
(Finish operation: TC: 6 Ball Q6)
(Begin operation: Fixture)
(Path: Fixture)
G54
(Finish operation: Fixture)
(Begin operation: radius)
(Path: radius)
(radius)
(radius)
(Tool type: ballend)
(Compensated Tool Path. Diameter: 6.0)
(Sample interval: 1.0)
(Step over %: 5.0)
()
G0 Z12.000
(Beginning of Single-pass layer.)
G0 X-0.002 Y404.946
(Begin step 0.)
(part 1.)
G1 X-0.002 Y404.946 Z6.982 F2500.000
G1 X-0.110 Y404.876 Z6.981 F2500.000
G1 X-0.076 Y402.676 Z6.942 F2500.000
G1 X-0.058 Y401.517 Z6.913 F2500.000
G1 X-0.038 Y402.717 Z6.943 F2500.000
G1 X-0.002 Y404.946 Z6.982 F2500.000
(Break)
G0 Z10.000
G0 X0.110 Y393.364
(part 3.)
G1 X0.110 Y393.364 Z6.990 F2500.000
G1 X0.123 Y394.164 Z6.982 F2500.000
G1 X0.156 Y396.164 Z6.956 F2500.000
G1 X0.178 Y397.563 Z6.931 F2500.000
G1 X0.220 Y400.163 Z6.865 F2500.000
G1 X0.243 Y401.563 Z6.911 F2500.000
G1 X0.262 Y402.763 Z6.941 F2500.000
G1 X0.301 Y405.162 Z6.984 F2500.000
G1 X0.140 Y405.226 Z6.985 F2500.000
G1 X-0.254 Y405.295 Z6.987 F2500.000
G1 X-0.416 Y405.289 Z6.987 F2500.000
G1 X-0.398 Y404.089 Z6.970 F2500.000
G1 X-0.375 Y402.589 Z6.942 F2500.000
G1 X-0.352 Y401.090 Z6.904 F2500.000
G1 X-0.332 Y399.790 Z6.859 F2500.000
G1 X-0.309 Y398.290 Z6.908 F2500.000
G1 X-0.282 Y396.490 Z6.947 F2500.000
G1 X-0.251 Y394.490 Z6.978 F2500.000
G1 X-0.221 Y392.491 Z6.998 F2500.000
G1 X-0.069 Y382.492 Z7.000 F2500.000
G1 X-0.065 Y382.505 Z7.000 F2500.000
G1 X0.083 Y391.704 Z7.000 F2500.000
G1 X0.096 Y392.504 Z6.999 F2500.000
G1 X0.110 Y393.364 Z6.990 F2500.000
(Break)
G0 Z10.000
G0 X0.410 Y393.359
(part 5.)
G1 X0.410 Y393.359 Z6.990 F2500.000
G1 X0.420 Y393.959 Z6.984 F2500.000
G1 X0.446 Y395.559 Z6.966 F2500.000
G1 X0.475 Y397.359 Z6.937 F2500.000
G1 X0.498 Y398.758 Z6.906 F2500.000
G1 X0.514 Y399.758 Z6.877 F2500.000
G1 X0.524 Y400.358 Z6.867 F2500.000
G1 X0.546 Y401.758 Z6.913 F2500.000
G1 X0.562 Y402.758 Z6.938 F2500.000
G1 X0.592 Y404.558 Z6.974 F2500.000
G1 X0.604 Y405.358 Z6.986 F2500.000
G1 X0.503 Y405.470 Z6.988 F2500.000
G1 X-0.679 Y405.676 Z6.993 F2500.000
G1 X-0.720 Y405.527 Z6.991 F2500.000
G1 X-0.692 Y403.728 Z6.965 F2500.000
G1 X-0.668 Y402.128 Z6.934 F2500.000
G1 X-0.650 Y400.928 Z6.903 F2500.000
G1 X-0.634 Y399.928 Z6.869 F2500.000
G1 X-0.625 Y399.328 Z6.871 F2500.000
G1 X-0.610 Y398.328 Z6.903 F2500.000
G1 X-0.592 Y397.128 Z6.932 F2500.000
G1 X-0.576 Y396.128 Z6.952 F2500.000
G1 X-0.552 Y394.529 Z6.976 F2500.000
G1 X-0.522 Y392.529 Z6.997 F2500.000
G1 X-0.512 Y391.929 Z6.995 F2500.000
G1 X-0.505 Y391.429 Z6.999 F2500.000
G1 X-0.276 Y376.431 Z7.000 F2500.000
G1 X-0.254 Y374.931 Z6.945 F2500.000
G1 X-0.231 Y373.431 Z6.874 F2500.000
G1 X-0.223 Y372.931 Z6.855 F2500.000
G1 X-0.215 Y372.431 Z6.877 F2500.000
G1 X-0.200 Y371.431 Z6.909 F2500.000
G1 X-0.185 Y370.431 Z6.931 F2500.000
G1 X-0.170 Y369.432 Z6.947 F2500.000
G1 X-0.132 Y366.932 Z6.973 F2500.000
G1 X-0.077 Y363.332 Z6.991 F2500.000
G1 X-0.012 Y367.268 Z6.971 F2500.000
G1 X0.024 Y369.468 Z6.949 F2500.000
G1 X0.048 Y370.967 Z6.925 F2500.000
G1 X0.059 Y371.667 Z6.909 F2500.000
G1 X0.085 Y373.267 Z6.862 F2500.000
G1 X0.108 Y374.667 Z6.931 F2500.000
G1 X0.134 Y376.267 Z6.996 F2500.000
G1 X0.145 Y376.967 Z6.999 F2500.000
G1 X0.384 Y391.765 Z6.999 F2500.000
G1 X0.410 Y393.359 Z6.990 F2500.000
(Break)
G0 Z10.000
G0 X0.180 Y360.623
(part 7.)
G1 X0.180 Y360.623 Z6.997 F2500.000
G1 X0.192 Y361.323 Z6.998 F2500.000
G1 X0.255 Y365.222 Z6.985 F2500.000
G1 X0.294 Y367.622 Z6.970 F2500.000
G1 X0.323 Y369.421 Z6.953 F2500.000
G1 X0.353 Y371.288 Z6.924 F2500.000
G1 X0.368 Y372.221 Z6.901 F2500.000
G1 X0.379 Y372.921 Z6.875 F2500.000
G1 X0.391 Y373.621 Z6.879 F2500.000
G1 X0.407 Y374.621 Z6.928 F2500.000
G1 X0.431 Y376.121 Z6.990 F2500.000
G1 X0.454 Y377.520 Z6.999 F2500.000
G1 X0.693 Y392.318 Z6.999 F2500.000
G1 X0.735 Y394.885 Z6.975 F2500.000
G1 X0.773 Y397.218 Z6.943 F2500.000
G1 X0.798 Y398.751 Z6.910 F2500.000
G1 X0.821 Y400.217 Z6.865 F2500.000
G1 X0.847 Y401.817 Z6.911 F2500.000
G1 X0.871 Y403.317 Z6.949 F2500.000
G1 X0.909 Y405.617 Z6.990 F2500.000
G1 X0.804 Y405.726 Z6.991 F2500.000
G1 X0.015 Y405.857 Z6.995 F2500.000
G1 X-0.576 Y405.962 Z6.996 F2500.000
G1 X-0.969 Y406.036 Z6.997 F2500.000
G1 X-1.025 Y405.908 Z6.995 F2500.000
G1 X-0.995 Y403.908 Z6.969 F2500.000
G1 X-0.968 Y402.109 Z6.936 F2500.000
G1 X-0.949 Y400.909 Z6.906 F2500.000
G1 X-0.931 Y399.709 Z6.866 F2500.000
G1 X-0.922 Y399.109 Z6.873 F2500.000
G1 X-0.907 Y398.109 Z6.905 F2500.000
G1 X-0.897 Y397.509 Z6.920 F2500.000
G1 X-0.870 Y395.709 Z6.957 F2500.000
G1 X-0.846 Y394.109 Z6.980 F2500.000
G1 X-0.827 Y392.910 Z6.993 F2500.000
G1 X-0.815 Y392.110 Z6.990 F2500.000
G1 X-0.803 Y391.310 Z6.998 F2500.000
G1 X-0.578 Y376.511 Z6.998 F2500.000
G1 X-0.565 Y375.712 Z6.976 F2500.000
G1 X-0.553 Y374.912 Z6.945 F2500.000
G1 X-0.532 Y373.512 Z6.881 F2500.000
G1 X-0.520 Y372.712 Z6.855 F2500.000
G1 X-0.511 Y372.112 Z6.881 F2500.000
G1 X-0.498 Y371.312 Z6.906 F2500.000
G1 X-0.474 Y369.712 Z6.939 F2500.000
G1 X-0.453 Y368.312 Z6.958 F2500.000
G1 X-0.428 Y366.713 Z6.972 F2500.000
G1 X-0.395 Y364.513 Z6.985 F2500.000
G1 X-0.337 Y360.713 Z6.999 F2500.000
G1 X-0.334 Y360.513 Z6.991 F2500.000
G1 X-0.328 Y360.113 Z7.000 F2500.000
G1 X-0.313 Y359.114 Z6.999 F2500.000
G1 X-0.203 Y351.914 Z6.983 F2500.000
G1 X-0.087 Y344.315 Z6.999 F2500.000
G1 X-0.084 Y344.290 Z6.999 F2500.000
G1 X-0.003 Y349.289 Z6.991 F2500.000
G1 X0.039 Y351.889 Z6.982 F2500.000
G1 X0.165 Y359.688 Z6.999 F2500.000
G1 X0.178 Y360.487 Z6.989 F2500.000
G1 X0.180 Y360.623 Z6.997 F2500.000
(Break)
G0 Z10.000
G0 X-0.050 Y327.885
(part 9.)
G1 X-0.050 Y327.885 Z7.000 F2500.000
G1 X-0.043 Y328.285 Z7.000 F2500.000
G1 X0.184 Y342.283 Z7.000 F2500.000
G1 X0.196 Y343.083 Z6.997 F2500.000
G1 X0.209 Y343.883 Z6.999 F2500.000
G1 X0.305 Y349.782 Z6.990 F2500.000
G1 X0.350 Y352.582 Z6.982 F2500.000
G1 X0.404 Y355.882 Z6.992 F2500.000
G1 X0.470 Y359.981 Z6.999 F2500.000
G1 X0.478 Y360.481 Z6.988 F2500.000
G1 X0.481 Y360.681 Z6.998 F2500.000
G1 X0.499 Y361.781 Z6.997 F2500.000
G1 X0.559 Y365.480 Z6.984 F2500.000
G1 X0.598 Y367.880 Z6.971 F2500.000
G1 X0.621 Y369.280 Z6.958 F2500.000
G1 X0.635 Y370.180 Z6.948 F2500.000
G1 X0.659 Y371.679 Z6.922 F2500.000
G1 X0.689 Y373.479 Z6.869 F2500.000
G1 X0.701 Y374.279 Z6.910 F2500.000
G1 X0.714 Y375.079 Z6.947 F2500.000
G1 X0.735 Y376.379 Z6.998 F2500.000
G1 X0.996 Y392.477 Z6.997 F2500.000
G1 X1.049 Y395.776 Z6.966 F2500.000
G1 X1.077 Y397.476 Z6.940 F2500.000
G1 X1.100 Y398.876 Z6.911 F2500.000
G1 X1.122 Y400.276 Z6.869 F2500.000
G1 X1.135 Y401.076 Z6.884 F2500.000
G1 X1.155 Y402.275 Z6.921 F2500.000
G1 X1.177 Y403.675 Z6.954 F2500.000
G1 X1.213 Y405.875 Z6.993 F2500.000
G1 X1.109 Y405.983 Z6.994 F2500.000
G1 X0.516 Y406.076 Z6.997 F2500.000
G1 X-0.273 Y406.212 Z7.000 F2500.000
G1 X-0.863 Y406.321 Z6.998 F2500.000
G1 X-1.255 Y406.400 Z6.994 F2500.000
G1 X-1.331 Y406.296 Z6.997 F2500.000
G1 X-1.307 Y404.697 Z6.980 F2500.000
G1 X-1.270 Y402.297 Z6.941 F2500.000
G1 X-1.252 Y401.097 Z6.914 F2500.000
G1 X-1.225 Y399.297 Z6.860 F2500.000
G1 X-1.206 Y398.097 Z6.901 F2500.000
G1 X-1.188 Y396.897 Z6.932 F2500.000
G1 X-1.170 Y395.698 Z6.955 F2500.000
G1 X-1.143 Y393.898 Z6.982 F2500.000
G1 X-1.118 Y392.298 Z6.998 F2500.000
G1 X-0.893 Y377.500 Z6.999 F2500.000
G1 X-0.881 Y376.700 Z6.986 F2500.000
G1 X-0.868 Y375.900 Z6.983 F2500.000
G1 X-0.847 Y374.500 Z6.929 F2500.000
G1 X-0.823 Y372.900 Z6.851 F2500.000
G1 X-0.789 Y370.700 Z6.915 F2500.000
G1 X-0.777 Y369.901 Z6.931 F2500.000
G1 X-0.756 Y368.501 Z6.951 F2500.000
G1 X-0.719 Y366.101 Z6.974 F2500.000
G1 X-0.686 Y363.901 Z6.988 F2500.000
G1 X-0.643 Y361.102 Z6.998 F2500.000
G1 X-0.637 Y360.702 Z6.999 F2500.000
G1 X-0.634 Y360.502 Z6.989 F2500.000
G1 X-0.625 Y359.902 Z6.999 F2500.000
G1 X-0.606 Y358.702 Z6.998 F2500.000
G1 X-0.488 Y350.903 Z6.983 F2500.000
G1 X-0.448 Y348.303 Z6.992 F2500.000
G1 X-0.381 Y343.904 Z6.999 F2500.000
G1 X-0.372 Y343.304 Z6.991 F2500.000
G1 X-0.363 Y342.704 Z7.000 F2500.000
G1 X-0.101 Y325.506 Z7.000 F2500.000
G1 X-0.095 Y325.106 Z6.995 F2500.000
G1 X-0.091 Y325.303 Z7.000 F2500.000
G1 X-0.050 Y327.885 Z7.000 F2500.000
(Break)
G0 Z10.000
G0 X0.250 Y327.880
(part 11.)
G1 X0.250 Y327.880 Z6.999 F2500.000
G1 X0.257 Y328.280 Z6.999 F2500.000
G1 X0.532 Y345.278 Z6.998 F2500.000
G1 X0.658 Y353.077 Z6.982 F2500.000
G1 X0.713 Y356.477 Z6.993 F2500.000
G1 X0.770 Y359.976 Z6.998 F2500.000
G1 X0.778 Y360.476 Z6.987 F2500.000
G1 X0.781 Y360.676 Z6.998 F2500.000
G1 X0.814 Y362.676 Z6.995 F2500.000
G1 X0.875 Y366.475 Z6.980 F2500.000
G1 X0.925 Y369.575 Z6.958 F2500.000
G1 X0.946 Y370.875 Z6.942 F2500.000
G1 X0.959 Y371.675 Z6.927 F2500.000
G1 X0.972 Y372.474 Z6.908 F2500.000
G1 X0.988 Y373.474 Z6.870 F2500.000
G1 X1.014 Y375.074 Z6.945 F2500.000
G1 X1.029 Y375.974 Z6.983 F2500.000
G1 X1.047 Y377.074 Z6.998 F2500.000
G1 X1.296 Y392.472 Z6.997 F2500.000
G1 X1.345 Y395.471 Z6.970 F2500.000
G1 X1.374 Y397.271 Z6.946 F2500.000
G1 X1.400 Y398.871 Z6.915 F2500.000
G1 X1.429 Y400.671 Z6.864 F2500.000
G1 X1.448 Y401.871 Z6.906 F2500.000
G1 X1.474 Y403.470 Z6.948 F2500.000
G1 X1.503 Y405.270 Z6.983 F2500.000
G1 X1.516 Y406.070 Z6.995 F2500.000
G1 X1.477 Y406.234 Z6.997 F2500.000
G1 X0.686 Y406.352 Z6.997 F2500.000
G1 X0.291 Y406.418 Z6.994 F2500.000
G1 X-0.300 Y406.522 Z6.986 F2500.000
G1 X-0.889 Y406.632 Z6.993 F2500.000
G1 X-1.477 Y406.753 Z6.997 F2500.000
G1 X-1.638 Y406.753 Z6.997 F2500.000
G1 X-1.626 Y405.953 Z6.995 F2500.000
G1 X-1.614 Y405.153 Z6.986 F2500.000
G1 X-1.587 Y403.353 Z6.962 F2500.000
G1 X-1.559 Y401.553 Z6.927 F2500.000
G1 X-1.547 Y400.753 Z6.908 F2500.000
G1 X-1.532 Y399.753 Z6.877 F2500.000
G1 X-1.520 Y398.954 Z6.868 F2500.000
G1 X-1.504 Y397.954 Z6.901 F2500.000
G1 X-1.477 Y396.154 Z6.943 F2500.000
G1 X-1.462 Y395.154 Z6.962 F2500.000
G1 X-1.424 Y392.654 Z6.994 F2500.000
G1 X-1.303 Y384.755 Z6.998 F2500.000
G1 X-1.191 Y377.356 Z6.998 F2500.000
G1 X-1.178 Y376.556 Z6.995 F2500.000
G1 X-1.169 Y375.956 Z6.985 F2500.000
G1 X-1.157 Y375.156 Z6.955 F2500.000
G1 X-1.145 Y374.356 Z6.924 F2500.000
G1 X-1.120 Y372.757 Z6.846 F2500.000
G1 X-1.111 Y372.157 Z6.861 F2500.000
G1 X-1.099 Y371.357 Z6.890 F2500.000
G1 X-1.087 Y370.557 Z6.912 F2500.000
G1 X-1.066 Y369.157 Z6.939 F2500.000
G1 X-1.053 Y368.357 Z6.950 F2500.000
G1 X-1.008 Y365.357 Z6.977 F2500.000
G1 X-0.938 Y360.758 Z6.999 F2500.000
G1 X-0.935 Y360.558 Z6.993 F2500.000
G1 X-0.926 Y359.958 Z6.998 F2500.000
G1 X-0.889 Y357.558 Z6.997 F2500.000
G1 X-0.782 Y350.559 Z6.982 F2500.000
G1 X-0.737 Y347.559 Z6.992 F2500.000
G1 X-0.682 Y343.960 Z6.998 F2500.000
G1 X-0.673 Y343.360 Z6.994 F2500.000
G1 X-0.664 Y342.760 Z6.999 F2500.000
G1 X-0.402 Y325.562 Z6.999 F2500.000
G1 X-0.391 Y324.862 Z6.996 F2500.000
G1 X-0.380 Y324.162 Z7.000 F2500.000
G1 X-0.103 Y306.049 Z7.000 F2500.000
G1 X0.250 Y327.880 Z6.999 F2500.000
(Break)
G0 Z10.000
G0 X0.021 Y295.142
(part 13.)
G1 X0.021 Y295.142 Z7.000 F2500.000
G1 X0.033 Y295.942 Z7.000 F2500.000
G1 X0.490 Y324.138 Z6.999 F2500.000
G1 X0.506 Y325.138 Z6.995 F2500.000
G1 X0.516 Y325.738 Z6.999 F2500.000
G1 X0.791 Y342.736 Z6.998 F2500.000
G1 X0.801 Y343.336 Z6.992 F2500.000
G1 X0.807 Y343.736 Z6.998 F2500.000
G1 X0.862 Y347.135 Z6.996 F2500.000
G1 X0.969 Y353.734 Z6.983 F2500.000
G1 X1.073 Y360.133 Z6.998 F2500.000
G1 X1.079 Y360.533 Z6.991 F2500.000
G1 X1.082 Y360.733 Z6.998 F2500.000
G1 X1.121 Y363.133 Z6.994 F2500.000
G1 X1.179 Y366.733 Z6.981 F2500.000
G1 X1.221 Y369.332 Z6.963 F2500.000
G1 X1.247 Y370.932 Z6.946 F2500.000
G1 X1.260 Y371.732 Z6.932 F2500.000
G1 X1.273 Y372.532 Z6.913 F2500.000
G1 X1.288 Y373.432 Z6.882 F2500.000
G1 X1.302 Y374.332 Z6.909 F2500.000
G1 X1.332 Y376.131 Z6.988 F2500.000
G1 X1.344 Y376.931 Z6.997 F2500.000
G1 X1.578 Y391.329 Z6.997 F2500.000
G1 X1.590 Y392.129 Z6.990 F2500.000
G1 X1.594 Y392.329 Z6.997 F2500.000
G1 X1.623 Y394.129 Z6.985 F2500.000
G1 X1.658 Y396.329 Z6.961 F2500.000
G1 X1.678 Y397.528 Z6.944 F2500.000
G1 X1.701 Y398.928 Z6.917 F2500.000
G1 X1.713 Y399.728 Z6.897 F2500.000
G1 X1.726 Y400.528 Z6.871 F2500.000
G1 X1.736 Y401.128 Z6.877 F2500.000
G1 X1.762 Y402.728 Z6.927 F2500.000
G1 X1.785 Y404.128 Z6.960 F2500.000
G1 X1.811 Y405.727 Z6.990 F2500.000
G1 X1.820 Y406.327 Z6.995 F2500.000
G1 X1.784 Y406.494 Z6.986 F2500.000
G1 X1.388 Y406.549 Z6.986 F2500.000
G1 X0.795 Y406.638 Z6.993 F2500.000
G1 X0.006 Y406.772 Z7.000 F2500.000
G1 X-0.781 Y406.917 Z6.998 F2500.000
G1 X-1.760 Y407.120 Z6.993 F2500.000
G1 X-1.944 Y407.148 Z6.992 F2500.000
G1 X-1.938 Y406.748 Z6.996 F2500.000
G1 X-1.929 Y406.148 Z6.996 F2500.000
G1 X-1.905 Y404.549 Z6.979 F2500.000
G1 X-1.877 Y402.749 Z6.953 F2500.000
G1 X-1.859 Y401.549 Z6.930 F2500.000
G1 X-1.847 Y400.749 Z6.910 F2500.000
G1 X-1.829 Y399.549 Z6.874 F2500.000
G1 X-1.820 Y398.949 Z6.862 F2500.000
G1 X-1.804 Y397.949 Z6.896 F2500.000
G1 X-1.780 Y396.349 Z6.937 F2500.000
G1 X-1.756 Y394.750 Z6.966 F2500.000
G1 X-1.722 Y392.550 Z6.995 F2500.000
G1 X-1.713 Y391.950 Z6.991 F2500.000
G1 X-1.701 Y391.150 Z6.997 F2500.000
G1 X-1.484 Y376.952 Z6.997 F2500.000
G1 X-1.472 Y376.152 Z6.990 F2500.000
G1 X-1.463 Y375.552 Z6.971 F2500.000
G1 X-1.439 Y373.952 Z6.907 F2500.000
G1 X-1.417 Y372.552 Z6.838 F2500.000
G1 X-1.396 Y371.152 Z6.889 F2500.000
G1 X-1.384 Y370.353 Z6.911 F2500.000
G1 X-1.356 Y368.553 Z6.944 F2500.000
G1 X-1.314 Y365.753 Z6.973 F2500.000
G1 X-1.271 Y362.953 Z6.990 F2500.000
G1 X-1.238 Y360.754 Z6.998 F2500.000
G1 X-1.235 Y360.554 Z6.992 F2500.000
G1 X-1.225 Y359.954 Z6.998 F2500.000
G1 X-1.177 Y356.754 Z6.996 F2500.000
G1 X-1.073 Y349.955 Z6.983 F2500.000
G1 X-0.976 Y343.556 Z6.998 F2500.000
G1 X-0.702 Y325.558 Z6.999 F2500.000
G1 X-0.692 Y324.958 Z6.989 F2500.000
G1 X-0.683 Y324.358 Z6.999 F2500.000
G1 X-0.412 Y306.560 Z6.999 F2500.000
G1 X-0.400 Y305.760 Z6.993 F2500.000
G1 X-0.392 Y305.260 Z7.000 F2500.000
G1 X-0.114 Y286.962 Z7.000 F2500.000
G1 X0.021 Y295.142 Z7.000 F2500.000
(Break)
G0 Z10.000
G0 X0.321 Y295.137
(part 15.)
G1 X0.321 Y295.137 Z6.999 F2500.000
G1 X0.333 Y295.937 Z6.999 F2500.000
G1 X0.486 Y305.336 Z6.999 F2500.000
G1 X0.492 Y305.736 Z6.991 F2500.000
G1 X0.502 Y306.336 Z6.999 F2500.000
G1 X0.796 Y324.533 Z6.998 F2500.000
G1 X0.803 Y324.933 Z6.991 F2500.000
G1 X0.813 Y325.533 Z6.998 F2500.000
G1 X1.091 Y342.731 Z6.998 F2500.000
G1 X1.101 Y343.331 Z6.992 F2500.000
G1 X1.114 Y344.131 Z6.998 F2500.000
G1 X1.175 Y347.930 Z6.995 F2500.000
G1 X1.269 Y353.729 Z6.983 F2500.000
G1 X1.366 Y359.729 Z6.997 F2500.000
G1 X1.379 Y360.528 Z6.990 F2500.000
G1 X1.382 Y360.728 Z6.997 F2500.000
G1 X1.476 Y366.528 Z6.982 F2500.000
G1 X1.531 Y369.927 Z6.961 F2500.000
G1 X1.560 Y371.727 Z6.937 F2500.000
G1 X1.575 Y372.627 Z6.918 F2500.000
G1 X1.593 Y373.727 Z6.879 F2500.000
G1 X1.631 Y376.126 Z6.988 F2500.000
G1 X1.644 Y376.926 Z6.996 F2500.000
G1 X1.881 Y391.524 Z6.997 F2500.000
G1 X1.887 Y391.924 Z6.992 F2500.000
G1 X1.897 Y392.524 Z6.995 F2500.000
G1 X1.929 Y394.524 Z6.981 F2500.000
G1 X1.962 Y396.524 Z6.960 F2500.000
G1 X1.978 Y397.524 Z6.946 F2500.000
G1 X2.004 Y399.123 Z6.916 F2500.000
G1 X2.017 Y399.923 Z6.896 F2500.000
G1 X2.033 Y400.923 Z6.864 F2500.000
G1 X2.059 Y402.523 Z6.918 F2500.000
G1 X2.088 Y404.323 Z6.962 F2500.000
G1 X2.117 Y406.123 Z6.995 F2500.000
G1 X2.127 Y406.722 Z6.995 F2500.000
G1 X1.956 Y406.773 Z6.996 F2500.000
G1 X1.164 Y406.885 Z6.997 F2500.000
G1 X0.769 Y406.946 Z6.997 F2500.000
G1 X0.177 Y407.047 Z6.997 F2500.000
G1 X-0.414 Y407.152 Z6.994 F2500.000
G1 X-1.198 Y407.307 Z6.991 F2500.000
G1 X-2.176 Y407.518 Z6.985 F2500.000
G1 X-2.248 Y407.412 Z6.986 F2500.000
G1 X-2.227 Y406.012 Z6.994 F2500.000
G1 X-2.197 Y404.012 Z6.972 F2500.000
G1 X-2.175 Y402.612 Z6.952 F2500.000
G1 X-2.154 Y401.213 Z6.924 F2500.000
G1 X-2.142 Y400.413 Z6.905 F2500.000
G1 X-2.121 Y399.013 Z6.859 F2500.000
G1 X-2.098 Y397.513 Z6.905 F2500.000
G1 X-2.081 Y396.413 Z6.933 F2500.000
G1 X-2.057 Y394.813 Z6.964 F2500.000
G1 X-2.020 Y392.414 Z6.996 F2500.000
G1 X-1.929 Y386.414 Z6.994 F2500.000
G1 X-1.795 Y377.615 Z6.997 F2500.000
G1 X-1.773 Y376.215 Z6.992 F2500.000
G1 X-1.761 Y375.416 Z6.966 F2500.000
G1 X-1.740 Y374.016 Z6.911 F2500.000
G1 X-1.718 Y372.616 Z6.844 F2500.000
G1 X-1.706 Y371.816 Z6.857 F2500.000
G1 X-1.694 Y371.016 Z6.886 F2500.000
G1 X-1.685 Y370.416 Z6.903 F2500.000
G1 X-1.673 Y369.616 Z6.921 F2500.000
G1 X-1.651 Y368.216 Z6.944 F2500.000
G1 X-1.606 Y365.217 Z6.975 F2500.000
G1 X-1.542 Y361.017 Z6.997 F2500.000
G1 X-1.536 Y360.617 Z6.995 F2500.000
G1 X-1.533 Y360.417 Z6.988 F2500.000
G1 X-1.523 Y359.817 Z6.997 F2500.000
G1 X-1.463 Y355.818 Z6.995 F2500.000
G1 X-1.371 Y349.819 Z6.982 F2500.000
G1 X-1.319 Y346.419 Z6.993 F2500.000
G1 X-1.264 Y342.819 Z6.998 F2500.000
G1 X-0.704 Y306.024 Z6.999 F2500.000
G1 X-0.696 Y305.524 Z6.996 F2500.000
G1 X-0.689 Y305.024 Z6.999 F2500.000
G1 X-0.122 Y267.828 Z7.000 F2500.000
G1 X0.150 Y284.591 Z7.000 F2500.000
G1 X0.160 Y285.191 Z6.987 F2500.000
G1 X0.169 Y285.791 Z7.000 F2500.000
G1 X0.321 Y295.137 Z6.999 F2500.000
(Break)
G0 Z10.000
G0 X0.091 Y262.398
(part 17.)
G1 X0.091 Y262.398 Z7.000 F2500.000
G1 X0.100 Y262.998 Z7.000 F2500.000
G1 X0.110 Y263.598 Z6.993 F2500.000
G1 X0.120 Y264.197 Z7.000 F2500.000
G1 X1.382 Y342.187 Z6.997 F2500.000
G1 X1.395 Y342.987 Z6.997 F2500.000
G1 X1.398 Y343.187 Z6.989 F2500.000
G1 X1.408 Y343.787 Z6.997 F2500.000
G1 X1.491 Y348.886 Z6.994 F2500.000
G1 X1.576 Y354.186 Z6.983 F2500.000
G1 X1.664 Y359.585 Z6.996 F2500.000
G1 X1.673 Y360.185 Z6.997 F2500.000
G1 X1.680 Y360.585 Z6.993 F2500.000
G1 X1.683 Y360.785 Z6.997 F2500.000
G1 X1.748 Y364.784 Z6.989 F2500.000
G1 X1.819 Y369.184 Z6.969 F2500.000
G1 X1.847 Y370.884 Z6.954 F2500.000
G1 X1.861 Y371.783 Z6.941 F2500.000
G1 X1.873 Y372.483 Z6.928 F2500.000
G1 X1.890 Y373.583 Z6.895 F2500.000
G1 X1.903 Y374.383 Z6.906 F2500.000
G1 X1.929 Y375.983 Z6.982 F2500.000
G1 X1.955 Y377.583 Z6.996 F2500.000
G1 X2.182 Y391.581 Z6.996 F2500.000
G1 X2.227 Y394.380 Z6.982 F2500.000
G1 X2.269 Y396.980 Z6.955 F2500.000
G1 X2.305 Y399.180 Z6.918 F2500.000
G1 X2.321 Y400.180 Z6.893 F2500.000
G1 X2.334 Y400.980 Z6.866 F2500.000
G1 X2.363 Y402.779 Z6.922 F2500.000
G1 X2.382 Y403.979 Z6.952 F2500.000
G1 X2.415 Y405.979 Z6.992 F2500.000
G1 X2.431 Y406.979 Z6.994 F2500.000
G1 X2.267 Y407.034 Z6.994 F2500.000
G1 X1.475 Y407.143 Z6.994 F2500.000
G1 X0.881 Y407.232 Z6.994 F2500.000
G1 X0.290 Y407.332 Z6.993 F2500.000
G1 X-0.498 Y407.473 Z6.989 F2500.000
G1 X-0.890 Y407.550 Z6.987 F2500.000
G1 X-1.673 Y407.715 Z6.983 F2500.000
G1 X-2.454 Y407.891 Z6.975 F2500.000
G1 X-2.555 Y407.821 Z6.976 F2500.000
G1 X-2.544 Y407.088 Z6.992 F2500.000
G1 X-2.532 Y406.355 Z6.994 F2500.000
G1 X-2.521 Y405.621 Z6.990 F2500.000
G1 X-2.495 Y403.888 Z6.971 F2500.000
G1 X-2.476 Y402.622 Z6.953 F2500.000
G1 X-2.456 Y401.322 Z6.929 F2500.000
G1 X-2.433 Y399.822 Z6.891 F2500.000
G1 X-2.421 Y399.022 Z6.864 F2500.000
G1 X-2.412 Y398.422 Z6.870 F2500.000
G1 X-2.399 Y397.622 Z6.897 F2500.000
G1 X-2.375 Y396.022 Z6.938 F2500.000
G1 X-2.350 Y394.356 Z6.969 F2500.000
G1 X-2.323 Y392.623 Z6.993 F2500.000
G1 X-2.317 Y392.223 Z6.994 F2500.000
G1 X-2.314 Y392.023 Z6.985 F2500.000
G1 X-2.302 Y391.223 Z6.996 F2500.000
G1 X-2.220 Y385.824 Z6.993 F2500.000
G1 X-2.086 Y377.025 Z6.997 F2500.000
G1 X-2.083 Y376.825 Z6.992 F2500.000
G1 X-2.070 Y376.025 Z6.985 F2500.000
G1 X-2.055 Y375.025 Z6.952 F2500.000
G1 X-2.040 Y374.025 Z6.913 F2500.000
G1 X-2.012 Y372.225 Z6.828 F2500.000
G1 X-2.000 Y371.425 Z6.864 F2500.000
G1 X-1.988 Y370.625 Z6.890 F2500.000
G1 X-1.968 Y369.326 Z6.921 F2500.000
G1 X-1.949 Y368.026 Z6.943 F2500.000
G1 X-1.906 Y365.226 Z6.972 F2500.000
G1 X-1.839 Y360.827 Z6.997 F2500.000
G1 X-1.836 Y360.627 Z6.995 F2500.000
G1 X-1.833 Y360.427 Z6.986 F2500.000
G1 X-1.824 Y359.827 Z6.997 F2500.000
G1 X-1.747 Y354.827 Z6.994 F2500.000
G1 X-1.659 Y349.028 Z6.983 F2500.000
G1 X-1.613 Y346.028 Z6.993 F2500.000
G1 X-1.562 Y342.629 Z6.997 F2500.000
G1 X-1.004 Y306.033 Z6.998 F2500.000
G1 X-0.997 Y305.533 Z6.995 F2500.000
G1 X-0.989 Y305.033 Z6.999 F2500.000
G1 X-0.361 Y263.838 Z7.000 F2500.000
G1 X-0.355 Y263.438 Z6.992 F2500.000
G1 X-0.340 Y262.438 Z7.000 F2500.000
G1 X-0.130 Y248.785 Z7.000 F2500.000
G1 X0.091 Y262.398 Z7.000 F2500.000
(Break)
G0 Z10.000
G0 X-0.139 Y229.657
(part 19.)
G1 X-0.139 Y229.657 Z7.000 F2500.000
G1 X-0.123 Y230.657 Z7.000 F2500.000
G1 X0.401 Y263.053 Z6.999 F2500.000
G1 X0.411 Y263.653 Z6.996 F2500.000
G1 X0.421 Y264.253 Z6.999 F2500.000
G1 X0.748 Y284.450 Z6.999 F2500.000
G1 X0.757 Y285.050 Z6.995 F2500.000
G1 X0.767 Y285.650 Z6.999 F2500.000
G1 X1.392 Y324.245 Z6.997 F2500.000
G1 X1.401 Y324.845 Z6.995 F2500.000
G1 X1.411 Y325.445 Z6.997 F2500.000
G1 X1.691 Y342.743 Z6.997 F2500.000
G1 X1.699 Y343.243 Z6.984 F2500.000
G1 X1.712 Y344.042 Z6.997 F2500.000
G1 X1.803 Y349.642 Z6.993 F2500.000
G1 X1.890 Y355.041 Z6.982 F2500.000
G1 X1.968 Y359.840 Z6.996 F2500.000
G1 X1.978 Y360.440 Z6.984 F2500.000
G1 X1.981 Y360.640 Z6.995 F2500.000
G1 X1.991 Y361.240 Z6.996 F2500.000
G1 X2.059 Y365.440 Z6.987 F2500.000
G1 X2.101 Y368.039 Z6.978 F2500.000
G1 X2.133 Y370.039 Z6.965 F2500.000
G1 X2.165 Y372.039 Z6.942 F2500.000
G1 X2.178 Y372.839 Z6.926 F2500.000
G1 X2.191 Y373.639 Z6.901 F2500.000
G1 X2.207 Y374.638 Z6.917 F2500.000
G1 X2.227 Y375.838 Z6.974 F2500.000
G1 X2.250 Y377.238 Z6.996 F2500.000
G1 X2.470 Y390.836 Z6.995 F2500.000
G1 X2.502 Y392.836 Z6.992 F2500.000
G1 X2.538 Y395.036 Z6.977 F2500.000
G1 X2.570 Y397.036 Z6.956 F2500.000
G1 X2.606 Y399.235 Z6.920 F2500.000
G1 X2.619 Y400.035 Z6.901 F2500.000
G1 X2.638 Y401.235 Z6.866 F2500.000
G1 X2.664 Y402.835 Z6.920 F2500.000
G1 X2.690 Y404.435 Z6.961 F2500.000
G1 X2.716 Y406.034 Z6.991 F2500.000
G1 X2.725 Y406.634 Z6.989 F2500.000
G1 X2.729 Y406.834 Z6.995 F2500.000
G1 X2.735 Y407.234 Z6.990 F2500.000
G1 X2.582 Y407.297 Z6.990 F2500.000
G1 X1.987 Y407.374 Z6.990 F2500.000
G1 X0.997 Y407.517 Z6.990 F2500.000
G1 X0.405 Y407.616 Z6.989 F2500.000
G1 X-0.383 Y407.757 Z6.985 F2500.000
G1 X-0.971 Y407.873 Z6.982 F2500.000
G1 X-1.754 Y408.039 Z6.976 F2500.000
G1 X-2.339 Y408.172 Z6.970 F2500.000
G1 X-2.727 Y408.266 Z6.966 F2500.000
G1 X-2.861 Y408.239 Z6.966 F2500.000
G1 X-2.843 Y407.039 Z6.991 F2500.000
G1 X-2.834 Y406.439 Z6.989 F2500.000
G1 X-2.825 Y405.839 Z6.991 F2500.000
G1 X-2.794 Y403.839 Z6.971 F2500.000
G1 X-2.770 Y402.240 Z6.948 F2500.000
G1 X-2.751 Y401.040 Z6.925 F2500.000
G1 X-2.736 Y400.040 Z6.901 F2500.000
G1 X-2.718 Y398.840 Z6.862 F2500.000
G1 X-2.712 Y398.440 Z6.864 F2500.000
G1 X-2.694 Y397.240 Z6.904 F2500.000
G1 X-2.669 Y395.640 Z6.943 F2500.000
G1 X-2.654 Y394.641 Z6.962 F2500.000
G1 X-2.620 Y392.441 Z6.995 F2500.000
G1 X-2.514 Y385.442 Z6.992 F2500.000
G1 X-2.386 Y377.043 Z6.996 F2500.000
G1 X-2.374 Y376.243 Z6.992 F2500.000
G1 X-2.355 Y375.043 Z6.953 F2500.000
G1 X-2.337 Y373.843 Z6.906 F2500.000
G1 X-2.316 Y372.443 Z6.840 F2500.000
G1 X-2.310 Y372.043 Z6.826 F2500.000
G1 X-2.298 Y371.243 Z6.862 F2500.000
G1 X-2.282 Y370.243 Z6.894 F2500.000
G1 X-2.264 Y369.044 Z6.922 F2500.000
G1 X-2.249 Y368.044 Z6.939 F2500.000
G1 X-2.224 Y366.444 Z6.959 F2500.000
G1 X-2.197 Y364.644 Z6.975 F2500.000
G1 X-2.142 Y361.044 Z6.995 F2500.000
G1 X-2.136 Y360.644 Z6.995 F2500.000
G1 X-2.133 Y360.445 Z6.984 F2500.000
G1 X-2.127 Y360.045 Z6.996 F2500.000
G1 X-2.036 Y354.045 Z6.993 F2500.000
G1 X-1.956 Y348.846 Z6.982 F2500.000
G1 X-1.880 Y343.846 Z6.996 F2500.000
G1 X-1.871 Y343.247 Z6.984 F2500.000
G1 X-1.862 Y342.647 Z6.997 F2500.000
G1 X-1.003 Y286.253 Z6.998 F2500.000
G1 X-0.988 Y285.253 Z6.990 F2500.000
G1 X-0.974 Y284.373 Z6.999 F2500.000
G1 X-0.139 Y229.657 Z7.000 F2500.000
(Break)
G0 Z10.000
G0 X0.161 Y229.653
(part 21.)
G1 X0.161 Y229.653 Z7.000 F2500.000
G1 X0.177 Y230.652 Z7.000 F2500.000
G1 X0.322 Y239.651 Z6.999 F2500.000
G1 X0.335 Y240.451 Z6.992 F2500.000
G1 X0.347 Y241.151 Z6.999 F2500.000
G1 X0.701 Y263.048 Z6.999 F2500.000
G1 X0.711 Y263.648 Z6.995 F2500.000
G1 X0.721 Y264.248 Z6.999 F2500.000
G1 X1.048 Y284.445 Z6.998 F2500.000
G1 X1.057 Y285.045 Z6.995 F2500.000
G1 X1.073 Y286.045 Z6.998 F2500.000
G1 X1.692 Y324.240 Z6.997 F2500.000
G1 X1.701 Y324.840 Z6.994 F2500.000
G1 X2.004 Y343.538 Z6.996 F2500.000
G1 X2.116 Y350.437 Z6.992 F2500.000
G1 X2.190 Y355.036 Z6.983 F2500.000
G1 X2.265 Y359.636 Z6.995 F2500.000
G1 X2.278 Y360.435 Z6.984 F2500.000
G1 X2.281 Y360.635 Z6.994 F2500.000
G1 X2.297 Y361.635 Z6.994 F2500.000
G1 X2.371 Y366.235 Z6.985 F2500.000
G1 X2.404 Y368.234 Z6.978 F2500.000
G1 X2.439 Y370.434 Z6.964 F2500.000
G1 X2.456 Y371.434 Z6.954 F2500.000
G1 X2.475 Y372.634 Z6.936 F2500.000
G1 X2.488 Y373.434 Z6.917 F2500.000
G1 X2.498 Y374.034 Z6.894 F2500.000
G1 X2.507 Y374.634 Z6.914 F2500.000
G1 X2.524 Y375.633 Z6.963 F2500.000
G1 X2.540 Y376.633 Z6.988 F2500.000
G1 X2.556 Y377.633 Z6.995 F2500.000
G1 X2.776 Y391.231 Z6.994 F2500.000
G1 X2.802 Y392.831 Z6.992 F2500.000
G1 X2.847 Y395.631 Z6.971 F2500.000
G1 X2.876 Y397.431 Z6.952 F2500.000
G1 X2.912 Y399.630 Z6.915 F2500.000
G1 X2.922 Y400.230 Z6.900 F2500.000
G1 X2.938 Y401.230 Z6.868 F2500.000
G1 X2.941 Y401.430 Z6.869 F2500.000
G1 X2.951 Y402.030 Z6.891 F2500.000
G1 X2.970 Y403.230 Z6.928 F2500.000
G1 X2.996 Y404.830 Z6.967 F2500.000
G1 X3.016 Y406.030 Z6.990 F2500.000
G1 X3.022 Y406.429 Z6.987 F2500.000
G1 X3.032 Y407.029 Z6.991 F2500.000
G1 X3.038 Y407.429 Z6.988 F2500.000
G1 X2.958 Y407.556 Z6.986 F2500.000
G1 X2.164 Y407.653 Z6.987 F2500.000
G1 X1.372 Y407.764 Z6.987 F2500.000
G1 X0.779 Y407.856 Z6.986 F2500.000
G1 X-0.206 Y408.029 Z6.981 F2500.000
G1 X-0.795 Y408.143 Z6.978 F2500.000
G1 X-1.773 Y408.350 Z6.969 F2500.000
G1 X-2.358 Y408.485 Z6.963 F2500.000
G1 X-3.134 Y408.679 Z6.953 F2500.000
G1 X-3.166 Y408.522 Z6.957 F2500.000
G1 X-3.150 Y407.522 Z6.979 F2500.000
G1 X-3.135 Y406.522 Z6.980 F2500.000
G1 X-3.123 Y405.723 Z6.989 F2500.000
G1 X-3.092 Y403.723 Z6.969 F2500.000
G1 X-3.062 Y401.723 Z6.940 F2500.000
G1 X-3.047 Y400.723 Z6.920 F2500.000
G1 X-3.031 Y399.723 Z6.895 F2500.000
G1 X-3.016 Y398.723 Z6.862 F2500.000
G1 X-3.001 Y397.723 Z6.884 F2500.000
G1 X-2.986 Y396.724 Z6.914 F2500.000
G1 X-2.971 Y395.724 Z6.938 F2500.000
G1 X-2.925 Y392.724 Z6.989 F2500.000
G1 X-2.916 Y392.124 Z6.987 F2500.000
G1 X-2.900 Y391.124 Z6.995 F2500.000
G1 X-2.797 Y384.325 Z6.991 F2500.000
G1 X-2.693 Y377.526 Z6.995 F2500.000
G1 X-2.681 Y376.726 Z6.983 F2500.000
G1 X-2.678 Y376.526 Z6.994 F2500.000
G1 X-2.669 Y375.926 Z6.981 F2500.000
G1 X-2.651 Y374.726 Z6.941 F2500.000
G1 X-2.635 Y373.726 Z6.903 F2500.000
G1 X-2.614 Y372.326 Z6.836 F2500.000
G1 X-2.608 Y371.926 Z6.822 F2500.000
G1 X-2.593 Y370.927 Z6.865 F2500.000
G1 X-2.581 Y370.127 Z6.890 F2500.000
G1 X-2.559 Y368.727 Z6.922 F2500.000
G1 X-2.544 Y367.727 Z6.939 F2500.000
G1 X-2.520 Y366.127 Z6.959 F2500.000
G1 X-2.492 Y364.327 Z6.975 F2500.000
G1 X-2.437 Y360.728 Z6.996 F2500.000
G1 X-2.434 Y360.528 Z6.988 F2500.000
G1 X-2.422 Y359.728 Z6.996 F2500.000
G1 X-2.319 Y352.929 Z6.992 F2500.000
G1 X-2.249 Y348.329 Z6.982 F2500.000
G1 X-2.178 Y343.730 Z6.996 F2500.000
G1 X-2.172 Y343.330 Z6.990 F2500.000
G1 X-2.163 Y342.730 Z6.996 F2500.000
G1 X-1.904 Y325.732 Z6.997 F2500.000
G1 X-1.892 Y324.932 Z6.989 F2500.000
G1 X-1.884 Y324.432 Z6.997 F2500.000
G1 X-0.971 Y264.439 Z6.998 F2500.000
G1 X-0.957 Y263.539 Z6.988 F2500.000
G1 X-0.942 Y262.539 Z6.998 F2500.000
G1 X-0.247 Y216.944 Z7.000 F2500.000
G1 X-0.236 Y216.245 Z6.992 F2500.000
G1 X-0.226 Y215.545 Z7.000 F2500.000
G1 X-0.150 Y210.545 Z7.000 F2500.000
G1 X-0.072 Y215.287 Z7.000 F2500.000
G1 X-0.056 Y216.287 Z6.995 F2500.000
G1 X-0.046 Y216.887 Z7.000 F2500.000
G1 X0.161 Y229.653 Z7.000 F2500.000
(Break)
G0 Z10.000
G0 X-0.069 Y196.911
(part 23.)
G1 X-0.069 Y196.911 Z7.000 F2500.000
G1 X-0.056 Y197.711 Z7.000 F2500.000
G1 X0.232 Y215.509 Z6.999 F2500.000
G1 X0.243 Y216.209 Z6.989 F2500.000
G1 X0.254 Y216.909 Z6.999 F2500.000
G1 X1.002 Y263.103 Z6.998 F2500.000
G1 X1.005 Y263.303 Z6.997 F2500.000
G1 X1.009 Y263.503 Z6.985 F2500.000
G1 X1.012 Y263.703 Z6.997 F2500.000
G1 X1.015 Y263.903 Z6.998 F2500.000
G1 X1.352 Y284.700 Z6.998 F2500.000
G1 X1.361 Y285.300 Z6.992 F2500.000
G1 X1.371 Y285.900 Z6.998 F2500.000
G1 X1.993 Y324.295 Z6.996 F2500.000
G1 X2.002 Y324.895 Z6.991 F2500.000
G1 X2.019 Y325.895 Z6.996 F2500.000
G1 X2.294 Y342.892 Z6.996 F2500.000
G1 X2.300 Y343.292 Z6.987 F2500.000
G1 X2.310 Y343.892 Z6.996 F2500.000
G1 X2.436 Y351.691 Z6.991 F2500.000
G1 X2.501 Y355.691 Z6.983 F2500.000
G1 X2.569 Y359.890 Z6.994 F2500.000
G1 X2.579 Y360.490 Z6.985 F2500.000
G1 X2.582 Y360.690 Z6.995 F2500.000
G1 X2.676 Y366.489 Z6.984 F2500.000
G1 X2.727 Y369.689 Z6.971 F2500.000
G1 X2.750 Y371.089 Z6.961 F2500.000
G1 X2.770 Y372.288 Z6.947 F2500.000
G1 X2.786 Y373.288 Z6.928 F2500.000
G1 X2.795 Y373.888 Z6.910 F2500.000
G1 X2.805 Y374.488 Z6.904 F2500.000
G1 X2.825 Y375.688 Z6.964 F2500.000
G1 X2.837 Y376.488 Z6.993 F2500.000
G1 X3.074 Y391.086 Z6.993 F2500.000
G1 X3.090 Y392.086 Z6.982 F2500.000
G1 X3.103 Y392.886 Z6.990 F2500.000
G1 X3.145 Y395.485 Z6.973 F2500.000
G1 X3.171 Y397.085 Z6.957 F2500.000
G1 X3.195 Y398.585 Z6.937 F2500.000
G1 X3.215 Y399.785 Z6.915 F2500.000
G1 X3.242 Y401.485 Z6.866 F2500.000
G1 X3.273 Y403.384 Z6.929 F2500.000
G1 X3.300 Y405.084 Z6.970 F2500.000
G1 X3.320 Y406.284 Z6.991 F2500.000
G1 X3.342 Y407.684 Z6.984 F2500.000
G1 X3.278 Y407.823 Z6.983 F2500.000
G1 X2.483 Y407.914 Z6.983 F2500.000
G1 X1.492 Y408.050 Z6.984 F2500.000
G1 X0.702 Y408.174 Z6.981 F2500.000
G1 X-0.086 Y408.312 Z6.977 F2500.000
G1 X-0.479 Y408.386 Z6.975 F2500.000
G1 X-0.872 Y408.465 Z6.972 F2500.000
G1 X-1.849 Y408.675 Z6.962 F2500.000
G1 X-2.433 Y408.812 Z6.956 F2500.000
G1 X-3.403 Y409.057 Z6.941 F2500.000
G1 X-3.472 Y408.950 Z6.943 F2500.000
G1 X-3.460 Y408.150 Z6.964 F2500.000
G1 X-3.442 Y406.950 Z6.990 F2500.000
G1 X-3.435 Y406.550 Z6.980 F2500.000
G1 X-3.432 Y406.350 Z6.990 F2500.000
G1 X-3.426 Y405.950 Z6.990 F2500.000
G1 X-3.384 Y403.151 Z6.962 F2500.000
G1 X-3.362 Y401.751 Z6.942 F2500.000
G1 X-3.332 Y399.751 Z6.899 F2500.000
G1 X-3.311 Y398.351 Z6.855 F2500.000
G1 X-3.295 Y397.351 Z6.891 F2500.000
G1 X-3.268 Y395.551 Z6.939 F2500.000
G1 X-3.241 Y393.752 Z6.973 F2500.000
G1 X-3.222 Y392.552 Z6.990 F2500.000
G1 X-3.180 Y389.752 Z6.993 F2500.000
G1 X-3.082 Y383.353 Z6.990 F2500.000
G1 X-2.991 Y377.354 Z6.994 F2500.000
G1 X-2.982 Y376.754 Z6.985 F2500.000
G1 X-2.975 Y376.354 Z6.993 F2500.000
G1 X-2.951 Y374.754 Z6.943 F2500.000
G1 X-2.933 Y373.554 Z6.896 F2500.000
G1 X-2.918 Y372.554 Z6.851 F2500.000
G1 X-2.908 Y371.954 Z6.819 F2500.000
G1 X-2.905 Y371.754 Z6.820 F2500.000
G1 X-2.896 Y371.154 Z6.848 F2500.000
G1 X-2.881 Y370.154 Z6.883 F2500.000
G1 X-2.863 Y368.955 Z6.912 F2500.000
G1 X-2.841 Y367.555 Z6.937 F2500.000
G1 X-2.814 Y365.755 Z6.960 F2500.000
G1 X-2.787 Y363.955 Z6.976 F2500.000
G1 X-2.744 Y361.155 Z6.993 F2500.000
G1 X-2.735 Y360.555 Z6.990 F2500.000
G1 X-2.723 Y359.756 Z6.995 F2500.000
G1 X-2.607 Y352.156 Z6.991 F2500.000
G1 X-2.543 Y347.957 Z6.982 F2500.000
G1 X-2.479 Y343.757 Z6.996 F2500.000
G1 X-2.473 Y343.357 Z6.991 F2500.000
G1 X-2.464 Y342.758 Z6.996 F2500.000
G1 X-2.205 Y325.760 Z6.996 F2500.000
G1 X-2.193 Y324.960 Z6.986 F2500.000
G1 X-2.186 Y324.560 Z6.996 F2500.000
G1 X-1.903 Y305.962 Z6.997 F2500.000
G1 X-1.897 Y305.562 Z6.992 F2500.000
G1 X-1.891 Y305.162 Z6.997 F2500.000
G1 X-1.603 Y286.284 Z6.997 F2500.000
G1 X-1.589 Y285.324 Z6.993 F2500.000
G1 X-1.574 Y284.364 Z6.998 F2500.000
G1 X-1.271 Y264.467 Z6.998 F2500.000
G1 X-1.257 Y263.567 Z6.989 F2500.000
G1 X-1.248 Y262.967 Z6.998 F2500.000
G1 X-0.158 Y191.462 Z7.000 F2500.000
G1 X-0.069 Y196.911 Z7.000 F2500.000
(Break)
G0 Z10.000
G0 X0.231 Y196.907
(part 25.)
G1 X0.231 Y196.907 Z6.999 F2500.000
G1 X0.244 Y197.707 Z6.999 F2500.000
G1 X2.293 Y324.290 Z6.996 F2500.000
G1 X2.306 Y325.090 Z6.990 F2500.000
G1 X2.309 Y325.290 Z6.996 F2500.000
G1 X2.594 Y342.887 Z6.995 F2500.000
G1 X2.600 Y343.287 Z6.986 F2500.000
G1 X2.603 Y343.487 Z6.995 F2500.000
G1 X2.610 Y343.887 Z6.995 F2500.000
G1 X2.746 Y352.286 Z6.990 F2500.000
G1 X2.811 Y356.286 Z6.982 F2500.000
G1 X2.872 Y360.085 Z6.994 F2500.000
G1 X2.875 Y360.285 Z6.992 F2500.000
G1 X2.878 Y360.485 Z6.983 F2500.000
G1 X2.882 Y360.685 Z6.993 F2500.000
G1 X2.895 Y361.485 Z6.993 F2500.000
G1 X2.979 Y366.684 Z6.984 F2500.000
G1 X3.021 Y369.284 Z6.975 F2500.000
G1 X3.047 Y370.884 Z6.965 F2500.000
G1 X3.079 Y372.884 Z6.942 F2500.000
G1 X3.105 Y374.483 Z6.901 F2500.000
G1 X3.118 Y375.283 Z6.943 F2500.000
G1 X3.131 Y376.083 Z6.980 F2500.000
G1 X3.147 Y377.083 Z6.992 F2500.000
G1 X3.374 Y391.081 Z6.991 F2500.000
G1 X3.390 Y392.081 Z6.980 F2500.000
G1 X3.400 Y392.681 Z6.990 F2500.000
G1 X3.413 Y393.481 Z6.986 F2500.000
G1 X3.456 Y396.181 Z6.967 F2500.000
G1 X3.479 Y397.580 Z6.952 F2500.000
G1 X3.500 Y398.880 Z6.934 F2500.000
G1 X3.516 Y399.880 Z6.916 F2500.000
G1 X3.532 Y400.880 Z6.890 F2500.000
G1 X3.542 Y401.480 Z6.870 F2500.000
G1 X3.552 Y402.080 Z6.884 F2500.000
G1 X3.583 Y403.979 Z6.942 F2500.000
G1 X3.617 Y406.079 Z6.987 F2500.000
G1 X3.628 Y406.779 Z6.990 F2500.000
G1 X3.649 Y408.079 Z6.979 F2500.000
G1 X3.457 Y408.106 Z6.979 F2500.000
G1 X2.861 Y408.170 Z6.980 F2500.000
G1 X2.464 Y408.219 Z6.980 F2500.000
G1 X1.473 Y408.355 Z6.979 F2500.000
G1 X0.880 Y408.448 Z6.977 F2500.000
G1 X-0.105 Y408.621 Z6.972 F2500.000
G1 X-0.694 Y408.735 Z6.967 F2500.000
G1 X-1.672 Y408.942 Z6.958 F2500.000
G1 X-2.451 Y409.125 Z6.947 F2500.000
G1 X-3.226 Y409.321 Z6.935 F2500.000
G1 X-3.613 Y409.424 Z6.929 F2500.000
G1 X-3.780 Y409.444 Z6.926 F2500.000
G1 X-3.758 Y408.044 Z6.965 F2500.000
G1 X-3.743 Y407.044 Z6.986 F2500.000
G1 X-3.734 Y406.444 Z6.983 F2500.000
G1 X-3.731 Y406.244 Z6.990 F2500.000
G1 X-3.691 Y403.644 Z6.967 F2500.000
G1 X-3.664 Y401.845 Z6.944 F2500.000
G1 X-3.643 Y400.445 Z6.918 F2500.000
G1 X-3.627 Y399.445 Z6.894 F2500.000
G1 X-3.615 Y398.645 Z6.869 F2500.000
G1 X-3.603 Y397.845 Z6.869 F2500.000
G1 X-3.585 Y396.645 Z6.908 F2500.000
G1 X-3.563 Y395.245 Z6.942 F2500.000
G1 X-3.539 Y393.645 Z6.973 F2500.000
G1 X-3.524 Y392.646 Z6.987 F2500.000
G1 X-3.515 Y392.046 Z6.978 F2500.000
G1 X-3.505 Y391.446 Z6.990 F2500.000
G1 X-3.454 Y388.046 Z6.992 F2500.000
G1 X-3.368 Y382.447 Z6.989 F2500.000
G1 X-3.277 Y376.447 Z6.993 F2500.000
G1 X-3.268 Y375.848 Z6.978 F2500.000
G1 X-3.243 Y374.248 Z6.924 F2500.000
G1 X-3.231 Y373.448 Z6.893 F2500.000
G1 X-3.210 Y372.048 Z6.826 F2500.000
G1 X-3.201 Y371.448 Z6.825 F2500.000
G1 X-3.189 Y370.648 Z6.859 F2500.000
G1 X-3.170 Y369.448 Z6.895 F2500.000
G1 X-3.158 Y368.648 Z6.913 F2500.000
G1 X-3.137 Y367.249 Z6.938 F2500.000
G1 X-3.115 Y365.849 Z6.956 F2500.000
G1 X-3.079 Y363.449 Z6.978 F2500.000
G1 X-3.036 Y360.649 Z6.992 F2500.000
G1 X-3.033 Y360.449 Z6.981 F2500.000
G1 X-3.030 Y360.249 Z6.993 F2500.000
G1 X-3.021 Y359.649 Z6.994 F2500.000
G1 X-2.890 Y351.050 Z6.990 F2500.000
G1 X-2.835 Y347.451 Z6.982 F2500.000
G1 X-2.780 Y343.851 Z6.994 F2500.000
G1 X-2.771 Y343.251 Z6.983 F2500.000
G1 X-2.759 Y342.451 Z6.995 F2500.000
G1 X-2.497 Y325.253 Z6.996 F2500.000
G1 X-2.494 Y325.053 Z6.987 F2500.000
G1 X-2.485 Y324.453 Z6.996 F2500.000
G1 X-1.218 Y241.263 Z6.998 F2500.000
G1 X-1.208 Y240.663 Z6.994 F2500.000
G1 X-1.196 Y239.863 Z6.998 F2500.000
G1 X-0.456 Y191.269 Z6.999 F2500.000
G1 X-0.441 Y190.269 Z6.994 F2500.000
G1 X-0.426 Y189.269 Z6.999 F2500.000
G1 X-0.167 Y172.370 Z7.000 F2500.000
G1 X0.117 Y189.868 Z7.000 F2500.000
G1 X0.125 Y190.368 Z6.987 F2500.000
G1 X0.133 Y190.868 Z7.000 F2500.000
G1 X0.231 Y196.907 Z6.999 F2500.000
(Break)
G0 Z10.000
G0 X0.001 Y164.165
(part 27.)
G1 X0.001 Y164.165 Z7.000 F2500.000
G1 X0.014 Y164.964 Z7.000 F2500.000
G1 X0.412 Y189.561 Z6.999 F2500.000
G1 X0.423 Y190.261 Z6.995 F2500.000
G1 X0.434 Y190.961 Z6.999 F2500.000
G1 X0.829 Y215.358 Z6.998 F2500.000
G1 X0.844 Y216.258 Z6.991 F2500.000
G1 X0.858 Y217.158 Z6.998 F2500.000
G1 X1.228 Y239.955 Z6.998 F2500.000
G1 X1.237 Y240.555 Z6.987 F2500.000
G1 X1.249 Y241.254 Z6.997 F2500.000
G1 X1.603 Y263.152 Z6.997 F2500.000
G1 X1.609 Y263.552 Z6.987 F2500.000
G1 X1.613 Y263.752 Z6.997 F2500.000
G1 X1.616 Y263.952 Z6.997 F2500.000
G1 X1.953 Y284.749 Z6.997 F2500.000
G1 X1.956 Y284.949 Z6.996 F2500.000
G1 X1.959 Y285.149 Z6.987 F2500.000
G1 X1.966 Y285.549 Z6.997 F2500.000
G1 X2.283 Y305.146 Z6.996 F2500.000
G1 X2.292 Y305.746 Z6.988 F2500.000
G1 X2.296 Y305.946 Z6.996 F2500.000
G1 X2.597 Y324.544 Z6.995 F2500.000
G1 X2.603 Y324.944 Z6.986 F2500.000
G1 X2.610 Y325.343 Z6.995 F2500.000
G1 X2.895 Y342.941 Z6.994 F2500.000
G1 X2.898 Y343.141 Z6.988 F2500.000
G1 X2.907 Y343.741 Z6.994 F2500.000
G1 X2.943 Y345.941 Z6.993 F2500.000
G1 X3.069 Y353.740 Z6.989 F2500.000
G1 X3.118 Y356.739 Z6.982 F2500.000
G1 X3.170 Y359.939 Z6.991 F2500.000
G1 X3.179 Y360.539 Z6.985 F2500.000
G1 X3.183 Y360.739 Z6.992 F2500.000
G1 X3.286 Y367.138 Z6.983 F2500.000
G1 X3.338 Y370.338 Z6.970 F2500.000
G1 X3.370 Y372.337 Z6.954 F2500.000
G1 X3.390 Y373.537 Z6.934 F2500.000
G1 X3.403 Y374.337 Z6.910 F2500.000
G1 X3.412 Y374.937 Z6.922 F2500.000
G1 X3.422 Y375.537 Z6.954 F2500.000
G1 X3.438 Y376.537 Z6.989 F2500.000
G1 X3.684 Y391.735 Z6.990 F2500.000
G1 X3.726 Y394.334 Z6.979 F2500.000
G1 X3.781 Y397.734 Z6.951 F2500.000
G1 X3.817 Y399.934 Z6.917 F2500.000
G1 X3.837 Y401.134 Z6.887 F2500.000
G1 X3.853 Y402.133 Z6.881 F2500.000
G1 X3.872 Y403.333 Z6.920 F2500.000
G1 X3.888 Y404.333 Z6.948 F2500.000
G1 X3.917 Y406.133 Z6.987 F2500.000
G1 X3.927 Y406.733 Z6.987 F2500.000
G1 X3.953 Y408.333 Z6.976 F2500.000
G1 X3.779 Y408.375 Z6.976 F2500.000
G1 X2.984 Y408.458 Z6.976 F2500.000
G1 X2.587 Y408.505 Z6.977 F2500.000
G1 X2.190 Y408.557 Z6.977 F2500.000
G1 X1.398 Y408.670 Z6.974 F2500.000
G1 X0.805 Y408.765 Z6.971 F2500.000
G1 X-0.179 Y408.940 Z6.966 F2500.000
G1 X-0.572 Y409.016 Z6.962 F2500.000
G1 X-1.355 Y409.180 Z6.954 F2500.000
G1 X-1.745 Y409.266 Z6.950 F2500.000
G1 X-2.135 Y409.357 Z6.944 F2500.000
G1 X-2.523 Y409.452 Z6.938 F2500.000
G1 X-3.298 Y409.650 Z6.925 F2500.000
G1 X-4.069 Y409.864 Z6.908 F2500.000
G1 X-4.083 Y409.687 Z6.914 F2500.000
G1 X-4.053 Y407.687 Z6.971 F2500.000
G1 X-4.041 Y406.887 Z6.988 F2500.000
G1 X-4.029 Y406.087 Z6.988 F2500.000
G1 X-3.986 Y403.287 Z6.963 F2500.000
G1 X-3.955 Y401.288 Z6.936 F2500.000
G1 X-3.928 Y399.488 Z6.898 F2500.000
G1 X-3.907 Y398.088 Z6.854 F2500.000
G1 X-3.888 Y396.888 Z6.896 F2500.000
G1 X-3.870 Y395.688 Z6.928 F2500.000
G1 X-3.840 Y393.688 Z6.970 F2500.000
G1 X-3.824 Y392.689 Z6.985 F2500.000
G1 X-3.815 Y392.089 Z6.980 F2500.000
G1 X-3.809 Y391.689 Z6.989 F2500.000
G1 X-3.794 Y390.689 Z6.983 F2500.000
G1 X-3.730 Y386.489 Z6.990 F2500.000
G1 X-3.575 Y376.291 Z6.989 F2500.000
G1 X-3.541 Y374.091 Z6.918 F2500.000
G1 X-3.523 Y372.891 Z6.869 F2500.000
G1 X-3.508 Y371.891 Z6.821 F2500.000
G1 X-3.498 Y371.291 Z6.822 F2500.000
G1 X-3.489 Y370.691 Z6.848 F2500.000
G1 X-3.471 Y369.491 Z6.887 F2500.000
G1 X-3.456 Y368.491 Z6.911 F2500.000
G1 X-3.434 Y367.092 Z6.936 F2500.000
G1 X-3.413 Y365.692 Z6.954 F2500.000
G1 X-3.386 Y363.892 Z6.971 F2500.000
G1 X-3.337 Y360.692 Z6.992 F2500.000
G1 X-3.334 Y360.492 Z6.982 F2500.000
G1 X-3.328 Y360.092 Z6.992 F2500.000
G1 X-3.182 Y350.494 Z6.989 F2500.000
G1 X-3.133 Y347.294 Z6.983 F2500.000
G1 X-3.060 Y342.494 Z6.994 F2500.000
G1 X-2.807 Y325.896 Z6.995 F2500.000
G1 X-2.795 Y325.096 Z6.989 F2500.000
G1 X-2.787 Y324.597 Z6.995 F2500.000
G1 X-2.200 Y286.061 Z6.996 F2500.000
G1 X-2.187 Y285.181 Z6.985 F2500.000
G1 X-2.173 Y284.301 Z6.997 F2500.000
G1 X-0.754 Y191.112 Z6.999 F2500.000
G1 X-0.741 Y190.312 Z6.991 F2500.000
G1 X-0.732 Y189.712 Z6.999 F2500.000
G1 X-0.178 Y153.316 Z7.000 F2500.000
G1 X-0.175 Y153.329 Z7.000 F2500.000
G1 X0.001 Y164.165 Z7.000 F2500.000
(Break)
G0 Z10.000
G0 X0.301 Y164.160
(part 29.)
G1 X0.301 Y164.160 Z6.999 F2500.000
G1 X0.314 Y164.960 Z6.999 F2500.000
G1 X0.712 Y189.556 Z6.999 F2500.000
G1 X0.723 Y190.256 Z6.994 F2500.000
G1 X0.734 Y190.956 Z6.999 F2500.000
G1 X1.531 Y240.150 Z6.997 F2500.000
G1 X1.660 Y248.149 Z6.994 F2500.000
G1 X1.903 Y263.147 Z6.996 F2500.000
G1 X1.909 Y263.547 Z6.986 F2500.000
G1 X1.913 Y263.747 Z6.996 F2500.000
G1 X1.916 Y263.947 Z6.996 F2500.000
G1 X2.249 Y284.544 Z6.996 F2500.000
G1 X2.259 Y285.144 Z6.987 F2500.000
G1 X2.262 Y285.344 Z6.993 F2500.000
G1 X2.272 Y285.944 Z6.996 F2500.000
G1 X2.586 Y305.341 Z6.995 F2500.000
G1 X2.592 Y305.741 Z6.987 F2500.000
G1 X2.596 Y305.941 Z6.995 F2500.000
G1 X2.599 Y306.141 Z6.995 F2500.000
G1 X3.195 Y342.936 Z6.992 F2500.000
G1 X3.201 Y343.336 Z6.986 F2500.000
G1 X3.207 Y343.736 Z6.992 F2500.000
G1 X3.279 Y348.136 Z6.992 F2500.000
G1 X3.382 Y354.535 Z6.988 F2500.000
G1 X3.428 Y357.334 Z6.982 F2500.000
G1 X3.470 Y359.934 Z6.990 F2500.000
G1 X3.479 Y360.534 Z6.983 F2500.000
G1 X3.483 Y360.734 Z6.991 F2500.000
G1 X3.589 Y367.333 Z6.982 F2500.000
G1 X3.638 Y370.333 Z6.972 F2500.000
G1 X3.661 Y371.733 Z6.963 F2500.000
G1 X3.680 Y372.932 Z6.951 F2500.000
G1 X3.696 Y373.932 Z6.931 F2500.000
G1 X3.712 Y374.932 Z6.920 F2500.000
G1 X3.732 Y376.132 Z6.979 F2500.000
G1 X3.745 Y376.932 Z6.989 F2500.000
G1 X3.984 Y391.730 Z6.988 F2500.000
G1 X4.030 Y394.530 Z6.978 F2500.000
G1 X4.062 Y396.529 Z6.964 F2500.000
G1 X4.091 Y398.329 Z6.945 F2500.000
G1 X4.124 Y400.329 Z6.912 F2500.000
G1 X4.146 Y401.729 Z6.873 F2500.000
G1 X4.156 Y402.329 Z6.883 F2500.000
G1 X4.166 Y402.928 Z6.904 F2500.000
G1 X4.188 Y404.328 Z6.945 F2500.000
G1 X4.217 Y406.128 Z6.985 F2500.000
G1 X4.221 Y406.328 Z6.985 F2500.000
G1 X4.224 Y406.528 Z6.973 F2500.000
G1 X4.234 Y407.128 Z6.984 F2500.000
G1 X4.256 Y408.528 Z6.973 F2500.000
G1 X4.162 Y408.640 Z6.972 F2500.000
G1 X3.565 Y408.698 Z6.973 F2500.000
G1 X2.770 Y408.785 Z6.973 F2500.000
G1 X2.373 Y408.835 Z6.973 F2500.000
G1 X1.779 Y408.918 Z6.971 F2500.000
G1 X1.383 Y408.976 Z6.969 F2500.000
G1 X0.791 Y409.071 Z6.967 F2500.000
G1 X0.003 Y409.211 Z6.961 F2500.000
G1 X-0.390 Y409.286 Z6.957 F2500.000
G1 X-0.782 Y409.366 Z6.954 F2500.000
G1 X-1.564 Y409.533 Z6.944 F2500.000
G1 X-2.343 Y409.716 Z6.933 F2500.000
G1 X-3.312 Y409.964 Z6.915 F2500.000
G1 X-3.698 Y410.070 Z6.906 F2500.000
G1 X-4.274 Y410.236 Z6.893 F2500.000
G1 X-4.391 Y410.193 Z6.893 F2500.000
G1 X-4.373 Y408.993 Z6.934 F2500.000
G1 X-4.351 Y407.593 Z6.971 F2500.000
G1 X-4.345 Y407.194 Z6.980 F2500.000
G1 X-4.336 Y406.594 Z6.979 F2500.000
G1 X-4.330 Y406.194 Z6.987 F2500.000
G1 X-4.306 Y404.594 Z6.976 F2500.000
G1 X-4.275 Y402.594 Z6.956 F2500.000
G1 X-4.254 Y401.194 Z6.935 F2500.000
G1 X-4.227 Y399.394 Z6.898 F2500.000
G1 X-4.205 Y397.995 Z6.854 F2500.000
G1 X-4.181 Y396.395 Z6.906 F2500.000
G1 X-4.160 Y394.995 Z6.942 F2500.000
G1 X-4.135 Y393.395 Z6.973 F2500.000
G1 X-4.123 Y392.595 Z6.985 F2500.000
G1 X-4.114 Y391.995 Z6.979 F2500.000
G1 X-4.105 Y391.395 Z6.986 F2500.000
G1 X-4.086 Y390.195 Z6.981 F2500.000
G1 X-4.056 Y388.196 Z6.986 F2500.000
G1 X-4.007 Y384.996 Z6.989 F2500.000
G1 X-3.891 Y377.397 Z6.989 F2500.000
G1 X-3.882 Y376.797 Z6.983 F2500.000
G1 X-3.873 Y376.197 Z6.985 F2500.000
G1 X-3.861 Y375.397 Z6.962 F2500.000
G1 X-3.840 Y373.997 Z6.915 F2500.000
G1 X-3.828 Y373.197 Z6.884 F2500.000
G1 X-3.806 Y371.798 Z6.818 F2500.000
G1 X-3.797 Y371.198 Z6.817 F2500.000
G1 X-3.788 Y370.598 Z6.843 F2500.000
G1 X-3.773 Y369.598 Z6.877 F2500.000
G1 X-3.742 Y367.598 Z6.923 F2500.000
G1 X-3.703 Y364.998 Z6.959 F2500.000
G1 X-3.669 Y362.799 Z6.979 F2500.000
G1 X-3.639 Y360.799 Z6.990 F2500.000
G1 X-3.633 Y360.399 Z6.982 F2500.000
G1 X-3.623 Y359.799 Z6.991 F2500.000
G1 X-3.553 Y355.200 Z6.991 F2500.000
G1 X-3.465 Y349.400 Z6.988 F2500.000
G1 X-3.419 Y346.401 Z6.983 F2500.000
G1 X-3.364 Y342.801 Z6.992 F2500.000
G1 X-2.807 Y306.205 Z6.995 F2500.000
G1 X-2.799 Y305.705 Z6.984 F2500.000
G1 X-2.792 Y305.205 Z6.995 F2500.000
G1 X-2.658 Y296.406 Z6.996 F2500.000
G1 X-2.164 Y264.010 Z6.996 F2500.000
G1 X-2.155 Y263.410 Z6.990 F2500.000
G1 X-2.143 Y262.610 Z6.996 F2500.000
G1 X-1.448 Y217.016 Z6.998 F2500.000
G1 X-1.438 Y216.316 Z6.994 F2500.000
G1 X-1.427 Y215.616 Z6.998 F2500.000
G1 X-0.196 Y134.825 Z7.000 F2500.000
G1 X-0.187 Y134.225 Z6.996 F2500.000
G1 X-0.184 Y134.224 Z6.996 F2500.000
G1 X-0.168 Y135.224 Z7.000 F2500.000
G1 X0.301 Y164.160 Z6.999 F2500.000
(Break)
G0 Z10.000
G0 X0.071 Y131.417
(part 31.)
G1 X0.071 Y131.417 Z7.000 F2500.000
G1 X0.087 Y132.417 Z7.000 F2500.000
G1 X0.572 Y162.413 Z6.999 F2500.000
G1 X0.584 Y163.113 Z6.991 F2500.000
G1 X0.595 Y163.813 Z6.999 F2500.000
G1 X1.016 Y189.809 Z6.998 F2500.000
G1 X1.024 Y190.309 Z6.990 F2500.000
G1 X1.032 Y190.809 Z6.998 F2500.000
G1 X1.827 Y239.903 Z6.997 F2500.000
G1 X1.838 Y240.603 Z6.989 F2500.000
G1 X1.848 Y241.202 Z6.996 F2500.000
G1 X1.980 Y249.401 Z6.993 F2500.000
G1 X2.197 Y262.800 Z6.996 F2500.000
G1 X2.207 Y263.400 Z6.991 F2500.000
G1 X2.217 Y263.999 Z6.996 F2500.000
G1 X2.887 Y305.394 Z6.994 F2500.000
G1 X2.890 Y305.594 Z6.987 F2500.000
G1 X2.900 Y306.194 Z6.994 F2500.000
G1 X3.188 Y323.992 Z6.992 F2500.000
G1 X3.201 Y324.792 Z6.991 F2500.000
G1 X3.204 Y324.991 Z6.979 F2500.000
G1 X3.207 Y325.191 Z6.991 F2500.000
G1 X3.211 Y325.391 Z6.992 F2500.000
G1 X3.492 Y342.789 Z6.991 F2500.000
G1 X3.495 Y342.989 Z6.990 F2500.000
G1 X3.499 Y343.189 Z6.981 F2500.000
G1 X3.505 Y343.589 Z6.990 F2500.000
G1 X3.615 Y350.388 Z6.990 F2500.000
G1 X3.732 Y357.587 Z6.983 F2500.000
G1 X3.767 Y359.787 Z6.988 F2500.000
G1 X3.777 Y360.387 Z6.981 F2500.000
G1 X3.790 Y361.187 Z6.989 F2500.000
G1 X3.903 Y368.186 Z6.980 F2500.000
G1 X3.949 Y370.985 Z6.970 F2500.000
G1 X3.978 Y372.785 Z6.956 F2500.000
G1 X3.994 Y373.785 Z6.941 F2500.000
G1 X4.004 Y374.385 Z6.925 F2500.000
G1 X4.013 Y374.985 Z6.920 F2500.000
G1 X4.026 Y375.785 Z6.962 F2500.000
G1 X4.036 Y376.385 Z6.987 F2500.000
G1 X4.280 Y391.483 Z6.986 F2500.000
G1 X4.331 Y394.582 Z6.977 F2500.000
G1 X4.374 Y397.282 Z6.957 F2500.000
G1 X4.411 Y399.582 Z6.929 F2500.000
G1 X4.428 Y400.582 Z6.910 F2500.000
G1 X4.444 Y401.581 Z6.883 F2500.000
G1 X4.455 Y402.281 Z6.877 F2500.000
G1 X4.483 Y403.981 Z6.933 F2500.000
G1 X4.518 Y406.181 Z6.984 F2500.000
G1 X4.525 Y406.581 Z6.976 F2500.000
G1 X4.528 Y406.781 Z6.985 F2500.000
G1 X4.560 Y408.781 Z6.970 F2500.000
G1 X4.490 Y408.914 Z6.969 F2500.000
G1 X3.893 Y408.966 Z6.969 F2500.000
G1 X3.097 Y409.049 Z6.970 F2500.000
G1 X2.700 Y409.096 Z6.970 F2500.000
G1 X2.105 Y409.175 Z6.967 F2500.000
G1 X1.511 Y409.260 Z6.965 F2500.000
G1 X0.918 Y409.354 Z6.962 F2500.000
G1 X0.130 Y409.492 Z6.956 F2500.000
G1 X-0.459 Y409.605 Z6.950 F2500.000
G1 X-1.437 Y409.812 Z6.938 F2500.000
G1 X-2.216 Y409.994 Z6.926 F2500.000
G1 X-2.992 Y410.190 Z6.911 F2500.000
G1 X-3.378 Y410.293 Z6.903 F2500.000
G1 X-3.764 Y410.401 Z6.894 F2500.000
G1 X-4.532 Y410.624 Z6.873 F2500.000
G1 X-4.698 Y410.648 Z6.869 F2500.000
G1 X-4.677 Y409.249 Z6.921 F2500.000
G1 X-4.658 Y408.049 Z6.956 F2500.000
G1 X-4.646 Y407.249 Z6.977 F2500.000
G1 X-4.639 Y406.749 Z6.985 F2500.000
G1 X-4.631 Y406.249 Z6.985 F2500.000
G1 X-4.601 Y404.249 Z6.972 F2500.000
G1 X-4.570 Y402.249 Z6.951 F2500.000
G1 X-4.552 Y401.050 Z6.934 F2500.000
G1 X-4.524 Y399.250 Z6.897 F2500.000
G1 X-4.505 Y397.950 Z6.857 F2500.000
G1 X-4.497 Y397.450 Z6.866 F2500.000
G1 X-4.474 Y395.950 Z6.915 F2500.000
G1 X-4.457 Y394.850 Z6.942 F2500.000
G1 X-4.421 Y392.451 Z6.985 F2500.000
G1 X-4.381 Y389.851 Z6.977 F2500.000
G1 X-4.348 Y387.651 Z6.984 F2500.000
G1 X-4.287 Y383.652 Z6.987 F2500.000
G1 X-4.189 Y377.252 Z6.988 F2500.000
G1 X-4.180 Y376.652 Z6.979 F2500.000
G1 X-4.177 Y376.452 Z6.988 F2500.000
G1 X-4.165 Y375.653 Z6.969 F2500.000
G1 X-4.138 Y373.853 Z6.910 F2500.000
G1 X-4.116 Y372.453 Z6.852 F2500.000
G1 X-4.101 Y371.453 Z6.802 F2500.000
G1 X-4.083 Y370.253 Z6.848 F2500.000
G1 X-4.067 Y369.253 Z6.880 F2500.000
G1 X-4.046 Y367.853 Z6.913 F2500.000
G1 X-4.031 Y366.854 Z6.930 F2500.000
G1 X-4.000 Y364.854 Z6.957 F2500.000
G1 X-3.967 Y362.654 Z6.977 F2500.000
G1 X-3.936 Y360.654 Z6.988 F2500.000
G1 X-3.933 Y360.454 Z6.976 F2500.000
G1 X-3.930 Y360.254 Z6.988 F2500.000
G1 X-3.927 Y360.054 Z6.989 F2500.000
G1 X-3.824 Y353.255 Z6.990 F2500.000
G1 X-3.717 Y346.256 Z6.983 F2500.000
G1 X-3.681 Y343.856 Z6.989 F2500.000
G1 X-3.671 Y343.256 Z6.978 F2500.000
G1 X-3.662 Y342.656 Z6.991 F2500.000
G1 X-3.403 Y325.658 Z6.992 F2500.000
G1 X-3.394 Y325.058 Z6.983 F2500.000
G1 X-3.385 Y324.458 Z6.992 F2500.000
G1 X-2.816 Y287.103 Z6.995 F2500.000
G1 X-2.789 Y285.343 Z6.992 F2500.000
G1 X-2.776 Y284.463 Z6.995 F2500.000
G1 X-2.468 Y264.265 Z6.996 F2500.000
G1 X-2.456 Y263.466 Z6.986 F2500.000
G1 X-2.447 Y262.866 Z6.996 F2500.000
G1 X-2.121 Y241.468 Z6.996 F2500.000
G1 X-2.106 Y240.468 Z6.988 F2500.000
G1 X-2.096 Y239.868 Z6.996 F2500.000
G1 X-1.356 Y191.274 Z6.998 F2500.000
G1 X-1.344 Y190.474 Z6.992 F2500.000
G1 X-1.332 Y189.674 Z6.998 F2500.000
G1 X-0.195 Y115.083 Z7.000 F2500.000
G1 X0.071 Y131.417 Z7.000 F2500.000
(Break)
G0 Z10.000
G0 X-0.159 Y98.673
(part 33.)
G1 X-0.159 Y98.673 Z7.000 F2500.000
G1 X-0.145 Y99.573 Z7.000 F2500.000
G1 X1.317 Y189.861 Z6.998 F2500.000
G1 X1.325 Y190.361 Z6.986 F2500.000
G1 X1.333 Y190.861 Z6.998 F2500.000
G1 X1.734 Y215.658 Z6.997 F2500.000
G1 X1.744 Y216.258 Z6.990 F2500.000
G1 X1.754 Y216.858 Z6.997 F2500.000
G1 X2.126 Y239.855 Z6.996 F2500.000
G1 X2.136 Y240.455 Z6.988 F2500.000
G1 X2.145 Y241.054 Z6.996 F2500.000
G1 X2.304 Y250.853 Z6.992 F2500.000
G1 X2.495 Y262.652 Z6.995 F2500.000
G1 X2.505 Y263.252 Z6.995 F2500.000
G1 X2.508 Y263.452 Z6.987 F2500.000
G1 X2.518 Y264.051 Z6.995 F2500.000
G1 X2.854 Y284.849 Z6.994 F2500.000
G1 X2.858 Y285.049 Z6.991 F2500.000
G1 X2.867 Y285.649 Z6.994 F2500.000
G1 X3.498 Y324.644 Z6.991 F2500.000
G1 X3.502 Y324.843 Z6.988 F2500.000
G1 X3.521 Y326.043 Z6.990 F2500.000
G1 X3.787 Y342.441 Z6.989 F2500.000
G1 X3.796 Y343.041 Z6.988 F2500.000
G1 X3.800 Y343.241 Z6.975 F2500.000
G1 X3.803 Y343.441 Z6.988 F2500.000
G1 X3.806 Y343.641 Z6.989 F2500.000
G1 X3.945 Y352.240 Z6.988 F2500.000
G1 X4.046 Y358.439 Z6.982 F2500.000
G1 X4.075 Y360.239 Z6.987 F2500.000
G1 X4.078 Y360.439 Z6.976 F2500.000
G1 X4.081 Y360.639 Z6.986 F2500.000
G1 X4.088 Y361.039 Z6.987 F2500.000
G1 X4.162 Y365.638 Z6.984 F2500.000
G1 X4.246 Y370.837 Z6.972 F2500.000
G1 X4.267 Y372.137 Z6.965 F2500.000
G1 X4.288 Y373.437 Z6.952 F2500.000
G1 X4.298 Y374.037 Z6.941 F2500.000
G1 X4.308 Y374.637 Z6.925 F2500.000
G1 X4.321 Y375.437 Z6.941 F2500.000
G1 X4.330 Y376.037 Z6.972 F2500.000
G1 X4.353 Y377.437 Z6.986 F2500.000
G1 X4.583 Y391.635 Z6.985 F2500.000
G1 X4.635 Y394.834 Z6.974 F2500.000
G1 X4.670 Y397.034 Z6.959 F2500.000
G1 X4.696 Y398.634 Z6.943 F2500.000
G1 X4.725 Y400.434 Z6.916 F2500.000
G1 X4.754 Y402.233 Z6.870 F2500.000
G1 X4.771 Y403.233 Z6.906 F2500.000
G1 X4.787 Y404.233 Z6.937 F2500.000
G1 X4.816 Y406.033 Z6.980 F2500.000
G1 X4.832 Y407.033 Z6.982 F2500.000
G1 X4.864 Y409.032 Z6.967 F2500.000
G1 X4.822 Y409.190 Z6.965 F2500.000
G1 X4.223 Y409.237 Z6.965 F2500.000
G1 X3.626 Y409.295 Z6.966 F2500.000
G1 X2.831 Y409.382 Z6.965 F2500.000
G1 X2.236 Y409.460 Z6.963 F2500.000
G1 X1.642 Y409.544 Z6.961 F2500.000
G1 X1.049 Y409.636 Z6.958 F2500.000
G1 X0.064 Y409.810 Z6.949 F2500.000
G1 X-0.524 Y409.925 Z6.943 F2500.000
G1 X-1.307 Y410.091 Z6.932 F2500.000
G1 X-1.697 Y410.179 Z6.926 F2500.000
G1 X-2.086 Y410.271 Z6.920 F2500.000
G1 X-2.862 Y410.467 Z6.903 F2500.000
G1 X-3.249 Y410.569 Z6.895 F2500.000
G1 X-3.827 Y410.731 Z6.880 F2500.000
G1 X-4.403 Y410.899 Z6.864 F2500.000
G1 X-4.976 Y411.075 Z6.845 F2500.000
G1 X-5.002 Y410.914 Z6.852 F2500.000
G1 X-4.982 Y409.581 Z6.907 F2500.000
G1 X-4.969 Y408.715 Z6.936 F2500.000
G1 X-4.941 Y406.915 Z6.982 F2500.000
G1 X-4.929 Y406.115 Z6.983 F2500.000
G1 X-4.896 Y403.915 Z6.968 F2500.000
G1 X-4.868 Y402.115 Z6.950 F2500.000
G1 X-4.846 Y400.649 Z6.929 F2500.000
G1 X-4.816 Y398.716 Z6.886 F2500.000
G1 X-4.801 Y397.716 Z6.853 F2500.000
G1 X-4.773 Y395.850 Z6.913 F2500.000
G1 X-4.752 Y394.516 Z6.946 F2500.000
G1 X-4.722 Y392.517 Z6.983 F2500.000
G1 X-4.701 Y391.117 Z6.981 F2500.000
G1 X-4.679 Y389.717 Z6.972 F2500.000
G1 X-4.627 Y386.317 Z6.983 F2500.000
G1 X-4.490 Y377.318 Z6.986 F2500.000
G1 X-4.481 Y376.718 Z6.974 F2500.000
G1 X-4.472 Y376.118 Z6.979 F2500.000
G1 X-4.460 Y375.319 Z6.958 F2500.000
G1 X-4.439 Y373.919 Z6.913 F2500.000
G1 X-4.423 Y372.919 Z6.875 F2500.000
G1 X-4.405 Y371.719 Z6.819 F2500.000
G1 X-4.396 Y371.119 Z6.800 F2500.000
G1 X-4.384 Y370.319 Z6.836 F2500.000
G1 X-4.369 Y369.319 Z6.871 F2500.000
G1 X-4.338 Y367.319 Z6.918 F2500.000
G1 X-4.295 Y364.520 Z6.958 F2500.000
G1 X-4.238 Y360.720 Z6.988 F2500.000
G1 X-4.234 Y360.520 Z6.979 F2500.000
G1 X-4.225 Y359.920 Z6.988 F2500.000
G1 X-4.100 Y351.721 Z6.988 F2500.000
G1 X-4.012 Y345.922 Z6.983 F2500.000
G1 X-3.976 Y343.522 Z6.989 F2500.000
G1 X-3.156 Y289.728 Z6.993 F2500.000
G1 X-3.095 Y285.729 Z6.989 F2500.000
G1 X-3.080 Y284.729 Z6.994 F2500.000
G1 X-2.416 Y241.134 Z6.996 F2500.000
G1 X-2.407 Y240.534 Z6.983 F2500.000
G1 X-2.401 Y240.134 Z6.996 F2500.000
G1 X-1.654 Y191.140 Z6.997 F2500.000
G1 X-1.645 Y190.540 Z6.995 F2500.000
G1 X-1.633 Y189.740 Z6.997 F2500.000
G1 X-0.794 Y134.646 Z6.999 F2500.000
G1 X-0.786 Y134.147 Z6.990 F2500.000
G1 X-0.774 Y133.347 Z6.999 F2500.000
G1 X-0.204 Y95.951 Z7.000 F2500.000
G1 X-0.159 Y98.673 Z7.000 F2500.000
(Break)
G0 Z10.000
G0 X0.141 Y98.668
(part 35.)
G1 X0.141 Y98.668 Z7.000 F2500.000
G1 X0.155 Y99.568 Z7.000 F2500.000
G1 X0.202 Y102.468 Z7.000 F2500.000
G1 X0.217 Y103.368 Z6.990 F2500.000
G1 X0.231 Y104.268 Z6.999 F2500.000
G1 X0.701 Y133.264 Z6.999 F2500.000
G1 X0.712 Y133.964 Z6.995 F2500.000
G1 X0.723 Y134.664 Z6.999 F2500.000
G1 X1.612 Y189.556 Z6.997 F2500.000
G1 X1.623 Y190.256 Z6.993 F2500.000
G1 X1.635 Y190.956 Z6.997 F2500.000
G1 X2.419 Y239.450 Z6.996 F2500.000
G1 X2.436 Y240.450 Z6.988 F2500.000
G1 X2.449 Y241.250 Z6.995 F2500.000
G1 X2.614 Y251.448 Z6.990 F2500.000
G1 X2.805 Y263.247 Z6.994 F2500.000
G1 X2.808 Y263.447 Z6.986 F2500.000
G1 X2.818 Y264.047 Z6.994 F2500.000
G1 X3.154 Y284.844 Z6.992 F2500.000
G1 X3.158 Y285.044 Z6.989 F2500.000
G1 X3.167 Y285.644 Z6.992 F2500.000
G1 X3.484 Y305.241 Z6.991 F2500.000
G1 X3.488 Y305.441 Z6.990 F2500.000
G1 X3.491 Y305.641 Z6.980 F2500.000
G1 X3.497 Y306.041 Z6.991 F2500.000
G1 X3.792 Y324.239 Z6.989 F2500.000
G1 X3.805 Y325.039 Z6.979 F2500.000
G1 X3.808 Y325.239 Z6.989 F2500.000
G1 X3.811 Y325.439 Z6.989 F2500.000
G1 X4.278 Y354.235 Z6.986 F2500.000
G1 X4.362 Y359.434 Z6.984 F2500.000
G1 X4.378 Y360.434 Z6.975 F2500.000
G1 X4.381 Y360.634 Z6.984 F2500.000
G1 X4.394 Y361.434 Z6.985 F2500.000
G1 X4.478 Y366.633 Z6.982 F2500.000
G1 X4.530 Y369.833 Z6.976 F2500.000
G1 X4.562 Y371.832 Z6.968 F2500.000
G1 X4.595 Y373.832 Z6.950 F2500.000
G1 X4.604 Y374.432 Z6.938 F2500.000
G1 X4.614 Y375.032 Z6.918 F2500.000
G1 X4.627 Y375.832 Z6.959 F2500.000
G1 X4.637 Y376.432 Z6.985 F2500.000
G1 X4.880 Y391.430 Z6.983 F2500.000
G1 X4.889 Y392.030 Z6.971 F2500.000
G1 X4.899 Y392.630 Z6.982 F2500.000
G1 X4.941 Y395.229 Z6.971 F2500.000
G1 X4.996 Y398.629 Z6.944 F2500.000
G1 X5.029 Y400.629 Z6.915 F2500.000
G1 X5.045 Y401.629 Z6.891 F2500.000
G1 X5.054 Y402.228 Z6.872 F2500.000
G1 X5.061 Y402.628 Z6.880 F2500.000
G1 X5.071 Y403.228 Z6.902 F2500.000
G1 X5.093 Y404.628 Z6.944 F2500.000
G1 X5.119 Y406.228 Z6.982 F2500.000
G1 X5.129 Y406.828 Z6.982 F2500.000
G1 X5.171 Y409.428 Z6.962 F2500.000
G1 X5.011 Y409.478 Z6.961 F2500.000
G1 X4.413 Y409.522 Z6.962 F2500.000
G1 X3.815 Y409.577 Z6.962 F2500.000
G1 X3.020 Y409.662 Z6.961 F2500.000
G1 X2.424 Y409.737 Z6.959 F2500.000
G1 X1.632 Y409.848 Z6.956 F2500.000
G1 X1.237 Y409.909 Z6.953 F2500.000
G1 X0.449 Y410.045 Z6.946 F2500.000
G1 X-0.141 Y410.154 Z6.940 F2500.000
G1 X-0.729 Y410.275 Z6.932 F2500.000
G1 X-1.511 Y410.444 Z6.921 F2500.000
G1 X-2.095 Y410.582 Z6.909 F2500.000
G1 X-2.870 Y410.779 Z6.893 F2500.000
G1 X-3.450 Y410.935 Z6.878 F2500.000
G1 X-4.410 Y411.214 Z6.849 F2500.000
G1 X-4.983 Y411.392 Z6.831 F2500.000
G1 X-5.173 Y411.454 Z6.838 F2500.000
G1 X-5.310 Y411.444 Z6.840 F2500.000
G1 X-5.301 Y410.844 Z6.850 F2500.000
G1 X-5.283 Y409.644 Z6.901 F2500.000
G1 X-5.265 Y408.444 Z6.941 F2500.000
G1 X-5.240 Y406.844 Z6.982 F2500.000
G1 X-5.228 Y406.044 Z6.981 F2500.000
G1 X-5.201 Y404.245 Z6.969 F2500.000
G1 X-5.164 Y401.845 Z6.946 F2500.000
G1 X-5.140 Y400.245 Z6.922 F2500.000
G1 X-5.121 Y399.045 Z6.897 F2500.000
G1 X-5.100 Y397.645 Z6.855 F2500.000
G1 X-5.097 Y397.445 Z6.855 F2500.000
G1 X-5.071 Y395.746 Z6.912 F2500.000
G1 X-5.054 Y394.646 Z6.940 F2500.000
G1 X-5.024 Y392.646 Z6.979 F2500.000
G1 X-5.015 Y392.046 Z6.970 F2500.000
G1 X-5.009 Y391.646 Z6.983 F2500.000
G1 X-4.975 Y389.446 Z6.969 F2500.000
G1 X-4.929 Y386.447 Z6.979 F2500.000
G1 X-4.838 Y380.447 Z6.984 F2500.000
G1 X-4.789 Y377.248 Z6.985 F2500.000
G1 X-4.780 Y376.648 Z6.976 F2500.000
G1 X-4.777 Y376.448 Z6.985 F2500.000
G1 X-4.759 Y375.248 Z6.955 F2500.000
G1 X-4.731 Y373.448 Z6.896 F2500.000
G1 X-4.719 Y372.648 Z6.864 F2500.000
G1 X-4.698 Y371.248 Z6.797 F2500.000
G1 X-4.689 Y370.649 Z6.812 F2500.000
G1 X-4.674 Y369.649 Z6.853 F2500.000
G1 X-4.655 Y368.449 Z6.888 F2500.000
G1 X-4.640 Y367.449 Z6.910 F2500.000
G1 X-4.619 Y366.049 Z6.934 F2500.000
G1 X-4.588 Y364.049 Z6.960 F2500.000
G1 X-4.561 Y362.250 Z6.976 F2500.000
G1 X-4.536 Y360.650 Z6.985 F2500.000
G1 X-4.533 Y360.450 Z6.973 F2500.000
G1 X-4.521 Y359.650 Z6.986 F2500.000
G1 X-4.372 Y349.851 Z6.987 F2500.000
G1 X-4.302 Y345.252 Z6.982 F2500.000
G1 X-4.281 Y343.852 Z6.986 F2500.000
G1 X-4.271 Y343.252 Z6.975 F2500.000
G1 X-4.268 Y343.052 Z6.986 F2500.000
G1 X-4.259 Y342.452 Z6.988 F2500.000
G1 X-3.708 Y306.256 Z6.990 F2500.000
G1 X-3.699 Y305.656 Z6.979 F2500.000
G1 X-3.690 Y305.056 Z6.991 F2500.000
G1 X-3.485 Y291.658 Z6.991 F2500.000
G1 X-3.406 Y286.458 Z6.986 F2500.000
G1 X-3.391 Y285.458 Z6.992 F2500.000
G1 X-3.069 Y264.301 Z6.994 F2500.000
G1 X-3.055 Y263.381 Z6.990 F2500.000
G1 X-3.041 Y262.461 Z6.994 F2500.000
G1 X-2.849 Y249.863 Z6.995 F2500.000
G1 X-2.712 Y240.864 Z6.995 F2500.000
G1 X-2.709 Y240.664 Z6.992 F2500.000
G1 X-2.693 Y239.664 Z6.995 F2500.000
G1 X-2.346 Y216.866 Z6.996 F2500.000
G1 X-2.337 Y216.266 Z6.990 F2500.000
G1 X-2.322 Y215.267 Z6.996 F2500.000
G1 X-1.097 Y134.876 Z6.998 F2500.000
G1 X-1.087 Y134.209 Z6.994 F2500.000
G1 X-1.077 Y133.543 Z6.998 F2500.000
G1 X-0.628 Y104.079 Z6.999 F2500.000
G1 X-0.618 Y103.413 Z6.986 F2500.000
G1 X-0.608 Y102.746 Z6.999 F2500.000
G1 X-0.214 Y76.883 Z7.000 F2500.000
G1 X0.141 Y98.668 Z7.000 F2500.000
(Break)
G0 Z10.000
G0 X-0.089 Y65.924
(part 37.)
G1 X-0.089 Y65.924 Z6.992 F2500.000
G1 X-0.075 Y66.824 Z6.994 F2500.000
G1 X-0.018 Y70.323 Z6.999 F2500.000
G1 X-0.006 Y71.056 Z6.996 F2500.000
G1 X0.006 Y71.790 Z7.000 F2500.000
G1 X1.911 Y189.507 Z6.997 F2500.000
G1 X1.924 Y190.307 Z6.989 F2500.000
G1 X1.934 Y190.907 Z6.996 F2500.000
G1 X2.626 Y233.702 Z6.995 F2500.000
G1 X2.720 Y239.501 Z6.995 F2500.000
G1 X2.737 Y240.501 Z6.983 F2500.000
G1 X2.749 Y241.301 Z6.995 F2500.000
G1 X2.947 Y253.499 Z6.989 F2500.000
G1 X3.099 Y262.898 Z6.993 F2500.000
G1 X3.109 Y263.498 Z6.980 F2500.000
G1 X3.122 Y264.298 Z6.993 F2500.000
G1 X3.782 Y305.092 Z6.989 F2500.000
G1 X3.789 Y305.492 Z6.987 F2500.000
G1 X3.792 Y305.692 Z6.977 F2500.000
G1 X3.795 Y305.892 Z6.988 F2500.000
G1 X3.802 Y306.292 Z6.989 F2500.000
G1 X4.096 Y324.490 Z6.987 F2500.000
G1 X4.106 Y325.090 Z6.981 F2500.000
G1 X4.115 Y325.690 Z6.987 F2500.000
G1 X4.384 Y342.287 Z6.986 F2500.000
G1 X4.397 Y343.087 Z6.983 F2500.000
G1 X4.410 Y343.887 Z6.986 F2500.000
G1 X4.672 Y360.085 Z6.984 F2500.000
G1 X4.679 Y360.485 Z6.973 F2500.000
G1 X4.682 Y360.685 Z6.984 F2500.000
G1 X4.695 Y361.485 Z6.984 F2500.000
G1 X4.790 Y367.384 Z6.980 F2500.000
G1 X4.865 Y371.984 Z6.969 F2500.000
G1 X4.896 Y373.883 Z6.954 F2500.000
G1 X4.905 Y374.483 Z6.943 F2500.000
G1 X4.915 Y375.083 Z6.926 F2500.000
G1 X4.934 Y376.283 Z6.980 F2500.000
G1 X4.938 Y376.483 Z6.982 F2500.000
G1 X5.177 Y391.281 Z6.982 F2500.000
G1 X5.190 Y392.081 Z6.971 F2500.000
G1 X5.200 Y392.681 Z6.980 F2500.000
G1 X5.245 Y395.481 Z6.968 F2500.000
G1 X5.287 Y398.080 Z6.950 F2500.000
G1 X5.323 Y400.280 Z6.924 F2500.000
G1 X5.339 Y401.280 Z6.904 F2500.000
G1 X5.352 Y402.080 Z6.882 F2500.000
G1 X5.365 Y402.880 Z6.885 F2500.000
G1 X5.388 Y404.279 Z6.931 F2500.000
G1 X5.417 Y406.079 Z6.977 F2500.000
G1 X5.430 Y406.879 Z6.980 F2500.000
G1 X5.475 Y409.679 Z6.958 F2500.000
G1 X5.345 Y409.756 Z6.958 F2500.000
G1 X4.547 Y409.812 Z6.958 F2500.000
G1 X3.949 Y409.865 Z6.959 F2500.000
G1 X2.955 Y409.972 Z6.956 F2500.000
G1 X2.162 Y410.076 Z6.953 F2500.000
G1 X1.568 Y410.161 Z6.950 F2500.000
G1 X1.173 Y410.224 Z6.946 F2500.000
G1 X0.385 Y410.361 Z6.939 F2500.000
G1 X-0.205 Y410.472 Z6.931 F2500.000
G1 X-0.988 Y410.636 Z6.920 F2500.000
G1 X-1.574 Y410.766 Z6.909 F2500.000
G1 X-2.157 Y410.907 Z6.898 F2500.000
G1 X-2.738 Y411.055 Z6.884 F2500.000
G1 X-3.125 Y411.157 Z6.874 F2500.000
G1 X-3.703 Y411.320 Z6.858 F2500.000
G1 X-4.470 Y411.546 Z6.832 F2500.000
G1 X-4.852 Y411.665 Z6.842 F2500.000
G1 X-5.612 Y411.913 Z6.864 F2500.000
G1 X-5.615 Y411.721 Z6.857 F2500.000
G1 X-5.602 Y410.921 Z6.840 F2500.000
G1 X-5.581 Y409.521 Z6.901 F2500.000
G1 X-5.566 Y408.521 Z6.935 F2500.000
G1 X-5.541 Y406.921 Z6.979 F2500.000
G1 X-5.535 Y406.521 Z6.968 F2500.000
G1 X-5.526 Y405.921 Z6.979 F2500.000
G1 X-5.490 Y403.521 Z6.963 F2500.000
G1 X-5.459 Y401.522 Z6.942 F2500.000
G1 X-5.429 Y399.522 Z6.910 F2500.000
G1 X-5.413 Y398.522 Z6.887 F2500.000
G1 X-5.398 Y397.522 Z6.855 F2500.000
G1 X-5.389 Y396.922 Z6.869 F2500.000
G1 X-5.368 Y395.522 Z6.914 F2500.000
G1 X-5.349 Y394.323 Z6.944 F2500.000
G1 X-5.322 Y392.523 Z6.979 F2500.000
G1 X-5.316 Y392.123 Z6.975 F2500.000
G1 X-5.307 Y391.523 Z6.981 F2500.000
G1 X-5.270 Y389.123 Z6.966 F2500.000
G1 X-5.209 Y385.124 Z6.978 F2500.000
G1 X-5.075 Y376.325 Z6.982 F2500.000
G1 X-5.057 Y375.125 Z6.950 F2500.000
G1 X-5.036 Y373.725 Z6.906 F2500.000
G1 X-5.017 Y372.525 Z6.860 F2500.000
G1 X-4.999 Y371.325 Z6.803 F2500.000
G1 X-4.987 Y370.525 Z6.808 F2500.000
G1 X-4.978 Y369.925 Z6.834 F2500.000
G1 X-4.960 Y368.726 Z6.874 F2500.000
G1 X-4.932 Y366.926 Z6.915 F2500.000
G1 X-4.914 Y365.726 Z6.935 F2500.000
G1 X-4.883 Y363.726 Z6.960 F2500.000
G1 X-4.838 Y360.726 Z6.984 F2500.000
G1 X-4.835 Y360.526 Z6.977 F2500.000
G1 X-4.822 Y359.727 Z6.985 F2500.000
G1 X-4.597 Y344.928 Z6.983 F2500.000
G1 X-4.576 Y343.528 Z6.986 F2500.000
G1 X-4.573 Y343.328 Z6.979 F2500.000
G1 X-4.560 Y342.529 Z6.986 F2500.000
G1 X-4.302 Y325.531 Z6.987 F2500.000
G1 X-4.292 Y324.931 Z6.980 F2500.000
G1 X-4.283 Y324.331 Z6.987 F2500.000
G1 X-4.009 Y306.333 Z6.989 F2500.000
G1 X-4.000 Y305.733 Z6.980 F2500.000
G1 X-3.991 Y305.133 Z6.989 F2500.000
G1 X-3.835 Y294.934 Z6.990 F2500.000
G1 X-3.731 Y288.068 Z6.986 F2500.000
G1 X-3.704 Y286.335 Z6.977 F2500.000
G1 X-3.691 Y285.435 Z6.990 F2500.000
G1 X-3.677 Y284.535 Z6.991 F2500.000
G1 X-3.366 Y264.138 Z6.992 F2500.000
G1 X-3.357 Y263.538 Z6.982 F2500.000
G1 X-3.348 Y262.938 Z6.992 F2500.000
G1 X-3.019 Y241.340 Z6.994 F2500.000
G1 X-3.007 Y240.540 Z6.982 F2500.000
G1 X-2.992 Y239.541 Z6.994 F2500.000
G1 X-2.803 Y227.142 Z6.995 F2500.000
G1 X-2.641 Y216.543 Z6.996 F2500.000
G1 X-2.635 Y216.143 Z6.985 F2500.000
G1 X-2.620 Y215.143 Z6.996 F2500.000
G1 X-1.840 Y163.949 Z6.997 F2500.000
G1 X-1.826 Y163.049 Z6.984 F2500.000
G1 X-1.813 Y162.149 Z6.997 F2500.000
G1 X-0.929 Y104.156 Z6.999 F2500.000
G1 X-0.917 Y103.356 Z6.990 F2500.000
G1 X-0.905 Y102.556 Z6.999 F2500.000
G1 X-0.429 Y71.293 Z6.999 F2500.000
G1 X-0.282 Y61.661 Z6.985 F2500.000
G1 X-0.222 Y57.762 Z6.991 F2500.000
G1 X-0.156 Y61.803 Z6.986 F2500.000
G1 X-0.089 Y65.924 Z6.992 F2500.000
(Break)
G0 Z10.000
G0 X0.211 Y65.919
(part 39.)
G1 X0.211 Y65.919 Z6.992 F2500.000
G1 X0.225 Y66.819 Z6.993 F2500.000
G1 X0.296 Y71.218 Z6.999 F2500.000
G1 X0.805 Y102.614 Z6.999 F2500.000
G1 X0.819 Y103.514 Z6.993 F2500.000
G1 X0.835 Y104.514 Z6.998 F2500.000
G1 X1.769 Y162.206 Z6.997 F2500.000
G1 X1.781 Y162.906 Z6.993 F2500.000
G1 X1.793 Y163.706 Z6.997 F2500.000
G1 X2.218 Y189.903 Z6.996 F2500.000
G1 X2.226 Y190.403 Z6.984 F2500.000
G1 X2.234 Y190.902 Z6.996 F2500.000
G1 X2.604 Y213.799 Z6.995 F2500.000
G1 X2.632 Y215.499 Z6.995 F2500.000
G1 X2.645 Y216.299 Z6.991 F2500.000
G1 X2.651 Y216.699 Z6.995 F2500.000
G1 X3.020 Y239.496 Z6.993 F2500.000
G1 X3.036 Y240.496 Z6.982 F2500.000
G1 X3.053 Y241.496 Z6.993 F2500.000
G1 X3.266 Y254.694 Z6.988 F2500.000
G1 X3.396 Y262.693 Z6.991 F2500.000
G1 X3.406 Y263.293 Z6.990 F2500.000
G1 X3.409 Y263.493 Z6.979 F2500.000
G1 X3.418 Y264.093 Z6.991 F2500.000
G1 X4.399 Y324.685 Z6.986 F2500.000
G1 X4.406 Y325.085 Z6.979 F2500.000
G1 X4.412 Y325.485 Z6.986 F2500.000
G1 X4.950 Y358.680 Z6.983 F2500.000
G1 X4.975 Y360.280 Z6.981 F2500.000
G1 X4.979 Y360.480 Z6.971 F2500.000
G1 X4.982 Y360.680 Z6.982 F2500.000
G1 X5.102 Y368.079 Z6.978 F2500.000
G1 X5.153 Y371.279 Z6.972 F2500.000
G1 X5.196 Y373.878 Z6.957 F2500.000
G1 X5.205 Y374.478 Z6.949 F2500.000
G1 X5.218 Y375.278 Z6.927 F2500.000
G1 X5.228 Y375.878 Z6.957 F2500.000
G1 X5.238 Y376.478 Z6.981 F2500.000
G1 X5.480 Y391.476 Z6.979 F2500.000
G1 X5.490 Y392.076 Z6.968 F2500.000
G1 X5.503 Y392.876 Z6.978 F2500.000
G1 X5.548 Y395.676 Z6.966 F2500.000
G1 X5.590 Y398.275 Z6.949 F2500.000
G1 X5.626 Y400.475 Z6.922 F2500.000
G1 X5.642 Y401.475 Z6.903 F2500.000
G1 X5.658 Y402.475 Z6.874 F2500.000
G1 X5.707 Y405.474 Z6.959 F2500.000
G1 X5.723 Y406.474 Z6.968 F2500.000
G1 X5.726 Y406.674 Z6.974 F2500.000
G1 X5.739 Y407.474 Z6.974 F2500.000
G1 X5.778 Y409.874 Z6.956 F2500.000
G1 X5.737 Y410.033 Z6.954 F2500.000
G1 X4.939 Y410.084 Z6.955 F2500.000
G1 X4.341 Y410.130 Z6.955 F2500.000
G1 X3.943 Y410.167 Z6.955 F2500.000
G1 X3.346 Y410.229 Z6.953 F2500.000
G1 X2.750 Y410.299 Z6.951 F2500.000
G1 X1.759 Y410.436 Z6.945 F2500.000
G1 X1.167 Y410.529 Z6.940 F2500.000
G1 X0.182 Y410.703 Z6.929 F2500.000
G1 X-0.407 Y410.820 Z6.920 F2500.000
G1 X-1.189 Y410.986 Z6.907 F2500.000
G1 X-1.579 Y411.075 Z6.899 F2500.000
G1 X-1.968 Y411.169 Z6.891 F2500.000
G1 X-2.937 Y411.417 Z6.866 F2500.000
G1 X-3.322 Y411.523 Z6.855 F2500.000
G1 X-3.899 Y411.689 Z6.836 F2500.000
G1 X-4.091 Y411.745 Z6.831 F2500.000
G1 X-4.665 Y411.920 Z6.850 F2500.000
G1 X-5.426 Y412.167 Z6.870 F2500.000
G1 X-5.805 Y412.295 Z6.879 F2500.000
G1 X-5.923 Y412.263 Z6.880 F2500.000
G1 X-5.914 Y411.663 Z6.859 F2500.000
G1 X-5.905 Y411.063 Z6.833 F2500.000
G1 X-5.898 Y410.663 Z6.847 F2500.000
G1 X-5.880 Y409.464 Z6.899 F2500.000
G1 X-5.868 Y408.664 Z6.926 F2500.000
G1 X-5.841 Y406.864 Z6.977 F2500.000
G1 X-5.822 Y405.664 Z6.975 F2500.000
G1 X-5.789 Y403.464 Z6.961 F2500.000
G1 X-5.758 Y401.464 Z6.941 F2500.000
G1 X-5.731 Y399.665 Z6.915 F2500.000
G1 X-5.719 Y398.865 Z6.898 F2500.000
G1 X-5.710 Y398.265 Z6.883 F2500.000
G1 X-5.694 Y397.265 Z6.850 F2500.000
G1 X-5.667 Y395.465 Z6.911 F2500.000
G1 X-5.646 Y394.065 Z6.947 F2500.000
G1 X-5.621 Y392.465 Z6.978 F2500.000
G1 X-5.609 Y391.666 Z6.980 F2500.000
G1 X-5.566 Y388.866 Z6.962 F2500.000
G1 X-5.496 Y384.266 Z6.976 F2500.000
G1 X-5.393 Y377.467 Z6.981 F2500.000
G1 X-5.371 Y376.067 Z6.973 F2500.000
G1 X-5.353 Y374.868 Z6.942 F2500.000
G1 X-5.332 Y373.468 Z6.897 F2500.000
G1 X-5.323 Y372.868 Z6.874 F2500.000
G1 X-5.307 Y371.868 Z6.832 F2500.000
G1 X-5.292 Y370.868 Z6.782 F2500.000
G1 X-5.280 Y370.068 Z6.819 F2500.000
G1 X-5.262 Y368.868 Z6.862 F2500.000
G1 X-5.231 Y366.868 Z6.911 F2500.000
G1 X-5.204 Y365.069 Z6.940 F2500.000
G1 X-5.173 Y363.069 Z6.963 F2500.000
G1 X-5.140 Y360.869 Z6.982 F2500.000
G1 X-5.137 Y360.669 Z6.982 F2500.000
G1 X-5.134 Y360.469 Z6.970 F2500.000
G1 X-5.122 Y359.669 Z6.983 F2500.000
G1 X-4.604 Y325.673 Z6.986 F2500.000
G1 X-4.595 Y325.073 Z6.978 F2500.000
G1 X-4.585 Y324.473 Z6.986 F2500.000
G1 X-4.171 Y297.277 Z6.988 F2500.000
G1 X-4.046 Y289.077 Z6.984 F2500.000
G1 X-4.028 Y287.878 Z6.981 F2500.000
G1 X-4.010 Y286.678 Z6.972 F2500.000
G1 X-3.994 Y285.678 Z6.986 F2500.000
G1 X-3.985 Y285.078 Z6.985 F2500.000
G1 X-3.976 Y284.478 Z6.989 F2500.000
G1 X-3.669 Y264.347 Z6.991 F2500.000
G1 X-3.655 Y263.414 Z6.985 F2500.000
G1 X-3.641 Y262.481 Z6.991 F2500.000
G1 X-2.950 Y217.086 Z6.994 F2500.000
G1 X-2.934 Y216.086 Z6.988 F2500.000
G1 X-2.919 Y215.086 Z6.995 F2500.000
G1 X-2.782 Y206.087 Z6.995 F2500.000
G1 X-2.133 Y163.492 Z6.997 F2500.000
G1 X-2.124 Y162.892 Z6.994 F2500.000
G1 X-2.115 Y162.292 Z6.997 F2500.000
G1 X-1.694 Y134.695 Z6.997 F2500.000
G1 X-1.687 Y134.195 Z6.992 F2500.000
G1 X-1.679 Y133.696 Z6.997 F2500.000
G1 X-1.227 Y103.999 Z6.998 F2500.000
G1 X-1.216 Y103.299 Z6.994 F2500.000
G1 X-1.207 Y102.699 Z6.998 F2500.000
G1 X-0.735 Y71.703 Z6.999 F2500.000
G1 X-0.723 Y70.903 Z6.987 F2500.000
G1 X-0.710 Y70.103 Z6.998 F2500.000
G1 X-0.560 Y60.237 Z6.985 F2500.000
G1 X-0.430 Y51.705 Z6.995 F2500.000
G1 X-0.232 Y38.707 Z6.999 F2500.000
G1 X0.025 Y54.428 Z6.995 F2500.000
G1 X0.164 Y63.010 Z6.987 F2500.000
G1 X0.211 Y65.919 Z6.992 F2500.000
(Break)
G0 Z10.000
G0 X-0.019 Y33.173
(part 41.)
G1 X-0.019 Y33.173 Z7.000 F2500.000
G1 X-0.006 Y34.023 Z7.000 F2500.000
G1 X0.022 Y35.723 Z7.000 F2500.000
G1 X0.036 Y36.573 Z6.993 F2500.000
G1 X0.051 Y37.523 Z7.000 F2500.000
G1 X0.082 Y39.423 Z7.000 F2500.000
G1 X0.359 Y56.570 Z6.995 F2500.000
G1 X0.471 Y63.469 Z6.988 F2500.000
G1 X0.583 Y70.369 Z6.998 F2500.000
G1 X0.787 Y82.967 Z6.999 F2500.000
G1 X2.562 Y192.653 Z6.995 F2500.000
G1 X3.447 Y247.345 Z6.991 F2500.000
G1 X3.587 Y255.944 Z6.987 F2500.000
G1 X3.894 Y274.942 Z6.989 F2500.000
G1 X4.049 Y284.541 Z6.988 F2500.000
G1 X4.059 Y285.140 Z6.979 F2500.000
G1 X4.069 Y285.740 Z6.988 F2500.000
G1 X4.383 Y305.138 Z6.986 F2500.000
G1 X4.393 Y305.738 Z6.978 F2500.000
G1 X4.396 Y305.938 Z6.986 F2500.000
G1 X4.995 Y342.933 Z6.983 F2500.000
G1 X4.998 Y343.133 Z6.978 F2500.000
G1 X5.011 Y343.933 Z6.983 F2500.000
G1 X5.189 Y354.931 Z6.982 F2500.000
G1 X5.273 Y360.131 Z6.981 F2500.000
G1 X5.280 Y360.531 Z6.973 F2500.000
G1 X5.283 Y360.731 Z6.981 F2500.000
G1 X5.289 Y361.130 Z6.981 F2500.000
G1 X5.458 Y371.529 Z6.971 F2500.000
G1 X5.500 Y374.129 Z6.958 F2500.000
G1 X5.522 Y375.529 Z6.935 F2500.000
G1 X5.532 Y376.129 Z6.967 F2500.000
G1 X5.542 Y376.728 Z6.967 F2500.000
G1 X5.551 Y377.328 Z6.979 F2500.000
G1 X5.794 Y392.326 Z6.977 F2500.000
G1 X5.862 Y396.526 Z6.961 F2500.000
G1 X5.895 Y398.526 Z6.947 F2500.000
G1 X5.933 Y400.925 Z6.917 F2500.000
G1 X5.966 Y402.925 Z6.877 F2500.000
G1 X5.982 Y403.925 Z6.912 F2500.000
G1 X5.998 Y404.925 Z6.943 F2500.000
G1 X6.014 Y405.925 Z6.968 F2500.000
G1 X6.024 Y406.525 Z6.961 F2500.000
G1 X6.040 Y407.524 Z6.971 F2500.000
G1 X6.082 Y410.124 Z6.952 F2500.000
G1 X6.078 Y410.317 Z6.950 F2500.000
G1 X5.678 Y410.336 Z6.951 F2500.000
G1 X5.279 Y410.361 Z6.951 F2500.000
G1 X4.681 Y410.403 Z6.952 F2500.000
G1 X4.282 Y410.436 Z6.952 F2500.000
G1 X3.287 Y410.538 Z6.948 F2500.000
G1 X2.691 Y410.609 Z6.946 F2500.000
G1 X1.701 Y410.748 Z6.938 F2500.000
G1 X1.306 Y410.810 Z6.935 F2500.000
G1 X0.912 Y410.877 Z6.930 F2500.000
G1 X0.321 Y410.983 Z6.922 F2500.000
G1 X-0.072 Y411.058 Z6.917 F2500.000
G1 X-1.051 Y411.263 Z6.899 F2500.000
G1 X-1.636 Y411.397 Z6.888 F2500.000
G1 X-2.412 Y411.590 Z6.868 F2500.000
G1 X-2.992 Y411.743 Z6.851 F2500.000
G1 X-3.569 Y411.906 Z6.832 F2500.000
G1 X-4.145 Y412.074 Z6.848 F2500.000
G1 X-4.718 Y412.253 Z6.864 F2500.000
G1 X-5.479 Y412.501 Z6.882 F2500.000
G1 X-6.230 Y412.762 Z6.896 F2500.000
G1 X-6.215 Y411.762 Z6.867 F2500.000
G1 X-6.203 Y410.962 Z6.834 F2500.000
G1 X-6.173 Y408.962 Z6.912 F2500.000
G1 X-6.154 Y407.762 Z6.951 F2500.000
G1 X-6.142 Y406.962 Z6.972 F2500.000
G1 X-6.121 Y405.563 Z6.973 F2500.000
G1 X-6.081 Y402.963 Z6.956 F2500.000
G1 X-6.051 Y400.963 Z6.935 F2500.000
G1 X-6.017 Y398.763 Z6.898 F2500.000
G1 X-5.999 Y397.564 Z6.865 F2500.000
G1 X-5.990 Y396.964 Z6.856 F2500.000
G1 X-5.978 Y396.164 Z6.885 F2500.000
G1 X-5.956 Y394.764 Z6.926 F2500.000
G1 X-5.923 Y392.564 Z6.973 F2500.000
G1 X-5.914 Y391.964 Z6.970 F2500.000
G1 X-5.904 Y391.364 Z6.976 F2500.000
G1 X-5.859 Y388.365 Z6.958 F2500.000
G1 X-5.828 Y386.365 Z6.968 F2500.000
G1 X-5.792 Y383.965 Z6.973 F2500.000
G1 X-5.676 Y376.366 Z6.979 F2500.000
G1 X-5.655 Y374.966 Z6.943 F2500.000
G1 X-5.630 Y373.366 Z6.894 F2500.000
G1 X-5.615 Y372.366 Z6.855 F2500.000
G1 X-5.594 Y370.967 Z6.790 F2500.000
G1 X-5.585 Y370.367 Z6.796 F2500.000
G1 X-5.575 Y369.767 Z6.822 F2500.000
G1 X-5.554 Y368.367 Z6.870 F2500.000
G1 X-5.527 Y366.567 Z6.912 F2500.000
G1 X-5.502 Y364.967 Z6.938 F2500.000
G1 X-5.478 Y363.368 Z6.958 F2500.000
G1 X-5.438 Y360.768 Z6.981 F2500.000
G1 X-5.432 Y360.368 Z6.975 F2500.000
G1 X-5.420 Y359.568 Z6.981 F2500.000
G1 X-4.509 Y299.775 Z6.986 F2500.000
G1 X-4.360 Y289.976 Z6.982 F2500.000
G1 X-4.329 Y287.976 Z6.976 F2500.000
G1 X-4.311 Y286.776 Z6.964 F2500.000
G1 X-4.293 Y285.577 Z6.986 F2500.000
G1 X-4.275 Y284.377 Z6.988 F2500.000
G1 X-3.620 Y241.382 Z6.991 F2500.000
G1 X-3.604 Y240.382 Z6.988 F2500.000
G1 X-3.589 Y239.382 Z6.991 F2500.000
G1 X-2.441 Y163.991 Z6.996 F2500.000
G1 X-2.429 Y163.191 Z6.993 F2500.000
G1 X-2.419 Y162.591 Z6.996 F2500.000
G1 X-1.996 Y134.794 Z6.997 F2500.000
G1 X-1.987 Y134.194 Z6.991 F2500.000
G1 X-1.978 Y133.594 Z6.997 F2500.000
G1 X-1.533 Y104.398 Z6.998 F2500.000
G1 X-1.519 Y103.498 Z6.991 F2500.000
G1 X-1.505 Y102.598 Z6.998 F2500.000
G1 X-1.037 Y71.868 Z6.998 F2500.000
G1 X-1.023 Y70.935 Z6.987 F2500.000
G1 X-1.009 Y70.002 Z6.998 F2500.000
G1 X-0.849 Y59.536 Z6.983 F2500.000
G1 X-0.695 Y49.404 Z6.995 F2500.000
G1 X-0.351 Y26.807 Z7.000 F2500.000
G1 X-0.258 Y26.698 Z7.000 F2500.000
G1 X-0.123 Y26.764 Z7.000 F2500.000
G1 X-0.019 Y33.173 Z7.000 F2500.000
(Break)
G0 Z10.000
G0 X0.281 Y33.169
(part 43.)
G1 X0.281 Y33.169 Z6.999 F2500.000
G1 X0.294 Y34.018 Z6.999 F2500.000
G1 X0.322 Y35.718 Z6.999 F2500.000
G1 X0.336 Y36.568 Z6.993 F2500.000
G1 X0.349 Y37.418 Z6.999 F2500.000
G1 X0.446 Y43.367 Z6.999 F2500.000
G1 X0.685 Y58.165 Z6.995 F2500.000
G1 X0.797 Y65.064 Z6.989 F2500.000
G1 X0.899 Y71.364 Z6.998 F2500.000
G1 X1.902 Y133.355 Z6.997 F2500.000
G1 X1.915 Y134.155 Z6.988 F2500.000
G1 X1.927 Y134.855 Z6.997 F2500.000
G1 X2.375 Y162.552 Z6.996 F2500.000
G1 X2.385 Y163.152 Z6.990 F2500.000
G1 X2.391 Y163.551 Z6.996 F2500.000
G1 X3.229 Y215.345 Z6.992 F2500.000
G1 X3.241 Y216.045 Z6.988 F2500.000
G1 X3.252 Y216.745 Z6.992 F2500.000
G1 X3.621 Y239.542 Z6.990 F2500.000
G1 X3.637 Y240.541 Z6.978 F2500.000
G1 X3.650 Y241.341 Z6.990 F2500.000
G1 X3.903 Y256.939 Z6.986 F2500.000
G1 X4.356 Y284.936 Z6.986 F2500.000
G1 X4.359 Y285.136 Z6.978 F2500.000
G1 X4.366 Y285.536 Z6.986 F2500.000
G1 X4.686 Y305.333 Z6.985 F2500.000
G1 X4.693 Y305.733 Z6.976 F2500.000
G1 X4.706 Y306.533 Z6.984 F2500.000
G1 X5.000 Y324.730 Z6.983 F2500.000
G1 X5.007 Y325.130 Z6.979 F2500.000
G1 X5.020 Y325.930 Z6.983 F2500.000
G1 X5.563 Y359.526 Z6.979 F2500.000
G1 X5.580 Y360.526 Z6.971 F2500.000
G1 X5.583 Y360.726 Z6.978 F2500.000
G1 X5.615 Y362.725 Z6.978 F2500.000
G1 X5.774 Y372.524 Z6.968 F2500.000
G1 X5.793 Y373.724 Z6.963 F2500.000
G1 X5.826 Y375.724 Z6.943 F2500.000
G1 X5.835 Y376.324 Z6.975 F2500.000
G1 X5.848 Y377.124 Z6.976 F2500.000
G1 X6.081 Y391.522 Z6.974 F2500.000
G1 X6.088 Y391.922 Z6.970 F2500.000
G1 X6.097 Y392.522 Z6.974 F2500.000
G1 X6.120 Y393.921 Z6.970 F2500.000
G1 X6.166 Y396.788 Z6.958 F2500.000
G1 X6.198 Y398.721 Z6.945 F2500.000
G1 X6.220 Y400.121 Z6.931 F2500.000
G1 X6.237 Y401.120 Z6.916 F2500.000
G1 X6.250 Y401.920 Z6.899 F2500.000
G1 X6.261 Y402.620 Z6.880 F2500.000
G1 X6.269 Y403.120 Z6.879 F2500.000
G1 X6.296 Y404.787 Z6.935 F2500.000
G1 X6.318 Y406.120 Z6.970 F2500.000
G1 X6.324 Y406.520 Z6.959 F2500.000
G1 X6.334 Y407.120 Z6.971 F2500.000
G1 X6.389 Y410.519 Z6.947 F2500.000
G1 X6.276 Y410.609 Z6.946 F2500.000
G1 X5.877 Y410.626 Z6.947 F2500.000
G1 X5.477 Y410.649 Z6.947 F2500.000
G1 X4.480 Y410.720 Z6.947 F2500.000
G1 X4.081 Y410.756 Z6.946 F2500.000
G1 X3.485 Y410.818 Z6.944 F2500.000
G1 X3.087 Y410.862 Z6.943 F2500.000
G1 X2.690 Y410.912 Z6.940 F2500.000
G1 X1.898 Y411.022 Z6.933 F2500.000
G1 X1.305 Y411.114 Z6.928 F2500.000
G1 X0.320 Y411.288 Z6.914 F2500.000
G1 X-0.269 Y411.404 Z6.904 F2500.000
G1 X-1.051 Y411.570 Z6.889 F2500.000
G1 X-1.636 Y411.705 Z6.875 F2500.000
G1 X-2.605 Y411.950 Z6.849 F2500.000
G1 X-3.184 Y412.107 Z6.831 F2500.000
G1 X-3.953 Y412.330 Z6.855 F2500.000
G1 X-4.335 Y412.446 Z6.866 F2500.000
G1 X-4.717 Y412.567 Z6.875 F2500.000
G1 X-5.287 Y412.753 Z6.887 F2500.000
G1 X-5.666 Y412.882 Z6.894 F2500.000
G1 X-6.419 Y413.152 Z6.905 F2500.000
G1 X-6.536 Y413.121 Z6.905 F2500.000
G1 X-6.521 Y412.121 Z6.881 F2500.000
G1 X-6.505 Y411.122 Z6.847 F2500.000
G1 X-6.496 Y410.522 Z6.842 F2500.000
G1 X-6.487 Y409.922 Z6.870 F2500.000
G1 X-6.472 Y408.922 Z6.910 F2500.000
G1 X-6.457 Y407.922 Z6.943 F2500.000
G1 X-6.442 Y406.922 Z6.971 F2500.000
G1 X-6.426 Y405.922 Z6.971 F2500.000
G1 X-6.408 Y404.722 Z6.966 F2500.000
G1 X-6.378 Y402.723 Z6.952 F2500.000
G1 X-6.347 Y400.723 Z6.932 F2500.000
G1 X-6.329 Y399.523 Z6.915 F2500.000
G1 X-6.314 Y398.523 Z6.895 F2500.000
G1 X-6.289 Y396.923 Z6.852 F2500.000
G1 X-6.274 Y395.923 Z6.888 F2500.000
G1 X-6.259 Y394.923 Z6.918 F2500.000
G1 X-6.240 Y393.724 Z6.948 F2500.000
G1 X-6.222 Y392.524 Z6.971 F2500.000
G1 X-6.198 Y390.924 Z6.972 F2500.000
G1 X-6.152 Y387.924 Z6.955 F2500.000
G1 X-6.122 Y385.924 Z6.965 F2500.000
G1 X-6.070 Y382.525 Z6.972 F2500.000
G1 X-5.975 Y376.326 Z6.975 F2500.000
G1 X-5.948 Y374.526 Z6.930 F2500.000
G1 X-5.930 Y373.326 Z6.892 F2500.000
G1 X-5.911 Y372.126 Z6.847 F2500.000
G1 X-5.896 Y371.126 Z6.801 F2500.000
G1 X-5.887 Y370.526 Z6.777 F2500.000
G1 X-5.875 Y369.726 Z6.815 F2500.000
G1 X-5.860 Y368.726 Z6.851 F2500.000
G1 X-5.844 Y367.727 Z6.880 F2500.000
G1 X-5.826 Y366.527 Z6.907 F2500.000
G1 X-5.799 Y364.727 Z6.937 F2500.000
G1 X-5.774 Y363.127 Z6.957 F2500.000
G1 X-5.738 Y360.727 Z6.979 F2500.000
G1 X-5.735 Y360.527 Z6.971 F2500.000
G1 X-5.720 Y359.528 Z6.978 F2500.000
G1 X-5.692 Y357.728 Z6.979 F2500.000
G1 X-5.485 Y344.129 Z6.981 F2500.000
G1 X-5.473 Y343.329 Z6.974 F2500.000
G1 X-5.454 Y342.130 Z6.981 F2500.000
G1 X-4.909 Y306.334 Z6.984 F2500.000
G1 X-4.900 Y305.734 Z6.976 F2500.000
G1 X-4.891 Y305.134 Z6.984 F2500.000
G1 X-4.842 Y301.934 Z6.985 F2500.000
G1 X-4.675 Y290.935 Z6.979 F2500.000
G1 X-4.647 Y289.136 Z6.975 F2500.000
G1 X-4.611 Y286.736 Z6.962 F2500.000
G1 X-4.592 Y285.536 Z6.986 F2500.000
G1 X-4.492 Y278.937 Z6.987 F2500.000
G1 X-4.254 Y263.339 Z6.985 F2500.000
G1 X-3.153 Y191.047 Z6.993 F2500.000
G1 X-3.129 Y189.447 Z6.991 F2500.000
G1 X-2.740 Y163.950 Z6.995 F2500.000
G1 X-2.725 Y162.950 Z6.990 F2500.000
G1 X-2.716 Y162.350 Z6.995 F2500.000
G1 X-2.295 Y134.754 Z6.996 F2500.000
G1 X-2.286 Y134.154 Z6.988 F2500.000
G1 X-2.271 Y133.154 Z6.996 F2500.000
G1 X-1.330 Y71.361 Z6.998 F2500.000
G1 X-1.244 Y65.762 Z6.994 F2500.000
G1 X-1.138 Y58.762 Z6.982 F2500.000
G1 X-0.966 Y47.497 Z6.995 F2500.000
G1 X-0.811 Y37.298 Z6.999 F2500.000
G1 X-0.800 Y36.565 Z6.992 F2500.000
G1 X-0.784 Y35.565 Z6.999 F2500.000
G1 X-0.647 Y26.566 Z6.999 F2500.000
G1 X-0.613 Y26.398 Z6.999 F2500.000
G1 X-0.013 Y26.398 Z7.000 F2500.000
G1 X0.171 Y26.414 Z7.000 F2500.000
G1 X0.281 Y33.169 Z6.999 F2500.000
(Break)
G0 Z10.000
G0 X0.581 Y33.164
(part 45.)
G1 X0.581 Y33.164 Z6.999 F2500.000
G1 X0.594 Y34.014 Z6.999 F2500.000
G1 X0.622 Y35.713 Z6.999 F2500.000
G1 X0.636 Y36.563 Z6.992 F2500.000
G1 X0.649 Y37.413 Z6.999 F2500.000
G1 X0.817 Y47.762 Z6.998 F2500.000
G1 X1.024 Y60.560 Z6.995 F2500.000
G1 X1.108 Y65.759 Z6.990 F2500.000
G1 X1.203 Y71.625 Z6.998 F2500.000
G1 X2.202 Y133.351 Z6.996 F2500.000
G1 X2.212 Y133.951 Z6.993 F2500.000
G1 X2.222 Y134.550 Z6.996 F2500.000
G1 X2.675 Y162.547 Z6.995 F2500.000
G1 X2.685 Y163.147 Z6.989 F2500.000
G1 X2.691 Y163.547 Z6.995 F2500.000
G1 X3.924 Y239.737 Z6.988 F2500.000
G1 X3.937 Y240.537 Z6.976 F2500.000
G1 X3.953 Y241.536 Z6.988 F2500.000
G1 X4.303 Y263.134 Z6.986 F2500.000
G1 X4.306 Y263.334 Z6.984 F2500.000
G1 X4.310 Y263.534 Z6.975 F2500.000
G1 X4.313 Y263.734 Z6.986 F2500.000
G1 X4.326 Y264.533 Z6.986 F2500.000
G1 X4.653 Y284.731 Z6.985 F2500.000
G1 X4.662 Y285.331 Z6.981 F2500.000
G1 X4.672 Y285.931 Z6.985 F2500.000
G1 X5.591 Y342.723 Z6.978 F2500.000
G1 X5.601 Y343.323 Z6.971 F2500.000
G1 X5.604 Y343.523 Z6.978 F2500.000
G1 X5.873 Y360.121 Z6.976 F2500.000
G1 X5.879 Y360.521 Z6.968 F2500.000
G1 X5.883 Y360.721 Z6.976 F2500.000
G1 X5.889 Y361.121 Z6.976 F2500.000
G1 X6.077 Y372.719 Z6.968 F2500.000
G1 X6.100 Y374.119 Z6.962 F2500.000
G1 X6.119 Y375.319 Z6.949 F2500.000
G1 X6.129 Y375.919 Z6.951 F2500.000
G1 X6.142 Y376.719 Z6.961 F2500.000
G1 X6.151 Y377.319 Z6.973 F2500.000
G1 X6.394 Y392.317 Z6.971 F2500.000
G1 X6.469 Y396.916 Z6.956 F2500.000
G1 X6.507 Y399.316 Z6.940 F2500.000
G1 X6.533 Y400.916 Z6.921 F2500.000
G1 X6.550 Y401.915 Z6.903 F2500.000
G1 X6.559 Y402.515 Z6.888 F2500.000
G1 X6.572 Y403.315 Z6.882 F2500.000
G1 X6.582 Y403.915 Z6.904 F2500.000
G1 X6.605 Y405.315 Z6.948 F2500.000
G1 X6.621 Y406.315 Z6.968 F2500.000
G1 X6.653 Y408.315 Z6.962 F2500.000
G1 X6.692 Y410.714 Z6.944 F2500.000
G1 X6.676 Y410.896 Z6.943 F2500.000
G1 X6.076 Y410.917 Z6.943 F2500.000
G1 X5.677 Y410.937 Z6.944 F2500.000
G1 X4.679 Y411.005 Z6.943 F2500.000
G1 X4.280 Y411.039 Z6.942 F2500.000
G1 X3.882 Y411.078 Z6.941 F2500.000
G1 X3.286 Y411.141 Z6.938 F2500.000
G1 X2.888 Y411.189 Z6.935 F2500.000
G1 X1.898 Y411.325 Z6.927 F2500.000
G1 X1.502 Y411.386 Z6.922 F2500.000
G1 X1.108 Y411.452 Z6.917 F2500.000
G1 X0.517 Y411.557 Z6.909 F2500.000
G1 X0.124 Y411.631 Z6.902 F2500.000
G1 X-0.855 Y411.835 Z6.882 F2500.000
G1 X-1.245 Y411.922 Z6.873 F2500.000
G1 X-1.635 Y412.014 Z6.863 F2500.000
G1 X-2.604 Y412.260 Z6.834 F2500.000
G1 X-2.797 Y412.311 Z6.833 F2500.000
G1 X-3.182 Y412.419 Z6.846 F2500.000
G1 X-3.759 Y412.585 Z6.862 F2500.000
G1 X-4.333 Y412.760 Z6.876 F2500.000
G1 X-5.284 Y413.069 Z6.895 F2500.000
G1 X-5.851 Y413.266 Z6.904 F2500.000
G1 X-6.790 Y413.609 Z6.915 F2500.000
G1 X-6.842 Y413.488 Z6.913 F2500.000
G1 X-6.817 Y411.888 Z6.878 F2500.000
G1 X-6.805 Y411.088 Z6.850 F2500.000
G1 X-6.796 Y410.488 Z6.838 F2500.000
G1 X-6.787 Y409.888 Z6.867 F2500.000
G1 X-6.771 Y408.889 Z6.907 F2500.000
G1 X-6.750 Y407.489 Z6.953 F2500.000
G1 X-6.741 Y406.889 Z6.969 F2500.000
G1 X-6.735 Y406.489 Z6.960 F2500.000
G1 X-6.723 Y405.689 Z6.968 F2500.000
G1 X-6.671 Y402.289 Z6.948 F2500.000
G1 X-6.641 Y400.290 Z6.927 F2500.000
G1 X-6.610 Y398.290 Z6.892 F2500.000
G1 X-6.589 Y396.890 Z6.850 F2500.000
G1 X-6.558 Y394.890 Z6.915 F2500.000
G1 X-6.525 Y392.690 Z6.966 F2500.000
G1 X-6.516 Y392.090 Z6.962 F2500.000
G1 X-6.506 Y391.491 Z6.971 F2500.000
G1 X-6.452 Y387.891 Z6.952 F2500.000
G1 X-6.412 Y385.291 Z6.963 F2500.000
G1 X-6.363 Y382.092 Z6.970 F2500.000
G1 X-6.278 Y376.492 Z6.973 F2500.000
G1 X-6.269 Y375.892 Z6.964 F2500.000
G1 X-6.244 Y374.293 Z6.922 F2500.000
G1 X-6.226 Y373.093 Z6.884 F2500.000
G1 X-6.208 Y371.893 Z6.838 F2500.000
G1 X-6.190 Y370.693 Z6.780 F2500.000
G1 X-6.180 Y370.093 Z6.789 F2500.000
G1 X-6.168 Y369.293 Z6.823 F2500.000
G1 X-6.156 Y368.493 Z6.851 F2500.000
G1 X-6.135 Y367.093 Z6.889 F2500.000
G1 X-6.123 Y366.293 Z6.906 F2500.000
G1 X-6.095 Y364.494 Z6.936 F2500.000
G1 X-6.074 Y363.094 Z6.954 F2500.000
G1 X-6.037 Y360.694 Z6.976 F2500.000
G1 X-6.034 Y360.494 Z6.966 F2500.000
G1 X-6.031 Y360.294 Z6.974 F2500.000
G1 X-6.019 Y359.494 Z6.972 F2500.000
G1 X-5.973 Y356.495 Z6.977 F2500.000
G1 X-5.501 Y325.498 Z6.981 F2500.000
G1 X-5.492 Y324.898 Z6.975 F2500.000
G1 X-5.483 Y324.298 Z6.981 F2500.000
G1 X-5.184 Y304.701 Z6.983 F2500.000
G1 X-4.983 Y291.502 Z6.976 F2500.000
G1 X-4.944 Y288.902 Z6.968 F2500.000
G1 X-4.916 Y287.103 Z6.953 F2500.000
G1 X-4.898 Y285.903 Z6.977 F2500.000
G1 X-4.880 Y284.703 Z6.985 F2500.000
G1 X-4.566 Y264.105 Z6.986 F2500.000
G1 X-4.557 Y263.505 Z6.972 F2500.000
G1 X-4.551 Y263.105 Z6.986 F2500.000
G1 X-3.455 Y191.214 Z6.992 F2500.000
G1 X-3.420 Y188.914 Z6.987 F2500.000
G1 X-3.340 Y183.615 Z6.992 F2500.000
G1 X-3.040 Y163.917 Z6.994 F2500.000
G1 X-3.024 Y162.917 Z6.990 F2500.000
G1 X-3.015 Y162.317 Z6.994 F2500.000
G1 X-2.976 Y159.717 Z6.994 F2500.000
G1 X-1.635 Y71.728 Z6.997 F2500.000
G1 X-1.529 Y64.728 Z6.993 F2500.000
G1 X-1.422 Y57.729 Z6.981 F2500.000
G1 X-1.248 Y46.331 Z6.995 F2500.000
G1 X-0.941 Y26.133 Z6.999 F2500.000
G1 X-0.775 Y26.098 Z6.999 F2500.000
G1 X0.425 Y26.098 Z6.999 F2500.000
G1 X0.469 Y26.256 Z6.999 F2500.000
G1 X0.581 Y33.164 Z6.999 F2500.000
(Break)
G0 Z10.000
G0 X0.880 Y33.159
(part 47.)
G1 X0.880 Y33.159 Z6.998 F2500.000
G1 X0.894 Y34.009 Z6.998 F2500.000
G1 X0.922 Y35.709 Z6.998 F2500.000
G1 X0.936 Y36.558 Z6.991 F2500.000
G1 X0.950 Y37.458 Z6.998 F2500.000
G1 X1.198 Y52.756 Z6.998 F2500.000
G1 X1.428 Y66.954 Z6.991 F2500.000
G1 X1.505 Y71.754 Z6.997 F2500.000
G1 X2.009 Y102.850 Z6.997 F2500.000
G1 X2.020 Y103.550 Z6.993 F2500.000
G1 X2.033 Y104.350 Z6.997 F2500.000
G1 X2.502 Y133.346 Z6.996 F2500.000
G1 X2.515 Y134.146 Z6.986 F2500.000
G1 X2.525 Y134.746 Z6.995 F2500.000
G1 X3.420 Y190.038 Z6.991 F2500.000
G1 X3.428 Y190.538 Z6.988 F2500.000
G1 X3.443 Y191.438 Z6.991 F2500.000
G1 X3.833 Y215.535 Z6.989 F2500.000
G1 X3.846 Y216.335 Z6.986 F2500.000
G1 X3.857 Y217.035 Z6.989 F2500.000
G1 X4.228 Y239.932 Z6.987 F2500.000
G1 X4.237 Y240.532 Z6.974 F2500.000
G1 X4.247 Y241.132 Z6.987 F2500.000
G1 X4.597 Y262.729 Z6.984 F2500.000
G1 X4.609 Y263.529 Z6.973 F2500.000
G1 X4.613 Y263.729 Z6.984 F2500.000
G1 X4.616 Y263.929 Z6.984 F2500.000
G1 X5.280 Y304.923 Z6.981 F2500.000
G1 X5.292 Y305.723 Z6.971 F2500.000
G1 X5.299 Y306.123 Z6.981 F2500.000
G1 X5.600 Y324.721 Z6.978 F2500.000
G1 X5.606 Y325.121 Z6.974 F2500.000
G1 X5.619 Y325.921 Z6.978 F2500.000
G1 X5.888 Y342.518 Z6.976 F2500.000
G1 X5.901 Y343.318 Z6.968 F2500.000
G1 X5.908 Y343.718 Z6.976 F2500.000
G1 X6.160 Y359.316 Z6.973 F2500.000
G1 X6.176 Y360.316 Z6.970 F2500.000
G1 X6.179 Y360.516 Z6.965 F2500.000
G1 X6.183 Y360.716 Z6.973 F2500.000
G1 X6.280 Y366.715 Z6.972 F2500.000
G1 X6.396 Y373.914 Z6.964 F2500.000
G1 X6.416 Y375.114 Z6.957 F2500.000
G1 X6.425 Y375.714 Z6.945 F2500.000
G1 X6.429 Y375.914 Z6.948 F2500.000
G1 X6.435 Y376.314 Z6.969 F2500.000
G1 X6.448 Y377.114 Z6.971 F2500.000
G1 X6.678 Y391.312 Z6.969 F2500.000
G1 X6.688 Y391.912 Z6.965 F2500.000
G1 X6.697 Y392.512 Z6.968 F2500.000
G1 X6.736 Y394.911 Z6.963 F2500.000
G1 X6.782 Y397.711 Z6.951 F2500.000
G1 X6.809 Y399.411 Z6.939 F2500.000
G1 X6.843 Y401.511 Z6.914 F2500.000
G1 X6.861 Y402.610 Z6.890 F2500.000
G1 X6.869 Y403.110 Z6.873 F2500.000
G1 X6.872 Y403.310 Z6.877 F2500.000
G1 X6.885 Y404.110 Z6.907 F2500.000
G1 X6.905 Y405.310 Z6.944 F2500.000
G1 X6.917 Y406.110 Z6.964 F2500.000
G1 X6.924 Y406.510 Z6.955 F2500.000
G1 X6.927 Y406.710 Z6.965 F2500.000
G1 X6.930 Y406.910 Z6.966 F2500.000
G1 X6.961 Y408.810 Z6.957 F2500.000
G1 X6.998 Y411.109 Z6.940 F2500.000
G1 X6.876 Y411.189 Z6.939 F2500.000
G1 X5.877 Y411.227 Z6.940 F2500.000
G1 X5.478 Y411.250 Z6.941 F2500.000
G1 X4.680 Y411.306 Z6.939 F2500.000
G1 X4.281 Y411.340 Z6.937 F2500.000
G1 X3.883 Y411.380 Z6.936 F2500.000
G1 X3.286 Y411.443 Z6.932 F2500.000
G1 X2.889 Y411.491 Z6.929 F2500.000
G1 X1.899 Y411.628 Z6.919 F2500.000
G1 X1.306 Y411.723 Z6.911 F2500.000
G1 X0.518 Y411.861 Z6.899 F2500.000
G1 X0.125 Y411.936 Z6.892 F2500.000
G1 X-0.267 Y412.016 Z6.884 F2500.000
G1 X-0.853 Y412.141 Z6.870 F2500.000
G1 X-1.244 Y412.229 Z6.860 F2500.000
G1 X-1.633 Y412.322 Z6.849 F2500.000
G1 X-2.214 Y412.469 Z6.831 F2500.000
G1 X-2.602 Y412.569 Z6.842 F2500.000
G1 X-2.987 Y412.675 Z6.853 F2500.000
G1 X-3.756 Y412.897 Z6.874 F2500.000
G1 X-4.139 Y413.013 Z6.882 F2500.000
G1 X-4.520 Y413.134 Z6.890 F2500.000
G1 X-5.090 Y413.320 Z6.900 F2500.000
G1 X-5.469 Y413.449 Z6.906 F2500.000
G1 X-6.410 Y413.788 Z6.917 F2500.000
G1 X-6.971 Y414.001 Z6.922 F2500.000
G1 X-7.150 Y414.065 Z6.923 F2500.000
G1 X-7.132 Y412.865 Z6.903 F2500.000
G1 X-7.120 Y412.066 Z6.885 F2500.000
G1 X-7.111 Y411.466 Z6.868 F2500.000
G1 X-7.100 Y410.766 Z6.842 F2500.000
G1 X-7.089 Y410.066 Z6.853 F2500.000
G1 X-7.068 Y408.666 Z6.911 F2500.000
G1 X-7.044 Y407.066 Z6.962 F2500.000
G1 X-7.035 Y406.466 Z6.959 F2500.000
G1 X-7.025 Y405.866 Z6.966 F2500.000
G1 X-7.001 Y404.266 Z6.960 F2500.000
G1 X-6.962 Y401.667 Z6.941 F2500.000
G1 X-6.928 Y399.467 Z6.916 F2500.000
G1 X-6.907 Y398.067 Z6.889 F2500.000
G1 X-6.885 Y396.667 Z6.850 F2500.000
G1 X-6.873 Y395.867 Z6.880 F2500.000
G1 X-6.853 Y394.568 Z6.919 F2500.000
G1 X-6.834 Y393.268 Z6.952 F2500.000
G1 X-6.821 Y392.468 Z6.967 F2500.000
G1 X-6.806 Y391.468 Z6.968 F2500.000
G1 X-6.785 Y390.068 Z6.963 F2500.000
G1 X-6.742 Y387.268 Z6.948 F2500.000
G1 X-6.690 Y383.869 Z6.962 F2500.000
G1 X-6.578 Y376.470 Z6.971 F2500.000
G1 X-6.559 Y375.270 Z6.946 F2500.000
G1 X-6.538 Y373.870 Z6.908 F2500.000
G1 X-6.508 Y371.870 Z6.838 F2500.000
G1 X-6.492 Y370.870 Z6.792 F2500.000
G1 X-6.477 Y369.870 Z6.789 F2500.000
G1 X-6.468 Y369.271 Z6.815 F2500.000
G1 X-6.456 Y368.471 Z6.844 F2500.000
G1 X-6.434 Y367.071 Z6.884 F2500.000
G1 X-6.416 Y365.871 Z6.909 F2500.000
G1 X-6.395 Y364.471 Z6.933 F2500.000
G1 X-6.364 Y362.471 Z6.958 F2500.000
G1 X-6.337 Y360.672 Z6.973 F2500.000
G1 X-6.334 Y360.472 Z6.961 F2500.000
G1 X-6.325 Y359.872 Z6.968 F2500.000
G1 X-6.322 Y359.672 Z6.964 F2500.000
G1 X-6.297 Y358.072 Z6.971 F2500.000
G1 X-6.246 Y354.672 Z6.974 F2500.000
G1 X-5.804 Y325.676 Z6.978 F2500.000
G1 X-5.792 Y324.876 Z6.974 F2500.000
G1 X-5.783 Y324.276 Z6.978 F2500.000
G1 X-5.493 Y305.278 Z6.981 F2500.000
G1 X-5.350 Y295.879 Z6.978 F2500.000
G1 X-5.265 Y290.280 Z6.968 F2500.000
G1 X-5.219 Y287.280 Z6.948 F2500.000
G1 X-5.192 Y285.480 Z6.983 F2500.000
G1 X-4.866 Y264.083 Z6.984 F2500.000
G1 X-4.856 Y263.483 Z6.973 F2500.000
G1 X-4.847 Y262.883 Z6.984 F2500.000
G1 X-4.515 Y241.085 Z6.986 F2500.000
G1 X-4.506 Y240.485 Z6.976 F2500.000
G1 X-4.497 Y239.886 Z6.986 F2500.000
G1 X-4.141 Y216.488 Z6.988 F2500.000
G1 X-4.134 Y216.088 Z6.982 F2500.000
G1 X-4.125 Y215.488 Z6.988 F2500.000
G1 X-3.757 Y191.291 Z6.990 F2500.000
G1 X-3.745 Y190.491 Z6.985 F2500.000
G1 X-3.738 Y190.091 Z6.990 F2500.000
G1 X-3.720 Y188.891 Z6.979 F2500.000
G1 X-3.687 Y186.692 Z6.988 F2500.000
G1 X-3.595 Y180.692 Z6.991 F2500.000
G1 X-2.432 Y104.301 Z6.996 F2500.000
G1 X-2.416 Y103.301 Z6.991 F2500.000
G1 X-2.401 Y102.302 Z6.996 F2500.000
G1 X-1.930 Y71.405 Z6.997 F2500.000
G1 X-1.804 Y63.106 Z6.990 F2500.000
G1 X-1.713 Y57.107 Z6.980 F2500.000
G1 X-1.527 Y44.908 Z6.995 F2500.000
G1 X-1.411 Y37.309 Z6.998 F2500.000
G1 X-1.400 Y36.609 Z6.994 F2500.000
G1 X-1.390 Y35.909 Z6.998 F2500.000
G1 X-1.237 Y25.910 Z6.998 F2500.000
G1 X-1.148 Y25.798 Z6.998 F2500.000
G1 X0.652 Y25.798 Z6.999 F2500.000
G1 X0.763 Y25.888 Z6.999 F2500.000
G1 X0.880 Y33.159 Z6.998 F2500.000
(Break)
G0 Z10.000
G0 X1.180 Y33.154
(part 49.)
G1 X1.180 Y33.154 Z6.998 F2500.000
G1 X1.194 Y34.021 Z6.998 F2500.000
G1 X1.223 Y35.754 Z6.998 F2500.000
G1 X1.234 Y36.454 Z6.987 F2500.000
G1 X1.245 Y37.153 Z6.998 F2500.000
G1 X1.575 Y57.551 Z6.997 F2500.000
G1 X1.744 Y67.949 Z6.992 F2500.000
G1 X1.803 Y71.616 Z6.997 F2500.000
G1 X2.436 Y110.744 Z6.996 F2500.000
G1 X2.802 Y133.341 Z6.994 F2500.000
G1 X2.815 Y134.141 Z6.985 F2500.000
G1 X2.828 Y134.941 Z6.994 F2500.000
G1 X3.720 Y190.033 Z6.989 F2500.000
G1 X3.728 Y190.533 Z6.986 F2500.000
G1 X3.741 Y191.333 Z6.989 F2500.000
G1 X4.136 Y215.730 Z6.987 F2500.000
G1 X4.146 Y216.330 Z6.984 F2500.000
G1 X4.152 Y216.730 Z6.987 F2500.000
G1 X4.527 Y239.927 Z6.985 F2500.000
G1 X4.537 Y240.527 Z6.972 F2500.000
G1 X4.547 Y241.127 Z6.985 F2500.000
G1 X4.897 Y262.724 Z6.983 F2500.000
G1 X4.909 Y263.524 Z6.971 F2500.000
G1 X4.913 Y263.724 Z6.982 F2500.000
G1 X4.916 Y263.924 Z6.983 F2500.000
G1 X5.249 Y284.521 Z6.981 F2500.000
G1 X5.259 Y285.121 Z6.974 F2500.000
G1 X5.269 Y285.721 Z6.981 F2500.000
G1 X5.580 Y304.918 Z6.978 F2500.000
G1 X5.592 Y305.718 Z6.968 F2500.000
G1 X5.599 Y306.118 Z6.978 F2500.000
G1 X5.897 Y324.516 Z6.976 F2500.000
G1 X5.906 Y325.116 Z6.971 F2500.000
G1 X5.916 Y325.716 Z6.975 F2500.000
G1 X6.089 Y336.414 Z6.974 F2500.000
G1 X6.463 Y359.511 Z6.971 F2500.000
G1 X6.476 Y360.311 Z6.967 F2500.000
G1 X6.479 Y360.511 Z6.962 F2500.000
G1 X6.483 Y360.711 Z6.970 F2500.000
G1 X6.622 Y369.310 Z6.969 F2500.000
G1 X6.706 Y374.509 Z6.963 F2500.000
G1 X6.716 Y375.109 Z6.960 F2500.000
G1 X6.727 Y375.809 Z6.950 F2500.000
G1 X6.738 Y376.509 Z6.967 F2500.000
G1 X6.748 Y377.109 Z6.968 F2500.000
G1 X6.981 Y391.507 Z6.966 F2500.000
G1 X6.988 Y391.907 Z6.963 F2500.000
G1 X7.001 Y392.707 Z6.965 F2500.000
G1 X7.046 Y395.507 Z6.959 F2500.000
G1 X7.114 Y399.706 Z6.936 F2500.000
G1 X7.133 Y400.906 Z6.924 F2500.000
G1 X7.149 Y401.906 Z6.909 F2500.000
G1 X7.159 Y402.506 Z6.896 F2500.000
G1 X7.172 Y403.306 Z6.872 F2500.000
G1 X7.188 Y404.305 Z6.909 F2500.000
G1 X7.208 Y405.505 Z6.946 F2500.000
G1 X7.217 Y406.105 Z6.962 F2500.000
G1 X7.221 Y406.305 Z6.963 F2500.000
G1 X7.263 Y408.905 Z6.954 F2500.000
G1 X7.302 Y411.304 Z6.937 F2500.000
G1 X7.279 Y411.480 Z6.935 F2500.000
G1 X6.880 Y411.489 Z6.936 F2500.000
G1 X6.080 Y411.518 Z6.937 F2500.000
G1 X5.681 Y411.538 Z6.937 F2500.000
G1 X5.281 Y411.564 Z6.936 F2500.000
G1 X4.683 Y411.607 Z6.934 F2500.000
G1 X4.284 Y411.641 Z6.933 F2500.000
G1 X3.489 Y411.723 Z6.927 F2500.000
G1 X3.091 Y411.768 Z6.924 F2500.000
G1 X2.694 Y411.819 Z6.921 F2500.000
G1 X2.100 Y411.902 Z6.914 F2500.000
G1 X1.705 Y411.961 Z6.909 F2500.000
G1 X1.310 Y412.026 Z6.903 F2500.000
G1 X0.326 Y412.203 Z6.885 F2500.000
G1 X-0.067 Y412.281 Z6.877 F2500.000
G1 X-0.849 Y412.447 Z6.858 F2500.000
G1 X-1.434 Y412.582 Z6.841 F2500.000
G1 X-1.822 Y412.679 Z6.832 F2500.000
G1 X-2.403 Y412.827 Z6.850 F2500.000
G1 X-2.789 Y412.931 Z6.860 F2500.000
G1 X-3.558 Y413.152 Z6.880 F2500.000
G1 X-4.133 Y413.326 Z6.892 F2500.000
G1 X-5.084 Y413.635 Z6.908 F2500.000
G1 X-5.651 Y413.831 Z6.915 F2500.000
G1 X-6.590 Y414.175 Z6.924 F2500.000
G1 X-7.334 Y414.468 Z6.927 F2500.000
G1 X-7.456 Y414.450 Z6.927 F2500.000
G1 X-7.438 Y413.250 Z6.911 F2500.000
G1 X-7.417 Y411.850 Z6.882 F2500.000
G1 X-7.411 Y411.451 Z6.871 F2500.000
G1 X-7.395 Y410.451 Z6.833 F2500.000
G1 X-7.392 Y410.251 Z6.838 F2500.000
G1 X-7.368 Y408.651 Z6.908 F2500.000
G1 X-7.350 Y407.451 Z6.948 F2500.000
G1 X-7.344 Y407.051 Z6.959 F2500.000
G1 X-7.331 Y406.251 Z6.965 F2500.000
G1 X-7.292 Y403.651 Z6.954 F2500.000
G1 X-7.258 Y401.452 Z6.939 F2500.000
G1 X-7.237 Y400.052 Z6.924 F2500.000
G1 X-7.206 Y398.052 Z6.891 F2500.000
G1 X-7.188 Y396.852 Z6.858 F2500.000
G1 X-7.179 Y396.252 Z6.860 F2500.000
G1 X-7.167 Y395.452 Z6.888 F2500.000
G1 X-7.149 Y394.253 Z6.923 F2500.000
G1 X-7.130 Y393.053 Z6.953 F2500.000
G1 X-7.118 Y392.253 Z6.966 F2500.000
G1 X-7.085 Y390.053 Z6.961 F2500.000
G1 X-7.036 Y386.853 Z6.945 F2500.000
G1 X-6.987 Y383.654 Z6.959 F2500.000
G1 X-6.877 Y376.455 Z6.969 F2500.000
G1 X-6.856 Y375.055 Z6.939 F2500.000
G1 X-6.838 Y373.855 Z6.907 F2500.000
G1 X-6.826 Y373.055 Z6.882 F2500.000
G1 X-6.801 Y371.455 Z6.821 F2500.000
G1 X-6.783 Y370.255 Z6.762 F2500.000
G1 X-6.765 Y369.055 Z6.815 F2500.000
G1 X-6.753 Y368.256 Z6.843 F2500.000
G1 X-6.734 Y367.056 Z6.878 F2500.000
G1 X-6.722 Y366.256 Z6.896 F2500.000
G1 X-6.692 Y364.256 Z6.932 F2500.000
G1 X-6.658 Y362.056 Z6.959 F2500.000
G1 X-6.637 Y360.656 Z6.970 F2500.000
G1 X-6.634 Y360.456 Z6.957 F2500.000
G1 X-6.628 Y360.056 Z6.969 F2500.000
G1 X-6.619 Y359.457 Z6.958 F2500.000
G1 X-6.585 Y357.257 Z6.968 F2500.000
G1 X-6.515 Y352.657 Z6.972 F2500.000
G1 X-6.104 Y325.660 Z6.975 F2500.000
G1 X-6.095 Y325.061 Z6.967 F2500.000
G1 X-6.085 Y324.461 Z6.976 F2500.000
G1 X-5.671 Y297.264 Z6.975 F2500.000
G1 X-5.574 Y290.865 Z6.965 F2500.000
G1 X-5.522 Y287.465 Z6.943 F2500.000
G1 X-5.494 Y285.665 Z6.978 F2500.000
G1 X-5.488 Y285.265 Z6.973 F2500.000
G1 X-5.479 Y284.665 Z6.981 F2500.000
G1 X-5.165 Y264.068 Z6.983 F2500.000
G1 X-5.156 Y263.468 Z6.972 F2500.000
G1 X-5.147 Y262.868 Z6.983 F2500.000
G1 X-4.815 Y241.070 Z6.984 F2500.000
G1 X-4.806 Y240.470 Z6.976 F2500.000
G1 X-4.797 Y239.870 Z6.985 F2500.000
G1 X-4.057 Y191.276 Z6.989 F2500.000
G1 X-4.044 Y190.476 Z6.983 F2500.000
G1 X-4.032 Y189.676 Z6.984 F2500.000
G1 X-4.020 Y188.876 Z6.975 F2500.000
G1 X-3.974 Y185.877 Z6.985 F2500.000
G1 X-3.858 Y178.278 Z6.990 F2500.000
G1 X-3.194 Y134.683 Z6.993 F2500.000
G1 X-3.185 Y134.083 Z6.981 F2500.000
G1 X-3.178 Y133.583 Z6.993 F2500.000
G1 X-2.725 Y103.886 Z6.995 F2500.000
G1 X-2.716 Y103.286 Z6.991 F2500.000
G1 X-2.707 Y102.686 Z6.995 F2500.000
G1 X-2.235 Y71.690 Z6.996 F2500.000
G1 X-2.092 Y62.291 Z6.990 F2500.000
G1 X-1.991 Y55.692 Z6.980 F2500.000
G1 X-1.795 Y42.827 Z6.995 F2500.000
G1 X-1.711 Y37.294 Z6.997 F2500.000
G1 X-1.699 Y36.494 Z6.985 F2500.000
G1 X-1.686 Y35.694 Z6.997 F2500.000
G1 X-1.529 Y25.498 Z6.997 F2500.000
G1 X0.871 Y25.498 Z6.998 F2500.000
G1 X1.057 Y25.513 Z6.998 F2500.000
G1 X1.180 Y33.154 Z6.998 F2500.000
(Break)
G0 Z10.000
G0 X1.480 Y33.149
(part 51.)
G1 X1.480 Y33.149 Z6.997 F2500.000
G1 X1.496 Y34.082 Z6.997 F2500.000
G1 X1.526 Y35.949 Z6.997 F2500.000
G1 X1.535 Y36.549 Z6.989 F2500.000
G1 X1.545 Y37.149 Z6.997 F2500.000
G1 X2.053 Y68.545 Z6.994 F2500.000
G1 X2.477 Y94.741 Z6.996 F2500.000
G1 X2.607 Y102.740 Z6.995 F2500.000
G1 X2.620 Y103.540 Z6.991 F2500.000
G1 X2.633 Y104.340 Z6.995 F2500.000
G1 X3.102 Y133.336 Z6.993 F2500.000
G1 X3.112 Y133.936 Z6.990 F2500.000
G1 X3.122 Y134.536 Z6.992 F2500.000
G1 X3.575 Y162.532 Z6.990 F2500.000
G1 X3.584 Y163.132 Z6.983 F2500.000
G1 X3.591 Y163.532 Z6.990 F2500.000
G1 X4.012 Y189.529 Z6.988 F2500.000
G1 X4.023 Y190.229 Z6.985 F2500.000
G1 X4.034 Y190.928 Z6.988 F2500.000
G1 X4.433 Y215.525 Z6.986 F2500.000
G1 X4.445 Y216.325 Z6.982 F2500.000
G1 X4.449 Y216.525 Z6.985 F2500.000
G1 X5.316 Y270.118 Z6.981 F2500.000
G1 X5.556 Y284.916 Z6.978 F2500.000
G1 X5.559 Y285.116 Z6.972 F2500.000
G1 X5.565 Y285.516 Z6.978 F2500.000
G1 X5.879 Y304.914 Z6.976 F2500.000
G1 X5.892 Y305.713 Z6.966 F2500.000
G1 X5.899 Y306.113 Z6.976 F2500.000
G1 X6.200 Y324.711 Z6.973 F2500.000
G1 X6.206 Y325.111 Z6.968 F2500.000
G1 X6.219 Y325.911 Z6.973 F2500.000
G1 X6.763 Y359.506 Z6.968 F2500.000
G1 X6.776 Y360.306 Z6.965 F2500.000
G1 X6.779 Y360.506 Z6.959 F2500.000
G1 X6.783 Y360.706 Z6.968 F2500.000
G1 X6.941 Y370.505 Z6.967 F2500.000
G1 X7.006 Y374.504 Z6.963 F2500.000
G1 X7.025 Y375.704 Z6.957 F2500.000
G1 X7.038 Y376.504 Z6.965 F2500.000
G1 X7.048 Y377.104 Z6.966 F2500.000
G1 X7.281 Y391.502 Z6.964 F2500.000
G1 X7.288 Y391.902 Z6.960 F2500.000
G1 X7.301 Y392.702 Z6.963 F2500.000
G1 X7.352 Y395.902 Z6.955 F2500.000
G1 X7.393 Y398.401 Z6.945 F2500.000
G1 X7.420 Y400.101 Z6.933 F2500.000
G1 X7.448 Y401.801 Z6.913 F2500.000
G1 X7.475 Y403.501 Z6.874 F2500.000
G1 X7.491 Y404.501 Z6.911 F2500.000
G1 X7.511 Y405.700 Z6.948 F2500.000
G1 X7.521 Y406.300 Z6.961 F2500.000
G1 X7.572 Y409.500 Z6.949 F2500.000
G1 X7.608 Y411.700 Z6.932 F2500.000
G1 X7.486 Y411.777 Z6.931 F2500.000
G1 X7.086 Y411.784 Z6.932 F2500.000
G1 X6.286 Y411.810 Z6.933 F2500.000
G1 X5.887 Y411.827 Z6.933 F2500.000
G1 X5.488 Y411.851 Z6.932 F2500.000
G1 X4.690 Y411.907 Z6.929 F2500.000
G1 X4.291 Y411.942 Z6.927 F2500.000
G1 X3.495 Y412.024 Z6.921 F2500.000
G1 X3.098 Y412.070 Z6.918 F2500.000
G1 X2.701 Y412.121 Z6.913 F2500.000
G1 X2.107 Y412.204 Z6.906 F2500.000
G1 X1.712 Y412.264 Z6.900 F2500.000
G1 X1.317 Y412.329 Z6.893 F2500.000
G1 X0.726 Y412.433 Z6.882 F2500.000
G1 X0.333 Y412.507 Z6.874 F2500.000
G1 X-0.646 Y412.710 Z6.850 F2500.000
G1 X-1.231 Y412.843 Z6.832 F2500.000
G1 X-1.426 Y412.889 Z6.834 F2500.000
G1 X-2.395 Y413.135 Z6.862 F2500.000
G1 X-2.781 Y413.240 Z6.873 F2500.000
G1 X-3.358 Y413.406 Z6.885 F2500.000
G1 X-3.742 Y413.519 Z6.894 F2500.000
G1 X-4.124 Y413.637 Z6.900 F2500.000
G1 X-5.074 Y413.948 Z6.914 F2500.000
G1 X-5.452 Y414.079 Z6.919 F2500.000
G1 X-6.016 Y414.283 Z6.924 F2500.000
G1 X-6.392 Y414.421 Z6.927 F2500.000
G1 X-6.765 Y414.565 Z6.930 F2500.000
G1 X-7.693 Y414.937 Z6.932 F2500.000
G1 X-7.762 Y414.844 Z6.931 F2500.000
G1 X-7.744 Y413.644 Z6.917 F2500.000
G1 X-7.720 Y412.044 Z6.889 F2500.000
G1 X-7.711 Y411.444 Z6.874 F2500.000
G1 X-7.695 Y410.444 Z6.838 F2500.000
G1 X-7.682 Y409.545 Z6.867 F2500.000
G1 X-7.665 Y408.445 Z6.911 F2500.000
G1 X-7.640 Y406.845 Z6.962 F2500.000
G1 X-7.634 Y406.445 Z6.955 F2500.000
G1 X-7.628 Y406.045 Z6.961 F2500.000
G1 X-7.592 Y403.645 Z6.952 F2500.000
G1 X-7.554 Y401.146 Z6.935 F2500.000
G1 X-7.534 Y399.846 Z6.922 F2500.000
G1 X-7.506 Y398.046 Z6.893 F2500.000
G1 X-7.494 Y397.246 Z6.874 F2500.000
G1 X-7.482 Y396.446 Z6.848 F2500.000
G1 X-7.467 Y395.446 Z6.883 F2500.000
G1 X-7.449 Y394.246 Z6.920 F2500.000
G1 X-7.421 Y392.447 Z6.962 F2500.000
G1 X-7.403 Y391.247 Z6.962 F2500.000
G1 X-7.372 Y389.247 Z6.955 F2500.000
G1 X-7.339 Y387.047 Z6.942 F2500.000
G1 X-7.330 Y386.447 Z6.942 F2500.000
G1 X-7.284 Y383.448 Z6.956 F2500.000
