(Exported by FreeCAD)
(Post Processor: grbl_post)
(Output Time:2024-01-02 19:10:49.488280)
(Begin preamble)
G17 G90
G21
(Begin operation: TC: 30 Surface Q6)
(Path: TC: 30 Surface Q6)
(TC: 30 Surface Q6)
(Begin toolchange)
( M6 T7 )
M3 S12000
(Finish operation: TC: 30 Surface Q6)
(Begin operation: Fixture)
(Path: Fixture)
G54
(Finish operation: Fixture)
(Begin operation: MillFace)
(Path: MillFace)
(MillFace)
G0 Z12.300
G0 X33.758 Y459.171
G0 Z10.300
G1 X33.758 Y459.171 Z7.000 F500.000
G1 X33.758 Y-0.100 Z7.000 F1500.000
G1 X-33.631 Y-0.100 Z7.000 F1500.000
G1 X-33.631 Y459.171 Z7.000 F1500.000
G1 X33.758 Y459.171 Z7.000 F1500.000
G1 X33.758 Y459.171 Z7.000 F500.000
G1 X19.757 Y459.171 Z7.000 F1500.000
G1 X33.758 Y445.170 Z7.000 F1500.000
G1 X33.758 Y431.170 Z7.000 F1500.000
G1 X5.756 Y459.171 Z7.000 F1500.000
G1 X-8.244 Y459.171 Z7.000 F1500.000
G1 X33.758 Y417.169 Z7.000 F1500.000
G1 X33.758 Y403.168 Z7.000 F1500.000
G1 X-22.245 Y459.171 Z7.000 F1500.000
G1 X-33.631 Y459.171 Z7.000 F1500.000
G1 X-33.631 Y456.556 Z7.000 F1500.000
G1 X33.758 Y389.167 Z7.000 F1500.000
G1 X33.758 Y375.167 Z7.000 F1500.000
G1 X-33.631 Y442.555 Z7.000 F1500.000
G1 X-33.631 Y428.554 Z7.000 F1500.000
G1 X33.758 Y361.166 Z7.000 F1500.000
G1 X33.758 Y347.165 Z7.000 F1500.000
G1 X-33.631 Y414.554 Z7.000 F1500.000
G1 X-33.631 Y400.553 Z7.000 F1500.000
G1 X33.758 Y333.165 Z7.000 F1500.000
G1 X33.758 Y319.164 Z7.000 F1500.000
G1 X-33.631 Y386.552 Z7.000 F1500.000
G1 X-33.631 Y372.552 Z7.000 F1500.000
G1 X33.758 Y305.163 Z7.000 F1500.000
G1 X33.758 Y291.162 Z7.000 F1500.000
G1 X-33.631 Y358.551 Z7.000 F1500.000
G1 X-33.631 Y344.550 Z7.000 F1500.000
G1 X33.758 Y277.162 Z7.000 F1500.000
G1 X33.758 Y263.161 Z7.000 F1500.000
G1 X-33.631 Y330.549 Z7.000 F1500.000
G1 X-33.631 Y316.549 Z7.000 F1500.000
G1 X33.758 Y249.160 Z7.000 F1500.000
G1 X33.758 Y235.160 Z7.000 F1500.000
G1 X-33.631 Y302.548 Z7.000 F1500.000
G1 X-33.631 Y288.547 Z7.000 F1500.000
G1 X33.758 Y221.159 Z7.000 F1500.000
G1 X33.758 Y207.158 Z7.000 F1500.000
G1 X-33.631 Y274.547 Z7.000 F1500.000
G1 X-33.631 Y260.546 Z7.000 F1500.000
G1 X33.758 Y193.157 Z7.000 F1500.000
G1 X33.758 Y179.157 Z7.000 F1500.000
G1 X-33.631 Y246.545 Z7.000 F1500.000
G1 X-33.631 Y232.544 Z7.000 F1500.000
G1 X33.758 Y165.156 Z7.000 F1500.000
G1 X33.758 Y151.155 Z7.000 F1500.000
G1 X-33.631 Y218.544 Z7.000 F1500.000
G1 X-33.631 Y204.543 Z7.000 F1500.000
G1 X33.758 Y137.155 Z7.000 F1500.000
G1 X33.758 Y123.154 Z7.000 F1500.000
G1 X-33.631 Y190.542 Z7.000 F1500.000
G1 X-33.631 Y176.542 Z7.000 F1500.000
G1 X33.758 Y109.153 Z7.000 F1500.000
G1 X33.758 Y95.152 Z7.000 F1500.000
G1 X-33.631 Y162.541 Z7.000 F1500.000
G1 X-33.631 Y148.540 Z7.000 F1500.000
G1 X33.758 Y81.152 Z7.000 F1500.000
G1 X33.758 Y67.151 Z7.000 F1500.000
G1 X-33.631 Y134.539 Z7.000 F1500.000
G1 X-33.631 Y120.539 Z7.000 F1500.000
G1 X33.758 Y53.150 Z7.000 F1500.000
G1 X33.758 Y39.150 Z7.000 F1500.000
G1 X-33.631 Y106.538 Z7.000 F1500.000
G1 X-33.631 Y92.537 Z7.000 F1500.000
G1 X33.758 Y25.149 Z7.000 F1500.000
G1 X33.758 Y11.148 Z7.000 F1500.000
G1 X-33.631 Y78.537 Z7.000 F1500.000
G1 X-33.631 Y64.536 Z7.000 F1500.000
G1 X31.005 Y-0.100 Z7.000 F1500.000
G1 X17.004 Y-0.100 Z7.000 F1500.000
G1 X-33.631 Y50.535 Z7.000 F1500.000
G1 X-33.631 Y36.534 Z7.000 F1500.000
G1 X3.004 Y-0.100 Z7.000 F1500.000
G1 X-10.997 Y-0.100 Z7.000 F1500.000
G1 X-33.631 Y22.534 Z7.000 F1500.000
G1 X-33.631 Y8.533 Z7.000 F1500.000
G1 X-33.631 Y-0.100 Z7.000 F1500.000
G1 X-24.998 Y-0.100 Z7.000 F1500.000
G1 X-33.631 Y8.533 Z7.000 F1500.000
G0 Z12.300
G0 Z12.300
(Finish operation: MillFace)
(Begin postamble)
M5
G17 G90
M2
