(Exported by FreeCAD)
(Post Processor: grbl_post)
(Output Time:2024-03-09 20:30:23.624283)
(Begin preamble)
G17 G90
G21
(Begin operation: TC: 1.5)
(Path: TC: 1.5)
(TC: 1.5)
(Begin toolchange)
( M6 T5 )
M3 S24000
(Finish operation: TC: 1.5)
(Begin operation: Fixture)
(Path: Fixture)
G54
(Finish operation: Fixture)
(Begin operation: Pocket_Shape)
(Path: Pocket_Shape)
(Pocket_Shape)
(Pocket_Shape)
G0 Z5.000000
G0 X0.000000 Y0.000000
G0 X-39.905101 Y-31.279597
G0 X-39.905101 Y-31.279597 Z3.000000
G1 F5.000000 X-39.905101 Y-31.279597 Z-0.750000
G1 F8.333333 X-40.594530 Y-31.969026 Z-0.750000
G3 F8.333333 I0.644577 J-0.634300 K0.000000 X-40.675365 Y-33.143320 Z-0.750000
G3 F8.333333 I3.642632 J2.907011 K0.000000 X-40.038243 Y-33.798105 Z-0.750000
G1 F8.333333 X-40.793931 Y-34.553792 Z-0.750000
G3 F8.333333 I0.648830 J-0.636396 K0.000000 X-40.793931 Y-35.826584 Z-0.750000
G1 F8.333333 X-35.826584 Y-40.793931 Z-0.750000
G3 F8.333333 I0.636396 J0.648830 K0.000000 X-34.553792 Y-40.793931 Z-0.750000
G1 F8.333333 X-33.793321 Y-40.033460 Z-0.750000
G1 F8.333333 X-33.074995 Y-40.751786 Z-0.750000
G3 F8.333333 I0.634300 J0.644577 K0.000000 X-31.900702 Y-40.832621 Z-0.750000
G3 F8.333333 I-3.494445 J4.358425 K0.000000 X-31.117557 Y-40.067140 Z-0.750000
G1 F8.333333 X-30.806752 Y-40.377945 Z-0.750000
G1 F8.333333 X-31.465231 Y-41.036424 Z-0.750000
G1 F8.333333 X-33.404209 Y-41.049695 Z-0.750000
G3 F8.333333 I0.011480 J-0.899549 K0.000000 X-34.128810 Y-42.466454 Z-0.750000
G3 F8.333333 I3.244761 J2.462736 K0.000000 X-33.466402 Y-43.154114 Z-0.750000
G1 F8.333333 X-34.086961 Y-43.774673 Z-0.750000
G3 F8.333333 I0.648830 J-0.636396 K0.000000 X-34.086961 Y-45.047465 Z-0.750000
G1 F8.333333 X-33.092804 Y-46.041622 Z-0.750000
G3 F8.333333 I0.636396 J0.648830 K0.000000 X-31.820012 Y-46.041622 Z-0.750000
G1 F8.333333 X-29.807369 Y-44.028979 Z-0.750000
G1 F8.333333 X-29.422842 Y-44.413506 Z-0.750000
G1 F8.333333 X-33.784728 Y-48.775392 Z-0.750000
G1 F8.333333 X-34.474157 Y-48.085963 Z-0.750000
G3 F8.333333 I-0.634300 J-0.644577 K0.000000 X-35.648451 Y-48.005127 Z-0.750000
G3 F8.333333 I3.281062 J-4.098414 K0.000000 X-36.384967 Y-48.723980 Z-0.750000
G1 F8.333333 X-36.866502 Y-48.242446 Z-0.750000
G3 F8.333333 I-0.633265 J-0.643956 K0.000000 X-38.402898 Y-48.878842 Z-0.750000
G1 F8.333333 X-38.402898 Y-50.870268 Z-0.750000
G1 F8.333333 X-39.046027 Y-51.513397 Z-0.750000
G1 F8.333333 X-39.558897 Y-51.000526 Z-0.750000
G1 F8.333333 X-38.902164 Y-50.343793 Z-0.750000
G3 F8.333333 I-0.648830 J0.636396 K0.000000 X-38.902164 Y-49.071001 Z-0.750000
G1 F8.333333 X-39.673831 Y-48.299334 Z-0.750000
G1 F8.333333 X-38.878118 Y-47.503621 Z-0.750000
G3 F8.333333 I-0.648830 J0.636396 K0.000000 X-38.878118 Y-46.230829 Z-0.750000
G1 F8.333333 X-46.230829 Y-38.878118 Z-0.750000
G3 F8.333333 I-0.636396 J-0.648830 K0.000000 X-47.503621 Y-38.878118 Z-0.750000
G1 F8.333333 X-48.299334 Y-39.673831 Z-0.750000
G1 F8.333333 X-49.071001 Y-38.902164 Z-0.750000
G3 F8.333333 I-0.634300 J-0.644577 K0.000000 X-50.245295 Y-38.821328 Z-0.750000
G3 F8.333333 I3.366714 J-4.202781 K0.000000 X-51.000526 Y-39.558897 Z-0.750000
G1 F8.333333 X-51.513397 Y-39.046027 Z-0.750000
G1 F8.333333 X-50.870268 Y-38.402898 Z-0.750000
G1 F8.333333 X-48.878842 Y-38.402898 Z-0.750000
G3 F8.333333 I-0.005329 J0.899581 K0.000000 X-48.147849 Y-36.986497 Z-0.750000
G3 F8.333333 I-2.829231 J-2.133105 K0.000000 X-48.723980 Y-36.384967 Z-0.750000
G1 F8.333333 X-48.085963 Y-35.746950 Z-0.750000
G3 F8.333333 I-0.644577 J0.634300 K0.000000 X-48.005127 Y-34.572656 Z-0.750000
G3 F8.333333 I-4.385115 J-3.516351 K0.000000 X-48.775392 Y-33.784728 Z-0.750000
G1 F8.333333 X-44.413506 Y-29.422842 Z-0.750000
G1 F8.333333 X-44.006919 Y-29.829429 Z-0.750000
G1 F8.333333 X-46.020120 Y-31.842629 Z-0.750000
G3 F8.333333 I0.648830 J-0.636396 K0.000000 X-46.020120 Y-33.115422 Z-0.750000
G1 F8.333333 X-45.005743 Y-34.129799 Z-0.750000
G3 F8.333333 I0.634300 J0.644577 K0.000000 X-43.831450 Y-34.210635 Z-0.750000
G3 F8.333333 I-3.203707 J4.004159 K0.000000 X-43.111833 Y-33.508682 Z-0.750000
G1 F8.333333 X-42.590166 Y-34.030349 Z-0.750000
G3 F8.333333 I0.633265 J0.643956 K0.000000 X-41.053770 Y-33.393953 Z-0.750000
G1 F8.333333 X-41.053770 Y-31.482577 Z-0.750000
G1 F8.333333 X-40.377945 Y-30.806752 Z-0.750000
G1 F8.333333 X-39.905101 Y-31.279597 Z-0.750000
G1 F5.000000 X-39.905101 Y-31.279597 Z-1.500000
G1 F8.333333 X-40.594530 Y-31.969026 Z-1.500000
G3 F8.333333 I0.644577 J-0.634300 K0.000000 X-40.675365 Y-33.143320 Z-1.500000
G3 F8.333333 I3.642632 J2.907011 K0.000000 X-40.038243 Y-33.798105 Z-1.500000
G1 F8.333333 X-40.793931 Y-34.553792 Z-1.500000
G3 F8.333333 I0.648830 J-0.636396 K0.000000 X-40.793931 Y-35.826584 Z-1.500000
G1 F8.333333 X-35.826584 Y-40.793931 Z-1.500000
G3 F8.333333 I0.636396 J0.648830 K0.000000 X-34.553792 Y-40.793931 Z-1.500000
G1 F8.333333 X-33.793321 Y-40.033460 Z-1.500000
G1 F8.333333 X-33.074995 Y-40.751786 Z-1.500000
G3 F8.333333 I0.634300 J0.644577 K0.000000 X-31.900702 Y-40.832621 Z-1.500000
G3 F8.333333 I-3.494445 J4.358425 K0.000000 X-31.117557 Y-40.067140 Z-1.500000
G1 F8.333333 X-30.806752 Y-40.377945 Z-1.500000
G1 F8.333333 X-31.465231 Y-41.036424 Z-1.500000
G1 F8.333333 X-33.404209 Y-41.049695 Z-1.500000
G3 F8.333333 I0.011480 J-0.899549 K0.000000 X-34.128810 Y-42.466454 Z-1.500000
G3 F8.333333 I3.244761 J2.462736 K0.000000 X-33.466402 Y-43.154114 Z-1.500000
G1 F8.333333 X-34.086961 Y-43.774673 Z-1.500000
G3 F8.333333 I0.648830 J-0.636396 K0.000000 X-34.086961 Y-45.047465 Z-1.500000
G1 F8.333333 X-33.092804 Y-46.041622 Z-1.500000
G3 F8.333333 I0.636396 J0.648830 K0.000000 X-31.820012 Y-46.041622 Z-1.500000
G1 F8.333333 X-29.807369 Y-44.028979 Z-1.500000
G1 F8.333333 X-29.422842 Y-44.413506 Z-1.500000
G1 F8.333333 X-33.784728 Y-48.775392 Z-1.500000
G1 F8.333333 X-34.474157 Y-48.085963 Z-1.500000
G3 F8.333333 I-0.634300 J-0.644577 K0.000000 X-35.648451 Y-48.005127 Z-1.500000
G3 F8.333333 I3.281062 J-4.098414 K0.000000 X-36.384967 Y-48.723980 Z-1.500000
G1 F8.333333 X-36.866502 Y-48.242446 Z-1.500000
G3 F8.333333 I-0.633265 J-0.643956 K0.000000 X-38.402898 Y-48.878842 Z-1.500000
G1 F8.333333 X-38.402898 Y-50.870268 Z-1.500000
G1 F8.333333 X-39.046027 Y-51.513397 Z-1.500000
G1 F8.333333 X-39.558897 Y-51.000526 Z-1.500000
G1 F8.333333 X-38.902164 Y-50.343793 Z-1.500000
G3 F8.333333 I-0.648830 J0.636396 K0.000000 X-38.902164 Y-49.071001 Z-1.500000
G1 F8.333333 X-39.673831 Y-48.299334 Z-1.500000
G1 F8.333333 X-38.878118 Y-47.503621 Z-1.500000
G3 F8.333333 I-0.648830 J0.636396 K0.000000 X-38.878118 Y-46.230829 Z-1.500000
G1 F8.333333 X-46.230829 Y-38.878118 Z-1.500000
G3 F8.333333 I-0.636396 J-0.648830 K0.000000 X-47.503621 Y-38.878118 Z-1.500000
G1 F8.333333 X-48.299334 Y-39.673831 Z-1.500000
G1 F8.333333 X-49.071001 Y-38.902164 Z-1.500000
G3 F8.333333 I-0.634300 J-0.644577 K0.000000 X-50.245295 Y-38.821328 Z-1.500000
G3 F8.333333 I3.366714 J-4.202781 K0.000000 X-51.000526 Y-39.558897 Z-1.500000
G1 F8.333333 X-51.513397 Y-39.046027 Z-1.500000
G1 F8.333333 X-50.870268 Y-38.402898 Z-1.500000
G1 F8.333333 X-48.878842 Y-38.402898 Z-1.500000
G3 F8.333333 I-0.005329 J0.899581 K0.000000 X-48.147849 Y-36.986497 Z-1.500000
G3 F8.333333 I-2.829231 J-2.133105 K0.000000 X-48.723980 Y-36.384967 Z-1.500000
G1 F8.333333 X-48.085963 Y-35.746950 Z-1.500000
G3 F8.333333 I-0.644577 J0.634300 K0.000000 X-48.005127 Y-34.572656 Z-1.500000
G3 F8.333333 I-4.385115 J-3.516351 K0.000000 X-48.775392 Y-33.784728 Z-1.500000
G1 F8.333333 X-44.413506 Y-29.422842 Z-1.500000
G1 F8.333333 X-44.006919 Y-29.829429 Z-1.500000
G1 F8.333333 X-46.020120 Y-31.842629 Z-1.500000
G3 F8.333333 I0.648830 J-0.636396 K0.000000 X-46.020120 Y-33.115422 Z-1.500000
G1 F8.333333 X-45.005743 Y-34.129799 Z-1.500000
G3 F8.333333 I0.634300 J0.644577 K0.000000 X-43.831450 Y-34.210635 Z-1.500000
G3 F8.333333 I-3.203707 J4.004159 K0.000000 X-43.111833 Y-33.508682 Z-1.500000
G1 F8.333333 X-42.590166 Y-34.030349 Z-1.500000
G3 F8.333333 I0.633265 J0.643956 K0.000000 X-41.053770 Y-33.393953 Z-1.500000
G1 F8.333333 X-41.053770 Y-31.482577 Z-1.500000
G1 F8.333333 X-40.377945 Y-30.806752 Z-1.500000
G1 F8.333333 X-39.905101 Y-31.279597 Z-1.500000
G1 F5.000000 X-39.905101 Y-31.279597 Z-2.000000
G1 F8.333333 X-40.594530 Y-31.969026 Z-2.000000
G3 F8.333333 I0.644577 J-0.634300 K0.000000 X-40.675365 Y-33.143320 Z-2.000000
G3 F8.333333 I3.642632 J2.907011 K0.000000 X-40.038243 Y-33.798105 Z-2.000000
G1 F8.333333 X-40.793931 Y-34.553792 Z-2.000000
G3 F8.333333 I0.648830 J-0.636396 K0.000000 X-40.793931 Y-35.826584 Z-2.000000
G1 F8.333333 X-35.826584 Y-40.793931 Z-2.000000
G3 F8.333333 I0.636396 J0.648830 K0.000000 X-34.553792 Y-40.793931 Z-2.000000
G1 F8.333333 X-33.793321 Y-40.033460 Z-2.000000
G1 F8.333333 X-33.074995 Y-40.751786 Z-2.000000
G3 F8.333333 I0.634300 J0.644577 K0.000000 X-31.900702 Y-40.832621 Z-2.000000
G3 F8.333333 I-3.494445 J4.358425 K0.000000 X-31.117557 Y-40.067140 Z-2.000000
G1 F8.333333 X-30.806752 Y-40.377945 Z-2.000000
G1 F8.333333 X-31.465231 Y-41.036424 Z-2.000000
G1 F8.333333 X-33.404209 Y-41.049695 Z-2.000000
G3 F8.333333 I0.011480 J-0.899549 K0.000000 X-34.128810 Y-42.466454 Z-2.000000
G3 F8.333333 I3.244761 J2.462736 K0.000000 X-33.466402 Y-43.154114 Z-2.000000
G1 F8.333333 X-34.086961 Y-43.774673 Z-2.000000
G3 F8.333333 I0.648830 J-0.636396 K0.000000 X-34.086961 Y-45.047465 Z-2.000000
G1 F8.333333 X-33.092804 Y-46.041622 Z-2.000000
G3 F8.333333 I0.636396 J0.648830 K0.000000 X-31.820012 Y-46.041622 Z-2.000000
G1 F8.333333 X-29.807369 Y-44.028979 Z-2.000000
G1 F8.333333 X-29.422842 Y-44.413506 Z-2.000000
G1 F8.333333 X-33.784728 Y-48.775392 Z-2.000000
G1 F8.333333 X-34.474157 Y-48.085963 Z-2.000000
G3 F8.333333 I-0.634300 J-0.644577 K0.000000 X-35.648451 Y-48.005127 Z-2.000000
G3 F8.333333 I3.281062 J-4.098414 K0.000000 X-36.384967 Y-48.723980 Z-2.000000
G1 F8.333333 X-36.866502 Y-48.242446 Z-2.000000
G3 F8.333333 I-0.633265 J-0.643956 K0.000000 X-38.402898 Y-48.878842 Z-2.000000
G1 F8.333333 X-38.402898 Y-50.870268 Z-2.000000
G1 F8.333333 X-39.046027 Y-51.513397 Z-2.000000
G1 F8.333333 X-39.558897 Y-51.000526 Z-2.000000
G1 F8.333333 X-38.902164 Y-50.343793 Z-2.000000
G3 F8.333333 I-0.648830 J0.636396 K0.000000 X-38.902164 Y-49.071001 Z-2.000000
G1 F8.333333 X-39.673831 Y-48.299334 Z-2.000000
G1 F8.333333 X-38.878118 Y-47.503621 Z-2.000000
G3 F8.333333 I-0.648830 J0.636396 K0.000000 X-38.878118 Y-46.230829 Z-2.000000
G1 F8.333333 X-46.230829 Y-38.878118 Z-2.000000
G3 F8.333333 I-0.636396 J-0.648830 K0.000000 X-47.503621 Y-38.878118 Z-2.000000
G1 F8.333333 X-48.299334 Y-39.673831 Z-2.000000
G1 F8.333333 X-49.071001 Y-38.902164 Z-2.000000
G3 F8.333333 I-0.634300 J-0.644577 K0.000000 X-50.245295 Y-38.821328 Z-2.000000
G3 F8.333333 I3.366714 J-4.202781 K0.000000 X-51.000526 Y-39.558897 Z-2.000000
G1 F8.333333 X-51.513397 Y-39.046027 Z-2.000000
G1 F8.333333 X-50.870268 Y-38.402898 Z-2.000000
G1 F8.333333 X-48.878842 Y-38.402898 Z-2.000000
G3 F8.333333 I-0.005329 J0.899581 K0.000000 X-48.147849 Y-36.986497 Z-2.000000
G3 F8.333333 I-2.829231 J-2.133105 K0.000000 X-48.723980 Y-36.384967 Z-2.000000
G1 F8.333333 X-48.085963 Y-35.746950 Z-2.000000
G3 F8.333333 I-0.644577 J0.634300 K0.000000 X-48.005127 Y-34.572656 Z-2.000000
G3 F8.333333 I-4.385115 J-3.516351 K0.000000 X-48.775392 Y-33.784728 Z-2.000000
G1 F8.333333 X-44.413506 Y-29.422842 Z-2.000000
G1 F8.333333 X-44.006919 Y-29.829429 Z-2.000000
G1 F8.333333 X-46.020120 Y-31.842629 Z-2.000000
G3 F8.333333 I0.648830 J-0.636396 K0.000000 X-46.020120 Y-33.115422 Z-2.000000
G1 F8.333333 X-45.005743 Y-34.129799 Z-2.000000
G3 F8.333333 I0.634300 J0.644577 K0.000000 X-43.831450 Y-34.210635 Z-2.000000
G3 F8.333333 I-3.203707 J4.004159 K0.000000 X-43.111833 Y-33.508682 Z-2.000000
G1 F8.333333 X-42.590166 Y-34.030349 Z-2.000000
G3 F8.333333 I0.633265 J0.643956 K0.000000 X-41.053770 Y-33.393953 Z-2.000000
G1 F8.333333 X-41.053770 Y-31.482577 Z-2.000000
G1 F8.333333 X-40.377945 Y-30.806752 Z-2.000000
G1 F8.333333 X-39.905101 Y-31.279597 Z-2.000000
G0 Z5.000000
G0 X-42.438128 Y-34.877846 Z5.000000
G0 X-42.438128 Y-34.877846 Z3.000000
G1 F5.000000 X-42.438128 Y-34.877846 Z-0.750000
G2 F8.333333 I-0.523156 J-0.743161 K0.000000 X-42.324888 Y-34.972177 Z-0.750000
G1 F8.333333 X-41.485759 Y-35.811306 Z-0.750000
G2 F8.333333 I-0.648830 J-0.636396 K0.000000 X-41.485759 Y-37.084098 Z-0.750000
G1 F8.333333 X-42.456420 Y-38.054758 Z-0.750000
G2 F8.333333 I-0.636396 J0.649849 K0.000000 X-43.315295 Y-38.286843 Z-0.750000
G2 F8.333333 I0.267036 J0.961399 K0.000000 X-43.729212 Y-38.054758 Z-0.750000
G1 F8.333333 X-44.568341 Y-37.215630 Z-0.750000
G2 F8.333333 I0.648830 J0.636396 K0.000000 X-44.568341 Y-35.942837 Z-0.750000
G1 F8.333333 X-43.597680 Y-34.972177 Z-0.750000
G2 F8.333333 I0.636396 J-0.648830 K0.000000 X-42.438128 Y-34.877846 Z-0.750000
G1 F5.000000 X-42.438128 Y-34.877846 Z-1.500000
G2 F8.333333 I-0.523156 J-0.743161 K0.000000 X-42.324888 Y-34.972177 Z-1.500000
G1 F8.333333 X-41.485759 Y-35.811306 Z-1.500000
G2 F8.333333 I-0.648830 J-0.636396 K0.000000 X-41.485759 Y-37.084098 Z-1.500000
G1 F8.333333 X-42.456420 Y-38.054758 Z-1.500000
G2 F8.333333 I-0.636396 J0.649849 K0.000000 X-43.315295 Y-38.286843 Z-1.500000
G2 F8.333333 I0.267036 J0.961399 K0.000000 X-43.729212 Y-38.054758 Z-1.500000
G1 F8.333333 X-44.568341 Y-37.215630 Z-1.500000
G2 F8.333333 I0.648830 J0.636396 K0.000000 X-44.568341 Y-35.942837 Z-1.500000
G1 F8.333333 X-43.597680 Y-34.972177 Z-1.500000
G2 F8.333333 I0.636396 J-0.648830 K0.000000 X-42.438128 Y-34.877846 Z-1.500000
G1 F5.000000 X-42.438128 Y-34.877846 Z-2.000000
G2 F8.333333 I-0.523156 J-0.743161 K0.000000 X-42.324888 Y-34.972177 Z-2.000000
G1 F8.333333 X-41.485759 Y-35.811306 Z-2.000000
G2 F8.333333 I-0.648830 J-0.636396 K0.000000 X-41.485759 Y-37.084098 Z-2.000000
G1 F8.333333 X-42.456420 Y-38.054758 Z-2.000000
G2 F8.333333 I-0.636396 J0.649849 K0.000000 X-43.315295 Y-38.286843 Z-2.000000
G2 F8.333333 I0.267036 J0.961399 K0.000000 X-43.729212 Y-38.054758 Z-2.000000
G1 F8.333333 X-44.568341 Y-37.215630 Z-2.000000
G2 F8.333333 I0.648830 J0.636396 K0.000000 X-44.568341 Y-35.942837 Z-2.000000
G1 F8.333333 X-43.597680 Y-34.972177 Z-2.000000
G2 F8.333333 I0.636396 J-0.648830 K0.000000 X-42.438128 Y-34.877846 Z-2.000000
G0 Z5.000000
G0 X-45.532963 Y-35.235771 Z5.000000
G0 X-45.532963 Y-35.235771 Z3.000000
G1 F5.000000 X-45.532963 Y-35.235771 Z-0.750000
G3 F8.333333 I1.557961 J-1.343036 K0.000000 X-45.575070 Y-37.871388 Z-0.750000
G3 F8.333333 I-1.245754 J-1.498193 K0.000000 X-46.788182 Y-37.421398 Z-0.750000
G3 F8.333333 I-1.995163 J-0.051036 K0.000000 X-47.090093 Y-36.415941 Z-0.750000
G3 F8.333333 I-1.587770 J1.305399 K0.000000 X-47.094006 Y-33.800398 Z-0.750000
G1 F8.333333 X-47.043951 Y-33.750343 Z-0.750000
G1 F8.333333 X-46.868648 Y-33.963950 Z-0.750000
G1 F8.333333 X-45.854271 Y-34.978327 Z-0.750000
G3 F8.333333 I1.467584 J1.502421 K0.000000 X-45.532963 Y-35.235771 Z-0.750000
G1 F5.000000 X-45.532963 Y-35.235771 Z-1.500000
G3 F8.333333 I1.557961 J-1.343036 K0.000000 X-45.575070 Y-37.871388 Z-1.500000
G3 F8.333333 I-1.245754 J-1.498193 K0.000000 X-46.788182 Y-37.421398 Z-1.500000
G3 F8.333333 I-1.995163 J-0.051036 K0.000000 X-47.090093 Y-36.415941 Z-1.500000
G3 F8.333333 I-1.587770 J1.305399 K0.000000 X-47.094006 Y-33.800398 Z-1.500000
G1 F8.333333 X-47.043951 Y-33.750343 Z-1.500000
G1 F8.333333 X-46.868648 Y-33.963950 Z-1.500000
G1 F8.333333 X-45.854271 Y-34.978327 Z-1.500000
G3 F8.333333 I1.467584 J1.502421 K0.000000 X-45.532963 Y-35.235771 Z-1.500000
G1 F5.000000 X-45.532963 Y-35.235771 Z-2.000000
G3 F8.333333 I1.557961 J-1.343036 K0.000000 X-45.575070 Y-37.871388 Z-2.000000
G3 F8.333333 I-1.245754 J-1.498193 K0.000000 X-46.788182 Y-37.421398 Z-2.000000
G3 F8.333333 I-1.995163 J-0.051036 K0.000000 X-47.090093 Y-36.415941 Z-2.000000
G3 F8.333333 I-1.587770 J1.305399 K0.000000 X-47.094006 Y-33.800398 Z-2.000000
G1 F8.333333 X-47.043951 Y-33.750343 Z-2.000000
G1 F8.333333 X-46.868648 Y-33.963950 Z-2.000000
G1 F8.333333 X-45.854271 Y-34.978327 Z-2.000000
G3 F8.333333 I1.467584 J1.502421 K0.000000 X-45.532963 Y-35.235771 Z-2.000000
G0 Z5.000000
G0 X-44.240548 Y-39.171343 Z5.000000
G0 X-44.240548 Y-39.171343 Z3.000000
G1 F5.000000 X-44.240548 Y-39.171343 Z-0.750000
G3 F8.333333 I1.152721 J1.740856 K0.000000 X-41.607891 Y-38.903287 Z-0.750000
G1 F8.333333 X-40.637231 Y-37.932626 Z-0.750000
G1 F8.333333 X-40.523512 Y-37.794060 Z-0.750000
G1 F8.333333 X-37.794060 Y-40.523512 Z-0.750000
G1 F8.333333 X-37.932626 Y-40.637231 Z-0.750000
G1 F8.333333 X-38.903287 Y-41.607891 Z-0.750000
G3 F8.333333 I1.494958 J-1.482191 K0.000000 X-39.171343 Y-44.240548 Z-0.750000
G1 F8.333333 X-44.240548 Y-39.171343 Z-0.750000
G1 F5.000000 X-44.240548 Y-39.171343 Z-1.500000
G3 F8.333333 I1.152721 J1.740856 K0.000000 X-41.607891 Y-38.903287 Z-1.500000
G1 F8.333333 X-40.637231 Y-37.932626 Z-1.500000
G1 F8.333333 X-40.523512 Y-37.794060 Z-1.500000
G1 F8.333333 X-37.794060 Y-40.523512 Z-1.500000
G1 F8.333333 X-37.932626 Y-40.637231 Z-1.500000
G1 F8.333333 X-38.903287 Y-41.607891 Z-1.500000
G3 F8.333333 I1.494958 J-1.482191 K0.000000 X-39.171343 Y-44.240548 Z-1.500000
G1 F8.333333 X-44.240548 Y-39.171343 Z-1.500000
G1 F5.000000 X-44.240548 Y-39.171343 Z-2.000000
G3 F8.333333 I1.152721 J1.740856 K0.000000 X-41.607891 Y-38.903287 Z-2.000000
G1 F8.333333 X-40.637231 Y-37.932626 Z-2.000000
G1 F8.333333 X-40.523512 Y-37.794060 Z-2.000000
G1 F8.333333 X-37.794060 Y-40.523512 Z-2.000000
G1 F8.333333 X-37.932626 Y-40.637231 Z-2.000000
G1 F8.333333 X-38.903287 Y-41.607891 Z-2.000000
G3 F8.333333 I1.494958 J-1.482191 K0.000000 X-39.171343 Y-44.240548 Z-2.000000
G1 F8.333333 X-44.240548 Y-39.171343 Z-2.000000
G0 Z5.000000
G0 X-41.448326 Y-40.266509 Z5.000000
G0 X-41.448326 Y-40.266509 Z3.000000
G1 F5.000000 X-41.448326 Y-40.266509 Z-0.750000
G3 F8.333333 I-1.566300 J2.881196 K0.000000 X-40.511088 Y-39.503540 Z-0.750000
G1 F8.333333 X-39.503540 Y-40.511088 Z-0.750000
G3 F8.333333 I1.853054 J-2.269299 K0.000000 X-40.262143 Y-41.452692 Z-0.750000
G3 F8.333333 I-3517528.211995 J-3517527.025812 K0.000000 X-41.448326 Y-40.266509 Z-0.750000
G1 F5.000000 X-40.938213 Y-40.317002 Z-0.750000
G3 F8.333333 I-1.582804 J2.345317 K0.000000 X-40.511088 Y-39.963159 Z-0.750000
G1 F8.333333 X-39.963159 Y-40.511088 Z-0.750000
G3 F8.333333 I1.991474 J-2.009928 K0.000000 X-40.317002 Y-40.938213 Z-0.750000
G3 F8.333333 I-964755.903308 J-964755.282097 K0.000000 X-40.938213 Y-40.317002 Z-0.750000
G1 F5.000000 X-40.938213 Y-40.317002 Z-1.500000
G3 F8.333333 I-1.582804 J2.345317 K0.000000 X-40.511088 Y-39.963159 Z-1.500000
G1 F8.333333 X-39.963159 Y-40.511088 Z-1.500000
G3 F8.333333 I1.991474 J-2.009928 K0.000000 X-40.317002 Y-40.938213 Z-1.500000
G3 F8.333333 I-964755.903308 J-964755.282097 K0.000000 X-40.938213 Y-40.317002 Z-1.500000
G1 F5.000000 X-41.119187 Y-40.061485 Z-1.500000
G3 F8.333333 I-1.895439 J2.676172 K0.000000 X-40.511088 Y-39.503540 Z-1.500000
G1 F8.333333 X-39.503540 Y-40.511088 Z-1.500000
G3 F8.333333 I1.853054 J-2.269299 K0.000000 X-40.262143 Y-41.452692 Z-1.500000
G3 F8.333333 I-3517528.211995 J-3517527.025812 K0.000000 X-41.448326 Y-40.266509 Z-1.500000
G3 F8.333333 I-1.566300 J2.881196 K0.000000 X-41.119187 Y-40.061485 Z-1.500000
G1 F5.000000 X-41.119187 Y-40.061485 Z-2.000000
G3 F8.333333 I-1.895439 J2.676172 K0.000000 X-40.511088 Y-39.503540 Z-2.000000
G1 F8.333333 X-39.503540 Y-40.511088 Z-2.000000
G3 F8.333333 I1.853054 J-2.269299 K0.000000 X-40.262143 Y-41.452692 Z-2.000000
G3 F8.333333 I-3517528.211995 J-3517527.025812 K0.000000 X-41.448326 Y-40.266509 Z-2.000000
G3 F8.333333 I-1.566300 J2.881196 K0.000000 X-41.119187 Y-40.061485 Z-2.000000
G1 F5.000000 X-40.938213 Y-40.317002 Z-2.000000
G3 F8.333333 I-1.582804 J2.345317 K0.000000 X-40.511088 Y-39.963159 Z-2.000000
G1 F8.333333 X-39.963159 Y-40.511088 Z-2.000000
G3 F8.333333 I1.991474 J-2.009928 K0.000000 X-40.317002 Y-40.938213 Z-2.000000
G3 F8.333333 I-964755.903308 J-964755.282097 K0.000000 X-40.938213 Y-40.317002 Z-2.000000
G0 Z5.000000
G0 X-38.120518 Y-42.531262 Z5.000000
G0 X-38.120518 Y-42.531262 Z3.000000
G1 F5.000000 X-38.120518 Y-42.531262 Z-0.750000
G2 F8.333333 I0.714589 J-0.561554 K0.000000 X-38.054758 Y-42.456420 Z-0.750000
G1 F8.333333 X-37.084098 Y-41.485759 Z-0.750000
G2 F8.333333 I0.636396 J-0.648830 K0.000000 X-35.811306 Y-41.485759 Z-0.750000
G1 F8.333333 X-34.972177 Y-42.324888 Z-0.750000
G2 F8.333333 I-0.648830 J-0.636396 K0.000000 X-34.972177 Y-43.597680 Z-0.750000
G1 F8.333333 X-35.942837 Y-44.568341 Z-0.750000
G2 F8.333333 I-0.636396 J0.649850 K0.000000 X-36.801714 Y-44.800425 Z-0.750000
G2 F8.333333 I0.267036 J0.961398 K0.000000 X-37.215630 Y-44.568341 Z-0.750000
G1 F8.333333 X-38.054758 Y-43.729212 Z-0.750000
G2 F8.333333 I0.648830 J0.636396 K0.000000 X-38.120518 Y-42.531262 Z-0.750000
G1 F5.000000 X-38.120518 Y-42.531262 Z-1.500000
G2 F8.333333 I0.714589 J-0.561554 K0.000000 X-38.054758 Y-42.456420 Z-1.500000
G1 F8.333333 X-37.084098 Y-41.485759 Z-1.500000
G2 F8.333333 I0.636396 J-0.648830 K0.000000 X-35.811306 Y-41.485759 Z-1.500000
G1 F8.333333 X-34.972177 Y-42.324888 Z-1.500000
G2 F8.333333 I-0.648830 J-0.636396 K0.000000 X-34.972177 Y-43.597680 Z-1.500000
G1 F8.333333 X-35.942837 Y-44.568341 Z-1.500000
G2 F8.333333 I-0.636396 J0.649850 K0.000000 X-36.801714 Y-44.800425 Z-1.500000
G2 F8.333333 I0.267036 J0.961398 K0.000000 X-37.215630 Y-44.568341 Z-1.500000
G1 F8.333333 X-38.054758 Y-43.729212 Z-1.500000
G2 F8.333333 I0.648830 J0.636396 K0.000000 X-38.120518 Y-42.531262 Z-1.500000
G1 F5.000000 X-38.120518 Y-42.531262 Z-2.000000
G2 F8.333333 I0.714589 J-0.561554 K0.000000 X-38.054758 Y-42.456420 Z-2.000000
G1 F8.333333 X-37.084098 Y-41.485759 Z-2.000000
G2 F8.333333 I0.636396 J-0.648830 K0.000000 X-35.811306 Y-41.485759 Z-2.000000
G1 F8.333333 X-34.972177 Y-42.324888 Z-2.000000
G2 F8.333333 I-0.648830 J-0.636396 K0.000000 X-34.972177 Y-43.597680 Z-2.000000
G1 F8.333333 X-35.942837 Y-44.568341 Z-2.000000
G2 F8.333333 I-0.636396 J0.649850 K0.000000 X-36.801714 Y-44.800425 Z-2.000000
G2 F8.333333 I0.267036 J0.961398 K0.000000 X-37.215630 Y-44.568341 Z-2.000000
G1 F8.333333 X-38.054758 Y-43.729212 Z-2.000000
G2 F8.333333 I0.648830 J0.636396 K0.000000 X-38.120518 Y-42.531262 Z-2.000000
G0 Z5.000000
G0 X-37.871388 Y-45.575070 Z5.000000
G0 X-37.871388 Y-45.575070 Z3.000000
G1 F5.000000 X-37.871388 Y-45.575070 Z-0.750000
G3 F8.333333 I1.292860 J1.600826 K0.000000 X-35.225196 Y-45.524285 Z-0.750000
G3 F8.333333 I1.173660 J0.615990 K0.000000 X-34.935489 Y-45.895993 Z-0.750000
G1 F8.333333 X-33.941332 Y-46.890150 Z-0.750000
G1 F8.333333 X-33.751958 Y-47.045565 Z-0.750000
G1 F8.333333 X-33.800398 Y-47.094006 Z-0.750000
G3 F8.333333 I-1.310144 J-1.583857 K0.000000 X-36.415941 Y-47.090093 Z-0.750000
G3 F8.333333 I-1.021533 J-1.582564 K0.000000 X-37.423114 Y-46.789088 Z-0.750000
G3 F8.333333 I-1.937144 J-0.025517 K0.000000 X-37.871388 Y-45.575070 Z-0.750000
G1 F5.000000 X-37.871388 Y-45.575070 Z-1.500000
G3 F8.333333 I1.292860 J1.600826 K0.000000 X-35.225196 Y-45.524285 Z-1.500000
G3 F8.333333 I1.173660 J0.615990 K0.000000 X-34.935489 Y-45.895993 Z-1.500000
G1 F8.333333 X-33.941332 Y-46.890150 Z-1.500000
G1 F8.333333 X-33.751958 Y-47.045565 Z-1.500000
G1 F8.333333 X-33.800398 Y-47.094006 Z-1.500000
G3 F8.333333 I-1.310144 J-1.583857 K0.000000 X-36.415941 Y-47.090093 Z-1.500000
G3 F8.333333 I-1.021533 J-1.582564 K0.000000 X-37.423114 Y-46.789088 Z-1.500000
G3 F8.333333 I-1.937144 J-0.025517 K0.000000 X-37.871388 Y-45.575070 Z-1.500000
G1 F5.000000 X-37.871388 Y-45.575070 Z-2.000000
G3 F8.333333 I1.292860 J1.600826 K0.000000 X-35.225196 Y-45.524285 Z-2.000000
G3 F8.333333 I1.173660 J0.615990 K0.000000 X-34.935489 Y-45.895993 Z-2.000000
G1 F8.333333 X-33.941332 Y-46.890150 Z-2.000000
G1 F8.333333 X-33.751958 Y-47.045565 Z-2.000000
G1 F8.333333 X-33.800398 Y-47.094006 Z-2.000000
G3 F8.333333 I-1.310144 J-1.583857 K0.000000 X-36.415941 Y-47.090093 Z-2.000000
G3 F8.333333 I-1.021533 J-1.582564 K0.000000 X-37.423114 Y-46.789088 Z-2.000000
G3 F8.333333 I-1.937144 J-0.025517 K0.000000 X-37.871388 Y-45.575070 Z-2.000000
G0 F8.333333 Z5.000000
G0 Z5.000000
G0 X-37.871388 Y-45.575070
G0 X-10.444746 Y-58.080588
G0 X-10.444746 Y-58.080588 Z3.000000
G1 F5.000000 X-10.444746 Y-58.080588 Z-0.750000
G1 F8.333333 X-9.385607 Y-58.080587 Z-0.750000
G3 F8.333333 I-0.008653 J0.903114 K0.000000 X-8.491146 Y-57.186126 Z-0.750000
G1 F8.333333 X-8.491146 Y-56.087011 Z-0.750000
G1 F8.333333 X-7.265856 Y-56.087011 Z-0.750000
G3 F8.333333 I-0.006969 J0.889090 K0.000000 X-6.393406 Y-55.328880 Z-0.750000
G3 F8.333333 I-5.681713 J0.623620 K0.000000 X-6.380916 Y-54.208449 Z-0.750000
G1 F8.333333 X-5.494490 Y-54.208449 Z-0.750000
G3 F8.333333 I-0.000385 J0.805425 K0.000000 X-4.888477 Y-52.872938 Z-0.750000
G1 F8.333333 X-6.380916 Y-51.167293 Z-0.750000
G1 F8.333333 X-6.380916 Y-50.259634 Z-0.750000
G1 F8.333333 X-5.571459 Y-50.259634 Z-0.750000
G1 F8.333333 X-3.847116 Y-51.952625 Z-0.750000
G1 F8.333333 X-3.847116 Y-53.292780 Z-0.750000
G3 F8.333333 I0.924845 J0.009176 K0.000000 X-2.931447 Y-54.208449 Z-0.750000
G1 F8.333333 X2.091447 Y-54.208449 Z-0.750000
G3 F8.333333 I-0.009176 J0.924845 K0.000000 X3.007116 Y-53.292780 Z-0.750000
G1 F8.333333 X3.007116 Y-51.952625 Z-0.750000
G1 F8.333333 X4.731459 Y-50.259634 Z-0.750000
G1 F8.333333 X5.540916 Y-50.259634 Z-0.750000
G1 F8.333333 X5.540916 Y-51.167293 Z-0.750000
G1 F8.333333 X4.048477 Y-52.872938 Z-0.750000
G3 F8.333333 I0.606398 J-0.530086 K0.000000 X4.654490 Y-54.208449 Z-0.750000
G1 F8.333333 X5.540916 Y-54.208449 Z-0.750000
G1 F8.333333 X5.540916 Y-55.202071 Z-0.750000
G3 F8.333333 I0.893351 J0.008410 K0.000000 X6.425856 Y-56.087011 Z-0.750000
G1 F8.333333 X7.649506 Y-56.087011 Z-0.750000
G1 F8.333333 X7.649506 Y-57.186126 Z-0.750000
G3 F8.333333 I0.903114 J0.008653 K0.000000 X8.543967 Y-58.080588 Z-0.750000
G1 F8.333333 X9.604746 Y-58.080587 Z-0.750000
G1 F8.333333 X9.604746 Y-62.646301 Z-0.750000
G1 F8.333333 X8.949506 Y-62.646301 Z-0.750000
G1 F8.333333 X8.949506 Y-59.711519 Z-0.750000
G3 F8.333333 I-0.947040 J-0.009684 K0.000000 X8.012150 Y-58.774163 Z-0.750000
G1 F8.333333 X6.514311 Y-58.774163 Z-0.750000
G3 F8.333333 I0.008710 J-0.905428 K0.000000 X5.617593 Y-59.670881 Z-0.750000
G1 F8.333333 X5.617593 Y-63.023284 Z-0.750000
G1 F8.333333 X4.046878 Y-64.563201 Z-0.750000
G1 F8.333333 X1.281907 Y-64.563201 Z-0.750000
G1 F8.333333 X1.281907 Y-63.946301 Z-0.750000
G1 F8.333333 X4.189194 Y-63.946301 Z-0.750000
G3 F8.333333 I-0.009433 J0.935945 K0.000000 X5.115706 Y-63.019789 Z-0.750000
G1 F8.333333 X5.115706 Y-61.578471 Z-0.750000
G3 F8.333333 I-0.895881 J-0.008474 K0.000000 X4.228299 Y-60.691063 Z-0.750000
G1 F8.333333 X-5.068299 Y-60.691063 Z-0.750000
G3 F8.333333 I0.008474 J-0.895881 K0.000000 X-5.955706 Y-61.578471 Z-0.750000
G1 F8.333333 X-5.955706 Y-63.019789 Z-0.750000
G3 F8.333333 I0.935945 J0.009433 K0.000000 X-5.029194 Y-63.946301 Z-0.750000
G1 F8.333333 X-2.123607 Y-63.946301 Z-0.750000
G1 F8.333333 X-2.123607 Y-64.561501 Z-0.750000
G1 F8.333333 X-4.887089 Y-64.561501 Z-0.750000
G1 F8.333333 X-6.457766 Y-63.023101 Z-0.750000
G1 F8.333333 X-6.457766 Y-59.670881 Z-0.750000
G3 F8.333333 I-0.905428 J-0.008710 K0.000000 X-7.354484 Y-58.774163 Z-0.750000
G1 F8.333333 X-8.853790 Y-58.774163 Z-0.750000
G3 F8.333333 I0.009684 J-0.947040 K0.000000 X-9.791146 Y-59.711519 Z-0.750000
G1 F8.333333 X-9.791146 Y-62.646301 Z-0.750000
G1 F8.333333 X-10.444746 Y-62.646301 Z-0.750000
G1 F8.333333 X-10.444746 Y-58.080588 Z-0.750000
G1 F5.000000 X-10.444746 Y-58.080588 Z-1.500000
G1 F8.333333 X-9.385607 Y-58.080587 Z-1.500000
G3 F8.333333 I-0.008653 J0.903114 K0.000000 X-8.491146 Y-57.186126 Z-1.500000
G1 F8.333333 X-8.491146 Y-56.087011 Z-1.500000
G1 F8.333333 X-7.265856 Y-56.087011 Z-1.500000
G3 F8.333333 I-0.006969 J0.889090 K0.000000 X-6.393406 Y-55.328880 Z-1.500000
G3 F8.333333 I-5.681713 J0.623620 K0.000000 X-6.380916 Y-54.208449 Z-1.500000
G1 F8.333333 X-5.494490 Y-54.208449 Z-1.500000
G3 F8.333333 I-0.000385 J0.805425 K0.000000 X-4.888477 Y-52.872938 Z-1.500000
G1 F8.333333 X-6.380916 Y-51.167293 Z-1.500000
G1 F8.333333 X-6.380916 Y-50.259634 Z-1.500000
G1 F8.333333 X-5.571459 Y-50.259634 Z-1.500000
G1 F8.333333 X-3.847116 Y-51.952625 Z-1.500000
G1 F8.333333 X-3.847116 Y-53.292780 Z-1.500000
G3 F8.333333 I0.924845 J0.009176 K0.000000 X-2.931447 Y-54.208449 Z-1.500000
G1 F8.333333 X2.091447 Y-54.208449 Z-1.500000
G3 F8.333333 I-0.009176 J0.924845 K0.000000 X3.007116 Y-53.292780 Z-1.500000
G1 F8.333333 X3.007116 Y-51.952625 Z-1.500000
G1 F8.333333 X4.731459 Y-50.259634 Z-1.500000
G1 F8.333333 X5.540916 Y-50.259634 Z-1.500000
G1 F8.333333 X5.540916 Y-51.167293 Z-1.500000
G1 F8.333333 X4.048477 Y-52.872938 Z-1.500000
G3 F8.333333 I0.606398 J-0.530086 K0.000000 X4.654490 Y-54.208449 Z-1.500000
G1 F8.333333 X5.540916 Y-54.208449 Z-1.500000
G1 F8.333333 X5.540916 Y-55.202071 Z-1.500000
G3 F8.333333 I0.893351 J0.008410 K0.000000 X6.425856 Y-56.087011 Z-1.500000
G1 F8.333333 X7.649506 Y-56.087011 Z-1.500000
G1 F8.333333 X7.649506 Y-57.186126 Z-1.500000
G3 F8.333333 I0.903114 J0.008653 K0.000000 X8.543967 Y-58.080588 Z-1.500000
G1 F8.333333 X9.604746 Y-58.080587 Z-1.500000
G1 F8.333333 X9.604746 Y-62.646301 Z-1.500000
G1 F8.333333 X8.949506 Y-62.646301 Z-1.500000
G1 F8.333333 X8.949506 Y-59.711519 Z-1.500000
G3 F8.333333 I-0.947040 J-0.009684 K0.000000 X8.012150 Y-58.774163 Z-1.500000
G1 F8.333333 X6.514311 Y-58.774163 Z-1.500000
G3 F8.333333 I0.008710 J-0.905428 K0.000000 X5.617593 Y-59.670881 Z-1.500000
G1 F8.333333 X5.617593 Y-63.023284 Z-1.500000
G1 F8.333333 X4.046878 Y-64.563201 Z-1.500000
G1 F8.333333 X1.281907 Y-64.563201 Z-1.500000
G1 F8.333333 X1.281907 Y-63.946301 Z-1.500000
G1 F8.333333 X4.189194 Y-63.946301 Z-1.500000
G3 F8.333333 I-0.009433 J0.935945 K0.000000 X5.115706 Y-63.019789 Z-1.500000
G1 F8.333333 X5.115706 Y-61.578471 Z-1.500000
G3 F8.333333 I-0.895881 J-0.008474 K0.000000 X4.228299 Y-60.691063 Z-1.500000
G1 F8.333333 X-5.068299 Y-60.691063 Z-1.500000
G3 F8.333333 I0.008474 J-0.895881 K0.000000 X-5.955706 Y-61.578471 Z-1.500000
G1 F8.333333 X-5.955706 Y-63.019789 Z-1.500000
G3 F8.333333 I0.935945 J0.009433 K0.000000 X-5.029194 Y-63.946301 Z-1.500000
G1 F8.333333 X-2.123607 Y-63.946301 Z-1.500000
G1 F8.333333 X-2.123607 Y-64.561501 Z-1.500000
G1 F8.333333 X-4.887089 Y-64.561501 Z-1.500000
G1 F8.333333 X-6.457766 Y-63.023101 Z-1.500000
G1 F8.333333 X-6.457766 Y-59.670881 Z-1.500000
G3 F8.333333 I-0.905428 J-0.008710 K0.000000 X-7.354484 Y-58.774163 Z-1.500000
G1 F8.333333 X-8.853790 Y-58.774163 Z-1.500000
G3 F8.333333 I0.009684 J-0.947040 K0.000000 X-9.791146 Y-59.711519 Z-1.500000
G1 F8.333333 X-9.791146 Y-62.646301 Z-1.500000
G1 F8.333333 X-10.444746 Y-62.646301 Z-1.500000
G1 F8.333333 X-10.444746 Y-58.080588 Z-1.500000
G1 F5.000000 X-10.444746 Y-58.080588 Z-2.000000
G1 F8.333333 X-9.385607 Y-58.080587 Z-2.000000
G3 F8.333333 I-0.008653 J0.903114 K0.000000 X-8.491146 Y-57.186126 Z-2.000000
G1 F8.333333 X-8.491146 Y-56.087011 Z-2.000000
G1 F8.333333 X-7.265856 Y-56.087011 Z-2.000000
G3 F8.333333 I-0.006969 J0.889090 K0.000000 X-6.393406 Y-55.328880 Z-2.000000
G3 F8.333333 I-5.681713 J0.623620 K0.000000 X-6.380916 Y-54.208449 Z-2.000000
G1 F8.333333 X-5.494490 Y-54.208449 Z-2.000000
G3 F8.333333 I-0.000385 J0.805425 K0.000000 X-4.888477 Y-52.872938 Z-2.000000
G1 F8.333333 X-6.380916 Y-51.167293 Z-2.000000
G1 F8.333333 X-6.380916 Y-50.259634 Z-2.000000
G1 F8.333333 X-5.571459 Y-50.259634 Z-2.000000
G1 F8.333333 X-3.847116 Y-51.952625 Z-2.000000
G1 F8.333333 X-3.847116 Y-53.292780 Z-2.000000
G3 F8.333333 I0.924845 J0.009176 K0.000000 X-2.931447 Y-54.208449 Z-2.000000
G1 F8.333333 X2.091447 Y-54.208449 Z-2.000000
G3 F8.333333 I-0.009176 J0.924845 K0.000000 X3.007116 Y-53.292780 Z-2.000000
G1 F8.333333 X3.007116 Y-51.952625 Z-2.000000
G1 F8.333333 X4.731459 Y-50.259634 Z-2.000000
G1 F8.333333 X5.540916 Y-50.259634 Z-2.000000
G1 F8.333333 X5.540916 Y-51.167293 Z-2.000000
G1 F8.333333 X4.048477 Y-52.872938 Z-2.000000
G3 F8.333333 I0.606398 J-0.530086 K0.000000 X4.654490 Y-54.208449 Z-2.000000
G1 F8.333333 X5.540916 Y-54.208449 Z-2.000000
G1 F8.333333 X5.540916 Y-55.202071 Z-2.000000
G3 F8.333333 I0.893351 J0.008410 K0.000000 X6.425856 Y-56.087011 Z-2.000000
G1 F8.333333 X7.649506 Y-56.087011 Z-2.000000
G1 F8.333333 X7.649506 Y-57.186126 Z-2.000000
G3 F8.333333 I0.903114 J0.008653 K0.000000 X8.543967 Y-58.080588 Z-2.000000
G1 F8.333333 X9.604746 Y-58.080587 Z-2.000000
G1 F8.333333 X9.604746 Y-62.646301 Z-2.000000
G1 F8.333333 X8.949506 Y-62.646301 Z-2.000000
G1 F8.333333 X8.949506 Y-59.711519 Z-2.000000
G3 F8.333333 I-0.947040 J-0.009684 K0.000000 X8.012150 Y-58.774163 Z-2.000000
G1 F8.333333 X6.514311 Y-58.774163 Z-2.000000
G3 F8.333333 I0.008710 J-0.905428 K0.000000 X5.617593 Y-59.670881 Z-2.000000
G1 F8.333333 X5.617593 Y-63.023284 Z-2.000000
G1 F8.333333 X4.046878 Y-64.563201 Z-2.000000
G1 F8.333333 X1.281907 Y-64.563201 Z-2.000000
G1 F8.333333 X1.281907 Y-63.946301 Z-2.000000
G1 F8.333333 X4.189194 Y-63.946301 Z-2.000000
G3 F8.333333 I-0.009433 J0.935945 K0.000000 X5.115706 Y-63.019789 Z-2.000000
G1 F8.333333 X5.115706 Y-61.578471 Z-2.000000
G3 F8.333333 I-0.895881 J-0.008474 K0.000000 X4.228299 Y-60.691063 Z-2.000000
G1 F8.333333 X-5.068299 Y-60.691063 Z-2.000000
G3 F8.333333 I0.008474 J-0.895881 K0.000000 X-5.955706 Y-61.578471 Z-2.000000
G1 F8.333333 X-5.955706 Y-63.019789 Z-2.000000
G3 F8.333333 I0.935945 J0.009433 K0.000000 X-5.029194 Y-63.946301 Z-2.000000
G1 F8.333333 X-2.123607 Y-63.946301 Z-2.000000
G1 F8.333333 X-2.123607 Y-64.561501 Z-2.000000
G1 F8.333333 X-4.887089 Y-64.561501 Z-2.000000
G1 F8.333333 X-6.457766 Y-63.023101 Z-2.000000
G1 F8.333333 X-6.457766 Y-59.670881 Z-2.000000
G3 F8.333333 I-0.905428 J-0.008710 K0.000000 X-7.354484 Y-58.774163 Z-2.000000
G1 F8.333333 X-8.853790 Y-58.774163 Z-2.000000
G3 F8.333333 I0.009684 J-0.947040 K0.000000 X-9.791146 Y-59.711519 Z-2.000000
G1 F8.333333 X-9.791146 Y-62.646301 Z-2.000000
G1 F8.333333 X-10.444746 Y-62.646301 Z-2.000000
G1 F8.333333 X-10.444746 Y-58.080588 Z-2.000000
G0 Z5.000000
G0 X-7.332518 Y-57.576327 Z5.000000
G0 X-7.332518 Y-57.576327 Z3.000000
G1 F5.000000 X-7.332518 Y-57.576327 Z-0.750000
G3 F8.333333 I-1.453030 J0.304245 K0.000000 X-7.301082 Y-57.287011 Z-0.750000
G3 F8.333333 I0.017613 J0.909734 K0.000000 X-7.123265 Y-57.272967 Z-0.750000
G3 F8.333333 I1.679334 J0.012472 K0.000000 X-7.088562 Y-57.600354 Z-0.750000
G1 F8.333333 X-7.332518 Y-57.576327 Z-0.750000
G1 F5.000000 X-5.917638 Y-57.348982 Z-0.750000
G2 F8.333333 I0.887201 J0.142556 K0.000000 X-5.928977 Y-57.214966 Z-0.750000
G1 F8.333333 X-5.928977 Y-55.675094 Z-0.750000
G2 F8.333333 I0.898540 J-0.008540 K0.000000 X-5.038977 Y-54.785094 Z-0.750000
G1 F8.333333 X-3.435984 Y-54.785094 Z-0.750000
G2 F8.333333 I-0.008540 J-0.898540 K0.000000 X-2.545984 Y-55.675094 Z-0.750000
G1 F8.333333 X-2.545984 Y-57.214966 Z-0.750000
G2 F8.333333 I-0.898540 J0.008540 K0.000000 X-3.435984 Y-58.104966 Z-0.750000
G1 F8.333333 X-5.038977 Y-58.104966 Z-0.750000
G2 F8.333333 I0.008540 J0.898540 K0.000000 X-5.917638 Y-57.348982 Z-0.750000
G1 F5.000000 X-5.917638 Y-57.348982 Z-1.500000
G2 F8.333333 I0.887201 J0.142556 K0.000000 X-5.928977 Y-57.214966 Z-1.500000
G1 F8.333333 X-5.928977 Y-55.675094 Z-1.500000
G2 F8.333333 I0.898540 J-0.008540 K0.000000 X-5.038977 Y-54.785094 Z-1.500000
G1 F8.333333 X-3.435984 Y-54.785094 Z-1.500000
G2 F8.333333 I-0.008540 J-0.898540 K0.000000 X-2.545984 Y-55.675094 Z-1.500000
G1 F8.333333 X-2.545984 Y-57.214966 Z-1.500000
G2 F8.333333 I-0.898540 J0.008540 K0.000000 X-3.435984 Y-58.104966 Z-1.500000
G1 F8.333333 X-5.038977 Y-58.104966 Z-1.500000
G2 F8.333333 I0.008540 J0.898540 K0.000000 X-5.917638 Y-57.348982 Z-1.500000
G1 F5.000000 X-7.094756 Y-57.568866 Z-1.500000
G3 F8.333333 I1.650825 J0.308371 K0.000000 X-7.088562 Y-57.600354 Z-1.500000
G1 F8.333333 X-7.332518 Y-57.576327 Z-1.500000
G3 F8.333333 I-1.453030 J0.304245 K0.000000 X-7.301082 Y-57.287011 Z-1.500000
G3 F8.333333 I0.017613 J0.909734 K0.000000 X-7.123265 Y-57.272967 Z-1.500000
G3 F8.333333 I1.679334 J0.012472 K0.000000 X-7.094756 Y-57.568866 Z-1.500000
G1 F5.000000 X-7.094756 Y-57.568866 Z-2.000000
G3 F8.333333 I1.650825 J0.308371 K0.000000 X-7.088562 Y-57.600354 Z-2.000000
G1 F8.333333 X-7.332518 Y-57.576327 Z-2.000000
G3 F8.333333 I-1.453030 J0.304245 K0.000000 X-7.301082 Y-57.287011 Z-2.000000
G3 F8.333333 I0.017613 J0.909734 K0.000000 X-7.123265 Y-57.272967 Z-2.000000
G3 F8.333333 I1.679334 J0.012472 K0.000000 X-7.094756 Y-57.568866 Z-2.000000
G1 F5.000000 X-5.915480 Y-57.361816 Z-2.000000
G2 F8.333333 I0.885043 J0.155390 K0.000000 X-5.928977 Y-57.214966 Z-2.000000
G1 F8.333333 X-5.928977 Y-55.675094 Z-2.000000
G2 F8.333333 I0.898540 J-0.008540 K0.000000 X-5.038977 Y-54.785094 Z-2.000000
G1 F8.333333 X-3.435984 Y-54.785094 Z-2.000000
G2 F8.333333 I-0.008540 J-0.898540 K0.000000 X-2.545984 Y-55.675094 Z-2.000000
G1 F8.333333 X-2.545984 Y-57.214966 Z-2.000000
G2 F8.333333 I-0.898540 J0.008540 K0.000000 X-3.435984 Y-58.104966 Z-2.000000
G1 F8.333333 X-5.038977 Y-58.104966 Z-2.000000
G2 F8.333333 I0.008540 J0.898540 K0.000000 X-5.915480 Y-57.361816 Z-2.000000
G0 Z5.000000
G0 X-5.299410 Y-59.279316 Z5.000000
G0 X-5.299410 Y-59.279316 Z3.000000
G1 F5.000000 X-5.299410 Y-59.279316 Z-0.750000
G1 F8.333333 X-5.038977 Y-59.304966 Z-0.750000
G1 F8.333333 X-3.435984 Y-59.304966 Z-0.750000
G3 F8.333333 I-0.000010 J2.090010 K0.000000 X-1.345984 Y-57.214966 Z-0.750000
G1 F8.333333 X-1.345984 Y-55.675094 Z-0.750000
G1 F8.333333 X-1.372246 Y-55.408449 Z-0.750000
G1 F8.333333 X0.532246 Y-55.408449 Z-0.750000
G1 F8.333333 X0.505984 Y-55.675094 Z-0.750000
G1 F8.333333 X0.505984 Y-57.214966 Z-0.750000
G3 F8.333333 I2.090010 J0.000010 K0.000000 X2.595984 Y-59.304966 Z-0.750000
G1 F8.333333 X4.198977 Y-59.304966 Z-0.750000
G1 F8.333333 X4.459233 Y-59.279333 Z-0.750000
G3 F8.333333 I1.164425 J-0.247538 K0.000000 X4.433315 Y-59.511255 Z-0.750000
G1 F8.333333 X4.228299 Y-59.491063 Z-0.750000
G1 F8.333333 X-5.068299 Y-59.491063 Z-0.750000
G1 F8.333333 X-5.273486 Y-59.511272 Z-0.750000
G3 F8.333333 I-1.190507 J-0.015624 K0.000000 X-5.299410 Y-59.279316 Z-0.750000
G1 F5.000000 X-5.299410 Y-59.279316 Z-1.500000
G1 F8.333333 X-5.038977 Y-59.304966 Z-1.500000
G1 F8.333333 X-3.435984 Y-59.304966 Z-1.500000
G3 F8.333333 I-0.000010 J2.090010 K0.000000 X-1.345984 Y-57.214966 Z-1.500000
G1 F8.333333 X-1.345984 Y-55.675094 Z-1.500000
G1 F8.333333 X-1.372246 Y-55.408449 Z-1.500000
G1 F8.333333 X0.532246 Y-55.408449 Z-1.500000
G1 F8.333333 X0.505984 Y-55.675094 Z-1.500000
G1 F8.333333 X0.505984 Y-57.214966 Z-1.500000
G3 F8.333333 I2.090010 J0.000010 K0.000000 X2.595984 Y-59.304966 Z-1.500000
G1 F8.333333 X4.198977 Y-59.304966 Z-1.500000
G1 F8.333333 X4.459233 Y-59.279333 Z-1.500000
G3 F8.333333 I1.164425 J-0.247538 K0.000000 X4.433315 Y-59.511255 Z-1.500000
G1 F8.333333 X4.228299 Y-59.491063 Z-1.500000
G1 F8.333333 X-5.068299 Y-59.491063 Z-1.500000
G1 F8.333333 X-5.273486 Y-59.511272 Z-1.500000
G3 F8.333333 I-1.190507 J-0.015624 K0.000000 X-5.299410 Y-59.279316 Z-1.500000
G1 F5.000000 X-5.299410 Y-59.279316 Z-2.000000
G1 F8.333333 X-5.038977 Y-59.304966 Z-2.000000
G1 F8.333333 X-3.435984 Y-59.304966 Z-2.000000
G3 F8.333333 I-0.000010 J2.090010 K0.000000 X-1.345984 Y-57.214966 Z-2.000000
G1 F8.333333 X-1.345984 Y-55.675094 Z-2.000000
G1 F8.333333 X-1.372246 Y-55.408449 Z-2.000000
G1 F8.333333 X0.532246 Y-55.408449 Z-2.000000
G1 F8.333333 X0.505984 Y-55.675094 Z-2.000000
G1 F8.333333 X0.505984 Y-57.214966 Z-2.000000
G3 F8.333333 I2.090010 J0.000010 K0.000000 X2.595984 Y-59.304966 Z-2.000000
G1 F8.333333 X4.198977 Y-59.304966 Z-2.000000
G1 F8.333333 X4.459233 Y-59.279333 Z-2.000000
G3 F8.333333 I1.164425 J-0.247538 K0.000000 X4.433315 Y-59.511255 Z-2.000000
G1 F8.333333 X4.228299 Y-59.491063 Z-2.000000
G1 F8.333333 X-5.068299 Y-59.491063 Z-2.000000
G1 F8.333333 X-5.273486 Y-59.511272 Z-2.000000
G3 F8.333333 I-1.190507 J-0.015624 K0.000000 X-5.299410 Y-59.279316 Z-2.000000
G0 Z5.000000
G0 X-2.025146 Y-59.166063 Z5.000000
G0 X-2.025146 Y-59.166063 Z3.000000
G1 F5.000000 X-2.025146 Y-59.166063 Z-0.750000
G3 F8.333333 I-1.405121 J1.957119 K0.000000 X-1.020984 Y-57.214966 Z-0.750000
G1 F8.333333 X-1.020984 Y-55.733449 Z-0.750000
G1 F8.333333 X0.180984 Y-55.733449 Z-0.750000
G1 F8.333333 X0.180984 Y-57.214966 Z-0.750000
G3 F8.333333 I2.387294 J-0.005578 K0.000000 X1.184745 Y-59.166063 Z-0.750000
G1 F8.333333 X-2.025146 Y-59.166063 Z-0.750000
G1 F5.000000 X-1.241751 Y-58.841063 Z-0.750000
G3 F8.333333 I-1.931350 J1.522442 K0.000000 X-0.744021 Y-57.702695 Z-0.750000
G3 F8.333333 I-8.323089 J1.065987 K0.000000 X-0.695984 Y-56.058449 Z-0.750000
G1 F8.333333 X-0.144016 Y-56.058449 Z-0.750000
G1 F8.333333 X-0.144016 Y-57.214966 Z-0.750000
G3 F8.333333 I2.597744 J-0.029648 K0.000000 X0.404215 Y-58.841063 Z-0.750000
G1 F8.333333 X-1.241751 Y-58.841063 Z-0.750000
G1 F5.000000 X-0.679923 Y-58.516063 Z-0.750000
G3 F8.333333 I-2.025385 J1.099006 K0.000000 X-0.420000 Y-57.712633 Z-0.750000
G1 F8.333333 X-0.414734 Y-57.766099 Z-0.750000
G3 F8.333333 I3.182086 J0.585220 K0.000000 X-0.200942 Y-58.468273 Z-0.750000
G1 F8.333333 X-0.174437 Y-58.516063 Z-0.750000
G1 F8.333333 X-0.679923 Y-58.516063 Z-0.750000
G1 F5.000000 X-0.679923 Y-58.516063 Z-1.500000
G3 F8.333333 I-2.025385 J1.099006 K0.000000 X-0.420000 Y-57.712633 Z-1.500000
G1 F8.333333 X-0.414734 Y-57.766099 Z-1.500000
G3 F8.333333 I3.182086 J0.585220 K0.000000 X-0.200942 Y-58.468273 Z-1.500000
G1 F8.333333 X-0.174437 Y-58.516063 Z-1.500000
G1 F8.333333 X-0.679923 Y-58.516063 Z-1.500000
G1 F5.000000 X-0.956273 Y-58.383336 Z-1.500000
G3 F8.333333 I-2.216828 J1.064714 K0.000000 X-0.744021 Y-57.702695 Z-1.500000
G3 F8.333333 I-8.323089 J1.065987 K0.000000 X-0.695984 Y-56.058449 Z-1.500000
G1 F8.333333 X-0.144016 Y-56.058449 Z-1.500000
G1 F8.333333 X-0.144016 Y-57.214966 Z-1.500000
G3 F8.333333 I2.597744 J-0.029648 K0.000000 X0.404215 Y-58.841063 Z-1.500000
G1 F8.333333 X-1.241751 Y-58.841063 Z-1.500000
G3 F8.333333 I-1.931350 J1.522442 K0.000000 X-0.956273 Y-58.383336 Z-1.500000
G1 F5.000000 X-1.253751 Y-58.242124 Z-1.500000
G3 F8.333333 I-2.176515 J1.033180 K0.000000 X-1.020984 Y-57.214966 Z-1.500000
G1 F8.333333 X-1.020984 Y-55.733449 Z-1.500000
G1 F8.333333 X0.180984 Y-55.733449 Z-1.500000
G1 F8.333333 X0.180984 Y-57.214966 Z-1.500000
G3 F8.333333 I2.387294 J-0.005578 K0.000000 X1.184745 Y-59.166063 Z-1.500000
G1 F8.333333 X-2.025146 Y-59.166063 Z-1.500000
G3 F8.333333 I-1.405121 J1.957119 K0.000000 X-1.253751 Y-58.242124 Z-1.500000
G1 F5.000000 X-0.957024 Y-58.384896 Z-2.000000
G3 F8.333333 I-2.216078 J1.066275 K0.000000 X-0.744021 Y-57.702695 Z-2.000000
G3 F8.333333 I-8.323089 J1.065987 K0.000000 X-0.695984 Y-56.058449 Z-2.000000
G1 F8.333333 X-0.144016 Y-56.058449 Z-2.000000
G1 F8.333333 X-0.144016 Y-57.214966 Z-2.000000
G3 F8.333333 I2.597744 J-0.029648 K0.000000 X0.404215 Y-58.841063 Z-2.000000
G1 F8.333333 X-1.241751 Y-58.841063 Z-2.000000
G3 F8.333333 I-1.931350 J1.522442 K0.000000 X-0.957024 Y-58.384896 Z-2.000000
G1 F5.000000 X-0.679923 Y-58.516063 Z-2.000000
G3 F8.333333 I-2.025385 J1.099006 K0.000000 X-0.420000 Y-57.712633 Z-2.000000
G1 F8.333333 X-0.414734 Y-57.766099 Z-2.000000
G3 F8.333333 I3.182086 J0.585220 K0.000000 X-0.200942 Y-58.468273 Z-2.000000
G1 F8.333333 X-0.174437 Y-58.516063 Z-2.000000
G1 F8.333333 X-0.679923 Y-58.516063 Z-2.000000
G1 F5.000000 X-1.254225 Y-58.243122 Z-2.000000
G3 F8.333333 I-2.176041 J1.034178 K0.000000 X-1.020984 Y-57.214966 Z-2.000000
G1 F8.333333 X-1.020984 Y-55.733449 Z-2.000000
G1 F8.333333 X0.180984 Y-55.733449 Z-2.000000
G1 F8.333333 X0.180984 Y-57.214966 Z-2.000000
G3 F8.333333 I2.387294 J-0.005578 K0.000000 X1.184745 Y-59.166063 Z-2.000000
G1 F8.333333 X-2.025146 Y-59.166063 Z-2.000000
G3 F8.333333 I-1.405121 J1.957119 K0.000000 X-1.254225 Y-58.243122 Z-2.000000
G0 Z5.000000
G0 X1.736716 Y-57.439572 Z5.000000
G0 X1.736716 Y-57.439572 Z3.000000
G1 F5.000000 X1.736716 Y-57.439572 Z-0.750000
G2 F8.333333 I0.867808 J0.233146 K0.000000 X1.705984 Y-57.214966 Z-0.750000
G1 F8.333333 X1.705984 Y-55.675094 Z-0.750000
G2 F8.333333 I0.898540 J-0.008540 K0.000000 X2.595984 Y-54.785094 Z-0.750000
G1 F8.333333 X4.198977 Y-54.785094 Z-0.750000
G2 F8.333333 I-0.008540 J-0.898540 K0.000000 X5.088977 Y-55.675094 Z-0.750000
G1 F8.333333 X5.088977 Y-57.214966 Z-0.750000
G2 F8.333333 I-0.898540 J0.008540 K0.000000 X4.198977 Y-58.104966 Z-0.750000
G1 F8.333333 X2.595984 Y-58.104966 Z-0.750000
G2 F8.333333 I0.008540 J0.898540 K0.000000 X1.736716 Y-57.439572 Z-0.750000
G1 F5.000000 X1.736716 Y-57.439572 Z-1.500000
G2 F8.333333 I0.867808 J0.233146 K0.000000 X1.705984 Y-57.214966 Z-1.500000
G1 F8.333333 X1.705984 Y-55.675094 Z-1.500000
G2 F8.333333 I0.898540 J-0.008540 K0.000000 X2.595984 Y-54.785094 Z-1.500000
G1 F8.333333 X4.198977 Y-54.785094 Z-1.500000
G2 F8.333333 I-0.008540 J-0.898540 K0.000000 X5.088977 Y-55.675094 Z-1.500000
G1 F8.333333 X5.088977 Y-57.214966 Z-1.500000
G2 F8.333333 I-0.898540 J0.008540 K0.000000 X4.198977 Y-58.104966 Z-1.500000
G1 F8.333333 X2.595984 Y-58.104966 Z-1.500000
G2 F8.333333 I0.008540 J0.898540 K0.000000 X1.736716 Y-57.439572 Z-1.500000
G1 F5.000000 X1.736716 Y-57.439572 Z-2.000000
G2 F8.333333 I0.867808 J0.233146 K0.000000 X1.705984 Y-57.214966 Z-2.000000
G1 F8.333333 X1.705984 Y-55.675094 Z-2.000000
G2 F8.333333 I0.898540 J-0.008540 K0.000000 X2.595984 Y-54.785094 Z-2.000000
G1 F8.333333 X4.198977 Y-54.785094 Z-2.000000
G2 F8.333333 I-0.008540 J-0.898540 K0.000000 X5.088977 Y-55.675094 Z-2.000000
G1 F8.333333 X5.088977 Y-57.214966 Z-2.000000
G2 F8.333333 I-0.898540 J0.008540 K0.000000 X4.198977 Y-58.104966 Z-2.000000
G1 F8.333333 X2.595984 Y-58.104966 Z-2.000000
G2 F8.333333 I0.008540 J0.898540 K0.000000 X1.736716 Y-57.439572 Z-2.000000
G0 Z5.000000
G0 X6.248566 Y-57.600337 Z5.000000
G0 X6.248566 Y-57.600337 Z3.000000
G1 F5.000000 X6.248566 Y-57.600337 Z-0.750000
G3 F8.333333 I-1.644585 J0.339837 K0.000000 X6.283264 Y-57.272967 Z-0.750000
G3 F8.333333 I0.159385 J0.887365 K0.000000 X6.459442 Y-57.287011 Z-0.750000
G3 F8.333333 I1.485182 J0.015000 K0.000000 X6.490906 Y-57.576468 Z-0.750000
G1 F8.333333 X6.248566 Y-57.600337 Z-0.750000
G1 F5.000000 X6.248566 Y-57.600337 Z-1.500000
G3 F8.333333 I-1.644585 J0.339837 K0.000000 X6.283264 Y-57.272967 Z-1.500000
G3 F8.333333 I0.159385 J0.887365 K0.000000 X6.459442 Y-57.287011 Z-1.500000
G3 F8.333333 I1.485182 J0.015000 K0.000000 X6.490906 Y-57.576468 Z-1.500000
G1 F8.333333 X6.248566 Y-57.600337 Z-1.500000
G1 F5.000000 X6.248566 Y-57.600337 Z-2.000000
G3 F8.333333 I-1.644585 J0.339837 K0.000000 X6.283264 Y-57.272967 Z-2.000000
G3 F8.333333 I0.159385 J0.887365 K0.000000 X6.459442 Y-57.287011 Z-2.000000
G3 F8.333333 I1.485182 J0.015000 K0.000000 X6.490906 Y-57.576468 Z-2.000000
G1 F8.333333 X6.248566 Y-57.600337 Z-2.000000
G0 F8.333333 Z5.000000
G0 Z5.000000
G0 X6.248566 Y-57.600337
G0 X29.422842 Y-44.413506
G0 X29.422842 Y-44.413506 Z3.000000
G1 F5.000000 X29.422842 Y-44.413506 Z-0.750000
G1 F8.333333 X29.829429 Y-44.006919 Z-0.750000
G1 F8.333333 X31.842629 Y-46.020120 Z-0.750000
G3 F8.333333 I0.636396 J0.648830 K0.000000 X33.115422 Y-46.020120 Z-0.750000
G1 F8.333333 X34.129799 Y-45.005743 Z-0.750000
G3 F8.333333 I-0.644577 J0.634300 K0.000000 X34.210635 Y-43.831450 Z-0.750000
G3 F8.333333 I-4.004159 J-3.203707 K0.000000 X33.508682 Y-43.111833 Z-0.750000
G1 F8.333333 X34.030349 Y-42.590166 Z-0.750000
G3 F8.333333 I-0.643956 J0.633265 K0.000000 X33.393953 Y-41.053770 Z-0.750000
G1 F8.333333 X31.482577 Y-41.053770 Z-0.750000
G1 F8.333333 X30.806752 Y-40.377945 Z-0.750000
G1 F8.333333 X31.279597 Y-39.905101 Z-0.750000
G1 F8.333333 X31.969026 Y-40.594530 Z-0.750000
G3 F8.333333 I0.634300 J0.644577 K0.000000 X33.143320 Y-40.675365 Z-0.750000
G3 F8.333333 I-2.907011 J3.642632 K0.000000 X33.798105 Y-40.038243 Z-0.750000
G1 F8.333333 X34.553792 Y-40.793931 Z-0.750000
G3 F8.333333 I0.636396 J0.648830 K0.000000 X35.826584 Y-40.793931 Z-0.750000
G1 F8.333333 X40.793931 Y-35.826584 Z-0.750000
G3 F8.333333 I-0.648830 J0.636396 K0.000000 X40.793931 Y-34.553792 Z-0.750000
G1 F8.333333 X40.033460 Y-33.793321 Z-0.750000
G1 F8.333333 X40.751786 Y-33.074995 Z-0.750000
G3 F8.333333 I-0.644577 J0.634300 K0.000000 X40.832621 Y-31.900702 Z-0.750000
G3 F8.333333 I-4.358425 J-3.494445 K0.000000 X40.067140 Y-31.117557 Z-0.750000
G1 F8.333333 X40.377945 Y-30.806752 Z-0.750000
G1 F8.333333 X41.036424 Y-31.465231 Z-0.750000
G1 F8.333333 X41.049695 Y-33.404209 Z-0.750000
G3 F8.333333 I0.899549 J0.011480 K0.000000 X42.466454 Y-34.128810 Z-0.750000
G3 F8.333333 I-2.462736 J3.244761 K0.000000 X43.154114 Y-33.466402 Z-0.750000
G1 F8.333333 X43.774673 Y-34.086961 Z-0.750000
G3 F8.333333 I0.636396 J0.648830 K0.000000 X45.047465 Y-34.086961 Z-0.750000
G1 F8.333333 X46.041622 Y-33.092804 Z-0.750000
G3 F8.333333 I-0.648830 J0.636396 K0.000000 X46.041622 Y-31.820012 Z-0.750000
G1 F8.333333 X44.028979 Y-29.807369 Z-0.750000
G1 F8.333333 X44.413506 Y-29.422842 Z-0.750000
G1 F8.333333 X48.775392 Y-33.784728 Z-0.750000
G1 F8.333333 X48.085963 Y-34.474157 Z-0.750000
G3 F8.333333 I0.644577 J-0.634300 K0.000000 X48.005127 Y-35.648451 Z-0.750000
G3 F8.333333 I4.098414 J3.281062 K0.000000 X48.723980 Y-36.384967 Z-0.750000
G1 F8.333333 X48.242446 Y-36.866502 Z-0.750000
G3 F8.333333 I0.643956 J-0.633265 K0.000000 X48.878842 Y-38.402898 Z-0.750000
G1 F8.333333 X50.870268 Y-38.402898 Z-0.750000
G1 F8.333333 X51.513397 Y-39.046027 Z-0.750000
G1 F8.333333 X51.000526 Y-39.558897 Z-0.750000
G1 F8.333333 X50.343793 Y-38.902164 Z-0.750000
G3 F8.333333 I-0.636396 J-0.648830 K0.000000 X49.071001 Y-38.902164 Z-0.750000
G1 F8.333333 X48.299334 Y-39.673831 Z-0.750000
G1 F8.333333 X47.503621 Y-38.878118 Z-0.750000
G3 F8.333333 I-0.636396 J-0.648830 K0.000000 X46.230829 Y-38.878118 Z-0.750000
G1 F8.333333 X38.878118 Y-46.230829 Z-0.750000
G3 F8.333333 I0.648830 J-0.636396 K0.000000 X38.878118 Y-47.503621 Z-0.750000
G1 F8.333333 X39.673831 Y-48.299334 Z-0.750000
G1 F8.333333 X38.902164 Y-49.071001 Z-0.750000
G3 F8.333333 I0.644577 J-0.634300 K0.000000 X38.821328 Y-50.245295 Z-0.750000
G3 F8.333333 I4.202781 J3.366714 K0.000000 X39.558897 Y-51.000526 Z-0.750000
G1 F8.333333 X39.046027 Y-51.513397 Z-0.750000
G1 F8.333333 X38.402898 Y-50.870268 Z-0.750000
G1 F8.333333 X38.402898 Y-48.878842 Z-0.750000
G3 F8.333333 I-0.899581 J-0.005329 K0.000000 X36.986497 Y-48.147849 Z-0.750000
G3 F8.333333 I2.133105 J-2.829231 K0.000000 X36.384967 Y-48.723980 Z-0.750000
G1 F8.333333 X35.746950 Y-48.085963 Z-0.750000
G3 F8.333333 I-0.634300 J-0.644577 K0.000000 X34.572656 Y-48.005127 Z-0.750000
G3 F8.333333 I3.516351 J-4.385115 K0.000000 X33.784728 Y-48.775392 Z-0.750000
G1 F8.333333 X29.422842 Y-44.413506 Z-0.750000
G1 F5.000000 X29.422842 Y-44.413506 Z-1.500000
G1 F8.333333 X29.829429 Y-44.006919 Z-1.500000
G1 F8.333333 X31.842629 Y-46.020120 Z-1.500000
G3 F8.333333 I0.636396 J0.648830 K0.000000 X33.115422 Y-46.020120 Z-1.500000
G1 F8.333333 X34.129799 Y-45.005743 Z-1.500000
G3 F8.333333 I-0.644577 J0.634300 K0.000000 X34.210635 Y-43.831450 Z-1.500000
G3 F8.333333 I-4.004159 J-3.203707 K0.000000 X33.508682 Y-43.111833 Z-1.500000
G1 F8.333333 X34.030349 Y-42.590166 Z-1.500000
G3 F8.333333 I-0.643956 J0.633265 K0.000000 X33.393953 Y-41.053770 Z-1.500000
G1 F8.333333 X31.482577 Y-41.053770 Z-1.500000
G1 F8.333333 X30.806752 Y-40.377945 Z-1.500000
G1 F8.333333 X31.279597 Y-39.905101 Z-1.500000
G1 F8.333333 X31.969026 Y-40.594530 Z-1.500000
G3 F8.333333 I0.634300 J0.644577 K0.000000 X33.143320 Y-40.675365 Z-1.500000
G3 F8.333333 I-2.907011 J3.642632 K0.000000 X33.798105 Y-40.038243 Z-1.500000
G1 F8.333333 X34.553792 Y-40.793931 Z-1.500000
G3 F8.333333 I0.636396 J0.648830 K0.000000 X35.826584 Y-40.793931 Z-1.500000
G1 F8.333333 X40.793931 Y-35.826584 Z-1.500000
G3 F8.333333 I-0.648830 J0.636396 K0.000000 X40.793931 Y-34.553792 Z-1.500000
G1 F8.333333 X40.033460 Y-33.793321 Z-1.500000
G1 F8.333333 X40.751786 Y-33.074995 Z-1.500000
G3 F8.333333 I-0.644577 J0.634300 K0.000000 X40.832621 Y-31.900702 Z-1.500000
G3 F8.333333 I-4.358425 J-3.494445 K0.000000 X40.067140 Y-31.117557 Z-1.500000
G1 F8.333333 X40.377945 Y-30.806752 Z-1.500000
G1 F8.333333 X41.036424 Y-31.465231 Z-1.500000
G1 F8.333333 X41.049695 Y-33.404209 Z-1.500000
G3 F8.333333 I0.899549 J0.011480 K0.000000 X42.466454 Y-34.128810 Z-1.500000
G3 F8.333333 I-2.462736 J3.244761 K0.000000 X43.154114 Y-33.466402 Z-1.500000
G1 F8.333333 X43.774673 Y-34.086961 Z-1.500000
G3 F8.333333 I0.636396 J0.648830 K0.000000 X45.047465 Y-34.086961 Z-1.500000
G1 F8.333333 X46.041622 Y-33.092804 Z-1.500000
G3 F8.333333 I-0.648830 J0.636396 K0.000000 X46.041622 Y-31.820012 Z-1.500000
G1 F8.333333 X44.028979 Y-29.807369 Z-1.500000
G1 F8.333333 X44.413506 Y-29.422842 Z-1.500000
G1 F8.333333 X48.775392 Y-33.784728 Z-1.500000
G1 F8.333333 X48.085963 Y-34.474157 Z-1.500000
G3 F8.333333 I0.644577 J-0.634300 K0.000000 X48.005127 Y-35.648451 Z-1.500000
G3 F8.333333 I4.098414 J3.281062 K0.000000 X48.723980 Y-36.384967 Z-1.500000
G1 F8.333333 X48.242446 Y-36.866502 Z-1.500000
G3 F8.333333 I0.643956 J-0.633265 K0.000000 X48.878842 Y-38.402898 Z-1.500000
G1 F8.333333 X50.870268 Y-38.402898 Z-1.500000
G1 F8.333333 X51.513397 Y-39.046027 Z-1.500000
G1 F8.333333 X51.000526 Y-39.558897 Z-1.500000
G1 F8.333333 X50.343793 Y-38.902164 Z-1.500000
G3 F8.333333 I-0.636396 J-0.648830 K0.000000 X49.071001 Y-38.902164 Z-1.500000
G1 F8.333333 X48.299334 Y-39.673831 Z-1.500000
G1 F8.333333 X47.503621 Y-38.878118 Z-1.500000
G3 F8.333333 I-0.636396 J-0.648830 K0.000000 X46.230829 Y-38.878118 Z-1.500000
G1 F8.333333 X38.878118 Y-46.230829 Z-1.500000
G3 F8.333333 I0.648830 J-0.636396 K0.000000 X38.878118 Y-47.503621 Z-1.500000
G1 F8.333333 X39.673831 Y-48.299334 Z-1.500000
G1 F8.333333 X38.902164 Y-49.071001 Z-1.500000
G3 F8.333333 I0.644577 J-0.634300 K0.000000 X38.821328 Y-50.245295 Z-1.500000
G3 F8.333333 I4.202781 J3.366714 K0.000000 X39.558897 Y-51.000526 Z-1.500000
G1 F8.333333 X39.046027 Y-51.513397 Z-1.500000
G1 F8.333333 X38.402898 Y-50.870268 Z-1.500000
G1 F8.333333 X38.402898 Y-48.878842 Z-1.500000
G3 F8.333333 I-0.899581 J-0.005329 K0.000000 X36.986497 Y-48.147849 Z-1.500000
G3 F8.333333 I2.133105 J-2.829231 K0.000000 X36.384967 Y-48.723980 Z-1.500000
G1 F8.333333 X35.746950 Y-48.085963 Z-1.500000
G3 F8.333333 I-0.634300 J-0.644577 K0.000000 X34.572656 Y-48.005127 Z-1.500000
G3 F8.333333 I3.516351 J-4.385115 K0.000000 X33.784728 Y-48.775392 Z-1.500000
G1 F8.333333 X29.422842 Y-44.413506 Z-1.500000
G1 F5.000000 X29.422842 Y-44.413506 Z-2.000000
G1 F8.333333 X29.829429 Y-44.006919 Z-2.000000
G1 F8.333333 X31.842629 Y-46.020120 Z-2.000000
G3 F8.333333 I0.636396 J0.648830 K0.000000 X33.115422 Y-46.020120 Z-2.000000
G1 F8.333333 X34.129799 Y-45.005743 Z-2.000000
G3 F8.333333 I-0.644577 J0.634300 K0.000000 X34.210635 Y-43.831450 Z-2.000000
G3 F8.333333 I-4.004159 J-3.203707 K0.000000 X33.508682 Y-43.111833 Z-2.000000
G1 F8.333333 X34.030349 Y-42.590166 Z-2.000000
G3 F8.333333 I-0.643956 J0.633265 K0.000000 X33.393953 Y-41.053770 Z-2.000000
G1 F8.333333 X31.482577 Y-41.053770 Z-2.000000
G1 F8.333333 X30.806752 Y-40.377945 Z-2.000000
G1 F8.333333 X31.279597 Y-39.905101 Z-2.000000
G1 F8.333333 X31.969026 Y-40.594530 Z-2.000000
G3 F8.333333 I0.634300 J0.644577 K0.000000 X33.143320 Y-40.675365 Z-2.000000
G3 F8.333333 I-2.907011 J3.642632 K0.000000 X33.798105 Y-40.038243 Z-2.000000
G1 F8.333333 X34.553792 Y-40.793931 Z-2.000000
G3 F8.333333 I0.636396 J0.648830 K0.000000 X35.826584 Y-40.793931 Z-2.000000
G1 F8.333333 X40.793931 Y-35.826584 Z-2.000000
G3 F8.333333 I-0.648830 J0.636396 K0.000000 X40.793931 Y-34.553792 Z-2.000000
G1 F8.333333 X40.033460 Y-33.793321 Z-2.000000
G1 F8.333333 X40.751786 Y-33.074995 Z-2.000000
G3 F8.333333 I-0.644577 J0.634300 K0.000000 X40.832621 Y-31.900702 Z-2.000000
G3 F8.333333 I-4.358425 J-3.494445 K0.000000 X40.067140 Y-31.117557 Z-2.000000
G1 F8.333333 X40.377945 Y-30.806752 Z-2.000000
G1 F8.333333 X41.036424 Y-31.465231 Z-2.000000
G1 F8.333333 X41.049695 Y-33.404209 Z-2.000000
G3 F8.333333 I0.899549 J0.011480 K0.000000 X42.466454 Y-34.128810 Z-2.000000
G3 F8.333333 I-2.462736 J3.244761 K0.000000 X43.154114 Y-33.466402 Z-2.000000
G1 F8.333333 X43.774673 Y-34.086961 Z-2.000000
G3 F8.333333 I0.636396 J0.648830 K0.000000 X45.047465 Y-34.086961 Z-2.000000
G1 F8.333333 X46.041622 Y-33.092804 Z-2.000000
G3 F8.333333 I-0.648830 J0.636396 K0.000000 X46.041622 Y-31.820012 Z-2.000000
G1 F8.333333 X44.028979 Y-29.807369 Z-2.000000
G1 F8.333333 X44.413506 Y-29.422842 Z-2.000000
G1 F8.333333 X48.775392 Y-33.784728 Z-2.000000
G1 F8.333333 X48.085963 Y-34.474157 Z-2.000000
G3 F8.333333 I0.644577 J-0.634300 K0.000000 X48.005127 Y-35.648451 Z-2.000000
G3 F8.333333 I4.098414 J3.281062 K0.000000 X48.723980 Y-36.384967 Z-2.000000
G1 F8.333333 X48.242446 Y-36.866502 Z-2.000000
G3 F8.333333 I0.643956 J-0.633265 K0.000000 X48.878842 Y-38.402898 Z-2.000000
G1 F8.333333 X50.870268 Y-38.402898 Z-2.000000
G1 F8.333333 X51.513397 Y-39.046027 Z-2.000000
G1 F8.333333 X51.000526 Y-39.558897 Z-2.000000
G1 F8.333333 X50.343793 Y-38.902164 Z-2.000000
G3 F8.333333 I-0.636396 J-0.648830 K0.000000 X49.071001 Y-38.902164 Z-2.000000
G1 F8.333333 X48.299334 Y-39.673831 Z-2.000000
G1 F8.333333 X47.503621 Y-38.878118 Z-2.000000
G3 F8.333333 I-0.636396 J-0.648830 K0.000000 X46.230829 Y-38.878118 Z-2.000000
G1 F8.333333 X38.878118 Y-46.230829 Z-2.000000
G3 F8.333333 I0.648830 J-0.636396 K0.000000 X38.878118 Y-47.503621 Z-2.000000
G1 F8.333333 X39.673831 Y-48.299334 Z-2.000000
G1 F8.333333 X38.902164 Y-49.071001 Z-2.000000
G3 F8.333333 I0.644577 J-0.634300 K0.000000 X38.821328 Y-50.245295 Z-2.000000
G3 F8.333333 I4.202781 J3.366714 K0.000000 X39.558897 Y-51.000526 Z-2.000000
G1 F8.333333 X39.046027 Y-51.513397 Z-2.000000
G1 F8.333333 X38.402898 Y-50.870268 Z-2.000000
G1 F8.333333 X38.402898 Y-48.878842 Z-2.000000
G3 F8.333333 I-0.899581 J-0.005329 K0.000000 X36.986497 Y-48.147849 Z-2.000000
G3 F8.333333 I2.133105 J-2.829231 K0.000000 X36.384967 Y-48.723980 Z-2.000000
G1 F8.333333 X35.746950 Y-48.085963 Z-2.000000
G3 F8.333333 I-0.634300 J-0.644577 K0.000000 X34.572656 Y-48.005127 Z-2.000000
G3 F8.333333 I3.516351 J-4.385115 K0.000000 X33.784728 Y-48.775392 Z-2.000000
G1 F8.333333 X29.422842 Y-44.413506 Z-2.000000
G0 Z5.000000
G0 X33.750343 Y-47.043951 Z5.000000
G0 X33.750343 Y-47.043951 Z3.000000
G1 F5.000000 X33.750343 Y-47.043951 Z-0.750000
G1 F8.333333 X33.963950 Y-46.868648 Z-0.750000
G1 F8.333333 X34.978327 Y-45.854271 Z-0.750000
G3 F8.333333 I-1.502421 J1.467584 K0.000000 X35.235771 Y-45.532963 Z-0.750000
G3 F8.333333 I1.343036 J1.557961 K0.000000 X37.871388 Y-45.575070 Z-0.750000
G3 F8.333333 I1.498193 J-1.245754 K0.000000 X37.421398 Y-46.788182 Z-0.750000
G3 F8.333333 I0.051036 J-1.995163 K0.000000 X36.415941 Y-47.090093 Z-0.750000
G3 F8.333333 I-1.305399 J-1.587770 K0.000000 X33.800398 Y-47.094006 Z-0.750000
G1 F8.333333 X33.750343 Y-47.043951 Z-0.750000
G1 F5.000000 X33.750343 Y-47.043951 Z-1.500000
G1 F8.333333 X33.963950 Y-46.868648 Z-1.500000
G1 F8.333333 X34.978327 Y-45.854271 Z-1.500000
G3 F8.333333 I-1.502421 J1.467584 K0.000000 X35.235771 Y-45.532963 Z-1.500000
G3 F8.333333 I1.343036 J1.557961 K0.000000 X37.871388 Y-45.575070 Z-1.500000
G3 F8.333333 I1.498193 J-1.245754 K0.000000 X37.421398 Y-46.788182 Z-1.500000
G3 F8.333333 I0.051036 J-1.995163 K0.000000 X36.415941 Y-47.090093 Z-1.500000
G3 F8.333333 I-1.305399 J-1.587770 K0.000000 X33.800398 Y-47.094006 Z-1.500000
G1 F8.333333 X33.750343 Y-47.043951 Z-1.500000
G1 F5.000000 X33.750343 Y-47.043951 Z-2.000000
G1 F8.333333 X33.963950 Y-46.868648 Z-2.000000
G1 F8.333333 X34.978327 Y-45.854271 Z-2.000000
G3 F8.333333 I-1.502421 J1.467584 K0.000000 X35.235771 Y-45.532963 Z-2.000000
G3 F8.333333 I1.343036 J1.557961 K0.000000 X37.871388 Y-45.575070 Z-2.000000
G3 F8.333333 I1.498193 J-1.245754 K0.000000 X37.421398 Y-46.788182 Z-2.000000
G3 F8.333333 I0.051036 J-1.995163 K0.000000 X36.415941 Y-47.090093 Z-2.000000
G3 F8.333333 I-1.305399 J-1.587770 K0.000000 X33.800398 Y-47.094006 Z-2.000000
G1 F8.333333 X33.750343 Y-47.043951 Z-2.000000
G0 Z5.000000
G0 X35.957708 Y-44.581947 Z5.000000
G0 X35.957708 Y-44.581947 Z3.000000
G1 F5.000000 X35.957708 Y-44.581947 Z-0.750000
G2 F8.333333 I0.666081 J0.742919 K0.000000 X35.942837 Y-44.568341 Z-0.750000
G1 F8.333333 X34.972177 Y-43.597680 Z-0.750000
G2 F8.333333 I0.648830 J0.636396 K0.000000 X34.972177 Y-42.324888 Z-0.750000
G1 F8.333333 X35.811306 Y-41.485759 Z-0.750000
G2 F8.333333 I0.636396 J-0.648830 K0.000000 X37.084098 Y-41.485759 Z-0.750000
G1 F8.333333 X38.054758 Y-42.456420 Z-0.750000
G2 F8.333333 I-0.648830 J-0.636396 K0.000000 X38.054758 Y-43.729212 Z-0.750000
G1 F8.333333 X37.215630 Y-44.568341 Z-0.750000
G2 F8.333333 I-0.636396 J0.649850 K0.000000 X36.356753 Y-44.800425 Z-0.750000
G2 F8.333333 I0.267035 J0.961397 K0.000000 X35.957708 Y-44.581947 Z-0.750000
G1 F5.000000 X35.957708 Y-44.581947 Z-1.500000
G2 F8.333333 I0.666081 J0.742919 K0.000000 X35.942837 Y-44.568341 Z-1.500000
G1 F8.333333 X34.972177 Y-43.597680 Z-1.500000
G2 F8.333333 I0.648830 J0.636396 K0.000000 X34.972177 Y-42.324888 Z-1.500000
G1 F8.333333 X35.811306 Y-41.485759 Z-1.500000
G2 F8.333333 I0.636396 J-0.648830 K0.000000 X37.084098 Y-41.485759 Z-1.500000
G1 F8.333333 X38.054758 Y-42.456420 Z-1.500000
G2 F8.333333 I-0.648830 J-0.636396 K0.000000 X38.054758 Y-43.729212 Z-1.500000
G1 F8.333333 X37.215630 Y-44.568341 Z-1.500000
G2 F8.333333 I-0.636396 J0.649850 K0.000000 X36.356753 Y-44.800425 Z-1.500000
G2 F8.333333 I0.267035 J0.961397 K0.000000 X35.957708 Y-44.581947 Z-1.500000
G1 F5.000000 X35.957708 Y-44.581947 Z-2.000000
G2 F8.333333 I0.666081 J0.742919 K0.000000 X35.942837 Y-44.568341 Z-2.000000
G1 F8.333333 X34.972177 Y-43.597680 Z-2.000000
G2 F8.333333 I0.648830 J0.636396 K0.000000 X34.972177 Y-42.324888 Z-2.000000
G1 F8.333333 X35.811306 Y-41.485759 Z-2.000000
G2 F8.333333 I0.636396 J-0.648830 K0.000000 X37.084098 Y-41.485759 Z-2.000000
G1 F8.333333 X38.054758 Y-42.456420 Z-2.000000
G2 F8.333333 I-0.648830 J-0.636396 K0.000000 X38.054758 Y-43.729212 Z-2.000000
G1 F8.333333 X37.215630 Y-44.568341 Z-2.000000
G2 F8.333333 I-0.636396 J0.649850 K0.000000 X36.356753 Y-44.800425 Z-2.000000
G2 F8.333333 I0.267035 J0.961397 K0.000000 X35.957708 Y-44.581947 Z-2.000000
G0 Z5.000000
G0 X39.171343 Y-44.240548 Z5.000000
G0 X39.171343 Y-44.240548 Z3.000000
G1 F5.000000 X39.171343 Y-44.240548 Z-0.750000
G3 F8.333333 I-1.740856 J1.152721 K0.000000 X38.903287 Y-41.607891 Z-0.750000
G1 F8.333333 X37.932626 Y-40.637231 Z-0.750000
G1 F8.333333 X37.794060 Y-40.523512 Z-0.750000
G1 F8.333333 X40.523512 Y-37.794060 Z-0.750000
G1 F8.333333 X40.637231 Y-37.932626 Z-0.750000
G1 F8.333333 X41.607891 Y-38.903287 Z-0.750000
G3 F8.333333 I1.482191 J1.494958 K0.000000 X44.240548 Y-39.171343 Z-0.750000
G1 F8.333333 X39.171343 Y-44.240548 Z-0.750000
G1 F5.000000 X39.171343 Y-44.240548 Z-1.500000
G3 F8.333333 I-1.740856 J1.152721 K0.000000 X38.903287 Y-41.607891 Z-1.500000
G1 F8.333333 X37.932626 Y-40.637231 Z-1.500000
G1 F8.333333 X37.794060 Y-40.523512 Z-1.500000
G1 F8.333333 X40.523512 Y-37.794060 Z-1.500000
G1 F8.333333 X40.637231 Y-37.932626 Z-1.500000
G1 F8.333333 X41.607891 Y-38.903287 Z-1.500000
G3 F8.333333 I1.482191 J1.494958 K0.000000 X44.240548 Y-39.171343 Z-1.500000
G1 F8.333333 X39.171343 Y-44.240548 Z-1.500000
G1 F5.000000 X39.171343 Y-44.240548 Z-2.000000
G3 F8.333333 I-1.740856 J1.152721 K0.000000 X38.903287 Y-41.607891 Z-2.000000
G1 F8.333333 X37.932626 Y-40.637231 Z-2.000000
G1 F8.333333 X37.794060 Y-40.523512 Z-2.000000
G1 F8.333333 X40.523512 Y-37.794060 Z-2.000000
G1 F8.333333 X40.637231 Y-37.932626 Z-2.000000
G1 F8.333333 X41.607891 Y-38.903287 Z-2.000000
G3 F8.333333 I1.482191 J1.494958 K0.000000 X44.240548 Y-39.171343 Z-2.000000
G1 F8.333333 X39.171343 Y-44.240548 Z-2.000000
G0 Z5.000000
G0 X40.266509 Y-41.448326 Z5.000000
G0 X40.266509 Y-41.448326 Z3.000000
G1 F5.000000 X40.266509 Y-41.448326 Z-0.750000
G3 F8.333333 I-2.881196 J-1.566300 K0.000000 X39.503540 Y-40.511088 Z-0.750000
G1 F8.333333 X40.511088 Y-39.503540 Z-0.750000
G3 F8.333333 I2.269299 J1.853054 K0.000000 X41.452692 Y-40.262143 Z-0.750000
G3 F8.333333 I3517527.025812 J-3517528.211995 K0.000000 X40.266509 Y-41.448326 Z-0.750000
G1 F5.000000 X40.317002 Y-40.938213 Z-0.750000
G3 F8.333333 I-2.345317 J-1.582804 K0.000000 X39.963159 Y-40.511088 Z-0.750000
G1 F8.333333 X40.511088 Y-39.963159 Z-0.750000
G3 F8.333333 I2.009928 J1.991474 K0.000000 X40.938213 Y-40.317002 Z-0.750000
G3 F8.333333 I964755.282097 J-964755.903308 K0.000000 X40.317002 Y-40.938213 Z-0.750000
G1 F5.000000 X40.317002 Y-40.938213 Z-1.500000
G3 F8.333333 I-2.345317 J-1.582804 K0.000000 X39.963159 Y-40.511088 Z-1.500000
G1 F8.333333 X40.511088 Y-39.963159 Z-1.500000
G3 F8.333333 I2.009928 J1.991474 K0.000000 X40.938213 Y-40.317002 Z-1.500000
G3 F8.333333 I964755.282097 J-964755.903308 K0.000000 X40.317002 Y-40.938213 Z-1.500000
G1 F5.000000 X40.061485 Y-41.119187 Z-1.500000
G3 F8.333333 I-2.676172 J-1.895439 K0.000000 X39.503540 Y-40.511088 Z-1.500000
G1 F8.333333 X40.511088 Y-39.503540 Z-1.500000
G3 F8.333333 I2.269299 J1.853054 K0.000000 X41.452692 Y-40.262143 Z-1.500000
G3 F8.333333 I3517527.025812 J-3517528.211995 K0.000000 X40.266509 Y-41.448326 Z-1.500000
G3 F8.333333 I-2.881196 J-1.566300 K0.000000 X40.061485 Y-41.119187 Z-1.500000
G1 F5.000000 X40.061485 Y-41.119187 Z-2.000000
G3 F8.333333 I-2.676172 J-1.895439 K0.000000 X39.503540 Y-40.511088 Z-2.000000
G1 F8.333333 X40.511088 Y-39.503540 Z-2.000000
G3 F8.333333 I2.269299 J1.853054 K0.000000 X41.452692 Y-40.262143 Z-2.000000
G3 F8.333333 I3517527.025812 J-3517528.211995 K0.000000 X40.266509 Y-41.448326 Z-2.000000
G3 F8.333333 I-2.881196 J-1.566300 K0.000000 X40.061485 Y-41.119187 Z-2.000000
G1 F5.000000 X40.317002 Y-40.938213 Z-2.000000
G3 F8.333333 I-2.345317 J-1.582804 K0.000000 X39.963159 Y-40.511088 Z-2.000000
G1 F8.333333 X40.511088 Y-39.963159 Z-2.000000
G3 F8.333333 I2.009928 J1.991474 K0.000000 X40.938213 Y-40.317002 Z-2.000000
G3 F8.333333 I964755.282097 J-964755.903308 K0.000000 X40.317002 Y-40.938213 Z-2.000000
G0 Z5.000000
G0 X42.525671 Y-38.113470 Z5.000000
G0 X42.525671 Y-38.113470 Z3.000000
G1 F5.000000 X42.525671 Y-38.113470 Z-0.750000
G2 F8.333333 I0.706039 J0.902978 K0.000000 X42.456420 Y-38.054758 Z-0.750000
G1 F8.333333 X41.485759 Y-37.084098 Z-0.750000
G2 F8.333333 I0.648830 J0.636396 K0.000000 X41.485759 Y-35.811306 Z-0.750000
G1 F8.333333 X42.324888 Y-34.972177 Z-0.750000
G2 F8.333333 I0.636396 J-0.648830 K0.000000 X43.597680 Y-34.972177 Z-0.750000
G1 F8.333333 X44.568341 Y-35.942837 Z-0.750000
G2 F8.333333 I-0.648830 J-0.636396 K0.000000 X44.568341 Y-37.215630 Z-0.750000
G1 F8.333333 X43.729212 Y-38.054758 Z-0.750000
G2 F8.333333 I-0.634634 J0.645255 K0.000000 X42.636024 Y-38.189787 Z-0.750000
G2 F8.333333 I0.595686 J0.979295 K0.000000 X42.525671 Y-38.113470 Z-0.750000
G1 F5.000000 X42.525671 Y-38.113470 Z-1.500000
G2 F8.333333 I0.706039 J0.902978 K0.000000 X42.456420 Y-38.054758 Z-1.500000
G1 F8.333333 X41.485759 Y-37.084098 Z-1.500000
G2 F8.333333 I0.648830 J0.636396 K0.000000 X41.485759 Y-35.811306 Z-1.500000
G1 F8.333333 X42.324888 Y-34.972177 Z-1.500000
G2 F8.333333 I0.636396 J-0.648830 K0.000000 X43.597680 Y-34.972177 Z-1.500000
G1 F8.333333 X44.568341 Y-35.942837 Z-1.500000
G2 F8.333333 I-0.648830 J-0.636396 K0.000000 X44.568341 Y-37.215630 Z-1.500000
G1 F8.333333 X43.729212 Y-38.054758 Z-1.500000
G2 F8.333333 I-0.634634 J0.645255 K0.000000 X42.636024 Y-38.189787 Z-1.500000
G2 F8.333333 I0.595686 J0.979295 K0.000000 X42.525671 Y-38.113470 Z-1.500000
G1 F5.000000 X42.525671 Y-38.113470 Z-2.000000
G2 F8.333333 I0.706039 J0.902978 K0.000000 X42.456420 Y-38.054758 Z-2.000000
G1 F8.333333 X41.485759 Y-37.084098 Z-2.000000
G2 F8.333333 I0.648830 J0.636396 K0.000000 X41.485759 Y-35.811306 Z-2.000000
G1 F8.333333 X42.324888 Y-34.972177 Z-2.000000
G2 F8.333333 I0.636396 J-0.648830 K0.000000 X43.597680 Y-34.972177 Z-2.000000
G1 F8.333333 X44.568341 Y-35.942837 Z-2.000000
G2 F8.333333 I-0.648830 J-0.636396 K0.000000 X44.568341 Y-37.215630 Z-2.000000
G1 F8.333333 X43.729212 Y-38.054758 Z-2.000000
G2 F8.333333 I-0.634634 J0.645255 K0.000000 X42.636024 Y-38.189787 Z-2.000000
G2 F8.333333 I0.595686 J0.979295 K0.000000 X42.525671 Y-38.113470 Z-2.000000
G0 Z5.000000
G0 X45.575070 Y-37.871388 Z5.000000
G0 X45.575070 Y-37.871388 Z3.000000
G1 F5.000000 X45.575070 Y-37.871388 Z-0.750000
G3 F8.333333 I-1.600826 J1.292860 K0.000000 X45.524285 Y-35.225196 Z-0.750000
G3 F8.333333 I-0.615990 J1.173660 K0.000000 X45.895993 Y-34.935489 Z-0.750000
G1 F8.333333 X46.890150 Y-33.941332 Z-0.750000
G1 F8.333333 X47.045565 Y-33.751958 Z-0.750000
G1 F8.333333 X47.094006 Y-33.800398 Z-0.750000
G3 F8.333333 I1.583857 J-1.310144 K0.000000 X47.090093 Y-36.415941 Z-0.750000
G3 F8.333333 I1.582564 J-1.021533 K0.000000 X46.789088 Y-37.423114 Z-0.750000
G3 F8.333333 I0.025517 J-1.937144 K0.000000 X45.575070 Y-37.871388 Z-0.750000
G1 F5.000000 X45.575070 Y-37.871388 Z-1.500000
G3 F8.333333 I-1.600826 J1.292860 K0.000000 X45.524285 Y-35.225196 Z-1.500000
G3 F8.333333 I-0.615990 J1.173660 K0.000000 X45.895993 Y-34.935489 Z-1.500000
G1 F8.333333 X46.890150 Y-33.941332 Z-1.500000
G1 F8.333333 X47.045565 Y-33.751958 Z-1.500000
G1 F8.333333 X47.094006 Y-33.800398 Z-1.500000
G3 F8.333333 I1.583857 J-1.310144 K0.000000 X47.090093 Y-36.415941 Z-1.500000
G3 F8.333333 I1.582564 J-1.021533 K0.000000 X46.789088 Y-37.423114 Z-1.500000
G3 F8.333333 I0.025517 J-1.937144 K0.000000 X45.575070 Y-37.871388 Z-1.500000
G1 F5.000000 X45.575070 Y-37.871388 Z-2.000000
G3 F8.333333 I-1.600826 J1.292860 K0.000000 X45.524285 Y-35.225196 Z-2.000000
G3 F8.333333 I-0.615990 J1.173660 K0.000000 X45.895993 Y-34.935489 Z-2.000000
G1 F8.333333 X46.890150 Y-33.941332 Z-2.000000
G1 F8.333333 X47.045565 Y-33.751958 Z-2.000000
G1 F8.333333 X47.094006 Y-33.800398 Z-2.000000
G3 F8.333333 I1.583857 J-1.310144 K0.000000 X47.090093 Y-36.415941 Z-2.000000
G3 F8.333333 I1.582564 J-1.021533 K0.000000 X46.789088 Y-37.423114 Z-2.000000
G3 F8.333333 I0.025517 J-1.937144 K0.000000 X45.575070 Y-37.871388 Z-2.000000
G0 F8.333333 Z5.000000
G0 Z5.000000
G0 X45.575070 Y-37.871388
G0 X58.080588 Y-10.444746
G0 X58.080588 Y-10.444746 Z3.000000
G1 F5.000000 X58.080588 Y-10.444746 Z-0.750000
G1 F8.333333 X58.080588 Y-9.385607 Z-0.750000
G3 F8.333333 I-0.903114 J-0.008653 K0.000000 X57.186126 Y-8.491146 Z-0.750000
G1 F8.333333 X56.087011 Y-8.491146 Z-0.750000
G1 F8.333333 X56.087011 Y-7.265856 Z-0.750000
G3 F8.333333 I-0.889090 J-0.006969 K0.000000 X55.328880 Y-6.393406 Z-0.750000
G3 F8.333333 I-0.623620 J-5.681713 K0.000000 X54.208449 Y-6.380916 Z-0.750000
G1 F8.333333 X54.208449 Y-5.494490 Z-0.750000
G3 F8.333333 I-0.805425 J-0.000385 K0.000000 X52.872938 Y-4.888477 Z-0.750000
G1 F8.333333 X51.167293 Y-6.380916 Z-0.750000
G1 F8.333333 X50.259634 Y-6.380916 Z-0.750000
G1 F8.333333 X50.259634 Y-5.571459 Z-0.750000
G1 F8.333333 X51.952625 Y-3.847116 Z-0.750000
G1 F8.333333 X53.292780 Y-3.847116 Z-0.750000
G3 F8.333333 I-0.009176 J0.924845 K0.000000 X54.208449 Y-2.931447 Z-0.750000
G1 F8.333333 X54.208449 Y2.091447 Z-0.750000
G3 F8.333333 I-0.924845 J-0.009176 K0.000000 X53.292780 Y3.007116 Z-0.750000
G1 F8.333333 X51.952625 Y3.007116 Z-0.750000
G1 F8.333333 X50.259634 Y4.731459 Z-0.750000
G1 F8.333333 X50.259634 Y5.540916 Z-0.750000
G1 F8.333333 X51.167293 Y5.540916 Z-0.750000
G1 F8.333333 X52.872938 Y4.048477 Z-0.750000
G3 F8.333333 I0.530086 J0.606398 K0.000000 X54.208449 Y4.654490 Z-0.750000
G1 F8.333333 X54.208449 Y5.540916 Z-0.750000
G1 F8.333333 X55.202071 Y5.540916 Z-0.750000
G3 F8.333333 I-0.008410 J0.893351 K0.000000 X56.087011 Y6.425856 Z-0.750000
G1 F8.333333 X56.087011 Y7.649506 Z-0.750000
G1 F8.333333 X57.186126 Y7.649506 Z-0.750000
G3 F8.333333 I-0.008653 J0.903114 K0.000000 X58.080588 Y8.543967 Z-0.750000
G1 F8.333333 X58.080588 Y9.604746 Z-0.750000
G1 F8.333333 X62.646301 Y9.604746 Z-0.750000
G1 F8.333333 X62.646301 Y8.949506 Z-0.750000
G1 F8.333333 X59.711519 Y8.949506 Z-0.750000
G3 F8.333333 I0.009684 J-0.947040 K0.000000 X58.774163 Y8.012150 Z-0.750000
G1 F8.333333 X58.774163 Y6.514311 Z-0.750000
G3 F8.333333 I0.905428 J0.008710 K0.000000 X59.670881 Y5.617593 Z-0.750000
G1 F8.333333 X63.023284 Y5.617593 Z-0.750000
G1 F8.333333 X64.563201 Y4.046878 Z-0.750000
G1 F8.333333 X64.563201 Y1.281907 Z-0.750000
G1 F8.333333 X63.946301 Y1.281907 Z-0.750000
G1 F8.333333 X63.946301 Y4.189194 Z-0.750000
G3 F8.333333 I-0.935945 J-0.009433 K0.000000 X63.019789 Y5.115706 Z-0.750000
G1 F8.333333 X61.578471 Y5.115706 Z-0.750000
G3 F8.333333 I0.008474 J-0.895881 K0.000000 X60.691063 Y4.228299 Z-0.750000
G1 F8.333333 X60.691063 Y-5.068299 Z-0.750000
G3 F8.333333 I0.895881 J0.008474 K0.000000 X61.578471 Y-5.955706 Z-0.750000
G1 F8.333333 X63.019789 Y-5.955706 Z-0.750000
G3 F8.333333 I-0.009433 J0.935945 K0.000000 X63.946301 Y-5.029194 Z-0.750000
G1 F8.333333 X63.946301 Y-2.123607 Z-0.750000
G1 F8.333333 X64.561501 Y-2.123607 Z-0.750000
G1 F8.333333 X64.561501 Y-4.887089 Z-0.750000
G1 F8.333333 X63.023101 Y-6.457766 Z-0.750000
G1 F8.333333 X59.670881 Y-6.457766 Z-0.750000
G3 F8.333333 I0.008710 J-0.905428 K0.000000 X58.774163 Y-7.354484 Z-0.750000
G1 F8.333333 X58.774163 Y-8.853790 Z-0.750000
G3 F8.333333 I0.947040 J0.009684 K0.000000 X59.711519 Y-9.791146 Z-0.750000
G1 F8.333333 X62.646301 Y-9.791146 Z-0.750000
G1 F8.333333 X62.646301 Y-10.444746 Z-0.750000
G1 F8.333333 X58.080588 Y-10.444746 Z-0.750000
G1 F5.000000 X58.080588 Y-10.444746 Z-1.500000
G1 F8.333333 X58.080588 Y-9.385607 Z-1.500000
G3 F8.333333 I-0.903114 J-0.008653 K0.000000 X57.186126 Y-8.491146 Z-1.500000
G1 F8.333333 X56.087011 Y-8.491146 Z-1.500000
G1 F8.333333 X56.087011 Y-7.265856 Z-1.500000
G3 F8.333333 I-0.889090 J-0.006969 K0.000000 X55.328880 Y-6.393406 Z-1.500000
G3 F8.333333 I-0.623620 J-5.681713 K0.000000 X54.208449 Y-6.380916 Z-1.500000
G1 F8.333333 X54.208449 Y-5.494490 Z-1.500000
G3 F8.333333 I-0.805425 J-0.000385 K0.000000 X52.872938 Y-4.888477 Z-1.500000
G1 F8.333333 X51.167293 Y-6.380916 Z-1.500000
G1 F8.333333 X50.259634 Y-6.380916 Z-1.500000
G1 F8.333333 X50.259634 Y-5.571459 Z-1.500000
G1 F8.333333 X51.952625 Y-3.847116 Z-1.500000
G1 F8.333333 X53.292780 Y-3.847116 Z-1.500000
G3 F8.333333 I-0.009176 J0.924845 K0.000000 X54.208449 Y-2.931447 Z-1.500000
G1 F8.333333 X54.208449 Y2.091447 Z-1.500000
G3 F8.333333 I-0.924845 J-0.009176 K0.000000 X53.292780 Y3.007116 Z-1.500000
G1 F8.333333 X51.952625 Y3.007116 Z-1.500000
G1 F8.333333 X50.259634 Y4.731459 Z-1.500000
G1 F8.333333 X50.259634 Y5.540916 Z-1.500000
G1 F8.333333 X51.167293 Y5.540916 Z-1.500000
G1 F8.333333 X52.872938 Y4.048477 Z-1.500000
G3 F8.333333 I0.530086 J0.606398 K0.000000 X54.208449 Y4.654490 Z-1.500000
G1 F8.333333 X54.208449 Y5.540916 Z-1.500000
G1 F8.333333 X55.202071 Y5.540916 Z-1.500000
G3 F8.333333 I-0.008410 J0.893351 K0.000000 X56.087011 Y6.425856 Z-1.500000
G1 F8.333333 X56.087011 Y7.649506 Z-1.500000
G1 F8.333333 X57.186126 Y7.649506 Z-1.500000
G3 F8.333333 I-0.008653 J0.903114 K0.000000 X58.080588 Y8.543967 Z-1.500000
G1 F8.333333 X58.080588 Y9.604746 Z-1.500000
G1 F8.333333 X62.646301 Y9.604746 Z-1.500000
G1 F8.333333 X62.646301 Y8.949506 Z-1.500000
G1 F8.333333 X59.711519 Y8.949506 Z-1.500000
G3 F8.333333 I0.009684 J-0.947040 K0.000000 X58.774163 Y8.012150 Z-1.500000
G1 F8.333333 X58.774163 Y6.514311 Z-1.500000
G3 F8.333333 I0.905428 J0.008710 K0.000000 X59.670881 Y5.617593 Z-1.500000
G1 F8.333333 X63.023284 Y5.617593 Z-1.500000
G1 F8.333333 X64.563201 Y4.046878 Z-1.500000
G1 F8.333333 X64.563201 Y1.281907 Z-1.500000
G1 F8.333333 X63.946301 Y1.281907 Z-1.500000
G1 F8.333333 X63.946301 Y4.189194 Z-1.500000
G3 F8.333333 I-0.935945 J-0.009433 K0.000000 X63.019789 Y5.115706 Z-1.500000
G1 F8.333333 X61.578471 Y5.115706 Z-1.500000
G3 F8.333333 I0.008474 J-0.895881 K0.000000 X60.691063 Y4.228299 Z-1.500000
G1 F8.333333 X60.691063 Y-5.068299 Z-1.500000
G3 F8.333333 I0.895881 J0.008474 K0.000000 X61.578471 Y-5.955706 Z-1.500000
G1 F8.333333 X63.019789 Y-5.955706 Z-1.500000
G3 F8.333333 I-0.009433 J0.935945 K0.000000 X63.946301 Y-5.029194 Z-1.500000
G1 F8.333333 X63.946301 Y-2.123607 Z-1.500000
G1 F8.333333 X64.561501 Y-2.123607 Z-1.500000
G1 F8.333333 X64.561501 Y-4.887089 Z-1.500000
G1 F8.333333 X63.023101 Y-6.457766 Z-1.500000
G1 F8.333333 X59.670881 Y-6.457766 Z-1.500000
G3 F8.333333 I0.008710 J-0.905428 K0.000000 X58.774163 Y-7.354484 Z-1.500000
G1 F8.333333 X58.774163 Y-8.853790 Z-1.500000
G3 F8.333333 I0.947040 J0.009684 K0.000000 X59.711519 Y-9.791146 Z-1.500000
G1 F8.333333 X62.646301 Y-9.791146 Z-1.500000
G1 F8.333333 X62.646301 Y-10.444746 Z-1.500000
G1 F8.333333 X58.080588 Y-10.444746 Z-1.500000
G1 F5.000000 X58.080588 Y-10.444746 Z-2.000000
G1 F8.333333 X58.080588 Y-9.385607 Z-2.000000
G3 F8.333333 I-0.903114 J-0.008653 K0.000000 X57.186126 Y-8.491146 Z-2.000000
G1 F8.333333 X56.087011 Y-8.491146 Z-2.000000
G1 F8.333333 X56.087011 Y-7.265856 Z-2.000000
G3 F8.333333 I-0.889090 J-0.006969 K0.000000 X55.328880 Y-6.393406 Z-2.000000
G3 F8.333333 I-0.623620 J-5.681713 K0.000000 X54.208449 Y-6.380916 Z-2.000000
G1 F8.333333 X54.208449 Y-5.494490 Z-2.000000
G3 F8.333333 I-0.805425 J-0.000385 K0.000000 X52.872938 Y-4.888477 Z-2.000000
G1 F8.333333 X51.167293 Y-6.380916 Z-2.000000
G1 F8.333333 X50.259634 Y-6.380916 Z-2.000000
G1 F8.333333 X50.259634 Y-5.571459 Z-2.000000
G1 F8.333333 X51.952625 Y-3.847116 Z-2.000000
G1 F8.333333 X53.292780 Y-3.847116 Z-2.000000
G3 F8.333333 I-0.009176 J0.924845 K0.000000 X54.208449 Y-2.931447 Z-2.000000
G1 F8.333333 X54.208449 Y2.091447 Z-2.000000
G3 F8.333333 I-0.924845 J-0.009176 K0.000000 X53.292780 Y3.007116 Z-2.000000
G1 F8.333333 X51.952625 Y3.007116 Z-2.000000
G1 F8.333333 X50.259634 Y4.731459 Z-2.000000
G1 F8.333333 X50.259634 Y5.540916 Z-2.000000
G1 F8.333333 X51.167293 Y5.540916 Z-2.000000
G1 F8.333333 X52.872938 Y4.048477 Z-2.000000
G3 F8.333333 I0.530086 J0.606398 K0.000000 X54.208449 Y4.654490 Z-2.000000
G1 F8.333333 X54.208449 Y5.540916 Z-2.000000
G1 F8.333333 X55.202071 Y5.540916 Z-2.000000
G3 F8.333333 I-0.008410 J0.893351 K0.000000 X56.087011 Y6.425856 Z-2.000000
G1 F8.333333 X56.087011 Y7.649506 Z-2.000000
G1 F8.333333 X57.186126 Y7.649506 Z-2.000000
G3 F8.333333 I-0.008653 J0.903114 K0.000000 X58.080588 Y8.543967 Z-2.000000
G1 F8.333333 X58.080588 Y9.604746 Z-2.000000
G1 F8.333333 X62.646301 Y9.604746 Z-2.000000
G1 F8.333333 X62.646301 Y8.949506 Z-2.000000
G1 F8.333333 X59.711519 Y8.949506 Z-2.000000
G3 F8.333333 I0.009684 J-0.947040 K0.000000 X58.774163 Y8.012150 Z-2.000000
G1 F8.333333 X58.774163 Y6.514311 Z-2.000000
G3 F8.333333 I0.905428 J0.008710 K0.000000 X59.670881 Y5.617593 Z-2.000000
G1 F8.333333 X63.023284 Y5.617593 Z-2.000000
G1 F8.333333 X64.563201 Y4.046878 Z-2.000000
G1 F8.333333 X64.563201 Y1.281907 Z-2.000000
G1 F8.333333 X63.946301 Y1.281907 Z-2.000000
G1 F8.333333 X63.946301 Y4.189194 Z-2.000000
G3 F8.333333 I-0.935945 J-0.009433 K0.000000 X63.019789 Y5.115706 Z-2.000000
G1 F8.333333 X61.578471 Y5.115706 Z-2.000000
G3 F8.333333 I0.008474 J-0.895881 K0.000000 X60.691063 Y4.228299 Z-2.000000
G1 F8.333333 X60.691063 Y-5.068299 Z-2.000000
G3 F8.333333 I0.895881 J0.008474 K0.000000 X61.578471 Y-5.955706 Z-2.000000
G1 F8.333333 X63.019789 Y-5.955706 Z-2.000000
G3 F8.333333 I-0.009433 J0.935945 K0.000000 X63.946301 Y-5.029194 Z-2.000000
G1 F8.333333 X63.946301 Y-2.123607 Z-2.000000
G1 F8.333333 X64.561501 Y-2.123607 Z-2.000000
G1 F8.333333 X64.561501 Y-4.887089 Z-2.000000
G1 F8.333333 X63.023101 Y-6.457766 Z-2.000000
G1 F8.333333 X59.670881 Y-6.457766 Z-2.000000
G3 F8.333333 I0.008710 J-0.905428 K0.000000 X58.774163 Y-7.354484 Z-2.000000
G1 F8.333333 X58.774163 Y-8.853790 Z-2.000000
G3 F8.333333 I0.947040 J0.009684 K0.000000 X59.711519 Y-9.791146 Z-2.000000
G1 F8.333333 X62.646301 Y-9.791146 Z-2.000000
G1 F8.333333 X62.646301 Y-10.444746 Z-2.000000
G1 F8.333333 X58.080588 Y-10.444746 Z-2.000000
G0 Z5.000000
G0 X57.576327 Y-7.332518 Z5.000000
G0 X57.576327 Y-7.332518 Z3.000000
G1 F5.000000 X57.576327 Y-7.332518 Z-0.750000
G3 F8.333333 I-0.304245 J-1.453030 K0.000000 X57.287011 Y-7.301082 Z-0.750000
G3 F8.333333 I-0.909734 J0.017613 K0.000000 X57.272967 Y-7.123265 Z-0.750000
G3 F8.333333 I-0.012472 J1.679334 K0.000000 X57.600354 Y-7.088562 Z-0.750000
G1 F8.333333 X57.576327 Y-7.332518 Z-0.750000
G1 F5.000000 X57.348982 Y-5.917638 Z-0.750000
G2 F8.333333 I-0.142556 J0.887201 K0.000000 X57.214966 Y-5.928977 Z-0.750000
G1 F8.333333 X55.675094 Y-5.928977 Z-0.750000
G2 F8.333333 I0.008540 J0.898540 K0.000000 X54.785094 Y-5.038977 Z-0.750000
G1 F8.333333 X54.785094 Y-3.435984 Z-0.750000
G2 F8.333333 I0.898540 J-0.008540 K0.000000 X55.675094 Y-2.545984 Z-0.750000
G1 F8.333333 X57.214966 Y-2.545984 Z-0.750000
G2 F8.333333 I-0.008540 J-0.898540 K0.000000 X58.104966 Y-3.435984 Z-0.750000
G1 F8.333333 X58.104966 Y-5.038977 Z-0.750000
G2 F8.333333 I-0.898540 J0.008540 K0.000000 X57.348982 Y-5.917638 Z-0.750000
G1 F5.000000 X57.348982 Y-5.917638 Z-1.500000
G2 F8.333333 I-0.142556 J0.887201 K0.000000 X57.214966 Y-5.928977 Z-1.500000
G1 F8.333333 X55.675094 Y-5.928977 Z-1.500000
G2 F8.333333 I0.008540 J0.898540 K0.000000 X54.785094 Y-5.038977 Z-1.500000
G1 F8.333333 X54.785094 Y-3.435984 Z-1.500000
G2 F8.333333 I0.898540 J-0.008540 K0.000000 X55.675094 Y-2.545984 Z-1.500000
G1 F8.333333 X57.214966 Y-2.545984 Z-1.500000
G2 F8.333333 I-0.008540 J-0.898540 K0.000000 X58.104966 Y-3.435984 Z-1.500000
G1 F8.333333 X58.104966 Y-5.038977 Z-1.500000
G2 F8.333333 I-0.898540 J0.008540 K0.000000 X57.348982 Y-5.917638 Z-1.500000
G1 F5.000000 X57.568866 Y-7.094756 Z-1.500000
G3 F8.333333 I-0.308371 J1.650825 K0.000000 X57.600354 Y-7.088562 Z-1.500000
G1 F8.333333 X57.576327 Y-7.332518 Z-1.500000
G3 F8.333333 I-0.304245 J-1.453030 K0.000000 X57.287011 Y-7.301082 Z-1.500000
G3 F8.333333 I-0.909734 J0.017613 K0.000000 X57.272967 Y-7.123265 Z-1.500000
G3 F8.333333 I-0.012472 J1.679334 K0.000000 X57.568866 Y-7.094756 Z-1.500000
G1 F5.000000 X57.568866 Y-7.094756 Z-2.000000
G3 F8.333333 I-0.308371 J1.650825 K0.000000 X57.600354 Y-7.088562 Z-2.000000
G1 F8.333333 X57.576327 Y-7.332518 Z-2.000000
G3 F8.333333 I-0.304245 J-1.453030 K0.000000 X57.287011 Y-7.301082 Z-2.000000
G3 F8.333333 I-0.909734 J0.017613 K0.000000 X57.272967 Y-7.123265 Z-2.000000
G3 F8.333333 I-0.012472 J1.679334 K0.000000 X57.568866 Y-7.094756 Z-2.000000
G1 F5.000000 X57.361816 Y-5.915480 Z-2.000000
G2 F8.333333 I-0.155390 J0.885043 K0.000000 X57.214966 Y-5.928977 Z-2.000000
G1 F8.333333 X55.675094 Y-5.928977 Z-2.000000
G2 F8.333333 I0.008540 J0.898540 K0.000000 X54.785094 Y-5.038977 Z-2.000000
G1 F8.333333 X54.785094 Y-3.435984 Z-2.000000
G2 F8.333333 I0.898540 J-0.008540 K0.000000 X55.675094 Y-2.545984 Z-2.000000
G1 F8.333333 X57.214966 Y-2.545984 Z-2.000000
G2 F8.333333 I-0.008540 J-0.898540 K0.000000 X58.104966 Y-3.435984 Z-2.000000
G1 F8.333333 X58.104966 Y-5.038977 Z-2.000000
G2 F8.333333 I-0.898540 J0.008540 K0.000000 X57.361816 Y-5.915480 Z-2.000000
G0 Z5.000000
G0 X59.279316 Y-5.299410 Z5.000000
G0 X59.279316 Y-5.299410 Z3.000000
G1 F5.000000 X59.279316 Y-5.299410 Z-0.750000
G1 F8.333333 X59.304966 Y-5.038977 Z-0.750000
G1 F8.333333 X59.304966 Y-3.435984 Z-0.750000
G3 F8.333333 I-2.090010 J-0.000010 K0.000000 X57.214966 Y-1.345984 Z-0.750000
G1 F8.333333 X55.675094 Y-1.345984 Z-0.750000
G1 F8.333333 X55.408449 Y-1.372246 Z-0.750000
G1 F8.333333 X55.408449 Y0.532246 Z-0.750000
G1 F8.333333 X55.675094 Y0.505984 Z-0.750000
G1 F8.333333 X57.214966 Y0.505984 Z-0.750000
G3 F8.333333 I-0.000010 J2.090010 K0.000000 X59.304966 Y2.595984 Z-0.750000
G1 F8.333333 X59.304966 Y4.198977 Z-0.750000
G1 F8.333333 X59.279333 Y4.459233 Z-0.750000
G3 F8.333333 I0.247538 J1.164425 K0.000000 X59.511255 Y4.433315 Z-0.750000
G1 F8.333333 X59.491063 Y4.228299 Z-0.750000
G1 F8.333333 X59.491063 Y-5.068299 Z-0.750000
G1 F8.333333 X59.511272 Y-5.273486 Z-0.750000
G3 F8.333333 I0.015624 J-1.190507 K0.000000 X59.279316 Y-5.299410 Z-0.750000
G1 F5.000000 X59.279316 Y-5.299410 Z-1.500000
G1 F8.333333 X59.304966 Y-5.038977 Z-1.500000
G1 F8.333333 X59.304966 Y-3.435984 Z-1.500000
G3 F8.333333 I-2.090010 J-0.000010 K0.000000 X57.214966 Y-1.345984 Z-1.500000
G1 F8.333333 X55.675094 Y-1.345984 Z-1.500000
G1 F8.333333 X55.408449 Y-1.372246 Z-1.500000
G1 F8.333333 X55.408449 Y0.532246 Z-1.500000
G1 F8.333333 X55.675094 Y0.505984 Z-1.500000
G1 F8.333333 X57.214966 Y0.505984 Z-1.500000
G3 F8.333333 I-0.000010 J2.090010 K0.000000 X59.304966 Y2.595984 Z-1.500000
G1 F8.333333 X59.304966 Y4.198977 Z-1.500000
G1 F8.333333 X59.279333 Y4.459233 Z-1.500000
G3 F8.333333 I0.247538 J1.164425 K0.000000 X59.511255 Y4.433315 Z-1.500000
G1 F8.333333 X59.491063 Y4.228299 Z-1.500000
G1 F8.333333 X59.491063 Y-5.068299 Z-1.500000
G1 F8.333333 X59.511272 Y-5.273486 Z-1.500000
G3 F8.333333 I0.015624 J-1.190507 K0.000000 X59.279316 Y-5.299410 Z-1.500000
G1 F5.000000 X59.279316 Y-5.299410 Z-2.000000
G1 F8.333333 X59.304966 Y-5.038977 Z-2.000000
G1 F8.333333 X59.304966 Y-3.435984 Z-2.000000
G3 F8.333333 I-2.090010 J-0.000010 K0.000000 X57.214966 Y-1.345984 Z-2.000000
G1 F8.333333 X55.675094 Y-1.345984 Z-2.000000
G1 F8.333333 X55.408449 Y-1.372246 Z-2.000000
G1 F8.333333 X55.408449 Y0.532246 Z-2.000000
G1 F8.333333 X55.675094 Y0.505984 Z-2.000000
G1 F8.333333 X57.214966 Y0.505984 Z-2.000000
G3 F8.333333 I-0.000010 J2.090010 K0.000000 X59.304966 Y2.595984 Z-2.000000
G1 F8.333333 X59.304966 Y4.198977 Z-2.000000
G1 F8.333333 X59.279333 Y4.459233 Z-2.000000
G3 F8.333333 I0.247538 J1.164425 K0.000000 X59.511255 Y4.433315 Z-2.000000
G1 F8.333333 X59.491063 Y4.228299 Z-2.000000
G1 F8.333333 X59.491063 Y-5.068299 Z-2.000000
G1 F8.333333 X59.511272 Y-5.273486 Z-2.000000
G3 F8.333333 I0.015624 J-1.190507 K0.000000 X59.279316 Y-5.299410 Z-2.000000
G0 Z5.000000
G0 X59.166063 Y-2.025146 Z5.000000
G0 X59.166063 Y-2.025146 Z3.000000
G1 F5.000000 X59.166063 Y-2.025146 Z-0.750000
G3 F8.333333 I-1.957119 J-1.405121 K0.000000 X57.214966 Y-1.020984 Z-0.750000
G1 F8.333333 X55.733449 Y-1.020984 Z-0.750000
G1 F8.333333 X55.733449 Y0.180984 Z-0.750000
G1 F8.333333 X57.214966 Y0.180984 Z-0.750000
G3 F8.333333 I0.005578 J2.387294 K0.000000 X59.166063 Y1.184745 Z-0.750000
G1 F8.333333 X59.166063 Y-2.025146 Z-0.750000
G1 F5.000000 X58.841063 Y-1.241751 Z-0.750000
G3 F8.333333 I-1.522442 J-1.931350 K0.000000 X57.702695 Y-0.744021 Z-0.750000
G3 F8.333333 I-1.065987 J-8.323089 K0.000000 X56.058449 Y-0.695984 Z-0.750000
G1 F8.333333 X56.058449 Y-0.144016 Z-0.750000
G1 F8.333333 X57.214966 Y-0.144016 Z-0.750000
G3 F8.333333 I0.029648 J2.597744 K0.000000 X58.841063 Y0.404215 Z-0.750000
G1 F8.333333 X58.841063 Y-1.241751 Z-0.750000
G1 F5.000000 X58.516063 Y-0.679923 Z-0.750000
G3 F8.333333 I-1.099006 J-2.025385 K0.000000 X57.712633 Y-0.420000 Z-0.750000
G1 F8.333333 X57.766099 Y-0.414734 Z-0.750000
G3 F8.333333 I-0.585220 J3.182086 K0.000000 X58.468273 Y-0.200942 Z-0.750000
G1 F8.333333 X58.516063 Y-0.174437 Z-0.750000
G1 F8.333333 X58.516063 Y-0.679923 Z-0.750000
G1 F5.000000 X58.516063 Y-0.679923 Z-1.500000
G3 F8.333333 I-1.099006 J-2.025385 K0.000000 X57.712633 Y-0.420000 Z-1.500000
G1 F8.333333 X57.766099 Y-0.414734 Z-1.500000
G3 F8.333333 I-0.585220 J3.182086 K0.000000 X58.468273 Y-0.200942 Z-1.500000
G1 F8.333333 X58.516063 Y-0.174437 Z-1.500000
G1 F8.333333 X58.516063 Y-0.679923 Z-1.500000
G1 F5.000000 X58.383336 Y-0.956273 Z-1.500000
G3 F8.333333 I-1.064714 J-2.216828 K0.000000 X57.702695 Y-0.744021 Z-1.500000
G3 F8.333333 I-1.065987 J-8.323089 K0.000000 X56.058449 Y-0.695984 Z-1.500000
G1 F8.333333 X56.058449 Y-0.144016 Z-1.500000
G1 F8.333333 X57.214966 Y-0.144016 Z-1.500000
G3 F8.333333 I0.029648 J2.597744 K0.000000 X58.841063 Y0.404215 Z-1.500000
G1 F8.333333 X58.841063 Y-1.241751 Z-1.500000
G3 F8.333333 I-1.522442 J-1.931350 K0.000000 X58.383336 Y-0.956273 Z-1.500000
G1 F5.000000 X58.242124 Y-1.253751 Z-1.500000
G3 F8.333333 I-1.033180 J-2.176515 K0.000000 X57.214966 Y-1.020984 Z-1.500000
G1 F8.333333 X55.733449 Y-1.020984 Z-1.500000
G1 F8.333333 X55.733449 Y0.180984 Z-1.500000
G1 F8.333333 X57.214966 Y0.180984 Z-1.500000
G3 F8.333333 I0.005578 J2.387294 K0.000000 X59.166063 Y1.184745 Z-1.500000
G1 F8.333333 X59.166063 Y-2.025146 Z-1.500000
G3 F8.333333 I-1.957119 J-1.405121 K0.000000 X58.242124 Y-1.253751 Z-1.500000
G1 F5.000000 X58.384896 Y-0.957024 Z-2.000000
G3 F8.333333 I-1.066275 J-2.216078 K0.000000 X57.702695 Y-0.744021 Z-2.000000
G3 F8.333333 I-1.065987 J-8.323089 K0.000000 X56.058449 Y-0.695984 Z-2.000000
G1 F8.333333 X56.058449 Y-0.144016 Z-2.000000
G1 F8.333333 X57.214966 Y-0.144016 Z-2.000000
G3 F8.333333 I0.029648 J2.597744 K0.000000 X58.841063 Y0.404215 Z-2.000000
G1 F8.333333 X58.841063 Y-1.241751 Z-2.000000
G3 F8.333333 I-1.522442 J-1.931350 K0.000000 X58.384896 Y-0.957024 Z-2.000000
G1 F5.000000 X58.516063 Y-0.679923 Z-2.000000
G3 F8.333333 I-1.099006 J-2.025385 K0.000000 X57.712633 Y-0.420000 Z-2.000000
G1 F8.333333 X57.766099 Y-0.414734 Z-2.000000
G3 F8.333333 I-0.585220 J3.182086 K0.000000 X58.468273 Y-0.200942 Z-2.000000
G1 F8.333333 X58.516063 Y-0.174437 Z-2.000000
G1 F8.333333 X58.516063 Y-0.679923 Z-2.000000
G1 F5.000000 X58.243122 Y-1.254225 Z-2.000000
G3 F8.333333 I-1.034178 J-2.176041 K0.000000 X57.214966 Y-1.020984 Z-2.000000
G1 F8.333333 X55.733449 Y-1.020984 Z-2.000000
G1 F8.333333 X55.733449 Y0.180984 Z-2.000000
G1 F8.333333 X57.214966 Y0.180984 Z-2.000000
G3 F8.333333 I0.005578 J2.387294 K0.000000 X59.166063 Y1.184745 Z-2.000000
G1 F8.333333 X59.166063 Y-2.025146 Z-2.000000
G3 F8.333333 I-1.957119 J-1.405121 K0.000000 X58.243122 Y-1.254225 Z-2.000000
G0 Z5.000000
G0 X57.439572 Y1.736716 Z5.000000
G0 X57.439572 Y1.736716 Z3.000000
G1 F5.000000 X57.439572 Y1.736716 Z-0.750000
G2 F8.333333 I-0.233146 J0.867808 K0.000000 X57.214966 Y1.705984 Z-0.750000
G1 F8.333333 X55.675094 Y1.705984 Z-0.750000
G2 F8.333333 I0.008540 J0.898540 K0.000000 X54.785094 Y2.595984 Z-0.750000
G1 F8.333333 X54.785094 Y4.198977 Z-0.750000
G2 F8.333333 I0.898540 J-0.008540 K0.000000 X55.675094 Y5.088977 Z-0.750000
G1 F8.333333 X57.214966 Y5.088977 Z-0.750000
G2 F8.333333 I-0.008540 J-0.898540 K0.000000 X58.104966 Y4.198977 Z-0.750000
G1 F8.333333 X58.104966 Y2.595984 Z-0.750000
G2 F8.333333 I-0.898540 J0.008540 K0.000000 X57.439572 Y1.736716 Z-0.750000
G1 F5.000000 X57.439572 Y1.736716 Z-1.500000
G2 F8.333333 I-0.233146 J0.867808 K0.000000 X57.214966 Y1.705984 Z-1.500000
G1 F8.333333 X55.675094 Y1.705984 Z-1.500000
G2 F8.333333 I0.008540 J0.898540 K0.000000 X54.785094 Y2.595984 Z-1.500000
G1 F8.333333 X54.785094 Y4.198977 Z-1.500000
G2 F8.333333 I0.898540 J-0.008540 K0.000000 X55.675094 Y5.088977 Z-1.500000
G1 F8.333333 X57.214966 Y5.088977 Z-1.500000
G2 F8.333333 I-0.008540 J-0.898540 K0.000000 X58.104966 Y4.198977 Z-1.500000
G1 F8.333333 X58.104966 Y2.595984 Z-1.500000
G2 F8.333333 I-0.898540 J0.008540 K0.000000 X57.439572 Y1.736716 Z-1.500000
G1 F5.000000 X57.439572 Y1.736716 Z-2.000000
G2 F8.333333 I-0.233146 J0.867808 K0.000000 X57.214966 Y1.705984 Z-2.000000
G1 F8.333333 X55.675094 Y1.705984 Z-2.000000
G2 F8.333333 I0.008540 J0.898540 K0.000000 X54.785094 Y2.595984 Z-2.000000
G1 F8.333333 X54.785094 Y4.198977 Z-2.000000
G2 F8.333333 I0.898540 J-0.008540 K0.000000 X55.675094 Y5.088977 Z-2.000000
G1 F8.333333 X57.214966 Y5.088977 Z-2.000000
G2 F8.333333 I-0.008540 J-0.898540 K0.000000 X58.104966 Y4.198977 Z-2.000000
G1 F8.333333 X58.104966 Y2.595984 Z-2.000000
G2 F8.333333 I-0.898540 J0.008540 K0.000000 X57.439572 Y1.736716 Z-2.000000
G0 Z5.000000
G0 X57.600337 Y6.248566 Z5.000000
G0 X57.600337 Y6.248566 Z3.000000
G1 F5.000000 X57.600337 Y6.248566 Z-0.750000
G3 F8.333333 I-0.339837 J-1.644585 K0.000000 X57.272967 Y6.283264 Z-0.750000
G3 F8.333333 I-0.887365 J0.159385 K0.000000 X57.287011 Y6.459442 Z-0.750000
G3 F8.333333 I-0.015000 J1.485182 K0.000000 X57.576468 Y6.490906 Z-0.750000
G1 F8.333333 X57.600337 Y6.248566 Z-0.750000
G1 F5.000000 X57.600337 Y6.248566 Z-1.500000
G3 F8.333333 I-0.339837 J-1.644585 K0.000000 X57.272967 Y6.283264 Z-1.500000
G3 F8.333333 I-0.887365 J0.159385 K0.000000 X57.287011 Y6.459442 Z-1.500000
G3 F8.333333 I-0.015000 J1.485182 K0.000000 X57.576468 Y6.490906 Z-1.500000
G1 F8.333333 X57.600337 Y6.248566 Z-1.500000
G1 F5.000000 X57.600337 Y6.248566 Z-2.000000
G3 F8.333333 I-0.339837 J-1.644585 K0.000000 X57.272967 Y6.283264 Z-2.000000
G3 F8.333333 I-0.887365 J0.159385 K0.000000 X57.287011 Y6.459442 Z-2.000000
G3 F8.333333 I-0.015000 J1.485182 K0.000000 X57.576468 Y6.490906 Z-2.000000
G1 F8.333333 X57.600337 Y6.248566 Z-2.000000
G0 F8.333333 Z5.000000
G0 Z5.000000
G0 X57.600337 Y6.248566
G0 X45.184767 Y4.901707
G0 X45.184767 Y4.901707 Z3.000000
G1 F5.000000 X45.184767 Y4.901707 Z-0.750000
G2 F8.333333 I-45.184767 J-4.901707 K0.000000 X3.753221 Y-45.294627 Z-0.750000
G2 F8.333333 I-3.753221 J45.294627 K0.000000 X-3.753221 Y45.294627 Z-0.750000
G2 F8.333333 I3.753221 J-45.294627 K0.000000 X45.184767 Y4.901707 Z-0.750000
G1 F5.000000 X44.861593 Y4.866649 Z-0.750000
G2 F8.333333 I-44.861593 J-4.866649 K0.000000 X3.726374 Y-44.970668 Z-0.750000
G2 F8.333333 I-3.726374 J44.970668 K0.000000 X-3.726374 Y44.970668 Z-0.750000
G2 F8.333333 I3.726374 J-44.970668 K0.000000 X44.861593 Y4.866649 Z-0.750000
G1 F5.000000 X44.712462 Y4.850471 Z-0.750000
G2 F8.333333 I-44.712462 J-4.850471 K0.000000 X-3.834748 Y-44.811003 Z-0.750000
G2 F8.333333 I3.834748 J44.811003 K0.000000 X3.834748 Y44.811003 Z-0.750000
G2 F8.333333 I-3.834748 J-44.811003 K0.000000 X44.712462 Y4.850471 Z-0.750000
G1 F5.000000 X44.389427 Y4.815428 Z-0.750000
G2 F8.333333 I-44.389427 J-4.815428 K0.000000 X-3.800319 Y-44.487832 Z-0.750000
G2 F8.333333 I3.800319 J44.487832 K0.000000 X3.800319 Y44.487832 Z-0.750000
G2 F8.333333 I-3.800319 J-44.487832 K0.000000 X44.389427 Y4.815428 Z-0.750000
G1 F5.000000 X44.712462 Y4.850471 Z-1.500000
G2 F8.333333 I-44.712462 J-4.850471 K0.000000 X-3.834748 Y-44.811003 Z-1.500000
G2 F8.333333 I3.834748 J44.811003 K0.000000 X3.834748 Y44.811003 Z-1.500000
G2 F8.333333 I-3.834748 J-44.811003 K0.000000 X44.712462 Y4.850471 Z-1.500000
G1 F5.000000 X44.861593 Y4.866649 Z-1.500000
G2 F8.333333 I-44.861593 J-4.866649 K0.000000 X3.726374 Y-44.970668 Z-1.500000
G2 F8.333333 I-3.726374 J44.970668 K0.000000 X-3.726374 Y44.970668 Z-1.500000
G2 F8.333333 I3.726374 J-44.970668 K0.000000 X44.861593 Y4.866649 Z-1.500000
G1 F5.000000 X45.184767 Y4.901707 Z-1.500000
G2 F8.333333 I-45.184767 J-4.901707 K0.000000 X3.753221 Y-45.294627 Z-1.500000
G2 F8.333333 I-3.753221 J45.294627 K0.000000 X-3.753221 Y45.294627 Z-1.500000
G2 F8.333333 I3.753221 J-45.294627 K0.000000 X45.184767 Y4.901707 Z-1.500000
G1 F5.000000 X44.389427 Y4.815428 Z-1.500000
G2 F8.333333 I-44.389427 J-4.815428 K0.000000 X-3.800319 Y-44.487832 Z-1.500000
G2 F8.333333 I3.800319 J44.487832 K0.000000 X3.800319 Y44.487832 Z-1.500000
G2 F8.333333 I-3.800319 J-44.487832 K0.000000 X44.389427 Y4.815428 Z-1.500000
G1 F5.000000 X44.712462 Y4.850471 Z-2.000000
G2 F8.333333 I-44.712462 J-4.850471 K0.000000 X-3.834748 Y-44.811003 Z-2.000000
G2 F8.333333 I3.834748 J44.811003 K0.000000 X3.834748 Y44.811003 Z-2.000000
G2 F8.333333 I-3.834748 J-44.811003 K0.000000 X44.712462 Y4.850471 Z-2.000000
G1 F5.000000 X44.861593 Y4.866649 Z-2.000000
G2 F8.333333 I-44.861593 J-4.866649 K0.000000 X3.726374 Y-44.970668 Z-2.000000
G2 F8.333333 I-3.726374 J44.970668 K0.000000 X-3.726374 Y44.970668 Z-2.000000
G2 F8.333333 I3.726374 J-44.970668 K0.000000 X44.861593 Y4.866649 Z-2.000000
G1 F5.000000 X45.184767 Y4.901707 Z-2.000000
G2 F8.333333 I-45.184767 J-4.901707 K0.000000 X3.753221 Y-45.294627 Z-2.000000
G2 F8.333333 I-3.753221 J45.294627 K0.000000 X-3.753221 Y45.294627 Z-2.000000
G2 F8.333333 I3.753221 J-45.294627 K0.000000 X45.184767 Y4.901707 Z-2.000000
G1 F5.000000 X44.389427 Y4.815428 Z-2.000000
G2 F8.333333 I-44.389427 J-4.815428 K0.000000 X-3.800319 Y-44.487832 Z-2.000000
G2 F8.333333 I3.800319 J44.487832 K0.000000 X3.800319 Y44.487832 Z-2.000000
G2 F8.333333 I-3.800319 J-44.487832 K0.000000 X44.389427 Y4.815428 Z-2.000000
G0 F8.333333 Z5.000000
G0 Z5.000000
G0 X44.389427 Y4.815428
G0 X44.413506 Y29.422842
G0 X44.413506 Y29.422842 Z3.000000
G1 F5.000000 X44.413506 Y29.422842 Z-0.750000
G1 F8.333333 X44.006919 Y29.829429 Z-0.750000
G1 F8.333333 X46.020120 Y31.842629 Z-0.750000
G3 F8.333333 I-0.648830 J0.636396 K0.000000 X46.020120 Y33.115422 Z-0.750000
G1 F8.333333 X45.005743 Y34.129799 Z-0.750000
G3 F8.333333 I-0.634300 J-0.644577 K0.000000 X43.831450 Y34.210635 Z-0.750000
G3 F8.333333 I3.203707 J-4.004159 K0.000000 X43.111833 Y33.508682 Z-0.750000
G1 F8.333333 X42.590166 Y34.030349 Z-0.750000
G3 F8.333333 I-0.633265 J-0.643956 K0.000000 X41.053770 Y33.393953 Z-0.750000
G1 F8.333333 X41.053770 Y31.482577 Z-0.750000
G1 F8.333333 X40.377945 Y30.806752 Z-0.750000
G1 F8.333333 X39.905101 Y31.279597 Z-0.750000
G1 F8.333333 X40.594530 Y31.969026 Z-0.750000
G3 F8.333333 I-0.644577 J0.634300 K0.000000 X40.675365 Y33.143320 Z-0.750000
G3 F8.333333 I-3.642632 J-2.907011 K0.000000 X40.038243 Y33.798105 Z-0.750000
G1 F8.333333 X40.793931 Y34.553792 Z-0.750000
G3 F8.333333 I-0.648830 J0.636396 K0.000000 X40.793931 Y35.826584 Z-0.750000
G1 F8.333333 X35.826584 Y40.793931 Z-0.750000
G3 F8.333333 I-0.636396 J-0.648830 K0.000000 X34.553792 Y40.793931 Z-0.750000
G1 F8.333333 X33.793321 Y40.033460 Z-0.750000
G1 F8.333333 X33.074995 Y40.751786 Z-0.750000
G3 F8.333333 I-0.634300 J-0.644577 K0.000000 X31.900702 Y40.832621 Z-0.750000
G3 F8.333333 I3.494445 J-4.358425 K0.000000 X31.117557 Y40.067140 Z-0.750000
G1 F8.333333 X30.806752 Y40.377945 Z-0.750000
G1 F8.333333 X31.465231 Y41.036424 Z-0.750000
G1 F8.333333 X33.404209 Y41.049695 Z-0.750000
G3 F8.333333 I-0.011480 J0.899549 K0.000000 X34.128810 Y42.466454 Z-0.750000
G3 F8.333333 I-3.244761 J-2.462736 K0.000000 X33.466402 Y43.154114 Z-0.750000
G1 F8.333333 X34.086961 Y43.774673 Z-0.750000
G3 F8.333333 I-0.648830 J0.636396 K0.000000 X34.086961 Y45.047465 Z-0.750000
G1 F8.333333 X33.092804 Y46.041622 Z-0.750000
G3 F8.333333 I-0.636396 J-0.648830 K0.000000 X31.820012 Y46.041622 Z-0.750000
G1 F8.333333 X29.807369 Y44.028979 Z-0.750000
G1 F8.333333 X29.422842 Y44.413506 Z-0.750000
G1 F8.333333 X33.784728 Y48.775392 Z-0.750000
G1 F8.333333 X34.474157 Y48.085963 Z-0.750000
G3 F8.333333 I0.634300 J0.644577 K0.000000 X35.648451 Y48.005127 Z-0.750000
G3 F8.333333 I-3.281062 J4.098414 K0.000000 X36.384967 Y48.723980 Z-0.750000
G1 F8.333333 X36.866502 Y48.242446 Z-0.750000
G3 F8.333333 I0.633265 J0.643956 K0.000000 X38.402898 Y48.878842 Z-0.750000
G1 F8.333333 X38.402898 Y50.870268 Z-0.750000
G1 F8.333333 X39.046027 Y51.513397 Z-0.750000
G1 F8.333333 X39.558897 Y51.000526 Z-0.750000
G1 F8.333333 X38.902164 Y50.343793 Z-0.750000
G3 F8.333333 I0.648830 J-0.636396 K0.000000 X38.902164 Y49.071001 Z-0.750000
G1 F8.333333 X39.673831 Y48.299334 Z-0.750000
G1 F8.333333 X38.878118 Y47.503621 Z-0.750000
G3 F8.333333 I0.648830 J-0.636396 K0.000000 X38.878118 Y46.230829 Z-0.750000
G1 F8.333333 X46.230829 Y38.878118 Z-0.750000
G3 F8.333333 I0.636396 J0.648830 K0.000000 X47.503621 Y38.878118 Z-0.750000
G1 F8.333333 X48.299334 Y39.673831 Z-0.750000
G1 F8.333333 X49.071001 Y38.902164 Z-0.750000
G3 F8.333333 I0.634300 J0.644577 K0.000000 X50.245295 Y38.821328 Z-0.750000
G3 F8.333333 I-3.366714 J4.202781 K0.000000 X51.000526 Y39.558897 Z-0.750000
G1 F8.333333 X51.513397 Y39.046027 Z-0.750000
G1 F8.333333 X50.870268 Y38.402898 Z-0.750000
G1 F8.333333 X48.878842 Y38.402898 Z-0.750000
G3 F8.333333 I0.005329 J-0.899581 K0.000000 X48.147849 Y36.986497 Z-0.750000
G3 F8.333333 I2.829231 J2.133105 K0.000000 X48.723980 Y36.384967 Z-0.750000
G1 F8.333333 X48.085963 Y35.746950 Z-0.750000
G3 F8.333333 I0.644577 J-0.634300 K0.000000 X48.005127 Y34.572656 Z-0.750000
G3 F8.333333 I4.385115 J3.516351 K0.000000 X48.775392 Y33.784728 Z-0.750000
G1 F8.333333 X44.413506 Y29.422842 Z-0.750000
G1 F5.000000 X44.413506 Y29.422842 Z-1.500000
G1 F8.333333 X44.006919 Y29.829429 Z-1.500000
G1 F8.333333 X46.020120 Y31.842629 Z-1.500000
G3 F8.333333 I-0.648830 J0.636396 K0.000000 X46.020120 Y33.115422 Z-1.500000
G1 F8.333333 X45.005743 Y34.129799 Z-1.500000
G3 F8.333333 I-0.634300 J-0.644577 K0.000000 X43.831450 Y34.210635 Z-1.500000
