(Exported by FreeCAD)
(Post Processor: grbl_post)
(Output Time:2024-02-29 18:03:33.982467)
(Begin preamble)
G17 G90
G21
(Begin operation: 6.35 Z2 Q6.036)
(Path: 6.35 Z2 Q6.036)
(6.35 Z2 Q6.036)
(Begin toolchange)
( M6 T5 )
M3 S24000
(Finish operation: 6.35 Z2 Q6.036)
(Begin operation: Fixture)
(Path: Fixture)
G54
(Finish operation: Fixture)
(Begin operation: DressupPathBoundary001)
(Path: DressupPathBoundary001)
(Surface)
(Surface)
(Tool type: endmill)
(Compensated Tool Path. Diameter: 6.35)
(Sample interval: 1.0)
(Step over %: 60.0)
()
(Beginning of Multi-pass layers.)
(Layer 0 begins)
(Begin step 0.)
(part 1)
G0 Z19.770
G0 Z21.770
G0 X-0.000 Y188.151
G0 Z19.770
G1 Z16.800 F1000.000
G1 X-0.000 Y188.151 Z16.800 F1000.000
G1 X-0.986 Y124.059 Z16.800 F2500.000
G1 X-0.986 Y124.059 Z16.800 F1261.804
G0 Z19.770
G0 Z21.770
G0 X0.993 Y123.575
G0 Z19.770
G1 Z16.800 F1000.000
G1 X0.993 Y123.575 Z16.800 F1261.804
G1 X-0.000 Y188.151 Z16.800 F2500.000
(--Break)
G1 X-0.000 Y188.151 Z16.800 F1000.000
(part 3)
G0 Z19.770
G0 Z21.770
G0 X3.366 Y217.037
G0 Z19.770
G1 Z16.800 F1000.000
G1 X3.366 Y217.037 Z16.800 F1000.000
G1 X2.423 Y217.037 Z16.800 F2500.000
G1 X-3.234 Y217.037 Z16.800 F2500.000
G1 X-3.367 Y216.970 Z16.800 F2500.000
G1 X-4.933 Y115.182 Z16.800 F2500.000
G1 X-4.933 Y115.182 Z16.800 F1118.747
G0 Z19.770
G0 Z21.770
G0 X4.931 Y115.295
G0 Z19.770
G1 Z16.800 F1000.000
G1 X4.931 Y115.295 Z16.800 F1176.990
G1 X3.366 Y217.037 Z16.800 F2500.000
(--Break)
G1 X3.991 Y217.672 Z16.800 F2500.000
G1 X4.617 Y218.308 Z16.800 F2500.000
G1 X5.242 Y218.942 Z16.800 F2500.000
G1 X5.867 Y219.577 Z16.800 F2500.000
G1 X6.493 Y220.213 Z16.800 F2500.000
G1 X7.118 Y220.847 Z16.800 F2500.000
(part 5)
G1 X6.171 Y220.847 Z16.800 F2500.000
G1 X-7.082 Y220.847 Z16.800 F2500.000
G1 X-7.120 Y220.683 Z16.800 F2500.000
G1 X-9.711 Y52.303 Z16.800 F2500.000
G1 X-9.711 Y52.303 Z16.800 F1059.604
G0 Z19.770
G0 Z21.770
G0 X9.704 Y52.729
G0 Z19.770
G1 Z16.800 F1000.000
G1 X9.704 Y52.729 Z16.800 F1205.646
G1 X7.118 Y220.847 Z16.800 F2500.000
(--Break)
G1 X7.743 Y221.482 Z16.800 F2500.000
G1 X8.369 Y222.118 Z16.800 F2500.000
G1 X8.994 Y222.752 Z16.800 F2500.000
G1 X9.619 Y223.387 Z16.800 F2500.000
G1 X10.244 Y224.023 Z16.800 F2500.000
G1 X10.870 Y224.657 Z16.800 F2500.000
(part 7)
G1 X9.888 Y224.657 Z16.800 F2500.000
G1 X-10.730 Y224.657 Z16.800 F2500.000
G1 X-10.871 Y224.597 Z16.800 F2500.000
G1 X-14.079 Y16.022 Z16.800 F2500.000
G1 X-14.031 Y15.873 Z16.800 F2500.000
G1 X-12.031 Y15.873 Z16.800 F2500.000
G1 X-12.031 Y15.873 Z16.800 F1289.227
G0 Z19.770
G0 Z21.770
G0 X11.969 Y15.873
G0 Z19.770
G1 Z16.800 F1000.000
G1 X11.969 Y15.873 Z16.800 F1289.227
G1 X13.969 Y15.873 Z16.800 F2500.000
G1 X14.080 Y15.960 Z16.800 F2500.000
G1 X10.870 Y224.657 Z16.800 F2500.000
(--Break)
G1 X11.495 Y225.292 Z16.800 F2500.000
G1 X12.120 Y225.928 Z16.800 F2500.000
G1 X12.746 Y226.562 Z16.800 F2500.000
G1 X13.371 Y227.197 Z16.800 F2500.000
G1 X13.996 Y227.833 Z16.800 F2500.000
G1 X14.622 Y228.468 Z16.800 F2500.000
(part 9)
G1 X13.648 Y228.468 Z16.800 F2500.000
G1 X-14.578 Y228.468 Z16.800 F2500.000
G1 X-14.624 Y228.311 Z16.800 F2500.000
G1 X-17.949 Y12.136 Z16.800 F2500.000
G1 X-17.824 Y12.063 Z16.800 F2500.000
G1 X-11.891 Y12.063 Z16.800 F2500.000
G1 X-11.891 Y12.063 Z16.800 F1286.203
G0 Z19.770
G0 Z21.770
G0 X11.842 Y12.063
G0 Z19.770
G1 Z16.800 F1000.000
G1 X11.842 Y12.063 Z16.800 F1286.203
G1 X17.776 Y12.063 Z16.800 F2500.000
G1 X17.950 Y12.088 Z16.800 F2500.000
G1 X14.622 Y228.468 Z16.800 F2500.000
(--Break)
G1 X15.247 Y229.102 Z16.800 F2500.000
G1 X15.872 Y229.737 Z16.800 F2500.000
G1 X16.498 Y230.372 Z16.800 F2500.000
G1 X17.123 Y231.007 Z16.800 F2500.000
G1 X17.748 Y231.642 Z16.800 F2500.000
G1 X18.373 Y232.277 Z16.800 F2500.000
(part 11)
G1 X17.384 Y232.277 Z16.800 F2500.000
G1 X-18.227 Y232.277 Z16.800 F2500.000
G1 X-18.374 Y232.224 Z16.800 F2500.000
G1 X-21.818 Y8.253 Z16.800 F2500.000
G1 X-11.909 Y8.253 Z16.800 F2500.000
G1 X-11.909 Y8.253 Z16.800 F1286.753
G0 Z19.770
G0 Z21.770
G0 X11.873 Y8.253
G0 Z19.770
G1 Z16.800 F1000.000
G1 X11.873 Y8.253 Z16.800 F1286.753
G1 X21.782 Y8.253 Z16.800 F2500.000
G1 X21.817 Y8.415 Z16.800 F2500.000
G1 X18.373 Y232.277 Z16.800 F2500.000
(--Break)
G1 X18.999 Y232.912 Z16.800 F2500.000
G1 X19.624 Y233.547 Z16.800 F2500.000
G1 X20.249 Y234.182 Z16.800 F2500.000
G1 X20.875 Y234.817 Z16.800 F2500.000
G1 X21.500 Y235.452 Z16.800 F2500.000
G1 X22.125 Y236.088 Z16.800 F2500.000
(part 13)
G1 X21.143 Y236.088 Z16.800 F2500.000
G1 X-22.075 Y236.088 Z16.800 F2500.000
G1 X-22.128 Y235.938 Z16.800 F2500.000
G1 X-25.687 Y4.566 Z16.800 F2500.000
G1 X-25.612 Y4.443 Z16.800 F2500.000
G1 X-12.812 Y4.443 Z16.800 F2500.000
G1 X-12.812 Y4.443 Z16.800 F1285.039
G0 Z19.770
G0 Z21.770
G0 X12.788 Y4.443
G0 Z19.770
G1 Z16.800 F1000.000
G1 X12.788 Y4.443 Z16.800 F1285.039
G1 X25.588 Y4.443 Z16.800 F2500.000
G1 X25.687 Y4.542 Z16.800 F2500.000
G1 X22.125 Y236.088 Z16.800 F2500.000
(--Break)
G1 X22.125 Y236.088 Z16.800 F1000.000
(part 15)
G0 Z19.770
G0 Z21.770
G0 X25.877 Y239.898
G0 Z19.770
G1 Z16.800 F1000.000
G1 X25.877 Y239.898 Z16.800 F1000.000
G1 X24.885 Y239.898 Z16.800 F2500.000
G1 X-25.723 Y239.898 Z16.800 F2500.000
G1 X-25.878 Y239.852 Z16.800 F2500.000
G1 X-29.557 Y0.680 Z16.800 F2500.000
G1 X-29.405 Y0.633 Z16.800 F2500.000
G1 X-12.463 Y0.633 Z16.800 F2500.000
G1 X-12.463 Y0.633 Z16.800 F1288.305
G0 Z19.770
G0 Z21.770
G0 X12.452 Y0.633
G0 Z19.770
G1 Z16.800 F1000.000
G1 X12.452 Y0.633 Z16.800 F1288.305
G1 X29.395 Y0.633 Z16.800 F2500.000
G1 X29.557 Y0.669 Z16.800 F2500.000
G1 X25.877 Y239.898 Z16.800 F2500.000
(--Break)
G1 X25.877 Y239.898 Z16.800 F1000.000
(part 17)
G0 Z19.770
G0 Z21.770
G0 X30.200 Y206.584
G0 Z19.770
G1 Z16.800 F1000.000
G1 X29.678 Y240.530 Z16.800 F2500.000
G0 Z19.770
G0 Z21.770
G0 X-29.677 Y240.530
G0 Z19.770
G1 Z16.800 F1000.000
G1 X-30.200 Y206.522 Z16.800 F2500.000
(End of step 0.)
(End of layer 0)
(Layer 1 begins)
(Layer transition)
(Begin step 0.)
(part 1)
G0 Z19.770
G0 Z21.770
G0 X-0.000 Y188.151
G0 Z19.770
G1 Z16.800 F1000.000
G1 X-0.000 Y188.151 Z16.262 F1000.000
G1 X-0.986 Y124.059 Z16.794 F2500.000
G1 X-0.986 Y124.057 Z16.800 F1261.316
G0 Z19.770
G0 Z21.770
G0 X0.993 Y123.574
G0 Z19.770
G1 Z16.800 F1000.000
G1 X0.993 Y123.575 Z16.797 F1261.608
G1 X-0.000 Y188.151 Z16.262 F2500.000
(--Break)
G1 X-0.000 Y188.151 Z16.800 F1000.000
(part 3)
G0 Z19.770
G0 Z21.770
G0 X3.366 Y217.037
G0 Z19.770
G1 Z16.800 F1000.000
G1 X3.366 Y217.037 Z16.002 F1000.000
G1 X2.423 Y217.037 Z16.013 F2500.000
G1 X1.480 Y217.037 Z16.019 F2500.000
G1 X-0.405 Y217.037 Z16.022 F2500.000
G1 X-2.291 Y217.037 Z16.014 F2500.000
G1 X-3.234 Y217.037 Z16.004 F2500.000
G1 X-3.367 Y216.970 Z16.003 F2500.000
G1 X-4.182 Y163.976 Z16.423 F2500.000
G1 X-4.933 Y115.182 Z16.798 F2500.000
G1 X-4.933 Y115.182 Z16.800 F1118.685
G0 Z19.770
G0 Z21.770
G0 X4.931 Y115.294
G0 Z19.770
G1 Z16.800 F1000.000
G1 X4.931 Y115.295 Z16.798 F1176.865
G1 X4.178 Y164.289 Z16.421 F2500.000
G1 X3.366 Y217.037 Z16.002 F2500.000
(--Break)
G1 X3.991 Y217.672 Z15.981 F2500.000
G1 X4.617 Y218.308 Z15.949 F2500.000
G1 X5.242 Y218.942 Z15.904 F2500.000
G1 X5.867 Y219.577 Z15.844 F2500.000
G1 X6.493 Y220.213 Z15.773 F2500.000
G1 X7.118 Y220.847 Z15.687 F2500.000
(part 5)
G1 X6.171 Y220.847 Z15.804 F2500.000
G1 X5.225 Y220.847 Z15.889 F2500.000
G1 X4.278 Y220.847 Z15.944 F2500.000
G1 X3.331 Y220.847 Z15.971 F2500.000
G1 X2.385 Y220.847 Z15.981 F2500.000
G1 X0.491 Y220.847 Z15.990 F2500.000
G1 X-1.402 Y220.847 Z15.987 F2500.000
G1 X-3.295 Y220.847 Z15.972 F2500.000
G1 X-4.242 Y220.847 Z15.946 F2500.000
G1 X-5.189 Y220.847 Z15.892 F2500.000
G1 X-6.135 Y220.847 Z15.808 F2500.000
G1 X-7.082 Y220.847 Z15.692 F2500.000
G1 X-7.120 Y220.683 Z15.688 F2500.000
G1 X-8.760 Y114.096 Z16.388 F2500.000
G1 X-9.711 Y52.303 Z16.799 F2500.000
G1 X-9.711 Y52.303 Z16.800 F1059.595
G0 Z19.770
G0 Z21.770
G0 X9.704 Y52.728
G0 Z19.770
G1 Z16.800 F1000.000
G1 X9.704 Y52.729 Z16.796 F1205.404
G1 X8.727 Y116.222 Z16.373 F2500.000
G1 X7.118 Y220.847 Z15.687 F2500.000
(--Break)
G1 X7.743 Y221.482 Z15.588 F2500.000
G1 X8.369 Y222.118 Z15.475 F2500.000
G1 X8.994 Y222.752 Z15.349 F2500.000
G1 X9.619 Y223.387 Z15.208 F2500.000
G1 X10.244 Y224.023 Z15.056 F2500.000
G1 X10.870 Y224.657 Z14.889 F2500.000
(part 7)
G1 X9.888 Y224.657 Z15.134 F2500.000
G1 X8.906 Y224.657 Z15.349 F2500.000
G1 X7.924 Y224.657 Z15.529 F2500.000
G1 X6.943 Y224.657 Z15.678 F2500.000
G1 X5.961 Y224.657 Z15.792 F2500.000
G1 X4.979 Y224.657 Z15.874 F2500.000
G1 X3.997 Y224.657 Z15.922 F2500.000
G1 X3.015 Y224.657 Z15.944 F2500.000
G1 X2.033 Y224.657 Z15.952 F2500.000
G1 X0.070 Y224.657 Z15.958 F2500.000
G1 X-1.894 Y224.657 Z15.954 F2500.000
G1 X-2.876 Y224.657 Z15.945 F2500.000
G1 X-3.857 Y224.657 Z15.927 F2500.000
G1 X-4.839 Y224.657 Z15.883 F2500.000
G1 X-5.821 Y224.657 Z15.805 F2500.000
G1 X-6.803 Y224.657 Z15.696 F2500.000
G1 X-7.785 Y224.657 Z15.552 F2500.000
G1 X-8.767 Y224.657 Z15.376 F2500.000
G1 X-9.748 Y224.657 Z15.167 F2500.000
G1 X-10.730 Y224.657 Z14.925 F2500.000
G1 X-10.871 Y224.597 Z14.889 F2500.000
G1 X-11.603 Y177.003 Z15.158 F2500.000
G1 X-12.664 Y108.011 Z15.560 F2500.000
G1 X-13.756 Y37.019 Z15.990 F2500.000
G1 X-14.067 Y16.822 Z16.116 F2500.000
G1 X-14.079 Y16.022 Z16.122 F2500.000
G1 X-14.031 Y15.873 Z16.138 F2500.000
G1 X-13.031 Y15.873 Z16.422 F2500.000
G1 X-12.031 Y15.873 Z16.676 F2500.000
G1 X-11.993 Y15.873 Z16.800 F1279.049
G0 Z19.770
G0 Z21.770
G0 X11.936 Y15.873
G0 Z19.770
G1 Z16.800 F1000.000
G1 X11.969 Y15.873 Z16.691 F1280.225
G1 X12.969 Y15.873 Z16.439 F2500.000
G1 X13.969 Y15.873 Z16.157 F2500.000
G1 X14.080 Y15.960 Z16.122 F2500.000
G1 X13.434 Y57.955 Z15.862 F2500.000
G1 X12.665 Y107.949 Z15.561 F2500.000
G1 X11.536 Y181.341 Z15.133 F2500.000
G1 X10.870 Y224.657 Z14.889 F2500.000
(--Break)
G1 X11.495 Y225.292 Z14.709 F2500.000
G1 X12.120 Y225.928 Z14.515 F2500.000
G1 X12.746 Y226.562 Z14.308 F2500.000
G1 X13.371 Y227.197 Z14.086 F2500.000
G1 X13.996 Y227.833 Z13.850 F2500.000
G1 X14.622 Y228.468 Z13.625 F2500.000
(part 9)
G1 X13.648 Y228.468 Z13.973 F2500.000
G1 X12.675 Y228.468 Z14.312 F2500.000
G1 X11.702 Y228.468 Z14.616 F2500.000
G1 X10.728 Y228.468 Z14.890 F2500.000
G1 X9.755 Y228.468 Z15.131 F2500.000
G1 X8.782 Y228.468 Z15.339 F2500.000
G1 X7.808 Y228.468 Z15.515 F2500.000
G1 X6.835 Y228.468 Z15.659 F2500.000
G1 X5.862 Y228.468 Z15.769 F2500.000
G1 X4.888 Y228.468 Z15.847 F2500.000
G1 X3.915 Y228.468 Z15.893 F2500.000
G1 X2.942 Y228.468 Z15.912 F2500.000
G1 X1.968 Y228.468 Z15.921 F2500.000
G1 X0.995 Y228.468 Z15.925 F2500.000
G1 X-0.952 Y228.468 Z15.925 F2500.000
G1 X-2.898 Y228.468 Z15.912 F2500.000
G1 X-3.872 Y228.468 Z15.894 F2500.000
G1 X-4.845 Y228.468 Z15.850 F2500.000
G1 X-5.818 Y228.468 Z15.774 F2500.000
G1 X-6.792 Y228.468 Z15.664 F2500.000
G1 X-7.765 Y228.468 Z15.522 F2500.000
G1 X-8.738 Y228.468 Z15.347 F2500.000
G1 X-9.712 Y228.468 Z15.141 F2500.000
G1 X-10.685 Y228.468 Z14.901 F2500.000
G1 X-11.658 Y228.468 Z14.630 F2500.000
G1 X-12.632 Y228.468 Z14.325 F2500.000
G1 X-13.605 Y228.468 Z13.989 F2500.000
G1 X-14.578 Y228.468 Z13.625 F2500.000
G1 X-14.624 Y228.311 Z13.625 F2500.000
G1 X-14.701 Y223.311 Z13.626 F2500.000
G1 X-15.707 Y157.919 Z13.951 F2500.000
G1 X-17.076 Y68.930 Z14.414 F2500.000
G1 X-17.949 Y12.136 Z14.717 F2500.000
G1 X-17.824 Y12.063 Z14.774 F2500.000
G1 X-16.835 Y12.063 Z15.193 F2500.000
G1 X-15.847 Y12.063 Z15.574 F2500.000
G1 X-14.858 Y12.063 Z15.919 F2500.000
G1 X-13.869 Y12.063 Z16.227 F2500.000
G1 X-12.880 Y12.063 Z16.503 F2500.000
G1 X-11.891 Y12.063 Z16.747 F2500.000
G1 X-11.875 Y12.063 Z16.800 F1281.831
G0 Z19.770
G0 Z21.770
G0 X11.830 Y12.063
G0 Z19.770
G1 Z16.800 F1000.000
G1 X11.842 Y12.063 Z16.759 F1282.759
G1 X12.831 Y12.063 Z16.516 F2500.000
G1 X13.820 Y12.063 Z16.242 F2500.000
G1 X14.809 Y12.063 Z15.934 F2500.000
G1 X15.798 Y12.063 Z15.591 F2500.000
G1 X16.787 Y12.063 Z15.213 F2500.000
G1 X17.776 Y12.063 Z14.795 F2500.000
G1 X17.950 Y12.088 Z14.717 F2500.000
G1 X16.830 Y84.879 Z14.329 F2500.000
G1 X15.708 Y157.870 Z13.951 F2500.000
G1 X14.702 Y223.263 Z13.626 F2500.000
G1 X14.622 Y228.468 Z13.625 F2500.000
(--Break)
G1 X15.247 Y229.102 Z13.625 F2500.000
G1 X15.872 Y229.737 Z13.625 F2500.000
G1 X16.498 Y230.372 Z13.625 F2500.000
G1 X17.123 Y231.007 Z13.625 F2500.000
G1 X17.748 Y231.642 Z13.625 F2500.000
G1 X18.373 Y232.277 Z13.625 F2500.000
(part 11)
G1 X17.384 Y232.277 Z13.625 F2500.000
G1 X15.406 Y232.277 Z13.625 F2500.000
G1 X14.417 Y232.277 Z13.639 F2500.000
G1 X13.428 Y232.277 Z14.011 F2500.000
G1 X12.438 Y232.277 Z14.349 F2500.000
G1 X11.449 Y232.277 Z14.653 F2500.000
G1 X10.460 Y232.277 Z14.922 F2500.000
G1 X9.471 Y232.277 Z15.159 F2500.000
G1 X8.482 Y232.277 Z15.362 F2500.000
G1 X7.492 Y232.277 Z15.532 F2500.000
G1 X6.503 Y232.277 Z15.666 F2500.000
G1 X5.514 Y232.277 Z15.770 F2500.000
G1 X4.525 Y232.277 Z15.837 F2500.000
G1 X3.536 Y232.277 Z15.871 F2500.000
G1 X2.546 Y232.277 Z15.885 F2500.000
G1 X1.557 Y232.277 Z15.892 F2500.000
G1 X-0.421 Y232.277 Z15.895 F2500.000
G1 X-2.400 Y232.277 Z15.886 F2500.000
G1 X-3.389 Y232.277 Z15.875 F2500.000
G1 X-4.378 Y232.277 Z15.844 F2500.000
G1 X-5.367 Y232.277 Z15.781 F2500.000
G1 X-6.356 Y232.277 Z15.685 F2500.000
G1 X-7.345 Y232.277 Z15.554 F2500.000
G1 X-8.335 Y232.277 Z15.389 F2500.000
G1 X-9.324 Y232.277 Z15.191 F2500.000
G1 X-10.313 Y232.277 Z14.960 F2500.000
G1 X-11.302 Y232.277 Z14.695 F2500.000
G1 X-12.291 Y232.277 Z14.397 F2500.000
G1 X-13.281 Y232.277 Z14.064 F2500.000
G1 X-14.270 Y232.277 Z13.697 F2500.000
G1 X-15.259 Y232.277 Z13.625 F2500.000
G1 X-18.227 Y232.277 Z13.625 F2500.000
G1 X-18.374 Y232.224 Z13.625 F2500.000
G1 X-21.818 Y8.253 Z13.625 F2500.000
G1 X-20.827 Y8.253 Z13.625 F2500.000
G1 X-19.836 Y8.253 Z13.842 F2500.000
G1 X-18.845 Y8.253 Z14.345 F2500.000
G1 X-17.854 Y8.253 Z14.807 F2500.000
G1 X-16.863 Y8.253 Z15.226 F2500.000
G1 X-15.873 Y8.253 Z15.607 F2500.000
G1 X-14.882 Y8.253 Z15.952 F2500.000
G1 X-13.891 Y8.253 Z16.262 F2500.000
G1 X-12.900 Y8.253 Z16.538 F2500.000
G1 X-11.909 Y8.253 Z16.782 F2500.000
G1 X-11.903 Y8.253 Z16.800 F1285.281
G0 Z19.770
G0 Z21.770
G0 X11.870 Y8.253
G0 Z19.770
G1 Z16.800 F1000.000
G1 X11.873 Y8.253 Z16.791 F1285.993
G1 X12.864 Y8.253 Z16.547 F2500.000
G1 X13.855 Y8.253 Z16.272 F2500.000
G1 X14.846 Y8.253 Z15.964 F2500.000
G1 X15.837 Y8.253 Z15.620 F2500.000
G1 X16.827 Y8.253 Z15.241 F2500.000
G1 X17.818 Y8.253 Z14.823 F2500.000
G1 X18.809 Y8.253 Z14.363 F2500.000
G1 X19.800 Y8.253 Z13.861 F2500.000
G1 X20.791 Y8.253 Z13.625 F2500.000
G1 X21.782 Y8.253 Z13.625 F2500.000
G1 X21.817 Y8.415 Z13.625 F2500.000
G1 X18.373 Y232.277 Z13.625 F2500.000
(--Break)
G1 X18.999 Y232.912 Z13.625 F2500.000
G1 X19.624 Y233.547 Z13.625 F2500.000
G1 X20.249 Y234.182 Z13.625 F2500.000
G1 X20.875 Y234.817 Z13.625 F2500.000
G1 X21.500 Y235.452 Z13.625 F2500.000
G1 X22.125 Y236.088 Z13.625 F2500.000
(part 13)
G1 X21.143 Y236.088 Z13.625 F2500.000
G1 X15.250 Y236.088 Z13.625 F2500.000
G1 X14.268 Y236.088 Z13.657 F2500.000
G1 X13.285 Y236.088 Z14.023 F2500.000
G1 X12.303 Y236.088 Z14.354 F2500.000
G1 X11.321 Y236.088 Z14.652 F2500.000
G1 X10.339 Y236.088 Z14.917 F2500.000
G1 X9.356 Y236.088 Z15.148 F2500.000
G1 X8.374 Y236.088 Z15.348 F2500.000
G1 X7.392 Y236.088 Z15.512 F2500.000
G1 X6.410 Y236.088 Z15.645 F2500.000
G1 X5.428 Y236.088 Z15.743 F2500.000
G1 X4.445 Y236.088 Z15.809 F2500.000
G1 X3.463 Y236.088 Z15.841 F2500.000
G1 X2.481 Y236.088 Z15.854 F2500.000
G1 X1.499 Y236.088 Z15.860 F2500.000
G1 X-0.466 Y236.088 Z15.863 F2500.000
G1 X-2.430 Y236.088 Z15.854 F2500.000
G1 X-3.412 Y236.088 Z15.841 F2500.000
G1 X-4.395 Y236.088 Z15.811 F2500.000
G1 X-5.377 Y236.088 Z15.748 F2500.000
G1 X-6.359 Y236.088 Z15.651 F2500.000
G1 X-7.341 Y236.088 Z15.521 F2500.000
G1 X-8.324 Y236.088 Z15.356 F2500.000
G1 X-9.306 Y236.088 Z15.160 F2500.000
G1 X-10.288 Y236.088 Z14.929 F2500.000
G1 X-11.270 Y236.088 Z14.666 F2500.000
G1 X-12.252 Y236.088 Z14.370 F2500.000
G1 X-13.235 Y236.088 Z14.040 F2500.000
G1 X-14.217 Y236.088 Z13.676 F2500.000
G1 X-15.199 Y236.088 Z13.625 F2500.000
G1 X-22.075 Y236.088 Z13.625 F2500.000
G1 X-22.128 Y235.938 Z13.625 F2500.000
G1 X-25.687 Y4.566 Z13.625 F2500.000
G1 X-25.612 Y4.443 Z13.625 F2500.000
G1 X-20.689 Y4.443 Z13.625 F2500.000
G1 X-19.704 Y4.443 Z13.960 F2500.000
G1 X-18.719 Y4.443 Z14.454 F2500.000
G1 X-17.735 Y4.443 Z14.906 F2500.000
G1 X-16.750 Y4.443 Z15.317 F2500.000
G1 X-15.766 Y4.443 Z15.691 F2500.000
G1 X-14.781 Y4.443 Z16.028 F2500.000
G1 X-13.796 Y4.443 Z16.331 F2500.000
G1 X-12.812 Y4.443 Z16.601 F2500.000
G1 X-12.754 Y4.443 Z16.800 F1269.233
G0 Z19.770
G0 Z21.770
G0 X12.732 Y4.443
G0 Z19.770
G1 Z16.800 F1000.000
G1 X12.788 Y4.443 Z16.607 F1269.670
G1 X13.773 Y4.443 Z16.338 F2500.000
G1 X14.758 Y4.443 Z16.036 F2500.000
G1 X15.742 Y4.443 Z15.699 F2500.000
G1 X16.727 Y4.443 Z15.326 F2500.000
G1 X17.711 Y4.443 Z14.916 F2500.000
G1 X18.696 Y4.443 Z14.465 F2500.000
G1 X19.681 Y4.443 Z13.972 F2500.000
G1 X20.665 Y4.443 Z13.625 F2500.000
G1 X25.588 Y4.443 Z13.625 F2500.000
G1 X25.687 Y4.542 Z13.625 F2500.000
G1 X22.125 Y236.088 Z13.625 F2500.000
(--Break)
G1 X22.125 Y236.088 Z16.800 F1000.000
(part 15)
G0 Z19.770
G0 Z21.770
G0 X25.877 Y239.898
G0 Z19.770
G1 Z16.800 F1000.000
G1 X25.877 Y239.898 Z13.625 F1000.000
G1 X24.885 Y239.898 Z13.625 F2500.000
G1 X14.962 Y239.898 Z13.625 F2500.000
G1 X13.969 Y239.898 Z13.731 F2500.000
G1 X12.977 Y239.898 Z14.091 F2500.000
G1 X11.985 Y239.898 Z14.416 F2500.000
G1 X10.993 Y239.898 Z14.708 F2500.000
G1 X10.000 Y239.898 Z14.965 F2500.000
G1 X9.008 Y239.898 Z15.188 F2500.000
G1 X8.016 Y239.898 Z15.378 F2500.000
G1 X7.023 Y239.898 Z15.534 F2500.000
G1 X6.031 Y239.898 Z15.654 F2500.000
G1 X5.039 Y239.898 Z15.742 F2500.000
G1 X4.046 Y239.898 Z15.794 F2500.000
G1 X3.054 Y239.898 Z15.816 F2500.000
G1 X2.062 Y239.898 Z15.825 F2500.000
G1 X0.077 Y239.898 Z15.832 F2500.000
G1 X-1.907 Y239.898 Z15.826 F2500.000
G1 X-2.900 Y239.898 Z15.818 F2500.000
G1 X-3.892 Y239.898 Z15.799 F2500.000
G1 X-4.884 Y239.898 Z15.752 F2500.000
G1 X-5.877 Y239.898 Z15.670 F2500.000
G1 X-6.869 Y239.898 Z15.555 F2500.000
G1 X-7.861 Y239.898 Z15.404 F2500.000
G1 X-8.854 Y239.898 Z15.220 F2500.000
G1 X-9.846 Y239.898 Z15.002 F2500.000
G1 X-10.838 Y239.898 Z14.750 F2500.000
G1 X-11.831 Y239.898 Z14.464 F2500.000
G1 X-12.823 Y239.898 Z14.142 F2500.000
G1 X-13.815 Y239.898 Z13.788 F2500.000
G1 X-14.807 Y239.898 Z13.625 F2500.000
G1 X-25.723 Y239.898 Z13.625 F2500.000
G1 X-25.878 Y239.852 Z13.625 F2500.000
G1 X-29.557 Y0.680 Z13.625 F2500.000
G1 X-29.405 Y0.633 Z13.625 F2500.000
G1 X-20.436 Y0.633 Z13.625 F2500.000
G1 X-19.439 Y0.633 Z14.145 F2500.000
G1 X-18.443 Y0.633 Z14.633 F2500.000
G1 X-17.446 Y0.633 Z15.077 F2500.000
G1 X-16.449 Y0.633 Z15.480 F2500.000
G1 X-15.453 Y0.633 Z15.846 F2500.000
G1 X-14.456 Y0.633 Z16.174 F2500.000
G1 X-13.460 Y0.633 Z16.468 F2500.000
G1 X-12.463 Y0.633 Z16.729 F2500.000
G1 X-12.441 Y0.633 Z16.800 F1282.425
G0 Z19.770
G0 Z21.770
G0 X12.432 Y0.633
G0 Z19.770
G1 Z16.800 F1000.000
G1 X12.452 Y0.633 Z16.732 F1282.639
G1 X13.449 Y0.633 Z16.471 F2500.000
G1 X14.446 Y0.633 Z16.177 F2500.000
G1 X15.442 Y0.633 Z15.849 F2500.000
G1 X16.439 Y0.633 Z15.484 F2500.000
G1 X17.435 Y0.633 Z15.081 F2500.000
G1 X18.432 Y0.633 Z14.638 F2500.000
G1 X19.429 Y0.633 Z14.150 F2500.000
G1 X20.425 Y0.633 Z13.625 F2500.000
G1 X29.395 Y0.633 Z13.625 F2500.000
G1 X29.557 Y0.669 Z13.625 F2500.000
G1 X25.877 Y239.898 Z13.625 F2500.000
(--Break)
G1 X25.877 Y239.898 Z16.800 F1000.000
(part 17)
G0 Z19.770
G0 Z21.770
G0 X30.200 Y206.584
G0 Z19.770
G1 Z13.625 F1000.000
G1 X29.678 Y240.530 Z13.625 F2500.000
G0 Z19.770
G0 Z21.770
G0 X-29.677 Y240.530
G0 Z19.770
G1 Z13.625 F1000.000
G1 X-30.200 Y206.522 Z13.625 F2500.000
(End of step 0.)
(End of layer 1)
(Layer 2 begins)
(Layer transition)
(Begin step 0.)
(part 1)
G0 Z19.770
G0 Z21.770
G0 X14.622 Y228.468
G0 Z19.770
G1 Z16.800 F1000.000
G1 X14.622 Y228.468 Z13.601 F1000.000
G1 X14.135 Y228.468 Z16.800 F1144.143
G0 Z19.770
G0 Z21.770
G0 X-14.093 Y228.468
G0 Z19.770
G1 Z16.800 F1000.000
G1 X-14.578 Y228.468 Z13.618 F1144.532
G1 X-14.624 Y228.311 Z13.602 F2500.000
G1 X-14.698 Y223.511 Z13.624 F2500.000
G1 X-14.699 Y223.412 Z16.800 F1029.944
G0 Z19.770
G0 Z21.770
G0 X14.699 Y223.463
G0 Z19.770
G1 Z16.800 F1000.000
G1 X14.696 Y223.663 Z13.624 F1059.825
G1 X14.622 Y228.468 Z13.601 F2500.000
(--Break)
G1 X15.247 Y229.102 Z13.337 F2500.000
G1 X15.872 Y229.737 Z13.058 F2500.000
G1 X16.498 Y230.372 Z12.764 F2500.000
G1 X17.123 Y231.007 Z12.454 F2500.000
G1 X17.748 Y231.642 Z12.129 F2500.000
G1 X18.373 Y232.277 Z11.788 F2500.000
(part 3)
G1 X17.384 Y232.277 Z12.309 F2500.000
G1 X16.395 Y232.277 Z12.790 F2500.000
G1 X15.406 Y232.277 Z13.233 F2500.000
G1 X14.884 Y232.277 Z16.800 F1138.600
G0 Z19.770
G0 Z21.770
G0 X-14.742 Y232.277
G0 Z19.770
G1 Z16.800 F1000.000
G1 X-15.259 Y232.277 Z13.295 F1139.881
G1 X-16.248 Y232.277 Z12.858 F2500.000
G1 X-17.237 Y232.277 Z12.383 F2500.000
G1 X-18.227 Y232.277 Z11.868 F2500.000
G1 X-18.374 Y232.224 Z11.789 F2500.000
G1 X-20.595 Y87.842 Z12.378 F2500.000
G1 X-21.818 Y8.253 Z12.695 F2500.000
G1 X-20.827 Y8.253 Z13.291 F2500.000
G1 X-20.309 Y8.253 Z16.800 F1140.037
G0 Z19.770
G0 Z21.770
G0 X20.274 Y8.253
G0 Z19.770
G1 Z16.800 F1000.000
G1 X20.791 Y8.253 Z13.312 F1140.469
G1 X21.782 Y8.253 Z12.717 F2500.000
G1 X21.817 Y8.415 Z12.693 F2500.000
G1 X20.684 Y82.106 Z12.402 F2500.000
G1 X18.373 Y232.277 Z11.788 F2500.000
(--Break)
G1 X18.999 Y232.912 Z11.431 F2500.000
G1 X19.624 Y233.547 Z11.054 F2500.000
G1 X20.249 Y234.182 Z10.661 F2500.000
G1 X20.875 Y234.817 Z10.450 F2500.000
G1 X21.500 Y235.452 Z10.450 F2500.000
G1 X22.125 Y236.088 Z10.450 F2500.000
(part 5)
G1 X21.143 Y236.088 Z10.450 F2500.000
G1 X20.161 Y236.088 Z10.691 F2500.000
G1 X19.179 Y236.088 Z11.287 F2500.000
G1 X18.196 Y236.088 Z11.837 F2500.000
G1 X17.214 Y236.088 Z12.349 F2500.000
G1 X16.232 Y236.088 Z12.821 F2500.000
G1 X15.250 Y236.088 Z13.257 F2500.000
G1 X14.734 Y236.088 Z16.800 F1138.126
G0 Z19.770
G0 Z21.770
G0 X-14.684 Y236.088
G0 Z19.770
G1 Z16.800 F1000.000
G1 X-15.199 Y236.088 Z13.278 F1138.548
G1 X-16.181 Y236.088 Z12.845 F2500.000
G1 X-17.164 Y236.088 Z12.374 F2500.000
G1 X-18.146 Y236.088 Z11.864 F2500.000
G1 X-19.128 Y236.088 Z11.316 F2500.000
G1 X-20.110 Y236.088 Z10.722 F2500.000
G1 X-21.092 Y236.088 Z10.450 F2500.000
G1 X-22.075 Y236.088 Z10.450 F2500.000
G1 X-22.128 Y235.938 Z10.450 F2500.000
G1 X-25.687 Y4.566 Z10.450 F2500.000
G1 X-25.612 Y4.443 Z10.450 F2500.000
G1 X-24.627 Y4.443 Z10.770 F2500.000
G1 X-23.642 Y4.443 Z11.514 F2500.000
G1 X-22.658 Y4.443 Z12.202 F2500.000
G1 X-21.673 Y4.443 Z12.836 F2500.000
G1 X-20.689 Y4.443 Z13.421 F2500.000
G1 X-20.183 Y4.443 Z16.800 F1141.866
G0 Z19.770
G0 Z21.770
G0 X20.161 Y4.443
G0 Z19.770
G1 Z16.800 F1000.000
G1 X20.665 Y4.443 Z13.434 F1142.147
G1 X21.650 Y4.443 Z12.850 F2500.000
G1 X22.634 Y4.443 Z12.217 F2500.000
G1 X23.619 Y4.443 Z11.531 F2500.000
G1 X24.604 Y4.443 Z10.788 F2500.000
G1 X25.588 Y4.443 Z10.450 F2500.000
G1 X25.687 Y4.542 Z10.450 F2500.000
G1 X22.125 Y236.088 Z10.450 F2500.000
(--Break)
G1 X22.125 Y236.088 Z16.800 F1000.000
G0 Z19.770
G0 Z21.770
G0 X25.877 Y239.898
G0 Z19.770
G1 Z16.800 F1000.000
G1 X25.877 Y239.898 Z15.625 F1000.000
(part 7)
G1 X25.877 Y239.898 Z10.450 F2500.000
G1 X24.885 Y239.898 Z10.450 F2500.000
G1 X20.916 Y239.898 Z10.450 F2500.000
G1 X19.923 Y239.898 Z10.791 F2500.000
G1 X18.931 Y239.898 Z11.381 F2500.000
G1 X17.939 Y239.898 Z11.929 F2500.000
G1 X16.946 Y239.898 Z12.436 F2500.000
G1 X15.954 Y239.898 Z12.904 F2500.000
G1 X14.962 Y239.898 Z13.336 F2500.000
G1 X14.446 Y239.898 Z16.800 F1141.153
G0 Z19.770
G0 Z21.770
G0 X-14.296 Y239.898
G0 Z19.770
G1 Z16.800 F1000.000
G1 X-14.807 Y239.898 Z13.398 F1142.458
G1 X-15.800 Y239.898 Z12.974 F2500.000
G1 X-16.792 Y239.898 Z12.512 F2500.000
G1 X-17.784 Y239.898 Z12.011 F2500.000
G1 X-18.777 Y239.898 Z11.468 F2500.000
G1 X-19.769 Y239.898 Z10.885 F2500.000
G1 X-20.761 Y239.898 Z10.450 F2500.000
G1 X-25.723 Y239.898 Z10.450 F2500.000
G1 X-25.878 Y239.852 Z10.450 F2500.000
G1 X-29.557 Y0.680 Z10.450 F2500.000
G1 X-29.405 Y0.633 Z10.450 F2500.000
G1 X-25.419 Y0.633 Z10.450 F2500.000
G1 X-24.422 Y0.633 Z10.984 F2500.000
G1 X-23.426 Y0.633 Z11.724 F2500.000
G1 X-22.429 Y0.633 Z12.406 F2500.000
G1 X-21.432 Y0.633 Z13.036 F2500.000
G1 X-20.436 Y0.633 Z13.613 F2500.000
G1 X-19.939 Y0.633 Z16.800 F1147.812
G0 Z19.770
G0 Z21.770
G0 X19.928 Y0.633
G0 Z19.770
G1 Z16.800 F1000.000
G1 X20.425 Y0.633 Z13.619 F1147.947
G1 X21.422 Y0.633 Z13.042 F2500.000
G1 X22.418 Y0.633 Z12.413 F2500.000
G1 X23.415 Y0.633 Z11.732 F2500.000
G1 X24.412 Y0.633 Z10.992 F2500.000
G1 X25.408 Y0.633 Z10.450 F2500.000
G1 X29.395 Y0.633 Z10.450 F2500.000
G1 X29.557 Y0.669 Z10.450 F2500.000
G1 X25.877 Y239.898 Z10.450 F2500.000
(--Break)
G1 X25.877 Y239.898 Z16.800 F1000.000
(part 9)
G0 Z19.770
G0 Z21.770
G0 X30.200 Y206.584
G0 Z19.770
G1 Z10.450 F1000.000
G1 X29.678 Y240.530 Z10.450 F2500.000
G0 Z19.770
G0 Z21.770
G0 X-29.677 Y240.530
G0 Z19.770
G1 Z10.450 F1000.000
G1 X-30.200 Y206.522 Z10.450 F2500.000
(End of step 0.)
(End of layer 2)
(Layer 3 begins)
(Layer transition)
(Begin step 0.)
(part 1)
G0 Z19.770
G0 Z21.770
G0 X22.125 Y236.088
G0 Z19.770
G1 Z16.800 F1000.000
G1 X22.125 Y236.088 Z9.362 F1000.000
G1 X21.143 Y236.088 Z10.052 F2500.000
G1 X20.477 Y236.088 Z16.800 F1093.979
G0 Z19.770
G0 Z21.770
G0 X-20.427 Y236.088
G0 Z19.770
G1 Z16.800 F1000.000
G1 X-21.092 Y236.088 Z10.086 F1094.301
G1 X-22.075 Y236.088 Z9.399 F2500.000
G1 X-22.128 Y235.938 Z9.362 F2500.000
G1 X-23.047 Y176.145 Z9.520 F2500.000
G1 X-23.972 Y116.052 Z9.666 F2500.000
G1 X-24.790 Y62.859 Z9.784 F2500.000
G1 X-25.687 Y4.566 Z9.899 F2500.000
G1 X-25.612 Y4.443 Z9.965 F2500.000
G1 X-24.941 Y4.443 Z16.800 F1093.398
G0 Z19.770
G0 Z21.770
G0 X24.918 Y4.443
G0 Z19.770
G1 Z16.800 F1000.000
G1 X25.588 Y4.443 Z9.985 F1093.582
G1 X25.687 Y4.542 Z9.899 F2500.000
G1 X24.897 Y55.936 Z9.799 F2500.000
G1 X24.026 Y112.529 Z9.675 F2500.000
G1 X23.069 Y174.722 Z9.523 F2500.000
G1 X22.125 Y236.088 Z9.362 F2500.000
(--Break)
G1 X22.125 Y236.088 Z16.800 F1000.000
G0 Z19.770
G0 Z21.770
G0 X25.877 Y239.898
G0 Z19.770
G1 Z16.800 F1000.000
G1 X25.877 Y239.898 Z12.450 F1000.000
(part 3)
G1 X25.877 Y239.898 Z7.275 F2500.000
G1 X24.885 Y239.898 Z7.275 F2500.000
G1 X23.893 Y239.898 Z7.920 F2500.000
G1 X22.900 Y239.898 Z8.724 F2500.000
G1 X21.908 Y239.898 Z9.465 F2500.000
G1 X20.916 Y239.898 Z10.154 F2500.000
G1 X20.246 Y239.898 Z16.800 F1095.915
G0 Z19.770
G0 Z21.770
G0 X-20.095 Y239.898
G0 Z19.770
G1 Z16.800 F1000.000
G1 X-20.761 Y239.898 Z10.256 F1096.914
G1 X-21.754 Y239.898 Z9.575 F2500.000
G1 X-22.746 Y239.898 Z8.844 F2500.000
G1 X-23.738 Y239.898 Z8.050 F2500.000
G1 X-24.731 Y239.898 Z7.275 F2500.000
G1 X-25.723 Y239.898 Z7.275 F2500.000
G1 X-25.878 Y239.852 Z7.275 F2500.000
G1 X-29.557 Y0.680 Z7.275 F2500.000
G1 X-29.405 Y0.633 Z7.275 F2500.000
G1 X-28.409 Y0.633 Z7.374 F2500.000
G1 X-27.412 Y0.633 Z8.385 F2500.000
G1 X-26.415 Y0.633 Z9.317 F2500.000
G1 X-25.419 Y0.633 Z10.183 F2500.000
G1 X-24.747 Y0.633 Z16.800 F1096.615
G0 Z19.770
G0 Z21.770
G0 X24.737 Y0.633
G0 Z19.770
G1 Z16.800 F1000.000
G1 X25.408 Y0.633 Z10.192 F1096.702
G1 X26.405 Y0.633 Z9.327 F2500.000
G1 X27.401 Y0.633 Z8.395 F2500.000
G1 X28.398 Y0.633 Z7.386 F2500.000
G1 X29.395 Y0.633 Z7.275 F2500.000
G1 X29.557 Y0.669 Z7.275 F2500.000
G1 X25.877 Y239.898 Z7.275 F2500.000
(--Break)
G1 X25.877 Y239.898 Z16.800 F1000.000
(part 5)
G0 Z19.770
G0 Z21.770
G0 X30.200 Y206.584
G0 Z19.770
G1 Z7.275 F1000.000
G1 X29.678 Y240.530 Z7.275 F2500.000
G0 Z19.770
G0 Z21.770
G0 X-29.677 Y240.530
G0 Z19.770
G1 Z7.275 F1000.000
G1 X-30.200 Y206.522 Z7.275 F2500.000
(End of step 0.)
(End of layer 3)
(Layer 4 begins)
(Layer transition)
(Begin step 0.)
(part 1)
G0 Z19.770
G0 Z21.770
G0 X25.877 Y239.898
G0 Z19.770
G1 Z16.800 F1000.000
G1 X25.877 Y239.898 Z6.083 F1000.000
G1 X24.885 Y239.898 Z7.043 F2500.000
G1 X24.138 Y239.898 Z16.800 F1072.988
G0 Z19.770
G0 Z21.770
G0 X-23.986 Y239.898
G0 Z19.770
G1 Z16.800 F1000.000
G1 X-24.731 Y239.898 Z7.185 F1073.797
G1 X-25.723 Y239.898 Z6.239 F2500.000
G1 X-25.878 Y239.852 Z6.083 F2500.000
G1 X-26.672 Y188.258 Z6.103 F2500.000
G1 X-27.533 Y132.265 Z6.114 F2500.000
G1 X-27.653 Y124.465 Z6.115 F2500.000
G1 X-27.665 Y123.666 Z6.111 F2500.000
G1 X-27.714 Y120.466 Z6.115 F2500.000
G1 X-28.483 Y70.472 Z6.116 F2500.000
G1 X-29.557 Y0.680 Z6.111 F2500.000
G1 X-29.405 Y0.633 Z6.285 F2500.000
G1 X-28.641 Y0.633 Z16.800 F1069.268
G0 Z19.770
G0 Z21.770
G0 X28.631 Y0.633
G0 Z19.770
G1 Z16.800 F1000.000
G1 X29.395 Y0.633 Z6.297 F1069.329
G1 X29.557 Y0.669 Z6.110 F2500.000
G1 X28.874 Y45.064 Z6.115 F2500.000
G1 X28.714 Y55.463 Z6.113 F2500.000
G1 X28.628 Y61.062 Z6.116 F2500.000
G1 X27.776 Y116.456 Z6.115 F2500.000
G1 X27.665 Y123.655 Z6.111 F2500.000
G1 X27.653 Y124.455 Z6.115 F2500.000
G1 X27.601 Y127.854 Z6.112 F2500.000
G1 X27.533 Y132.254 Z6.114 F2500.000
G1 X27.262 Y149.852 Z6.111 F2500.000
G1 X27.238 Y151.452 Z6.108 F2500.000
G1 X27.188 Y154.651 Z6.111 F2500.000
G1 X26.838 Y177.449 Z6.106 F2500.000
G1 X26.702 Y186.248 Z6.100 F2500.000
G1 X26.672 Y188.247 Z6.103 F2500.000
G1 X25.877 Y239.898 Z6.083 F2500.000
(--Break)
G1 X25.877 Y239.898 Z16.800 F1000.000
(part 3)
G0 Z19.770
G0 Z21.770
G0 X30.200 Y206.584
G0 Z19.770
G1 Z4.100 F1000.000
G1 X29.678 Y240.530 Z4.100 F2500.000
G0 Z19.770
G0 Z21.770
G0 X-29.677 Y240.530
G0 Z19.770
G1 Z4.100 F1000.000
G1 X-30.200 Y206.522 Z4.100 F2500.000
(End of step 0.)
(End of layer 4)
(Layer 5 begins)
(Layer transition)
(Begin step 0.)
(part 1)
G0 Z19.770
G0 Z21.770
G0 X30.200 Y206.584
G0 Z19.770
G1 Z1.000 F1000.000
G1 X29.678 Y240.530 Z1.000 F2500.000
G0 Z19.770
G0 Z21.770
G0 X-29.677 Y240.530
G0 Z19.770
G1 Z1.000 F1000.000
G1 X-30.200 Y206.522 Z1.000 F2500.000
(End of step 0.)
(End of layer 5)
G0 Z19.770
G0 Z21.770
(Finish operation: DressupPathBoundary001)
(Begin postamble)
M5
G17 G90
M2
