(Exported by FreeCAD)
(Post Processor: script_module)
(Output Time:2024-08-11 19:39:36.468365)
(Begin preamble)
G17 G90
G21
(Begin operation: TC: 3.175 Z2 droite011)
(Path: TC: 3.175 Z2 droite011)
(TC: 3.175 Z2 droite011)
(Begin toolchange)
( M6 T1 )
M3 S24000
(Finish operation: TC: 3.175 Z2 droite011)
(Begin operation: Fixture)
(Path: Fixture)
G54
(Finish operation: Fixture)
(Begin operation: Pocket_Shape)
(Path: Pocket_Shape)
(Pocket_Shape)
G0 Z5.000
G0 X0.000 Y0.000
G0 X-3.899 Y-45.418
G0 X-3.899 Y-45.418 Z3.000
G1 X-3.899 Y-45.418 Z-1.585 F100.000
G3 X3.899 Y45.418 Z-1.585 I3.899 J45.418 K0.000 F2000.000
G3 X-3.899 Y-45.418 Z-1.585 I-3.899 J-45.418 K0.000 F2000.000
G1 X-3.958 Y-46.095 Z-1.585 F100.000
G3 X4.711 Y-46.024 Z-1.585 I3.958 J46.095 K0.000 F2000.000
G3 X-4.711 Y46.024 Z-1.585 I-4.711 J46.024 K0.000 F2000.000
G3 X-3.958 Y-46.095 Z-1.585 I4.711 J-46.024 K0.000 F2000.000
G1 X-3.958 Y-46.095 Z-2.000 F100.000
G3 X4.711 Y-46.024 Z-2.000 I3.958 J46.095 K0.000 F2000.000
G3 X-4.711 Y46.024 Z-2.000 I-4.711 J46.024 K0.000 F2000.000
G3 X-3.958 Y-46.095 Z-2.000 I4.711 J-46.024 K0.000 F2000.000
G1 X-3.899 Y-45.418 Z-2.000 F100.000
G3 X3.899 Y45.418 Z-2.000 I3.899 J45.418 K0.000 F2000.000
G3 X-3.899 Y-45.418 Z-2.000 I-3.899 J-45.418 K0.000 F2000.000
G0 Z5.000
G0 Z5.000
G0 X-3.899 Y-45.418
G0 X-5.922 Y-68.981
G0 X-5.922 Y-68.981 Z3.000
G1 X-5.922 Y-68.981 Z-1.585 F100.000
G3 X-4.752 Y-69.072 Z-1.585 I5.922 J68.981 K0.000 F2000.000
G3 X4.752 Y69.072 Z-1.585 I4.752 J69.072 K0.000 F2000.000
G3 X-5.922 Y-68.981 Z-1.585 I-4.752 J-69.072 K0.000 F2000.000
G1 X-5.981 Y-69.659 Z-1.585 F100.000
G3 X4.670 Y-69.759 Z-1.585 I5.981 J69.659 K0.000 F2000.000
G3 X-4.670 Y69.759 Z-1.585 I-4.670 J69.759 K0.000 F2000.000
G3 X-5.981 Y-69.659 Z-1.585 I4.670 J-69.759 K0.000 F2000.000
G1 X-5.981 Y-69.659 Z-2.000 F100.000
G3 X4.670 Y-69.759 Z-2.000 I5.981 J69.659 K0.000 F2000.000
G3 X-4.670 Y69.759 Z-2.000 I-4.670 J69.759 K0.000 F2000.000
G3 X-5.981 Y-69.659 Z-2.000 I4.670 J-69.759 K0.000 F2000.000
G1 X-5.922 Y-68.981 Z-2.000 F100.000
G3 X-4.752 Y-69.072 Z-2.000 I5.922 J68.981 K0.000 F2000.000
G3 X4.752 Y69.072 Z-2.000 I4.752 J69.072 K0.000 F2000.000
G3 X-5.922 Y-68.981 Z-2.000 I-4.752 J-69.072 K0.000 F2000.000
G0 Z5.000
G0 Z5.000
(Finish operation: Pocket_Shape)
(Begin postamble)
M5
G17 G90
M2
