(Exported by FreeCAD)
(Post Processor: script_module)
(Output Time:2024-11-14 21:05:58.820530)
(Begin preamble)
G17 G90
G21
(Begin operation: TC: 1.5 z2 Q009)
(Path: TC: 1.5 z2 Q009)
(TC: 1.5 z2 Q009)
(Begin toolchange)
( M6 T4 )
M3 S24000
(Finish operation: TC: 1.5 z2 Q009)
(Begin operation: Fixture)
(Path: Fixture)
G54
(Finish operation: Fixture)
(Begin operation: Profile)
(Path: Profile)
(Profile)
(Compensated Tool Path. Diameter: 1.48)
G0 Z5.000
G0 X30.236 Y30.236
G0 Z3.000
G1 X30.236 Y30.236 Z-0.493 F500.000
G2 X3.626 Y-42.606 Z-0.493 I-30.236 J-30.236 K0.000 F1000.000
G2 X-3.626 Y42.606 Z-0.493 I-3.626 J42.606 K0.000 F1000.000
G2 X30.236 Y30.236 Z-0.493 I3.626 J-42.606 K0.000 F1000.000
G1 X30.236 Y30.236 Z-0.987 F500.000
G2 X3.626 Y-42.606 Z-0.987 I-30.236 J-30.236 K0.000 F1000.000
G2 X-3.626 Y42.606 Z-0.987 I-3.626 J42.606 K0.000 F1000.000
G2 X30.236 Y30.236 Z-0.987 I3.626 J-42.606 K0.000 F1000.000
G1 X30.236 Y30.236 Z-1.480 F500.000
G2 X3.626 Y-42.606 Z-1.480 I-30.236 J-30.236 K0.000 F1000.000
G2 X-3.626 Y42.606 Z-1.480 I-3.626 J42.606 K0.000 F1000.000
G2 X30.236 Y30.236 Z-1.480 I3.626 J-42.606 K0.000 F1000.000
G1 X30.236 Y30.236 Z-1.973 F500.000
G2 X3.626 Y-42.606 Z-1.973 I-30.236 J-30.236 K0.000 F1000.000
G2 X-3.626 Y42.606 Z-1.973 I-3.626 J42.606 K0.000 F1000.000
G2 X30.236 Y30.236 Z-1.973 I3.626 J-42.606 K0.000 F1000.000
G1 X30.236 Y30.236 Z-2.200 F500.000
G2 X3.626 Y-42.606 Z-2.200 I-30.236 J-30.236 K0.000 F1000.000
G2 X-3.626 Y42.606 Z-2.200 I-3.626 J42.606 K0.000 F1000.000
G2 X30.236 Y30.236 Z-2.200 I3.626 J-42.606 K0.000 F1000.000
G0 Z5.000
G0 Z5.000
(Finish operation: Profile)
(Begin operation: Profile001)
(Path: Profile001)
(Profile001)
(Compensated Tool Path. Diameter: 1.48)
G0 Z5.000
G0 X62.925 Y42.155
G0 Z3.000
G1 X62.925 Y42.155 Z-0.493 F500.000
G2 X56.461 Y-50.484 Z-0.493 I-62.925 J-42.155 K0.000 F1000.000
G2 X55.902 Y-50.740 Z-0.493 I-0.559 J0.484 K0.000 F1000.000
G1 X-55.902 Y-50.740 Z-0.493 F1000.000
G2 X-56.461 Y-50.484 Z-0.493 I0.000 J0.740 K0.000 F1000.000
G2 X-56.461 Y50.484 Z-0.493 I56.461 J50.484 K0.000 F1000.000
G2 X-55.902 Y50.740 Z-0.493 I0.559 J-0.484 K0.000 F1000.000
G1 X55.902 Y50.740 Z-0.493 F1000.000
G2 X56.461 Y50.484 Z-0.493 I-0.000 J-0.740 K0.000 F1000.000
G2 X62.925 Y42.155 Z-0.493 I-56.461 J-50.484 K0.000 F1000.000
G1 X62.925 Y42.155 Z-0.987 F500.000
G2 X56.461 Y-50.484 Z-0.987 I-62.925 J-42.155 K0.000 F1000.000
G2 X55.902 Y-50.740 Z-0.987 I-0.559 J0.484 K0.000 F1000.000
G1 X-55.902 Y-50.740 Z-0.987 F1000.000
G2 X-56.461 Y-50.484 Z-0.987 I0.000 J0.740 K0.000 F1000.000
G2 X-56.461 Y50.484 Z-0.987 I56.461 J50.484 K0.000 F1000.000
G2 X-55.902 Y50.740 Z-0.987 I0.559 J-0.484 K0.000 F1000.000
G1 X55.902 Y50.740 Z-0.987 F1000.000
G2 X56.461 Y50.484 Z-0.987 I-0.000 J-0.740 K0.000 F1000.000
G2 X62.925 Y42.155 Z-0.987 I-56.461 J-50.484 K0.000 F1000.000
G1 X62.925 Y42.155 Z-1.480 F500.000
G2 X56.461 Y-50.484 Z-1.480 I-62.925 J-42.155 K0.000 F1000.000
G2 X55.902 Y-50.740 Z-1.480 I-0.559 J0.484 K0.000 F1000.000
G1 X-55.902 Y-50.740 Z-1.480 F1000.000
G2 X-56.461 Y-50.484 Z-1.480 I0.000 J0.740 K0.000 F1000.000
G2 X-56.461 Y50.484 Z-1.480 I56.461 J50.484 K0.000 F1000.000
G2 X-55.902 Y50.740 Z-1.480 I0.559 J-0.484 K0.000 F1000.000
G1 X55.902 Y50.740 Z-1.480 F1000.000
G2 X56.461 Y50.484 Z-1.480 I-0.000 J-0.740 K0.000 F1000.000
G2 X62.925 Y42.155 Z-1.480 I-56.461 J-50.484 K0.000 F1000.000
G1 X62.925 Y42.155 Z-1.973 F500.000
G2 X56.461 Y-50.484 Z-1.973 I-62.925 J-42.155 K0.000 F1000.000
G2 X55.902 Y-50.740 Z-1.973 I-0.559 J0.484 K0.000 F1000.000
G1 X-55.902 Y-50.740 Z-1.973 F1000.000
G2 X-56.461 Y-50.484 Z-1.973 I0.000 J0.740 K0.000 F1000.000
G2 X-56.461 Y50.484 Z-1.973 I56.461 J50.484 K0.000 F1000.000
G2 X-55.902 Y50.740 Z-1.973 I0.559 J-0.484 K0.000 F1000.000
G1 X55.902 Y50.740 Z-1.973 F1000.000
G2 X56.461 Y50.484 Z-1.973 I-0.000 J-0.740 K0.000 F1000.000
G2 X62.925 Y42.155 Z-1.973 I-56.461 J-50.484 K0.000 F1000.000
G1 X62.925 Y42.155 Z-2.200 F500.000
G2 X56.461 Y-50.484 Z-2.200 I-62.925 J-42.155 K0.000 F1000.000
G2 X55.902 Y-50.740 Z-2.200 I-0.559 J0.484 K0.000 F1000.000
G1 X-55.902 Y-50.740 Z-2.200 F1000.000
G2 X-56.461 Y-50.484 Z-2.200 I0.000 J0.740 K0.000 F1000.000
G2 X-56.461 Y50.484 Z-2.200 I56.461 J50.484 K0.000 F1000.000
G2 X-55.902 Y50.740 Z-2.200 I0.559 J-0.484 K0.000 F1000.000
G1 X55.902 Y50.740 Z-2.200 F1000.000
G2 X56.461 Y50.484 Z-2.200 I-0.000 J-0.740 K0.000 F1000.000
G2 X62.925 Y42.155 Z-2.200 I-56.461 J-50.484 K0.000 F1000.000
G0 Z5.000
G0 Z5.000
(Finish operation: Profile001)
(Begin postamble)
M5
G17 G90
M2
