(Exported by FreeCAD)
(Post Processor: script_module)
(Output Time:2024-11-14 17:32:09.146311)
(Begin preamble)
G17 G90
G21
(Begin operation: TC: 1.5 z2 Q009)
(Path: TC: 1.5 z2 Q009)
(TC: 1.5 z2 Q009)
(Begin toolchange)
( M6 T4 )
M3 S24000
(Finish operation: TC: 1.5 z2 Q009)
(Begin operation: Fixture)
(Path: Fixture)
G54
(Finish operation: Fixture)
(Begin operation: Profile)
(Path: Profile)
(Profile)
(Compensated Tool Path. Diameter: 1.48)
G0 Z5.000
G0 X30.236 Y30.236
G0 Z3.000
G1 X30.236 Y30.236 Z-0.493 F500.000
G2 X3.626 Y-42.606 Z-0.493 I-30.236 J-30.236 K0.000 F1000.000
G2 X-3.626 Y42.606 Z-0.493 I-3.626 J42.606 K0.000 F1000.000
G2 X30.236 Y30.236 Z-0.493 I3.626 J-42.606 K0.000 F1000.000
G1 X30.236 Y30.236 Z-0.987 F500.000
G2 X3.626 Y-42.606 Z-0.987 I-30.236 J-30.236 K0.000 F1000.000
G2 X-3.626 Y42.606 Z-0.987 I-3.626 J42.606 K0.000 F1000.000
G2 X30.236 Y30.236 Z-0.987 I3.626 J-42.606 K0.000 F1000.000
G1 X30.236 Y30.236 Z-1.480 F500.000
G2 X3.626 Y-42.606 Z-1.480 I-30.236 J-30.236 K0.000 F1000.000
G2 X-3.626 Y42.606 Z-1.480 I-3.626 J42.606 K0.000 F1000.000
G2 X30.236 Y30.236 Z-1.480 I3.626 J-42.606 K0.000 F1000.000
G1 X30.236 Y30.236 Z-1.973 F500.000
G2 X3.626 Y-42.606 Z-1.973 I-30.236 J-30.236 K0.000 F1000.000
G2 X-3.626 Y42.606 Z-1.973 I-3.626 J42.606 K0.000 F1000.000
G2 X30.236 Y30.236 Z-1.973 I3.626 J-42.606 K0.000 F1000.000
G1 X30.236 Y30.236 Z-2.200 F500.000
G2 X3.626 Y-42.606 Z-2.200 I-30.236 J-30.236 K0.000 F1000.000
G2 X-3.626 Y42.606 Z-2.200 I-3.626 J42.606 K0.000 F1000.000
G2 X30.236 Y30.236 Z-2.200 I3.626 J-42.606 K0.000 F1000.000
G0 Z5.000
G0 Z5.000
(Finish operation: Profile)
(Begin operation: Profile001)
(Path: Profile001)
(Profile001)
(Compensated Tool Path. Diameter: 1.48)
G0 Z5.000
G0 X61.881 Y41.047
G0 Z3.000
G1 X61.881 Y41.047 Z-0.493 F500.000
G2 X55.564 Y-49.260 Z-0.493 I-61.863 J-41.047 K0.000 F1000.000
G1 X-55.564 Y-49.260 Z-0.493 F1000.000
G2 X-55.564 Y49.260 Z-0.493 I55.545 J49.260 K0.000 F1000.000
G1 X55.564 Y49.260 Z-0.493 F1000.000
G2 X61.881 Y41.047 Z-0.493 I-55.545 J-49.260 K0.000 F1000.000
G1 X61.881 Y41.047 Z-0.987 F500.000
G2 X55.564 Y-49.260 Z-0.987 I-61.863 J-41.047 K0.000 F1000.000
G1 X-55.564 Y-49.260 Z-0.987 F1000.000
G2 X-55.564 Y49.260 Z-0.987 I55.545 J49.260 K0.000 F1000.000
G1 X55.564 Y49.260 Z-0.987 F1000.000
G2 X61.881 Y41.047 Z-0.987 I-55.545 J-49.260 K0.000 F1000.000
G1 X61.881 Y41.047 Z-1.480 F500.000
G2 X55.564 Y-49.260 Z-1.480 I-61.863 J-41.047 K0.000 F1000.000
G1 X-55.564 Y-49.260 Z-1.480 F1000.000
G2 X-55.564 Y49.260 Z-1.480 I55.545 J49.260 K0.000 F1000.000
G1 X55.564 Y49.260 Z-1.480 F1000.000
G2 X61.881 Y41.047 Z-1.480 I-55.545 J-49.260 K0.000 F1000.000
G1 X61.881 Y41.047 Z-1.973 F500.000
G2 X55.564 Y-49.260 Z-1.973 I-61.863 J-41.047 K0.000 F1000.000
G1 X-55.564 Y-49.260 Z-1.973 F1000.000
G2 X-55.564 Y49.260 Z-1.973 I55.545 J49.260 K0.000 F1000.000
G1 X55.564 Y49.260 Z-1.973 F1000.000
G2 X61.881 Y41.047 Z-1.973 I-55.545 J-49.260 K0.000 F1000.000
G1 X61.881 Y41.047 Z-2.200 F500.000
G2 X55.564 Y-49.260 Z-2.200 I-61.863 J-41.047 K0.000 F1000.000
G1 X-55.564 Y-49.260 Z-2.200 F1000.000
G2 X-55.564 Y49.260 Z-2.200 I55.545 J49.260 K0.000 F1000.000
G1 X55.564 Y49.260 Z-2.200 F1000.000
G2 X61.881 Y41.047 Z-2.200 I-55.545 J-49.260 K0.000 F1000.000
G0 Z5.000
G0 Z5.000
(Finish operation: Profile001)
(Begin postamble)
M5
G17 G90
M2
