(Exported by FreeCAD)
(Post Processor: script_module)
(Output Time:2024-09-28 15:58:13.193479)
(Begin preamble)
G17 G90
G21
(Begin operation: TC: 1.5 z2 Q009)
(Path: TC: 1.5 z2 Q009)
(TC: 1.5 z2 Q009)
(Begin toolchange)
( M6 T4 )
M3 S24000
(Finish operation: TC: 1.5 z2 Q009)
(Begin operation: Fixture)
(Path: Fixture)
G54
(Finish operation: Fixture)
(Begin operation: Pocket_Shape002)
(Path: Pocket_Shape002)
(Pocket_Shape002)
G0 Z5.000
G0 X32.781 Y32.781
G0 Z3.000
G1 X32.781 Y32.781 Z-0.740 F300.000
G3 X-4.720 Y46.119 Z-0.740 I-32.781 J-32.781 K0.000 F2000.000
G3 X-46.119 Y-4.720 Z-0.740 I4.720 J-46.119 K0.000 F2000.000
G3 X4.720 Y-46.119 Z-0.740 I46.119 J4.720 K0.000 F2000.000
G3 X32.781 Y32.781 Z-0.740 I-4.720 J46.119 K0.000 F2000.000
G0 Z5.000
G0 X32.520 Y32.520 Z5.000
G0 X32.520 Y32.520 Z3.000
G1 X32.520 Y32.520 Z-0.740 F300.000
G3 X-4.683 Y45.751 Z-0.740 I-32.520 J-32.520 K0.000 F2000.000
G3 X4.683 Y-45.751 Z-0.740 I4.683 J-45.751 K0.000 F2000.000
G3 X32.520 Y32.520 Z-0.740 I-4.683 J45.751 K0.000 F2000.000
G0 Z5.000
G0 X32.258 Y32.258 Z5.000
G0 X32.258 Y32.258 Z3.000
G1 X32.258 Y32.258 Z-0.740 F300.000
G3 X-4.645 Y45.383 Z-0.740 I-32.258 J-32.258 K0.000 F2000.000
G3 X-45.383 Y-4.645 Z-0.740 I4.645 J-45.383 K0.000 F2000.000
G3 X4.645 Y-45.383 Z-0.740 I45.383 J4.645 K0.000 F2000.000
G3 X32.258 Y32.258 Z-0.740 I-4.645 J45.383 K0.000 F2000.000
G0 Z5.000
G0 X32.159 Y32.159 Z5.000
G0 X32.159 Y32.159 Z3.000
G1 X32.159 Y32.159 Z-0.740 F300.000
G3 X3.888 Y45.313 Z-0.740 I-32.159 J-32.159 K0.000 F2000.000
G3 X-45.313 Y3.888 Z-0.740 I-3.888 J-45.313 K0.000 F2000.000
G3 X-3.888 Y-45.313 Z-0.740 I45.313 J-3.888 K0.000 F2000.000
G3 X32.159 Y32.159 Z-0.740 I3.888 J45.313 K0.000 F2000.000
G0 Z5.000
G0 X31.897 Y31.897 Z5.000
G0 X31.897 Y31.897 Z3.000
G1 X31.897 Y31.897 Z-0.740 F300.000
G3 X3.849 Y44.945 Z-0.740 I-31.897 J-31.897 K0.000 F2000.000
G3 X-3.849 Y-44.945 Z-0.740 I-3.849 J-44.945 K0.000 F2000.000
G3 X31.897 Y31.897 Z-0.740 I3.849 J44.945 K0.000 F2000.000
G0 Z5.000
G0 X31.636 Y31.636 Z5.000
G0 X31.636 Y31.636 Z3.000
G1 X31.636 Y31.636 Z-0.740 F300.000
G3 X3.810 Y44.577 Z-0.740 I-31.636 J-31.636 K0.000 F2000.000
G3 X-3.810 Y-44.577 Z-0.740 I-3.810 J-44.577 K0.000 F2000.000
G3 X31.636 Y31.636 Z-0.740 I3.810 J44.577 K0.000 F2000.000
G1 X31.636 Y31.636 Z-1.480 F300.000
G3 X3.810 Y44.577 Z-1.480 I-31.636 J-31.636 K0.000 F2000.000
G3 X-3.810 Y-44.577 Z-1.480 I-3.810 J-44.577 K0.000 F2000.000
G3 X31.636 Y31.636 Z-1.480 I3.810 J44.577 K0.000 F2000.000
G0 Z5.000
G0 X31.897 Y31.897 Z5.000
G0 X31.897 Y31.897 Z3.000
G1 X31.897 Y31.897 Z-1.480 F300.000
G3 X3.849 Y44.945 Z-1.480 I-31.897 J-31.897 K0.000 F2000.000
G3 X-3.849 Y-44.945 Z-1.480 I-3.849 J-44.945 K0.000 F2000.000
G3 X31.897 Y31.897 Z-1.480 I3.849 J44.945 K0.000 F2000.000
G0 Z5.000
G0 X32.159 Y32.159 Z5.000
G0 X32.159 Y32.159 Z3.000
G1 X32.159 Y32.159 Z-1.480 F300.000
G3 X3.888 Y45.313 Z-1.480 I-32.159 J-32.159 K0.000 F2000.000
G3 X-45.313 Y3.888 Z-1.480 I-3.888 J-45.313 K0.000 F2000.000
G3 X-3.888 Y-45.313 Z-1.480 I45.313 J-3.888 K0.000 F2000.000
G3 X32.159 Y32.159 Z-1.480 I3.888 J45.313 K0.000 F2000.000
G0 Z5.000
G0 X32.258 Y32.258 Z5.000
G0 X32.258 Y32.258 Z3.000
G1 X32.258 Y32.258 Z-1.480 F300.000
G3 X-4.645 Y45.383 Z-1.480 I-32.258 J-32.258 K0.000 F2000.000
G3 X-45.383 Y-4.645 Z-1.480 I4.645 J-45.383 K0.000 F2000.000
G3 X4.645 Y-45.383 Z-1.480 I45.383 J4.645 K0.000 F2000.000
G3 X32.258 Y32.258 Z-1.480 I-4.645 J45.383 K0.000 F2000.000
G0 Z5.000
G0 X32.520 Y32.520 Z5.000
G0 X32.520 Y32.520 Z3.000
G1 X32.520 Y32.520 Z-1.480 F300.000
G3 X-4.683 Y45.751 Z-1.480 I-32.520 J-32.520 K0.000 F2000.000
G3 X4.683 Y-45.751 Z-1.480 I4.683 J-45.751 K0.000 F2000.000
G3 X32.520 Y32.520 Z-1.480 I-4.683 J45.751 K0.000 F2000.000
G0 Z5.000
G0 X32.781 Y32.781 Z5.000
G0 X32.781 Y32.781 Z3.000
G1 X32.781 Y32.781 Z-1.480 F300.000
G3 X-4.720 Y46.119 Z-1.480 I-32.781 J-32.781 K0.000 F2000.000
G3 X-46.119 Y-4.720 Z-1.480 I4.720 J-46.119 K0.000 F2000.000
G3 X4.720 Y-46.119 Z-1.480 I46.119 J4.720 K0.000 F2000.000
G3 X32.781 Y32.781 Z-1.480 I-4.720 J46.119 K0.000 F2000.000
G1 X32.781 Y32.781 Z-2.000 F300.000
G3 X-4.720 Y46.119 Z-2.000 I-32.781 J-32.781 K0.000 F2000.000
G3 X-46.119 Y-4.720 Z-2.000 I4.720 J-46.119 K0.000 F2000.000
G3 X4.720 Y-46.119 Z-2.000 I46.119 J4.720 K0.000 F2000.000
G3 X32.781 Y32.781 Z-2.000 I-4.720 J46.119 K0.000 F2000.000
G0 Z5.000
G0 X32.520 Y32.520 Z5.000
G0 X32.520 Y32.520 Z3.000
G1 X32.520 Y32.520 Z-2.000 F300.000
G3 X-4.683 Y45.751 Z-2.000 I-32.520 J-32.520 K0.000 F2000.000
G3 X4.683 Y-45.751 Z-2.000 I4.683 J-45.751 K0.000 F2000.000
G3 X32.520 Y32.520 Z-2.000 I-4.683 J45.751 K0.000 F2000.000
G0 Z5.000
G0 X32.258 Y32.258 Z5.000
G0 X32.258 Y32.258 Z3.000
G1 X32.258 Y32.258 Z-2.000 F300.000
G3 X-4.645 Y45.383 Z-2.000 I-32.258 J-32.258 K0.000 F2000.000
G3 X-45.383 Y-4.645 Z-2.000 I4.645 J-45.383 K0.000 F2000.000
G3 X4.645 Y-45.383 Z-2.000 I45.383 J4.645 K0.000 F2000.000
G3 X32.258 Y32.258 Z-2.000 I-4.645 J45.383 K0.000 F2000.000
G0 Z5.000
G0 X32.159 Y32.159 Z5.000
G0 X32.159 Y32.159 Z3.000
G1 X32.159 Y32.159 Z-2.000 F300.000
G3 X3.888 Y45.313 Z-2.000 I-32.159 J-32.159 K0.000 F2000.000
G3 X-45.313 Y3.888 Z-2.000 I-3.888 J-45.313 K0.000 F2000.000
G3 X-3.888 Y-45.313 Z-2.000 I45.313 J-3.888 K0.000 F2000.000
G3 X32.159 Y32.159 Z-2.000 I3.888 J45.313 K0.000 F2000.000
G0 Z5.000
G0 X31.897 Y31.897 Z5.000
G0 X31.897 Y31.897 Z3.000
G1 X31.897 Y31.897 Z-2.000 F300.000
G3 X3.849 Y44.945 Z-2.000 I-31.897 J-31.897 K0.000 F2000.000
G3 X-3.849 Y-44.945 Z-2.000 I-3.849 J-44.945 K0.000 F2000.000
G3 X31.897 Y31.897 Z-2.000 I3.849 J44.945 K0.000 F2000.000
G0 Z5.000
G0 X31.636 Y31.636 Z5.000
G0 X31.636 Y31.636 Z3.000
G1 X31.636 Y31.636 Z-2.000 F300.000
G3 X3.810 Y44.577 Z-2.000 I-31.636 J-31.636 K0.000 F2000.000
G3 X-3.810 Y-44.577 Z-2.000 I-3.810 J-44.577 K0.000 F2000.000
G3 X31.636 Y31.636 Z-2.000 I3.810 J44.577 K0.000 F2000.000
G0 Z5.000
G0 Z5.000
G0 X31.636 Y31.636
G0 X49.596 Y49.596
G0 X49.596 Y49.596 Z3.000
G1 X49.596 Y49.596 Z-0.740 F300.000
G3 X3.565 Y70.049 Z-0.740 I-49.596 J-49.596 K0.000 F2000.000
G3 X-3.565 Y-70.049 Z-0.740 I-3.565 J-70.049 K0.000 F2000.000
G3 X49.596 Y49.596 Z-0.740 I3.565 J70.049 K0.000 F2000.000
G0 Z5.000
G0 X49.858 Y49.858 Z5.000
G0 X49.858 Y49.858 Z3.000
G1 X49.858 Y49.858 Z-0.740 F300.000
G3 X3.590 Y70.418 Z-0.740 I-49.858 J-49.858 K0.000 F2000.000
G3 X-70.418 Y3.590 Z-0.740 I-3.590 J-70.418 K0.000 F2000.000
G3 X-3.590 Y-70.418 Z-0.740 I70.418 J-3.590 K0.000 F2000.000
G3 X49.858 Y49.858 Z-0.740 I3.590 J70.418 K0.000 F2000.000
G0 Z5.000
G0 X50.120 Y50.120 Z5.000
G0 X50.120 Y50.120 Z3.000
G1 X50.120 Y50.120 Z-0.740 F300.000
G3 X3.615 Y70.788 Z-0.740 I-50.120 J-50.120 K0.000 F2000.000
G3 X-3.615 Y-70.788 Z-0.740 I-3.615 J-70.788 K0.000 F2000.000
G3 X50.120 Y50.120 Z-0.740 I3.615 J70.788 K0.000 F2000.000
G0 Z5.000
G0 X50.219 Y50.219 Z5.000
G0 X50.219 Y50.219 Z3.000
G1 X50.219 Y50.219 Z-0.740 F300.000
G3 X-5.865 Y70.777 Z-0.740 I-50.219 J-50.219 K0.000 F2000.000
G3 X-70.777 Y-5.865 Z-0.740 I5.865 J-70.777 K0.000 F2000.000
G3 X5.865 Y-70.777 Z-0.740 I70.777 J5.865 K0.000 F2000.000
G3 X50.219 Y50.219 Z-0.740 I-5.865 J70.777 K0.000 F2000.000
G0 Z5.000
G0 X50.480 Y50.480 Z5.000
G0 X50.480 Y50.480 Z3.000
G1 X50.480 Y50.480 Z-0.740 F300.000
G3 X-5.895 Y71.146 Z-0.740 I-50.480 J-50.480 K0.000 F2000.000
G3 X-71.146 Y-5.895 Z-0.740 I5.895 J-71.146 K0.000 F2000.000
G3 X5.895 Y-71.146 Z-0.740 I71.146 J5.895 K0.000 F2000.000
G3 X50.480 Y50.480 Z-0.740 I-5.895 J71.146 K0.000 F2000.000
G0 Z5.000
G0 X50.742 Y50.742 Z5.000
G0 X50.742 Y50.742 Z3.000
G1 X50.742 Y50.742 Z-0.740 F300.000
G3 X-5.926 Y71.515 Z-0.740 I-50.742 J-50.742 K0.000 F2000.000
G3 X-71.515 Y-5.926 Z-0.740 I5.926 J-71.515 K0.000 F2000.000
G3 X5.926 Y-71.515 Z-0.740 I71.515 J5.926 K0.000 F2000.000
G3 X50.742 Y50.742 Z-0.740 I-5.926 J71.515 K0.000 F2000.000
G1 X50.742 Y50.742 Z-1.480 F300.000
G3 X-5.926 Y71.515 Z-1.480 I-50.742 J-50.742 K0.000 F2000.000
G3 X-71.515 Y-5.926 Z-1.480 I5.926 J-71.515 K0.000 F2000.000
G3 X5.926 Y-71.515 Z-1.480 I71.515 J5.926 K0.000 F2000.000
G3 X50.742 Y50.742 Z-1.480 I-5.926 J71.515 K0.000 F2000.000
G0 Z5.000
G0 X50.480 Y50.480 Z5.000
G0 X50.480 Y50.480 Z3.000
G1 X50.480 Y50.480 Z-1.480 F300.000
G3 X-5.895 Y71.146 Z-1.480 I-50.480 J-50.480 K0.000 F2000.000
G3 X-71.146 Y-5.895 Z-1.480 I5.895 J-71.146 K0.000 F2000.000
G3 X5.895 Y-71.146 Z-1.480 I71.146 J5.895 K0.000 F2000.000
G3 X50.480 Y50.480 Z-1.480 I-5.895 J71.146 K0.000 F2000.000
G0 Z5.000
G0 X50.120 Y50.120 Z5.000
G0 X50.120 Y50.120 Z3.000
G1 X50.120 Y50.120 Z-1.480 F300.000
G3 X3.615 Y70.788 Z-1.480 I-50.120 J-50.120 K0.000 F2000.000
G3 X-3.615 Y-70.788 Z-1.480 I-3.615 J-70.788 K0.000 F2000.000
G3 X50.120 Y50.120 Z-1.480 I3.615 J70.788 K0.000 F2000.000
G0 Z5.000
G0 X50.219 Y50.219 Z5.000
G0 X50.219 Y50.219 Z3.000
G1 X50.219 Y50.219 Z-1.480 F300.000
G3 X-5.865 Y70.777 Z-1.480 I-50.219 J-50.219 K0.000 F2000.000
G3 X-70.777 Y-5.865 Z-1.480 I5.865 J-70.777 K0.000 F2000.000
G3 X5.865 Y-70.777 Z-1.480 I70.777 J5.865 K0.000 F2000.000
G3 X50.219 Y50.219 Z-1.480 I-5.865 J70.777 K0.000 F2000.000
G0 Z5.000
G0 X49.858 Y49.858 Z5.000
G0 X49.858 Y49.858 Z3.000
G1 X49.858 Y49.858 Z-1.480 F300.000
G3 X3.590 Y70.418 Z-1.480 I-49.858 J-49.858 K0.000 F2000.000
G3 X-70.418 Y3.590 Z-1.480 I-3.590 J-70.418 K0.000 F2000.000
G3 X-3.590 Y-70.418 Z-1.480 I70.418 J-3.590 K0.000 F2000.000
G3 X49.858 Y49.858 Z-1.480 I3.590 J70.418 K0.000 F2000.000
G0 Z5.000
G0 X49.596 Y49.596 Z5.000
G0 X49.596 Y49.596 Z3.000
G1 X49.596 Y49.596 Z-1.480 F300.000
G3 X3.565 Y70.049 Z-1.480 I-49.596 J-49.596 K0.000 F2000.000
G3 X-3.565 Y-70.049 Z-1.480 I-3.565 J-70.049 K0.000 F2000.000
G3 X49.596 Y49.596 Z-1.480 I3.565 J70.049 K0.000 F2000.000
G1 X49.596 Y49.596 Z-2.000 F300.000
G3 X3.565 Y70.049 Z-2.000 I-49.596 J-49.596 K0.000 F2000.000
G3 X-3.565 Y-70.049 Z-2.000 I-3.565 J-70.049 K0.000 F2000.000
G3 X49.596 Y49.596 Z-2.000 I3.565 J70.049 K0.000 F2000.000
G0 Z5.000
G0 X49.858 Y49.858 Z5.000
G0 X49.858 Y49.858 Z3.000
G1 X49.858 Y49.858 Z-2.000 F300.000
G3 X3.590 Y70.418 Z-2.000 I-49.858 J-49.858 K0.000 F2000.000
G3 X-70.418 Y3.590 Z-2.000 I-3.590 J-70.418 K0.000 F2000.000
G3 X-3.590 Y-70.418 Z-2.000 I70.418 J-3.590 K0.000 F2000.000
G3 X49.858 Y49.858 Z-2.000 I3.590 J70.418 K0.000 F2000.000
G0 Z5.000
G0 X50.120 Y50.120 Z5.000
G0 X50.120 Y50.120 Z3.000
G1 X50.120 Y50.120 Z-2.000 F300.000
G3 X3.615 Y70.788 Z-2.000 I-50.120 J-50.120 K0.000 F2000.000
G3 X-3.615 Y-70.788 Z-2.000 I-3.615 J-70.788 K0.000 F2000.000
G3 X50.120 Y50.120 Z-2.000 I3.615 J70.788 K0.000 F2000.000
G0 Z5.000
G0 X50.219 Y50.219 Z5.000
G0 X50.219 Y50.219 Z3.000
G1 X50.219 Y50.219 Z-2.000 F300.000
G3 X-5.865 Y70.777 Z-2.000 I-50.219 J-50.219 K0.000 F2000.000
G3 X-70.777 Y-5.865 Z-2.000 I5.865 J-70.777 K0.000 F2000.000
G3 X5.865 Y-70.777 Z-2.000 I70.777 J5.865 K0.000 F2000.000
G3 X50.219 Y50.219 Z-2.000 I-5.865 J70.777 K0.000 F2000.000
G0 Z5.000
G0 X50.480 Y50.480 Z5.000
G0 X50.480 Y50.480 Z3.000
G1 X50.480 Y50.480 Z-2.000 F300.000
G3 X-5.895 Y71.146 Z-2.000 I-50.480 J-50.480 K0.000 F2000.000
G3 X-71.146 Y-5.895 Z-2.000 I5.895 J-71.146 K0.000 F2000.000
G3 X5.895 Y-71.146 Z-2.000 I71.146 J5.895 K0.000 F2000.000
G3 X50.480 Y50.480 Z-2.000 I-5.895 J71.146 K0.000 F2000.000
G0 Z5.000
G0 X50.742 Y50.742 Z5.000
G0 X50.742 Y50.742 Z3.000
G1 X50.742 Y50.742 Z-2.000 F300.000
G3 X-5.926 Y71.515 Z-2.000 I-50.742 J-50.742 K0.000 F2000.000
G3 X-71.515 Y-5.926 Z-2.000 I5.926 J-71.515 K0.000 F2000.000
G3 X5.926 Y-71.515 Z-2.000 I71.515 J5.926 K0.000 F2000.000
G3 X50.742 Y50.742 Z-2.000 I-5.926 J71.515 K0.000 F2000.000
G0 Z5.000
G0 Z5.000
(Finish operation: Pocket_Shape002)
(Begin postamble)
M5
G17 G90
M2
