(Exported by FreeCAD)
(Post Processor: script_module)
(Output Time:2024-08-11 17:58:53.590627)
(Begin preamble)
G17 G90
G21
(Begin operation: TC: 1.5 z2 Q010)
(Path: TC: 1.5 z2 Q010)
(TC: 1.5 z2 Q010)
(Begin toolchange)
( M6 T4 )
M3 S24000
(Finish operation: TC: 1.5 z2 Q010)
(Begin operation: Fixture)
(Path: Fixture)
G54
(Finish operation: Fixture)
(Begin operation: Pocket_Shape002)
(Path: Pocket_Shape002)
(Pocket_Shape002)
G0 Z5.000
G0 X0.000 Y0.000
G0 X-39.891 Y-31.280
G0 X-39.891 Y-31.280 Z3.000
G1 X-39.891 Y-31.280 Z-0.740 F300.000
G1 X-40.378 Y-30.793 Z-0.740 F500.000
G1 X-41.064 Y-31.478 Z-0.740 F500.000
G1 X-41.064 Y-33.394 Z-0.740 F500.000
G2 X-42.583 Y-34.023 Z-0.740 I-0.893 J0.008 K0.000 F500.000
G1 X-43.112 Y-33.495 Z-0.740 F500.000
G2 X-43.837 Y-34.202 Z-0.740 I-3.956 J3.327 K0.000 F500.000
G2 X-44.999 Y-34.123 Z-0.740 I-0.534 J0.717 K0.000 F500.000
G1 X-46.013 Y-33.108 Z-0.740 F500.000
G2 X-46.013 Y-31.850 Z-0.740 I0.642 J0.629 K0.000 F500.000
G1 X-43.993 Y-29.829 Z-0.740 F500.000
G1 X-44.414 Y-29.409 Z-0.740 F500.000
G1 X-48.790 Y-33.785 Z-0.740 F500.000
G2 X-48.013 Y-34.578 Z-0.740 I-3.640 J-4.337 K0.000 F500.000
G2 X-48.093 Y-35.740 Z-0.740 I-0.717 J-0.534 K0.000 F500.000
G1 X-48.738 Y-36.385 Z-0.740 F500.000
G2 X-48.156 Y-36.992 Z-0.740 I-2.272 J-2.761 K0.000 F500.000
G2 X-48.879 Y-38.393 Z-0.740 I-0.728 J-0.512 K0.000 F500.000
G1 X-50.874 Y-38.393 Z-0.740 F500.000
G1 X-51.528 Y-39.046 Z-0.740 F500.000
G1 X-51.001 Y-39.573 Z-0.740 F500.000
G2 X-50.240 Y-38.830 Z-0.740 I4.154 J-3.490 K0.000 F500.000
G2 X-49.078 Y-38.909 Z-0.740 I0.534 J-0.717 K0.000 F500.000
G1 X-48.299 Y-39.688 Z-0.740 F500.000
G1 X-47.497 Y-38.885 Z-0.740 F500.000
G2 X-46.238 Y-38.885 Z-0.740 I0.629 J-0.642 K0.000 F500.000
G1 X-38.885 Y-46.238 Z-0.740 F500.000
G2 X-38.885 Y-47.497 Z-0.740 I-0.642 J-0.629 K0.000 F500.000
G1 X-39.688 Y-48.299 Z-0.740 F500.000
G1 X-38.909 Y-49.078 Z-0.740 F500.000
G2 X-38.909 Y-50.337 Z-0.740 I-0.642 J-0.629 K0.000 F500.000
G1 X-39.573 Y-51.001 Z-0.740 F500.000
G1 X-39.046 Y-51.528 Z-0.740 F500.000
G1 X-38.393 Y-50.874 Z-0.740 F500.000
G1 X-38.393 Y-48.879 Z-0.740 F500.000
G2 X-36.874 Y-48.250 Z-0.740 I0.893 J-0.008 K0.000 F500.000
G1 X-36.385 Y-48.738 Z-0.740 F500.000
G2 X-35.643 Y-48.013 Z-0.740 I4.050 J-3.405 K0.000 F500.000
G2 X-34.481 Y-48.093 Z-0.740 I0.534 J-0.717 K0.000 F500.000
G1 X-33.785 Y-48.790 Z-0.740 F500.000
G1 X-29.409 Y-44.414 Z-0.740 F500.000
G1 X-29.807 Y-44.015 Z-0.740 F500.000
G1 X-31.827 Y-46.035 Z-0.740 F500.000
G2 X-33.086 Y-46.035 Z-0.740 I-0.629 J0.642 K0.000 F500.000
G1 X-34.080 Y-45.040 Z-0.740 F500.000
G2 X-34.080 Y-43.782 Z-0.740 I0.642 J0.629 K0.000 F500.000
G1 X-33.452 Y-43.154 Z-0.740 F500.000
G2 X-34.120 Y-42.461 Z-0.740 I2.602 J3.177 K0.000 F500.000
G2 X-33.404 Y-41.060 Z-0.740 I0.728 J0.512 K0.000 F500.000
G1 X-31.461 Y-41.046 Z-0.740 F500.000
G1 X-30.793 Y-40.378 Z-0.740 F500.000
G1 X-31.118 Y-40.053 Z-0.740 F500.000
G2 X-31.906 Y-40.824 Z-0.740 I-4.310 J3.618 K0.000 F500.000
G2 X-33.068 Y-40.745 Z-0.740 I-0.534 J0.717 K0.000 F500.000
G1 X-33.793 Y-40.019 Z-0.740 F500.000
G1 X-34.561 Y-40.787 Z-0.740 F500.000
G2 X-35.820 Y-40.787 Z-0.740 I-0.629 J0.642 K0.000 F500.000
G1 X-40.787 Y-35.820 Z-0.740 F500.000
G2 X-40.787 Y-34.561 Z-0.740 I0.642 J0.629 K0.000 F500.000
G1 X-40.024 Y-33.798 Z-0.740 F500.000
G2 X-40.667 Y-33.138 Z-0.740 I3.031 J3.594 K0.000 F500.000
G2 X-40.587 Y-31.976 Z-0.740 I0.717 J0.534 K0.000 F500.000
G1 X-39.891 Y-31.280 Z-0.740 F500.000
G1 X-39.891 Y-31.280 Z-1.480 F300.000
G1 X-40.378 Y-30.793 Z-1.480 F500.000
G1 X-41.064 Y-31.478 Z-1.480 F500.000
G1 X-41.064 Y-33.394 Z-1.480 F500.000
G2 X-42.583 Y-34.023 Z-1.480 I-0.893 J0.008 K0.000 F500.000
G1 X-43.112 Y-33.495 Z-1.480 F500.000
G2 X-43.837 Y-34.202 Z-1.480 I-3.956 J3.327 K0.000 F500.000
G2 X-44.999 Y-34.123 Z-1.480 I-0.534 J0.717 K0.000 F500.000
G1 X-46.013 Y-33.108 Z-1.480 F500.000
G2 X-46.013 Y-31.850 Z-1.480 I0.642 J0.629 K0.000 F500.000
G1 X-43.993 Y-29.829 Z-1.480 F500.000
G1 X-44.414 Y-29.409 Z-1.480 F500.000
G1 X-48.790 Y-33.785 Z-1.480 F500.000
G2 X-48.013 Y-34.578 Z-1.480 I-3.640 J-4.337 K0.000 F500.000
G2 X-48.093 Y-35.740 Z-1.480 I-0.717 J-0.534 K0.000 F500.000
G1 X-48.738 Y-36.385 Z-1.480 F500.000
G2 X-48.156 Y-36.992 Z-1.480 I-2.272 J-2.761 K0.000 F500.000
G2 X-48.879 Y-38.393 Z-1.480 I-0.728 J-0.512 K0.000 F500.000
G1 X-50.874 Y-38.393 Z-1.480 F500.000
G1 X-51.528 Y-39.046 Z-1.480 F500.000
G1 X-51.001 Y-39.573 Z-1.480 F500.000
G2 X-50.240 Y-38.830 Z-1.480 I4.154 J-3.490 K0.000 F500.000
G2 X-49.078 Y-38.909 Z-1.480 I0.534 J-0.717 K0.000 F500.000
G1 X-48.299 Y-39.688 Z-1.480 F500.000
G1 X-47.497 Y-38.885 Z-1.480 F500.000
G2 X-46.238 Y-38.885 Z-1.480 I0.629 J-0.642 K0.000 F500.000
G1 X-38.885 Y-46.238 Z-1.480 F500.000
G2 X-38.885 Y-47.497 Z-1.480 I-0.642 J-0.629 K0.000 F500.000
G1 X-39.688 Y-48.299 Z-1.480 F500.000
G1 X-38.909 Y-49.078 Z-1.480 F500.000
G2 X-38.909 Y-50.337 Z-1.480 I-0.642 J-0.629 K0.000 F500.000
G1 X-39.573 Y-51.001 Z-1.480 F500.000
G1 X-39.046 Y-51.528 Z-1.480 F500.000
G1 X-38.393 Y-50.874 Z-1.480 F500.000
G1 X-38.393 Y-48.879 Z-1.480 F500.000
G2 X-36.874 Y-48.250 Z-1.480 I0.893 J-0.008 K0.000 F500.000
G1 X-36.385 Y-48.738 Z-1.480 F500.000
G2 X-35.643 Y-48.013 Z-1.480 I4.050 J-3.405 K0.000 F500.000
G2 X-34.481 Y-48.093 Z-1.480 I0.534 J-0.717 K0.000 F500.000
G1 X-33.785 Y-48.790 Z-1.480 F500.000
G1 X-29.409 Y-44.414 Z-1.480 F500.000
G1 X-29.807 Y-44.015 Z-1.480 F500.000
G1 X-31.827 Y-46.035 Z-1.480 F500.000
G2 X-33.086 Y-46.035 Z-1.480 I-0.629 J0.642 K0.000 F500.000
G1 X-34.080 Y-45.040 Z-1.480 F500.000
G2 X-34.080 Y-43.782 Z-1.480 I0.642 J0.629 K0.000 F500.000
G1 X-33.452 Y-43.154 Z-1.480 F500.000
G2 X-34.120 Y-42.461 Z-1.480 I2.602 J3.177 K0.000 F500.000
G2 X-33.404 Y-41.060 Z-1.480 I0.728 J0.512 K0.000 F500.000
G1 X-31.461 Y-41.046 Z-1.480 F500.000
G1 X-30.793 Y-40.378 Z-1.480 F500.000
G1 X-31.118 Y-40.053 Z-1.480 F500.000
G2 X-31.906 Y-40.824 Z-1.480 I-4.310 J3.618 K0.000 F500.000
G2 X-33.068 Y-40.745 Z-1.480 I-0.534 J0.717 K0.000 F500.000
G1 X-33.793 Y-40.019 Z-1.480 F500.000
G1 X-34.561 Y-40.787 Z-1.480 F500.000
G2 X-35.820 Y-40.787 Z-1.480 I-0.629 J0.642 K0.000 F500.000
G1 X-40.787 Y-35.820 Z-1.480 F500.000
G2 X-40.787 Y-34.561 Z-1.480 I0.642 J0.629 K0.000 F500.000
G1 X-40.024 Y-33.798 Z-1.480 F500.000
G2 X-40.667 Y-33.138 Z-1.480 I3.031 J3.594 K0.000 F500.000
G2 X-40.587 Y-31.976 Z-1.480 I0.717 J0.534 K0.000 F500.000
G1 X-39.891 Y-31.280 Z-1.480 F500.000
G1 X-39.891 Y-31.280 Z-2.000 F300.000
G1 X-40.378 Y-30.793 Z-2.000 F500.000
G1 X-41.064 Y-31.478 Z-2.000 F500.000
G1 X-41.064 Y-33.394 Z-2.000 F500.000
G2 X-42.583 Y-34.023 Z-2.000 I-0.893 J0.008 K0.000 F500.000
G1 X-43.112 Y-33.495 Z-2.000 F500.000
G2 X-43.837 Y-34.202 Z-2.000 I-3.956 J3.327 K0.000 F500.000
G2 X-44.999 Y-34.123 Z-2.000 I-0.534 J0.717 K0.000 F500.000
G1 X-46.013 Y-33.108 Z-2.000 F500.000
G2 X-46.013 Y-31.850 Z-2.000 I0.642 J0.629 K0.000 F500.000
G1 X-43.993 Y-29.829 Z-2.000 F500.000
G1 X-44.414 Y-29.409 Z-2.000 F500.000
G1 X-48.790 Y-33.785 Z-2.000 F500.000
G2 X-48.013 Y-34.578 Z-2.000 I-3.640 J-4.337 K0.000 F500.000
G2 X-48.093 Y-35.740 Z-2.000 I-0.717 J-0.534 K0.000 F500.000
G1 X-48.738 Y-36.385 Z-2.000 F500.000
G2 X-48.156 Y-36.992 Z-2.000 I-2.272 J-2.761 K0.000 F500.000
G2 X-48.879 Y-38.393 Z-2.000 I-0.728 J-0.512 K0.000 F500.000
G1 X-50.874 Y-38.393 Z-2.000 F500.000
G1 X-51.528 Y-39.046 Z-2.000 F500.000
G1 X-51.001 Y-39.573 Z-2.000 F500.000
G2 X-50.240 Y-38.830 Z-2.000 I4.154 J-3.490 K0.000 F500.000
G2 X-49.078 Y-38.909 Z-2.000 I0.534 J-0.717 K0.000 F500.000
G1 X-48.299 Y-39.688 Z-2.000 F500.000
G1 X-47.497 Y-38.885 Z-2.000 F500.000
G2 X-46.238 Y-38.885 Z-2.000 I0.629 J-0.642 K0.000 F500.000
G1 X-38.885 Y-46.238 Z-2.000 F500.000
G2 X-38.885 Y-47.497 Z-2.000 I-0.642 J-0.629 K0.000 F500.000
G1 X-39.688 Y-48.299 Z-2.000 F500.000
G1 X-38.909 Y-49.078 Z-2.000 F500.000
G2 X-38.909 Y-50.337 Z-2.000 I-0.642 J-0.629 K0.000 F500.000
G1 X-39.573 Y-51.001 Z-2.000 F500.000
G1 X-39.046 Y-51.528 Z-2.000 F500.000
G1 X-38.393 Y-50.874 Z-2.000 F500.000
G1 X-38.393 Y-48.879 Z-2.000 F500.000
G2 X-36.874 Y-48.250 Z-2.000 I0.893 J-0.008 K0.000 F500.000
G1 X-36.385 Y-48.738 Z-2.000 F500.000
G2 X-35.643 Y-48.013 Z-2.000 I4.050 J-3.405 K0.000 F500.000
G2 X-34.481 Y-48.093 Z-2.000 I0.534 J-0.717 K0.000 F500.000
G1 X-33.785 Y-48.790 Z-2.000 F500.000
G1 X-29.409 Y-44.414 Z-2.000 F500.000
G1 X-29.807 Y-44.015 Z-2.000 F500.000
G1 X-31.827 Y-46.035 Z-2.000 F500.000
G2 X-33.086 Y-46.035 Z-2.000 I-0.629 J0.642 K0.000 F500.000
G1 X-34.080 Y-45.040 Z-2.000 F500.000
G2 X-34.080 Y-43.782 Z-2.000 I0.642 J0.629 K0.000 F500.000
G1 X-33.452 Y-43.154 Z-2.000 F500.000
G2 X-34.120 Y-42.461 Z-2.000 I2.602 J3.177 K0.000 F500.000
G2 X-33.404 Y-41.060 Z-2.000 I0.728 J0.512 K0.000 F500.000
G1 X-31.461 Y-41.046 Z-2.000 F500.000
G1 X-30.793 Y-40.378 Z-2.000 F500.000
G1 X-31.118 Y-40.053 Z-2.000 F500.000
G2 X-31.906 Y-40.824 Z-2.000 I-4.310 J3.618 K0.000 F500.000
G2 X-33.068 Y-40.745 Z-2.000 I-0.534 J0.717 K0.000 F500.000
G1 X-33.793 Y-40.019 Z-2.000 F500.000
G1 X-34.561 Y-40.787 Z-2.000 F500.000
G2 X-35.820 Y-40.787 Z-2.000 I-0.629 J0.642 K0.000 F500.000
G1 X-40.787 Y-35.820 Z-2.000 F500.000
G2 X-40.787 Y-34.561 Z-2.000 I0.642 J0.629 K0.000 F500.000
G1 X-40.024 Y-33.798 Z-2.000 F500.000
G2 X-40.667 Y-33.138 Z-2.000 I3.031 J3.594 K0.000 F500.000
G2 X-40.587 Y-31.976 Z-2.000 I0.717 J0.534 K0.000 F500.000
G1 X-39.891 Y-31.280 Z-2.000 F500.000
G0 Z5.000
G0 X-42.442 Y-34.887 Z5.000
G0 X-42.442 Y-34.887 Z3.000
G1 X-42.442 Y-34.887 Z-0.740 F300.000
G3 X-43.591 Y-34.979 Z-0.740 I-0.519 J-0.734 K0.000 F500.000
G1 X-44.561 Y-35.950 Z-0.740 F500.000
G3 X-44.561 Y-37.209 Z-0.740 I0.642 J-0.629 K0.000 F500.000
G1 X-43.722 Y-38.048 Z-0.740 F500.000
G3 X-43.313 Y-38.277 Z-0.740 I0.674 J0.722 K0.000 F500.000
G3 X-42.463 Y-38.048 Z-0.740 I0.221 J0.872 K0.000 F500.000
G1 X-41.493 Y-37.077 Z-0.740 F500.000
G3 X-41.493 Y-35.818 Z-0.740 I-0.642 J0.629 K0.000 F500.000
G1 X-42.332 Y-34.979 Z-0.740 F500.000
G3 X-42.442 Y-34.887 Z-0.740 I-0.629 J-0.642 K0.000 F500.000
G1 X-42.442 Y-34.887 Z-1.480 F300.000
G3 X-43.591 Y-34.979 Z-1.480 I-0.519 J-0.734 K0.000 F500.000
G1 X-44.561 Y-35.950 Z-1.480 F500.000
G3 X-44.561 Y-37.209 Z-1.480 I0.642 J-0.629 K0.000 F500.000
G1 X-43.722 Y-38.048 Z-1.480 F500.000
G3 X-43.313 Y-38.277 Z-1.480 I0.674 J0.722 K0.000 F500.000
G3 X-42.463 Y-38.048 Z-1.480 I0.221 J0.872 K0.000 F500.000
G1 X-41.493 Y-37.077 Z-1.480 F500.000
G3 X-41.493 Y-35.818 Z-1.480 I-0.642 J0.629 K0.000 F500.000
G1 X-42.332 Y-34.979 Z-1.480 F500.000
G3 X-42.442 Y-34.887 Z-1.480 I-0.629 J-0.642 K0.000 F500.000
G1 X-42.442 Y-34.887 Z-2.000 F300.000
G3 X-43.591 Y-34.979 Z-2.000 I-0.519 J-0.734 K0.000 F500.000
G1 X-44.561 Y-35.950 Z-2.000 F500.000
G3 X-44.561 Y-37.209 Z-2.000 I0.642 J-0.629 K0.000 F500.000
G1 X-43.722 Y-38.048 Z-2.000 F500.000
G3 X-43.313 Y-38.277 Z-2.000 I0.674 J0.722 K0.000 F500.000
G3 X-42.463 Y-38.048 Z-2.000 I0.221 J0.872 K0.000 F500.000
G1 X-41.493 Y-37.077 Z-2.000 F500.000
G3 X-41.493 Y-35.818 Z-2.000 I-0.642 J0.629 K0.000 F500.000
G1 X-42.332 Y-34.979 Z-2.000 F500.000
G3 X-42.442 Y-34.887 Z-2.000 I-0.629 J-0.642 K0.000 F500.000
G0 Z5.000
G0 X-45.909 Y-35.281 Z5.000
G0 X-45.909 Y-35.281 Z3.000
G1 X-45.909 Y-35.281 Z-0.740 F300.000
G2 X-46.379 Y-34.835 Z-0.740 I2.027 J2.609 K0.000 F500.000
G2 X-46.771 Y-36.447 Z-0.740 I-2.292 J-0.296 K0.000 F500.000
G2 X-46.546 Y-37.176 Z-0.740 I-1.407 J-0.832 K0.000 F500.000
G2 X-46.191 Y-37.254 Z-0.740 I-0.090 J-1.258 K0.000 F500.000
G2 X-45.909 Y-35.281 Z-0.740 I2.221 J0.689 K0.000 F500.000
G1 X-45.909 Y-35.281 Z-1.480 F300.000
G2 X-46.379 Y-34.835 Z-1.480 I2.027 J2.609 K0.000 F500.000
G2 X-46.771 Y-36.447 Z-1.480 I-2.292 J-0.296 K0.000 F500.000
G2 X-46.546 Y-37.176 Z-1.480 I-1.407 J-0.832 K0.000 F500.000
G2 X-46.191 Y-37.254 Z-1.480 I-0.090 J-1.258 K0.000 F500.000
G2 X-45.909 Y-35.281 Z-1.480 I2.221 J0.689 K0.000 F500.000
G1 X-45.909 Y-35.281 Z-2.000 F300.000
G2 X-46.379 Y-34.835 Z-2.000 I2.027 J2.609 K0.000 F500.000
G2 X-46.771 Y-36.447 Z-2.000 I-2.292 J-0.296 K0.000 F500.000
G2 X-46.546 Y-37.176 Z-2.000 I-1.407 J-0.832 K0.000 F500.000
G2 X-46.191 Y-37.254 Z-2.000 I-0.090 J-1.258 K0.000 F500.000
G2 X-45.909 Y-35.281 Z-2.000 I2.221 J0.689 K0.000 F500.000
G0 Z5.000
G0 X-43.259 Y-39.771 Z5.000
G0 X-43.259 Y-39.771 Z3.000
G1 X-43.259 Y-39.771 Z-0.740 F300.000
G1 X-39.773 Y-43.257 Z-0.740 F500.000
G2 X-39.094 Y-41.417 Z-0.740 I2.312 J0.192 K0.000 F500.000
G1 X-38.188 Y-40.511 Z-0.740 F500.000
G1 X-40.511 Y-38.188 Z-0.740 F500.000
G1 X-41.417 Y-39.094 Z-0.740 F500.000
G2 X-43.259 Y-39.771 Z-0.740 I-1.650 J1.643 K0.000 F500.000
G1 X-43.259 Y-39.771 Z-1.480 F300.000
G1 X-39.773 Y-43.257 Z-1.480 F500.000
G2 X-39.094 Y-41.417 Z-1.480 I2.312 J0.192 K0.000 F500.000
G1 X-38.188 Y-40.511 Z-1.480 F500.000
G1 X-40.511 Y-38.188 Z-1.480 F500.000
G1 X-41.417 Y-39.094 Z-1.480 F500.000
G2 X-43.259 Y-39.771 Z-1.480 I-1.650 J1.643 K0.000 F500.000
G1 X-43.259 Y-39.771 Z-2.000 F300.000
G1 X-39.773 Y-43.257 Z-2.000 F500.000
G2 X-39.094 Y-41.417 Z-2.000 I2.312 J0.192 K0.000 F500.000
G1 X-38.188 Y-40.511 Z-2.000 F500.000
G1 X-40.511 Y-38.188 Z-2.000 F500.000
G1 X-41.417 Y-39.094 Z-2.000 F500.000
G2 X-43.259 Y-39.771 Z-2.000 I-1.650 J1.643 K0.000 F500.000
G0 Z5.000
G0 X-40.604 Y-40.333 Z5.000
G0 X-40.604 Y-40.333 Z3.000
G1 X-40.604 Y-40.333 Z-0.740 F300.000
G1 X-40.333 Y-40.604 Z-0.740 F500.000
G1 X-40.268 Y-40.525 Z-0.740 F500.000
G1 X-40.525 Y-40.268 Z-0.740 F500.000
G1 X-40.604 Y-40.333 Z-0.740 F500.000
G1 X-40.604 Y-40.333 Z-1.480 F300.000
G1 X-40.333 Y-40.604 Z-1.480 F500.000
G1 X-40.268 Y-40.525 Z-1.480 F500.000
G1 X-40.525 Y-40.268 Z-1.480 F500.000
G1 X-40.604 Y-40.333 Z-1.480 F500.000
G1 X-40.604 Y-40.333 Z-2.000 F300.000
G1 X-40.333 Y-40.604 Z-2.000 F500.000
G1 X-40.268 Y-40.525 Z-2.000 F500.000
G1 X-40.525 Y-40.268 Z-2.000 F500.000
G1 X-40.604 Y-40.333 Z-2.000 F500.000
G0 Z5.000
G0 X-38.086 Y-42.506 Z5.000
G0 X-38.086 Y-42.506 Z3.000
G1 X-38.086 Y-42.506 Z-0.740 F300.000
G3 X-38.048 Y-43.722 Z-0.740 I0.680 J-0.587 K0.000 F500.000
G1 X-37.209 Y-44.561 Z-0.740 F500.000
G3 X-36.800 Y-44.791 Z-0.740 I0.674 J0.722 K0.000 F500.000
G3 X-35.950 Y-44.561 Z-0.740 I0.221 J0.872 K0.000 F500.000
G1 X-34.979 Y-43.591 Z-0.740 F500.000
G3 X-34.979 Y-42.332 Z-0.740 I-0.642 J0.629 K0.000 F500.000
G1 X-35.818 Y-41.493 Z-0.740 F500.000
G3 X-37.077 Y-41.493 Z-0.740 I-0.629 J-0.642 K0.000 F500.000
G1 X-38.048 Y-42.463 Z-0.740 F500.000
G3 X-38.086 Y-42.506 Z-0.740 I0.642 J-0.629 K0.000 F500.000
G1 X-38.086 Y-42.506 Z-1.480 F300.000
G3 X-38.048 Y-43.722 Z-1.480 I0.680 J-0.587 K0.000 F500.000
G1 X-37.209 Y-44.561 Z-1.480 F500.000
G3 X-36.800 Y-44.791 Z-1.480 I0.674 J0.722 K0.000 F500.000
G3 X-35.950 Y-44.561 Z-1.480 I0.221 J0.872 K0.000 F500.000
G1 X-34.979 Y-43.591 Z-1.480 F500.000
G3 X-34.979 Y-42.332 Z-1.480 I-0.642 J0.629 K0.000 F500.000
G1 X-35.818 Y-41.493 Z-1.480 F500.000
G3 X-37.077 Y-41.493 Z-1.480 I-0.629 J-0.642 K0.000 F500.000
G1 X-38.048 Y-42.463 Z-1.480 F500.000
G3 X-38.086 Y-42.506 Z-1.480 I0.642 J-0.629 K0.000 F500.000
G1 X-38.086 Y-42.506 Z-2.000 F300.000
G3 X-38.048 Y-43.722 Z-2.000 I0.680 J-0.587 K0.000 F500.000
G1 X-37.209 Y-44.561 Z-2.000 F500.000
G3 X-36.800 Y-44.791 Z-2.000 I0.674 J0.722 K0.000 F500.000
G3 X-35.950 Y-44.561 Z-2.000 I0.221 J0.872 K0.000 F500.000
G1 X-34.979 Y-43.591 Z-2.000 F500.000
G3 X-34.979 Y-42.332 Z-2.000 I-0.642 J0.629 K0.000 F500.000
G1 X-35.818 Y-41.493 Z-2.000 F500.000
G3 X-37.077 Y-41.493 Z-2.000 I-0.629 J-0.642 K0.000 F500.000
G1 X-38.048 Y-42.463 Z-2.000 F500.000
G3 X-38.086 Y-42.506 Z-2.000 I0.642 J-0.629 K0.000 F500.000
G0 Z5.000
G0 X-37.255 Y-46.192 Z5.000
G0 X-37.255 Y-46.192 Z3.000
G1 X-37.255 Y-46.192 Z-0.740 F300.000
G2 X-37.176 Y-46.542 Z-0.740 I-1.045 J-0.419 K0.000 F500.000
G2 X-36.453 Y-46.775 Z-0.740 I-0.123 J-1.622 K0.000 F500.000
G2 X-34.833 Y-46.380 Z-0.740 I1.319 J-1.892 K0.000 F500.000
G2 X-35.275 Y-45.905 Z-0.740 I2.189 J2.482 K0.000 F500.000
G2 X-37.255 Y-46.192 Z-0.740 I-1.292 J1.940 K0.000 F500.000
G1 X-37.255 Y-46.192 Z-1.480 F300.000
G2 X-37.176 Y-46.542 Z-1.480 I-1.045 J-0.419 K0.000 F500.000
G2 X-36.453 Y-46.775 Z-1.480 I-0.123 J-1.622 K0.000 F500.000
G2 X-34.833 Y-46.380 Z-1.480 I1.319 J-1.892 K0.000 F500.000
G2 X-35.275 Y-45.905 Z-1.480 I2.189 J2.482 K0.000 F500.000
G2 X-37.255 Y-46.192 Z-1.480 I-1.292 J1.940 K0.000 F500.000
G1 X-37.255 Y-46.192 Z-2.000 F300.000
G2 X-37.176 Y-46.542 Z-2.000 I-1.045 J-0.419 K0.000 F500.000
G2 X-36.453 Y-46.775 Z-2.000 I-0.123 J-1.622 K0.000 F500.000
G2 X-34.833 Y-46.380 Z-2.000 I1.319 J-1.892 K0.000 F500.000
G2 X-35.275 Y-45.905 Z-2.000 I2.189 J2.482 K0.000 F500.000
G2 X-37.255 Y-46.192 Z-2.000 I-1.292 J1.940 K0.000 F500.000
G0 Z5.000
G0 Z5.000
G0 X-37.255 Y-46.192
G0 X-10.455 Y-58.071
G0 X-10.455 Y-58.071 Z3.000
G1 X-10.455 Y-58.071 Z-0.740 F300.000
G1 X-10.455 Y-62.656 Z-0.740 F500.000
G1 X-9.781 Y-62.656 Z-0.740 F500.000
G1 X-9.781 Y-59.712 Z-0.740 F500.000
G2 X-8.854 Y-58.784 Z-0.740 I0.937 J-0.010 K0.000 F500.000
G1 X-7.354 Y-58.784 Z-0.740 F500.000
G2 X-6.468 Y-59.671 Z-0.740 I-0.009 J-0.895 K0.000 F500.000
G1 X-6.468 Y-63.027 Z-0.740 F500.000
G1 X-4.891 Y-64.572 Z-0.740 F500.000
G1 X-2.114 Y-64.572 Z-0.740 F500.000
G1 X-2.114 Y-63.936 Z-0.740 F500.000
G1 X-5.029 Y-63.936 Z-0.740 F500.000
G2 X-5.946 Y-63.020 Z-0.740 I0.009 J0.926 K0.000 F500.000
G1 X-5.946 Y-61.578 Z-0.740 F500.000
G2 X-5.068 Y-60.701 Z-0.740 I0.886 J-0.008 K0.000 F500.000
G1 X4.228 Y-60.701 Z-0.740 F500.000
G2 X5.106 Y-61.578 Z-0.740 I-0.008 J-0.886 K0.000 F500.000
G1 X5.106 Y-63.020 Z-0.740 F500.000
G2 X4.189 Y-63.936 Z-0.740 I-0.926 J0.009 K0.000 F500.000
G1 X1.272 Y-63.936 Z-0.740 F500.000
G1 X1.272 Y-64.573 Z-0.740 F500.000
G1 X4.051 Y-64.573 Z-0.740 F500.000
G1 X5.628 Y-63.027 Z-0.740 F500.000
G1 X5.628 Y-59.671 Z-0.740 F500.000
G2 X6.514 Y-58.784 Z-0.740 I0.895 J-0.009 K0.000 F500.000
G1 X8.012 Y-58.784 Z-0.740 F500.000
G2 X8.940 Y-59.712 Z-0.740 I-0.010 J-0.937 K0.000 F500.000
G1 X8.940 Y-62.656 Z-0.740 F500.000
G1 X9.615 Y-62.656 Z-0.740 F500.000
G1 X9.615 Y-58.071 Z-0.740 F500.000
G1 X8.544 Y-58.071 Z-0.740 F500.000
G2 X7.660 Y-57.186 Z-0.740 I0.009 J0.893 K0.000 F500.000
G1 X7.660 Y-56.077 Z-0.740 F500.000
G1 X6.426 Y-56.077 Z-0.740 F500.000
G2 X5.551 Y-55.202 Z-0.740 I0.008 J0.883 K0.000 F500.000
G1 X5.551 Y-54.198 Z-0.740 F500.000
G1 X4.654 Y-54.198 Z-0.740 F500.000
G2 X4.056 Y-52.880 Z-0.740 I0.000 J0.795 K0.000 F500.000
G1 X5.551 Y-51.171 Z-0.740 F500.000
G1 X5.551 Y-50.250 Z-0.740 F500.000
G1 X4.727 Y-50.250 Z-0.740 F500.000
G1 X2.997 Y-51.948 Z-0.740 F500.000
G1 X2.997 Y-53.293 Z-0.740 F500.000
G2 X2.091 Y-54.198 Z-0.740 I-0.915 J0.009 K0.000 F500.000
G1 X-2.931 Y-54.198 Z-0.740 F500.000
G2 X-3.837 Y-53.293 Z-0.740 I0.009 J0.915 K0.000 F500.000
G1 X-3.837 Y-51.948 Z-0.740 F500.000
G1 X-5.567 Y-50.250 Z-0.740 F500.000
G1 X-6.391 Y-50.250 Z-0.740 F500.000
G1 X-6.391 Y-51.171 Z-0.740 F500.000
G1 X-4.896 Y-52.880 Z-0.740 F500.000
G2 X-5.494 Y-54.198 Z-0.740 I-0.599 J-0.524 K0.000 F500.000
G1 X-6.391 Y-54.198 Z-0.740 F500.000
G2 X-6.403 Y-55.327 Z-0.740 I-5.735 J-0.502 K0.000 F500.000
G2 X-7.266 Y-56.077 Z-0.740 I-0.870 J0.129 K0.000 F500.000
G1 X-8.501 Y-56.077 Z-0.740 F500.000
G1 X-8.501 Y-57.186 Z-0.740 F500.000
G2 X-9.386 Y-58.071 Z-0.740 I-0.893 J0.009 K0.000 F500.000
G1 X-10.455 Y-58.071 Z-0.740 F500.000
G1 X-10.455 Y-58.071 Z-1.480 F300.000
G1 X-10.455 Y-62.656 Z-1.480 F500.000
G1 X-9.781 Y-62.656 Z-1.480 F500.000
G1 X-9.781 Y-59.712 Z-1.480 F500.000
G2 X-8.854 Y-58.784 Z-1.480 I0.937 J-0.010 K0.000 F500.000
G1 X-7.354 Y-58.784 Z-1.480 F500.000
G2 X-6.468 Y-59.671 Z-1.480 I-0.009 J-0.895 K0.000 F500.000
G1 X-6.468 Y-63.027 Z-1.480 F500.000
G1 X-4.891 Y-64.572 Z-1.480 F500.000
G1 X-2.114 Y-64.572 Z-1.480 F500.000
G1 X-2.114 Y-63.936 Z-1.480 F500.000
G1 X-5.029 Y-63.936 Z-1.480 F500.000
G2 X-5.946 Y-63.020 Z-1.480 I0.009 J0.926 K0.000 F500.000
G1 X-5.946 Y-61.578 Z-1.480 F500.000
G2 X-5.068 Y-60.701 Z-1.480 I0.886 J-0.008 K0.000 F500.000
G1 X4.228 Y-60.701 Z-1.480 F500.000
G2 X5.106 Y-61.578 Z-1.480 I-0.008 J-0.886 K0.000 F500.000
G1 X5.106 Y-63.020 Z-1.480 F500.000
G2 X4.189 Y-63.936 Z-1.480 I-0.926 J0.009 K0.000 F500.000
G1 X1.272 Y-63.936 Z-1.480 F500.000
G1 X1.272 Y-64.573 Z-1.480 F500.000
G1 X4.051 Y-64.573 Z-1.480 F500.000
G1 X5.628 Y-63.027 Z-1.480 F500.000
G1 X5.628 Y-59.671 Z-1.480 F500.000
G2 X6.514 Y-58.784 Z-1.480 I0.895 J-0.009 K0.000 F500.000
G1 X8.012 Y-58.784 Z-1.480 F500.000
G2 X8.940 Y-59.712 Z-1.480 I-0.010 J-0.937 K0.000 F500.000
G1 X8.940 Y-62.656 Z-1.480 F500.000
G1 X9.615 Y-62.656 Z-1.480 F500.000
G1 X9.615 Y-58.071 Z-1.480 F500.000
G1 X8.544 Y-58.071 Z-1.480 F500.000
G2 X7.660 Y-57.186 Z-1.480 I0.009 J0.893 K0.000 F500.000
G1 X7.660 Y-56.077 Z-1.480 F500.000
G1 X6.426 Y-56.077 Z-1.480 F500.000
G2 X5.551 Y-55.202 Z-1.480 I0.008 J0.883 K0.000 F500.000
G1 X5.551 Y-54.198 Z-1.480 F500.000
G1 X4.654 Y-54.198 Z-1.480 F500.000
G2 X4.056 Y-52.880 Z-1.480 I0.000 J0.795 K0.000 F500.000
G1 X5.551 Y-51.171 Z-1.480 F500.000
G1 X5.551 Y-50.250 Z-1.480 F500.000
G1 X4.727 Y-50.250 Z-1.480 F500.000
G1 X2.997 Y-51.948 Z-1.480 F500.000
G1 X2.997 Y-53.293 Z-1.480 F500.000
G2 X2.091 Y-54.198 Z-1.480 I-0.915 J0.009 K0.000 F500.000
G1 X-2.931 Y-54.198 Z-1.480 F500.000
G2 X-3.837 Y-53.293 Z-1.480 I0.009 J0.915 K0.000 F500.000
G1 X-3.837 Y-51.948 Z-1.480 F500.000
G1 X-5.567 Y-50.250 Z-1.480 F500.000
G1 X-6.391 Y-50.250 Z-1.480 F500.000
G1 X-6.391 Y-51.171 Z-1.480 F500.000
G1 X-4.896 Y-52.880 Z-1.480 F500.000
G2 X-5.494 Y-54.198 Z-1.480 I-0.599 J-0.524 K0.000 F500.000
G1 X-6.391 Y-54.198 Z-1.480 F500.000
G2 X-6.403 Y-55.327 Z-1.480 I-5.735 J-0.502 K0.000 F500.000
G2 X-7.266 Y-56.077 Z-1.480 I-0.870 J0.129 K0.000 F500.000
G1 X-8.501 Y-56.077 Z-1.480 F500.000
G1 X-8.501 Y-57.186 Z-1.480 F500.000
G2 X-9.386 Y-58.071 Z-1.480 I-0.893 J0.009 K0.000 F500.000
G1 X-10.455 Y-58.071 Z-1.480 F500.000
G1 X-10.455 Y-58.071 Z-2.000 F300.000
G1 X-10.455 Y-62.656 Z-2.000 F500.000
G1 X-9.781 Y-62.656 Z-2.000 F500.000
G1 X-9.781 Y-59.712 Z-2.000 F500.000
G2 X-8.854 Y-58.784 Z-2.000 I0.937 J-0.010 K0.000 F500.000
G1 X-7.354 Y-58.784 Z-2.000 F500.000
G2 X-6.468 Y-59.671 Z-2.000 I-0.009 J-0.895 K0.000 F500.000
G1 X-6.468 Y-63.027 Z-2.000 F500.000
G1 X-4.891 Y-64.572 Z-2.000 F500.000
G1 X-2.114 Y-64.572 Z-2.000 F500.000
G1 X-2.114 Y-63.936 Z-2.000 F500.000
G1 X-5.029 Y-63.936 Z-2.000 F500.000
G2 X-5.946 Y-63.020 Z-2.000 I0.009 J0.926 K0.000 F500.000
G1 X-5.946 Y-61.578 Z-2.000 F500.000
G2 X-5.068 Y-60.701 Z-2.000 I0.886 J-0.008 K0.000 F500.000
G1 X4.228 Y-60.701 Z-2.000 F500.000
G2 X5.106 Y-61.578 Z-2.000 I-0.008 J-0.886 K0.000 F500.000
G1 X5.106 Y-63.020 Z-2.000 F500.000
G2 X4.189 Y-63.936 Z-2.000 I-0.926 J0.009 K0.000 F500.000
G1 X1.272 Y-63.936 Z-2.000 F500.000
G1 X1.272 Y-64.573 Z-2.000 F500.000
G1 X4.051 Y-64.573 Z-2.000 F500.000
G1 X5.628 Y-63.027 Z-2.000 F500.000
G1 X5.628 Y-59.671 Z-2.000 F500.000
G2 X6.514 Y-58.784 Z-2.000 I0.895 J-0.009 K0.000 F500.000
G1 X8.012 Y-58.784 Z-2.000 F500.000
G2 X8.940 Y-59.712 Z-2.000 I-0.010 J-0.937 K0.000 F500.000
G1 X8.940 Y-62.656 Z-2.000 F500.000
G1 X9.615 Y-62.656 Z-2.000 F500.000
G1 X9.615 Y-58.071 Z-2.000 F500.000
G1 X8.544 Y-58.071 Z-2.000 F500.000
G2 X7.660 Y-57.186 Z-2.000 I0.009 J0.893 K0.000 F500.000
G1 X7.660 Y-56.077 Z-2.000 F500.000
G1 X6.426 Y-56.077 Z-2.000 F500.000
G2 X5.551 Y-55.202 Z-2.000 I0.008 J0.883 K0.000 F500.000
G1 X5.551 Y-54.198 Z-2.000 F500.000
G1 X4.654 Y-54.198 Z-2.000 F500.000
G2 X4.056 Y-52.880 Z-2.000 I0.000 J0.795 K0.000 F500.000
G1 X5.551 Y-51.171 Z-2.000 F500.000
G1 X5.551 Y-50.250 Z-2.000 F500.000
G1 X4.727 Y-50.250 Z-2.000 F500.000
G1 X2.997 Y-51.948 Z-2.000 F500.000
G1 X2.997 Y-53.293 Z-2.000 F500.000
G2 X2.091 Y-54.198 Z-2.000 I-0.915 J0.009 K0.000 F500.000
G1 X-2.931 Y-54.198 Z-2.000 F500.000
G2 X-3.837 Y-53.293 Z-2.000 I0.009 J0.915 K0.000 F500.000
G1 X-3.837 Y-51.948 Z-2.000 F500.000
G1 X-5.567 Y-50.250 Z-2.000 F500.000
G1 X-6.391 Y-50.250 Z-2.000 F500.000
G1 X-6.391 Y-51.171 Z-2.000 F500.000
G1 X-4.896 Y-52.880 Z-2.000 F500.000
G2 X-5.494 Y-54.198 Z-2.000 I-0.599 J-0.524 K0.000 F500.000
G1 X-6.391 Y-54.198 Z-2.000 F500.000
G2 X-6.403 Y-55.327 Z-2.000 I-5.735 J-0.502 K0.000 F500.000
G2 X-7.266 Y-56.077 Z-2.000 I-0.870 J0.129 K0.000 F500.000
G1 X-8.501 Y-56.077 Z-2.000 F500.000
G1 X-8.501 Y-57.186 Z-2.000 F500.000
G2 X-9.386 Y-58.071 Z-2.000 I-0.893 J0.009 K0.000 F500.000
G1 X-10.455 Y-58.071 Z-2.000 F500.000
G0 Z5.000
G0 X-5.908 Y-57.346 Z5.000
G0 X-5.908 Y-57.346 Z3.000
G1 X-5.908 Y-57.346 Z-0.740 F300.000
G3 X-5.039 Y-58.095 Z-0.740 I0.877 J0.140 K0.000 F500.000
G1 X-3.436 Y-58.095 Z-0.740 F500.000
G3 X-2.556 Y-57.215 Z-0.740 I-0.009 J0.889 K0.000 F500.000
G1 X-2.556 Y-55.675 Z-0.740 F500.000
G3 X-3.436 Y-54.795 Z-0.740 I-0.889 J-0.009 K0.000 F500.000
G1 X-5.039 Y-54.795 Z-0.740 F500.000
G3 X-5.919 Y-55.675 Z-0.740 I0.009 J-0.889 K0.000 F500.000
G1 X-5.919 Y-57.215 Z-0.740 F500.000
G3 X-5.908 Y-57.346 Z-0.740 I0.889 J0.009 K0.000 F500.000
G1 X-5.908 Y-57.346 Z-1.480 F300.000
G3 X-5.039 Y-58.095 Z-1.480 I0.877 J0.140 K0.000 F500.000
G1 X-3.436 Y-58.095 Z-1.480 F500.000
G3 X-2.556 Y-57.215 Z-1.480 I-0.009 J0.889 K0.000 F500.000
G1 X-2.556 Y-55.675 Z-1.480 F500.000
G3 X-3.436 Y-54.795 Z-1.480 I-0.889 J-0.009 K0.000 F500.000
G1 X-5.039 Y-54.795 Z-1.480 F500.000
G3 X-5.919 Y-55.675 Z-1.480 I0.009 J-0.889 K0.000 F500.000
G1 X-5.919 Y-57.215 Z-1.480 F500.000
G3 X-5.908 Y-57.346 Z-1.480 I0.889 J0.009 K0.000 F500.000
G1 X-5.908 Y-57.346 Z-2.000 F300.000
G3 X-5.039 Y-58.095 Z-2.000 I0.877 J0.140 K0.000 F500.000
G1 X-3.436 Y-58.095 Z-2.000 F500.000
G3 X-2.556 Y-57.215 Z-2.000 I-0.009 J0.889 K0.000 F500.000
G1 X-2.556 Y-55.675 Z-2.000 F500.000
G3 X-3.436 Y-54.795 Z-2.000 I-0.889 J-0.009 K0.000 F500.000
G1 X-5.039 Y-54.795 Z-2.000 F500.000
G3 X-5.919 Y-55.675 Z-2.000 I0.009 J-0.889 K0.000 F500.000
G1 X-5.919 Y-57.215 Z-2.000 F500.000
G3 X-5.908 Y-57.346 Z-2.000 I0.889 J0.009 K0.000 F500.000
G0 Z5.000
G0 X-2.207 Y-59.221 Z5.000
G0 X-2.207 Y-59.221 Z3.000
G1 X-2.207 Y-59.221 Z-0.740 F300.000
G1 X1.367 Y-59.221 Z-0.740 F500.000
G2 X0.236 Y-57.215 Z-0.740 I1.225 J2.013 K0.000 F500.000
G1 X0.236 Y-55.678 Z-0.740 F500.000
G1 X-1.076 Y-55.678 Z-0.740 F500.000
G1 X-1.076 Y-57.215 Z-0.740 F500.000
G2 X-2.207 Y-59.221 Z-0.740 I-2.355 J0.006 K0.000 F500.000
G1 X-1.367 Y-58.901 Z-0.740 F300.000
G1 X0.532 Y-58.901 Z-0.740 F500.000
G2 X-0.084 Y-57.215 Z-0.740 I1.918 J1.656 K0.000 F500.000
G1 X-0.084 Y-55.998 Z-0.740 F500.000
G1 X-0.756 Y-55.998 Z-0.740 F500.000
G2 X-0.803 Y-57.691 Z-0.740 I-8.616 J-0.608 K0.000 F500.000
G2 X-1.367 Y-58.901 Z-0.740 I-2.421 J0.393 K0.000 F500.000
G1 X-0.785 Y-58.581 Z-0.740 F300.000
G1 X-0.064 Y-58.581 Z-0.740 F500.000
G1 X-0.147 Y-58.430 Z-0.740 F500.000
G2 X-0.404 Y-57.215 Z-0.740 I2.950 J1.259 K0.000 F500.000
G1 X-0.404 Y-56.318 Z-0.740 F500.000
G1 X-0.436 Y-56.318 Z-0.740 F500.000
G2 X-0.489 Y-57.753 Z-0.740 I-7.311 J-0.448 K0.000 F500.000
G2 X-0.785 Y-58.581 Z-0.740 I-2.085 J0.279 K0.000 F500.000
G1 X-0.785 Y-58.581 Z-1.480 F300.000
G1 X-0.064 Y-58.581 Z-1.480 F500.000
G1 X-0.147 Y-58.430 Z-1.480 F500.000
G2 X-0.404 Y-57.215 Z-1.480 I2.950 J1.259 K0.000 F500.000
G1 X-0.404 Y-56.318 Z-1.480 F500.000
G1 X-0.436 Y-56.318 Z-1.480 F500.000
G2 X-0.489 Y-57.753 Z-1.480 I-7.311 J-0.448 K0.000 F500.000
G2 X-0.785 Y-58.581 Z-1.480 I-2.085 J0.279 K0.000 F500.000
G1 X-1.053 Y-58.440 Z-1.480 F300.000
G2 X-1.367 Y-58.901 Z-1.480 I-2.171 J1.142 K0.000 F500.000
G1 X0.532 Y-58.901 Z-1.480 F500.000
G2 X-0.084 Y-57.215 Z-1.480 I1.918 J1.656 K0.000 F500.000
G1 X-0.084 Y-55.998 Z-1.480 F500.000
G1 X-0.756 Y-55.998 Z-1.480 F500.000
G2 X-0.803 Y-57.691 Z-1.480 I-8.616 J-0.608 K0.000 F500.000
G2 X-1.053 Y-58.440 Z-1.480 I-2.421 J0.393 K0.000 F500.000
G1 X-1.340 Y-58.292 Z-1.480 F300.000
G2 X-2.207 Y-59.221 Z-1.480 I-2.092 J1.083 K0.000 F500.000
G1 X1.367 Y-59.221 Z-1.480 F500.000
G2 X0.236 Y-57.215 Z-1.480 I1.225 J2.013 K0.000 F500.000
G1 X0.236 Y-55.678 Z-1.480 F500.000
G1 X-1.076 Y-55.678 Z-1.480 F500.000
G1 X-1.076 Y-57.215 Z-1.480 F500.000
G2 X-1.340 Y-58.292 Z-1.480 I-2.355 J0.006 K0.000 F500.000
G1 X-1.054 Y-58.442 Z-2.000 F300.000
G2 X-1.367 Y-58.901 Z-2.000 I-2.170 J1.144 K0.000 F500.000
G1 X0.532 Y-58.901 Z-2.000 F500.000
G2 X-0.084 Y-57.215 Z-2.000 I1.918 J1.656 K0.000 F500.000
G1 X-0.084 Y-55.998 Z-2.000 F500.000
G1 X-0.756 Y-55.998 Z-2.000 F500.000
G2 X-0.803 Y-57.691 Z-2.000 I-8.616 J-0.608 K0.000 F500.000
G2 X-1.054 Y-58.442 Z-2.000 I-2.421 J0.393 K0.000 F500.000
G1 X-0.785 Y-58.581 Z-2.000 F300.000
G1 X-0.064 Y-58.581 Z-2.000 F500.000
G1 X-0.147 Y-58.430 Z-2.000 F500.000
G2 X-0.404 Y-57.215 Z-2.000 I2.950 J1.259 K0.000 F500.000
G1 X-0.404 Y-56.318 Z-2.000 F500.000
G1 X-0.436 Y-56.318 Z-2.000 F500.000
G2 X-0.489 Y-57.753 Z-2.000 I-7.311 J-0.448 K0.000 F500.000
G2 X-0.785 Y-58.581 Z-2.000 I-2.085 J0.279 K0.000 F500.000
G1 X-1.340 Y-58.293 Z-2.000 F300.000
G2 X-2.207 Y-59.221 Z-2.000 I-2.091 J1.084 K0.000 F500.000
G1 X1.367 Y-59.221 Z-2.000 F500.000
G2 X0.236 Y-57.215 Z-2.000 I1.225 J2.013 K0.000 F500.000
G1 X0.236 Y-55.678 Z-2.000 F500.000
G1 X-1.076 Y-55.678 Z-2.000 F500.000
G1 X-1.076 Y-57.215 Z-2.000 F500.000
G2 X-1.340 Y-58.293 Z-2.000 I-2.355 J0.006 K0.000 F500.000
G0 Z5.000
G0 X1.748 Y-57.442 Z5.000
G0 X1.748 Y-57.442 Z3.000
G1 X1.748 Y-57.442 Z-0.740 F300.000
G3 X2.596 Y-58.095 Z-0.740 I0.857 J0.236 K0.000 F500.000
G1 X4.199 Y-58.095 Z-0.740 F500.000
G3 X5.079 Y-57.215 Z-0.740 I-0.009 J0.889 K0.000 F500.000
G1 X5.079 Y-55.675 Z-0.740 F500.000
G3 X4.199 Y-54.795 Z-0.740 I-0.889 J-0.009 K0.000 F500.000
G1 X2.596 Y-54.795 Z-0.740 F500.000
G3 X1.716 Y-55.675 Z-0.740 I0.009 J-0.889 K0.000 F500.000
G1 X1.716 Y-57.215 Z-0.740 F500.000
G3 X1.748 Y-57.442 Z-0.740 I0.889 J0.009 K0.000 F500.000
G1 X1.748 Y-57.442 Z-1.480 F300.000
G3 X2.596 Y-58.095 Z-1.480 I0.857 J0.236 K0.000 F500.000
G1 X4.199 Y-58.095 Z-1.480 F500.000
G3 X5.079 Y-57.215 Z-1.480 I-0.009 J0.889 K0.000 F500.000
G1 X5.079 Y-55.675 Z-1.480 F500.000
G3 X4.199 Y-54.795 Z-1.480 I-0.889 J-0.009 K0.000 F500.000
G1 X2.596 Y-54.795 Z-1.480 F500.000
G3 X1.716 Y-55.675 Z-1.480 I0.009 J-0.889 K0.000 F500.000
G1 X1.716 Y-57.215 Z-1.480 F500.000
G3 X1.748 Y-57.442 Z-1.480 I0.889 J0.009 K0.000 F500.000
G1 X1.748 Y-57.442 Z-2.000 F300.000
G3 X2.596 Y-58.095 Z-2.000 I0.857 J0.236 K0.000 F500.000
G1 X4.199 Y-58.095 Z-2.000 F500.000
G3 X5.079 Y-57.215 Z-2.000 I-0.009 J0.889 K0.000 F500.000
G1 X5.079 Y-55.675 Z-2.000 F500.000
G3 X4.199 Y-54.795 Z-2.000 I-0.889 J-0.009 K0.000 F500.000
G1 X2.596 Y-54.795 Z-2.000 F500.000
G3 X1.716 Y-55.675 Z-2.000 I0.009 J-0.889 K0.000 F500.000
G1 X1.716 Y-57.215 Z-2.000 F500.000
G3 X1.748 Y-57.442 Z-2.000 I0.889 J0.009 K0.000 F500.000
G0 Z5.000
G0 Z5.000
G0 X1.748 Y-57.442
G0 X29.409 Y-44.414
G0 X29.409 Y-44.414 Z3.000
G1 X29.409 Y-44.414 Z-0.740 F300.000
G1 X33.785 Y-48.790 Z-0.740 F500.000
G2 X34.578 Y-48.013 Z-0.740 I4.337 J-3.640 K0.000 F500.000
G2 X35.740 Y-48.093 Z-0.740 I0.534 J-0.717 K0.000 F500.000
G1 X36.385 Y-48.738 Z-0.740 F500.000
G2 X36.992 Y-48.156 Z-0.740 I2.761 J-2.272 K0.000 F500.000
G2 X38.393 Y-48.879 Z-0.740 I0.512 J-0.728 K0.000 F500.000
G1 X38.393 Y-50.874 Z-0.740 F500.000
G1 X39.046 Y-51.528 Z-0.740 F500.000
G1 X39.573 Y-51.001 Z-0.740 F500.000
G2 X38.830 Y-50.240 Z-0.740 I3.490 J4.154 K0.000 F500.000
G2 X38.909 Y-49.078 Z-0.740 I0.717 J0.534 K0.000 F500.000
G1 X39.688 Y-48.299 Z-0.740 F500.000
G1 X38.885 Y-47.497 Z-0.740 F500.000
G2 X38.885 Y-46.238 Z-0.740 I0.642 J0.629 K0.000 F500.000
G1 X46.238 Y-38.885 Z-0.740 F500.000
G2 X47.497 Y-38.885 Z-0.740 I0.629 J-0.642 K0.000 F500.000
G1 X48.299 Y-39.688 Z-0.740 F500.000
G1 X49.078 Y-38.909 Z-0.740 F500.000
G2 X50.337 Y-38.909 Z-0.740 I0.629 J-0.642 K0.000 F500.000
G1 X51.001 Y-39.573 Z-0.740 F500.000
G1 X51.528 Y-39.046 Z-0.740 F500.000
G1 X50.874 Y-38.393 Z-0.740 F500.000
G1 X48.879 Y-38.393 Z-0.740 F500.000
G2 X48.250 Y-36.874 Z-0.740 I0.008 J0.893 K0.000 F500.000
G1 X48.738 Y-36.385 Z-0.740 F500.000
G2 X48.013 Y-35.643 Z-0.740 I3.405 J4.050 K0.000 F500.000
G2 X48.093 Y-34.481 Z-0.740 I0.717 J0.534 K0.000 F500.000
G1 X48.790 Y-33.785 Z-0.740 F500.000
G1 X44.414 Y-29.409 Z-0.740 F500.000
G1 X44.015 Y-29.807 Z-0.740 F500.000
G1 X46.035 Y-31.827 Z-0.740 F500.000
G2 X46.035 Y-33.086 Z-0.740 I-0.642 J-0.629 K0.000 F500.000
G1 X45.040 Y-34.080 Z-0.740 F500.000
G2 X43.782 Y-34.080 Z-0.740 I-0.629 J0.642 K0.000 F500.000
G1 X43.154 Y-33.452 Z-0.740 F500.000
G2 X42.461 Y-34.120 Z-0.740 I-3.177 J2.602 K0.000 F500.000
G2 X41.060 Y-33.404 Z-0.740 I-0.512 J0.728 K0.000 F500.000
G1 X41.046 Y-31.461 Z-0.740 F500.000
G1 X40.378 Y-30.793 Z-0.740 F500.000
G1 X40.053 Y-31.118 Z-0.740 F500.000
G2 X40.824 Y-31.906 Z-0.740 I-3.618 J-4.310 K0.000 F500.000
G2 X40.745 Y-33.068 Z-0.740 I-0.717 J-0.534 K0.000 F500.000
G1 X40.019 Y-33.793 Z-0.740 F500.000
G1 X40.787 Y-34.561 Z-0.740 F500.000
G2 X40.787 Y-35.820 Z-0.740 I-0.642 J-0.629 K0.000 F500.000
G1 X35.820 Y-40.787 Z-0.740 F500.000
G2 X34.561 Y-40.787 Z-0.740 I-0.629 J0.642 K0.000 F500.000
G1 X33.798 Y-40.024 Z-0.740 F500.000
G2 X33.138 Y-40.667 Z-0.740 I-3.594 J3.031 K0.000 F500.000
G2 X31.976 Y-40.587 Z-0.740 I-0.534 J0.717 K0.000 F500.000
G1 X31.280 Y-39.891 Z-0.740 F500.000
G1 X30.793 Y-40.378 Z-0.740 F500.000
G1 X31.478 Y-41.064 Z-0.740 F500.000
G1 X33.394 Y-41.064 Z-0.740 F500.000
G2 X34.023 Y-42.583 Z-0.740 I-0.008 J-0.893 K0.000 F500.000
G1 X33.495 Y-43.112 Z-0.740 F500.000
G2 X34.202 Y-43.837 Z-0.740 I-3.327 J-3.956 K0.000 F500.000
G2 X34.123 Y-44.999 Z-0.740 I-0.717 J-0.534 K0.000 F500.000
G1 X33.108 Y-46.013 Z-0.740 F500.000
G2 X31.850 Y-46.013 Z-0.740 I-0.629 J0.642 K0.000 F500.000
G1 X29.829 Y-43.993 Z-0.740 F500.000
G1 X29.409 Y-44.414 Z-0.740 F500.000
G1 X29.409 Y-44.414 Z-1.480 F300.000
G1 X33.785 Y-48.790 Z-1.480 F500.000
G2 X34.578 Y-48.013 Z-1.480 I4.337 J-3.640 K0.000 F500.000
G2 X35.740 Y-48.093 Z-1.480 I0.534 J-0.717 K0.000 F500.000
G1 X36.385 Y-48.738 Z-1.480 F500.000
G2 X36.992 Y-48.156 Z-1.480 I2.761 J-2.272 K0.000 F500.000
G2 X38.393 Y-48.879 Z-1.480 I0.512 J-0.728 K0.000 F500.000
G1 X38.393 Y-50.874 Z-1.480 F500.000
G1 X39.046 Y-51.528 Z-1.480 F500.000
G1 X39.573 Y-51.001 Z-1.480 F500.000
G2 X38.830 Y-50.240 Z-1.480 I3.490 J4.154 K0.000 F500.000
G2 X38.909 Y-49.078 Z-1.480 I0.717 J0.534 K0.000 F500.000
G1 X39.688 Y-48.299 Z-1.480 F500.000
G1 X38.885 Y-47.497 Z-1.480 F500.000
G2 X38.885 Y-46.238 Z-1.480 I0.642 J0.629 K0.000 F500.000
G1 X46.238 Y-38.885 Z-1.480 F500.000
G2 X47.497 Y-38.885 Z-1.480 I0.629 J-0.642 K0.000 F500.000
G1 X48.299 Y-39.688 Z-1.480 F500.000
G1 X49.078 Y-38.909 Z-1.480 F500.000
G2 X50.337 Y-38.909 Z-1.480 I0.629 J-0.642 K0.000 F500.000
G1 X51.001 Y-39.573 Z-1.480 F500.000
G1 X51.528 Y-39.046 Z-1.480 F500.000
G1 X50.874 Y-38.393 Z-1.480 F500.000
G1 X48.879 Y-38.393 Z-1.480 F500.000
G2 X48.250 Y-36.874 Z-1.480 I0.008 J0.893 K0.000 F500.000
G1 X48.738 Y-36.385 Z-1.480 F500.000
G2 X48.013 Y-35.643 Z-1.480 I3.405 J4.050 K0.000 F500.000
G2 X48.093 Y-34.481 Z-1.480 I0.717 J0.534 K0.000 F500.000
G1 X48.790 Y-33.785 Z-1.480 F500.000
G1 X44.414 Y-29.409 Z-1.480 F500.000
G1 X44.015 Y-29.807 Z-1.480 F500.000
G1 X46.035 Y-31.827 Z-1.480 F500.000
G2 X46.035 Y-33.086 Z-1.480 I-0.642 J-0.629 K0.000 F500.000
G1 X45.040 Y-34.080 Z-1.480 F500.000
G2 X43.782 Y-34.080 Z-1.480 I-0.629 J0.642 K0.000 F500.000
G1 X43.154 Y-33.452 Z-1.480 F500.000
G2 X42.461 Y-34.120 Z-1.480 I-3.177 J2.602 K0.000 F500.000
G2 X41.060 Y-33.404 Z-1.480 I-0.512 J0.728 K0.000 F500.000
G1 X41.046 Y-31.461 Z-1.480 F500.000
G1 X40.378 Y-30.793 Z-1.480 F500.000
G1 X40.053 Y-31.118 Z-1.480 F500.000
G2 X40.824 Y-31.906 Z-1.480 I-3.618 J-4.310 K0.000 F500.000
G2 X40.745 Y-33.068 Z-1.480 I-0.717 J-0.534 K0.000 F500.000
G1 X40.019 Y-33.793 Z-1.480 F500.000
G1 X40.787 Y-34.561 Z-1.480 F500.000
G2 X40.787 Y-35.820 Z-1.480 I-0.642 J-0.629 K0.000 F500.000
G1 X35.820 Y-40.787 Z-1.480 F500.000
G2 X34.561 Y-40.787 Z-1.480 I-0.629 J0.642 K0.000 F500.000
G1 X33.798 Y-40.024 Z-1.480 F500.000
G2 X33.138 Y-40.667 Z-1.480 I-3.594 J3.031 K0.000 F500.000
G2 X31.976 Y-40.587 Z-1.480 I-0.534 J0.717 K0.000 F500.000
G1 X31.280 Y-39.891 Z-1.480 F500.000
G1 X30.793 Y-40.378 Z-1.480 F500.000
G1 X31.478 Y-41.064 Z-1.480 F500.000
G1 X33.394 Y-41.064 Z-1.480 F500.000
G2 X34.023 Y-42.583 Z-1.480 I-0.008 J-0.893 K0.000 F500.000
G1 X33.495 Y-43.112 Z-1.480 F500.000
G2 X34.202 Y-43.837 Z-1.480 I-3.327 J-3.956 K0.000 F500.000
G2 X34.123 Y-44.999 Z-1.480 I-0.717 J-0.534 K0.000 F500.000
G1 X33.108 Y-46.013 Z-1.480 F500.000
G2 X31.850 Y-46.013 Z-1.480 I-0.629 J0.642 K0.000 F500.000
G1 X29.829 Y-43.993 Z-1.480 F500.000
G1 X29.409 Y-44.414 Z-1.480 F500.000
G1 X29.409 Y-44.414 Z-2.000 F300.000
G1 X33.785 Y-48.790 Z-2.000 F500.000
G2 X34.578 Y-48.013 Z-2.000 I4.337 J-3.640 K0.000 F500.000
G2 X35.740 Y-48.093 Z-2.000 I0.534 J-0.717 K0.000 F500.000
G1 X36.385 Y-48.738 Z-2.000 F500.000
G2 X36.992 Y-48.156 Z-2.000 I2.761 J-2.272 K0.000 F500.000
G2 X38.393 Y-48.879 Z-2.000 I0.512 J-0.728 K0.000 F500.000
G1 X38.393 Y-50.874 Z-2.000 F500.000
G1 X39.046 Y-51.528 Z-2.000 F500.000
G1 X39.573 Y-51.001 Z-2.000 F500.000
G2 X38.830 Y-50.240 Z-2.000 I3.490 J4.154 K0.000 F500.000
G2 X38.909 Y-49.078 Z-2.000 I0.717 J0.534 K0.000 F500.000
G1 X39.688 Y-48.299 Z-2.000 F500.000
G1 X38.885 Y-47.497 Z-2.000 F500.000
G2 X38.885 Y-46.238 Z-2.000 I0.642 J0.629 K0.000 F500.000
G1 X46.238 Y-38.885 Z-2.000 F500.000
G2 X47.497 Y-38.885 Z-2.000 I0.629 J-0.642 K0.000 F500.000
G1 X48.299 Y-39.688 Z-2.000 F500.000
G1 X49.078 Y-38.909 Z-2.000 F500.000
G2 X50.337 Y-38.909 Z-2.000 I0.629 J-0.642 K0.000 F500.000
G1 X51.001 Y-39.573 Z-2.000 F500.000
G1 X51.528 Y-39.046 Z-2.000 F500.000
G1 X50.874 Y-38.393 Z-2.000 F500.000
G1 X48.879 Y-38.393 Z-2.000 F500.000
G2 X48.250 Y-36.874 Z-2.000 I0.008 J0.893 K0.000 F500.000
G1 X48.738 Y-36.385 Z-2.000 F500.000
G2 X48.013 Y-35.643 Z-2.000 I3.405 J4.050 K0.000 F500.000
G2 X48.093 Y-34.481 Z-2.000 I0.717 J0.534 K0.000 F500.000
G1 X48.790 Y-33.785 Z-2.000 F500.000
G1 X44.414 Y-29.409 Z-2.000 F500.000
G1 X44.015 Y-29.807 Z-2.000 F500.000
G1 X46.035 Y-31.827 Z-2.000 F500.000
G2 X46.035 Y-33.086 Z-2.000 I-0.642 J-0.629 K0.000 F500.000
G1 X45.040 Y-34.080 Z-2.000 F500.000
G2 X43.782 Y-34.080 Z-2.000 I-0.629 J0.642 K0.000 F500.000
G1 X43.154 Y-33.452 Z-2.000 F500.000
G2 X42.461 Y-34.120 Z-2.000 I-3.177 J2.602 K0.000 F500.000
G2 X41.060 Y-33.404 Z-2.000 I-0.512 J0.728 K0.000 F500.000
G1 X41.046 Y-31.461 Z-2.000 F500.000
G1 X40.378 Y-30.793 Z-2.000 F500.000
G1 X40.053 Y-31.118 Z-2.000 F500.000
G2 X40.824 Y-31.906 Z-2.000 I-3.618 J-4.310 K0.000 F500.000
G2 X40.745 Y-33.068 Z-2.000 I-0.717 J-0.534 K0.000 F500.000
G1 X40.019 Y-33.793 Z-2.000 F500.000
G1 X40.787 Y-34.561 Z-2.000 F500.000
G2 X40.787 Y-35.820 Z-2.000 I-0.642 J-0.629 K0.000 F500.000
G1 X35.820 Y-40.787 Z-2.000 F500.000
G2 X34.561 Y-40.787 Z-2.000 I-0.629 J0.642 K0.000 F500.000
G1 X33.798 Y-40.024 Z-2.000 F500.000
G2 X33.138 Y-40.667 Z-2.000 I-3.594 J3.031 K0.000 F500.000
G2 X31.976 Y-40.587 Z-2.000 I-0.534 J0.717 K0.000 F500.000
G1 X31.280 Y-39.891 Z-2.000 F500.000
G1 X30.793 Y-40.378 Z-2.000 F500.000
G1 X31.478 Y-41.064 Z-2.000 F500.000
G1 X33.394 Y-41.064 Z-2.000 F500.000
G2 X34.023 Y-42.583 Z-2.000 I-0.008 J-0.893 K0.000 F500.000
G1 X33.495 Y-43.112 Z-2.000 F500.000
G2 X34.202 Y-43.837 Z-2.000 I-3.327 J-3.956 K0.000 F500.000
G2 X34.123 Y-44.999 Z-2.000 I-0.717 J-0.534 K0.000 F500.000
G1 X33.108 Y-46.013 Z-2.000 F500.000
G2 X31.850 Y-46.013 Z-2.000 I-0.629 J0.642 K0.000 F500.000
G1 X29.829 Y-43.993 Z-2.000 F500.000
G1 X29.409 Y-44.414 Z-2.000 F500.000
G0 Z5.000
G0 X34.746 Y-43.166 Z5.000
G0 X34.746 Y-43.166 Z3.000
G1 X34.746 Y-43.166 Z-0.740 F300.000
G3 X34.979 Y-43.591 Z-0.740 I0.875 J0.205 K0.000 F500.000
G1 X35.950 Y-44.561 Z-0.740 F500.000
G3 X36.359 Y-44.791 Z-0.740 I0.674 J0.722 K0.000 F500.000
G3 X37.209 Y-44.561 Z-0.740 I0.221 J0.872 K0.000 F500.000
G1 X38.048 Y-43.722 Z-0.740 F500.000
G3 X38.048 Y-42.463 Z-0.740 I-0.642 J0.629 K0.000 F500.000
G1 X37.077 Y-41.493 Z-0.740 F500.000
G3 X35.818 Y-41.493 Z-0.740 I-0.629 J-0.642 K0.000 F500.000
G1 X34.979 Y-42.332 Z-0.740 F500.000
G3 X34.746 Y-43.166 Z-0.740 I0.642 J-0.629 K0.000 F500.000
G1 X34.746 Y-43.166 Z-1.480 F300.000
G3 X34.979 Y-43.591 Z-1.480 I0.875 J0.205 K0.000 F500.000
G1 X35.950 Y-44.561 Z-1.480 F500.000
G3 X36.359 Y-44.791 Z-1.480 I0.674 J0.722 K0.000 F500.000
G3 X37.209 Y-44.561 Z-1.480 I0.221 J0.872 K0.000 F500.000
G1 X38.048 Y-43.722 Z-1.480 F500.000
G3 X38.048 Y-42.463 Z-1.480 I-0.642 J0.629 K0.000 F500.000
G1 X37.077 Y-41.493 Z-1.480 F500.000
G3 X35.818 Y-41.493 Z-1.480 I-0.629 J-0.642 K0.000 F500.000
G1 X34.979 Y-42.332 Z-1.480 F500.000
G3 X34.746 Y-43.166 Z-1.480 I0.642 J-0.629 K0.000 F500.000
G1 X34.746 Y-43.166 Z-2.000 F300.000
G3 X34.979 Y-43.591 Z-2.000 I0.875 J0.205 K0.000 F500.000
G1 X35.950 Y-44.561 Z-2.000 F500.000
G3 X36.359 Y-44.791 Z-2.000 I0.674 J0.722 K0.000 F500.000
G3 X37.209 Y-44.561 Z-2.000 I0.221 J0.872 K0.000 F500.000
G1 X38.048 Y-43.722 Z-2.000 F500.000
G3 X38.048 Y-42.463 Z-2.000 I-0.642 J0.629 K0.000 F500.000
G1 X37.077 Y-41.493 Z-2.000 F500.000
G3 X35.818 Y-41.493 Z-2.000 I-0.629 J-0.642 K0.000 F500.000
G1 X34.979 Y-42.332 Z-2.000 F500.000
G3 X34.746 Y-43.166 Z-2.000 I0.642 J-0.629 K0.000 F500.000
G0 Z5.000
G0 X35.281 Y-45.909 Z5.000
G0 X35.281 Y-45.909 Z3.000
G1 X35.281 Y-45.909 Z-0.740 F300.000
G2 X34.835 Y-46.379 Z-0.740 I-2.609 J2.027 K0.000 F500.000
G2 X36.447 Y-46.771 Z-0.740 I0.296 J-2.292 K0.000 F500.000
G2 X37.176 Y-46.546 Z-0.740 I0.832 J-1.407 K0.000 F500.000
G2 X37.254 Y-46.191 Z-0.740 I1.258 J-0.090 K0.000 F500.000
G2 X35.281 Y-45.909 Z-0.740 I-0.689 J2.221 K0.000 F500.000
G1 X35.281 Y-45.909 Z-1.480 F300.000
G2 X34.835 Y-46.379 Z-1.480 I-2.609 J2.027 K0.000 F500.000
G2 X36.447 Y-46.771 Z-1.480 I0.296 J-2.292 K0.000 F500.000
G2 X37.176 Y-46.546 Z-1.480 I0.832 J-1.407 K0.000 F500.000
G2 X37.254 Y-46.191 Z-1.480 I1.258 J-0.090 K0.000 F500.000
G2 X35.281 Y-45.909 Z-1.480 I-0.689 J2.221 K0.000 F500.000
G1 X35.281 Y-45.909 Z-2.000 F300.000
G2 X34.835 Y-46.379 Z-2.000 I-2.609 J2.027 K0.000 F500.000
G2 X36.447 Y-46.771 Z-2.000 I0.296 J-2.292 K0.000 F500.000
G2 X37.176 Y-46.546 Z-2.000 I0.832 J-1.407 K0.000 F500.000
G2 X37.254 Y-46.191 Z-2.000 I1.258 J-0.090 K0.000 F500.000
G2 X35.281 Y-45.909 Z-2.000 I-0.689 J2.221 K0.000 F500.000
G0 Z5.000
G0 X39.771 Y-43.259 Z5.000
G0 X39.771 Y-43.259 Z3.000
G1 X39.771 Y-43.259 Z-0.740 F300.000
G1 X43.257 Y-39.773 Z-0.740 F500.000
G2 X41.417 Y-39.094 Z-0.740 I-0.192 J2.312 K0.000 F500.000
G1 X40.511 Y-38.188 Z-0.740 F500.000
G1 X38.188 Y-40.511 Z-0.740 F500.000
G1 X39.094 Y-41.417 Z-0.740 F500.000
G2 X39.771 Y-43.259 Z-0.740 I-1.643 J-1.650 K0.000 F500.000
G1 X39.771 Y-43.259 Z-1.480 F300.000
G1 X43.257 Y-39.773 Z-1.480 F500.000
G2 X41.417 Y-39.094 Z-1.480 I-0.192 J2.312 K0.000 F500.000
G1 X40.511 Y-38.188 Z-1.480 F500.000
G1 X38.188 Y-40.511 Z-1.480 F500.000
G1 X39.094 Y-41.417 Z-1.480 F500.000
G2 X39.771 Y-43.259 Z-1.480 I-1.643 J-1.650 K0.000 F500.000
G1 X39.771 Y-43.259 Z-2.000 F300.000
G1 X43.257 Y-39.773 Z-2.000 F500.000
G2 X41.417 Y-39.094 Z-2.000 I-0.192 J2.312 K0.000 F500.000
G1 X40.511 Y-38.188 Z-2.000 F500.000
G1 X38.188 Y-40.511 Z-2.000 F500.000
G1 X39.094 Y-41.417 Z-2.000 F500.000
G2 X39.771 Y-43.259 Z-2.000 I-1.643 J-1.650 K0.000 F500.000
G0 Z5.000
G0 X40.333 Y-40.604 Z5.000
G0 X40.333 Y-40.604 Z3.000
G1 X40.333 Y-40.604 Z-0.740 F300.000
G1 X40.604 Y-40.333 Z-0.740 F500.000
G1 X40.525 Y-40.268 Z-0.740 F500.000
G1 X40.268 Y-40.525 Z-0.740 F500.000
G1 X40.333 Y-40.604 Z-0.740 F500.000
G1 X40.333 Y-40.604 Z-1.480 F300.000
G1 X40.604 Y-40.333 Z-1.480 F500.000
G1 X40.525 Y-40.268 Z-1.480 F500.000
G1 X40.268 Y-40.525 Z-1.480 F500.000
G1 X40.333 Y-40.604 Z-1.480 F500.000
G1 X40.333 Y-40.604 Z-2.000 F300.000
G1 X40.604 Y-40.333 Z-2.000 F500.000
G1 X40.525 Y-40.268 Z-2.000 F500.000
G1 X40.268 Y-40.525 Z-2.000 F500.000
G1 X40.333 Y-40.604 Z-2.000 F500.000
G0 Z5.000
G0 X42.495 Y-38.076 Z5.000
G0 X42.495 Y-38.076 Z3.000
G1 X42.495 Y-38.076 Z-0.740 F300.000
G3 X42.872 Y-38.277 Z-0.740 I0.642 J0.751 K0.000 F500.000
G3 X43.722 Y-38.048 Z-0.740 I0.221 J0.872 K0.000 F500.000
G1 X44.561 Y-37.209 Z-0.740 F500.000
G3 X44.561 Y-35.950 Z-0.740 I-0.642 J0.629 K0.000 F500.000
G1 X43.591 Y-34.979 Z-0.740 F500.000
G3 X42.332 Y-34.979 Z-0.740 I-0.629 J-0.642 K0.000 F500.000
G1 X41.493 Y-35.818 Z-0.740 F500.000
G3 X41.493 Y-37.077 Z-0.740 I0.642 J-0.629 K0.000 F500.000
G1 X42.463 Y-38.048 Z-0.740 F500.000
G3 X42.495 Y-38.076 Z-0.740 I0.674 J0.722 K0.000 F500.000
G1 X42.495 Y-38.076 Z-1.480 F300.000
G3 X42.872 Y-38.277 Z-1.480 I0.642 J0.751 K0.000 F500.000
G3 X43.722 Y-38.048 Z-1.480 I0.221 J0.872 K0.000 F500.000
G1 X44.561 Y-37.209 Z-1.480 F500.000
G3 X44.561 Y-35.950 Z-1.480 I-0.642 J0.629 K0.000 F500.000
G1 X43.591 Y-34.979 Z-1.480 F500.000
G3 X42.332 Y-34.979 Z-1.480 I-0.629 J-0.642 K0.000 F500.000
G1 X41.493 Y-35.818 Z-1.480 F500.000
G3 X41.493 Y-37.077 Z-1.480 I0.642 J-0.629 K0.000 F500.000
G1 X42.463 Y-38.048 Z-1.480 F500.000
G3 X42.495 Y-38.076 Z-1.480 I0.674 J0.722 K0.000 F500.000
G1 X42.495 Y-38.076 Z-2.000 F300.000
G3 X42.872 Y-38.277 Z-2.000 I0.642 J0.751 K0.000 F500.000
G3 X43.722 Y-38.048 Z-2.000 I0.221 J0.872 K0.000 F500.000
G1 X44.561 Y-37.209 Z-2.000 F500.000
G3 X44.561 Y-35.950 Z-2.000 I-0.642 J0.629 K0.000 F500.000
G1 X43.591 Y-34.979 Z-2.000 F500.000
G3 X42.332 Y-34.979 Z-2.000 I-0.629 J-0.642 K0.000 F500.000
G1 X41.493 Y-35.818 Z-2.000 F500.000
G3 X41.493 Y-37.077 Z-2.000 I0.642 J-0.629 K0.000 F500.000
G1 X42.463 Y-38.048 Z-2.000 F500.000
G3 X42.495 Y-38.076 Z-2.000 I0.674 J0.722 K0.000 F500.000
G0 Z5.000
G0 X46.192 Y-37.255 Z5.000
G0 X46.192 Y-37.255 Z3.000
G1 X46.192 Y-37.255 Z-0.740 F300.000
G2 X46.542 Y-37.176 Z-0.740 I0.419 J-1.045 K0.000 F500.000
G2 X46.775 Y-36.453 Z-0.740 I1.622 J-0.123 K0.000 F500.000
G2 X46.380 Y-34.833 Z-0.740 I1.892 J1.319 K0.000 F500.000
G2 X45.905 Y-35.275 Z-0.740 I-2.482 J2.189 K0.000 F500.000
G2 X46.192 Y-37.255 Z-0.740 I-1.940 J-1.292 K0.000 F500.000
G1 X46.192 Y-37.255 Z-1.480 F300.000
G2 X46.542 Y-37.176 Z-1.480 I0.419 J-1.045 K0.000 F500.000
G2 X46.775 Y-36.453 Z-1.480 I1.622 J-0.123 K0.000 F500.000
G2 X46.380 Y-34.833 Z-1.480 I1.892 J1.319 K0.000 F500.000
G2 X45.905 Y-35.275 Z-1.480 I-2.482 J2.189 K0.000 F500.000
G2 X46.192 Y-37.255 Z-1.480 I-1.940 J-1.292 K0.000 F500.000
G1 X46.192 Y-37.255 Z-2.000 F300.000
G2 X46.542 Y-37.176 Z-2.000 I0.419 J-1.045 K0.000 F500.000
G2 X46.775 Y-36.453 Z-2.000 I1.622 J-0.123 K0.000 F500.000
G2 X46.380 Y-34.833 Z-2.000 I1.892 J1.319 K0.000 F500.000
G2 X45.905 Y-35.275 Z-2.000 I-2.482 J2.189 K0.000 F500.000
G2 X46.192 Y-37.255 Z-2.000 I-1.940 J-1.292 K0.000 F500.000
G0 Z5.000
G0 Z5.000
G0 X46.192 Y-37.255
G0 X58.071 Y-10.455
G0 X58.071 Y-10.455 Z3.000
G1 X58.071 Y-10.455 Z-0.740 F300.000
G1 X62.656 Y-10.455 Z-0.740 F500.000
G1 X62.656 Y-9.781 Z-0.740 F500.000
G1 X59.712 Y-9.781 Z-0.740 F500.000
G2 X58.784 Y-8.854 Z-0.740 I0.010 J0.937 K0.000 F500.000
G1 X58.784 Y-7.354 Z-0.740 F500.000
G2 X59.671 Y-6.468 Z-0.740 I0.895 J-0.009 K0.000 F500.000
G1 X63.027 Y-6.468 Z-0.740 F500.000
G1 X64.572 Y-4.891 Z-0.740 F500.000
G1 X64.572 Y-2.114 Z-0.740 F500.000
G1 X63.936 Y-2.114 Z-0.740 F500.000
G1 X63.936 Y-5.029 Z-0.740 F500.000
G2 X63.020 Y-5.946 Z-0.740 I-0.926 J0.009 K0.000 F500.000
G1 X61.578 Y-5.946 Z-0.740 F500.000
G2 X60.701 Y-5.068 Z-0.740 I0.008 J0.886 K0.000 F500.000
G1 X60.701 Y4.228 Z-0.740 F500.000
G2 X61.578 Y5.106 Z-0.740 I0.886 J-0.008 K0.000 F500.000
G1 X63.020 Y5.106 Z-0.740 F500.000
G2 X63.936 Y4.189 Z-0.740 I-0.009 J-0.926 K0.000 F500.000
G1 X63.936 Y1.272 Z-0.740 F500.000
G1 X64.573 Y1.272 Z-0.740 F500.000
G1 X64.573 Y4.051 Z-0.740 F500.000
G1 X63.027 Y5.628 Z-0.740 F500.000
G1 X59.671 Y5.628 Z-0.740 F500.000
G2 X58.784 Y6.514 Z-0.740 I0.009 J0.895 K0.000 F500.000
G1 X58.784 Y8.012 Z-0.740 F500.000
G2 X59.712 Y8.940 Z-0.740 I0.937 J-0.010 K0.000 F500.000
G1 X62.656 Y8.940 Z-0.740 F500.000
G1 X62.656 Y9.615 Z-0.740 F500.000
G1 X58.071 Y9.615 Z-0.740 F500.000
G1 X58.071 Y8.544 Z-0.740 F500.000
G2 X57.186 Y7.660 Z-0.740 I-0.893 J0.009 K0.000 F500.000
G1 X56.077 Y7.660 Z-0.740 F500.000
G1 X56.077 Y6.426 Z-0.740 F500.000
G2 X55.202 Y5.551 Z-0.740 I-0.883 J0.008 K0.000 F500.000
G1 X54.198 Y5.551 Z-0.740 F500.000
G1 X54.198 Y4.654 Z-0.740 F500.000
G2 X52.880 Y4.056 Z-0.740 I-0.795 J0.000 K0.000 F500.000
G1 X51.171 Y5.551 Z-0.740 F500.000
G1 X50.250 Y5.551 Z-0.740 F500.000
G1 X50.250 Y4.727 Z-0.740 F500.000
G1 X51.948 Y2.997 Z-0.740 F500.000
G1 X53.293 Y2.997 Z-0.740 F500.000
G2 X54.198 Y2.091 Z-0.740 I-0.009 J-0.915 K0.000 F500.000
G1 X54.198 Y-2.931 Z-0.740 F500.000
G2 X53.293 Y-3.837 Z-0.740 I-0.915 J0.009 K0.000 F500.000
G1 X51.948 Y-3.837 Z-0.740 F500.000
G1 X50.250 Y-5.567 Z-0.740 F500.000
G1 X50.250 Y-6.391 Z-0.740 F500.000
G1 X51.171 Y-6.391 Z-0.740 F500.000
G1 X52.880 Y-4.896 Z-0.740 F500.000
G2 X54.198 Y-5.494 Z-0.740 I0.524 J-0.599 K0.000 F500.000
G1 X54.198 Y-6.391 Z-0.740 F500.000
G2 X55.327 Y-6.403 Z-0.740 I0.502 J-5.735 K0.000 F500.000
G2 X56.077 Y-7.266 Z-0.740 I-0.129 J-0.870 K0.000 F500.000
G1 X56.077 Y-8.501 Z-0.740 F500.000
G1 X57.186 Y-8.501 Z-0.740 F500.000
G2 X58.071 Y-9.386 Z-0.740 I-0.009 J-0.893 K0.000 F500.000
G1 X58.071 Y-10.455 Z-0.740 F500.000
G1 X58.071 Y-10.455 Z-1.480 F300.000
G1 X62.656 Y-10.455 Z-1.480 F500.000
G1 X62.656 Y-9.781 Z-1.480 F500.000
G1 X59.712 Y-9.781 Z-1.480 F500.000
G2 X58.784 Y-8.854 Z-1.480 I0.010 J0.937 K0.000 F500.000
G1 X58.784 Y-7.354 Z-1.480 F500.000
G2 X59.671 Y-6.468 Z-1.480 I0.895 J-0.009 K0.000 F500.000
G1 X63.027 Y-6.468 Z-1.480 F500.000
G1 X64.572 Y-4.891 Z-1.480 F500.000
G1 X64.572 Y-2.114 Z-1.480 F500.000
G1 X63.936 Y-2.114 Z-1.480 F500.000
G1 X63.936 Y-5.029 Z-1.480 F500.000
G2 X63.020 Y-5.946 Z-1.480 I-0.926 J0.009 K0.000 F500.000
G1 X61.578 Y-5.946 Z-1.480 F500.000
G2 X60.701 Y-5.068 Z-1.480 I0.008 J0.886 K0.000 F500.000
G1 X60.701 Y4.228 Z-1.480 F500.000
G2 X61.578 Y5.106 Z-1.480 I0.886 J-0.008 K0.000 F500.000
G1 X63.020 Y5.106 Z-1.480 F500.000
G2 X63.936 Y4.189 Z-1.480 I-0.009 J-0.926 K0.000 F500.000
G1 X63.936 Y1.272 Z-1.480 F500.000
G1 X64.573 Y1.272 Z-1.480 F500.000
G1 X64.573 Y4.051 Z-1.480 F500.000
G1 X63.027 Y5.628 Z-1.480 F500.000
G1 X59.671 Y5.628 Z-1.480 F500.000
G2 X58.784 Y6.514 Z-1.480 I0.009 J0.895 K0.000 F500.000
G1 X58.784 Y8.012 Z-1.480 F500.000
G2 X59.712 Y8.940 Z-1.480 I0.937 J-0.010 K0.000 F500.000
G1 X62.656 Y8.940 Z-1.480 F500.000
G1 X62.656 Y9.615 Z-1.480 F500.000
G1 X58.071 Y9.615 Z-1.480 F500.000
G1 X58.071 Y8.544 Z-1.480 F500.000
G2 X57.186 Y7.660 Z-1.480 I-0.893 J0.009 K0.000 F500.000
G1 X56.077 Y7.660 Z-1.480 F500.000
G1 X56.077 Y6.426 Z-1.480 F500.000
G2 X55.202 Y5.551 Z-1.480 I-0.883 J0.008 K0.000 F500.000
G1 X54.198 Y5.551 Z-1.480 F500.000
G1 X54.198 Y4.654 Z-1.480 F500.000
G2 X52.880 Y4.056 Z-1.480 I-0.795 J0.000 K0.000 F500.000
G1 X51.171 Y5.551 Z-1.480 F500.000
G1 X50.250 Y5.551 Z-1.480 F500.000
G1 X50.250 Y4.727 Z-1.480 F500.000
G1 X51.948 Y2.997 Z-1.480 F500.000
G1 X53.293 Y2.997 Z-1.480 F500.000
G2 X54.198 Y2.091 Z-1.480 I-0.009 J-0.915 K0.000 F500.000
G1 X54.198 Y-2.931 Z-1.480 F500.000
G2 X53.293 Y-3.837 Z-1.480 I-0.915 J0.009 K0.000 F500.000
G1 X51.948 Y-3.837 Z-1.480 F500.000
G1 X50.250 Y-5.567 Z-1.480 F500.000
G1 X50.250 Y-6.391 Z-1.480 F500.000
G1 X51.171 Y-6.391 Z-1.480 F500.000
G1 X52.880 Y-4.896 Z-1.480 F500.000
G2 X54.198 Y-5.494 Z-1.480 I0.524 J-0.599 K0.000 F500.000
G1 X54.198 Y-6.391 Z-1.480 F500.000
G2 X55.327 Y-6.403 Z-1.480 I0.502 J-5.735 K0.000 F500.000
G2 X56.077 Y-7.266 Z-1.480 I-0.129 J-0.870 K0.000 F500.000
G1 X56.077 Y-8.501 Z-1.480 F500.000
G1 X57.186 Y-8.501 Z-1.480 F500.000
G2 X58.071 Y-9.386 Z-1.480 I-0.009 J-0.893 K0.000 F500.000
G1 X58.071 Y-10.455 Z-1.480 F500.000
G1 X58.071 Y-10.455 Z-2.000 F300.000
G1 X62.656 Y-10.455 Z-2.000 F500.000
G1 X62.656 Y-9.781 Z-2.000 F500.000
G1 X59.712 Y-9.781 Z-2.000 F500.000
G2 X58.784 Y-8.854 Z-2.000 I0.010 J0.937 K0.000 F500.000
G1 X58.784 Y-7.354 Z-2.000 F500.000
G2 X59.671 Y-6.468 Z-2.000 I0.895 J-0.009 K0.000 F500.000
G1 X63.027 Y-6.468 Z-2.000 F500.000
G1 X64.572 Y-4.891 Z-2.000 F500.000
G1 X64.572 Y-2.114 Z-2.000 F500.000
G1 X63.936 Y-2.114 Z-2.000 F500.000
G1 X63.936 Y-5.029 Z-2.000 F500.000
G2 X63.020 Y-5.946 Z-2.000 I-0.926 J0.009 K0.000 F500.000
G1 X61.578 Y-5.946 Z-2.000 F500.000
G2 X60.701 Y-5.068 Z-2.000 I0.008 J0.886 K0.000 F500.000
G1 X60.701 Y4.228 Z-2.000 F500.000
G2 X61.578 Y5.106 Z-2.000 I0.886 J-0.008 K0.000 F500.000
G1 X63.020 Y5.106 Z-2.000 F500.000
G2 X63.936 Y4.189 Z-2.000 I-0.009 J-0.926 K0.000 F500.000
G1 X63.936 Y1.272 Z-2.000 F500.000
G1 X64.573 Y1.272 Z-2.000 F500.000
G1 X64.573 Y4.051 Z-2.000 F500.000
G1 X63.027 Y5.628 Z-2.000 F500.000
G1 X59.671 Y5.628 Z-2.000 F500.000
G2 X58.784 Y6.514 Z-2.000 I0.009 J0.895 K0.000 F500.000
G1 X58.784 Y8.012 Z-2.000 F500.000
G2 X59.712 Y8.940 Z-2.000 I0.937 J-0.010 K0.000 F500.000
G1 X62.656 Y8.940 Z-2.000 F500.000
G1 X62.656 Y9.615 Z-2.000 F500.000
G1 X58.071 Y9.615 Z-2.000 F500.000
G1 X58.071 Y8.544 Z-2.000 F500.000
G2 X57.186 Y7.660 Z-2.000 I-0.893 J0.009 K0.000 F500.000
G1 X56.077 Y7.660 Z-2.000 F500.000
G1 X56.077 Y6.426 Z-2.000 F500.000
G2 X55.202 Y5.551 Z-2.000 I-0.883 J0.008 K0.000 F500.000
G1 X54.198 Y5.551 Z-2.000 F500.000
G1 X54.198 Y4.654 Z-2.000 F500.000
G2 X52.880 Y4.056 Z-2.000 I-0.795 J0.000 K0.000 F500.000
G1 X51.171 Y5.551 Z-2.000 F500.000
G1 X50.250 Y5.551 Z-2.000 F500.000
G1 X50.250 Y4.727 Z-2.000 F500.000
G1 X51.948 Y2.997 Z-2.000 F500.000
G1 X53.293 Y2.997 Z-2.000 F500.000
G2 X54.198 Y2.091 Z-2.000 I-0.009 J-0.915 K0.000 F500.000
G1 X54.198 Y-2.931 Z-2.000 F500.000
G2 X53.293 Y-3.837 Z-2.000 I-0.915 J0.009 K0.000 F500.000
G1 X51.948 Y-3.837 Z-2.000 F500.000
G1 X50.250 Y-5.567 Z-2.000 F500.000
G1 X50.250 Y-6.391 Z-2.000 F500.000
G1 X51.171 Y-6.391 Z-2.000 F500.000
G1 X52.880 Y-4.896 Z-2.000 F500.000
G2 X54.198 Y-5.494 Z-2.000 I0.524 J-0.599 K0.000 F500.000
G1 X54.198 Y-6.391 Z-2.000 F500.000
G2 X55.327 Y-6.403 Z-2.000 I0.502 J-5.735 K0.000 F500.000
G2 X56.077 Y-7.266 Z-2.000 I-0.129 J-0.870 K0.000 F500.000
G1 X56.077 Y-8.501 Z-2.000 F500.000
G1 X57.186 Y-8.501 Z-2.000 F500.000
G2 X58.071 Y-9.386 Z-2.000 I-0.009 J-0.893 K0.000 F500.000
G1 X58.071 Y-10.455 Z-2.000 F500.000
G0 Z5.000
G0 X57.346 Y-5.908 Z5.000
G0 X57.346 Y-5.908 Z3.000
G1 X57.346 Y-5.908 Z-0.740 F300.000
G3 X58.095 Y-5.039 Z-0.740 I-0.140 J0.877 K0.000 F500.000
G1 X58.095 Y-3.436 Z-0.740 F500.000
G3 X57.215 Y-2.556 Z-0.740 I-0.889 J-0.009 K0.000 F500.000
G1 X55.675 Y-2.556 Z-0.740 F500.000
G3 X54.795 Y-3.436 Z-0.740 I0.009 J-0.889 K0.000 F500.000
G1 X54.795 Y-5.039 Z-0.740 F500.000
G3 X55.675 Y-5.919 Z-0.740 I0.889 J0.009 K0.000 F500.000
G1 X57.215 Y-5.919 Z-0.740 F500.000
G3 X57.346 Y-5.908 Z-0.740 I-0.009 J0.889 K0.000 F500.000
G1 X57.346 Y-5.908 Z-1.480 F300.000
G3 X58.095 Y-5.039 Z-1.480 I-0.140 J0.877 K0.000 F500.000
G1 X58.095 Y-3.436 Z-1.480 F500.000
G3 X57.215 Y-2.556 Z-1.480 I-0.889 J-0.009 K0.000 F500.000
G1 X55.675 Y-2.556 Z-1.480 F500.000
G3 X54.795 Y-3.436 Z-1.480 I0.009 J-0.889 K0.000 F500.000
G1 X54.795 Y-5.039 Z-1.480 F500.000
G3 X55.675 Y-5.919 Z-1.480 I0.889 J0.009 K0.000 F500.000
G1 X57.215 Y-5.919 Z-1.480 F500.000
G3 X57.346 Y-5.908 Z-1.480 I-0.009 J0.889 K0.000 F500.000
G1 X57.346 Y-5.908 Z-2.000 F300.000
G3 X58.095 Y-5.039 Z-2.000 I-0.140 J0.877 K0.000 F500.000
G1 X58.095 Y-3.436 Z-2.000 F500.000
G3 X57.215 Y-2.556 Z-2.000 I-0.889 J-0.009 K0.000 F500.000
G1 X55.675 Y-2.556 Z-2.000 F500.000
G3 X54.795 Y-3.436 Z-2.000 I0.009 J-0.889 K0.000 F500.000
G1 X54.795 Y-5.039 Z-2.000 F500.000
G3 X55.675 Y-5.919 Z-2.000 I0.889 J0.009 K0.000 F500.000
G1 X57.215 Y-5.919 Z-2.000 F500.000
G3 X57.346 Y-5.908 Z-2.000 I-0.009 J0.889 K0.000 F500.000
G0 Z5.000
G0 X59.221 Y-2.207 Z5.000
G0 X59.221 Y-2.207 Z3.000
G1 X59.221 Y-2.207 Z-0.740 F300.000
G1 X59.221 Y1.367 Z-0.740 F500.000
G2 X57.215 Y0.236 Z-0.740 I-2.013 J1.225 K0.000 F500.000
G1 X55.678 Y0.236 Z-0.740 F500.000
G1 X55.678 Y-1.076 Z-0.740 F500.000
G1 X57.215 Y-1.076 Z-0.740 F500.000
G2 X59.221 Y-2.207 Z-0.740 I-0.006 J-2.355 K0.000 F500.000
G1 X58.901 Y-1.367 Z-0.740 F300.000
G1 X58.901 Y0.532 Z-0.740 F500.000
G2 X57.215 Y-0.084 Z-0.740 I-1.656 J1.918 K0.000 F500.000
G1 X55.998 Y-0.084 Z-0.740 F500.000
G1 X55.998 Y-0.756 Z-0.740 F500.000
G2 X57.691 Y-0.803 Z-0.740 I0.608 J-8.616 K0.000 F500.000
G2 X58.901 Y-1.367 Z-0.740 I-0.393 J-2.421 K0.000 F500.000
G1 X58.581 Y-0.785 Z-0.740 F300.000
G1 X58.581 Y-0.064 Z-0.740 F500.000
G1 X58.430 Y-0.147 Z-0.740 F500.000
G2 X57.215 Y-0.404 Z-0.740 I-1.259 J2.950 K0.000 F500.000
G1 X56.318 Y-0.404 Z-0.740 F500.000
G1 X56.318 Y-0.436 Z-0.740 F500.000
G2 X57.753 Y-0.489 Z-0.740 I0.448 J-7.311 K0.000 F500.000
G2 X58.581 Y-0.785 Z-0.740 I-0.279 J-2.085 K0.000 F500.000
G1 X58.581 Y-0.785 Z-1.480 F300.000
G1 X58.581 Y-0.064 Z-1.480 F500.000
G1 X58.430 Y-0.147 Z-1.480 F500.000
G2 X57.215 Y-0.404 Z-1.480 I-1.259 J2.950 K0.000 F500.000
G1 X56.318 Y-0.404 Z-1.480 F500.000
G1 X56.318 Y-0.436 Z-1.480 F500.000
G2 X57.753 Y-0.489 Z-1.480 I0.448 J-7.311 K0.000 F500.000
G2 X58.581 Y-0.785 Z-1.480 I-0.279 J-2.085 K0.000 F500.000
G1 X58.440 Y-1.053 Z-1.480 F300.000
G2 X58.901 Y-1.367 Z-1.480 I-1.142 J-2.171 K0.000 F500.000
G1 X58.901 Y0.532 Z-1.480 F500.000
G2 X57.215 Y-0.084 Z-1.480 I-1.656 J1.918 K0.000 F500.000
G1 X55.998 Y-0.084 Z-1.480 F500.000
G1 X55.998 Y-0.756 Z-1.480 F500.000
G2 X57.691 Y-0.803 Z-1.480 I0.608 J-8.616 K0.000 F500.000
G2 X58.440 Y-1.053 Z-1.480 I-0.393 J-2.421 K0.000 F500.000
G1 X58.292 Y-1.340 Z-1.480 F300.000
G2 X59.221 Y-2.207 Z-1.480 I-1.083 J-2.092 K0.000 F500.000
G1 X59.221 Y1.367 Z-1.480 F500.000
G2 X57.215 Y0.236 Z-1.480 I-2.013 J1.225 K0.000 F500.000
G1 X55.678 Y0.236 Z-1.480 F500.000
G1 X55.678 Y-1.076 Z-1.480 F500.000
G1 X57.215 Y-1.076 Z-1.480 F500.000
G2 X58.292 Y-1.340 Z-1.480 I-0.006 J-2.355 K0.000 F500.000
G1 X58.442 Y-1.054 Z-2.000 F300.000
G2 X58.901 Y-1.367 Z-2.000 I-1.144 J-2.170 K0.000 F500.000
G1 X58.901 Y0.532 Z-2.000 F500.000
G2 X57.215 Y-0.084 Z-2.000 I-1.656 J1.918 K0.000 F500.000
G1 X55.998 Y-0.084 Z-2.000 F500.000
G1 X55.998 Y-0.756 Z-2.000 F500.000
G2 X57.691 Y-0.803 Z-2.000 I0.608 J-8.616 K0.000 F500.000
G2 X58.442 Y-1.054 Z-2.000 I-0.393 J-2.421 K0.000 F500.000
G1 X58.581 Y-0.785 Z-2.000 F300.000
G1 X58.581 Y-0.064 Z-2.000 F500.000
G1 X58.430 Y-0.147 Z-2.000 F500.000
G2 X57.215 Y-0.404 Z-2.000 I-1.259 J2.950 K0.000 F500.000
G1 X56.318 Y-0.404 Z-2.000 F500.000
G1 X56.318 Y-0.436 Z-2.000 F500.000
G2 X57.753 Y-0.489 Z-2.000 I0.448 J-7.311 K0.000 F500.000
G2 X58.581 Y-0.785 Z-2.000 I-0.279 J-2.085 K0.000 F500.000
G1 X58.293 Y-1.340 Z-2.000 F300.000
G2 X59.221 Y-2.207 Z-2.000 I-1.084 J-2.091 K0.000 F500.000
G1 X59.221 Y1.367 Z-2.000 F500.000
G2 X57.215 Y0.236 Z-2.000 I-2.013 J1.225 K0.000 F500.000
G1 X55.678 Y0.236 Z-2.000 F500.000
G1 X55.678 Y-1.076 Z-2.000 F500.000
G1 X57.215 Y-1.076 Z-2.000 F500.000
G2 X58.293 Y-1.340 Z-2.000 I-0.006 J-2.355 K0.000 F500.000
G0 Z5.000
G0 X57.442 Y1.748 Z5.000
G0 X57.442 Y1.748 Z3.000
G1 X57.442 Y1.748 Z-0.740 F300.000
G3 X58.095 Y2.596 Z-0.740 I-0.236 J0.857 K0.000 F500.000
G1 X58.095 Y4.199 Z-0.740 F500.000
G3 X57.215 Y5.079 Z-0.740 I-0.889 J-0.009 K0.000 F500.000
G1 X55.675 Y5.079 Z-0.740 F500.000
G3 X54.795 Y4.199 Z-0.740 I0.009 J-0.889 K0.000 F500.000
G1 X54.795 Y2.596 Z-0.740 F500.000
G3 X55.675 Y1.716 Z-0.740 I0.889 J0.009 K0.000 F500.000
G1 X57.215 Y1.716 Z-0.740 F500.000
G3 X57.442 Y1.748 Z-0.740 I-0.009 J0.889 K0.000 F500.000
G1 X57.442 Y1.748 Z-1.480 F300.000
G3 X58.095 Y2.596 Z-1.480 I-0.236 J0.857 K0.000 F500.000
G1 X58.095 Y4.199 Z-1.480 F500.000
G3 X57.215 Y5.079 Z-1.480 I-0.889 J-0.009 K0.000 F500.000
G1 X55.675 Y5.079 Z-1.480 F500.000
G3 X54.795 Y4.199 Z-1.480 I0.009 J-0.889 K0.000 F500.000
G1 X54.795 Y2.596 Z-1.480 F500.000
G3 X55.675 Y1.716 Z-1.480 I0.889 J0.009 K0.000 F500.000
G1 X57.215 Y1.716 Z-1.480 F500.000
G3 X57.442 Y1.748 Z-1.480 I-0.009 J0.889 K0.000 F500.000
G1 X57.442 Y1.748 Z-2.000 F300.000
G3 X58.095 Y2.596 Z-2.000 I-0.236 J0.857 K0.000 F500.000
G1 X58.095 Y4.199 Z-2.000 F500.000
G3 X57.215 Y5.079 Z-2.000 I-0.889 J-0.009 K0.000 F500.000
G1 X55.675 Y5.079 Z-2.000 F500.000
G3 X54.795 Y4.199 Z-2.000 I0.009 J-0.889 K0.000 F500.000
G1 X54.795 Y2.596 Z-2.000 F500.000
G3 X55.675 Y1.716 Z-2.000 I0.889 J0.009 K0.000 F500.000
G1 X57.215 Y1.716 Z-2.000 F500.000
G3 X57.442 Y1.748 Z-2.000 I-0.009 J0.889 K0.000 F500.000
G0 Z5.000
G0 Z5.000
G0 X57.442 Y1.748
G0 X45.439 Y1.383
G0 X45.439 Y1.383 Z3.000
G1 X45.439 Y1.383 Z-0.740 F300.000
G3 X-3.754 Y45.305 Z-0.740 I-45.439 J-1.383 K0.000 F500.000
G3 X3.754 Y-45.305 Z-0.740 I3.754 J-45.305 K0.000 F500.000
G3 X45.439 Y1.383 Z-0.740 I-3.754 J45.305 K0.000 F500.000
G1 X45.119 Y1.373 Z-0.740 F300.000
G3 X-3.728 Y44.986 Z-0.740 I-45.119 J-1.373 K0.000 F500.000
G3 X3.728 Y-44.986 Z-0.740 I3.728 J-44.986 K0.000 F500.000
G3 X45.119 Y1.373 Z-0.740 I-3.728 J44.986 K0.000 F500.000
G1 X44.939 Y1.367 Z-0.740 F300.000
G3 X3.833 Y44.796 Z-0.740 I-44.939 J-1.367 K0.000 F500.000
G3 X-3.833 Y-44.796 Z-0.740 I-3.833 J-44.796 K0.000 F500.000
G3 X44.939 Y1.367 Z-0.740 I3.833 J44.796 K0.000 F500.000
G1 X44.619 Y1.358 Z-0.740 F300.000
G3 X3.799 Y44.478 Z-0.740 I-44.619 J-1.358 K0.000 F500.000
G3 X-3.799 Y-44.478 Z-0.740 I-3.799 J-44.478 K0.000 F500.000
G3 X44.619 Y1.358 Z-0.740 I3.799 J44.478 K0.000 F500.000
G1 X44.619 Y1.358 Z-1.480 F300.000
G3 X3.799 Y44.478 Z-1.480 I-44.619 J-1.358 K0.000 F500.000
G3 X-3.799 Y-44.478 Z-1.480 I-3.799 J-44.478 K0.000 F500.000
G3 X44.619 Y1.358 Z-1.480 I3.799 J44.478 K0.000 F500.000
G1 X44.939 Y1.367 Z-1.480 F300.000
G3 X3.833 Y44.796 Z-1.480 I-44.939 J-1.367 K0.000 F500.000
G3 X-3.833 Y-44.796 Z-1.480 I-3.833 J-44.796 K0.000 F500.000
G3 X44.939 Y1.367 Z-1.480 I3.833 J44.796 K0.000 F500.000
G1 X45.119 Y1.373 Z-1.480 F300.000
G3 X-3.728 Y44.986 Z-1.480 I-45.119 J-1.373 K0.000 F500.000
G3 X3.728 Y-44.986 Z-1.480 I3.728 J-44.986 K0.000 F500.000
G3 X45.119 Y1.373 Z-1.480 I-3.728 J44.986 K0.000 F500.000
G1 X45.439 Y1.383 Z-1.480 F300.000
G3 X-3.754 Y45.305 Z-1.480 I-45.439 J-1.383 K0.000 F500.000
G3 X3.754 Y-45.305 Z-1.480 I3.754 J-45.305 K0.000 F500.000
G3 X45.439 Y1.383 Z-1.480 I-3.754 J45.305 K0.000 F500.000
G1 X45.439 Y1.383 Z-2.000 F300.000
G3 X-3.754 Y45.305 Z-2.000 I-45.439 J-1.383 K0.000 F500.000
G3 X3.754 Y-45.305 Z-2.000 I3.754 J-45.305 K0.000 F500.000
G3 X45.439 Y1.383 Z-2.000 I-3.754 J45.305 K0.000 F500.000
G1 X45.119 Y1.373 Z-2.000 F300.000
G3 X-3.728 Y44.986 Z-2.000 I-45.119 J-1.373 K0.000 F500.000
G3 X3.728 Y-44.986 Z-2.000 I3.728 J-44.986 K0.000 F500.000
G3 X45.119 Y1.373 Z-2.000 I-3.728 J44.986 K0.000 F500.000
G1 X44.939 Y1.367 Z-2.000 F300.000
G3 X3.833 Y44.796 Z-2.000 I-44.939 J-1.367 K0.000 F500.000
G3 X-3.833 Y-44.796 Z-2.000 I-3.833 J-44.796 K0.000 F500.000
G3 X44.939 Y1.367 Z-2.000 I3.833 J44.796 K0.000 F500.000
G1 X44.619 Y1.358 Z-2.000 F300.000
G3 X3.799 Y44.478 Z-2.000 I-44.619 J-1.358 K0.000 F500.000
G3 X-3.799 Y-44.478 Z-2.000 I-3.799 J-44.478 K0.000 F500.000
G3 X44.619 Y1.358 Z-2.000 I3.799 J44.478 K0.000 F500.000
G0 Z5.000
G0 Z5.000
G0 X44.619 Y1.358
G0 X44.414 Y29.409
G0 X44.414 Y29.409 Z3.000
G1 X44.414 Y29.409 Z-0.740 F300.000
G1 X48.790 Y33.785 Z-0.740 F500.000
G2 X48.013 Y34.578 Z-0.740 I3.640 J4.337 K0.000 F500.000
G2 X48.093 Y35.740 Z-0.740 I0.717 J0.534 K0.000 F500.000
G1 X48.738 Y36.385 Z-0.740 F500.000
G2 X48.156 Y36.992 Z-0.740 I2.272 J2.761 K0.000 F500.000
G2 X48.879 Y38.393 Z-0.740 I0.728 J0.512 K0.000 F500.000
G1 X50.874 Y38.393 Z-0.740 F500.000
G1 X51.528 Y39.046 Z-0.740 F500.000
G1 X51.001 Y39.573 Z-0.740 F500.000
G2 X50.240 Y38.830 Z-0.740 I-4.154 J3.490 K0.000 F500.000
G2 X49.078 Y38.909 Z-0.740 I-0.534 J0.717 K0.000 F500.000
G1 X48.299 Y39.688 Z-0.740 F500.000
G1 X47.497 Y38.885 Z-0.740 F500.000
G2 X46.238 Y38.885 Z-0.740 I-0.629 J0.642 K0.000 F500.000
G1 X38.885 Y46.238 Z-0.740 F500.000
G2 X38.885 Y47.497 Z-0.740 I0.642 J0.629 K0.000 F500.000
G1 X39.688 Y48.299 Z-0.740 F500.000
G1 X38.909 Y49.078 Z-0.740 F500.000
G2 X38.909 Y50.337 Z-0.740 I0.642 J0.629 K0.000 F500.000
G1 X39.573 Y51.001 Z-0.740 F500.000
G1 X39.046 Y51.528 Z-0.740 F500.000
G1 X38.393 Y50.874 Z-0.740 F500.000
G1 X38.393 Y48.879 Z-0.740 F500.000
G2 X36.874 Y48.250 Z-0.740 I-0.893 J0.008 K0.000 F500.000
G1 X36.385 Y48.738 Z-0.740 F500.000
G2 X35.643 Y48.013 Z-0.740 I-4.050 J3.405 K0.000 F500.000
G2 X34.481 Y48.093 Z-0.740 I-0.534 J0.717 K0.000 F500.000
G1 X33.785 Y48.790 Z-0.740 F500.000
G1 X29.409 Y44.414 Z-0.740 F500.000
G1 X29.807 Y44.015 Z-0.740 F500.000
G1 X31.827 Y46.035 Z-0.740 F500.000
G2 X33.086 Y46.035 Z-0.740 I0.629 J-0.642 K0.000 F500.000
G1 X34.080 Y45.040 Z-0.740 F500.000
G2 X34.080 Y43.782 Z-0.740 I-0.642 J-0.629 K0.000 F500.000
G1 X33.452 Y43.154 Z-0.740 F500.000
G2 X34.120 Y42.461 Z-0.740 I-2.602 J-3.177 K0.000 F500.000
G2 X33.404 Y41.060 Z-0.740 I-0.728 J-0.512 K0.000 F500.000
G1 X31.461 Y41.046 Z-0.740 F500.000
G1 X30.793 Y40.378 Z-0.740 F500.000
G1 X31.118 Y40.053 Z-0.740 F500.000
G2 X31.906 Y40.824 Z-0.740 I4.310 J-3.618 K0.000 F500.000
G2 X33.068 Y40.745 Z-0.740 I0.534 J-0.717 K0.000 F500.000
G1 X33.793 Y40.019 Z-0.740 F500.000
G1 X34.561 Y40.787 Z-0.740 F500.000
G2 X35.820 Y40.787 Z-0.740 I0.629 J-0.642 K0.000 F500.000
G1 X40.787 Y35.820 Z-0.740 F500.000
G2 X40.787 Y34.561 Z-0.740 I-0.642 J-0.629 K0.000 F500.000
G1 X40.024 Y33.798 Z-0.740 F500.000
G2 X40.667 Y33.138 Z-0.740 I-3.031 J-3.594 K0.000 F500.000
G2 X40.587 Y31.976 Z-0.740 I-0.717 J-0.534 K0.000 F500.000
G1 X39.891 Y31.280 Z-0.740 F500.000
G1 X40.378 Y30.793 Z-0.740 F500.000
G1 X41.064 Y31.478 Z-0.740 F500.000
G1 X41.064 Y33.394 Z-0.740 F500.000
G2 X42.583 Y34.023 Z-0.740 I0.893 J-0.008 K0.000 F500.000
G1 X43.112 Y33.495 Z-0.740 F500.000
G2 X43.837 Y34.202 Z-0.740 I3.956 J-3.327 K0.000 F500.000
G2 X44.999 Y34.123 Z-0.740 I0.534 J-0.717 K0.000 F500.000
G1 X46.013 Y33.108 Z-0.740 F500.000
G2 X46.013 Y31.850 Z-0.740 I-0.642 J-0.629 K0.000 F500.000
G1 X43.993 Y29.829 Z-0.740 F500.000
G1 X44.414 Y29.409 Z-0.740 F500.000
G1 X44.414 Y29.409 Z-1.480 F300.000
G1 X48.790 Y33.785 Z-1.480 F500.000
G2 X48.013 Y34.578 Z-1.480 I3.640 J4.337 K0.000 F500.000
G2 X48.093 Y35.740 Z-1.480 I0.717 J0.534 K0.000 F500.000
G1 X48.738 Y36.385 Z-1.480 F500.000
G2 X48.156 Y36.992 Z-1.480 I2.272 J2.761 K0.000 F500.000
G2 X48.879 Y38.393 Z-1.480 I0.728 J0.512 K0.000 F500.000
G1 X50.874 Y38.393 Z-1.480 F500.000
G1 X51.528 Y39.046 Z-1.480 F500.000
G1 X51.001 Y39.573 Z-1.480 F500.000
G2 X50.240 Y38.830 Z-1.480 I-4.154 J3.490 K0.000 F500.000
G2 X49.078 Y38.909 Z-1.480 I-0.534 J0.717 K0.000 F500.000
G1 X48.299 Y39.688 Z-1.480 F500.000
G1 X47.497 Y38.885 Z-1.480 F500.000
G2 X46.238 Y38.885 Z-1.480 I-0.629 J0.642 K0.000 F500.000
G1 X38.885 Y46.238 Z-1.480 F500.000
G2 X38.885 Y47.497 Z-1.480 I0.642 J0.629 K0.000 F500.000
G1 X39.688 Y48.299 Z-1.480 F500.000
G1 X38.909 Y49.078 Z-1.480 F500.000
G2 X38.909 Y50.337 Z-1.480 I0.642 J0.629 K0.000 F500.000
G1 X39.573 Y51.001 Z-1.480 F500.000
G1 X39.046 Y51.528 Z-1.480 F500.000
G1 X38.393 Y50.874 Z-1.480 F500.000
G1 X38.393 Y48.879 Z-1.480 F500.000
G2 X36.874 Y48.250 Z-1.480 I-0.893 J0.008 K0.000 F500.000
G1 X36.385 Y48.738 Z-1.480 F500.000
G2 X35.643 Y48.013 Z-1.480 I-4.050 J3.405 K0.000 F500.000
G2 X34.481 Y48.093 Z-1.480 I-0.534 J0.717 K0.000 F500.000
G1 X33.785 Y48.790 Z-1.480 F500.000
G1 X29.409 Y44.414 Z-1.480 F500.000
G1 X29.807 Y44.015 Z-1.480 F500.000
G1 X31.827 Y46.035 Z-1.480 F500.000
G2 X33.086 Y46.035 Z-1.480 I0.629 J-0.642 K0.000 F500.000
G1 X34.080 Y45.040 Z-1.480 F500.000
G2 X34.080 Y43.782 Z-1.480 I-0.642 J-0.629 K0.000 F500.000
G1 X33.452 Y43.154 Z-1.480 F500.000
G2 X34.120 Y42.461 Z-1.480 I-2.602 J-3.177 K0.000 F500.000
G2 X33.404 Y41.060 Z-1.480 I-0.728 J-0.512 K0.000 F500.000
G1 X31.461 Y41.046 Z-1.480 F500.000
G1 X30.793 Y40.378 Z-1.480 F500.000
G1 X31.118 Y40.053 Z-1.480 F500.000
G2 X31.906 Y40.824 Z-1.480 I4.310 J-3.618 K0.000 F500.000
G2 X33.068 Y40.745 Z-1.480 I0.534 J-0.717 K0.000 F500.000
G1 X33.793 Y40.019 Z-1.480 F500.000
G1 X34.561 Y40.787 Z-1.480 F500.000
G2 X35.820 Y40.787 Z-1.480 I0.629 J-0.642 K0.000 F500.000
G1 X40.787 Y35.820 Z-1.480 F500.000
G2 X40.787 Y34.561 Z-1.480 I-0.642 J-0.629 K0.000 F500.000
G1 X40.024 Y33.798 Z-1.480 F500.000
G2 X40.667 Y33.138 Z-1.480 I-3.031 J-3.594 K0.000 F500.000
G2 X40.587 Y31.976 Z-1.480 I-0.717 J-0.534 K0.000 F500.000
G1 X39.891 Y31.280 Z-1.480 F500.000
G1 X40.378 Y30.793 Z-1.480 F500.000
G1 X41.064 Y31.478 Z-1.480 F500.000
G1 X41.064 Y33.394 Z-1.480 F500.000
G2 X42.583 Y34.023 Z-1.480 I0.893 J-0.008 K0.000 F500.000
G1 X43.112 Y33.495 Z-1.480 F500.000
G2 X43.837 Y34.202 Z-1.480 I3.956 J-3.327 K0.000 F500.000
G2 X44.999 Y34.123 Z-1.480 I0.534 J-0.717 K0.000 F500.000
G1 X46.013 Y33.108 Z-1.480 F500.000
G2 X46.013 Y31.850 Z-1.480 I-0.642 J-0.629 K0.000 F500.000
G1 X43.993 Y29.829 Z-1.480 F500.000
G1 X44.414 Y29.409 Z-1.480 F500.000
G1 X44.414 Y29.409 Z-2.000 F300.000
G1 X48.790 Y33.785 Z-2.000 F500.000
G2 X48.013 Y34.578 Z-2.000 I3.640 J4.337 K0.000 F500.000
G2 X48.093 Y35.740 Z-2.000 I0.717 J0.534 K0.000 F500.000
G1 X48.738 Y36.385 Z-2.000 F500.000
G2 X48.156 Y36.992 Z-2.000 I2.272 J2.761 K0.000 F500.000
G2 X48.879 Y38.393 Z-2.000 I0.728 J0.512 K0.000 F500.000
G1 X50.874 Y38.393 Z-2.000 F500.000
G1 X51.528 Y39.046 Z-2.000 F500.000
G1 X51.001 Y39.573 Z-2.000 F500.000
G2 X50.240 Y38.830 Z-2.000 I-4.154 J3.490 K0.000 F500.000
G2 X49.078 Y38.909 Z-2.000 I-0.534 J0.717 K0.000 F500.000
G1 X48.299 Y39.688 Z-2.000 F500.000
G1 X47.497 Y38.885 Z-2.000 F500.000
G2 X46.238 Y38.885 Z-2.000 I-0.629 J0.642 K0.000 F500.000
G1 X38.885 Y46.238 Z-2.000 F500.000
G2 X38.885 Y47.497 Z-2.000 I0.642 J0.629 K0.000 F500.000
G1 X39.688 Y48.299 Z-2.000 F500.000
G1 X38.909 Y49.078 Z-2.000 F500.000
G2 X38.909 Y50.337 Z-2.000 I0.642 J0.629 K0.000 F500.000
G1 X39.573 Y51.001 Z-2.000 F500.000
G1 X39.046 Y51.528 Z-2.000 F500.000
G1 X38.393 Y50.874 Z-2.000 F500.000
G1 X38.393 Y48.879 Z-2.000 F500.000
G2 X36.874 Y48.250 Z-2.000 I-0.893 J0.008 K0.000 F500.000
G1 X36.385 Y48.738 Z-2.000 F500.000
G2 X35.643 Y48.013 Z-2.000 I-4.050 J3.405 K0.000 F500.000
G2 X34.481 Y48.093 Z-2.000 I-0.534 J0.717 K0.000 F500.000
G1 X33.785 Y48.790 Z-2.000 F500.000
G1 X29.409 Y44.414 Z-2.000 F500.000
G1 X29.807 Y44.015 Z-2.000 F500.000
G1 X31.827 Y46.035 Z-2.000 F500.000
G2 X33.086 Y46.035 Z-2.000 I0.629 J-0.642 K0.000 F500.000
G1 X34.080 Y45.040 Z-2.000 F500.000
G2 X34.080 Y43.782 Z-2.000 I-0.642 J-0.629 K0.000 F500.000
G1 X33.452 Y43.154 Z-2.000 F500.000
G2 X34.120 Y42.461 Z-2.000 I-2.602 J-3.177 K0.000 F500.000
G2 X33.404 Y41.060 Z-2.000 I-0.728 J-0.512 K0.000 F500.000
G1 X31.461 Y41.046 Z-2.000 F500.000
G1 X30.793 Y40.378 Z-2.000 F500.000
G1 X31.118 Y40.053 Z-2.000 F500.000
G2 X31.906 Y40.824 Z-2.000 I4.310 J-3.618 K0.000 F500.000
G2 X33.068 Y40.745 Z-2.000 I0.534 J-0.717 K0.000 F500.000
G1 X33.793 Y40.019 Z-2.000 F500.000
G1 X34.561 Y40.787 Z-2.000 F500.000
G2 X35.820 Y40.787 Z-2.000 I0.629 J-0.642 K0.000 F500.000
G1 X40.787 Y35.820 Z-2.000 F500.000
G2 X40.787 Y34.561 Z-2.000 I-0.642 J-0.629 K0.000 F500.000
G1 X40.024 Y33.798 Z-2.000 F500.000
G2 X40.667 Y33.138 Z-2.000 I-3.031 J-3.594 K0.000 F500.000
G2 X40.587 Y31.976 Z-2.000 I-0.717 J-0.534 K0.000 F500.000
G1 X39.891 Y31.280 Z-2.000 F500.000
G1 X40.378 Y30.793 Z-2.000 F500.000
G1 X41.064 Y31.478 Z-2.000 F500.000
G1 X41.064 Y33.394 Z-2.000 F500.000
G2 X42.583 Y34.023 Z-2.000 I0.893 J-0.008 K0.000 F500.000
G1 X43.112 Y33.495 Z-2.000 F500.000
G2 X43.837 Y34.202 Z-2.000 I3.956 J-3.327 K0.000 F500.000
G2 X44.999 Y34.123 Z-2.000 I0.534 J-0.717 K0.000 F500.000
G1 X46.013 Y33.108 Z-2.000 F500.000
G2 X46.013 Y31.850 Z-2.000 I-0.642 J-0.629 K0.000 F500.000
G1 X43.993 Y29.829 Z-2.000 F500.000
G1 X44.414 Y29.409 Z-2.000 F500.000
G0 Z5.000
G0 X43.166 Y34.746 Z5.000
G0 X43.166 Y34.746 Z3.000
G1 X43.166 Y34.746 Z-0.740 F300.000
G3 X43.591 Y34.979 Z-0.740 I-0.205 J0.876 K0.000 F500.000
G1 X44.561 Y35.950 Z-0.740 F500.000
G3 X44.561 Y37.209 Z-0.740 I-0.642 J0.629 K0.000 F500.000
G1 X43.722 Y38.048 Z-0.740 F500.000
G3 X42.463 Y38.048 Z-0.740 I-0.629 J-0.642 K0.000 F500.000
G1 X41.493 Y37.077 Z-0.740 F500.000
G3 X41.493 Y35.818 Z-0.740 I0.642 J-0.629 K0.000 F500.000
G1 X42.332 Y34.979 Z-0.740 F500.000
G3 X42.741 Y34.750 Z-0.740 I0.674 J0.722 K0.000 F500.000
G3 X43.166 Y34.746 Z-0.740 I0.221 J0.872 K0.000 F500.000
G1 X43.166 Y34.746 Z-1.480 F300.000
G3 X43.591 Y34.979 Z-1.480 I-0.205 J0.876 K0.000 F500.000
G1 X44.561 Y35.950 Z-1.480 F500.000
G3 X44.561 Y37.209 Z-1.480 I-0.642 J0.629 K0.000 F500.000
G1 X43.722 Y38.048 Z-1.480 F500.000
G3 X42.463 Y38.048 Z-1.480 I-0.629 J-0.642 K0.000 F500.000
G1 X41.493 Y37.077 Z-1.480 F500.000
G3 X41.493 Y35.818 Z-1.480 I0.642 J-0.629 K0.000 F500.000
G1 X42.332 Y34.979 Z-1.480 F500.000
G3 X42.741 Y34.750 Z-1.480 I0.674 J0.722 K0.000 F500.000
G3 X43.166 Y34.746 Z-1.480 I0.221 J0.872 K0.000 F500.000
G1 X43.166 Y34.746 Z-2.000 F300.000
G3 X43.591 Y34.979 Z-2.000 I-0.205 J0.876 K0.000 F500.000
G1 X44.561 Y35.950 Z-2.000 F500.000
G3 X44.561 Y37.209 Z-2.000 I-0.642 J0.629 K0.000 F500.000
G1 X43.722 Y38.048 Z-2.000 F500.000
G3 X42.463 Y38.048 Z-2.000 I-0.629 J-0.642 K0.000 F500.000
G1 X41.493 Y37.077 Z-2.000 F500.000
G3 X41.493 Y35.818 Z-2.000 I0.642 J-0.629 K0.000 F500.000
G1 X42.332 Y34.979 Z-2.000 F500.000
G3 X42.741 Y34.750 Z-2.000 I0.674 J0.722 K0.000 F500.000
G3 X43.166 Y34.746 Z-2.000 I0.221 J0.872 K0.000 F500.000
G0 Z5.000
G0 X45.909 Y35.281 Z5.000
G0 X45.909 Y35.281 Z3.000
G1 X45.909 Y35.281 Z-0.740 F300.000
G2 X46.379 Y34.835 Z-0.740 I-2.027 J-2.609 K0.000 F500.000
G2 X46.771 Y36.447 Z-0.740 I2.292 J0.296 K0.000 F500.000
G2 X46.546 Y37.176 Z-0.740 I1.407 J0.832 K0.000 F500.000
G2 X46.191 Y37.254 Z-0.740 I0.090 J1.258 K0.000 F500.000
G2 X45.909 Y35.281 Z-0.740 I-2.221 J-0.689 K0.000 F500.000
G1 X45.909 Y35.281 Z-1.480 F300.000
G2 X46.379 Y34.835 Z-1.480 I-2.027 J-2.609 K0.000 F500.000
G2 X46.771 Y36.447 Z-1.480 I2.292 J0.296 K0.000 F500.000
G2 X46.546 Y37.176 Z-1.480 I1.407 J0.832 K0.000 F500.000
G2 X46.191 Y37.254 Z-1.480 I0.090 J1.258 K0.000 F500.000
G2 X45.909 Y35.281 Z-1.480 I-2.221 J-0.689 K0.000 F500.000
G1 X45.909 Y35.281 Z-2.000 F300.000
G2 X46.379 Y34.835 Z-2.000 I-2.027 J-2.609 K0.000 F500.000
G2 X46.771 Y36.447 Z-2.000 I2.292 J0.296 K0.000 F500.000
G2 X46.546 Y37.176 Z-2.000 I1.407 J0.832 K0.000 F500.000
G2 X46.191 Y37.254 Z-2.000 I0.090 J1.258 K0.000 F500.000
G2 X45.909 Y35.281 Z-2.000 I-2.221 J-0.689 K0.000 F500.000
G0 Z5.000
G0 X43.259 Y39.771 Z5.000
G0 X43.259 Y39.771 Z3.000
G1 X43.259 Y39.771 Z-0.740 F300.000
G1 X39.773 Y43.257 Z-0.740 F500.000
G2 X39.094 Y41.417 Z-0.740 I-2.312 J-0.192 K0.000 F500.000
G1 X38.188 Y40.511 Z-0.740 F500.000
G1 X40.511 Y38.188 Z-0.740 F500.000
G1 X41.417 Y39.094 Z-0.740 F500.000
G2 X43.259 Y39.771 Z-0.740 I1.650 J-1.643 K0.000 F500.000
G1 X43.259 Y39.771 Z-1.480 F300.000
G1 X39.773 Y43.257 Z-1.480 F500.000
G2 X39.094 Y41.417 Z-1.480 I-2.312 J-0.192 K0.000 F500.000
G1 X38.188 Y40.511 Z-1.480 F500.000
G1 X40.511 Y38.188 Z-1.480 F500.000
G1 X41.417 Y39.094 Z-1.480 F500.000
G2 X43.259 Y39.771 Z-1.480 I1.650 J-1.643 K0.000 F500.000
G1 X43.259 Y39.771 Z-2.000 F300.000
G1 X39.773 Y43.257 Z-2.000 F500.000
G2 X39.094 Y41.417 Z-2.000 I-2.312 J-0.192 K0.000 F500.000
G1 X38.188 Y40.511 Z-2.000 F500.000
G1 X40.511 Y38.188 Z-2.000 F500.000
G1 X41.417 Y39.094 Z-2.000 F500.000
G2 X43.259 Y39.771 Z-2.000 I1.650 J-1.643 K0.000 F500.000
G0 Z5.000
G0 X40.604 Y40.333 Z5.000
G0 X40.604 Y40.333 Z3.000
G1 X40.604 Y40.333 Z-0.740 F300.000
G1 X40.333 Y40.604 Z-0.740 F500.000
G1 X40.268 Y40.525 Z-0.740 F500.000
G1 X40.525 Y40.268 Z-0.740 F500.000
G1 X40.604 Y40.333 Z-0.740 F500.000
G1 X40.604 Y40.333 Z-1.480 F300.000
G1 X40.333 Y40.604 Z-1.480 F500.000
G1 X40.268 Y40.525 Z-1.480 F500.000
G1 X40.525 Y40.268 Z-1.480 F500.000
G1 X40.604 Y40.333 Z-1.480 F500.000
G1 X40.604 Y40.333 Z-2.000 F300.000
G1 X40.333 Y40.604 Z-2.000 F500.000
G1 X40.268 Y40.525 Z-2.000 F500.000
G1 X40.525 Y40.268 Z-2.000 F500.000
G1 X40.604 Y40.333 Z-2.000 F500.000
G0 Z5.000
G0 X38.086 Y42.506 Z5.000
G0 X38.086 Y42.506 Z3.000
G1 X38.086 Y42.506 Z-0.740 F300.000
G3 X38.048 Y43.722 Z-0.740 I-0.680 J0.587 K0.000 F500.000
G1 X37.209 Y44.561 Z-0.740 F500.000
G3 X35.950 Y44.561 Z-0.740 I-0.629 J-0.642 K0.000 F500.000
G1 X34.979 Y43.591 Z-0.740 F500.000
G3 X34.979 Y42.332 Z-0.740 I0.642 J-0.629 K0.000 F500.000
G1 X35.818 Y41.493 Z-0.740 F500.000
G3 X36.227 Y41.263 Z-0.740 I0.674 J0.722 K0.000 F500.000
G3 X37.077 Y41.493 Z-0.740 I0.221 J0.872 K0.000 F500.000
G1 X38.048 Y42.463 Z-0.740 F500.000
G3 X38.086 Y42.506 Z-0.740 I-0.642 J0.629 K0.000 F500.000
G1 X38.086 Y42.506 Z-1.480 F300.000
G3 X38.048 Y43.722 Z-1.480 I-0.680 J0.587 K0.000 F500.000
G1 X37.209 Y44.561 Z-1.480 F500.000
G3 X35.950 Y44.561 Z-1.480 I-0.629 J-0.642 K0.000 F500.000
G1 X34.979 Y43.591 Z-1.480 F500.000
G3 X34.979 Y42.332 Z-1.480 I0.642 J-0.629 K0.000 F500.000
G1 X35.818 Y41.493 Z-1.480 F500.000
G3 X36.227 Y41.263 Z-1.480 I0.674 J0.722 K0.000 F500.000
G3 X37.077 Y41.493 Z-1.480 I0.221 J0.872 K0.000 F500.000
G1 X38.048 Y42.463 Z-1.480 F500.000
G3 X38.086 Y42.506 Z-1.480 I-0.642 J0.629 K0.000 F500.000
G1 X38.086 Y42.506 Z-2.000 F300.000
G3 X38.048 Y43.722 Z-2.000 I-0.680 J0.587 K0.000 F500.000
G1 X37.209 Y44.561 Z-2.000 F500.000
G3 X35.950 Y44.561 Z-2.000 I-0.629 J-0.642 K0.000 F500.000
G1 X34.979 Y43.591 Z-2.000 F500.000
G3 X34.979 Y42.332 Z-2.000 I0.642 J-0.629 K0.000 F500.000
G1 X35.818 Y41.493 Z-2.000 F500.000
G3 X36.227 Y41.263 Z-2.000 I0.674 J0.722 K0.000 F500.000
G3 X37.077 Y41.493 Z-2.000 I0.221 J0.872 K0.000 F500.000
G1 X38.048 Y42.463 Z-2.000 F500.000
G3 X38.086 Y42.506 Z-2.000 I-0.642 J0.629 K0.000 F500.000
G0 Z5.000
G0 X37.255 Y46.192 Z5.000
G0 X37.255 Y46.192 Z3.000
G1 X37.255 Y46.192 Z-0.740 F300.000
G2 X37.176 Y46.542 Z-0.740 I1.045 J0.419 K0.000 F500.000
G2 X36.453 Y46.775 Z-0.740 I0.123 J1.622 K0.000 F500.000
G2 X34.833 Y46.380 Z-0.740 I-1.319 J1.892 K0.000 F500.000
G2 X35.275 Y45.905 Z-0.740 I-2.189 J-2.482 K0.000 F500.000
G2 X37.255 Y46.192 Z-0.740 I1.292 J-1.940 K0.000 F500.000
G1 X37.255 Y46.192 Z-1.480 F300.000
G2 X37.176 Y46.542 Z-1.480 I1.045 J0.419 K0.000 F500.000
G2 X36.453 Y46.775 Z-1.480 I0.123 J1.622 K0.000 F500.000
G2 X34.833 Y46.380 Z-1.480 I-1.319 J1.892 K0.000 F500.000
G2 X35.275 Y45.905 Z-1.480 I-2.189 J-2.482 K0.000 F500.000
G2 X37.255 Y46.192 Z-1.480 I1.292 J-1.940 K0.000 F500.000
G1 X37.255 Y46.192 Z-2.000 F300.000
G2 X37.176 Y46.542 Z-2.000 I1.045 J0.419 K0.000 F500.000
G2 X36.453 Y46.775 Z-2.000 I0.123 J1.622 K0.000 F500.000
G2 X34.833 Y46.380 Z-2.000 I-1.319 J1.892 K0.000 F500.000
G2 X35.275 Y45.905 Z-2.000 I-2.189 J-2.482 K0.000 F500.000
G2 X37.255 Y46.192 Z-2.000 I1.292 J-1.940 K0.000 F500.000
G0 Z5.000
G0 Z5.000
G0 X37.255 Y46.192
G0 X43.970 Y54.518
G0 X43.970 Y54.518 Z3.000
G1 X43.970 Y54.518 Z-0.740 F300.000
G3 X3.558 Y69.949 Z-0.740 I-43.970 J-54.518 K0.000 F500.000
G3 X-69.949 Y3.558 Z-0.740 I-3.558 J-69.949 K0.000 F500.000
G3 X-3.558 Y-69.949 Z-0.740 I69.949 J-3.558 K0.000 F500.000
G3 X43.970 Y54.518 Z-0.740 I3.558 J69.949 K0.000 F500.000
G1 X44.171 Y54.767 Z-0.740 F300.000
G3 X3.580 Y70.269 Z-0.740 I-44.171 J-54.767 K0.000 F500.000
G3 X-70.269 Y3.580 Z-0.740 I-3.580 J-70.269 K0.000 F500.000
G3 X-3.580 Y-70.269 Z-0.740 I70.269 J-3.580 K0.000 F500.000
G3 X44.171 Y54.767 Z-0.740 I3.580 J70.269 K0.000 F500.000
G1 X44.284 Y54.907 Z-0.740 F300.000
G3 X-4.712 Y70.382 Z-0.740 I-44.284 J-54.907 K0.000 F500.000
G3 X4.712 Y-70.382 Z-0.740 I4.712 J-70.382 K0.000 F500.000
G3 X44.284 Y54.907 Z-0.740 I-4.712 J70.382 K0.000 F500.000
G1 X44.485 Y55.156 Z-0.740 F300.000
G3 X-4.733 Y70.702 Z-0.740 I-44.485 J-55.156 K0.000 F500.000
G3 X-70.702 Y-4.733 Z-0.740 I4.733 J-70.702 K0.000 F500.000
G3 X4.733 Y-70.702 Z-0.740 I70.702 J4.733 K0.000 F500.000
G3 X44.485 Y55.156 Z-0.740 I-4.733 J70.702 K0.000 F500.000
G1 X44.485 Y55.156 Z-1.480 F300.000
G3 X-4.733 Y70.702 Z-1.480 I-44.485 J-55.156 K0.000 F500.000
G3 X-70.702 Y-4.733 Z-1.480 I4.733 J-70.702 K0.000 F500.000
G3 X4.733 Y-70.702 Z-1.480 I70.702 J4.733 K0.000 F500.000
G3 X44.485 Y55.156 Z-1.480 I-4.733 J70.702 K0.000 F500.000
G1 X44.284 Y54.907 Z-1.480 F300.000
G3 X-4.712 Y70.382 Z-1.480 I-44.284 J-54.907 K0.000 F500.000
G3 X4.712 Y-70.382 Z-1.480 I4.712 J-70.382 K0.000 F500.000
G3 X44.284 Y54.907 Z-1.480 I-4.712 J70.382 K0.000 F500.000
G1 X44.171 Y54.767 Z-1.480 F300.000
G3 X3.580 Y70.269 Z-1.480 I-44.171 J-54.767 K0.000 F500.000
G3 X-70.269 Y3.580 Z-1.480 I-3.580 J-70.269 K0.000 F500.000
G3 X-3.580 Y-70.269 Z-1.480 I70.269 J-3.580 K0.000 F500.000
G3 X44.171 Y54.767 Z-1.480 I3.580 J70.269 K0.000 F500.000
G1 X43.970 Y54.518 Z-1.480 F300.000
G3 X3.558 Y69.949 Z-1.480 I-43.970 J-54.518 K0.000 F500.000
G3 X-69.949 Y3.558 Z-1.480 I-3.558 J-69.949 K0.000 F500.000
G3 X-3.558 Y-69.949 Z-1.480 I69.949 J-3.558 K0.000 F500.000
G3 X43.970 Y54.518 Z-1.480 I3.558 J69.949 K0.000 F500.000
G1 X43.970 Y54.518 Z-2.000 F300.000
G3 X3.558 Y69.949 Z-2.000 I-43.970 J-54.518 K0.000 F500.000
G3 X-69.949 Y3.558 Z-2.000 I-3.558 J-69.949 K0.000 F500.000
G3 X-3.558 Y-69.949 Z-2.000 I69.949 J-3.558 K0.000 F500.000
G3 X43.970 Y54.518 Z-2.000 I3.558 J69.949 K0.000 F500.000
G1 X44.171 Y54.767 Z-2.000 F300.000
G3 X3.580 Y70.269 Z-2.000 I-44.171 J-54.767 K0.000 F500.000
G3 X-70.269 Y3.580 Z-2.000 I-3.580 J-70.269 K0.000 F500.000
G3 X-3.580 Y-70.269 Z-2.000 I70.269 J-3.580 K0.000 F500.000
G3 X44.171 Y54.767 Z-2.000 I3.580 J70.269 K0.000 F500.000
G1 X44.284 Y54.907 Z-2.000 F300.000
G3 X-4.712 Y70.382 Z-2.000 I-44.284 J-54.907 K0.000 F500.000
G3 X4.712 Y-70.382 Z-2.000 I4.712 J-70.382 K0.000 F500.000
G3 X44.284 Y54.907 Z-2.000 I-4.712 J70.382 K0.000 F500.000
G1 X44.485 Y55.156 Z-2.000 F300.000
G3 X-4.733 Y70.702 Z-2.000 I-44.485 J-55.156 K0.000 F500.000
G3 X-70.702 Y-4.733 Z-2.000 I4.733 J-70.702 K0.000 F500.000
G3 X4.733 Y-70.702 Z-2.000 I70.702 J4.733 K0.000 F500.000
G3 X44.485 Y55.156 Z-2.000 I-4.733 J70.702 K0.000 F500.000
G0 Z5.000
G0 Z5.000
G0 X44.485 Y55.156
G0 X-29.409 Y44.414
G0 X-29.409 Y44.414 Z3.000
G1 X-29.409 Y44.414 Z-0.740 F300.000
G1 X-33.785 Y48.790 Z-0.740 F500.000
G2 X-34.578 Y48.013 Z-0.740 I-4.337 J3.640 K0.000 F500.000
G2 X-35.740 Y48.093 Z-0.740 I-0.534 J0.717 K0.000 F500.000
G1 X-36.385 Y48.738 Z-0.740 F500.000
G2 X-36.992 Y48.156 Z-0.740 I-2.761 J2.272 K0.000 F500.000
G2 X-38.393 Y48.879 Z-0.740 I-0.512 J0.728 K0.000 F500.000
G1 X-38.393 Y50.874 Z-0.740 F500.000
G1 X-39.046 Y51.528 Z-0.740 F500.000
G1 X-39.573 Y51.001 Z-0.740 F500.000
G2 X-38.830 Y50.240 Z-0.740 I-3.490 J-4.154 K0.000 F500.000
G2 X-38.909 Y49.078 Z-0.740 I-0.717 J-0.534 K0.000 F500.000
G1 X-39.688 Y48.299 Z-0.740 F500.000
G1 X-38.885 Y47.497 Z-0.740 F500.000
G2 X-38.885 Y46.238 Z-0.740 I-0.642 J-0.629 K0.000 F500.000
G1 X-46.238 Y38.885 Z-0.740 F500.000
G2 X-47.497 Y38.885 Z-0.740 I-0.629 J0.642 K0.000 F500.000
G1 X-48.299 Y39.688 Z-0.740 F500.000
G1 X-49.078 Y38.909 Z-0.740 F500.000
G2 X-50.337 Y38.909 Z-0.740 I-0.629 J0.642 K0.000 F500.000
G1 X-51.001 Y39.573 Z-0.740 F500.000
G1 X-51.528 Y39.046 Z-0.740 F500.000
G1 X-50.874 Y38.393 Z-0.740 F500.000
G1 X-48.879 Y38.393 Z-0.740 F500.000
G2 X-48.250 Y36.874 Z-0.740 I-0.008 J-0.893 K0.000 F500.000
G1 X-48.738 Y36.385 Z-0.740 F500.000
G2 X-48.013 Y35.643 Z-0.740 I-3.405 J-4.050 K0.000 F500.000
G2 X-48.093 Y34.481 Z-0.740 I-0.717 J-0.534 K0.000 F500.000
G1 X-48.790 Y33.785 Z-0.740 F500.000
G1 X-44.414 Y29.409 Z-0.740 F500.000
G1 X-44.015 Y29.807 Z-0.740 F500.000
G1 X-46.035 Y31.827 Z-0.740 F500.000
G2 X-46.035 Y33.086 Z-0.740 I0.642 J0.629 K0.000 F500.000
G1 X-45.040 Y34.080 Z-0.740 F500.000
G2 X-43.782 Y34.080 Z-0.740 I0.629 J-0.642 K0.000 F500.000
G1 X-43.154 Y33.452 Z-0.740 F500.000
G2 X-42.461 Y34.120 Z-0.740 I3.177 J-2.602 K0.000 F500.000
G2 X-41.060 Y33.404 Z-0.740 I0.512 J-0.728 K0.000 F500.000
G1 X-41.046 Y31.461 Z-0.740 F500.000
G1 X-40.378 Y30.793 Z-0.740 F500.000
G1 X-40.053 Y31.118 Z-0.740 F500.000
G2 X-40.824 Y31.906 Z-0.740 I3.618 J4.310 K0.000 F500.000
G2 X-40.745 Y33.068 Z-0.740 I0.717 J0.534 K0.000 F500.000
G1 X-40.019 Y33.793 Z-0.740 F500.000
G1 X-40.787 Y34.561 Z-0.740 F500.000
G2 X-40.787 Y35.820 Z-0.740 I0.642 J0.629 K0.000 F500.000
G1 X-35.820 Y40.787 Z-0.740 F500.000
G2 X-34.561 Y40.787 Z-0.740 I0.629 J-0.642 K0.000 F500.000
G1 X-33.798 Y40.024 Z-0.740 F500.000
G2 X-33.138 Y40.667 Z-0.740 I3.594 J-3.031 K0.000 F500.000
G2 X-31.976 Y40.587 Z-0.740 I0.534 J-0.717 K0.000 F500.000
G1 X-31.280 Y39.891 Z-0.740 F500.000
G1 X-30.793 Y40.378 Z-0.740 F500.000
G1 X-31.478 Y41.064 Z-0.740 F500.000
G1 X-33.394 Y41.064 Z-0.740 F500.000
G2 X-34.023 Y42.583 Z-0.740 I0.008 J0.893 K0.000 F500.000
G1 X-33.495 Y43.112 Z-0.740 F500.000
G2 X-34.202 Y43.837 Z-0.740 I3.327 J3.956 K0.000 F500.000
G2 X-34.123 Y44.999 Z-0.740 I0.717 J0.534 K0.000 F500.000
G1 X-33.108 Y46.013 Z-0.740 F500.000
G2 X-31.850 Y46.013 Z-0.740 I0.629 J-0.642 K0.000 F500.000
G1 X-29.829 Y43.993 Z-0.740 F500.000
G1 X-29.409 Y44.414 Z-0.740 F500.000
G1 X-29.409 Y44.414 Z-1.480 F300.000
G1 X-33.785 Y48.790 Z-1.480 F500.000
G2 X-34.578 Y48.013 Z-1.480 I-4.337 J3.640 K0.000 F500.000
G2 X-35.740 Y48.093 Z-1.480 I-0.534 J0.717 K0.000 F500.000
G1 X-36.385 Y48.738 Z-1.480 F500.000
G2 X-36.992 Y48.156 Z-1.480 I-2.761 J2.272 K0.000 F500.000
G2 X-38.393 Y48.879 Z-1.480 I-0.512 J0.728 K0.000 F500.000
G1 X-38.393 Y50.874 Z-1.480 F500.000
G1 X-39.046 Y51.528 Z-1.480 F500.000
G1 X-39.573 Y51.001 Z-1.480 F500.000
G2 X-38.830 Y50.240 Z-1.480 I-3.490 J-4.154 K0.000 F500.000
G2 X-38.909 Y49.078 Z-1.480 I-0.717 J-0.534 K0.000 F500.000
G1 X-39.688 Y48.299 Z-1.480 F500.000
G1 X-38.885 Y47.497 Z-1.480 F500.000
G2 X-38.885 Y46.238 Z-1.480 I-0.642 J-0.629 K0.000 F500.000
G1 X-46.238 Y38.885 Z-1.480 F500.000
G2 X-47.497 Y38.885 Z-1.480 I-0.629 J0.642 K0.000 F500.000
G1 X-48.299 Y39.688 Z-1.480 F500.000
G1 X-49.078 Y38.909 Z-1.480 F500.000
G2 X-50.337 Y38.909 Z-1.480 I-0.629 J0.642 K0.000 F500.000
G1 X-51.001 Y39.573 Z-1.480 F500.000
G1 X-51.528 Y39.046 Z-1.480 F500.000
G1 X-50.874 Y38.393 Z-1.480 F500.000
G1 X-48.879 Y38.393 Z-1.480 F500.000
G2 X-48.250 Y36.874 Z-1.480 I-0.008 J-0.893 K0.000 F500.000
G1 X-48.738 Y36.385 Z-1.480 F500.000
G2 X-48.013 Y35.643 Z-1.480 I-3.405 J-4.050 K0.000 F500.000
G2 X-48.093 Y34.481 Z-1.480 I-0.717 J-0.534 K0.000 F500.000
G1 X-48.790 Y33.785 Z-1.480 F500.000
G1 X-44.414 Y29.409 Z-1.480 F500.000
G1 X-44.015 Y29.807 Z-1.480 F500.000
G1 X-46.035 Y31.827 Z-1.480 F500.000
G2 X-46.035 Y33.086 Z-1.480 I0.642 J0.629 K0.000 F500.000
G1 X-45.040 Y34.080 Z-1.480 F500.000
G2 X-43.782 Y34.080 Z-1.480 I0.629 J-0.642 K0.000 F500.000
G1 X-43.154 Y33.452 Z-1.480 F500.000
G2 X-42.461 Y34.120 Z-1.480 I3.177 J-2.602 K0.000 F500.000
G2 X-41.060 Y33.404 Z-1.480 I0.512 J-0.728 K0.000 F500.000
G1 X-41.046 Y31.461 Z-1.480 F500.000
G1 X-40.378 Y30.793 Z-1.480 F500.000
G1 X-40.053 Y31.118 Z-1.480 F500.000
G2 X-40.824 Y31.906 Z-1.480 I3.618 J4.310 K0.000 F500.000
G2 X-40.745 Y33.068 Z-1.480 I0.717 J0.534 K0.000 F500.000
G1 X-40.019 Y33.793 Z-1.480 F500.000
G1 X-40.787 Y34.561 Z-1.480 F500.000
G2 X-40.787 Y35.820 Z-1.480 I0.642 J0.629 K0.000 F500.000
G1 X-35.820 Y40.787 Z-1.480 F500.000
G2 X-34.561 Y40.787 Z-1.480 I0.629 J-0.642 K0.000 F500.000
G1 X-33.798 Y40.024 Z-1.480 F500.000
G2 X-33.138 Y40.667 Z-1.480 I3.594 J-3.031 K0.000 F500.000
G2 X-31.976 Y40.587 Z-1.480 I0.534 J-0.717 K0.000 F500.000
G1 X-31.280 Y39.891 Z-1.480 F500.000
G1 X-30.793 Y40.378 Z-1.480 F500.000
G1 X-31.478 Y41.064 Z-1.480 F500.000
G1 X-33.394 Y41.064 Z-1.480 F500.000
G2 X-34.023 Y42.583 Z-1.480 I0.008 J0.893 K0.000 F500.000
G1 X-33.495 Y43.112 Z-1.480 F500.000
G2 X-34.202 Y43.837 Z-1.480 I3.327 J3.956 K0.000 F500.000
G2 X-34.123 Y44.999 Z-1.480 I0.717 J0.534 K0.000 F500.000
G1 X-33.108 Y46.013 Z-1.480 F500.000
G2 X-31.850 Y46.013 Z-1.480 I0.629 J-0.642 K0.000 F500.000
G1 X-29.829 Y43.993 Z-1.480 F500.000
G1 X-29.409 Y44.414 Z-1.480 F500.000
G1 X-29.409 Y44.414 Z-2.000 F300.000
G1 X-33.785 Y48.790 Z-2.000 F500.000
G2 X-34.578 Y48.013 Z-2.000 I-4.337 J3.640 K0.000 F500.000
G2 X-35.740 Y48.093 Z-2.000 I-0.534 J0.717 K0.000 F500.000
G1 X-36.385 Y48.738 Z-2.000 F500.000
G2 X-36.992 Y48.156 Z-2.000 I-2.761 J2.272 K0.000 F500.000
G2 X-38.393 Y48.879 Z-2.000 I-0.512 J0.728 K0.000 F500.000
G1 X-38.393 Y50.874 Z-2.000 F500.000
G1 X-39.046 Y51.528 Z-2.000 F500.000
G1 X-39.573 Y51.001 Z-2.000 F500.000
G2 X-38.830 Y50.240 Z-2.000 I-3.490 J-4.154 K0.000 F500.000
G2 X-38.909 Y49.078 Z-2.000 I-0.717 J-0.534 K0.000 F500.000
G1 X-39.688 Y48.299 Z-2.000 F500.000
G1 X-38.885 Y47.497 Z-2.000 F500.000
G2 X-38.885 Y46.238 Z-2.000 I-0.642 J-0.629 K0.000 F500.000
G1 X-46.238 Y38.885 Z-2.000 F500.000
G2 X-47.497 Y38.885 Z-2.000 I-0.629 J0.642 K0.000 F500.000
G1 X-48.299 Y39.688 Z-2.000 F500.000
G1 X-49.078 Y38.909 Z-2.000 F500.000
G2 X-50.337 Y38.909 Z-2.000 I-0.629 J0.642 K0.000 F500.000
G1 X-51.001 Y39.573 Z-2.000 F500.000
G1 X-51.528 Y39.046 Z-2.000 F500.000
G1 X-50.874 Y38.393 Z-2.000 F500.000
G1 X-48.879 Y38.393 Z-2.000 F500.000
G2 X-48.250 Y36.874 Z-2.000 I-0.008 J-0.893 K0.000 F500.000
G1 X-48.738 Y36.385 Z-2.000 F500.000
G2 X-48.013 Y35.643 Z-2.000 I-3.405 J-4.050 K0.000 F500.000
G2 X-48.093 Y34.481 Z-2.000 I-0.717 J-0.534 K0.000 F500.000
G1 X-48.790 Y33.785 Z-2.000 F500.000
G1 X-44.414 Y29.409 Z-2.000 F500.000
G1 X-44.015 Y29.807 Z-2.000 F500.000
G1 X-46.035 Y31.827 Z-2.000 F500.000
G2 X-46.035 Y33.086 Z-2.000 I0.642 J0.629 K0.000 F500.000
G1 X-45.040 Y34.080 Z-2.000 F500.000
G2 X-43.782 Y34.080 Z-2.000 I0.629 J-0.642 K0.000 F500.000
G1 X-43.154 Y33.452 Z-2.000 F500.000
G2 X-42.461 Y34.120 Z-2.000 I3.177 J-2.602 K0.000 F500.000
G2 X-41.060 Y33.404 Z-2.000 I0.512 J-0.728 K0.000 F500.000
G1 X-41.046 Y31.461 Z-2.000 F500.000
G1 X-40.378 Y30.793 Z-2.000 F500.000
G1 X-40.053 Y31.118 Z-2.000 F500.000
G2 X-40.824 Y31.906 Z-2.000 I3.618 J4.310 K0.000 F500.000
G2 X-40.745 Y33.068 Z-2.000 I0.717 J0.534 K0.000 F500.000
G1 X-40.019 Y33.793 Z-2.000 F500.000
G1 X-40.787 Y34.561 Z-2.000 F500.000
G2 X-40.787 Y35.820 Z-2.000 I0.642 J0.629 K0.000 F500.000
G1 X-35.820 Y40.787 Z-2.000 F500.000
G2 X-34.561 Y40.787 Z-2.000 I0.629 J-0.642 K0.000 F500.000
G1 X-33.798 Y40.024 Z-2.000 F500.000
G2 X-33.138 Y40.667 Z-2.000 I3.594 J-3.031 K0.000 F500.000
G2 X-31.976 Y40.587 Z-2.000 I0.534 J-0.717 K0.000 F500.000
G1 X-31.280 Y39.891 Z-2.000 F500.000
G1 X-30.793 Y40.378 Z-2.000 F500.000
G1 X-31.478 Y41.064 Z-2.000 F500.000
G1 X-33.394 Y41.064 Z-2.000 F500.000
G2 X-34.023 Y42.583 Z-2.000 I0.008 J0.893 K0.000 F500.000
G1 X-33.495 Y43.112 Z-2.000 F500.000
G2 X-34.202 Y43.837 Z-2.000 I3.327 J3.956 K0.000 F500.000
G2 X-34.123 Y44.999 Z-2.000 I0.717 J0.534 K0.000 F500.000
G1 X-33.108 Y46.013 Z-2.000 F500.000
G2 X-31.850 Y46.013 Z-2.000 I0.629 J-0.642 K0.000 F500.000
G1 X-29.829 Y43.993 Z-2.000 F500.000
G1 X-29.409 Y44.414 Z-2.000 F500.000
G0 Z5.000
G0 X-34.746 Y43.166 Z5.000
G0 X-34.746 Y43.166 Z3.000
G1 X-34.746 Y43.166 Z-0.740 F300.000
G3 X-34.979 Y43.591 Z-0.740 I-0.875 J-0.205 K0.000 F500.000
G1 X-35.950 Y44.561 Z-0.740 F500.000
G3 X-37.209 Y44.561 Z-0.740 I-0.629 J-0.642 K0.000 F500.000
G1 X-38.048 Y43.722 Z-0.740 F500.000
G3 X-38.048 Y42.463 Z-0.740 I0.642 J-0.629 K0.000 F500.000
G1 X-37.077 Y41.493 Z-0.740 F500.000
G3 X-36.668 Y41.263 Z-0.740 I0.674 J0.722 K0.000 F500.000
G3 X-35.818 Y41.493 Z-0.740 I0.221 J0.872 K0.000 F500.000
G1 X-34.979 Y42.332 Z-0.740 F500.000
G3 X-34.746 Y43.166 Z-0.740 I-0.642 J0.629 K0.000 F500.000
G1 X-34.746 Y43.166 Z-1.480 F300.000
G3 X-34.979 Y43.591 Z-1.480 I-0.875 J-0.205 K0.000 F500.000
G1 X-35.950 Y44.561 Z-1.480 F500.000
G3 X-37.209 Y44.561 Z-1.480 I-0.629 J-0.642 K0.000 F500.000
G1 X-38.048 Y43.722 Z-1.480 F500.000
G3 X-38.048 Y42.463 Z-1.480 I0.642 J-0.629 K0.000 F500.000
G1 X-37.077 Y41.493 Z-1.480 F500.000
G3 X-36.668 Y41.263 Z-1.480 I0.674 J0.722 K0.000 F500.000
G3 X-35.818 Y41.493 Z-1.480 I0.221 J0.872 K0.000 F500.000
G1 X-34.979 Y42.332 Z-1.480 F500.000
G3 X-34.746 Y43.166 Z-1.480 I-0.642 J0.629 K0.000 F500.000
G1 X-34.746 Y43.166 Z-2.000 F300.000
G3 X-34.979 Y43.591 Z-2.000 I-0.875 J-0.205 K0.000 F500.000
G1 X-35.950 Y44.561 Z-2.000 F500.000
G3 X-37.209 Y44.561 Z-2.000 I-0.629 J-0.642 K0.000 F500.000
G1 X-38.048 Y43.722 Z-2.000 F500.000
G3 X-38.048 Y42.463 Z-2.000 I0.642 J-0.629 K0.000 F500.000
G1 X-37.077 Y41.493 Z-2.000 F500.000
G3 X-36.668 Y41.263 Z-2.000 I0.674 J0.722 K0.000 F500.000
G3 X-35.818 Y41.493 Z-2.000 I0.221 J0.872 K0.000 F500.000
G1 X-34.979 Y42.332 Z-2.000 F500.000
G3 X-34.746 Y43.166 Z-2.000 I-0.642 J0.629 K0.000 F500.000
G0 Z5.000
G0 X-35.281 Y45.909 Z5.000
G0 X-35.281 Y45.909 Z3.000
G1 X-35.281 Y45.909 Z-0.740 F300.000
G2 X-34.835 Y46.379 Z-0.740 I2.609 J-2.027 K0.000 F500.000
G2 X-36.447 Y46.771 Z-0.740 I-0.296 J2.292 K0.000 F500.000
G2 X-37.176 Y46.546 Z-0.740 I-0.832 J1.407 K0.000 F500.000
G2 X-37.254 Y46.191 Z-0.740 I-1.258 J0.090 K0.000 F500.000
G2 X-35.281 Y45.909 Z-0.740 I0.689 J-2.221 K0.000 F500.000
G1 X-35.281 Y45.909 Z-1.480 F300.000
G2 X-34.835 Y46.379 Z-1.480 I2.609 J-2.027 K0.000 F500.000
G2 X-36.447 Y46.771 Z-1.480 I-0.296 J2.292 K0.000 F500.000
G2 X-37.176 Y46.546 Z-1.480 I-0.832 J1.407 K0.000 F500.000
G2 X-37.254 Y46.191 Z-1.480 I-1.258 J0.090 K0.000 F500.000
G2 X-35.281 Y45.909 Z-1.480 I0.689 J-2.221 K0.000 F500.000
G1 X-35.281 Y45.909 Z-2.000 F300.000
G2 X-34.835 Y46.379 Z-2.000 I2.609 J-2.027 K0.000 F500.000
G2 X-36.447 Y46.771 Z-2.000 I-0.296 J2.292 K0.000 F500.000
G2 X-37.176 Y46.546 Z-2.000 I-0.832 J1.407 K0.000 F500.000
G2 X-37.254 Y46.191 Z-2.000 I-1.258 J0.090 K0.000 F500.000
G2 X-35.281 Y45.909 Z-2.000 I0.689 J-2.221 K0.000 F500.000
G0 Z5.000
G0 X-39.771 Y43.259 Z5.000
G0 X-39.771 Y43.259 Z3.000
G1 X-39.771 Y43.259 Z-0.740 F300.000
G1 X-43.257 Y39.773 Z-0.740 F500.000
G2 X-41.417 Y39.094 Z-0.740 I0.192 J-2.312 K0.000 F500.000
G1 X-40.511 Y38.188 Z-0.740 F500.000
G1 X-38.188 Y40.511 Z-0.740 F500.000
G1 X-39.094 Y41.417 Z-0.740 F500.000
G2 X-39.771 Y43.259 Z-0.740 I1.643 J1.650 K0.000 F500.000
G1 X-39.771 Y43.259 Z-1.480 F300.000
G1 X-43.257 Y39.773 Z-1.480 F500.000
G2 X-41.417 Y39.094 Z-1.480 I0.192 J-2.312 K0.000 F500.000
G1 X-40.511 Y38.188 Z-1.480 F500.000
G1 X-38.188 Y40.511 Z-1.480 F500.000
G1 X-39.094 Y41.417 Z-1.480 F500.000
G2 X-39.771 Y43.259 Z-1.480 I1.643 J1.650 K0.000 F500.000
G1 X-39.771 Y43.259 Z-2.000 F300.000
G1 X-43.257 Y39.773 Z-2.000 F500.000
G2 X-41.417 Y39.094 Z-2.000 I0.192 J-2.312 K0.000 F500.000
G1 X-40.511 Y38.188 Z-2.000 F500.000
G1 X-38.188 Y40.511 Z-2.000 F500.000
G1 X-39.094 Y41.417 Z-2.000 F500.000
G2 X-39.771 Y43.259 Z-2.000 I1.643 J1.650 K0.000 F500.000
G0 Z5.000
G0 X-40.333 Y40.604 Z5.000
G0 X-40.333 Y40.604 Z3.000
G1 X-40.333 Y40.604 Z-0.740 F300.000
G1 X-40.604 Y40.333 Z-0.740 F500.000
G1 X-40.525 Y40.268 Z-0.740 F500.000
G1 X-40.268 Y40.525 Z-0.740 F500.000
G1 X-40.333 Y40.604 Z-0.740 F500.000
G1 X-40.333 Y40.604 Z-1.480 F300.000
G1 X-40.604 Y40.333 Z-1.480 F500.000
G1 X-40.525 Y40.268 Z-1.480 F500.000
G1 X-40.268 Y40.525 Z-1.480 F500.000
G1 X-40.333 Y40.604 Z-1.480 F500.000
G1 X-40.333 Y40.604 Z-2.000 F300.000
G1 X-40.604 Y40.333 Z-2.000 F500.000
G1 X-40.525 Y40.268 Z-2.000 F500.000
G1 X-40.268 Y40.525 Z-2.000 F500.000
G1 X-40.333 Y40.604 Z-2.000 F500.000
G0 Z5.000
G0 X-42.506 Y38.086 Z5.000
G0 X-42.506 Y38.086 Z3.000
G1 X-42.506 Y38.086 Z-0.740 F300.000
G3 X-43.722 Y38.048 Z-0.740 I-0.587 J-0.680 K0.000 F500.000
G1 X-44.561 Y37.209 Z-0.740 F500.000
G3 X-44.561 Y35.950 Z-0.740 I0.642 J-0.629 K0.000 F500.000
G1 X-43.591 Y34.979 Z-0.740 F500.000
G3 X-43.182 Y34.750 Z-0.740 I0.674 J0.722 K0.000 F500.000
G3 X-42.332 Y34.979 Z-0.740 I0.221 J0.872 K0.000 F500.000
G1 X-41.493 Y35.818 Z-0.740 F500.000
G3 X-41.493 Y37.077 Z-0.740 I-0.642 J0.629 K0.000 F500.000
G1 X-42.463 Y38.048 Z-0.740 F500.000
G3 X-42.506 Y38.086 Z-0.740 I-0.629 J-0.642 K0.000 F500.000
G1 X-42.506 Y38.086 Z-1.480 F300.000
G3 X-43.722 Y38.048 Z-1.480 I-0.587 J-0.680 K0.000 F500.000
G1 X-44.561 Y37.209 Z-1.480 F500.000
G3 X-44.561 Y35.950 Z-1.480 I0.642 J-0.629 K0.000 F500.000
G1 X-43.591 Y34.979 Z-1.480 F500.000
G3 X-43.182 Y34.750 Z-1.480 I0.674 J0.722 K0.000 F500.000
G3 X-42.332 Y34.979 Z-1.480 I0.221 J0.872 K0.000 F500.000
G1 X-41.493 Y35.818 Z-1.480 F500.000
G3 X-41.493 Y37.077 Z-1.480 I-0.642 J0.629 K0.000 F500.000
G1 X-42.463 Y38.048 Z-1.480 F500.000
G3 X-42.506 Y38.086 Z-1.480 I-0.629 J-0.642 K0.000 F500.000
G1 X-42.506 Y38.086 Z-2.000 F300.000
G3 X-43.722 Y38.048 Z-2.000 I-0.587 J-0.680 K0.000 F500.000
G1 X-44.561 Y37.209 Z-2.000 F500.000
G3 X-44.561 Y35.950 Z-2.000 I0.642 J-0.629 K0.000 F500.000
G1 X-43.591 Y34.979 Z-2.000 F500.000
G3 X-43.182 Y34.750 Z-2.000 I0.674 J0.722 K0.000 F500.000
G3 X-42.332 Y34.979 Z-2.000 I0.221 J0.872 K0.000 F500.000
G1 X-41.493 Y35.818 Z-2.000 F500.000
G3 X-41.493 Y37.077 Z-2.000 I-0.642 J0.629 K0.000 F500.000
G1 X-42.463 Y38.048 Z-2.000 F500.000
G3 X-42.506 Y38.086 Z-2.000 I-0.629 J-0.642 K0.000 F500.000
G0 Z5.000
G0 X-46.192 Y37.255 Z5.000
G0 X-46.192 Y37.255 Z3.000
G1 X-46.192 Y37.255 Z-0.740 F300.000
G2 X-46.542 Y37.176 Z-0.740 I-0.419 J1.045 K0.000 F500.000
G2 X-46.775 Y36.453 Z-0.740 I-1.622 J0.123 K0.000 F500.000
G2 X-46.380 Y34.833 Z-0.740 I-1.892 J-1.319 K0.000 F500.000
G2 X-45.905 Y35.275 Z-0.740 I2.482 J-2.189 K0.000 F500.000
G2 X-46.192 Y37.255 Z-0.740 I1.940 J1.292 K0.000 F500.000
G1 X-46.192 Y37.255 Z-1.480 F300.000
G2 X-46.542 Y37.176 Z-1.480 I-0.419 J1.045 K0.000 F500.000
G2 X-46.775 Y36.453 Z-1.480 I-1.622 J0.123 K0.000 F500.000
G2 X-46.380 Y34.833 Z-1.480 I-1.892 J-1.319 K0.000 F500.000
G2 X-45.905 Y35.275 Z-1.480 I2.482 J-2.189 K0.000 F500.000
G2 X-46.192 Y37.255 Z-1.480 I1.940 J1.292 K0.000 F500.000
G1 X-46.192 Y37.255 Z-2.000 F300.000
G2 X-46.542 Y37.176 Z-2.000 I-0.419 J1.045 K0.000 F500.000
G2 X-46.775 Y36.453 Z-2.000 I-1.622 J0.123 K0.000 F500.000
G2 X-46.380 Y34.833 Z-2.000 I-1.892 J-1.319 K0.000 F500.000
G2 X-45.905 Y35.275 Z-2.000 I2.482 J-2.189 K0.000 F500.000
G2 X-46.192 Y37.255 Z-2.000 I1.940 J1.292 K0.000 F500.000
G0 Z5.000
G0 Z5.000
G0 X-46.192 Y37.255
G0 X-58.071 Y10.455
G0 X-58.071 Y10.455 Z3.000
G1 X-58.071 Y10.455 Z-0.740 F300.000
G1 X-62.656 Y10.455 Z-0.740 F500.000
G1 X-62.656 Y9.781 Z-0.740 F500.000
G1 X-59.712 Y9.781 Z-0.740 F500.000
G2 X-58.784 Y8.854 Z-0.740 I-0.010 J-0.937 K0.000 F500.000
G1 X-58.784 Y7.354 Z-0.740 F500.000
G2 X-59.671 Y6.468 Z-0.740 I-0.895 J0.009 K0.000 F500.000
G1 X-63.027 Y6.468 Z-0.740 F500.000
G1 X-64.572 Y4.891 Z-0.740 F500.000
G1 X-64.572 Y2.114 Z-0.740 F500.000
G1 X-63.936 Y2.114 Z-0.740 F500.000
G1 X-63.936 Y5.029 Z-0.740 F500.000
G2 X-63.020 Y5.946 Z-0.740 I0.926 J-0.009 K0.000 F500.000
G1 X-61.578 Y5.946 Z-0.740 F500.000
G2 X-60.701 Y5.068 Z-0.740 I-0.008 J-0.886 K0.000 F500.000
G1 X-60.701 Y-4.228 Z-0.740 F500.000
G2 X-61.578 Y-5.106 Z-0.740 I-0.886 J0.008 K0.000 F500.000
G1 X-63.020 Y-5.106 Z-0.740 F500.000
G2 X-63.936 Y-4.189 Z-0.740 I0.009 J0.926 K0.000 F500.000
G1 X-63.936 Y-1.272 Z-0.740 F500.000
G1 X-64.573 Y-1.272 Z-0.740 F500.000
G1 X-64.573 Y-4.051 Z-0.740 F500.000
G1 X-63.027 Y-5.628 Z-0.740 F500.000
G1 X-59.671 Y-5.628 Z-0.740 F500.000
G2 X-58.784 Y-6.514 Z-0.740 I-0.009 J-0.895 K0.000 F500.000
G1 X-58.784 Y-8.012 Z-0.740 F500.000
G2 X-59.712 Y-8.940 Z-0.740 I-0.937 J0.010 K0.000 F500.000
G1 X-62.656 Y-8.940 Z-0.740 F500.000
G1 X-62.656 Y-9.615 Z-0.740 F500.000
G1 X-58.071 Y-9.615 Z-0.740 F500.000
G1 X-58.071 Y-8.544 Z-0.740 F500.000
G2 X-57.186 Y-7.660 Z-0.740 I0.893 J-0.009 K0.000 F500.000
G1 X-56.077 Y-7.660 Z-0.740 F500.000
G1 X-56.077 Y-6.426 Z-0.740 F500.000
G2 X-55.202 Y-5.551 Z-0.740 I0.883 J-0.008 K0.000 F500.000
G1 X-54.198 Y-5.551 Z-0.740 F500.000
G1 X-54.198 Y-4.654 Z-0.740 F500.000
G2 X-52.880 Y-4.056 Z-0.740 I0.795 J-0.000 K0.000 F500.000
G1 X-51.171 Y-5.551 Z-0.740 F500.000
G1 X-50.250 Y-5.551 Z-0.740 F500.000
G1 X-50.250 Y-4.727 Z-0.740 F500.000
G1 X-51.948 Y-2.997 Z-0.740 F500.000
G1 X-53.293 Y-2.997 Z-0.740 F500.000
G2 X-54.198 Y-2.091 Z-0.740 I0.009 J0.915 K0.000 F500.000
G1 X-54.198 Y2.931 Z-0.740 F500.000
G2 X-53.293 Y3.837 Z-0.740 I0.915 J-0.009 K0.000 F500.000
G1 X-51.948 Y3.837 Z-0.740 F500.000
G1 X-50.250 Y5.567 Z-0.740 F500.000
G1 X-50.250 Y6.391 Z-0.740 F500.000
G1 X-51.171 Y6.391 Z-0.740 F500.000
G1 X-52.880 Y4.896 Z-0.740 F500.000
G2 X-54.198 Y5.494 Z-0.740 I-0.524 J0.599 K0.000 F500.000
G1 X-54.198 Y6.391 Z-0.740 F500.000
G2 X-55.327 Y6.403 Z-0.740 I-0.502 J5.735 K0.000 F500.000
G2 X-56.077 Y7.266 Z-0.740 I0.129 J0.870 K0.000 F500.000
G1 X-56.077 Y8.501 Z-0.740 F500.000
G1 X-57.186 Y8.501 Z-0.740 F500.000
G2 X-58.071 Y9.386 Z-0.740 I0.009 J0.893 K0.000 F500.000
G1 X-58.071 Y10.455 Z-0.740 F500.000
G1 X-58.071 Y10.455 Z-1.480 F300.000
G1 X-62.656 Y10.455 Z-1.480 F500.000
G1 X-62.656 Y9.781 Z-1.480 F500.000
G1 X-59.712 Y9.781 Z-1.480 F500.000
