(Exported by FreeCAD)
(Post Processor: script_module)
(Output Time:2024-09-28 17:37:32.519961)
(Begin preamble)
G17 G90
G21
(Begin operation: Fixture)
(Path: Fixture)
G54
(Finish operation: Fixture)
(Begin operation: TC: 1.5 z2)
(Path: TC: 1.5 z2)
(TC: 1.5 z2)
(Begin toolchange)
( M6 T4 )
M3 S24000
(Finish operation: TC: 1.5 z2)
(Begin operation: rosace001)
(Path: rosace001)
(Pocket_Shape)
G0 Z5.000
G0 X0.000 Y0.000
G0 X-39.905 Y-31.280
G0 X-39.905 Y-31.280 Z3.000
G1 X-39.905 Y-31.280 Z-0.750 F300.000
G1 X-40.595 Y-31.969 Z-0.750 F500.000
G3 X-40.675 Y-33.143 Z-0.750 I0.645 J-0.634 K0.000 F500.000
G3 X-40.038 Y-33.798 Z-0.750 I3.643 J2.907 K0.000 F500.000
G1 X-40.794 Y-34.554 Z-0.750 F500.000
G3 X-40.794 Y-35.827 Z-0.750 I0.649 J-0.636 K0.000 F500.000
G1 X-35.827 Y-40.794 Z-0.750 F500.000
G3 X-34.554 Y-40.794 Z-0.750 I0.636 J0.649 K0.000 F500.000
G1 X-33.793 Y-40.033 Z-0.750 F500.000
G1 X-33.075 Y-40.752 Z-0.750 F500.000
G3 X-31.901 Y-40.833 Z-0.750 I0.634 J0.645 K0.000 F500.000
G3 X-31.118 Y-40.067 Z-0.750 I-3.494 J4.358 K0.000 F500.000
G1 X-30.807 Y-40.378 Z-0.750 F500.000
G1 X-31.465 Y-41.036 Z-0.750 F500.000
G1 X-33.404 Y-41.050 Z-0.750 F500.000
G3 X-34.129 Y-42.466 Z-0.750 I0.011 J-0.900 K0.000 F500.000
G3 X-33.466 Y-43.154 Z-0.750 I3.245 J2.463 K0.000 F500.000
G1 X-34.087 Y-43.775 Z-0.750 F500.000
G3 X-34.087 Y-45.047 Z-0.750 I0.649 J-0.636 K0.000 F500.000
G1 X-33.093 Y-46.042 Z-0.750 F500.000
G3 X-31.820 Y-46.042 Z-0.750 I0.636 J0.649 K0.000 F500.000
G1 X-29.807 Y-44.029 Z-0.750 F500.000
G1 X-29.423 Y-44.414 Z-0.750 F500.000
G1 X-33.785 Y-48.775 Z-0.750 F500.000
G1 X-34.474 Y-48.086 Z-0.750 F500.000
G3 X-35.648 Y-48.005 Z-0.750 I-0.634 J-0.645 K0.000 F500.000
G3 X-36.385 Y-48.724 Z-0.750 I3.281 J-4.098 K0.000 F500.000
G1 X-36.867 Y-48.242 Z-0.750 F500.000
G3 X-38.403 Y-48.879 Z-0.750 I-0.633 J-0.644 K0.000 F500.000
G1 X-38.403 Y-50.870 Z-0.750 F500.000
G1 X-39.046 Y-51.513 Z-0.750 F500.000
G1 X-39.559 Y-51.001 Z-0.750 F500.000
G1 X-38.902 Y-50.344 Z-0.750 F500.000
G3 X-38.902 Y-49.071 Z-0.750 I-0.649 J0.636 K0.000 F500.000
G1 X-39.674 Y-48.299 Z-0.750 F500.000
G1 X-38.878 Y-47.504 Z-0.750 F500.000
G3 X-38.878 Y-46.231 Z-0.750 I-0.649 J0.636 K0.000 F500.000
G1 X-46.231 Y-38.878 Z-0.750 F500.000
G3 X-47.504 Y-38.878 Z-0.750 I-0.636 J-0.649 K0.000 F500.000
G1 X-48.299 Y-39.674 Z-0.750 F500.000
G1 X-49.071 Y-38.902 Z-0.750 F500.000
G3 X-50.245 Y-38.821 Z-0.750 I-0.634 J-0.645 K0.000 F500.000
G3 X-51.001 Y-39.559 Z-0.750 I3.367 J-4.203 K0.000 F500.000
G1 X-51.513 Y-39.046 Z-0.750 F500.000
G1 X-50.870 Y-38.403 Z-0.750 F500.000
G1 X-48.879 Y-38.403 Z-0.750 F500.000
G3 X-48.148 Y-36.986 Z-0.750 I-0.005 J0.900 K0.000 F500.000
G3 X-48.724 Y-36.385 Z-0.750 I-2.829 J-2.133 K0.000 F500.000
G1 X-48.086 Y-35.747 Z-0.750 F500.000
G3 X-48.005 Y-34.573 Z-0.750 I-0.645 J0.634 K0.000 F500.000
G3 X-48.775 Y-33.785 Z-0.750 I-4.385 J-3.516 K0.000 F500.000
G1 X-44.414 Y-29.423 Z-0.750 F500.000
G1 X-44.007 Y-29.829 Z-0.750 F500.000
G1 X-46.020 Y-31.843 Z-0.750 F500.000
G3 X-46.020 Y-33.115 Z-0.750 I0.649 J-0.636 K0.000 F500.000
G1 X-45.006 Y-34.130 Z-0.750 F500.000
G3 X-43.831 Y-34.211 Z-0.750 I0.634 J0.645 K0.000 F500.000
G3 X-43.112 Y-33.509 Z-0.750 I-3.204 J4.004 K0.000 F500.000
G1 X-42.590 Y-34.030 Z-0.750 F500.000
G3 X-41.054 Y-33.394 Z-0.750 I0.633 J0.644 K0.000 F500.000
G1 X-41.054 Y-31.483 Z-0.750 F500.000
G1 X-40.378 Y-30.807 Z-0.750 F500.000
G1 X-39.905 Y-31.280 Z-0.750 F500.000
G1 X-39.905 Y-31.280 Z-1.500 F300.000
G1 X-40.595 Y-31.969 Z-1.500 F500.000
G3 X-40.675 Y-33.143 Z-1.500 I0.645 J-0.634 K0.000 F500.000
G3 X-40.038 Y-33.798 Z-1.500 I3.643 J2.907 K0.000 F500.000
G1 X-40.794 Y-34.554 Z-1.500 F500.000
G3 X-40.794 Y-35.827 Z-1.500 I0.649 J-0.636 K0.000 F500.000
G1 X-35.827 Y-40.794 Z-1.500 F500.000
G3 X-34.554 Y-40.794 Z-1.500 I0.636 J0.649 K0.000 F500.000
G1 X-33.793 Y-40.033 Z-1.500 F500.000
G1 X-33.075 Y-40.752 Z-1.500 F500.000
G3 X-31.901 Y-40.833 Z-1.500 I0.634 J0.645 K0.000 F500.000
G3 X-31.118 Y-40.067 Z-1.500 I-3.494 J4.358 K0.000 F500.000
G1 X-30.807 Y-40.378 Z-1.500 F500.000
G1 X-31.465 Y-41.036 Z-1.500 F500.000
G1 X-33.404 Y-41.050 Z-1.500 F500.000
G3 X-34.129 Y-42.466 Z-1.500 I0.011 J-0.900 K0.000 F500.000
G3 X-33.466 Y-43.154 Z-1.500 I3.245 J2.463 K0.000 F500.000
G1 X-34.087 Y-43.775 Z-1.500 F500.000
G3 X-34.087 Y-45.047 Z-1.500 I0.649 J-0.636 K0.000 F500.000
G1 X-33.093 Y-46.042 Z-1.500 F500.000
G3 X-31.820 Y-46.042 Z-1.500 I0.636 J0.649 K0.000 F500.000
G1 X-29.807 Y-44.029 Z-1.500 F500.000
G1 X-29.423 Y-44.414 Z-1.500 F500.000
G1 X-33.785 Y-48.775 Z-1.500 F500.000
G1 X-34.474 Y-48.086 Z-1.500 F500.000
G3 X-35.648 Y-48.005 Z-1.500 I-0.634 J-0.645 K0.000 F500.000
G3 X-36.385 Y-48.724 Z-1.500 I3.281 J-4.098 K0.000 F500.000
G1 X-36.867 Y-48.242 Z-1.500 F500.000
G3 X-38.403 Y-48.879 Z-1.500 I-0.633 J-0.644 K0.000 F500.000
G1 X-38.403 Y-50.870 Z-1.500 F500.000
G1 X-39.046 Y-51.513 Z-1.500 F500.000
G1 X-39.559 Y-51.001 Z-1.500 F500.000
G1 X-38.902 Y-50.344 Z-1.500 F500.000
G3 X-38.902 Y-49.071 Z-1.500 I-0.649 J0.636 K0.000 F500.000
G1 X-39.674 Y-48.299 Z-1.500 F500.000
G1 X-38.878 Y-47.504 Z-1.500 F500.000
G3 X-38.878 Y-46.231 Z-1.500 I-0.649 J0.636 K0.000 F500.000
G1 X-46.231 Y-38.878 Z-1.500 F500.000
G3 X-47.504 Y-38.878 Z-1.500 I-0.636 J-0.649 K0.000 F500.000
G1 X-48.299 Y-39.674 Z-1.500 F500.000
G1 X-49.071 Y-38.902 Z-1.500 F500.000
G3 X-50.245 Y-38.821 Z-1.500 I-0.634 J-0.645 K0.000 F500.000
G3 X-51.001 Y-39.559 Z-1.500 I3.367 J-4.203 K0.000 F500.000
G1 X-51.513 Y-39.046 Z-1.500 F500.000
G1 X-50.870 Y-38.403 Z-1.500 F500.000
G1 X-48.879 Y-38.403 Z-1.500 F500.000
G3 X-48.148 Y-36.986 Z-1.500 I-0.005 J0.900 K0.000 F500.000
G3 X-48.724 Y-36.385 Z-1.500 I-2.829 J-2.133 K0.000 F500.000
G1 X-48.086 Y-35.747 Z-1.500 F500.000
G3 X-48.005 Y-34.573 Z-1.500 I-0.645 J0.634 K0.000 F500.000
G3 X-48.775 Y-33.785 Z-1.500 I-4.385 J-3.516 K0.000 F500.000
G1 X-44.414 Y-29.423 Z-1.500 F500.000
G1 X-44.007 Y-29.829 Z-1.500 F500.000
G1 X-46.020 Y-31.843 Z-1.500 F500.000
G3 X-46.020 Y-33.115 Z-1.500 I0.649 J-0.636 K0.000 F500.000
G1 X-45.006 Y-34.130 Z-1.500 F500.000
G3 X-43.831 Y-34.211 Z-1.500 I0.634 J0.645 K0.000 F500.000
G3 X-43.112 Y-33.509 Z-1.500 I-3.204 J4.004 K0.000 F500.000
G1 X-42.590 Y-34.030 Z-1.500 F500.000
G3 X-41.054 Y-33.394 Z-1.500 I0.633 J0.644 K0.000 F500.000
G1 X-41.054 Y-31.483 Z-1.500 F500.000
G1 X-40.378 Y-30.807 Z-1.500 F500.000
G1 X-39.905 Y-31.280 Z-1.500 F500.000
G1 X-39.905 Y-31.280 Z-2.000 F300.000
G1 X-40.595 Y-31.969 Z-2.000 F500.000
G3 X-40.675 Y-33.143 Z-2.000 I0.645 J-0.634 K0.000 F500.000
G3 X-40.038 Y-33.798 Z-2.000 I3.643 J2.907 K0.000 F500.000
G1 X-40.794 Y-34.554 Z-2.000 F500.000
G3 X-40.794 Y-35.827 Z-2.000 I0.649 J-0.636 K0.000 F500.000
G1 X-35.827 Y-40.794 Z-2.000 F500.000
G3 X-34.554 Y-40.794 Z-2.000 I0.636 J0.649 K0.000 F500.000
G1 X-33.793 Y-40.033 Z-2.000 F500.000
G1 X-33.075 Y-40.752 Z-2.000 F500.000
G3 X-31.901 Y-40.833 Z-2.000 I0.634 J0.645 K0.000 F500.000
G3 X-31.118 Y-40.067 Z-2.000 I-3.494 J4.358 K0.000 F500.000
G1 X-30.807 Y-40.378 Z-2.000 F500.000
G1 X-31.465 Y-41.036 Z-2.000 F500.000
G1 X-33.404 Y-41.050 Z-2.000 F500.000
G3 X-34.129 Y-42.466 Z-2.000 I0.011 J-0.900 K0.000 F500.000
G3 X-33.466 Y-43.154 Z-2.000 I3.245 J2.463 K0.000 F500.000
G1 X-34.087 Y-43.775 Z-2.000 F500.000
G3 X-34.087 Y-45.047 Z-2.000 I0.649 J-0.636 K0.000 F500.000
G1 X-33.093 Y-46.042 Z-2.000 F500.000
G3 X-31.820 Y-46.042 Z-2.000 I0.636 J0.649 K0.000 F500.000
G1 X-29.807 Y-44.029 Z-2.000 F500.000
G1 X-29.423 Y-44.414 Z-2.000 F500.000
G1 X-33.785 Y-48.775 Z-2.000 F500.000
G1 X-34.474 Y-48.086 Z-2.000 F500.000
G3 X-35.648 Y-48.005 Z-2.000 I-0.634 J-0.645 K0.000 F500.000
G3 X-36.385 Y-48.724 Z-2.000 I3.281 J-4.098 K0.000 F500.000
G1 X-36.867 Y-48.242 Z-2.000 F500.000
G3 X-38.403 Y-48.879 Z-2.000 I-0.633 J-0.644 K0.000 F500.000
G1 X-38.403 Y-50.870 Z-2.000 F500.000
G1 X-39.046 Y-51.513 Z-2.000 F500.000
G1 X-39.559 Y-51.001 Z-2.000 F500.000
G1 X-38.902 Y-50.344 Z-2.000 F500.000
G3 X-38.902 Y-49.071 Z-2.000 I-0.649 J0.636 K0.000 F500.000
G1 X-39.674 Y-48.299 Z-2.000 F500.000
G1 X-38.878 Y-47.504 Z-2.000 F500.000
G3 X-38.878 Y-46.231 Z-2.000 I-0.649 J0.636 K0.000 F500.000
G1 X-46.231 Y-38.878 Z-2.000 F500.000
G3 X-47.504 Y-38.878 Z-2.000 I-0.636 J-0.649 K0.000 F500.000
G1 X-48.299 Y-39.674 Z-2.000 F500.000
G1 X-49.071 Y-38.902 Z-2.000 F500.000
G3 X-50.245 Y-38.821 Z-2.000 I-0.634 J-0.645 K0.000 F500.000
G3 X-51.001 Y-39.559 Z-2.000 I3.367 J-4.203 K0.000 F500.000
G1 X-51.513 Y-39.046 Z-2.000 F500.000
G1 X-50.870 Y-38.403 Z-2.000 F500.000
G1 X-48.879 Y-38.403 Z-2.000 F500.000
G3 X-48.148 Y-36.986 Z-2.000 I-0.005 J0.900 K0.000 F500.000
G3 X-48.724 Y-36.385 Z-2.000 I-2.829 J-2.133 K0.000 F500.000
G1 X-48.086 Y-35.747 Z-2.000 F500.000
G3 X-48.005 Y-34.573 Z-2.000 I-0.645 J0.634 K0.000 F500.000
G3 X-48.775 Y-33.785 Z-2.000 I-4.385 J-3.516 K0.000 F500.000
G1 X-44.414 Y-29.423 Z-2.000 F500.000
G1 X-44.007 Y-29.829 Z-2.000 F500.000
G1 X-46.020 Y-31.843 Z-2.000 F500.000
G3 X-46.020 Y-33.115 Z-2.000 I0.649 J-0.636 K0.000 F500.000
G1 X-45.006 Y-34.130 Z-2.000 F500.000
G3 X-43.831 Y-34.211 Z-2.000 I0.634 J0.645 K0.000 F500.000
G3 X-43.112 Y-33.509 Z-2.000 I-3.204 J4.004 K0.000 F500.000
G1 X-42.590 Y-34.030 Z-2.000 F500.000
G3 X-41.054 Y-33.394 Z-2.000 I0.633 J0.644 K0.000 F500.000
G1 X-41.054 Y-31.483 Z-2.000 F500.000
G1 X-40.378 Y-30.807 Z-2.000 F500.000
G1 X-39.905 Y-31.280 Z-2.000 F500.000
G0 Z5.000
G0 X-42.438 Y-34.878 Z5.000
G0 X-42.438 Y-34.878 Z3.000
G1 X-42.438 Y-34.878 Z-0.750 F300.000
G2 X-42.325 Y-34.972 Z-0.750 I-0.523 J-0.743 K0.000 F500.000
G1 X-41.486 Y-35.811 Z-0.750 F500.000
G2 X-41.486 Y-37.084 Z-0.750 I-0.649 J-0.636 K0.000 F500.000
G1 X-42.456 Y-38.055 Z-0.750 F500.000
G2 X-43.315 Y-38.287 Z-0.750 I-0.636 J0.650 K0.000 F500.000
G2 X-43.729 Y-38.055 Z-0.750 I0.267 J0.961 K0.000 F500.000
G1 X-44.568 Y-37.216 Z-0.750 F500.000
G2 X-44.568 Y-35.943 Z-0.750 I0.649 J0.636 K0.000 F500.000
G1 X-43.598 Y-34.972 Z-0.750 F500.000
G2 X-42.438 Y-34.878 Z-0.750 I0.636 J-0.649 K0.000 F500.000
G1 X-42.438 Y-34.878 Z-1.500 F300.000
G2 X-42.325 Y-34.972 Z-1.500 I-0.523 J-0.743 K0.000 F500.000
G1 X-41.486 Y-35.811 Z-1.500 F500.000
G2 X-41.486 Y-37.084 Z-1.500 I-0.649 J-0.636 K0.000 F500.000
G1 X-42.456 Y-38.055 Z-1.500 F500.000
G2 X-43.315 Y-38.287 Z-1.500 I-0.636 J0.650 K0.000 F500.000
G2 X-43.729 Y-38.055 Z-1.500 I0.267 J0.961 K0.000 F500.000
G1 X-44.568 Y-37.216 Z-1.500 F500.000
G2 X-44.568 Y-35.943 Z-1.500 I0.649 J0.636 K0.000 F500.000
G1 X-43.598 Y-34.972 Z-1.500 F500.000
G2 X-42.438 Y-34.878 Z-1.500 I0.636 J-0.649 K0.000 F500.000
G1 X-42.438 Y-34.878 Z-2.000 F300.000
G2 X-42.325 Y-34.972 Z-2.000 I-0.523 J-0.743 K0.000 F500.000
G1 X-41.486 Y-35.811 Z-2.000 F500.000
G2 X-41.486 Y-37.084 Z-2.000 I-0.649 J-0.636 K0.000 F500.000
G1 X-42.456 Y-38.055 Z-2.000 F500.000
G2 X-43.315 Y-38.287 Z-2.000 I-0.636 J0.650 K0.000 F500.000
G2 X-43.729 Y-38.055 Z-2.000 I0.267 J0.961 K0.000 F500.000
G1 X-44.568 Y-37.216 Z-2.000 F500.000
G2 X-44.568 Y-35.943 Z-2.000 I0.649 J0.636 K0.000 F500.000
G1 X-43.598 Y-34.972 Z-2.000 F500.000
G2 X-42.438 Y-34.878 Z-2.000 I0.636 J-0.649 K0.000 F500.000
G0 Z5.000
G0 X-45.533 Y-35.236 Z5.000
G0 X-45.533 Y-35.236 Z3.000
G1 X-45.533 Y-35.236 Z-0.750 F300.000
G3 X-45.575 Y-37.871 Z-0.750 I1.558 J-1.343 K0.000 F500.000
G3 X-46.788 Y-37.421 Z-0.750 I-1.246 J-1.498 K0.000 F500.000
G3 X-47.090 Y-36.416 Z-0.750 I-1.995 J-0.051 K0.000 F500.000
G3 X-47.094 Y-33.800 Z-0.750 I-1.588 J1.305 K0.000 F500.000
G1 X-47.044 Y-33.750 Z-0.750 F500.000
G1 X-46.869 Y-33.964 Z-0.750 F500.000
G1 X-45.854 Y-34.978 Z-0.750 F500.000
G3 X-45.533 Y-35.236 Z-0.750 I1.468 J1.502 K0.000 F500.000
G1 X-45.533 Y-35.236 Z-1.500 F300.000
G3 X-45.575 Y-37.871 Z-1.500 I1.558 J-1.343 K0.000 F500.000
G3 X-46.788 Y-37.421 Z-1.500 I-1.246 J-1.498 K0.000 F500.000
G3 X-47.090 Y-36.416 Z-1.500 I-1.995 J-0.051 K0.000 F500.000
G3 X-47.094 Y-33.800 Z-1.500 I-1.588 J1.305 K0.000 F500.000
G1 X-47.044 Y-33.750 Z-1.500 F500.000
G1 X-46.869 Y-33.964 Z-1.500 F500.000
G1 X-45.854 Y-34.978 Z-1.500 F500.000
G3 X-45.533 Y-35.236 Z-1.500 I1.468 J1.502 K0.000 F500.000
G1 X-45.533 Y-35.236 Z-2.000 F300.000
G3 X-45.575 Y-37.871 Z-2.000 I1.558 J-1.343 K0.000 F500.000
G3 X-46.788 Y-37.421 Z-2.000 I-1.246 J-1.498 K0.000 F500.000
G3 X-47.090 Y-36.416 Z-2.000 I-1.995 J-0.051 K0.000 F500.000
G3 X-47.094 Y-33.800 Z-2.000 I-1.588 J1.305 K0.000 F500.000
G1 X-47.044 Y-33.750 Z-2.000 F500.000
G1 X-46.869 Y-33.964 Z-2.000 F500.000
G1 X-45.854 Y-34.978 Z-2.000 F500.000
G3 X-45.533 Y-35.236 Z-2.000 I1.468 J1.502 K0.000 F500.000
G0 Z5.000
G0 X-44.241 Y-39.171 Z5.000
G0 X-44.241 Y-39.171 Z3.000
G1 X-44.241 Y-39.171 Z-0.750 F300.000
G3 X-41.608 Y-38.903 Z-0.750 I1.153 J1.741 K0.000 F500.000
G1 X-40.637 Y-37.933 Z-0.750 F500.000
G1 X-40.524 Y-37.794 Z-0.750 F500.000
G1 X-37.794 Y-40.524 Z-0.750 F500.000
G1 X-37.933 Y-40.637 Z-0.750 F500.000
G1 X-38.903 Y-41.608 Z-0.750 F500.000
G3 X-39.171 Y-44.241 Z-0.750 I1.495 J-1.482 K0.000 F500.000
G1 X-44.241 Y-39.171 Z-0.750 F500.000
G1 X-44.241 Y-39.171 Z-1.500 F300.000
G3 X-41.608 Y-38.903 Z-1.500 I1.153 J1.741 K0.000 F500.000
G1 X-40.637 Y-37.933 Z-1.500 F500.000
G1 X-40.524 Y-37.794 Z-1.500 F500.000
G1 X-37.794 Y-40.524 Z-1.500 F500.000
G1 X-37.933 Y-40.637 Z-1.500 F500.000
G1 X-38.903 Y-41.608 Z-1.500 F500.000
G3 X-39.171 Y-44.241 Z-1.500 I1.495 J-1.482 K0.000 F500.000
G1 X-44.241 Y-39.171 Z-1.500 F500.000
G1 X-44.241 Y-39.171 Z-2.000 F300.000
G3 X-41.608 Y-38.903 Z-2.000 I1.153 J1.741 K0.000 F500.000
G1 X-40.637 Y-37.933 Z-2.000 F500.000
G1 X-40.524 Y-37.794 Z-2.000 F500.000
G1 X-37.794 Y-40.524 Z-2.000 F500.000
G1 X-37.933 Y-40.637 Z-2.000 F500.000
G1 X-38.903 Y-41.608 Z-2.000 F500.000
G3 X-39.171 Y-44.241 Z-2.000 I1.495 J-1.482 K0.000 F500.000
G1 X-44.241 Y-39.171 Z-2.000 F500.000
G0 Z5.000
G0 X-41.448 Y-40.267 Z5.000
G0 X-41.448 Y-40.267 Z3.000
G1 X-41.448 Y-40.267 Z-0.750 F300.000
G3 X-40.511 Y-39.504 Z-0.750 I-1.566 J2.881 K0.000 F500.000
G1 X-39.504 Y-40.511 Z-0.750 F500.000
G3 X-40.262 Y-41.453 Z-0.750 I1.853 J-2.269 K0.000 F500.000
G3 X-41.448 Y-40.267 Z-0.750 I-3517528.212 J-3517527.026 K0.000 F500.000
G1 X-40.938 Y-40.317 Z-0.750 F300.000
G3 X-40.511 Y-39.963 Z-0.750 I-1.583 J2.345 K0.000 F500.000
G1 X-39.963 Y-40.511 Z-0.750 F500.000
G3 X-40.317 Y-40.938 Z-0.750 I1.991 J-2.010 K0.000 F500.000
G3 X-40.938 Y-40.317 Z-0.750 I-964755.903 J-964755.282 K0.000 F500.000
G1 X-40.938 Y-40.317 Z-1.500 F300.000
G3 X-40.511 Y-39.963 Z-1.500 I-1.583 J2.345 K0.000 F500.000
G1 X-39.963 Y-40.511 Z-1.500 F500.000
G3 X-40.317 Y-40.938 Z-1.500 I1.991 J-2.010 K0.000 F500.000
G3 X-40.938 Y-40.317 Z-1.500 I-964755.903 J-964755.282 K0.000 F500.000
G1 X-41.119 Y-40.061 Z-1.500 F300.000
G3 X-40.511 Y-39.504 Z-1.500 I-1.895 J2.676 K0.000 F500.000
G1 X-39.504 Y-40.511 Z-1.500 F500.000
G3 X-40.262 Y-41.453 Z-1.500 I1.853 J-2.269 K0.000 F500.000
G3 X-41.448 Y-40.267 Z-1.500 I-3517528.212 J-3517527.026 K0.000 F500.000
G3 X-41.119 Y-40.061 Z-1.500 I-1.566 J2.881 K0.000 F500.000
G1 X-41.119 Y-40.061 Z-2.000 F300.000
G3 X-40.511 Y-39.504 Z-2.000 I-1.895 J2.676 K0.000 F500.000
G1 X-39.504 Y-40.511 Z-2.000 F500.000
G3 X-40.262 Y-41.453 Z-2.000 I1.853 J-2.269 K0.000 F500.000
G3 X-41.448 Y-40.267 Z-2.000 I-3517528.212 J-3517527.026 K0.000 F500.000
G3 X-41.119 Y-40.061 Z-2.000 I-1.566 J2.881 K0.000 F500.000
G1 X-40.938 Y-40.317 Z-2.000 F300.000
G3 X-40.511 Y-39.963 Z-2.000 I-1.583 J2.345 K0.000 F500.000
G1 X-39.963 Y-40.511 Z-2.000 F500.000
G3 X-40.317 Y-40.938 Z-2.000 I1.991 J-2.010 K0.000 F500.000
G3 X-40.938 Y-40.317 Z-2.000 I-964755.903 J-964755.282 K0.000 F500.000
G0 Z5.000
G0 X-38.121 Y-42.531 Z5.000
G0 X-38.121 Y-42.531 Z3.000
G1 X-38.121 Y-42.531 Z-0.750 F300.000
G2 X-38.055 Y-42.456 Z-0.750 I0.715 J-0.562 K0.000 F500.000
G1 X-37.084 Y-41.486 Z-0.750 F500.000
G2 X-35.811 Y-41.486 Z-0.750 I0.636 J-0.649 K0.000 F500.000
G1 X-34.972 Y-42.325 Z-0.750 F500.000
G2 X-34.972 Y-43.598 Z-0.750 I-0.649 J-0.636 K0.000 F500.000
G1 X-35.943 Y-44.568 Z-0.750 F500.000
G2 X-36.802 Y-44.800 Z-0.750 I-0.636 J0.650 K0.000 F500.000
G2 X-37.216 Y-44.568 Z-0.750 I0.267 J0.961 K0.000 F500.000
G1 X-38.055 Y-43.729 Z-0.750 F500.000
G2 X-38.121 Y-42.531 Z-0.750 I0.649 J0.636 K0.000 F500.000
G1 X-38.121 Y-42.531 Z-1.500 F300.000
G2 X-38.055 Y-42.456 Z-1.500 I0.715 J-0.562 K0.000 F500.000
G1 X-37.084 Y-41.486 Z-1.500 F500.000
G2 X-35.811 Y-41.486 Z-1.500 I0.636 J-0.649 K0.000 F500.000
G1 X-34.972 Y-42.325 Z-1.500 F500.000
G2 X-34.972 Y-43.598 Z-1.500 I-0.649 J-0.636 K0.000 F500.000
G1 X-35.943 Y-44.568 Z-1.500 F500.000
G2 X-36.802 Y-44.800 Z-1.500 I-0.636 J0.650 K0.000 F500.000
G2 X-37.216 Y-44.568 Z-1.500 I0.267 J0.961 K0.000 F500.000
G1 X-38.055 Y-43.729 Z-1.500 F500.000
G2 X-38.121 Y-42.531 Z-1.500 I0.649 J0.636 K0.000 F500.000
G1 X-38.121 Y-42.531 Z-2.000 F300.000
G2 X-38.055 Y-42.456 Z-2.000 I0.715 J-0.562 K0.000 F500.000
G1 X-37.084 Y-41.486 Z-2.000 F500.000
G2 X-35.811 Y-41.486 Z-2.000 I0.636 J-0.649 K0.000 F500.000
G1 X-34.972 Y-42.325 Z-2.000 F500.000
G2 X-34.972 Y-43.598 Z-2.000 I-0.649 J-0.636 K0.000 F500.000
G1 X-35.943 Y-44.568 Z-2.000 F500.000
G2 X-36.802 Y-44.800 Z-2.000 I-0.636 J0.650 K0.000 F500.000
G2 X-37.216 Y-44.568 Z-2.000 I0.267 J0.961 K0.000 F500.000
G1 X-38.055 Y-43.729 Z-2.000 F500.000
G2 X-38.121 Y-42.531 Z-2.000 I0.649 J0.636 K0.000 F500.000
G0 Z5.000
G0 X-37.871 Y-45.575 Z5.000
G0 X-37.871 Y-45.575 Z3.000
G1 X-37.871 Y-45.575 Z-0.750 F300.000
G3 X-35.225 Y-45.524 Z-0.750 I1.293 J1.601 K0.000 F500.000
G3 X-34.935 Y-45.896 Z-0.750 I1.174 J0.616 K0.000 F500.000
G1 X-33.941 Y-46.890 Z-0.750 F500.000
G1 X-33.752 Y-47.046 Z-0.750 F500.000
G1 X-33.800 Y-47.094 Z-0.750 F500.000
G3 X-36.416 Y-47.090 Z-0.750 I-1.310 J-1.584 K0.000 F500.000
G3 X-37.423 Y-46.789 Z-0.750 I-1.022 J-1.583 K0.000 F500.000
G3 X-37.871 Y-45.575 Z-0.750 I-1.937 J-0.026 K0.000 F500.000
G1 X-37.871 Y-45.575 Z-1.500 F300.000
G3 X-35.225 Y-45.524 Z-1.500 I1.293 J1.601 K0.000 F500.000
G3 X-34.935 Y-45.896 Z-1.500 I1.174 J0.616 K0.000 F500.000
G1 X-33.941 Y-46.890 Z-1.500 F500.000
G1 X-33.752 Y-47.046 Z-1.500 F500.000
G1 X-33.800 Y-47.094 Z-1.500 F500.000
G3 X-36.416 Y-47.090 Z-1.500 I-1.310 J-1.584 K0.000 F500.000
G3 X-37.423 Y-46.789 Z-1.500 I-1.022 J-1.583 K0.000 F500.000
G3 X-37.871 Y-45.575 Z-1.500 I-1.937 J-0.026 K0.000 F500.000
G1 X-37.871 Y-45.575 Z-2.000 F300.000
G3 X-35.225 Y-45.524 Z-2.000 I1.293 J1.601 K0.000 F500.000
G3 X-34.935 Y-45.896 Z-2.000 I1.174 J0.616 K0.000 F500.000
G1 X-33.941 Y-46.890 Z-2.000 F500.000
G1 X-33.752 Y-47.046 Z-2.000 F500.000
G1 X-33.800 Y-47.094 Z-2.000 F500.000
G3 X-36.416 Y-47.090 Z-2.000 I-1.310 J-1.584 K0.000 F500.000
G3 X-37.423 Y-46.789 Z-2.000 I-1.022 J-1.583 K0.000 F500.000
G3 X-37.871 Y-45.575 Z-2.000 I-1.937 J-0.026 K0.000 F500.000
G0 Z5.000
G0 Z5.000
G0 X-37.871 Y-45.575
G0 X-10.445 Y-58.081
G0 X-10.445 Y-58.081 Z3.000
G1 X-10.445 Y-58.081 Z-0.750 F300.000
G1 X-9.386 Y-58.081 Z-0.750 F500.000
G3 X-8.491 Y-57.186 Z-0.750 I-0.009 J0.903 K0.000 F500.000
G1 X-8.491 Y-56.087 Z-0.750 F500.000
G1 X-7.266 Y-56.087 Z-0.750 F500.000
G3 X-6.393 Y-55.329 Z-0.750 I-0.007 J0.889 K0.000 F500.000
G3 X-6.381 Y-54.208 Z-0.750 I-5.682 J0.624 K0.000 F500.000
G1 X-5.494 Y-54.208 Z-0.750 F500.000
G3 X-4.888 Y-52.873 Z-0.750 I-0.000 J0.805 K0.000 F500.000
G1 X-6.381 Y-51.167 Z-0.750 F500.000
G1 X-6.381 Y-50.260 Z-0.750 F500.000
G1 X-5.571 Y-50.260 Z-0.750 F500.000
G1 X-3.847 Y-51.953 Z-0.750 F500.000
G1 X-3.847 Y-53.293 Z-0.750 F500.000
G3 X-2.931 Y-54.208 Z-0.750 I0.925 J0.009 K0.000 F500.000
G1 X2.091 Y-54.208 Z-0.750 F500.000
G3 X3.007 Y-53.293 Z-0.750 I-0.009 J0.925 K0.000 F500.000
G1 X3.007 Y-51.953 Z-0.750 F500.000
G1 X4.731 Y-50.260 Z-0.750 F500.000
G1 X5.541 Y-50.260 Z-0.750 F500.000
G1 X5.541 Y-51.167 Z-0.750 F500.000
G1 X4.048 Y-52.873 Z-0.750 F500.000
G3 X4.654 Y-54.208 Z-0.750 I0.606 J-0.530 K0.000 F500.000
G1 X5.541 Y-54.208 Z-0.750 F500.000
G1 X5.541 Y-55.202 Z-0.750 F500.000
G3 X6.426 Y-56.087 Z-0.750 I0.893 J0.008 K0.000 F500.000
G1 X7.650 Y-56.087 Z-0.750 F500.000
G1 X7.650 Y-57.186 Z-0.750 F500.000
G3 X8.544 Y-58.081 Z-0.750 I0.903 J0.009 K0.000 F500.000
G1 X9.605 Y-58.081 Z-0.750 F500.000
G1 X9.605 Y-62.646 Z-0.750 F500.000
G1 X8.950 Y-62.646 Z-0.750 F500.000
G1 X8.950 Y-59.712 Z-0.750 F500.000
G3 X8.012 Y-58.774 Z-0.750 I-0.947 J-0.010 K0.000 F500.000
G1 X6.514 Y-58.774 Z-0.750 F500.000
G3 X5.618 Y-59.671 Z-0.750 I0.009 J-0.905 K0.000 F500.000
G1 X5.618 Y-63.023 Z-0.750 F500.000
G1 X4.047 Y-64.563 Z-0.750 F500.000
G1 X1.282 Y-64.563 Z-0.750 F500.000
G1 X1.282 Y-63.946 Z-0.750 F500.000
G1 X4.189 Y-63.946 Z-0.750 F500.000
G3 X5.116 Y-63.020 Z-0.750 I-0.009 J0.936 K0.000 F500.000
G1 X5.116 Y-61.578 Z-0.750 F500.000
G3 X4.228 Y-60.691 Z-0.750 I-0.896 J-0.008 K0.000 F500.000
G1 X-5.068 Y-60.691 Z-0.750 F500.000
G3 X-5.956 Y-61.578 Z-0.750 I0.008 J-0.896 K0.000 F500.000
G1 X-5.956 Y-63.020 Z-0.750 F500.000
G3 X-5.029 Y-63.946 Z-0.750 I0.936 J0.009 K0.000 F500.000
G1 X-2.124 Y-63.946 Z-0.750 F500.000
G1 X-2.124 Y-64.562 Z-0.750 F500.000
G1 X-4.887 Y-64.562 Z-0.750 F500.000
G1 X-6.458 Y-63.023 Z-0.750 F500.000
G1 X-6.458 Y-59.671 Z-0.750 F500.000
G3 X-7.354 Y-58.774 Z-0.750 I-0.905 J-0.009 K0.000 F500.000
G1 X-8.854 Y-58.774 Z-0.750 F500.000
G3 X-9.791 Y-59.712 Z-0.750 I0.010 J-0.947 K0.000 F500.000
G1 X-9.791 Y-62.646 Z-0.750 F500.000
G1 X-10.445 Y-62.646 Z-0.750 F500.000
G1 X-10.445 Y-58.081 Z-0.750 F500.000
G1 X-10.445 Y-58.081 Z-1.500 F300.000
G1 X-9.386 Y-58.081 Z-1.500 F500.000
G3 X-8.491 Y-57.186 Z-1.500 I-0.009 J0.903 K0.000 F500.000
G1 X-8.491 Y-56.087 Z-1.500 F500.000
G1 X-7.266 Y-56.087 Z-1.500 F500.000
G3 X-6.393 Y-55.329 Z-1.500 I-0.007 J0.889 K0.000 F500.000
G3 X-6.381 Y-54.208 Z-1.500 I-5.682 J0.624 K0.000 F500.000
G1 X-5.494 Y-54.208 Z-1.500 F500.000
G3 X-4.888 Y-52.873 Z-1.500 I-0.000 J0.805 K0.000 F500.000
G1 X-6.381 Y-51.167 Z-1.500 F500.000
G1 X-6.381 Y-50.260 Z-1.500 F500.000
G1 X-5.571 Y-50.260 Z-1.500 F500.000
G1 X-3.847 Y-51.953 Z-1.500 F500.000
G1 X-3.847 Y-53.293 Z-1.500 F500.000
G3 X-2.931 Y-54.208 Z-1.500 I0.925 J0.009 K0.000 F500.000
G1 X2.091 Y-54.208 Z-1.500 F500.000
G3 X3.007 Y-53.293 Z-1.500 I-0.009 J0.925 K0.000 F500.000
G1 X3.007 Y-51.953 Z-1.500 F500.000
G1 X4.731 Y-50.260 Z-1.500 F500.000
G1 X5.541 Y-50.260 Z-1.500 F500.000
G1 X5.541 Y-51.167 Z-1.500 F500.000
G1 X4.048 Y-52.873 Z-1.500 F500.000
G3 X4.654 Y-54.208 Z-1.500 I0.606 J-0.530 K0.000 F500.000
G1 X5.541 Y-54.208 Z-1.500 F500.000
G1 X5.541 Y-55.202 Z-1.500 F500.000
G3 X6.426 Y-56.087 Z-1.500 I0.893 J0.008 K0.000 F500.000
G1 X7.650 Y-56.087 Z-1.500 F500.000
G1 X7.650 Y-57.186 Z-1.500 F500.000
G3 X8.544 Y-58.081 Z-1.500 I0.903 J0.009 K0.000 F500.000
G1 X9.605 Y-58.081 Z-1.500 F500.000
G1 X9.605 Y-62.646 Z-1.500 F500.000
G1 X8.950 Y-62.646 Z-1.500 F500.000
G1 X8.950 Y-59.712 Z-1.500 F500.000
G3 X8.012 Y-58.774 Z-1.500 I-0.947 J-0.010 K0.000 F500.000
G1 X6.514 Y-58.774 Z-1.500 F500.000
G3 X5.618 Y-59.671 Z-1.500 I0.009 J-0.905 K0.000 F500.000
G1 X5.618 Y-63.023 Z-1.500 F500.000
G1 X4.047 Y-64.563 Z-1.500 F500.000
G1 X1.282 Y-64.563 Z-1.500 F500.000
G1 X1.282 Y-63.946 Z-1.500 F500.000
G1 X4.189 Y-63.946 Z-1.500 F500.000
G3 X5.116 Y-63.020 Z-1.500 I-0.009 J0.936 K0.000 F500.000
G1 X5.116 Y-61.578 Z-1.500 F500.000
G3 X4.228 Y-60.691 Z-1.500 I-0.896 J-0.008 K0.000 F500.000
G1 X-5.068 Y-60.691 Z-1.500 F500.000
G3 X-5.956 Y-61.578 Z-1.500 I0.008 J-0.896 K0.000 F500.000
G1 X-5.956 Y-63.020 Z-1.500 F500.000
G3 X-5.029 Y-63.946 Z-1.500 I0.936 J0.009 K0.000 F500.000
G1 X-2.124 Y-63.946 Z-1.500 F500.000
G1 X-2.124 Y-64.562 Z-1.500 F500.000
G1 X-4.887 Y-64.562 Z-1.500 F500.000
G1 X-6.458 Y-63.023 Z-1.500 F500.000
G1 X-6.458 Y-59.671 Z-1.500 F500.000
G3 X-7.354 Y-58.774 Z-1.500 I-0.905 J-0.009 K0.000 F500.000
G1 X-8.854 Y-58.774 Z-1.500 F500.000
G3 X-9.791 Y-59.712 Z-1.500 I0.010 J-0.947 K0.000 F500.000
G1 X-9.791 Y-62.646 Z-1.500 F500.000
G1 X-10.445 Y-62.646 Z-1.500 F500.000
G1 X-10.445 Y-58.081 Z-1.500 F500.000
G1 X-10.445 Y-58.081 Z-2.000 F300.000
G1 X-9.386 Y-58.081 Z-2.000 F500.000
G3 X-8.491 Y-57.186 Z-2.000 I-0.009 J0.903 K0.000 F500.000
G1 X-8.491 Y-56.087 Z-2.000 F500.000
G1 X-7.266 Y-56.087 Z-2.000 F500.000
G3 X-6.393 Y-55.329 Z-2.000 I-0.007 J0.889 K0.000 F500.000
G3 X-6.381 Y-54.208 Z-2.000 I-5.682 J0.624 K0.000 F500.000
G1 X-5.494 Y-54.208 Z-2.000 F500.000
G3 X-4.888 Y-52.873 Z-2.000 I-0.000 J0.805 K0.000 F500.000
G1 X-6.381 Y-51.167 Z-2.000 F500.000
G1 X-6.381 Y-50.260 Z-2.000 F500.000
G1 X-5.571 Y-50.260 Z-2.000 F500.000
G1 X-3.847 Y-51.953 Z-2.000 F500.000
G1 X-3.847 Y-53.293 Z-2.000 F500.000
G3 X-2.931 Y-54.208 Z-2.000 I0.925 J0.009 K0.000 F500.000
G1 X2.091 Y-54.208 Z-2.000 F500.000
G3 X3.007 Y-53.293 Z-2.000 I-0.009 J0.925 K0.000 F500.000
G1 X3.007 Y-51.953 Z-2.000 F500.000
G1 X4.731 Y-50.260 Z-2.000 F500.000
G1 X5.541 Y-50.260 Z-2.000 F500.000
G1 X5.541 Y-51.167 Z-2.000 F500.000
G1 X4.048 Y-52.873 Z-2.000 F500.000
G3 X4.654 Y-54.208 Z-2.000 I0.606 J-0.530 K0.000 F500.000
G1 X5.541 Y-54.208 Z-2.000 F500.000
G1 X5.541 Y-55.202 Z-2.000 F500.000
G3 X6.426 Y-56.087 Z-2.000 I0.893 J0.008 K0.000 F500.000
G1 X7.650 Y-56.087 Z-2.000 F500.000
G1 X7.650 Y-57.186 Z-2.000 F500.000
G3 X8.544 Y-58.081 Z-2.000 I0.903 J0.009 K0.000 F500.000
G1 X9.605 Y-58.081 Z-2.000 F500.000
G1 X9.605 Y-62.646 Z-2.000 F500.000
G1 X8.950 Y-62.646 Z-2.000 F500.000
G1 X8.950 Y-59.712 Z-2.000 F500.000
G3 X8.012 Y-58.774 Z-2.000 I-0.947 J-0.010 K0.000 F500.000
G1 X6.514 Y-58.774 Z-2.000 F500.000
G3 X5.618 Y-59.671 Z-2.000 I0.009 J-0.905 K0.000 F500.000
G1 X5.618 Y-63.023 Z-2.000 F500.000
G1 X4.047 Y-64.563 Z-2.000 F500.000
G1 X1.282 Y-64.563 Z-2.000 F500.000
G1 X1.282 Y-63.946 Z-2.000 F500.000
G1 X4.189 Y-63.946 Z-2.000 F500.000
G3 X5.116 Y-63.020 Z-2.000 I-0.009 J0.936 K0.000 F500.000
G1 X5.116 Y-61.578 Z-2.000 F500.000
G3 X4.228 Y-60.691 Z-2.000 I-0.896 J-0.008 K0.000 F500.000
G1 X-5.068 Y-60.691 Z-2.000 F500.000
G3 X-5.956 Y-61.578 Z-2.000 I0.008 J-0.896 K0.000 F500.000
G1 X-5.956 Y-63.020 Z-2.000 F500.000
G3 X-5.029 Y-63.946 Z-2.000 I0.936 J0.009 K0.000 F500.000
G1 X-2.124 Y-63.946 Z-2.000 F500.000
G1 X-2.124 Y-64.562 Z-2.000 F500.000
G1 X-4.887 Y-64.562 Z-2.000 F500.000
G1 X-6.458 Y-63.023 Z-2.000 F500.000
G1 X-6.458 Y-59.671 Z-2.000 F500.000
G3 X-7.354 Y-58.774 Z-2.000 I-0.905 J-0.009 K0.000 F500.000
G1 X-8.854 Y-58.774 Z-2.000 F500.000
G3 X-9.791 Y-59.712 Z-2.000 I0.010 J-0.947 K0.000 F500.000
G1 X-9.791 Y-62.646 Z-2.000 F500.000
G1 X-10.445 Y-62.646 Z-2.000 F500.000
G1 X-10.445 Y-58.081 Z-2.000 F500.000
G0 Z5.000
G0 X-7.333 Y-57.576 Z5.000
G0 X-7.333 Y-57.576 Z3.000
G1 X-7.333 Y-57.576 Z-0.750 F300.000
G3 X-7.301 Y-57.287 Z-0.750 I-1.453 J0.304 K0.000 F500.000
G3 X-7.123 Y-57.273 Z-0.750 I0.018 J0.910 K0.000 F500.000
G3 X-7.089 Y-57.600 Z-0.750 I1.679 J0.012 K0.000 F500.000
G1 X-7.333 Y-57.576 Z-0.750 F500.000
G1 X-5.918 Y-57.349 Z-0.750 F300.000
G2 X-5.929 Y-57.215 Z-0.750 I0.887 J0.143 K0.000 F500.000
G1 X-5.929 Y-55.675 Z-0.750 F500.000
G2 X-5.039 Y-54.785 Z-0.750 I0.899 J-0.009 K0.000 F500.000
G1 X-3.436 Y-54.785 Z-0.750 F500.000
G2 X-2.546 Y-55.675 Z-0.750 I-0.009 J-0.899 K0.000 F500.000
G1 X-2.546 Y-57.215 Z-0.750 F500.000
G2 X-3.436 Y-58.105 Z-0.750 I-0.899 J0.009 K0.000 F500.000
G1 X-5.039 Y-58.105 Z-0.750 F500.000
G2 X-5.918 Y-57.349 Z-0.750 I0.009 J0.899 K0.000 F500.000
G1 X-5.918 Y-57.349 Z-1.500 F300.000
G2 X-5.929 Y-57.215 Z-1.500 I0.887 J0.143 K0.000 F500.000
G1 X-5.929 Y-55.675 Z-1.500 F500.000
G2 X-5.039 Y-54.785 Z-1.500 I0.899 J-0.009 K0.000 F500.000
G1 X-3.436 Y-54.785 Z-1.500 F500.000
G2 X-2.546 Y-55.675 Z-1.500 I-0.009 J-0.899 K0.000 F500.000
G1 X-2.546 Y-57.215 Z-1.500 F500.000
G2 X-3.436 Y-58.105 Z-1.500 I-0.899 J0.009 K0.000 F500.000
G1 X-5.039 Y-58.105 Z-1.500 F500.000
G2 X-5.918 Y-57.349 Z-1.500 I0.009 J0.899 K0.000 F500.000
G1 X-7.095 Y-57.569 Z-1.500 F300.000
G3 X-7.089 Y-57.600 Z-1.500 I1.651 J0.308 K0.000 F500.000
G1 X-7.333 Y-57.576 Z-1.500 F500.000
G3 X-7.301 Y-57.287 Z-1.500 I-1.453 J0.304 K0.000 F500.000
G3 X-7.123 Y-57.273 Z-1.500 I0.018 J0.910 K0.000 F500.000
G3 X-7.095 Y-57.569 Z-1.500 I1.679 J0.012 K0.000 F500.000
G1 X-7.095 Y-57.569 Z-2.000 F300.000
G3 X-7.089 Y-57.600 Z-2.000 I1.651 J0.308 K0.000 F500.000
G1 X-7.333 Y-57.576 Z-2.000 F500.000
G3 X-7.301 Y-57.287 Z-2.000 I-1.453 J0.304 K0.000 F500.000
G3 X-7.123 Y-57.273 Z-2.000 I0.018 J0.910 K0.000 F500.000
G3 X-7.095 Y-57.569 Z-2.000 I1.679 J0.012 K0.000 F500.000
G1 X-5.915 Y-57.362 Z-2.000 F300.000
G2 X-5.929 Y-57.215 Z-2.000 I0.885 J0.155 K0.000 F500.000
G1 X-5.929 Y-55.675 Z-2.000 F500.000
G2 X-5.039 Y-54.785 Z-2.000 I0.899 J-0.009 K0.000 F500.000
G1 X-3.436 Y-54.785 Z-2.000 F500.000
G2 X-2.546 Y-55.675 Z-2.000 I-0.009 J-0.899 K0.000 F500.000
G1 X-2.546 Y-57.215 Z-2.000 F500.000
G2 X-3.436 Y-58.105 Z-2.000 I-0.899 J0.009 K0.000 F500.000
G1 X-5.039 Y-58.105 Z-2.000 F500.000
G2 X-5.915 Y-57.362 Z-2.000 I0.009 J0.899 K0.000 F500.000
G0 Z5.000
G0 X-5.299 Y-59.279 Z5.000
G0 X-5.299 Y-59.279 Z3.000
G1 X-5.299 Y-59.279 Z-0.750 F300.000
G1 X-5.039 Y-59.305 Z-0.750 F500.000
G1 X-3.436 Y-59.305 Z-0.750 F500.000
G3 X-1.346 Y-57.215 Z-0.750 I-0.000 J2.090 K0.000 F500.000
G1 X-1.346 Y-55.675 Z-0.750 F500.000
G1 X-1.372 Y-55.408 Z-0.750 F500.000
G1 X0.532 Y-55.408 Z-0.750 F500.000
G1 X0.506 Y-55.675 Z-0.750 F500.000
G1 X0.506 Y-57.215 Z-0.750 F500.000
G3 X2.596 Y-59.305 Z-0.750 I2.090 J0.000 K0.000 F500.000
G1 X4.199 Y-59.305 Z-0.750 F500.000
G1 X4.459 Y-59.279 Z-0.750 F500.000
G3 X4.433 Y-59.511 Z-0.750 I1.164 J-0.248 K0.000 F500.000
G1 X4.228 Y-59.491 Z-0.750 F500.000
G1 X-5.068 Y-59.491 Z-0.750 F500.000
G1 X-5.273 Y-59.511 Z-0.750 F500.000
G3 X-5.299 Y-59.279 Z-0.750 I-1.191 J-0.016 K0.000 F500.000
G1 X-5.299 Y-59.279 Z-1.500 F300.000
G1 X-5.039 Y-59.305 Z-1.500 F500.000
G1 X-3.436 Y-59.305 Z-1.500 F500.000
G3 X-1.346 Y-57.215 Z-1.500 I-0.000 J2.090 K0.000 F500.000
G1 X-1.346 Y-55.675 Z-1.500 F500.000
G1 X-1.372 Y-55.408 Z-1.500 F500.000
G1 X0.532 Y-55.408 Z-1.500 F500.000
G1 X0.506 Y-55.675 Z-1.500 F500.000
G1 X0.506 Y-57.215 Z-1.500 F500.000
G3 X2.596 Y-59.305 Z-1.500 I2.090 J0.000 K0.000 F500.000
G1 X4.199 Y-59.305 Z-1.500 F500.000
G1 X4.459 Y-59.279 Z-1.500 F500.000
G3 X4.433 Y-59.511 Z-1.500 I1.164 J-0.248 K0.000 F500.000
G1 X4.228 Y-59.491 Z-1.500 F500.000
G1 X-5.068 Y-59.491 Z-1.500 F500.000
G1 X-5.273 Y-59.511 Z-1.500 F500.000
G3 X-5.299 Y-59.279 Z-1.500 I-1.191 J-0.016 K0.000 F500.000
G1 X-5.299 Y-59.279 Z-2.000 F300.000
G1 X-5.039 Y-59.305 Z-2.000 F500.000
G1 X-3.436 Y-59.305 Z-2.000 F500.000
G3 X-1.346 Y-57.215 Z-2.000 I-0.000 J2.090 K0.000 F500.000
G1 X-1.346 Y-55.675 Z-2.000 F500.000
G1 X-1.372 Y-55.408 Z-2.000 F500.000
G1 X0.532 Y-55.408 Z-2.000 F500.000
G1 X0.506 Y-55.675 Z-2.000 F500.000
G1 X0.506 Y-57.215 Z-2.000 F500.000
G3 X2.596 Y-59.305 Z-2.000 I2.090 J0.000 K0.000 F500.000
G1 X4.199 Y-59.305 Z-2.000 F500.000
G1 X4.459 Y-59.279 Z-2.000 F500.000
G3 X4.433 Y-59.511 Z-2.000 I1.164 J-0.248 K0.000 F500.000
G1 X4.228 Y-59.491 Z-2.000 F500.000
G1 X-5.068 Y-59.491 Z-2.000 F500.000
G1 X-5.273 Y-59.511 Z-2.000 F500.000
G3 X-5.299 Y-59.279 Z-2.000 I-1.191 J-0.016 K0.000 F500.000
G0 Z5.000
G0 X-2.025 Y-59.166 Z5.000
G0 X-2.025 Y-59.166 Z3.000
G1 X-2.025 Y-59.166 Z-0.750 F300.000
G3 X-1.021 Y-57.215 Z-0.750 I-1.405 J1.957 K0.000 F500.000
G1 X-1.021 Y-55.733 Z-0.750 F500.000
G1 X0.181 Y-55.733 Z-0.750 F500.000
G1 X0.181 Y-57.215 Z-0.750 F500.000
G3 X1.185 Y-59.166 Z-0.750 I2.387 J-0.006 K0.000 F500.000
G1 X-2.025 Y-59.166 Z-0.750 F500.000
G1 X-1.242 Y-58.841 Z-0.750 F300.000
G3 X-0.744 Y-57.703 Z-0.750 I-1.931 J1.522 K0.000 F500.000
G3 X-0.696 Y-56.058 Z-0.750 I-8.323 J1.066 K0.000 F500.000
G1 X-0.144 Y-56.058 Z-0.750 F500.000
G1 X-0.144 Y-57.215 Z-0.750 F500.000
G3 X0.404 Y-58.841 Z-0.750 I2.598 J-0.030 K0.000 F500.000
G1 X-1.242 Y-58.841 Z-0.750 F500.000
G1 X-0.680 Y-58.516 Z-0.750 F300.000
G3 X-0.420 Y-57.713 Z-0.750 I-2.025 J1.099 K0.000 F500.000
G1 X-0.415 Y-57.766 Z-0.750 F500.000
G3 X-0.201 Y-58.468 Z-0.750 I3.182 J0.585 K0.000 F500.000
G1 X-0.174 Y-58.516 Z-0.750 F500.000
G1 X-0.680 Y-58.516 Z-0.750 F500.000
G1 X-0.680 Y-58.516 Z-1.500 F300.000
G3 X-0.420 Y-57.713 Z-1.500 I-2.025 J1.099 K0.000 F500.000
G1 X-0.415 Y-57.766 Z-1.500 F500.000
G3 X-0.201 Y-58.468 Z-1.500 I3.182 J0.585 K0.000 F500.000
G1 X-0.174 Y-58.516 Z-1.500 F500.000
G1 X-0.680 Y-58.516 Z-1.500 F500.000
G1 X-0.956 Y-58.383 Z-1.500 F300.000
G3 X-0.744 Y-57.703 Z-1.500 I-2.217 J1.065 K0.000 F500.000
G3 X-0.696 Y-56.058 Z-1.500 I-8.323 J1.066 K0.000 F500.000
G1 X-0.144 Y-56.058 Z-1.500 F500.000
G1 X-0.144 Y-57.215 Z-1.500 F500.000
G3 X0.404 Y-58.841 Z-1.500 I2.598 J-0.030 K0.000 F500.000
G1 X-1.242 Y-58.841 Z-1.500 F500.000
G3 X-0.956 Y-58.383 Z-1.500 I-1.931 J1.522 K0.000 F500.000
G1 X-1.254 Y-58.242 Z-1.500 F300.000
G3 X-1.021 Y-57.215 Z-1.500 I-2.177 J1.033 K0.000 F500.000
G1 X-1.021 Y-55.733 Z-1.500 F500.000
G1 X0.181 Y-55.733 Z-1.500 F500.000
G1 X0.181 Y-57.215 Z-1.500 F500.000
G3 X1.185 Y-59.166 Z-1.500 I2.387 J-0.006 K0.000 F500.000
G1 X-2.025 Y-59.166 Z-1.500 F500.000
G3 X-1.254 Y-58.242 Z-1.500 I-1.405 J1.957 K0.000 F500.000
G1 X-0.957 Y-58.385 Z-2.000 F300.000
G3 X-0.744 Y-57.703 Z-2.000 I-2.216 J1.066 K0.000 F500.000
G3 X-0.696 Y-56.058 Z-2.000 I-8.323 J1.066 K0.000 F500.000
G1 X-0.144 Y-56.058 Z-2.000 F500.000
G1 X-0.144 Y-57.215 Z-2.000 F500.000
G3 X0.404 Y-58.841 Z-2.000 I2.598 J-0.030 K0.000 F500.000
G1 X-1.242 Y-58.841 Z-2.000 F500.000
G3 X-0.957 Y-58.385 Z-2.000 I-1.931 J1.522 K0.000 F500.000
G1 X-0.680 Y-58.516 Z-2.000 F300.000
G3 X-0.420 Y-57.713 Z-2.000 I-2.025 J1.099 K0.000 F500.000
G1 X-0.415 Y-57.766 Z-2.000 F500.000
G3 X-0.201 Y-58.468 Z-2.000 I3.182 J0.585 K0.000 F500.000
G1 X-0.174 Y-58.516 Z-2.000 F500.000
G1 X-0.680 Y-58.516 Z-2.000 F500.000
G1 X-1.254 Y-58.243 Z-2.000 F300.000
G3 X-1.021 Y-57.215 Z-2.000 I-2.176 J1.034 K0.000 F500.000
G1 X-1.021 Y-55.733 Z-2.000 F500.000
G1 X0.181 Y-55.733 Z-2.000 F500.000
G1 X0.181 Y-57.215 Z-2.000 F500.000
G3 X1.185 Y-59.166 Z-2.000 I2.387 J-0.006 K0.000 F500.000
G1 X-2.025 Y-59.166 Z-2.000 F500.000
G3 X-1.254 Y-58.243 Z-2.000 I-1.405 J1.957 K0.000 F500.000
G0 Z5.000
G0 X1.737 Y-57.440 Z5.000
G0 X1.737 Y-57.440 Z3.000
G1 X1.737 Y-57.440 Z-0.750 F300.000
G2 X1.706 Y-57.215 Z-0.750 I0.868 J0.233 K0.000 F500.000
G1 X1.706 Y-55.675 Z-0.750 F500.000
G2 X2.596 Y-54.785 Z-0.750 I0.899 J-0.009 K0.000 F500.000
G1 X4.199 Y-54.785 Z-0.750 F500.000
G2 X5.089 Y-55.675 Z-0.750 I-0.009 J-0.899 K0.000 F500.000
G1 X5.089 Y-57.215 Z-0.750 F500.000
G2 X4.199 Y-58.105 Z-0.750 I-0.899 J0.009 K0.000 F500.000
G1 X2.596 Y-58.105 Z-0.750 F500.000
G2 X1.737 Y-57.440 Z-0.750 I0.009 J0.899 K0.000 F500.000
G1 X1.737 Y-57.440 Z-1.500 F300.000
G2 X1.706 Y-57.215 Z-1.500 I0.868 J0.233 K0.000 F500.000
G1 X1.706 Y-55.675 Z-1.500 F500.000
G2 X2.596 Y-54.785 Z-1.500 I0.899 J-0.009 K0.000 F500.000
G1 X4.199 Y-54.785 Z-1.500 F500.000
G2 X5.089 Y-55.675 Z-1.500 I-0.009 J-0.899 K0.000 F500.000
G1 X5.089 Y-57.215 Z-1.500 F500.000
G2 X4.199 Y-58.105 Z-1.500 I-0.899 J0.009 K0.000 F500.000
G1 X2.596 Y-58.105 Z-1.500 F500.000
G2 X1.737 Y-57.440 Z-1.500 I0.009 J0.899 K0.000 F500.000
G1 X1.737 Y-57.440 Z-2.000 F300.000
G2 X1.706 Y-57.215 Z-2.000 I0.868 J0.233 K0.000 F500.000
G1 X1.706 Y-55.675 Z-2.000 F500.000
G2 X2.596 Y-54.785 Z-2.000 I0.899 J-0.009 K0.000 F500.000
G1 X4.199 Y-54.785 Z-2.000 F500.000
G2 X5.089 Y-55.675 Z-2.000 I-0.009 J-0.899 K0.000 F500.000
G1 X5.089 Y-57.215 Z-2.000 F500.000
G2 X4.199 Y-58.105 Z-2.000 I-0.899 J0.009 K0.000 F500.000
G1 X2.596 Y-58.105 Z-2.000 F500.000
G2 X1.737 Y-57.440 Z-2.000 I0.009 J0.899 K0.000 F500.000
G0 Z5.000
G0 X6.249 Y-57.600 Z5.000
G0 X6.249 Y-57.600 Z3.000
G1 X6.249 Y-57.600 Z-0.750 F300.000
G3 X6.283 Y-57.273 Z-0.750 I-1.645 J0.340 K0.000 F500.000
G3 X6.459 Y-57.287 Z-0.750 I0.159 J0.887 K0.000 F500.000
G3 X6.491 Y-57.576 Z-0.750 I1.485 J0.015 K0.000 F500.000
G1 X6.249 Y-57.600 Z-0.750 F500.000
G1 X6.249 Y-57.600 Z-1.500 F300.000
G3 X6.283 Y-57.273 Z-1.500 I-1.645 J0.340 K0.000 F500.000
G3 X6.459 Y-57.287 Z-1.500 I0.159 J0.887 K0.000 F500.000
G3 X6.491 Y-57.576 Z-1.500 I1.485 J0.015 K0.000 F500.000
G1 X6.249 Y-57.600 Z-1.500 F500.000
G1 X6.249 Y-57.600 Z-2.000 F300.000
G3 X6.283 Y-57.273 Z-2.000 I-1.645 J0.340 K0.000 F500.000
G3 X6.459 Y-57.287 Z-2.000 I0.159 J0.887 K0.000 F500.000
G3 X6.491 Y-57.576 Z-2.000 I1.485 J0.015 K0.000 F500.000
G1 X6.249 Y-57.600 Z-2.000 F500.000
G0 Z5.000
G0 Z5.000
G0 X6.249 Y-57.600
G0 X29.423 Y-44.414
G0 X29.423 Y-44.414 Z3.000
G1 X29.423 Y-44.414 Z-0.750 F300.000
G1 X29.829 Y-44.007 Z-0.750 F500.000
G1 X31.843 Y-46.020 Z-0.750 F500.000
G3 X33.115 Y-46.020 Z-0.750 I0.636 J0.649 K0.000 F500.000
G1 X34.130 Y-45.006 Z-0.750 F500.000
G3 X34.211 Y-43.831 Z-0.750 I-0.645 J0.634 K0.000 F500.000
G3 X33.509 Y-43.112 Z-0.750 I-4.004 J-3.204 K0.000 F500.000
G1 X34.030 Y-42.590 Z-0.750 F500.000
G3 X33.394 Y-41.054 Z-0.750 I-0.644 J0.633 K0.000 F500.000
G1 X31.483 Y-41.054 Z-0.750 F500.000
G1 X30.807 Y-40.378 Z-0.750 F500.000
G1 X31.280 Y-39.905 Z-0.750 F500.000
G1 X31.969 Y-40.595 Z-0.750 F500.000
G3 X33.143 Y-40.675 Z-0.750 I0.634 J0.645 K0.000 F500.000
G3 X33.798 Y-40.038 Z-0.750 I-2.907 J3.643 K0.000 F500.000
G1 X34.554 Y-40.794 Z-0.750 F500.000
G3 X35.827 Y-40.794 Z-0.750 I0.636 J0.649 K0.000 F500.000
G1 X40.794 Y-35.827 Z-0.750 F500.000
G3 X40.794 Y-34.554 Z-0.750 I-0.649 J0.636 K0.000 F500.000
G1 X40.033 Y-33.793 Z-0.750 F500.000
G1 X40.752 Y-33.075 Z-0.750 F500.000
G3 X40.833 Y-31.901 Z-0.750 I-0.645 J0.634 K0.000 F500.000
G3 X40.067 Y-31.118 Z-0.750 I-4.358 J-3.494 K0.000 F500.000
G1 X40.378 Y-30.807 Z-0.750 F500.000
G1 X41.036 Y-31.465 Z-0.750 F500.000
G1 X41.050 Y-33.404 Z-0.750 F500.000
G3 X42.466 Y-34.129 Z-0.750 I0.900 J0.011 K0.000 F500.000
G3 X43.154 Y-33.466 Z-0.750 I-2.463 J3.245 K0.000 F500.000
G1 X43.775 Y-34.087 Z-0.750 F500.000
G3 X45.047 Y-34.087 Z-0.750 I0.636 J0.649 K0.000 F500.000
G1 X46.042 Y-33.093 Z-0.750 F500.000
G3 X46.042 Y-31.820 Z-0.750 I-0.649 J0.636 K0.000 F500.000
G1 X44.029 Y-29.807 Z-0.750 F500.000
G1 X44.414 Y-29.423 Z-0.750 F500.000
G1 X48.775 Y-33.785 Z-0.750 F500.000
G1 X48.086 Y-34.474 Z-0.750 F500.000
G3 X48.005 Y-35.648 Z-0.750 I0.645 J-0.634 K0.000 F500.000
G3 X48.724 Y-36.385 Z-0.750 I4.098 J3.281 K0.000 F500.000
G1 X48.242 Y-36.867 Z-0.750 F500.000
G3 X48.879 Y-38.403 Z-0.750 I0.644 J-0.633 K0.000 F500.000
G1 X50.870 Y-38.403 Z-0.750 F500.000
G1 X51.513 Y-39.046 Z-0.750 F500.000
G1 X51.001 Y-39.559 Z-0.750 F500.000
G1 X50.344 Y-38.902 Z-0.750 F500.000
G3 X49.071 Y-38.902 Z-0.750 I-0.636 J-0.649 K0.000 F500.000
G1 X48.299 Y-39.674 Z-0.750 F500.000
G1 X47.504 Y-38.878 Z-0.750 F500.000
G3 X46.231 Y-38.878 Z-0.750 I-0.636 J-0.649 K0.000 F500.000
G1 X38.878 Y-46.231 Z-0.750 F500.000
G3 X38.878 Y-47.504 Z-0.750 I0.649 J-0.636 K0.000 F500.000
G1 X39.674 Y-48.299 Z-0.750 F500.000
G1 X38.902 Y-49.071 Z-0.750 F500.000
G3 X38.821 Y-50.245 Z-0.750 I0.645 J-0.634 K0.000 F500.000
G3 X39.559 Y-51.001 Z-0.750 I4.203 J3.367 K0.000 F500.000
G1 X39.046 Y-51.513 Z-0.750 F500.000
G1 X38.403 Y-50.870 Z-0.750 F500.000
G1 X38.403 Y-48.879 Z-0.750 F500.000
G3 X36.986 Y-48.148 Z-0.750 I-0.900 J-0.005 K0.000 F500.000
G3 X36.385 Y-48.724 Z-0.750 I2.133 J-2.829 K0.000 F500.000
G1 X35.747 Y-48.086 Z-0.750 F500.000
G3 X34.573 Y-48.005 Z-0.750 I-0.634 J-0.645 K0.000 F500.000
G3 X33.785 Y-48.775 Z-0.750 I3.516 J-4.385 K0.000 F500.000
G1 X29.423 Y-44.414 Z-0.750 F500.000
G1 X29.423 Y-44.414 Z-1.500 F300.000
G1 X29.829 Y-44.007 Z-1.500 F500.000
G1 X31.843 Y-46.020 Z-1.500 F500.000
G3 X33.115 Y-46.020 Z-1.500 I0.636 J0.649 K0.000 F500.000
G1 X34.130 Y-45.006 Z-1.500 F500.000
G3 X34.211 Y-43.831 Z-1.500 I-0.645 J0.634 K0.000 F500.000
G3 X33.509 Y-43.112 Z-1.500 I-4.004 J-3.204 K0.000 F500.000
G1 X34.030 Y-42.590 Z-1.500 F500.000
G3 X33.394 Y-41.054 Z-1.500 I-0.644 J0.633 K0.000 F500.000
G1 X31.483 Y-41.054 Z-1.500 F500.000
G1 X30.807 Y-40.378 Z-1.500 F500.000
G1 X31.280 Y-39.905 Z-1.500 F500.000
G1 X31.969 Y-40.595 Z-1.500 F500.000
G3 X33.143 Y-40.675 Z-1.500 I0.634 J0.645 K0.000 F500.000
G3 X33.798 Y-40.038 Z-1.500 I-2.907 J3.643 K0.000 F500.000
G1 X34.554 Y-40.794 Z-1.500 F500.000
G3 X35.827 Y-40.794 Z-1.500 I0.636 J0.649 K0.000 F500.000
G1 X40.794 Y-35.827 Z-1.500 F500.000
G3 X40.794 Y-34.554 Z-1.500 I-0.649 J0.636 K0.000 F500.000
G1 X40.033 Y-33.793 Z-1.500 F500.000
G1 X40.752 Y-33.075 Z-1.500 F500.000
G3 X40.833 Y-31.901 Z-1.500 I-0.645 J0.634 K0.000 F500.000
G3 X40.067 Y-31.118 Z-1.500 I-4.358 J-3.494 K0.000 F500.000
G1 X40.378 Y-30.807 Z-1.500 F500.000
G1 X41.036 Y-31.465 Z-1.500 F500.000
G1 X41.050 Y-33.404 Z-1.500 F500.000
G3 X42.466 Y-34.129 Z-1.500 I0.900 J0.011 K0.000 F500.000
G3 X43.154 Y-33.466 Z-1.500 I-2.463 J3.245 K0.000 F500.000
G1 X43.775 Y-34.087 Z-1.500 F500.000
G3 X45.047 Y-34.087 Z-1.500 I0.636 J0.649 K0.000 F500.000
G1 X46.042 Y-33.093 Z-1.500 F500.000
G3 X46.042 Y-31.820 Z-1.500 I-0.649 J0.636 K0.000 F500.000
G1 X44.029 Y-29.807 Z-1.500 F500.000
G1 X44.414 Y-29.423 Z-1.500 F500.000
G1 X48.775 Y-33.785 Z-1.500 F500.000
G1 X48.086 Y-34.474 Z-1.500 F500.000
G3 X48.005 Y-35.648 Z-1.500 I0.645 J-0.634 K0.000 F500.000
G3 X48.724 Y-36.385 Z-1.500 I4.098 J3.281 K0.000 F500.000
G1 X48.242 Y-36.867 Z-1.500 F500.000
G3 X48.879 Y-38.403 Z-1.500 I0.644 J-0.633 K0.000 F500.000
G1 X50.870 Y-38.403 Z-1.500 F500.000
G1 X51.513 Y-39.046 Z-1.500 F500.000
G1 X51.001 Y-39.559 Z-1.500 F500.000
G1 X50.344 Y-38.902 Z-1.500 F500.000
G3 X49.071 Y-38.902 Z-1.500 I-0.636 J-0.649 K0.000 F500.000
G1 X48.299 Y-39.674 Z-1.500 F500.000
G1 X47.504 Y-38.878 Z-1.500 F500.000
G3 X46.231 Y-38.878 Z-1.500 I-0.636 J-0.649 K0.000 F500.000
G1 X38.878 Y-46.231 Z-1.500 F500.000
G3 X38.878 Y-47.504 Z-1.500 I0.649 J-0.636 K0.000 F500.000
G1 X39.674 Y-48.299 Z-1.500 F500.000
G1 X38.902 Y-49.071 Z-1.500 F500.000
G3 X38.821 Y-50.245 Z-1.500 I0.645 J-0.634 K0.000 F500.000
G3 X39.559 Y-51.001 Z-1.500 I4.203 J3.367 K0.000 F500.000
G1 X39.046 Y-51.513 Z-1.500 F500.000
G1 X38.403 Y-50.870 Z-1.500 F500.000
G1 X38.403 Y-48.879 Z-1.500 F500.000
G3 X36.986 Y-48.148 Z-1.500 I-0.900 J-0.005 K0.000 F500.000
G3 X36.385 Y-48.724 Z-1.500 I2.133 J-2.829 K0.000 F500.000
G1 X35.747 Y-48.086 Z-1.500 F500.000
G3 X34.573 Y-48.005 Z-1.500 I-0.634 J-0.645 K0.000 F500.000
G3 X33.785 Y-48.775 Z-1.500 I3.516 J-4.385 K0.000 F500.000
G1 X29.423 Y-44.414 Z-1.500 F500.000
G1 X29.423 Y-44.414 Z-2.000 F300.000
G1 X29.829 Y-44.007 Z-2.000 F500.000
G1 X31.843 Y-46.020 Z-2.000 F500.000
G3 X33.115 Y-46.020 Z-2.000 I0.636 J0.649 K0.000 F500.000
G1 X34.130 Y-45.006 Z-2.000 F500.000
G3 X34.211 Y-43.831 Z-2.000 I-0.645 J0.634 K0.000 F500.000
G3 X33.509 Y-43.112 Z-2.000 I-4.004 J-3.204 K0.000 F500.000
G1 X34.030 Y-42.590 Z-2.000 F500.000
G3 X33.394 Y-41.054 Z-2.000 I-0.644 J0.633 K0.000 F500.000
G1 X31.483 Y-41.054 Z-2.000 F500.000
G1 X30.807 Y-40.378 Z-2.000 F500.000
G1 X31.280 Y-39.905 Z-2.000 F500.000
G1 X31.969 Y-40.595 Z-2.000 F500.000
G3 X33.143 Y-40.675 Z-2.000 I0.634 J0.645 K0.000 F500.000
G3 X33.798 Y-40.038 Z-2.000 I-2.907 J3.643 K0.000 F500.000
G1 X34.554 Y-40.794 Z-2.000 F500.000
G3 X35.827 Y-40.794 Z-2.000 I0.636 J0.649 K0.000 F500.000
G1 X40.794 Y-35.827 Z-2.000 F500.000
G3 X40.794 Y-34.554 Z-2.000 I-0.649 J0.636 K0.000 F500.000
G1 X40.033 Y-33.793 Z-2.000 F500.000
G1 X40.752 Y-33.075 Z-2.000 F500.000
G3 X40.833 Y-31.901 Z-2.000 I-0.645 J0.634 K0.000 F500.000
G3 X40.067 Y-31.118 Z-2.000 I-4.358 J-3.494 K0.000 F500.000
G1 X40.378 Y-30.807 Z-2.000 F500.000
G1 X41.036 Y-31.465 Z-2.000 F500.000
G1 X41.050 Y-33.404 Z-2.000 F500.000
G3 X42.466 Y-34.129 Z-2.000 I0.900 J0.011 K0.000 F500.000
G3 X43.154 Y-33.466 Z-2.000 I-2.463 J3.245 K0.000 F500.000
G1 X43.775 Y-34.087 Z-2.000 F500.000
G3 X45.047 Y-34.087 Z-2.000 I0.636 J0.649 K0.000 F500.000
G1 X46.042 Y-33.093 Z-2.000 F500.000
G3 X46.042 Y-31.820 Z-2.000 I-0.649 J0.636 K0.000 F500.000
G1 X44.029 Y-29.807 Z-2.000 F500.000
G1 X44.414 Y-29.423 Z-2.000 F500.000
G1 X48.775 Y-33.785 Z-2.000 F500.000
G1 X48.086 Y-34.474 Z-2.000 F500.000
G3 X48.005 Y-35.648 Z-2.000 I0.645 J-0.634 K0.000 F500.000
G3 X48.724 Y-36.385 Z-2.000 I4.098 J3.281 K0.000 F500.000
G1 X48.242 Y-36.867 Z-2.000 F500.000
G3 X48.879 Y-38.403 Z-2.000 I0.644 J-0.633 K0.000 F500.000
G1 X50.870 Y-38.403 Z-2.000 F500.000
G1 X51.513 Y-39.046 Z-2.000 F500.000
G1 X51.001 Y-39.559 Z-2.000 F500.000
G1 X50.344 Y-38.902 Z-2.000 F500.000
G3 X49.071 Y-38.902 Z-2.000 I-0.636 J-0.649 K0.000 F500.000
G1 X48.299 Y-39.674 Z-2.000 F500.000
G1 X47.504 Y-38.878 Z-2.000 F500.000
G3 X46.231 Y-38.878 Z-2.000 I-0.636 J-0.649 K0.000 F500.000
G1 X38.878 Y-46.231 Z-2.000 F500.000
G3 X38.878 Y-47.504 Z-2.000 I0.649 J-0.636 K0.000 F500.000
G1 X39.674 Y-48.299 Z-2.000 F500.000
G1 X38.902 Y-49.071 Z-2.000 F500.000
G3 X38.821 Y-50.245 Z-2.000 I0.645 J-0.634 K0.000 F500.000
G3 X39.559 Y-51.001 Z-2.000 I4.203 J3.367 K0.000 F500.000
G1 X39.046 Y-51.513 Z-2.000 F500.000
G1 X38.403 Y-50.870 Z-2.000 F500.000
G1 X38.403 Y-48.879 Z-2.000 F500.000
G3 X36.986 Y-48.148 Z-2.000 I-0.900 J-0.005 K0.000 F500.000
G3 X36.385 Y-48.724 Z-2.000 I2.133 J-2.829 K0.000 F500.000
G1 X35.747 Y-48.086 Z-2.000 F500.000
G3 X34.573 Y-48.005 Z-2.000 I-0.634 J-0.645 K0.000 F500.000
G3 X33.785 Y-48.775 Z-2.000 I3.516 J-4.385 K0.000 F500.000
G1 X29.423 Y-44.414 Z-2.000 F500.000
G0 Z5.000
G0 X33.750 Y-47.044 Z5.000
G0 X33.750 Y-47.044 Z3.000
G1 X33.750 Y-47.044 Z-0.750 F300.000
G1 X33.964 Y-46.869 Z-0.750 F500.000
G1 X34.978 Y-45.854 Z-0.750 F500.000
G3 X35.236 Y-45.533 Z-0.750 I-1.502 J1.468 K0.000 F500.000
G3 X37.871 Y-45.575 Z-0.750 I1.343 J1.558 K0.000 F500.000
G3 X37.421 Y-46.788 Z-0.750 I1.498 J-1.246 K0.000 F500.000
G3 X36.416 Y-47.090 Z-0.750 I0.051 J-1.995 K0.000 F500.000
G3 X33.800 Y-47.094 Z-0.750 I-1.305 J-1.588 K0.000 F500.000
G1 X33.750 Y-47.044 Z-0.750 F500.000
G1 X33.750 Y-47.044 Z-1.500 F300.000
G1 X33.964 Y-46.869 Z-1.500 F500.000
G1 X34.978 Y-45.854 Z-1.500 F500.000
G3 X35.236 Y-45.533 Z-1.500 I-1.502 J1.468 K0.000 F500.000
G3 X37.871 Y-45.575 Z-1.500 I1.343 J1.558 K0.000 F500.000
G3 X37.421 Y-46.788 Z-1.500 I1.498 J-1.246 K0.000 F500.000
G3 X36.416 Y-47.090 Z-1.500 I0.051 J-1.995 K0.000 F500.000
G3 X33.800 Y-47.094 Z-1.500 I-1.305 J-1.588 K0.000 F500.000
G1 X33.750 Y-47.044 Z-1.500 F500.000
G1 X33.750 Y-47.044 Z-2.000 F300.000
G1 X33.964 Y-46.869 Z-2.000 F500.000
G1 X34.978 Y-45.854 Z-2.000 F500.000
G3 X35.236 Y-45.533 Z-2.000 I-1.502 J1.468 K0.000 F500.000
G3 X37.871 Y-45.575 Z-2.000 I1.343 J1.558 K0.000 F500.000
G3 X37.421 Y-46.788 Z-2.000 I1.498 J-1.246 K0.000 F500.000
G3 X36.416 Y-47.090 Z-2.000 I0.051 J-1.995 K0.000 F500.000
G3 X33.800 Y-47.094 Z-2.000 I-1.305 J-1.588 K0.000 F500.000
G1 X33.750 Y-47.044 Z-2.000 F500.000
G0 Z5.000
G0 X35.958 Y-44.582 Z5.000
G0 X35.958 Y-44.582 Z3.000
G1 X35.958 Y-44.582 Z-0.750 F300.000
G2 X35.943 Y-44.568 Z-0.750 I0.666 J0.743 K0.000 F500.000
G1 X34.972 Y-43.598 Z-0.750 F500.000
G2 X34.972 Y-42.325 Z-0.750 I0.649 J0.636 K0.000 F500.000
G1 X35.811 Y-41.486 Z-0.750 F500.000
G2 X37.084 Y-41.486 Z-0.750 I0.636 J-0.649 K0.000 F500.000
G1 X38.055 Y-42.456 Z-0.750 F500.000
G2 X38.055 Y-43.729 Z-0.750 I-0.649 J-0.636 K0.000 F500.000
G1 X37.216 Y-44.568 Z-0.750 F500.000
G2 X36.357 Y-44.800 Z-0.750 I-0.636 J0.650 K0.000 F500.000
G2 X35.958 Y-44.582 Z-0.750 I0.267 J0.961 K0.000 F500.000
G1 X35.958 Y-44.582 Z-1.500 F300.000
G2 X35.943 Y-44.568 Z-1.500 I0.666 J0.743 K0.000 F500.000
G1 X34.972 Y-43.598 Z-1.500 F500.000
G2 X34.972 Y-42.325 Z-1.500 I0.649 J0.636 K0.000 F500.000
G1 X35.811 Y-41.486 Z-1.500 F500.000
G2 X37.084 Y-41.486 Z-1.500 I0.636 J-0.649 K0.000 F500.000
G1 X38.055 Y-42.456 Z-1.500 F500.000
G2 X38.055 Y-43.729 Z-1.500 I-0.649 J-0.636 K0.000 F500.000
G1 X37.216 Y-44.568 Z-1.500 F500.000
G2 X36.357 Y-44.800 Z-1.500 I-0.636 J0.650 K0.000 F500.000
G2 X35.958 Y-44.582 Z-1.500 I0.267 J0.961 K0.000 F500.000
G1 X35.958 Y-44.582 Z-2.000 F300.000
G2 X35.943 Y-44.568 Z-2.000 I0.666 J0.743 K0.000 F500.000
G1 X34.972 Y-43.598 Z-2.000 F500.000
G2 X34.972 Y-42.325 Z-2.000 I0.649 J0.636 K0.000 F500.000
G1 X35.811 Y-41.486 Z-2.000 F500.000
G2 X37.084 Y-41.486 Z-2.000 I0.636 J-0.649 K0.000 F500.000
G1 X38.055 Y-42.456 Z-2.000 F500.000
G2 X38.055 Y-43.729 Z-2.000 I-0.649 J-0.636 K0.000 F500.000
G1 X37.216 Y-44.568 Z-2.000 F500.000
G2 X36.357 Y-44.800 Z-2.000 I-0.636 J0.650 K0.000 F500.000
G2 X35.958 Y-44.582 Z-2.000 I0.267 J0.961 K0.000 F500.000
G0 Z5.000
G0 X39.171 Y-44.241 Z5.000
G0 X39.171 Y-44.241 Z3.000
G1 X39.171 Y-44.241 Z-0.750 F300.000
G3 X38.903 Y-41.608 Z-0.750 I-1.741 J1.153 K0.000 F500.000
G1 X37.933 Y-40.637 Z-0.750 F500.000
G1 X37.794 Y-40.524 Z-0.750 F500.000
G1 X40.524 Y-37.794 Z-0.750 F500.000
G1 X40.637 Y-37.933 Z-0.750 F500.000
G1 X41.608 Y-38.903 Z-0.750 F500.000
G3 X44.241 Y-39.171 Z-0.750 I1.482 J1.495 K0.000 F500.000
G1 X39.171 Y-44.241 Z-0.750 F500.000
G1 X39.171 Y-44.241 Z-1.500 F300.000
G3 X38.903 Y-41.608 Z-1.500 I-1.741 J1.153 K0.000 F500.000
G1 X37.933 Y-40.637 Z-1.500 F500.000
G1 X37.794 Y-40.524 Z-1.500 F500.000
G1 X40.524 Y-37.794 Z-1.500 F500.000
G1 X40.637 Y-37.933 Z-1.500 F500.000
G1 X41.608 Y-38.903 Z-1.500 F500.000
G3 X44.241 Y-39.171 Z-1.500 I1.482 J1.495 K0.000 F500.000
G1 X39.171 Y-44.241 Z-1.500 F500.000
G1 X39.171 Y-44.241 Z-2.000 F300.000
G3 X38.903 Y-41.608 Z-2.000 I-1.741 J1.153 K0.000 F500.000
G1 X37.933 Y-40.637 Z-2.000 F500.000
G1 X37.794 Y-40.524 Z-2.000 F500.000
G1 X40.524 Y-37.794 Z-2.000 F500.000
G1 X40.637 Y-37.933 Z-2.000 F500.000
G1 X41.608 Y-38.903 Z-2.000 F500.000
G3 X44.241 Y-39.171 Z-2.000 I1.482 J1.495 K0.000 F500.000
G1 X39.171 Y-44.241 Z-2.000 F500.000
G0 Z5.000
G0 X40.267 Y-41.448 Z5.000
G0 X40.267 Y-41.448 Z3.000
G1 X40.267 Y-41.448 Z-0.750 F300.000
G3 X39.504 Y-40.511 Z-0.750 I-2.881 J-1.566 K0.000 F500.000
G1 X40.511 Y-39.504 Z-0.750 F500.000
G3 X41.453 Y-40.262 Z-0.750 I2.269 J1.853 K0.000 F500.000
G3 X40.267 Y-41.448 Z-0.750 I3517527.026 J-3517528.212 K0.000 F500.000
G1 X40.317 Y-40.938 Z-0.750 F300.000
G3 X39.963 Y-40.511 Z-0.750 I-2.345 J-1.583 K0.000 F500.000
G1 X40.511 Y-39.963 Z-0.750 F500.000
G3 X40.938 Y-40.317 Z-0.750 I2.010 J1.991 K0.000 F500.000
G3 X40.317 Y-40.938 Z-0.750 I964755.282 J-964755.903 K0.000 F500.000
G1 X40.317 Y-40.938 Z-1.500 F300.000
G3 X39.963 Y-40.511 Z-1.500 I-2.345 J-1.583 K0.000 F500.000
G1 X40.511 Y-39.963 Z-1.500 F500.000
G3 X40.938 Y-40.317 Z-1.500 I2.010 J1.991 K0.000 F500.000
G3 X40.317 Y-40.938 Z-1.500 I964755.282 J-964755.903 K0.000 F500.000
G1 X40.061 Y-41.119 Z-1.500 F300.000
G3 X39.504 Y-40.511 Z-1.500 I-2.676 J-1.895 K0.000 F500.000
G1 X40.511 Y-39.504 Z-1.500 F500.000
G3 X41.453 Y-40.262 Z-1.500 I2.269 J1.853 K0.000 F500.000
G3 X40.267 Y-41.448 Z-1.500 I3517527.026 J-3517528.212 K0.000 F500.000
G3 X40.061 Y-41.119 Z-1.500 I-2.881 J-1.566 K0.000 F500.000
G1 X40.061 Y-41.119 Z-2.000 F300.000
G3 X39.504 Y-40.511 Z-2.000 I-2.676 J-1.895 K0.000 F500.000
G1 X40.511 Y-39.504 Z-2.000 F500.000
G3 X41.453 Y-40.262 Z-2.000 I2.269 J1.853 K0.000 F500.000
G3 X40.267 Y-41.448 Z-2.000 I3517527.026 J-3517528.212 K0.000 F500.000
G3 X40.061 Y-41.119 Z-2.000 I-2.881 J-1.566 K0.000 F500.000
G1 X40.317 Y-40.938 Z-2.000 F300.000
G3 X39.963 Y-40.511 Z-2.000 I-2.345 J-1.583 K0.000 F500.000
G1 X40.511 Y-39.963 Z-2.000 F500.000
G3 X40.938 Y-40.317 Z-2.000 I2.010 J1.991 K0.000 F500.000
G3 X40.317 Y-40.938 Z-2.000 I964755.282 J-964755.903 K0.000 F500.000
G0 Z5.000
G0 X42.526 Y-38.113 Z5.000
G0 X42.526 Y-38.113 Z3.000
G1 X42.526 Y-38.113 Z-0.750 F300.000
G2 X42.456 Y-38.055 Z-0.750 I0.706 J0.903 K0.000 F500.000
G1 X41.486 Y-37.084 Z-0.750 F500.000
G2 X41.486 Y-35.811 Z-0.750 I0.649 J0.636 K0.000 F500.000
G1 X42.325 Y-34.972 Z-0.750 F500.000
G2 X43.598 Y-34.972 Z-0.750 I0.636 J-0.649 K0.000 F500.000
G1 X44.568 Y-35.943 Z-0.750 F500.000
G2 X44.568 Y-37.216 Z-0.750 I-0.649 J-0.636 K0.000 F500.000
G1 X43.729 Y-38.055 Z-0.750 F500.000
G2 X42.636 Y-38.190 Z-0.750 I-0.635 J0.645 K0.000 F500.000
G2 X42.526 Y-38.113 Z-0.750 I0.596 J0.979 K0.000 F500.000
G1 X42.526 Y-38.113 Z-1.500 F300.000
G2 X42.456 Y-38.055 Z-1.500 I0.706 J0.903 K0.000 F500.000
G1 X41.486 Y-37.084 Z-1.500 F500.000
G2 X41.486 Y-35.811 Z-1.500 I0.649 J0.636 K0.000 F500.000
G1 X42.325 Y-34.972 Z-1.500 F500.000
G2 X43.598 Y-34.972 Z-1.500 I0.636 J-0.649 K0.000 F500.000
G1 X44.568 Y-35.943 Z-1.500 F500.000
G2 X44.568 Y-37.216 Z-1.500 I-0.649 J-0.636 K0.000 F500.000
G1 X43.729 Y-38.055 Z-1.500 F500.000
G2 X42.636 Y-38.190 Z-1.500 I-0.635 J0.645 K0.000 F500.000
G2 X42.526 Y-38.113 Z-1.500 I0.596 J0.979 K0.000 F500.000
G1 X42.526 Y-38.113 Z-2.000 F300.000
G2 X42.456 Y-38.055 Z-2.000 I0.706 J0.903 K0.000 F500.000
G1 X41.486 Y-37.084 Z-2.000 F500.000
G2 X41.486 Y-35.811 Z-2.000 I0.649 J0.636 K0.000 F500.000
G1 X42.325 Y-34.972 Z-2.000 F500.000
G2 X43.598 Y-34.972 Z-2.000 I0.636 J-0.649 K0.000 F500.000
G1 X44.568 Y-35.943 Z-2.000 F500.000
G2 X44.568 Y-37.216 Z-2.000 I-0.649 J-0.636 K0.000 F500.000
G1 X43.729 Y-38.055 Z-2.000 F500.000
G2 X42.636 Y-38.190 Z-2.000 I-0.635 J0.645 K0.000 F500.000
G2 X42.526 Y-38.113 Z-2.000 I0.596 J0.979 K0.000 F500.000
G0 Z5.000
G0 X45.575 Y-37.871 Z5.000
G0 X45.575 Y-37.871 Z3.000
G1 X45.575 Y-37.871 Z-0.750 F300.000
G3 X45.524 Y-35.225 Z-0.750 I-1.601 J1.293 K0.000 F500.000
G3 X45.896 Y-34.935 Z-0.750 I-0.616 J1.174 K0.000 F500.000
G1 X46.890 Y-33.941 Z-0.750 F500.000
G1 X47.046 Y-33.752 Z-0.750 F500.000
G1 X47.094 Y-33.800 Z-0.750 F500.000
G3 X47.090 Y-36.416 Z-0.750 I1.584 J-1.310 K0.000 F500.000
G3 X46.789 Y-37.423 Z-0.750 I1.583 J-1.022 K0.000 F500.000
G3 X45.575 Y-37.871 Z-0.750 I0.026 J-1.937 K0.000 F500.000
G1 X45.575 Y-37.871 Z-1.500 F300.000
G3 X45.524 Y-35.225 Z-1.500 I-1.601 J1.293 K0.000 F500.000
G3 X45.896 Y-34.935 Z-1.500 I-0.616 J1.174 K0.000 F500.000
G1 X46.890 Y-33.941 Z-1.500 F500.000
G1 X47.046 Y-33.752 Z-1.500 F500.000
G1 X47.094 Y-33.800 Z-1.500 F500.000
G3 X47.090 Y-36.416 Z-1.500 I1.584 J-1.310 K0.000 F500.000
G3 X46.789 Y-37.423 Z-1.500 I1.583 J-1.022 K0.000 F500.000
G3 X45.575 Y-37.871 Z-1.500 I0.026 J-1.937 K0.000 F500.000
G1 X45.575 Y-37.871 Z-2.000 F300.000
G3 X45.524 Y-35.225 Z-2.000 I-1.601 J1.293 K0.000 F500.000
G3 X45.896 Y-34.935 Z-2.000 I-0.616 J1.174 K0.000 F500.000
G1 X46.890 Y-33.941 Z-2.000 F500.000
G1 X47.046 Y-33.752 Z-2.000 F500.000
G1 X47.094 Y-33.800 Z-2.000 F500.000
G3 X47.090 Y-36.416 Z-2.000 I1.584 J-1.310 K0.000 F500.000
G3 X46.789 Y-37.423 Z-2.000 I1.583 J-1.022 K0.000 F500.000
G3 X45.575 Y-37.871 Z-2.000 I0.026 J-1.937 K0.000 F500.000
G0 Z5.000
G0 Z5.000
G0 X45.575 Y-37.871
G0 X58.081 Y-10.445
G0 X58.081 Y-10.445 Z3.000
G1 X58.081 Y-10.445 Z-0.750 F300.000
G1 X58.081 Y-9.386 Z-0.750 F500.000
G3 X57.186 Y-8.491 Z-0.750 I-0.903 J-0.009 K0.000 F500.000
G1 X56.087 Y-8.491 Z-0.750 F500.000
G1 X56.087 Y-7.266 Z-0.750 F500.000
G3 X55.329 Y-6.393 Z-0.750 I-0.889 J-0.007 K0.000 F500.000
G3 X54.208 Y-6.381 Z-0.750 I-0.624 J-5.682 K0.000 F500.000
G1 X54.208 Y-5.494 Z-0.750 F500.000
G3 X52.873 Y-4.888 Z-0.750 I-0.805 J-0.000 K0.000 F500.000
G1 X51.167 Y-6.381 Z-0.750 F500.000
G1 X50.260 Y-6.381 Z-0.750 F500.000
G1 X50.260 Y-5.571 Z-0.750 F500.000
G1 X51.953 Y-3.847 Z-0.750 F500.000
G1 X53.293 Y-3.847 Z-0.750 F500.000
G3 X54.208 Y-2.931 Z-0.750 I-0.009 J0.925 K0.000 F500.000
G1 X54.208 Y2.091 Z-0.750 F500.000
G3 X53.293 Y3.007 Z-0.750 I-0.925 J-0.009 K0.000 F500.000
G1 X51.953 Y3.007 Z-0.750 F500.000
G1 X50.260 Y4.731 Z-0.750 F500.000
G1 X50.260 Y5.541 Z-0.750 F500.000
G1 X51.167 Y5.541 Z-0.750 F500.000
G1 X52.873 Y4.048 Z-0.750 F500.000
G3 X54.208 Y4.654 Z-0.750 I0.530 J0.606 K0.000 F500.000
G1 X54.208 Y5.541 Z-0.750 F500.000
G1 X55.202 Y5.541 Z-0.750 F500.000
G3 X56.087 Y6.426 Z-0.750 I-0.008 J0.893 K0.000 F500.000
G1 X56.087 Y7.650 Z-0.750 F500.000
G1 X57.186 Y7.650 Z-0.750 F500.000
G3 X58.081 Y8.544 Z-0.750 I-0.009 J0.903 K0.000 F500.000
G1 X58.081 Y9.605 Z-0.750 F500.000
G1 X62.646 Y9.605 Z-0.750 F500.000
G1 X62.646 Y8.950 Z-0.750 F500.000
G1 X59.712 Y8.950 Z-0.750 F500.000
G3 X58.774 Y8.012 Z-0.750 I0.010 J-0.947 K0.000 F500.000
G1 X58.774 Y6.514 Z-0.750 F500.000
G3 X59.671 Y5.618 Z-0.750 I0.905 J0.009 K0.000 F500.000
G1 X63.023 Y5.618 Z-0.750 F500.000
G1 X64.563 Y4.047 Z-0.750 F500.000
G1 X64.563 Y1.282 Z-0.750 F500.000
G1 X63.946 Y1.282 Z-0.750 F500.000
G1 X63.946 Y4.189 Z-0.750 F500.000
G3 X63.020 Y5.116 Z-0.750 I-0.936 J-0.009 K0.000 F500.000
G1 X61.578 Y5.116 Z-0.750 F500.000
G3 X60.691 Y4.228 Z-0.750 I0.008 J-0.896 K0.000 F500.000
G1 X60.691 Y-5.068 Z-0.750 F500.000
G3 X61.578 Y-5.956 Z-0.750 I0.896 J0.008 K0.000 F500.000
G1 X63.020 Y-5.956 Z-0.750 F500.000
G3 X63.946 Y-5.029 Z-0.750 I-0.009 J0.936 K0.000 F500.000
G1 X63.946 Y-2.124 Z-0.750 F500.000
G1 X64.562 Y-2.124 Z-0.750 F500.000
G1 X64.562 Y-4.887 Z-0.750 F500.000
G1 X63.023 Y-6.458 Z-0.750 F500.000
G1 X59.671 Y-6.458 Z-0.750 F500.000
G3 X58.774 Y-7.354 Z-0.750 I0.009 J-0.905 K0.000 F500.000
G1 X58.774 Y-8.854 Z-0.750 F500.000
G3 X59.712 Y-9.791 Z-0.750 I0.947 J0.010 K0.000 F500.000
G1 X62.646 Y-9.791 Z-0.750 F500.000
G1 X62.646 Y-10.445 Z-0.750 F500.000
G1 X58.081 Y-10.445 Z-0.750 F500.000
G1 X58.081 Y-10.445 Z-1.500 F300.000
G1 X58.081 Y-9.386 Z-1.500 F500.000
G3 X57.186 Y-8.491 Z-1.500 I-0.903 J-0.009 K0.000 F500.000
G1 X56.087 Y-8.491 Z-1.500 F500.000
G1 X56.087 Y-7.266 Z-1.500 F500.000
G3 X55.329 Y-6.393 Z-1.500 I-0.889 J-0.007 K0.000 F500.000
G3 X54.208 Y-6.381 Z-1.500 I-0.624 J-5.682 K0.000 F500.000
G1 X54.208 Y-5.494 Z-1.500 F500.000
G3 X52.873 Y-4.888 Z-1.500 I-0.805 J-0.000 K0.000 F500.000
G1 X51.167 Y-6.381 Z-1.500 F500.000
G1 X50.260 Y-6.381 Z-1.500 F500.000
G1 X50.260 Y-5.571 Z-1.500 F500.000
G1 X51.953 Y-3.847 Z-1.500 F500.000
G1 X53.293 Y-3.847 Z-1.500 F500.000
G3 X54.208 Y-2.931 Z-1.500 I-0.009 J0.925 K0.000 F500.000
G1 X54.208 Y2.091 Z-1.500 F500.000
G3 X53.293 Y3.007 Z-1.500 I-0.925 J-0.009 K0.000 F500.000
G1 X51.953 Y3.007 Z-1.500 F500.000
G1 X50.260 Y4.731 Z-1.500 F500.000
G1 X50.260 Y5.541 Z-1.500 F500.000
G1 X51.167 Y5.541 Z-1.500 F500.000
G1 X52.873 Y4.048 Z-1.500 F500.000
G3 X54.208 Y4.654 Z-1.500 I0.530 J0.606 K0.000 F500.000
G1 X54.208 Y5.541 Z-1.500 F500.000
G1 X55.202 Y5.541 Z-1.500 F500.000
G3 X56.087 Y6.426 Z-1.500 I-0.008 J0.893 K0.000 F500.000
G1 X56.087 Y7.650 Z-1.500 F500.000
G1 X57.186 Y7.650 Z-1.500 F500.000
G3 X58.081 Y8.544 Z-1.500 I-0.009 J0.903 K0.000 F500.000
G1 X58.081 Y9.605 Z-1.500 F500.000
G1 X62.646 Y9.605 Z-1.500 F500.000
G1 X62.646 Y8.950 Z-1.500 F500.000
G1 X59.712 Y8.950 Z-1.500 F500.000
G3 X58.774 Y8.012 Z-1.500 I0.010 J-0.947 K0.000 F500.000
G1 X58.774 Y6.514 Z-1.500 F500.000
G3 X59.671 Y5.618 Z-1.500 I0.905 J0.009 K0.000 F500.000
G1 X63.023 Y5.618 Z-1.500 F500.000
G1 X64.563 Y4.047 Z-1.500 F500.000
G1 X64.563 Y1.282 Z-1.500 F500.000
G1 X63.946 Y1.282 Z-1.500 F500.000
G1 X63.946 Y4.189 Z-1.500 F500.000
G3 X63.020 Y5.116 Z-1.500 I-0.936 J-0.009 K0.000 F500.000
G1 X61.578 Y5.116 Z-1.500 F500.000
G3 X60.691 Y4.228 Z-1.500 I0.008 J-0.896 K0.000 F500.000
G1 X60.691 Y-5.068 Z-1.500 F500.000
G3 X61.578 Y-5.956 Z-1.500 I0.896 J0.008 K0.000 F500.000
G1 X63.020 Y-5.956 Z-1.500 F500.000
G3 X63.946 Y-5.029 Z-1.500 I-0.009 J0.936 K0.000 F500.000
G1 X63.946 Y-2.124 Z-1.500 F500.000
G1 X64.562 Y-2.124 Z-1.500 F500.000
G1 X64.562 Y-4.887 Z-1.500 F500.000
G1 X63.023 Y-6.458 Z-1.500 F500.000
G1 X59.671 Y-6.458 Z-1.500 F500.000
G3 X58.774 Y-7.354 Z-1.500 I0.009 J-0.905 K0.000 F500.000
G1 X58.774 Y-8.854 Z-1.500 F500.000
G3 X59.712 Y-9.791 Z-1.500 I0.947 J0.010 K0.000 F500.000
G1 X62.646 Y-9.791 Z-1.500 F500.000
G1 X62.646 Y-10.445 Z-1.500 F500.000
G1 X58.081 Y-10.445 Z-1.500 F500.000
G1 X58.081 Y-10.445 Z-2.000 F300.000
G1 X58.081 Y-9.386 Z-2.000 F500.000
G3 X57.186 Y-8.491 Z-2.000 I-0.903 J-0.009 K0.000 F500.000
G1 X56.087 Y-8.491 Z-2.000 F500.000
G1 X56.087 Y-7.266 Z-2.000 F500.000
G3 X55.329 Y-6.393 Z-2.000 I-0.889 J-0.007 K0.000 F500.000
G3 X54.208 Y-6.381 Z-2.000 I-0.624 J-5.682 K0.000 F500.000
G1 X54.208 Y-5.494 Z-2.000 F500.000
G3 X52.873 Y-4.888 Z-2.000 I-0.805 J-0.000 K0.000 F500.000
G1 X51.167 Y-6.381 Z-2.000 F500.000
G1 X50.260 Y-6.381 Z-2.000 F500.000
G1 X50.260 Y-5.571 Z-2.000 F500.000
G1 X51.953 Y-3.847 Z-2.000 F500.000
G1 X53.293 Y-3.847 Z-2.000 F500.000
G3 X54.208 Y-2.931 Z-2.000 I-0.009 J0.925 K0.000 F500.000
G1 X54.208 Y2.091 Z-2.000 F500.000
G3 X53.293 Y3.007 Z-2.000 I-0.925 J-0.009 K0.000 F500.000
G1 X51.953 Y3.007 Z-2.000 F500.000
G1 X50.260 Y4.731 Z-2.000 F500.000
G1 X50.260 Y5.541 Z-2.000 F500.000
G1 X51.167 Y5.541 Z-2.000 F500.000
G1 X52.873 Y4.048 Z-2.000 F500.000
G3 X54.208 Y4.654 Z-2.000 I0.530 J0.606 K0.000 F500.000
G1 X54.208 Y5.541 Z-2.000 F500.000
G1 X55.202 Y5.541 Z-2.000 F500.000
G3 X56.087 Y6.426 Z-2.000 I-0.008 J0.893 K0.000 F500.000
G1 X56.087 Y7.650 Z-2.000 F500.000
G1 X57.186 Y7.650 Z-2.000 F500.000
G3 X58.081 Y8.544 Z-2.000 I-0.009 J0.903 K0.000 F500.000
G1 X58.081 Y9.605 Z-2.000 F500.000
G1 X62.646 Y9.605 Z-2.000 F500.000
G1 X62.646 Y8.950 Z-2.000 F500.000
G1 X59.712 Y8.950 Z-2.000 F500.000
G3 X58.774 Y8.012 Z-2.000 I0.010 J-0.947 K0.000 F500.000
G1 X58.774 Y6.514 Z-2.000 F500.000
G3 X59.671 Y5.618 Z-2.000 I0.905 J0.009 K0.000 F500.000
G1 X63.023 Y5.618 Z-2.000 F500.000
G1 X64.563 Y4.047 Z-2.000 F500.000
G1 X64.563 Y1.282 Z-2.000 F500.000
G1 X63.946 Y1.282 Z-2.000 F500.000
G1 X63.946 Y4.189 Z-2.000 F500.000
G3 X63.020 Y5.116 Z-2.000 I-0.936 J-0.009 K0.000 F500.000
G1 X61.578 Y5.116 Z-2.000 F500.000
G3 X60.691 Y4.228 Z-2.000 I0.008 J-0.896 K0.000 F500.000
G1 X60.691 Y-5.068 Z-2.000 F500.000
G3 X61.578 Y-5.956 Z-2.000 I0.896 J0.008 K0.000 F500.000
G1 X63.020 Y-5.956 Z-2.000 F500.000
G3 X63.946 Y-5.029 Z-2.000 I-0.009 J0.936 K0.000 F500.000
G1 X63.946 Y-2.124 Z-2.000 F500.000
G1 X64.562 Y-2.124 Z-2.000 F500.000
G1 X64.562 Y-4.887 Z-2.000 F500.000
G1 X63.023 Y-6.458 Z-2.000 F500.000
G1 X59.671 Y-6.458 Z-2.000 F500.000
G3 X58.774 Y-7.354 Z-2.000 I0.009 J-0.905 K0.000 F500.000
G1 X58.774 Y-8.854 Z-2.000 F500.000
G3 X59.712 Y-9.791 Z-2.000 I0.947 J0.010 K0.000 F500.000
G1 X62.646 Y-9.791 Z-2.000 F500.000
G1 X62.646 Y-10.445 Z-2.000 F500.000
G1 X58.081 Y-10.445 Z-2.000 F500.000
G0 Z5.000
G0 X57.576 Y-7.333 Z5.000
G0 X57.576 Y-7.333 Z3.000
G1 X57.576 Y-7.333 Z-0.750 F300.000
G3 X57.287 Y-7.301 Z-0.750 I-0.304 J-1.453 K0.000 F500.000
G3 X57.273 Y-7.123 Z-0.750 I-0.910 J0.018 K0.000 F500.000
G3 X57.600 Y-7.089 Z-0.750 I-0.012 J1.679 K0.000 F500.000
G1 X57.576 Y-7.333 Z-0.750 F500.000
G1 X57.349 Y-5.918 Z-0.750 F300.000
G2 X57.215 Y-5.929 Z-0.750 I-0.143 J0.887 K0.000 F500.000
G1 X55.675 Y-5.929 Z-0.750 F500.000
G2 X54.785 Y-5.039 Z-0.750 I0.009 J0.899 K0.000 F500.000
G1 X54.785 Y-3.436 Z-0.750 F500.000
G2 X55.675 Y-2.546 Z-0.750 I0.899 J-0.009 K0.000 F500.000
G1 X57.215 Y-2.546 Z-0.750 F500.000
G2 X58.105 Y-3.436 Z-0.750 I-0.009 J-0.899 K0.000 F500.000
G1 X58.105 Y-5.039 Z-0.750 F500.000
G2 X57.349 Y-5.918 Z-0.750 I-0.899 J0.009 K0.000 F500.000
G1 X57.349 Y-5.918 Z-1.500 F300.000
G2 X57.215 Y-5.929 Z-1.500 I-0.143 J0.887 K0.000 F500.000
G1 X55.675 Y-5.929 Z-1.500 F500.000
G2 X54.785 Y-5.039 Z-1.500 I0.009 J0.899 K0.000 F500.000
G1 X54.785 Y-3.436 Z-1.500 F500.000
G2 X55.675 Y-2.546 Z-1.500 I0.899 J-0.009 K0.000 F500.000
G1 X57.215 Y-2.546 Z-1.500 F500.000
G2 X58.105 Y-3.436 Z-1.500 I-0.009 J-0.899 K0.000 F500.000
G1 X58.105 Y-5.039 Z-1.500 F500.000
G2 X57.349 Y-5.918 Z-1.500 I-0.899 J0.009 K0.000 F500.000
G1 X57.569 Y-7.095 Z-1.500 F300.000
G3 X57.600 Y-7.089 Z-1.500 I-0.308 J1.651 K0.000 F500.000
G1 X57.576 Y-7.333 Z-1.500 F500.000
G3 X57.287 Y-7.301 Z-1.500 I-0.304 J-1.453 K0.000 F500.000
G3 X57.273 Y-7.123 Z-1.500 I-0.910 J0.018 K0.000 F500.000
G3 X57.569 Y-7.095 Z-1.500 I-0.012 J1.679 K0.000 F500.000
G1 X57.569 Y-7.095 Z-2.000 F300.000
G3 X57.600 Y-7.089 Z-2.000 I-0.308 J1.651 K0.000 F500.000
G1 X57.576 Y-7.333 Z-2.000 F500.000
G3 X57.287 Y-7.301 Z-2.000 I-0.304 J-1.453 K0.000 F500.000
G3 X57.273 Y-7.123 Z-2.000 I-0.910 J0.018 K0.000 F500.000
G3 X57.569 Y-7.095 Z-2.000 I-0.012 J1.679 K0.000 F500.000
G1 X57.362 Y-5.915 Z-2.000 F300.000
G2 X57.215 Y-5.929 Z-2.000 I-0.155 J0.885 K0.000 F500.000
G1 X55.675 Y-5.929 Z-2.000 F500.000
G2 X54.785 Y-5.039 Z-2.000 I0.009 J0.899 K0.000 F500.000
G1 X54.785 Y-3.436 Z-2.000 F500.000
G2 X55.675 Y-2.546 Z-2.000 I0.899 J-0.009 K0.000 F500.000
G1 X57.215 Y-2.546 Z-2.000 F500.000
G2 X58.105 Y-3.436 Z-2.000 I-0.009 J-0.899 K0.000 F500.000
G1 X58.105 Y-5.039 Z-2.000 F500.000
G2 X57.362 Y-5.915 Z-2.000 I-0.899 J0.009 K0.000 F500.000
G0 Z5.000
G0 X59.279 Y-5.299 Z5.000
G0 X59.279 Y-5.299 Z3.000
G1 X59.279 Y-5.299 Z-0.750 F300.000
G1 X59.305 Y-5.039 Z-0.750 F500.000
G1 X59.305 Y-3.436 Z-0.750 F500.000
G3 X57.215 Y-1.346 Z-0.750 I-2.090 J-0.000 K0.000 F500.000
G1 X55.675 Y-1.346 Z-0.750 F500.000
G1 X55.408 Y-1.372 Z-0.750 F500.000
G1 X55.408 Y0.532 Z-0.750 F500.000
G1 X55.675 Y0.506 Z-0.750 F500.000
G1 X57.215 Y0.506 Z-0.750 F500.000
G3 X59.305 Y2.596 Z-0.750 I-0.000 J2.090 K0.000 F500.000
G1 X59.305 Y4.199 Z-0.750 F500.000
G1 X59.279 Y4.459 Z-0.750 F500.000
G3 X59.511 Y4.433 Z-0.750 I0.248 J1.164 K0.000 F500.000
G1 X59.491 Y4.228 Z-0.750 F500.000
G1 X59.491 Y-5.068 Z-0.750 F500.000
G1 X59.511 Y-5.273 Z-0.750 F500.000
G3 X59.279 Y-5.299 Z-0.750 I0.016 J-1.191 K0.000 F500.000
G1 X59.279 Y-5.299 Z-1.500 F300.000
G1 X59.305 Y-5.039 Z-1.500 F500.000
G1 X59.305 Y-3.436 Z-1.500 F500.000
G3 X57.215 Y-1.346 Z-1.500 I-2.090 J-0.000 K0.000 F500.000
G1 X55.675 Y-1.346 Z-1.500 F500.000
G1 X55.408 Y-1.372 Z-1.500 F500.000
G1 X55.408 Y0.532 Z-1.500 F500.000
G1 X55.675 Y0.506 Z-1.500 F500.000
G1 X57.215 Y0.506 Z-1.500 F500.000
G3 X59.305 Y2.596 Z-1.500 I-0.000 J2.090 K0.000 F500.000
G1 X59.305 Y4.199 Z-1.500 F500.000
G1 X59.279 Y4.459 Z-1.500 F500.000
G3 X59.511 Y4.433 Z-1.500 I0.248 J1.164 K0.000 F500.000
G1 X59.491 Y4.228 Z-1.500 F500.000
G1 X59.491 Y-5.068 Z-1.500 F500.000
G1 X59.511 Y-5.273 Z-1.500 F500.000
G3 X59.279 Y-5.299 Z-1.500 I0.016 J-1.191 K0.000 F500.000
G1 X59.279 Y-5.299 Z-2.000 F300.000
G1 X59.305 Y-5.039 Z-2.000 F500.000
G1 X59.305 Y-3.436 Z-2.000 F500.000
G3 X57.215 Y-1.346 Z-2.000 I-2.090 J-0.000 K0.000 F500.000
G1 X55.675 Y-1.346 Z-2.000 F500.000
G1 X55.408 Y-1.372 Z-2.000 F500.000
G1 X55.408 Y0.532 Z-2.000 F500.000
G1 X55.675 Y0.506 Z-2.000 F500.000
G1 X57.215 Y0.506 Z-2.000 F500.000
G3 X59.305 Y2.596 Z-2.000 I-0.000 J2.090 K0.000 F500.000
G1 X59.305 Y4.199 Z-2.000 F500.000
G1 X59.279 Y4.459 Z-2.000 F500.000
G3 X59.511 Y4.433 Z-2.000 I0.248 J1.164 K0.000 F500.000
G1 X59.491 Y4.228 Z-2.000 F500.000
G1 X59.491 Y-5.068 Z-2.000 F500.000
G1 X59.511 Y-5.273 Z-2.000 F500.000
G3 X59.279 Y-5.299 Z-2.000 I0.016 J-1.191 K0.000 F500.000
G0 Z5.000
G0 X59.166 Y-2.025 Z5.000
G0 X59.166 Y-2.025 Z3.000
G1 X59.166 Y-2.025 Z-0.750 F300.000
G3 X57.215 Y-1.021 Z-0.750 I-1.957 J-1.405 K0.000 F500.000
G1 X55.733 Y-1.021 Z-0.750 F500.000
G1 X55.733 Y0.181 Z-0.750 F500.000
G1 X57.215 Y0.181 Z-0.750 F500.000
G3 X59.166 Y1.185 Z-0.750 I0.006 J2.387 K0.000 F500.000
G1 X59.166 Y-2.025 Z-0.750 F500.000
G1 X58.841 Y-1.242 Z-0.750 F300.000
G3 X57.703 Y-0.744 Z-0.750 I-1.522 J-1.931 K0.000 F500.000
G3 X56.058 Y-0.696 Z-0.750 I-1.066 J-8.323 K0.000 F500.000
G1 X56.058 Y-0.144 Z-0.750 F500.000
G1 X57.215 Y-0.144 Z-0.750 F500.000
G3 X58.841 Y0.404 Z-0.750 I0.030 J2.598 K0.000 F500.000
G1 X58.841 Y-1.242 Z-0.750 F500.000
G1 X58.516 Y-0.680 Z-0.750 F300.000
G3 X57.713 Y-0.420 Z-0.750 I-1.099 J-2.025 K0.000 F500.000
G1 X57.766 Y-0.415 Z-0.750 F500.000
G3 X58.468 Y-0.201 Z-0.750 I-0.585 J3.182 K0.000 F500.000
G1 X58.516 Y-0.174 Z-0.750 F500.000
G1 X58.516 Y-0.680 Z-0.750 F500.000
G1 X58.516 Y-0.680 Z-1.500 F300.000
G3 X57.713 Y-0.420 Z-1.500 I-1.099 J-2.025 K0.000 F500.000
G1 X57.766 Y-0.415 Z-1.500 F500.000
G3 X58.468 Y-0.201 Z-1.500 I-0.585 J3.182 K0.000 F500.000
G1 X58.516 Y-0.174 Z-1.500 F500.000
G1 X58.516 Y-0.680 Z-1.500 F500.000
G1 X58.383 Y-0.956 Z-1.500 F300.000
G3 X57.703 Y-0.744 Z-1.500 I-1.065 J-2.217 K0.000 F500.000
G3 X56.058 Y-0.696 Z-1.500 I-1.066 J-8.323 K0.000 F500.000
G1 X56.058 Y-0.144 Z-1.500 F500.000
G1 X57.215 Y-0.144 Z-1.500 F500.000
G3 X58.841 Y0.404 Z-1.500 I0.030 J2.598 K0.000 F500.000
G1 X58.841 Y-1.242 Z-1.500 F500.000
G3 X58.383 Y-0.956 Z-1.500 I-1.522 J-1.931 K0.000 F500.000
G1 X58.242 Y-1.254 Z-1.500 F300.000
G3 X57.215 Y-1.021 Z-1.500 I-1.033 J-2.177 K0.000 F500.000
G1 X55.733 Y-1.021 Z-1.500 F500.000
G1 X55.733 Y0.181 Z-1.500 F500.000
G1 X57.215 Y0.181 Z-1.500 F500.000
G3 X59.166 Y1.185 Z-1.500 I0.006 J2.387 K0.000 F500.000
G1 X59.166 Y-2.025 Z-1.500 F500.000
G3 X58.242 Y-1.254 Z-1.500 I-1.957 J-1.405 K0.000 F500.000
G1 X58.385 Y-0.957 Z-2.000 F300.000
G3 X57.703 Y-0.744 Z-2.000 I-1.066 J-2.216 K0.000 F500.000
G3 X56.058 Y-0.696 Z-2.000 I-1.066 J-8.323 K0.000 F500.000
G1 X56.058 Y-0.144 Z-2.000 F500.000
G1 X57.215 Y-0.144 Z-2.000 F500.000
G3 X58.841 Y0.404 Z-2.000 I0.030 J2.598 K0.000 F500.000
G1 X58.841 Y-1.242 Z-2.000 F500.000
G3 X58.385 Y-0.957 Z-2.000 I-1.522 J-1.931 K0.000 F500.000
G1 X58.516 Y-0.680 Z-2.000 F300.000
G3 X57.713 Y-0.420 Z-2.000 I-1.099 J-2.025 K0.000 F500.000
G1 X57.766 Y-0.415 Z-2.000 F500.000
G3 X58.468 Y-0.201 Z-2.000 I-0.585 J3.182 K0.000 F500.000
G1 X58.516 Y-0.174 Z-2.000 F500.000
G1 X58.516 Y-0.680 Z-2.000 F500.000
G1 X58.243 Y-1.254 Z-2.000 F300.000
G3 X57.215 Y-1.021 Z-2.000 I-1.034 J-2.176 K0.000 F500.000
G1 X55.733 Y-1.021 Z-2.000 F500.000
G1 X55.733 Y0.181 Z-2.000 F500.000
G1 X57.215 Y0.181 Z-2.000 F500.000
G3 X59.166 Y1.185 Z-2.000 I0.006 J2.387 K0.000 F500.000
G1 X59.166 Y-2.025 Z-2.000 F500.000
G3 X58.243 Y-1.254 Z-2.000 I-1.957 J-1.405 K0.000 F500.000
G0 Z5.000
G0 X57.440 Y1.737 Z5.000
G0 X57.440 Y1.737 Z3.000
G1 X57.440 Y1.737 Z-0.750 F300.000
G2 X57.215 Y1.706 Z-0.750 I-0.233 J0.868 K0.000 F500.000
G1 X55.675 Y1.706 Z-0.750 F500.000
G2 X54.785 Y2.596 Z-0.750 I0.009 J0.899 K0.000 F500.000
G1 X54.785 Y4.199 Z-0.750 F500.000
G2 X55.675 Y5.089 Z-0.750 I0.899 J-0.009 K0.000 F500.000
G1 X57.215 Y5.089 Z-0.750 F500.000
G2 X58.105 Y4.199 Z-0.750 I-0.009 J-0.899 K0.000 F500.000
G1 X58.105 Y2.596 Z-0.750 F500.000
G2 X57.440 Y1.737 Z-0.750 I-0.899 J0.009 K0.000 F500.000
G1 X57.440 Y1.737 Z-1.500 F300.000
G2 X57.215 Y1.706 Z-1.500 I-0.233 J0.868 K0.000 F500.000
G1 X55.675 Y1.706 Z-1.500 F500.000
G2 X54.785 Y2.596 Z-1.500 I0.009 J0.899 K0.000 F500.000
G1 X54.785 Y4.199 Z-1.500 F500.000
G2 X55.675 Y5.089 Z-1.500 I0.899 J-0.009 K0.000 F500.000
G1 X57.215 Y5.089 Z-1.500 F500.000
G2 X58.105 Y4.199 Z-1.500 I-0.009 J-0.899 K0.000 F500.000
G1 X58.105 Y2.596 Z-1.500 F500.000
G2 X57.440 Y1.737 Z-1.500 I-0.899 J0.009 K0.000 F500.000
G1 X57.440 Y1.737 Z-2.000 F300.000
G2 X57.215 Y1.706 Z-2.000 I-0.233 J0.868 K0.000 F500.000
G1 X55.675 Y1.706 Z-2.000 F500.000
G2 X54.785 Y2.596 Z-2.000 I0.009 J0.899 K0.000 F500.000
G1 X54.785 Y4.199 Z-2.000 F500.000
G2 X55.675 Y5.089 Z-2.000 I0.899 J-0.009 K0.000 F500.000
G1 X57.215 Y5.089 Z-2.000 F500.000
G2 X58.105 Y4.199 Z-2.000 I-0.009 J-0.899 K0.000 F500.000
G1 X58.105 Y2.596 Z-2.000 F500.000
G2 X57.440 Y1.737 Z-2.000 I-0.899 J0.009 K0.000 F500.000
G0 Z5.000
G0 X57.600 Y6.249 Z5.000
G0 X57.600 Y6.249 Z3.000
G1 X57.600 Y6.249 Z-0.750 F300.000
G3 X57.273 Y6.283 Z-0.750 I-0.340 J-1.645 K0.000 F500.000
G3 X57.287 Y6.459 Z-0.750 I-0.887 J0.159 K0.000 F500.000
G3 X57.576 Y6.491 Z-0.750 I-0.015 J1.485 K0.000 F500.000
G1 X57.600 Y6.249 Z-0.750 F500.000
G1 X57.600 Y6.249 Z-1.500 F300.000
G3 X57.273 Y6.283 Z-1.500 I-0.340 J-1.645 K0.000 F500.000
G3 X57.287 Y6.459 Z-1.500 I-0.887 J0.159 K0.000 F500.000
G3 X57.576 Y6.491 Z-1.500 I-0.015 J1.485 K0.000 F500.000
G1 X57.600 Y6.249 Z-1.500 F500.000
G1 X57.600 Y6.249 Z-2.000 F300.000
G3 X57.273 Y6.283 Z-2.000 I-0.340 J-1.645 K0.000 F500.000
G3 X57.287 Y6.459 Z-2.000 I-0.887 J0.159 K0.000 F500.000
G3 X57.576 Y6.491 Z-2.000 I-0.015 J1.485 K0.000 F500.000
G1 X57.600 Y6.249 Z-2.000 F500.000
G0 Z5.000
G0 Z5.000
G0 X57.600 Y6.249
G0 X46.179 Y5.010
G0 X46.179 Y5.010 Z3.000
G1 X46.179 Y5.010 Z-0.750 F300.000
G2 X4.730 Y-46.208 Z-0.750 I-46.179 J-5.010 K0.000 F500.000
G2 X-46.208 Y-4.730 Z-0.750 I-4.730 J46.208 K0.000 F500.000
G2 X-4.730 Y46.208 Z-0.750 I46.208 J4.730 K0.000 F500.000
G2 X46.179 Y5.010 Z-0.750 I4.730 J-46.208 K0.000 F500.000
G1 X45.856 Y4.974 Z-0.750 F300.000
G2 X4.697 Y-45.885 Z-0.750 I-45.856 J-4.974 K0.000 F500.000
G2 X-45.885 Y-4.697 Z-0.750 I-4.697 J45.885 K0.000 F500.000
G2 X-4.697 Y45.885 Z-0.750 I45.885 J4.697 K0.000 F500.000
G2 X45.856 Y4.974 Z-0.750 I4.697 J-45.885 K0.000 F500.000
G1 X45.533 Y4.939 Z-0.750 F300.000
G2 X4.663 Y-45.562 Z-0.750 I-45.533 J-4.939 K0.000 F500.000
G2 X-45.562 Y-4.663 Z-0.750 I-4.663 J45.562 K0.000 F500.000
G2 X-4.663 Y45.562 Z-0.750 I45.562 J4.663 K0.000 F500.000
G2 X45.533 Y4.939 Z-0.750 I4.663 J-45.562 K0.000 F500.000
G1 X45.035 Y4.886 Z-0.750 F300.000
G2 X-3.869 Y-45.134 Z-0.750 I-45.035 J-4.886 K0.000 F500.000
G2 X3.869 Y45.134 Z-0.750 I3.869 J45.134 K0.000 F500.000
G2 X45.035 Y4.886 Z-0.750 I-3.869 J-45.134 K0.000 F500.000
G1 X44.712 Y4.850 Z-0.750 F300.000
G2 X-3.835 Y-44.811 Z-0.750 I-44.712 J-4.850 K0.000 F500.000
G2 X3.835 Y44.811 Z-0.750 I3.835 J44.811 K0.000 F500.000
G2 X44.712 Y4.850 Z-0.750 I-3.835 J-44.811 K0.000 F500.000
G1 X44.389 Y4.815 Z-0.750 F300.000
G2 X-3.800 Y-44.488 Z-0.750 I-44.389 J-4.815 K0.000 F500.000
G2 X3.800 Y44.488 Z-0.750 I3.800 J44.488 K0.000 F500.000
G2 X44.389 Y4.815 Z-0.750 I-3.800 J-44.488 K0.000 F500.000
G1 X44.712 Y4.850 Z-1.500 F300.000
G2 X-3.835 Y-44.811 Z-1.500 I-44.712 J-4.850 K0.000 F500.000
G2 X3.835 Y44.811 Z-1.500 I3.835 J44.811 K0.000 F500.000
G2 X44.712 Y4.850 Z-1.500 I-3.835 J-44.811 K0.000 F500.000
G1 X45.035 Y4.886 Z-1.500 F300.000
G2 X-3.869 Y-45.134 Z-1.500 I-45.035 J-4.886 K0.000 F500.000
G2 X3.869 Y45.134 Z-1.500 I3.869 J45.134 K0.000 F500.000
G2 X45.035 Y4.886 Z-1.500 I-3.869 J-45.134 K0.000 F500.000
G1 X45.533 Y4.939 Z-1.500 F300.000
G2 X4.663 Y-45.562 Z-1.500 I-45.533 J-4.939 K0.000 F500.000
G2 X-45.562 Y-4.663 Z-1.500 I-4.663 J45.562 K0.000 F500.000
G2 X-4.663 Y45.562 Z-1.500 I45.562 J4.663 K0.000 F500.000
G2 X45.533 Y4.939 Z-1.500 I4.663 J-45.562 K0.000 F500.000
G1 X45.856 Y4.974 Z-1.500 F300.000
G2 X4.697 Y-45.885 Z-1.500 I-45.856 J-4.974 K0.000 F500.000
G2 X-45.885 Y-4.697 Z-1.500 I-4.697 J45.885 K0.000 F500.000
G2 X-4.697 Y45.885 Z-1.500 I45.885 J4.697 K0.000 F500.000
G2 X45.856 Y4.974 Z-1.500 I4.697 J-45.885 K0.000 F500.000
G1 X46.179 Y5.010 Z-1.500 F300.000
G2 X4.730 Y-46.208 Z-1.500 I-46.179 J-5.010 K0.000 F500.000
G2 X-46.208 Y-4.730 Z-1.500 I-4.730 J46.208 K0.000 F500.000
G2 X-4.730 Y46.208 Z-1.500 I46.208 J4.730 K0.000 F500.000
G2 X46.179 Y5.010 Z-1.500 I4.730 J-46.208 K0.000 F500.000
G1 X46.179 Y5.010 Z-2.000 F300.000
G2 X4.730 Y-46.208 Z-2.000 I-46.179 J-5.010 K0.000 F500.000
G2 X-46.208 Y-4.730 Z-2.000 I-4.730 J46.208 K0.000 F500.000
G2 X-4.730 Y46.208 Z-2.000 I46.208 J4.730 K0.000 F500.000
G2 X46.179 Y5.010 Z-2.000 I4.730 J-46.208 K0.000 F500.000
G1 X45.856 Y4.974 Z-2.000 F300.000
G2 X4.697 Y-45.885 Z-2.000 I-45.856 J-4.974 K0.000 F500.000
G2 X-45.885 Y-4.697 Z-2.000 I-4.697 J45.885 K0.000 F500.000
G2 X-4.697 Y45.885 Z-2.000 I45.885 J4.697 K0.000 F500.000
G2 X45.856 Y4.974 Z-2.000 I4.697 J-45.885 K0.000 F500.000
G1 X45.533 Y4.939 Z-2.000 F300.000
G2 X4.663 Y-45.562 Z-2.000 I-45.533 J-4.939 K0.000 F500.000
G2 X-45.562 Y-4.663 Z-2.000 I-4.663 J45.562 K0.000 F500.000
G2 X-4.663 Y45.562 Z-2.000 I45.562 J4.663 K0.000 F500.000
G2 X45.533 Y4.939 Z-2.000 I4.663 J-45.562 K0.000 F500.000
G1 X45.035 Y4.886 Z-2.000 F300.000
G2 X-3.869 Y-45.134 Z-2.000 I-45.035 J-4.886 K0.000 F500.000
G2 X3.869 Y45.134 Z-2.000 I3.869 J45.134 K0.000 F500.000
G2 X45.035 Y4.886 Z-2.000 I-3.869 J-45.134 K0.000 F500.000
G1 X44.712 Y4.850 Z-2.000 F300.000
G2 X-3.835 Y-44.811 Z-2.000 I-44.712 J-4.850 K0.000 F500.000
G2 X3.835 Y44.811 Z-2.000 I3.835 J44.811 K0.000 F500.000
G2 X44.712 Y4.850 Z-2.000 I-3.835 J-44.811 K0.000 F500.000
G1 X44.389 Y4.815 Z-2.000 F300.000
G2 X-3.800 Y-44.488 Z-2.000 I-44.389 J-4.815 K0.000 F500.000
G2 X3.800 Y44.488 Z-2.000 I3.800 J44.488 K0.000 F500.000
G2 X44.389 Y4.815 Z-2.000 I-3.800 J-44.488 K0.000 F500.000
G1 X44.389 Y4.815 Z-1.500 F300.000
G2 X-3.800 Y-44.488 Z-1.500 I-44.389 J-4.815 K0.000 F500.000
G2 X3.800 Y44.488 Z-1.500 I3.800 J44.488 K0.000 F500.000
G2 X44.389 Y4.815 Z-1.500 I-3.800 J-44.488 K0.000 F500.000
G0 Z5.000
G0 Z5.000
G0 X44.389 Y4.815
G0 X44.414 Y29.423
G0 X44.414 Y29.423 Z3.000
G1 X44.414 Y29.423 Z-0.750 F300.000
G1 X44.007 Y29.829 Z-0.750 F500.000
G1 X46.020 Y31.843 Z-0.750 F500.000
G3 X46.020 Y33.115 Z-0.750 I-0.649 J0.636 K0.000 F500.000
G1 X45.006 Y34.130 Z-0.750 F500.000
G3 X43.831 Y34.211 Z-0.750 I-0.634 J-0.645 K0.000 F500.000
G3 X43.112 Y33.509 Z-0.750 I3.204 J-4.004 K0.000 F500.000
G1 X42.590 Y34.030 Z-0.750 F500.000
G3 X41.054 Y33.394 Z-0.750 I-0.633 J-0.644 K0.000 F500.000
G1 X41.054 Y31.483 Z-0.750 F500.000
G1 X40.378 Y30.807 Z-0.750 F500.000
G1 X39.905 Y31.280 Z-0.750 F500.000
G1 X40.595 Y31.969 Z-0.750 F500.000
G3 X40.675 Y33.143 Z-0.750 I-0.645 J0.634 K0.000 F500.000
G3 X40.038 Y33.798 Z-0.750 I-3.643 J-2.907 K0.000 F500.000
G1 X40.794 Y34.554 Z-0.750 F500.000
G3 X40.794 Y35.827 Z-0.750 I-0.649 J0.636 K0.000 F500.000
G1 X35.827 Y40.794 Z-0.750 F500.000
G3 X34.554 Y40.794 Z-0.750 I-0.636 J-0.649 K0.000 F500.000
G1 X33.793 Y40.033 Z-0.750 F500.000
G1 X33.075 Y40.752 Z-0.750 F500.000
G3 X31.901 Y40.833 Z-0.750 I-0.634 J-0.645 K0.000 F500.000
G3 X31.118 Y40.067 Z-0.750 I3.494 J-4.358 K0.000 F500.000
G1 X30.807 Y40.378 Z-0.750 F500.000
G1 X31.465 Y41.036 Z-0.750 F500.000
G1 X33.404 Y41.050 Z-0.750 F500.000
G3 X34.129 Y42.466 Z-0.750 I-0.011 J0.900 K0.000 F500.000
G3 X33.466 Y43.154 Z-0.750 I-3.245 J-2.463 K0.000 F500.000
G1 X34.087 Y43.775 Z-0.750 F500.000
G3 X34.087 Y45.047 Z-0.750 I-0.649 J0.636 K0.000 F500.000
G1 X33.093 Y46.042 Z-0.750 F500.000
G3 X31.820 Y46.042 Z-0.750 I-0.636 J-0.649 K0.000 F500.000
G1 X29.807 Y44.029 Z-0.750 F500.000
G1 X29.423 Y44.414 Z-0.750 F500.000
G1 X33.785 Y48.775 Z-0.750 F500.000
G1 X34.474 Y48.086 Z-0.750 F500.000
G3 X35.648 Y48.005 Z-0.750 I0.634 J0.645 K0.000 F500.000
G3 X36.385 Y48.724 Z-0.750 I-3.281 J4.098 K0.000 F500.000
G1 X36.867 Y48.242 Z-0.750 F500.000
G3 X38.403 Y48.879 Z-0.750 I0.633 J0.644 K0.000 F500.000
G1 X38.403 Y50.870 Z-0.750 F500.000
G1 X39.046 Y51.513 Z-0.750 F500.000
G1 X39.559 Y51.001 Z-0.750 F500.000
G1 X38.902 Y50.344 Z-0.750 F500.000
G3 X38.902 Y49.071 Z-0.750 I0.649 J-0.636 K0.000 F500.000
G1 X39.674 Y48.299 Z-0.750 F500.000
G1 X38.878 Y47.504 Z-0.750 F500.000
G3 X38.878 Y46.231 Z-0.750 I0.649 J-0.636 K0.000 F500.000
G1 X46.231 Y38.878 Z-0.750 F500.000
G3 X47.504 Y38.878 Z-0.750 I0.636 J0.649 K0.000 F500.000
G1 X48.299 Y39.674 Z-0.750 F500.000
G1 X49.071 Y38.902 Z-0.750 F500.000
G3 X50.245 Y38.821 Z-0.750 I0.634 J0.645 K0.000 F500.000
G3 X51.001 Y39.559 Z-0.750 I-3.367 J4.203 K0.000 F500.000
G1 X51.513 Y39.046 Z-0.750 F500.000
G1 X50.870 Y38.403 Z-0.750 F500.000
G1 X48.879 Y38.403 Z-0.750 F500.000
G3 X48.148 Y36.986 Z-0.750 I0.005 J-0.900 K0.000 F500.000
G3 X48.724 Y36.385 Z-0.750 I2.829 J2.133 K0.000 F500.000
G1 X48.086 Y35.747 Z-0.750 F500.000
G3 X48.005 Y34.573 Z-0.750 I0.645 J-0.634 K0.000 F500.000
G3 X48.775 Y33.785 Z-0.750 I4.385 J3.516 K0.000 F500.000
G1 X44.414 Y29.423 Z-0.750 F500.000
G1 X44.414 Y29.423 Z-1.500 F300.000
G1 X44.007 Y29.829 Z-1.500 F500.000
G1 X46.020 Y31.843 Z-1.500 F500.000
G3 X46.020 Y33.115 Z-1.500 I-0.649 J0.636 K0.000 F500.000
G1 X45.006 Y34.130 Z-1.500 F500.000
G3 X43.831 Y34.211 Z-1.500 I-0.634 J-0.645 K0.000 F500.000
G3 X43.112 Y33.509 Z-1.500 I3.204 J-4.004 K0.000 F500.000
G1 X42.590 Y34.030 Z-1.500 F500.000
G3 X41.054 Y33.394 Z-1.500 I-0.633 J-0.644 K0.000 F500.000
G1 X41.054 Y31.483 Z-1.500 F500.000
G1 X40.378 Y30.807 Z-1.500 F500.000
G1 X39.905 Y31.280 Z-1.500 F500.000
G1 X40.595 Y31.969 Z-1.500 F500.000
G3 X40.675 Y33.143 Z-1.500 I-0.645 J0.634 K0.000 F500.000
G3 X40.038 Y33.798 Z-1.500 I-3.643 J-2.907 K0.000 F500.000
G1 X40.794 Y34.554 Z-1.500 F500.000
G3 X40.794 Y35.827 Z-1.500 I-0.649 J0.636 K0.000 F500.000
G1 X35.827 Y40.794 Z-1.500 F500.000
G3 X34.554 Y40.794 Z-1.500 I-0.636 J-0.649 K0.000 F500.000
G1 X33.793 Y40.033 Z-1.500 F500.000
G1 X33.075 Y40.752 Z-1.500 F500.000
G3 X31.901 Y40.833 Z-1.500 I-0.634 J-0.645 K0.000 F500.000
G3 X31.118 Y40.067 Z-1.500 I3.494 J-4.358 K0.000 F500.000
G1 X30.807 Y40.378 Z-1.500 F500.000
G1 X31.465 Y41.036 Z-1.500 F500.000
G1 X33.404 Y41.050 Z-1.500 F500.000
G3 X34.129 Y42.466 Z-1.500 I-0.011 J0.900 K0.000 F500.000
G3 X33.466 Y43.154 Z-1.500 I-3.245 J-2.463 K0.000 F500.000
G1 X34.087 Y43.775 Z-1.500 F500.000
G3 X34.087 Y45.047 Z-1.500 I-0.649 J0.636 K0.000 F500.000
G1 X33.093 Y46.042 Z-1.500 F500.000
G3 X31.820 Y46.042 Z-1.500 I-0.636 J-0.649 K0.000 F500.000
G1 X29.807 Y44.029 Z-1.500 F500.000
G1 X29.423 Y44.414 Z-1.500 F500.000
G1 X33.785 Y48.775 Z-1.500 F500.000
G1 X34.474 Y48.086 Z-1.500 F500.000
G3 X35.648 Y48.005 Z-1.500 I0.634 J0.645 K0.000 F500.000
G3 X36.385 Y48.724 Z-1.500 I-3.281 J4.098 K0.000 F500.000
G1 X36.867 Y48.242 Z-1.500 F500.000
G3 X38.403 Y48.879 Z-1.500 I0.633 J0.644 K0.000 F500.000
G1 X38.403 Y50.870 Z-1.500 F500.000
G1 X39.046 Y51.513 Z-1.500 F500.000
G1 X39.559 Y51.001 Z-1.500 F500.000
G1 X38.902 Y50.344 Z-1.500 F500.000
G3 X38.902 Y49.071 Z-1.500 I0.649 J-0.636 K0.000 F500.000
G1 X39.674 Y48.299 Z-1.500 F500.000
G1 X38.878 Y47.504 Z-1.500 F500.000
G3 X38.878 Y46.231 Z-1.500 I0.649 J-0.636 K0.000 F500.000
G1 X46.231 Y38.878 Z-1.500 F500.000
G3 X47.504 Y38.878 Z-1.500 I0.636 J0.649 K0.000 F500.000
G1 X48.299 Y39.674 Z-1.500 F500.000
G1 X49.071 Y38.902 Z-1.500 F500.000
G3 X50.245 Y38.821 Z-1.500 I0.634 J0.645 K0.000 F500.000
G3 X51.001 Y39.559 Z-1.500 I-3.367 J4.203 K0.000 F500.000
G1 X51.513 Y39.046 Z-1.500 F500.000
G1 X50.870 Y38.403 Z-1.500 F500.000
G1 X48.879 Y38.403 Z-1.500 F500.000
G3 X48.148 Y36.986 Z-1.500 I0.005 J-0.900 K0.000 F500.000
G3 X48.724 Y36.385 Z-1.500 I2.829 J2.133 K0.000 F500.000
G1 X48.086 Y35.747 Z-1.500 F500.000
G3 X48.005 Y34.573 Z-1.500 I0.645 J-0.634 K0.000 F500.000
G3 X48.775 Y33.785 Z-1.500 I4.385 J3.516 K0.000 F500.000
G1 X44.414 Y29.423 Z-1.500 F500.000
G1 X44.414 Y29.423 Z-2.000 F300.000
G1 X44.007 Y29.829 Z-2.000 F500.000
G1 X46.020 Y31.843 Z-2.000 F500.000
G3 X46.020 Y33.115 Z-2.000 I-0.649 J0.636 K0.000 F500.000
G1 X45.006 Y34.130 Z-2.000 F500.000
G3 X43.831 Y34.211 Z-2.000 I-0.634 J-0.645 K0.000 F500.000
G3 X43.112 Y33.509 Z-2.000 I3.204 J-4.004 K0.000 F500.000
G1 X42.590 Y34.030 Z-2.000 F500.000
G3 X41.054 Y33.394 Z-2.000 I-0.633 J-0.644 K0.000 F500.000
G1 X41.054 Y31.483 Z-2.000 F500.000
G1 X40.378 Y30.807 Z-2.000 F500.000
G1 X39.905 Y31.280 Z-2.000 F500.000
G1 X40.595 Y31.969 Z-2.000 F500.000
G3 X40.675 Y33.143 Z-2.000 I-0.645 J0.634 K0.000 F500.000
G3 X40.038 Y33.798 Z-2.000 I-3.643 J-2.907 K0.000 F500.000
G1 X40.794 Y34.554 Z-2.000 F500.000
G3 X40.794 Y35.827 Z-2.000 I-0.649 J0.636 K0.000 F500.000
G1 X35.827 Y40.794 Z-2.000 F500.000
G3 X34.554 Y40.794 Z-2.000 I-0.636 J-0.649 K0.000 F500.000
G1 X33.793 Y40.033 Z-2.000 F500.000
G1 X33.075 Y40.752 Z-2.000 F500.000
G3 X31.901 Y40.833 Z-2.000 I-0.634 J-0.645 K0.000 F500.000
G3 X31.118 Y40.067 Z-2.000 I3.494 J-4.358 K0.000 F500.000
G1 X30.807 Y40.378 Z-2.000 F500.000
G1 X31.465 Y41.036 Z-2.000 F500.000
G1 X33.404 Y41.050 Z-2.000 F500.000
G3 X34.129 Y42.466 Z-2.000 I-0.011 J0.900 K0.000 F500.000
G3 X33.466 Y43.154 Z-2.000 I-3.245 J-2.463 K0.000 F500.000
G1 X34.087 Y43.775 Z-2.000 F500.000
G3 X34.087 Y45.047 Z-2.000 I-0.649 J0.636 K0.000 F500.000
G1 X33.093 Y46.042 Z-2.000 F500.000
G3 X31.820 Y46.042 Z-2.000 I-0.636 J-0.649 K0.000 F500.000
G1 X29.807 Y44.029 Z-2.000 F500.000
G1 X29.423 Y44.414 Z-2.000 F500.000
G1 X33.785 Y48.775 Z-2.000 F500.000
G1 X34.474 Y48.086 Z-2.000 F500.000
G3 X35.648 Y48.005 Z-2.000 I0.634 J0.645 K0.000 F500.000
G3 X36.385 Y48.724 Z-2.000 I-3.281 J4.098 K0.000 F500.000
G1 X36.867 Y48.242 Z-2.000 F500.000
G3 X38.403 Y48.879 Z-2.000 I0.633 J0.644 K0.000 F500.000
G1 X38.403 Y50.870 Z-2.000 F500.000
G1 X39.046 Y51.513 Z-2.000 F500.000
G1 X39.559 Y51.001 Z-2.000 F500.000
G1 X38.902 Y50.344 Z-2.000 F500.000
G3 X38.902 Y49.071 Z-2.000 I0.649 J-0.636 K0.000 F500.000
G1 X39.674 Y48.299 Z-2.000 F500.000
G1 X38.878 Y47.504 Z-2.000 F500.000
G3 X38.878 Y46.231 Z-2.000 I0.649 J-0.636 K0.000 F500.000
G1 X46.231 Y38.878 Z-2.000 F500.000
G3 X47.504 Y38.878 Z-2.000 I0.636 J0.649 K0.000 F500.000
G1 X48.299 Y39.674 Z-2.000 F500.000
G1 X49.071 Y38.902 Z-2.000 F500.000
G3 X50.245 Y38.821 Z-2.000 I0.634 J0.645 K0.000 F500.000
G3 X51.001 Y39.559 Z-2.000 I-3.367 J4.203 K0.000 F500.000
G1 X51.513 Y39.046 Z-2.000 F500.000
G1 X50.870 Y38.403 Z-2.000 F500.000
G1 X48.879 Y38.403 Z-2.000 F500.000
G3 X48.148 Y36.986 Z-2.000 I0.005 J-0.900 K0.000 F500.000
G3 X48.724 Y36.385 Z-2.000 I2.829 J2.133 K0.000 F500.000
G1 X48.086 Y35.747 Z-2.000 F500.000
G3 X48.005 Y34.573 Z-2.000 I0.645 J-0.634 K0.000 F500.000
G3 X48.775 Y33.785 Z-2.000 I4.385 J3.516 K0.000 F500.000
G1 X44.414 Y29.423 Z-2.000 F500.000
G0 Z5.000
G0 X47.044 Y33.750 Z5.000
G0 X47.044 Y33.750 Z3.000
G1 X47.044 Y33.750 Z-0.750 F300.000
G1 X46.869 Y33.964 Z-0.750 F500.000
G1 X45.854 Y34.978 Z-0.750 F500.000
G3 X45.533 Y35.236 Z-0.750 I-1.468 J-1.502 K0.000 F500.000
G3 X45.575 Y37.871 Z-0.750 I-1.558 J1.343 K0.000 F500.000
G3 X46.788 Y37.421 Z-0.750 I1.246 J1.498 K0.000 F500.000
G3 X47.090 Y36.416 Z-0.750 I1.995 J0.051 K0.000 F500.000
G3 X47.094 Y33.800 Z-0.750 I1.588 J-1.305 K0.000 F500.000
G1 X47.044 Y33.750 Z-0.750 F500.000
G1 X47.044 Y33.750 Z-1.500 F300.000
G1 X46.869 Y33.964 Z-1.500 F500.000
G1 X45.854 Y34.978 Z-1.500 F500.000
G3 X45.533 Y35.236 Z-1.500 I-1.468 J-1.502 K0.000 F500.000
G3 X45.575 Y37.871 Z-1.500 I-1.558 J1.343 K0.000 F500.000
G3 X46.788 Y37.421 Z-1.500 I1.246 J1.498 K0.000 F500.000
G3 X47.090 Y36.416 Z-1.500 I1.995 J0.051 K0.000 F500.000
G3 X47.094 Y33.800 Z-1.500 I1.588 J-1.305 K0.000 F500.000
G1 X47.044 Y33.750 Z-1.500 F500.000
G1 X47.044 Y33.750 Z-2.000 F300.000
G1 X46.869 Y33.964 Z-2.000 F500.000
G1 X45.854 Y34.978 Z-2.000 F500.000
G3 X45.533 Y35.236 Z-2.000 I-1.468 J-1.502 K0.000 F500.000
G3 X45.575 Y37.871 Z-2.000 I-1.558 J1.343 K0.000 F500.000
G3 X46.788 Y37.421 Z-2.000 I1.246 J1.498 K0.000 F500.000
G3 X47.090 Y36.416 Z-2.000 I1.995 J0.051 K0.000 F500.000
G3 X47.094 Y33.800 Z-2.000 I1.588 J-1.305 K0.000 F500.000
G1 X47.044 Y33.750 Z-2.000 F500.000
G0 Z5.000
G0 X44.593 Y35.969 Z5.000
G0 X44.593 Y35.969 Z3.000
G1 X44.593 Y35.969 Z-0.750 F300.000
G2 X44.568 Y35.943 Z-0.750 I-0.674 J0.610 K0.000 F500.000
G1 X43.598 Y34.972 Z-0.750 F500.000
G2 X42.739 Y34.740 Z-0.750 I-0.636 J0.650 K0.000 F500.000
G2 X42.325 Y34.972 Z-0.750 I0.267 J0.961 K0.000 F500.000
G1 X41.486 Y35.811 Z-0.750 F500.000
G2 X41.486 Y37.084 Z-0.750 I0.649 J0.636 K0.000 F500.000
G1 X42.456 Y38.055 Z-0.750 F500.000
G2 X43.729 Y38.055 Z-0.750 I0.636 J-0.649 K0.000 F500.000
G1 X44.568 Y37.216 Z-0.750 F500.000
G2 X44.593 Y35.969 Z-0.750 I-0.649 J-0.636 K0.000 F500.000
G1 X44.593 Y35.969 Z-1.500 F300.000
G2 X44.568 Y35.943 Z-1.500 I-0.674 J0.610 K0.000 F500.000
G1 X43.598 Y34.972 Z-1.500 F500.000
G2 X42.739 Y34.740 Z-1.500 I-0.636 J0.650 K0.000 F500.000
G2 X42.325 Y34.972 Z-1.500 I0.267 J0.961 K0.000 F500.000
G1 X41.486 Y35.811 Z-1.500 F500.000
G2 X41.486 Y37.084 Z-1.500 I0.649 J0.636 K0.000 F500.000
G1 X42.456 Y38.055 Z-1.500 F500.000
G2 X43.729 Y38.055 Z-1.500 I0.636 J-0.649 K0.000 F500.000
G1 X44.568 Y37.216 Z-1.500 F500.000
G2 X44.593 Y35.969 Z-1.500 I-0.649 J-0.636 K0.000 F500.000
G1 X44.593 Y35.969 Z-2.000 F300.000
G2 X44.568 Y35.943 Z-2.000 I-0.674 J0.610 K0.000 F500.000
G1 X43.598 Y34.972 Z-2.000 F500.000
G2 X42.739 Y34.740 Z-2.000 I-0.636 J0.650 K0.000 F500.000
G2 X42.325 Y34.972 Z-2.000 I0.267 J0.961 K0.000 F500.000
G1 X41.486 Y35.811 Z-2.000 F500.000
G2 X41.486 Y37.084 Z-2.000 I0.649 J0.636 K0.000 F500.000
G1 X42.456 Y38.055 Z-2.000 F500.000
G2 X43.729 Y38.055 Z-2.000 I0.636 J-0.649 K0.000 F500.000
G1 X44.568 Y37.216 Z-2.000 F500.000
G2 X44.593 Y35.969 Z-2.000 I-0.649 J-0.636 K0.000 F500.000
G0 Z5.000
G0 X44.241 Y39.171 Z5.000
G0 X44.241 Y39.171 Z3.000
G1 X44.241 Y39.171 Z-0.750 F300.000
G3 X41.608 Y38.903 Z-0.750 I-1.153 J-1.741 K0.000 F500.000
G1 X40.637 Y37.933 Z-0.750 F500.000
G1 X40.524 Y37.794 Z-0.750 F500.000
G1 X37.794 Y40.524 Z-0.750 F500.000
G1 X37.933 Y40.637 Z-0.750 F500.000
G1 X38.903 Y41.608 Z-0.750 F500.000
G3 X39.171 Y44.241 Z-0.750 I-1.495 J1.482 K0.000 F500.000
G1 X44.241 Y39.171 Z-0.750 F500.000
G1 X44.241 Y39.171 Z-1.500 F300.000
G3 X41.608 Y38.903 Z-1.500 I-1.153 J-1.741 K0.000 F500.000
G1 X40.637 Y37.933 Z-1.500 F500.000
G1 X40.524 Y37.794 Z-1.500 F500.000
G1 X37.794 Y40.524 Z-1.500 F500.000
G1 X37.933 Y40.637 Z-1.500 F500.000
G1 X38.903 Y41.608 Z-1.500 F500.000
G3 X39.171 Y44.241 Z-1.500 I-1.495 J1.482 K0.000 F500.000
G1 X44.241 Y39.171 Z-1.500 F500.000
G1 X44.241 Y39.171 Z-2.000 F300.000
G3 X41.608 Y38.903 Z-2.000 I-1.153 J-1.741 K0.000 F500.000
G1 X40.637 Y37.933 Z-2.000 F500.000
G1 X40.524 Y37.794 Z-2.000 F500.000
G1 X37.794 Y40.524 Z-2.000 F500.000
G1 X37.933 Y40.637 Z-2.000 F500.000
G1 X38.903 Y41.608 Z-2.000 F500.000
G3 X39.171 Y44.241 Z-2.000 I-1.495 J1.482 K0.000 F500.000
G1 X44.241 Y39.171 Z-2.000 F500.000
G0 Z5.000
G0 X41.448 Y40.267 Z5.000
G0 X41.448 Y40.267 Z3.000
G1 X41.448 Y40.267 Z-0.750 F300.000
G3 X40.511 Y39.504 Z-0.750 I1.566 J-2.881 K0.000 F500.000
G1 X39.504 Y40.511 Z-0.750 F500.000
G3 X40.262 Y41.453 Z-0.750 I-1.853 J2.269 K0.000 F500.000
G3 X41.448 Y40.267 Z-0.750 I3517528.212 J3517527.026 K0.000 F500.000
G1 X40.938 Y40.317 Z-0.750 F300.000
G3 X40.511 Y39.963 Z-0.750 I1.583 J-2.345 K0.000 F500.000
G1 X39.963 Y40.511 Z-0.750 F500.000
G3 X40.317 Y40.938 Z-0.750 I-1.991 J2.010 K0.000 F500.000
G3 X40.938 Y40.317 Z-0.750 I964755.903 J964755.282 K0.000 F500.000
G1 X40.938 Y40.317 Z-1.500 F300.000
G3 X40.511 Y39.963 Z-1.500 I1.583 J-2.345 K0.000 F500.000
G1 X39.963 Y40.511 Z-1.500 F500.000
G3 X40.317 Y40.938 Z-1.500 I-1.991 J2.010 K0.000 F500.000
G3 X40.938 Y40.317 Z-1.500 I964755.903 J964755.282 K0.000 F500.000
G1 X41.119 Y40.061 Z-1.500 F300.000
G3 X40.511 Y39.504 Z-1.500 I1.895 J-2.676 K0.000 F500.000
G1 X39.504 Y40.511 Z-1.500 F500.000
G3 X40.262 Y41.453 Z-1.500 I-1.853 J2.269 K0.000 F500.000
G3 X41.448 Y40.267 Z-1.500 I3517528.212 J3517527.026 K0.000 F500.000
G3 X41.119 Y40.061 Z-1.500 I1.566 J-2.881 K0.000 F500.000
G1 X41.119 Y40.061 Z-2.000 F300.000
G3 X40.511 Y39.504 Z-2.000 I1.895 J-2.676 K0.000 F500.000
G1 X39.504 Y40.511 Z-2.000 F500.000
G3 X40.262 Y41.453 Z-2.000 I-1.853 J2.269 K0.000 F500.000
G3 X41.448 Y40.267 Z-2.000 I3517528.212 J3517527.026 K0.000 F500.000
G3 X41.119 Y40.061 Z-2.000 I1.566 J-2.881 K0.000 F500.000
G1 X40.938 Y40.317 Z-2.000 F300.000
G3 X40.511 Y39.963 Z-2.000 I1.583 J-2.345 K0.000 F500.000
G1 X39.963 Y40.511 Z-2.000 F500.000
G3 X40.317 Y40.938 Z-2.000 I-1.991 J2.010 K0.000 F500.000
G3 X40.938 Y40.317 Z-2.000 I964755.903 J964755.282 K0.000 F500.000
G0 Z5.000
G0 X38.121 Y42.531 Z5.000
G0 X38.121 Y42.531 Z3.000
G1 X38.121 Y42.531 Z-0.750 F300.000
G2 X38.055 Y42.456 Z-0.750 I-0.715 J0.562 K0.000 F500.000
G1 X37.084 Y41.486 Z-0.750 F500.000
G2 X36.225 Y41.254 Z-0.750 I-0.636 J0.650 K0.000 F500.000
G2 X35.811 Y41.486 Z-0.750 I0.267 J0.961 K0.000 F500.000
G1 X34.972 Y42.325 Z-0.750 F500.000
G2 X34.972 Y43.598 Z-0.750 I0.649 J0.636 K0.000 F500.000
G1 X35.943 Y44.568 Z-0.750 F500.000
G2 X37.216 Y44.568 Z-0.750 I0.636 J-0.649 K0.000 F500.000
G1 X38.055 Y43.729 Z-0.750 F500.000
G2 X38.121 Y42.531 Z-0.750 I-0.649 J-0.636 K0.000 F500.000
G1 X38.121 Y42.531 Z-1.500 F300.000
G2 X38.055 Y42.456 Z-1.500 I-0.715 J0.562 K0.000 F500.000
G1 X37.084 Y41.486 Z-1.500 F500.000
G2 X36.225 Y41.254 Z-1.500 I-0.636 J0.650 K0.000 F500.000
G2 X35.811 Y41.486 Z-1.500 I0.267 J0.961 K0.000 F500.000
G1 X34.972 Y42.325 Z-1.500 F500.000
G2 X34.972 Y43.598 Z-1.500 I0.649 J0.636 K0.000 F500.000
G1 X35.943 Y44.568 Z-1.500 F500.000
G2 X37.216 Y44.568 Z-1.500 I0.636 J-0.649 K0.000 F500.000
G1 X38.055 Y43.729 Z-1.500 F500.000
G2 X38.121 Y42.531 Z-1.500 I-0.649 J-0.636 K0.000 F500.000
G1 X38.121 Y42.531 Z-2.000 F300.000
G2 X38.055 Y42.456 Z-2.000 I-0.715 J0.562 K0.000 F500.000
G1 X37.084 Y41.486 Z-2.000 F500.000
G2 X36.225 Y41.254 Z-2.000 I-0.636 J0.650 K0.000 F500.000
G2 X35.811 Y41.486 Z-2.000 I0.267 J0.961 K0.000 F500.000
G1 X34.972 Y42.325 Z-2.000 F500.000
G2 X34.972 Y43.598 Z-2.000 I0.649 J0.636 K0.000 F500.000
G1 X35.943 Y44.568 Z-2.000 F500.000
G2 X37.216 Y44.568 Z-2.000 I0.636 J-0.649 K0.000 F500.000
G1 X38.055 Y43.729 Z-2.000 F500.000
G2 X38.121 Y42.531 Z-2.000 I-0.649 J-0.636 K0.000 F500.000
G0 Z5.000
G0 X37.871 Y45.575 Z5.000
G0 X37.871 Y45.575 Z3.000
G1 X37.871 Y45.575 Z-0.750 F300.000
G3 X35.225 Y45.524 Z-0.750 I-1.293 J-1.601 K0.000 F500.000
G3 X34.935 Y45.896 Z-0.750 I-1.174 J-0.616 K0.000 F500.000
G1 X33.941 Y46.890 Z-0.750 F500.000
G1 X33.752 Y47.046 Z-0.750 F500.000
G1 X33.800 Y47.094 Z-0.750 F500.000
G3 X36.416 Y47.090 Z-0.750 I1.310 J1.584 K0.000 F500.000
G3 X37.423 Y46.789 Z-0.750 I1.022 J1.583 K0.000 F500.000
G3 X37.871 Y45.575 Z-0.750 I1.937 J0.026 K0.000 F500.000
G1 X37.871 Y45.575 Z-1.500 F300.000
G3 X35.225 Y45.524 Z-1.500 I-1.293 J-1.601 K0.000 F500.000
G3 X34.935 Y45.896 Z-1.500 I-1.174 J-0.616 K0.000 F500.000
G1 X33.941 Y46.890 Z-1.500 F500.000
G1 X33.752 Y47.046 Z-1.500 F500.000
G1 X33.800 Y47.094 Z-1.500 F500.000
G3 X36.416 Y47.090 Z-1.500 I1.310 J1.584 K0.000 F500.000
G3 X37.423 Y46.789 Z-1.500 I1.022 J1.583 K0.000 F500.000
G3 X37.871 Y45.575 Z-1.500 I1.937 J0.026 K0.000 F500.000
G1 X37.871 Y45.575 Z-2.000 F300.000
G3 X35.225 Y45.524 Z-2.000 I-1.293 J-1.601 K0.000 F500.000
G3 X34.935 Y45.896 Z-2.000 I-1.174 J-0.616 K0.000 F500.000
G1 X33.941 Y46.890 Z-2.000 F500.000
G1 X33.752 Y47.046 Z-2.000 F500.000
G1 X33.800 Y47.094 Z-2.000 F500.000
G3 X36.416 Y47.090 Z-2.000 I1.310 J1.584 K0.000 F500.000
G3 X37.423 Y46.789 Z-2.000 I1.022 J1.583 K0.000 F500.000
G3 X37.871 Y45.575 Z-2.000 I1.937 J0.026 K0.000 F500.000
G0 Z5.000
G0 Z5.000
G0 X37.871 Y45.575
G0 X44.770 Y53.876
G0 X44.770 Y53.876 Z3.000
G1 X44.770 Y53.876 Z-0.750 F300.000
G2 X-3.559 Y-69.959 Z-0.750 I-44.770 J-53.876 K0.000 F500.000
G2 X-69.959 Y3.559 Z-0.750 I3.559 J69.959 K0.000 F500.000
G2 X3.559 Y69.959 Z-0.750 I69.959 J-3.559 K0.000 F500.000
G2 X44.770 Y53.876 Z-0.750 I-3.559 J-69.959 K0.000 F500.000
G1 X44.977 Y54.126 Z-0.750 F300.000
G2 X-3.581 Y-70.284 Z-0.750 I-44.977 J-54.126 K0.000 F500.000
G2 X3.581 Y70.284 Z-0.750 I3.581 J70.284 K0.000 F500.000
G2 X44.977 Y54.126 Z-0.750 I-3.581 J-70.284 K0.000 F500.000
G1 X45.185 Y54.376 Z-0.750 F300.000
G2 X-3.603 Y-70.608 Z-0.750 I-45.185 J-54.376 K0.000 F500.000
G2 X-70.608 Y3.603 Z-0.750 I3.603 J70.608 K0.000 F500.000
G2 X3.603 Y70.608 Z-0.750 I70.608 J-3.603 K0.000 F500.000
G2 X45.185 Y54.376 Z-0.750 I-3.603 J-70.608 K0.000 F500.000
G1 X45.505 Y54.761 Z-0.750 F300.000
G2 X5.880 Y-70.957 Z-0.750 I-45.505 J-54.761 K0.000 F500.000
G2 X-70.957 Y-5.880 Z-0.750 I-5.880 J70.957 K0.000 F500.000
G2 X-5.880 Y70.957 Z-0.750 I70.957 J5.880 K0.000 F500.000
G2 X45.505 Y54.761 Z-0.750 I5.880 J-70.957 K0.000 F500.000
G1 X45.712 Y55.011 Z-0.750 F300.000
G2 X5.906 Y-71.281 Z-0.750 I-45.712 J-55.011 K0.000 F500.000
G2 X-71.281 Y-5.906 Z-0.750 I-5.906 J71.281 K0.000 F500.000
G2 X-5.906 Y71.281 Z-0.750 I71.281 J5.906 K0.000 F500.000
G2 X45.712 Y55.011 Z-0.750 I5.906 J-71.281 K0.000 F500.000
G1 X45.920 Y55.261 Z-0.750 F300.000
G2 X5.933 Y-71.605 Z-0.750 I-45.920 J-55.261 K0.000 F500.000
G2 X-71.605 Y-5.933 Z-0.750 I-5.933 J71.605 K0.000 F500.000
G2 X-5.933 Y71.605 Z-0.750 I71.605 J5.933 K0.000 F500.000
G2 X45.920 Y55.261 Z-0.750 I5.933 J-71.605 K0.000 F500.000
G1 X45.920 Y55.261 Z-1.500 F300.000
G2 X5.933 Y-71.605 Z-1.500 I-45.920 J-55.261 K0.000 F500.000
G2 X-71.605 Y-5.933 Z-1.500 I-5.933 J71.605 K0.000 F500.000
G2 X-5.933 Y71.605 Z-1.500 I71.605 J5.933 K0.000 F500.000
G2 X45.920 Y55.261 Z-1.500 I5.933 J-71.605 K0.000 F500.000
G1 X45.505 Y54.761 Z-1.500 F300.000
G2 X5.880 Y-70.957 Z-1.500 I-45.505 J-54.761 K0.000 F500.000
G2 X-70.957 Y-5.880 Z-1.500 I-5.880 J70.957 K0.000 F500.000
G2 X-5.880 Y70.957 Z-1.500 I70.957 J5.880 K0.000 F500.000
G2 X45.505 Y54.761 Z-1.500 I5.880 J-70.957 K0.000 F500.000
G1 X45.185 Y54.376 Z-1.500 F300.000
G2 X-3.603 Y-70.608 Z-1.500 I-45.185 J-54.376 K0.000 F500.000
G2 X-70.608 Y3.603 Z-1.500 I3.603 J70.608 K0.000 F500.000
G2 X3.603 Y70.608 Z-1.500 I70.608 J-3.603 K0.000 F500.000
G2 X45.185 Y54.376 Z-1.500 I-3.603 J-70.608 K0.000 F500.000
G1 X44.977 Y54.126 Z-1.500 F300.000
G2 X-3.581 Y-70.284 Z-1.500 I-44.977 J-54.126 K0.000 F500.000
G2 X3.581 Y70.284 Z-1.500 I3.581 J70.284 K0.000 F500.000
G2 X44.977 Y54.126 Z-1.500 I-3.581 J-70.284 K0.000 F500.000
G1 X44.770 Y53.876 Z-1.500 F300.000
G2 X-3.559 Y-69.959 Z-1.500 I-44.770 J-53.876 K0.000 F500.000
G2 X-69.959 Y3.559 Z-1.500 I3.559 J69.959 K0.000 F500.000
G2 X3.559 Y69.959 Z-1.500 I69.959 J-3.559 K0.000 F500.000
G2 X44.770 Y53.876 Z-1.500 I-3.559 J-69.959 K0.000 F500.000
G1 X45.712 Y55.011 Z-1.500 F300.000
G2 X5.906 Y-71.281 Z-1.500 I-45.712 J-55.011 K0.000 F500.000
G2 X-71.281 Y-5.906 Z-1.500 I-5.906 J71.281 K0.000 F500.000
G2 X-5.906 Y71.281 Z-1.500 I71.281 J5.906 K0.000 F500.000
G2 X45.712 Y55.011 Z-1.500 I5.906 J-71.281 K0.000 F500.000
G1 X45.920 Y55.261 Z-2.000 F300.000
G2 X5.933 Y-71.605 Z-2.000 I-45.920 J-55.261 K0.000 F500.000
G2 X-71.605 Y-5.933 Z-2.000 I-5.933 J71.605 K0.000 F500.000
G2 X-5.933 Y71.605 Z-2.000 I71.605 J5.933 K0.000 F500.000
G2 X45.920 Y55.261 Z-2.000 I5.933 J-71.605 K0.000 F500.000
G1 X45.505 Y54.761 Z-2.000 F300.000
G2 X5.880 Y-70.957 Z-2.000 I-45.505 J-54.761 K0.000 F500.000
G2 X-70.957 Y-5.880 Z-2.000 I-5.880 J70.957 K0.000 F500.000
G2 X-5.880 Y70.957 Z-2.000 I70.957 J5.880 K0.000 F500.000
G2 X45.505 Y54.761 Z-2.000 I5.880 J-70.957 K0.000 F500.000
G1 X45.185 Y54.376 Z-2.000 F300.000
G2 X-3.603 Y-70.608 Z-2.000 I-45.185 J-54.376 K0.000 F500.000
G2 X-70.608 Y3.603 Z-2.000 I3.603 J70.608 K0.000 F500.000
G2 X3.603 Y70.608 Z-2.000 I70.608 J-3.603 K0.000 F500.000
G2 X45.185 Y54.376 Z-2.000 I-3.603 J-70.608 K0.000 F500.000
G1 X44.977 Y54.126 Z-2.000 F300.000
G2 X-3.581 Y-70.284 Z-2.000 I-44.977 J-54.126 K0.000 F500.000
G2 X3.581 Y70.284 Z-2.000 I3.581 J70.284 K0.000 F500.000
G2 X44.977 Y54.126 Z-2.000 I-3.581 J-70.284 K0.000 F500.000
G1 X44.770 Y53.876 Z-2.000 F300.000
G2 X-3.559 Y-69.959 Z-2.000 I-44.770 J-53.876 K0.000 F500.000
G2 X-69.959 Y3.559 Z-2.000 I3.559 J69.959 K0.000 F500.000
G2 X3.559 Y69.959 Z-2.000 I69.959 J-3.559 K0.000 F500.000
G2 X44.770 Y53.876 Z-2.000 I-3.559 J-69.959 K0.000 F500.000
G1 X45.712 Y55.011 Z-2.000 F300.000
G2 X5.906 Y-71.281 Z-2.000 I-45.712 J-55.011 K0.000 F500.000
G2 X-71.281 Y-5.906 Z-2.000 I-5.906 J71.281 K0.000 F500.000
G2 X-5.906 Y71.281 Z-2.000 I71.281 J5.906 K0.000 F500.000
G2 X45.712 Y55.011 Z-2.000 I5.906 J-71.281 K0.000 F500.000
G0 Z5.000
G0 Z5.000
G0 X45.712 Y55.011
G0 X-29.423 Y44.414
G0 X-29.423 Y44.414 Z3.000
G1 X-29.423 Y44.414 Z-0.750 F300.000
G1 X-29.829 Y44.007 Z-0.750 F500.000
G1 X-31.843 Y46.020 Z-0.750 F500.000
G3 X-33.115 Y46.020 Z-0.750 I-0.636 J-0.649 K0.000 F500.000
G1 X-34.130 Y45.006 Z-0.750 F500.000
G3 X-34.211 Y43.831 Z-0.750 I0.645 J-0.634 K0.000 F500.000
G3 X-33.509 Y43.112 Z-0.750 I4.004 J3.204 K0.000 F500.000
G1 X-34.030 Y42.590 Z-0.750 F500.000
G3 X-33.394 Y41.054 Z-0.750 I0.644 J-0.633 K0.000 F500.000
G1 X-31.483 Y41.054 Z-0.750 F500.000
G1 X-30.807 Y40.378 Z-0.750 F500.000
G1 X-31.280 Y39.905 Z-0.750 F500.000
G1 X-31.969 Y40.595 Z-0.750 F500.000
G3 X-33.143 Y40.675 Z-0.750 I-0.634 J-0.645 K0.000 F500.000
G3 X-33.798 Y40.038 Z-0.750 I2.907 J-3.643 K0.000 F500.000
G1 X-34.554 Y40.794 Z-0.750 F500.000
G3 X-35.827 Y40.794 Z-0.750 I-0.636 J-0.649 K0.000 F500.000
G1 X-40.794 Y35.827 Z-0.750 F500.000
G3 X-40.794 Y34.554 Z-0.750 I0.649 J-0.636 K0.000 F500.000
G1 X-40.033 Y33.793 Z-0.750 F500.000
G1 X-40.752 Y33.075 Z-0.750 F500.000
G3 X-40.833 Y31.901 Z-0.750 I0.645 J-0.634 K0.000 F500.000
G3 X-40.067 Y31.118 Z-0.750 I4.358 J3.494 K0.000 F500.000
G1 X-40.378 Y30.807 Z-0.750 F500.000
G1 X-41.036 Y31.465 Z-0.750 F500.000
G1 X-41.050 Y33.404 Z-0.750 F500.000
G3 X-42.466 Y34.129 Z-0.750 I-0.900 J-0.011 K0.000 F500.000
G3 X-43.154 Y33.466 Z-0.750 I2.463 J-3.245 K0.000 F500.000
G1 X-43.775 Y34.087 Z-0.750 F500.000
G3 X-45.047 Y34.087 Z-0.750 I-0.636 J-0.649 K0.000 F500.000
G1 X-46.042 Y33.093 Z-0.750 F500.000
G3 X-46.042 Y31.820 Z-0.750 I0.649 J-0.636 K0.000 F500.000
G1 X-44.029 Y29.807 Z-0.750 F500.000
G1 X-44.414 Y29.423 Z-0.750 F500.000
G1 X-48.775 Y33.785 Z-0.750 F500.000
G1 X-48.086 Y34.474 Z-0.750 F500.000
G3 X-48.005 Y35.648 Z-0.750 I-0.645 J0.634 K0.000 F500.000
G3 X-48.724 Y36.385 Z-0.750 I-4.098 J-3.281 K0.000 F500.000
G1 X-48.242 Y36.867 Z-0.750 F500.000
G3 X-48.879 Y38.403 Z-0.750 I-0.644 J0.633 K0.000 F500.000
G1 X-50.870 Y38.403 Z-0.750 F500.000
G1 X-51.513 Y39.046 Z-0.750 F500.000
G1 X-51.001 Y39.559 Z-0.750 F500.000
G1 X-50.344 Y38.902 Z-0.750 F500.000
