(Exported by FreeCAD)
(Post Processor: script_module)
(Output Time:2024-09-29 13:10:57.096103)
(Begin preamble)
G17 G90
G21
(Begin operation: 1.5 incrustations)
(Path: 1.5 incrustations)
(1.5 incrustations)
(Begin toolchange)
( M6 T1 )
M3 S24000
(Finish operation: 1.5 incrustations)
(Begin operation: Fixture)
(Path: Fixture)
G54
(Finish operation: Fixture)
(Begin operation: Pocket_Shape)
(Path: Pocket_Shape)
(Pocket_Shape)
G0 Z9.000
G0 X-40.019 Y-31.335
G0 Z7.000
G1 X-40.019 Y-31.335 Z3.250 F100.000
G3 X-40.079 Y-31.238 Z3.250 I-0.150 J-0.026 K0.000 F300.000
G3 X-40.197 Y-31.082 Z3.250 I-1.043 J-0.669 K0.000 F300.000
G3 X-40.457 Y-30.935 Z3.250 I-0.369 J-0.349 K0.000 F300.000
G3 X-40.815 Y-31.224 Z3.250 I0.390 J-0.850 K0.000 F300.000
G2 X-40.963 Y-31.359 Z3.250 I-0.837 J0.774 K0.000 F300.000
G3 X-41.110 Y-31.570 Z3.250 I0.370 J-0.413 K0.000 F300.000
G2 X-41.149 Y-33.581 Z3.250 I-23.617 J-0.548 K0.000 F300.000
G2 X-41.351 Y-34.040 Z3.250 I-0.798 J0.077 K0.000 F300.000
G2 X-42.490 Y-34.223 Z3.250 I-0.679 J0.593 K0.000 F300.000
G2 X-43.045 Y-33.679 Z3.250 I1.388 J1.971 K0.000 F300.000
G3 X-43.279 Y-33.659 Z3.250 I-0.130 J-0.144 K0.000 F300.000
G2 X-43.789 Y-34.186 Z3.250 I-2.233 J1.652 K0.000 F300.000
G2 X-45.023 Y-34.241 Z3.250 I-0.647 J0.653 K0.000 F300.000
G2 X-46.160 Y-33.100 Z3.250 I9.221 J10.326 K0.000 F300.000
G2 X-46.053 Y-31.875 Z3.250 I0.740 J0.553 K0.000 F300.000
G1 X-44.160 Y-29.982 Z3.250 F300.000
G3 X-44.129 Y-29.858 Z3.250 I-0.057 J0.080 K0.000 F300.000
G3 X-44.237 Y-29.710 Z3.250 I-0.268 J-0.081 K0.000 F300.000
G2 X-44.335 Y-29.600 Z3.250 I0.810 J0.821 K0.000 F300.000
G3 X-44.580 Y-29.590 Z3.250 I-0.128 J-0.121 K0.000 F300.000
G1 X-48.751 Y-33.760 Z3.250 F300.000
G3 X-48.772 Y-33.948 Z3.250 I0.098 J-0.106 K0.000 F300.000
G2 X-48.191 Y-34.500 Z3.250 I-1.702 J-2.371 K0.000 F300.000
G2 X-48.049 Y-35.687 Z3.250 I-0.640 J-0.678 K0.000 F300.000
G2 X-48.268 Y-35.917 Z3.250 I-1.173 J0.892 K0.000 F300.000
G3 X-48.708 Y-36.357 Z3.250 I120.054 J-120.758 K0.000 F300.000
G3 X-48.739 Y-36.500 Z3.250 I0.100 J-0.097 K0.000 F300.000
G2 X-48.098 Y-37.346 Z3.250 I-0.957 J-1.391 K0.000 F300.000
G2 X-49.018 Y-38.471 Z3.250 I-0.865 J-0.231 K0.000 F300.000
G1 X-50.881 Y-38.471 Z3.250 F300.000
G3 X-50.946 Y-38.495 Z3.250 I-0.010 J-0.073 K0.000 F300.000
G3 X-51.264 Y-38.780 Z3.250 I0.855 J-1.276 K0.000 F300.000
G2 X-51.402 Y-38.899 Z3.250 I-0.836 J0.825 K0.000 F300.000
G3 X-51.523 Y-39.130 Z3.250 I0.246 J-0.276 K0.000 F300.000
G3 X-51.248 Y-39.477 Z3.250 I1.050 J0.548 K0.000 F300.000
G3 X-51.053 Y-39.576 Z3.250 I0.177 J0.108 K0.000 F300.000
G3 X-50.975 Y-39.549 Z3.250 I-0.019 J0.180 K0.000 F300.000
G2 X-50.439 Y-38.996 Z3.250 I2.457 J-1.842 K0.000 F300.000
G2 X-49.263 Y-38.868 Z3.250 I0.665 J-0.649 K0.000 F300.000
G2 X-49.010 Y-39.112 Z3.250 I-1.006 J-1.294 K0.000 F300.000
G3 X-48.513 Y-39.612 Z3.250 I45.027 J44.339 K0.000 F300.000
G3 X-48.405 Y-39.696 Z3.250 I0.144 J0.073 K0.000 F300.000
G3 X-48.287 Y-39.659 Z3.250 I0.024 J0.128 K0.000 F300.000
G2 X-47.234 Y-38.747 Z3.250 I2.617 J-1.960 K0.000 F300.000
G2 X-46.411 Y-38.854 Z3.250 I0.311 J-0.833 K0.000 F300.000
G2 X-46.267 Y-38.978 Z3.250 I-0.531 J-0.763 K0.000 F300.000
G1 X-38.979 Y-46.265 Z3.250 F300.000
G2 X-38.839 Y-47.433 Z3.250 I-0.629 J-0.667 K0.000 F300.000
G1 X-38.903 Y-47.509 Z3.250 F300.000
G1 X-39.556 Y-48.169 Z3.250 F300.000
G2 X-39.655 Y-48.255 Z3.250 I-0.812 J0.843 K0.000 F300.000
G3 X-39.658 Y-48.447 Z3.250 I0.089 J-0.098 K0.000 F300.000
G2 X-38.771 Y-49.477 Z3.250 I-1.894 J-2.530 K0.000 F300.000
G2 X-38.969 Y-50.407 Z3.250 I-0.832 J-0.309 K0.000 F300.000
G3 X-39.505 Y-50.936 Z3.250 I10.281 J-10.952 K0.000 F300.000
G3 X-39.582 Y-51.043 Z3.250 I0.073 J-0.134 K0.000 F300.000
G3 X-39.521 Y-51.176 Z3.250 I0.148 J-0.013 K0.000 F300.000
G3 X-39.335 Y-51.399 Z3.250 I0.969 J0.621 K0.000 F300.000
G3 X-39.096 Y-51.536 Z3.250 I0.466 J0.537 K0.000 F300.000
G3 X-38.611 Y-51.090 Z3.250 I-1.129 J1.712 K0.000 F300.000
G2 X-38.519 Y-50.998 Z3.250 I0.909 J-0.818 K0.000 F300.000
G3 X-38.471 Y-50.869 Z3.250 I-0.135 J0.125 K0.000 F300.000
G3 X-38.471 Y-48.942 Z3.250 I-172.877 J0.935 K0.000 F300.000
G2 X-37.116 Y-48.177 Z3.250 I0.906 J-0.022 K0.000 F300.000
G2 X-36.590 Y-48.689 Z3.250 I-1.145 J-1.700 K0.000 F300.000
G3 X-36.362 Y-48.715 Z3.250 I0.131 J0.135 K0.000 F300.000
G2 X-35.834 Y-48.171 Z3.250 I2.404 J-1.808 K0.000 F300.000
G2 X-34.666 Y-48.052 Z3.250 I0.657 J-0.655 K0.000 F300.000
G2 X-34.429 Y-48.278 Z3.250 I-0.955 J-1.234 K0.000 F300.000
G3 X-33.989 Y-48.718 Z3.250 I24.079 J23.667 K0.000 F300.000
G3 X-33.880 Y-48.798 Z3.250 I0.137 J0.073 K0.000 F300.000
G3 X-33.763 Y-48.754 Z3.250 I0.016 J0.132 K0.000 F300.000
G1 X-29.576 Y-44.567 Z3.250 F300.000
G3 X-29.554 Y-44.421 Z3.250 I-0.061 J0.084 K0.000 F300.000
G2 X-29.706 Y-44.211 Z3.250 I1.104 J0.963 K0.000 F300.000
G3 X-29.973 Y-44.195 Z3.250 I-0.142 J-0.124 K0.000 F300.000
G2 X-31.897 Y-46.118 Z3.250 I-299.734 J297.854 K0.000 F300.000
G2 X-33.195 Y-46.075 Z3.250 I-0.628 J0.675 K0.000 F300.000
G2 X-34.165 Y-45.105 Z3.250 I93.449 J94.395 K0.000 F300.000
G2 X-34.260 Y-43.979 Z3.250 I0.671 J0.624 K0.000 F300.000
G2 X-33.809 Y-43.506 Z3.250 I8.720 J-7.874 K0.000 F300.000
G2 X-33.618 Y-43.316 Z3.250 I2.765 J-2.593 K0.000 F300.000
G3 X-33.602 Y-43.140 Z3.250 I-0.105 J0.099 K0.000 F300.000
G2 X-34.183 Y-42.551 Z3.250 I2.219 J2.774 K0.000 F300.000
G2 X-33.211 Y-41.145 Z3.250 I0.743 J0.526 K0.000 F300.000
G3 X-32.933 Y-41.035 Z3.250 I0.040 J0.304 K0.000 F300.000
G1 X-32.905 Y-41.012 Z3.250 F300.000
G1 X-32.918 Y-41.004 Z3.250 F300.000
G2 X-33.661 Y-40.332 Z3.250 I4.268 J5.469 K0.000 F300.000
G2 X-33.773 Y-40.186 Z3.250 I0.697 J0.649 K0.000 F300.000
G3 X-33.938 Y-40.181 Z3.250 I-0.085 J-0.065 K0.000 F300.000
G2 X-34.962 Y-41.062 Z3.250 I-2.490 J1.859 K0.000 F300.000
G2 X-35.886 Y-40.870 Z3.250 I-0.307 J0.842 K0.000 F300.000
G1 X-35.926 Y-40.830 Z3.250 F300.000
G1 X-40.828 Y-35.928 Z3.250 F300.000
G2 X-40.968 Y-34.760 Z3.250 I0.628 J0.668 K0.000 F300.000
G1 X-40.905 Y-34.684 Z3.250 F300.000
G1 X-40.282 Y-34.054 Z3.250 F300.000
G3 X-40.184 Y-33.963 Z3.250 I-0.359 J0.485 K0.000 F300.000
G3 X-40.232 Y-33.739 Z3.250 I-0.112 J0.093 K0.000 F300.000
G2 X-40.654 Y-33.366 Z3.250 I6.542 J7.843 K0.000 F300.000
G2 X-40.722 Y-32.106 Z3.250 I0.723 J0.671 K0.000 F300.000
G3 X-40.098 Y-31.485 Z3.250 I-21.228 J21.941 K0.000 F300.000
G3 X-40.018 Y-31.375 Z3.250 I-0.073 J0.138 K0.000 F300.000
G3 X-40.019 Y-31.335 Z3.250 I-0.151 J0.014 K0.000 F300.000
G0 Z9.000
G0 X-42.506 Y-34.947 Z9.000
G0 X-42.506 Y-34.947 Z7.000
G1 X-42.506 Y-34.947 Z3.250 F100.000
G3 X-43.655 Y-35.030 Z3.250 I-0.523 J-0.759 K0.000 F300.000
G3 X-44.601 Y-35.976 Z3.250 I82.749 J-83.730 K0.000 F300.000
G3 X-44.708 Y-37.200 Z3.250 I0.633 J-0.672 K0.000 F300.000
G3 X-43.784 Y-38.134 Z3.250 I13.997 J12.925 K0.000 F300.000
G3 X-43.372 Y-38.354 Z3.250 I0.618 J0.660 K0.000 F300.000
G3 X-42.511 Y-38.108 Z3.250 I0.205 J0.914 K0.000 F300.000
G1 X-41.588 Y-37.186 Z3.250 F300.000
G3 X-41.543 Y-35.890 Z3.250 I-0.631 J0.671 K0.000 F300.000
G3 X-42.357 Y-35.075 Z3.250 I-75.232 J-74.364 K0.000 F300.000
G3 X-42.506 Y-34.947 Z3.250 I-0.672 J-0.631 K0.000 F300.000
G0 Z9.000
G0 X-45.608 Y-35.300 Z9.000
G0 X-45.608 Y-35.300 Z7.000
G1 X-45.608 Y-35.300 Z3.250 F100.000
G2 X-45.833 Y-35.126 Z3.250 I0.752 J1.204 K0.000 F300.000
G2 X-47.058 Y-33.898 Z3.250 I10.745 J11.947 K0.000 F300.000
G1 X-47.116 Y-33.822 Z3.250 F300.000
G1 X-47.154 Y-33.861 Z3.250 F300.000
G2 X-47.163 Y-36.502 Z3.250 I-1.671 J-1.315 K0.000 F300.000
G2 X-46.870 Y-37.492 Z3.250 I-1.803 J-1.070 K0.000 F300.000
G1 X-46.824 Y-37.492 Z3.250 F300.000
G2 X-45.679 Y-37.903 Z3.250 I-0.114 J-2.117 K0.000 F300.000
G2 X-45.608 Y-35.300 Z3.250 I1.702 J1.256 K0.000 F300.000
G0 Z9.000
G0 X-44.310 Y-39.238 Z9.000
G0 X-44.310 Y-39.238 Z7.000
G1 X-44.310 Y-39.238 Z3.250 F100.000
G1 X-39.242 Y-44.305 Z3.250 F300.000
G2 X-38.936 Y-41.641 Z3.250 I1.785 J1.145 K0.000 F300.000
G2 X-37.986 Y-40.691 Z3.250 I113.322 J-112.443 K0.000 F300.000
G1 X-37.869 Y-40.584 Z3.250 F300.000
G1 X-40.585 Y-37.867 Z3.250 F300.000
G2 X-40.739 Y-38.035 Z3.250 I-1.652 J1.364 K0.000 F300.000
G1 X-41.698 Y-38.991 Z3.250 F300.000
G2 X-44.228 Y-39.291 Z3.250 I-1.466 J1.545 K0.000 F300.000
G1 X-44.310 Y-39.238 Z3.250 F300.000
G0 Z9.000
G0 X-41.513 Y-40.337 Z9.000
G0 X-41.513 Y-40.337 Z7.000
G1 X-41.513 Y-40.337 Z3.250 F100.000
G1 X-40.338 Y-41.512 Z3.250 F300.000
G2 X-39.785 Y-40.792 Z3.250 I2.687 J-1.490 K0.000 F300.000
G1 X-39.571 Y-40.579 Z3.250 F300.000
G1 X-40.579 Y-39.571 Z3.250 F300.000
G2 X-41.086 Y-40.050 Z3.250 I-4.125 J3.869 K0.000 F300.000
G2 X-41.513 Y-40.337 Z3.250 I-1.987 J2.492 K0.000 F300.000
G1 X-41.000 Y-40.391 Z3.250 F100.000
G1 X-40.393 Y-40.998 Z3.250 F300.000
G1 X-40.283 Y-40.855 Z3.250 F300.000
G2 X-40.031 Y-40.579 Z3.250 I3.002 J-2.488 K0.000 F300.000
G1 X-40.579 Y-40.031 Z3.250 F300.000
G2 X-41.000 Y-40.391 Z3.250 I-2.674 J2.696 K0.000 F300.000
G0 Z9.000
G0 X-38.182 Y-42.593 Z9.000
G0 X-38.182 Y-42.593 Z7.000
G1 X-38.182 Y-42.593 Z3.250 F100.000
G3 X-38.194 Y-43.714 Z3.250 I0.727 J-0.568 K0.000 F300.000
G3 X-37.269 Y-44.648 Z3.250 I13.539 J12.478 K0.000 F300.000
G3 X-36.855 Y-44.868 Z3.250 I0.615 J0.660 K0.000 F300.000
G3 X-35.997 Y-44.622 Z3.250 I0.201 J0.917 K0.000 F300.000
G1 X-35.075 Y-43.700 Z3.250 F300.000
G3 X-35.030 Y-42.402 Z3.250 I-0.631 J0.671 K0.000 F300.000
G3 X-35.844 Y-41.588 Z3.250 I-86.074 J-85.227 K0.000 F300.000
G3 X-37.142 Y-41.544 Z3.250 I-0.671 J-0.630 K0.000 F300.000
G3 X-38.088 Y-42.489 Z3.250 I111.728 J-112.742 K0.000 F300.000
G3 X-38.182 Y-42.593 Z3.250 I0.632 J-0.672 K0.000 F300.000
G0 Z9.000
G0 X-37.902 Y-45.680 Z9.000
G0 X-37.902 Y-45.680 Z7.000
G1 X-37.902 Y-45.680 Z3.250 F100.000
G2 X-37.492 Y-46.859 Z3.250 I-1.713 J-1.257 K0.000 F300.000
G2 X-36.490 Y-47.155 Z3.250 I-0.060 J-2.047 K0.000 F300.000
G2 X-35.971 Y-46.852 Z3.250 I1.206 J-1.470 K0.000 F300.000
G2 X-33.863 Y-47.157 Z3.250 I0.792 J-1.963 K0.000 F300.000
G1 X-33.825 Y-47.119 Z3.250 F300.000
G2 X-34.044 Y-46.923 Z3.250 I1.389 J1.772 K0.000 F300.000
G2 X-35.017 Y-45.949 Z3.250 I94.095 J95.043 K0.000 F300.000
G2 X-35.291 Y-45.597 Z3.250 I1.343 J1.325 K0.000 F300.000
G1 X-35.352 Y-45.649 Z3.250 F300.000
G2 X-37.525 Y-45.902 Z3.250 I-1.298 J1.694 K0.000 F300.000
G2 X-37.902 Y-45.680 Z3.250 I0.785 J1.764 K0.000 F300.000
G0 Z9.000
G0 X-32.100 Y-41.003 Z9.000
G0 X-32.100 Y-41.003 Z7.000
G1 X-32.100 Y-41.003 Z3.250 F100.000
G2 X-32.023 Y-41.067 Z3.250 I-0.391 J-0.549 K0.000 F300.000
G3 X-31.621 Y-41.111 Z3.250 I0.281 J0.706 K0.000 F300.000
G3 X-31.493 Y-41.064 Z3.250 I-0.005 J0.216 K0.000 F300.000
G3 X-31.078 Y-40.665 Z3.250 I-0.865 J1.312 K0.000 F300.000
G2 X-30.964 Y-40.548 Z3.250 I0.803 J-0.668 K0.000 F300.000
G3 X-30.980 Y-40.312 Z3.250 I-0.117 J0.111 K0.000 F300.000
G2 X-31.132 Y-40.198 Z3.250 I1.812 J2.563 K0.000 F300.000
G3 X-31.287 Y-40.210 Z3.250 I-0.068 J-0.124 K0.000 F300.000
G2 X-32.100 Y-41.003 Z3.250 I-3.126 J2.393 K0.000 F300.000
G1 X-32.100 Y-41.003 Z2.500 F100.000
G2 X-32.023 Y-41.067 Z2.500 I-0.391 J-0.549 K0.000 F300.000
G3 X-31.621 Y-41.111 Z2.500 I0.281 J0.706 K0.000 F300.000
G3 X-31.493 Y-41.064 Z2.500 I-0.005 J0.216 K0.000 F300.000
G3 X-31.078 Y-40.665 Z2.500 I-0.865 J1.312 K0.000 F300.000
G2 X-30.964 Y-40.548 Z2.500 I0.803 J-0.668 K0.000 F300.000
G3 X-30.980 Y-40.312 Z2.500 I-0.117 J0.111 K0.000 F300.000
G2 X-31.132 Y-40.198 Z2.500 I1.812 J2.563 K0.000 F300.000
G3 X-31.287 Y-40.210 Z2.500 I-0.068 J-0.124 K0.000 F300.000
G2 X-32.100 Y-41.003 Z2.500 I-3.126 J2.393 K0.000 F300.000
G1 X-32.905 Y-41.012 Z2.500 F100.000
G1 X-32.918 Y-41.004 Z2.500 F300.000
G2 X-33.661 Y-40.332 Z2.500 I4.268 J5.469 K0.000 F300.000
G2 X-33.773 Y-40.186 Z2.500 I0.697 J0.649 K0.000 F300.000
G3 X-33.938 Y-40.181 Z2.500 I-0.085 J-0.065 K0.000 F300.000
G2 X-34.962 Y-41.062 Z2.500 I-2.490 J1.859 K0.000 F300.000
G2 X-35.886 Y-40.870 Z2.500 I-0.307 J0.842 K0.000 F300.000
G1 X-35.926 Y-40.830 Z2.500 F300.000
G1 X-40.828 Y-35.928 Z2.500 F300.000
G2 X-40.968 Y-34.760 Z2.500 I0.628 J0.668 K0.000 F300.000
G1 X-40.905 Y-34.684 Z2.500 F300.000
G1 X-40.282 Y-34.054 Z2.500 F300.000
G3 X-40.184 Y-33.963 Z2.500 I-0.359 J0.485 K0.000 F300.000
G3 X-40.232 Y-33.739 Z2.500 I-0.112 J0.093 K0.000 F300.000
G2 X-40.654 Y-33.366 Z2.500 I6.542 J7.843 K0.000 F300.000
G2 X-40.722 Y-32.106 Z2.500 I0.723 J0.671 K0.000 F300.000
G3 X-40.098 Y-31.485 Z2.500 I-21.228 J21.941 K0.000 F300.000
G3 X-40.018 Y-31.375 Z2.500 I-0.073 J0.138 K0.000 F300.000
G3 X-40.079 Y-31.238 Z2.500 I-0.151 J0.014 K0.000 F300.000
G3 X-40.197 Y-31.082 Z2.500 I-1.043 J-0.669 K0.000 F300.000
G3 X-40.457 Y-30.935 Z2.500 I-0.369 J-0.349 K0.000 F300.000
G3 X-40.815 Y-31.224 Z2.500 I0.390 J-0.850 K0.000 F300.000
G2 X-40.963 Y-31.359 Z2.500 I-0.837 J0.774 K0.000 F300.000
G3 X-41.110 Y-31.570 Z2.500 I0.370 J-0.413 K0.000 F300.000
G2 X-41.149 Y-33.581 Z2.500 I-23.617 J-0.548 K0.000 F300.000
G2 X-41.351 Y-34.040 Z2.500 I-0.798 J0.077 K0.000 F300.000
G2 X-42.490 Y-34.223 Z2.500 I-0.679 J0.593 K0.000 F300.000
G2 X-43.045 Y-33.679 Z2.500 I1.388 J1.971 K0.000 F300.000
G3 X-43.279 Y-33.659 Z2.500 I-0.130 J-0.144 K0.000 F300.000
G2 X-43.789 Y-34.186 Z2.500 I-2.233 J1.652 K0.000 F300.000
G2 X-45.023 Y-34.241 Z2.500 I-0.647 J0.653 K0.000 F300.000
G2 X-46.160 Y-33.100 Z2.500 I9.221 J10.326 K0.000 F300.000
G2 X-46.053 Y-31.875 Z2.500 I0.740 J0.553 K0.000 F300.000
G1 X-44.160 Y-29.982 Z2.500 F300.000
G3 X-44.129 Y-29.858 Z2.500 I-0.057 J0.080 K0.000 F300.000
G3 X-44.237 Y-29.710 Z2.500 I-0.268 J-0.081 K0.000 F300.000
G2 X-44.335 Y-29.600 Z2.500 I0.810 J0.821 K0.000 F300.000
G3 X-44.580 Y-29.590 Z2.500 I-0.128 J-0.121 K0.000 F300.000
G1 X-48.751 Y-33.760 Z2.500 F300.000
G3 X-48.772 Y-33.948 Z2.500 I0.098 J-0.106 K0.000 F300.000
G2 X-48.191 Y-34.500 Z2.500 I-1.702 J-2.371 K0.000 F300.000
G2 X-48.049 Y-35.687 Z2.500 I-0.640 J-0.678 K0.000 F300.000
G2 X-48.268 Y-35.917 Z2.500 I-1.173 J0.892 K0.000 F300.000
G3 X-48.708 Y-36.357 Z2.500 I120.054 J-120.758 K0.000 F300.000
G3 X-48.739 Y-36.500 Z2.500 I0.100 J-0.097 K0.000 F300.000
G2 X-48.098 Y-37.346 Z2.500 I-0.957 J-1.391 K0.000 F300.000
G2 X-49.018 Y-38.471 Z2.500 I-0.865 J-0.231 K0.000 F300.000
G1 X-50.881 Y-38.471 Z2.500 F300.000
G3 X-50.946 Y-38.495 Z2.500 I-0.010 J-0.073 K0.000 F300.000
G3 X-51.264 Y-38.780 Z2.500 I0.855 J-1.276 K0.000 F300.000
G2 X-51.402 Y-38.899 Z2.500 I-0.836 J0.825 K0.000 F300.000
G3 X-51.523 Y-39.130 Z2.500 I0.246 J-0.276 K0.000 F300.000
G3 X-51.248 Y-39.477 Z2.500 I1.050 J0.548 K0.000 F300.000
G3 X-51.053 Y-39.576 Z2.500 I0.177 J0.108 K0.000 F300.000
G3 X-50.975 Y-39.549 Z2.500 I-0.019 J0.180 K0.000 F300.000
G2 X-50.439 Y-38.996 Z2.500 I2.457 J-1.842 K0.000 F300.000
G2 X-49.263 Y-38.868 Z2.500 I0.665 J-0.649 K0.000 F300.000
G2 X-49.010 Y-39.112 Z2.500 I-1.006 J-1.294 K0.000 F300.000
G3 X-48.513 Y-39.612 Z2.500 I45.027 J44.339 K0.000 F300.000
G3 X-48.405 Y-39.696 Z2.500 I0.144 J0.073 K0.000 F300.000
G3 X-48.287 Y-39.659 Z2.500 I0.024 J0.128 K0.000 F300.000
G2 X-47.234 Y-38.747 Z2.500 I2.617 J-1.960 K0.000 F300.000
G2 X-46.411 Y-38.854 Z2.500 I0.311 J-0.833 K0.000 F300.000
G2 X-46.267 Y-38.978 Z2.500 I-0.531 J-0.763 K0.000 F300.000
G1 X-38.979 Y-46.265 Z2.500 F300.000
G2 X-38.839 Y-47.433 Z2.500 I-0.629 J-0.667 K0.000 F300.000
G1 X-38.903 Y-47.509 Z2.500 F300.000
G1 X-39.556 Y-48.169 Z2.500 F300.000
G2 X-39.655 Y-48.255 Z2.500 I-0.812 J0.843 K0.000 F300.000
G3 X-39.658 Y-48.447 Z2.500 I0.089 J-0.098 K0.000 F300.000
G2 X-38.771 Y-49.477 Z2.500 I-1.894 J-2.530 K0.000 F300.000
G2 X-38.969 Y-50.407 Z2.500 I-0.832 J-0.309 K0.000 F300.000
G3 X-39.505 Y-50.936 Z2.500 I10.281 J-10.952 K0.000 F300.000
G3 X-39.582 Y-51.043 Z2.500 I0.073 J-0.134 K0.000 F300.000
G3 X-39.521 Y-51.176 Z2.500 I0.148 J-0.013 K0.000 F300.000
G3 X-39.335 Y-51.399 Z2.500 I0.969 J0.621 K0.000 F300.000
G3 X-39.096 Y-51.536 Z2.500 I0.466 J0.537 K0.000 F300.000
G3 X-38.611 Y-51.090 Z2.500 I-1.129 J1.712 K0.000 F300.000
G2 X-38.519 Y-50.998 Z2.500 I0.909 J-0.818 K0.000 F300.000
G3 X-38.471 Y-50.869 Z2.500 I-0.135 J0.125 K0.000 F300.000
G3 X-38.471 Y-48.942 Z2.500 I-172.877 J0.935 K0.000 F300.000
G2 X-37.116 Y-48.177 Z2.500 I0.906 J-0.022 K0.000 F300.000
G2 X-36.590 Y-48.689 Z2.500 I-1.145 J-1.700 K0.000 F300.000
G3 X-36.362 Y-48.715 Z2.500 I0.131 J0.135 K0.000 F300.000
G2 X-35.834 Y-48.171 Z2.500 I2.404 J-1.808 K0.000 F300.000
G2 X-34.666 Y-48.052 Z2.500 I0.657 J-0.655 K0.000 F300.000
G2 X-34.429 Y-48.278 Z2.500 I-0.955 J-1.234 K0.000 F300.000
G3 X-33.989 Y-48.718 Z2.500 I24.079 J23.667 K0.000 F300.000
G3 X-33.880 Y-48.798 Z2.500 I0.137 J0.073 K0.000 F300.000
G3 X-33.763 Y-48.754 Z2.500 I0.016 J0.132 K0.000 F300.000
G1 X-29.576 Y-44.567 Z2.500 F300.000
G3 X-29.554 Y-44.421 Z2.500 I-0.061 J0.084 K0.000 F300.000
G2 X-29.706 Y-44.211 Z2.500 I1.104 J0.963 K0.000 F300.000
G3 X-29.973 Y-44.195 Z2.500 I-0.142 J-0.124 K0.000 F300.000
G2 X-31.897 Y-46.118 Z2.500 I-299.734 J297.854 K0.000 F300.000
G2 X-33.195 Y-46.075 Z2.500 I-0.628 J0.675 K0.000 F300.000
G2 X-34.165 Y-45.105 Z2.500 I93.449 J94.395 K0.000 F300.000
G2 X-34.260 Y-43.979 Z2.500 I0.671 J0.624 K0.000 F300.000
G2 X-33.809 Y-43.506 Z2.500 I8.720 J-7.874 K0.000 F300.000
G2 X-33.618 Y-43.316 Z2.500 I2.765 J-2.593 K0.000 F300.000
G3 X-33.602 Y-43.140 Z2.500 I-0.105 J0.099 K0.000 F300.000
G2 X-34.183 Y-42.551 Z2.500 I2.219 J2.774 K0.000 F300.000
G2 X-33.211 Y-41.145 Z2.500 I0.743 J0.526 K0.000 F300.000
G3 X-32.933 Y-41.035 Z2.500 I0.040 J0.304 K0.000 F300.000
G1 X-32.905 Y-41.012 Z2.500 F300.000
G0 Z9.000
G0 X-34.958 Y-42.491 Z9.000
G0 X-34.958 Y-42.491 Z7.000
G1 X-34.958 Y-42.491 Z2.500 F100.000
G3 X-35.030 Y-42.402 Z2.500 I-0.748 J-0.538 K0.000 F300.000
G3 X-35.844 Y-41.588 Z2.500 I-86.074 J-85.227 K0.000 F300.000
G3 X-37.142 Y-41.544 Z2.500 I-0.671 J-0.630 K0.000 F300.000
G3 X-38.088 Y-42.489 Z2.500 I111.728 J-112.742 K0.000 F300.000
G3 X-38.194 Y-43.714 Z2.500 I0.632 J-0.672 K0.000 F300.000
G3 X-37.269 Y-44.648 Z2.500 I13.539 J12.478 K0.000 F300.000
G3 X-36.855 Y-44.868 Z2.500 I0.615 J0.660 K0.000 F300.000
G3 X-35.997 Y-44.622 Z2.500 I0.201 J0.917 K0.000 F300.000
G1 X-35.075 Y-43.700 Z2.500 F300.000
G3 X-34.958 Y-42.491 Z2.500 I-0.631 J0.671 K0.000 F300.000
G0 Z9.000
G0 X-35.291 Y-45.597 Z9.000
G0 X-35.291 Y-45.597 Z7.000
G1 X-35.291 Y-45.597 Z2.500 F100.000
G1 X-35.352 Y-45.649 Z2.500 F300.000
G2 X-37.525 Y-45.902 Z2.500 I-1.298 J1.694 K0.000 F300.000
G2 X-37.902 Y-45.680 Z2.500 I0.785 J1.764 K0.000 F300.000
G2 X-37.492 Y-46.859 Z2.500 I-1.713 J-1.257 K0.000 F300.000
G2 X-36.490 Y-47.155 Z2.500 I-0.060 J-2.047 K0.000 F300.000
G2 X-35.971 Y-46.852 Z2.500 I1.206 J-1.470 K0.000 F300.000
G2 X-33.863 Y-47.157 Z2.500 I0.792 J-1.963 K0.000 F300.000
G1 X-33.825 Y-47.119 Z2.500 F300.000
G2 X-34.044 Y-46.923 Z2.500 I1.389 J1.772 K0.000 F300.000
G2 X-35.017 Y-45.949 Z2.500 I94.095 J95.043 K0.000 F300.000
G2 X-35.291 Y-45.597 Z2.500 I1.343 J1.325 K0.000 F300.000
G0 Z9.000
G0 X-39.242 Y-44.305 Z9.000
G0 X-39.242 Y-44.305 Z7.000
G1 X-39.242 Y-44.305 Z2.500 F100.000
G2 X-38.936 Y-41.641 Z2.500 I1.785 J1.145 K0.000 F300.000
G2 X-37.986 Y-40.691 Z2.500 I113.322 J-112.443 K0.000 F300.000
G1 X-37.869 Y-40.584 Z2.500 F300.000
G1 X-40.585 Y-37.867 Z2.500 F300.000
G2 X-40.739 Y-38.035 Z2.500 I-1.652 J1.364 K0.000 F300.000
G1 X-41.698 Y-38.991 Z2.500 F300.000
G2 X-44.228 Y-39.291 Z2.500 I-1.466 J1.545 K0.000 F300.000
G1 X-44.310 Y-39.238 Z2.500 F300.000
G1 X-39.242 Y-44.305 Z2.500 F300.000
G0 Z9.000
G0 X-40.338 Y-41.512 Z9.000
G0 X-40.338 Y-41.512 Z7.000
G1 X-40.338 Y-41.512 Z2.500 F100.000
G2 X-39.785 Y-40.792 Z2.500 I2.687 J-1.490 K0.000 F300.000
G1 X-39.571 Y-40.579 Z2.500 F300.000
G1 X-40.579 Y-39.571 Z2.500 F300.000
G2 X-41.086 Y-40.050 Z2.500 I-4.125 J3.869 K0.000 F300.000
G2 X-41.513 Y-40.337 Z2.500 I-1.987 J2.492 K0.000 F300.000
G1 X-40.338 Y-41.512 Z2.500 F300.000
G1 X-40.393 Y-40.998 Z2.500 F100.000
G1 X-40.283 Y-40.855 Z2.500 F300.000
G2 X-40.031 Y-40.579 Z2.500 I3.002 J-2.488 K0.000 F300.000
G1 X-40.579 Y-40.031 Z2.500 F300.000
G2 X-41.000 Y-40.391 Z2.500 I-2.674 J2.696 K0.000 F300.000
G1 X-40.393 Y-40.998 Z2.500 F300.000
G0 Z9.000
G0 X-42.591 Y-38.178 Z9.000
G0 X-42.591 Y-38.178 Z7.000
G1 X-42.591 Y-38.178 Z2.500 F100.000
G3 X-42.511 Y-38.108 Z2.500 I-0.576 J0.739 K0.000 F300.000
G1 X-41.588 Y-37.186 Z2.500 F300.000
G3 X-41.543 Y-35.890 Z2.500 I-0.631 J0.671 K0.000 F300.000
G3 X-42.357 Y-35.075 Z2.500 I-75.232 J-74.364 K0.000 F300.000
G3 X-43.655 Y-35.030 Z2.500 I-0.672 J-0.631 K0.000 F300.000
G3 X-44.601 Y-35.976 Z2.500 I82.749 J-83.730 K0.000 F300.000
G3 X-44.708 Y-37.200 Z2.500 I0.633 J-0.672 K0.000 F300.000
G3 X-43.784 Y-38.134 Z2.500 I13.997 J12.925 K0.000 F300.000
G3 X-43.372 Y-38.354 Z2.500 I0.618 J0.660 K0.000 F300.000
G3 X-42.591 Y-38.178 Z2.500 I0.205 J0.914 K0.000 F300.000
G0 Z9.000
G0 X-45.679 Y-37.903 Z9.000
G0 X-45.679 Y-37.903 Z7.000
G1 X-45.679 Y-37.903 Z2.500 F100.000
G2 X-45.608 Y-35.300 Z2.500 I1.702 J1.256 K0.000 F300.000
G2 X-45.833 Y-35.126 Z2.500 I0.752 J1.204 K0.000 F300.000
G2 X-47.058 Y-33.898 Z2.500 I10.745 J11.947 K0.000 F300.000
G1 X-47.116 Y-33.822 Z2.500 F300.000
G1 X-47.154 Y-33.861 Z2.500 F300.000
G2 X-47.163 Y-36.502 Z2.500 I-1.671 J-1.315 K0.000 F300.000
G2 X-46.870 Y-37.492 Z2.500 I-1.803 J-1.070 K0.000 F300.000
G1 X-46.824 Y-37.492 Z2.500 F300.000
G2 X-45.679 Y-37.903 Z2.500 I-0.114 J-2.117 K0.000 F300.000
G1 X-45.679 Y-37.903 Z2.000 F100.000
G2 X-45.608 Y-35.300 Z2.000 I1.702 J1.256 K0.000 F300.000
G2 X-45.833 Y-35.126 Z2.000 I0.752 J1.204 K0.000 F300.000
G2 X-47.058 Y-33.898 Z2.000 I10.745 J11.947 K0.000 F300.000
G1 X-47.116 Y-33.822 Z2.000 F300.000
G1 X-47.154 Y-33.861 Z2.000 F300.000
G2 X-47.163 Y-36.502 Z2.000 I-1.671 J-1.315 K0.000 F300.000
G2 X-46.870 Y-37.492 Z2.000 I-1.803 J-1.070 K0.000 F300.000
G1 X-46.824 Y-37.492 Z2.000 F300.000
G2 X-45.679 Y-37.903 Z2.000 I-0.114 J-2.117 K0.000 F300.000
G1 X-44.708 Y-37.200 Z2.000 F100.000
G3 X-43.784 Y-38.134 Z2.000 I13.997 J12.925 K0.000 F300.000
G3 X-43.372 Y-38.354 Z2.000 I0.618 J0.660 K0.000 F300.000
G3 X-42.511 Y-38.108 Z2.000 I0.205 J0.914 K0.000 F300.000
G1 X-41.588 Y-37.186 Z2.000 F300.000
G3 X-41.543 Y-35.890 Z2.000 I-0.631 J0.671 K0.000 F300.000
G3 X-42.357 Y-35.075 Z2.000 I-75.232 J-74.364 K0.000 F300.000
G3 X-43.655 Y-35.030 Z2.000 I-0.672 J-0.631 K0.000 F300.000
G3 X-44.601 Y-35.976 Z2.000 I82.749 J-83.730 K0.000 F300.000
G3 X-44.708 Y-37.200 Z2.000 I0.633 J-0.672 K0.000 F300.000
G0 Z9.000
G0 X-44.310 Y-39.238 Z9.000
G0 X-44.310 Y-39.238 Z7.000
G1 X-44.310 Y-39.238 Z2.000 F100.000
G1 X-39.242 Y-44.305 Z2.000 F300.000
G2 X-38.936 Y-41.641 Z2.000 I1.785 J1.145 K0.000 F300.000
G2 X-37.986 Y-40.691 Z2.000 I113.322 J-112.443 K0.000 F300.000
G1 X-37.869 Y-40.584 Z2.000 F300.000
G1 X-40.585 Y-37.867 Z2.000 F300.000
G2 X-40.739 Y-38.035 Z2.000 I-1.652 J1.364 K0.000 F300.000
G1 X-41.698 Y-38.991 Z2.000 F300.000
G2 X-44.228 Y-39.291 Z2.000 I-1.466 J1.545 K0.000 F300.000
G1 X-44.310 Y-39.238 Z2.000 F300.000
G1 X-45.158 Y-40.086 Z2.000 F100.000
G1 X-38.979 Y-46.265 Z2.000 F300.000
G2 X-38.839 Y-47.433 Z2.000 I-0.629 J-0.667 K0.000 F300.000
G1 X-38.903 Y-47.509 Z2.000 F300.000
G1 X-39.556 Y-48.169 Z2.000 F300.000
G2 X-39.655 Y-48.255 Z2.000 I-0.812 J0.843 K0.000 F300.000
G3 X-39.658 Y-48.447 Z2.000 I0.089 J-0.098 K0.000 F300.000
G2 X-38.771 Y-49.477 Z2.000 I-1.894 J-2.530 K0.000 F300.000
G2 X-38.969 Y-50.407 Z2.000 I-0.832 J-0.309 K0.000 F300.000
G3 X-39.505 Y-50.936 Z2.000 I10.281 J-10.952 K0.000 F300.000
G3 X-39.582 Y-51.043 Z2.000 I0.073 J-0.134 K0.000 F300.000
G3 X-39.521 Y-51.176 Z2.000 I0.148 J-0.013 K0.000 F300.000
G3 X-39.335 Y-51.399 Z2.000 I0.969 J0.621 K0.000 F300.000
G3 X-39.096 Y-51.536 Z2.000 I0.466 J0.537 K0.000 F300.000
G3 X-38.611 Y-51.090 Z2.000 I-1.129 J1.712 K0.000 F300.000
G2 X-38.519 Y-50.998 Z2.000 I0.909 J-0.818 K0.000 F300.000
G3 X-38.471 Y-50.869 Z2.000 I-0.135 J0.125 K0.000 F300.000
G3 X-38.471 Y-48.942 Z2.000 I-172.877 J0.935 K0.000 F300.000
G2 X-37.116 Y-48.177 Z2.000 I0.906 J-0.022 K0.000 F300.000
G2 X-36.590 Y-48.689 Z2.000 I-1.145 J-1.700 K0.000 F300.000
G3 X-36.362 Y-48.715 Z2.000 I0.131 J0.135 K0.000 F300.000
G2 X-35.834 Y-48.171 Z2.000 I2.404 J-1.808 K0.000 F300.000
G2 X-34.666 Y-48.052 Z2.000 I0.657 J-0.655 K0.000 F300.000
G2 X-34.429 Y-48.278 Z2.000 I-0.955 J-1.234 K0.000 F300.000
G3 X-33.989 Y-48.718 Z2.000 I24.079 J23.667 K0.000 F300.000
G3 X-33.880 Y-48.798 Z2.000 I0.137 J0.073 K0.000 F300.000
G3 X-33.763 Y-48.754 Z2.000 I0.016 J0.132 K0.000 F300.000
G1 X-29.576 Y-44.567 Z2.000 F300.000
G3 X-29.554 Y-44.421 Z2.000 I-0.061 J0.084 K0.000 F300.000
G2 X-29.706 Y-44.211 Z2.000 I1.104 J0.963 K0.000 F300.000
G3 X-29.973 Y-44.195 Z2.000 I-0.142 J-0.124 K0.000 F300.000
G2 X-31.897 Y-46.118 Z2.000 I-299.734 J297.854 K0.000 F300.000
G2 X-33.195 Y-46.075 Z2.000 I-0.628 J0.675 K0.000 F300.000
G2 X-34.165 Y-45.105 Z2.000 I93.449 J94.395 K0.000 F300.000
G2 X-34.260 Y-43.979 Z2.000 I0.671 J0.624 K0.000 F300.000
G2 X-33.809 Y-43.506 Z2.000 I8.720 J-7.874 K0.000 F300.000
G2 X-33.618 Y-43.316 Z2.000 I2.765 J-2.593 K0.000 F300.000
G3 X-33.602 Y-43.140 Z2.000 I-0.105 J0.099 K0.000 F300.000
G2 X-34.183 Y-42.551 Z2.000 I2.219 J2.774 K0.000 F300.000
G2 X-33.211 Y-41.145 Z2.000 I0.743 J0.526 K0.000 F300.000
G3 X-32.933 Y-41.035 Z2.000 I0.040 J0.304 K0.000 F300.000
G1 X-32.905 Y-41.012 Z2.000 F300.000
G1 X-32.918 Y-41.004 Z2.000 F300.000
G2 X-33.661 Y-40.332 Z2.000 I4.268 J5.469 K0.000 F300.000
G2 X-33.773 Y-40.186 Z2.000 I0.697 J0.649 K0.000 F300.000
G3 X-33.938 Y-40.181 Z2.000 I-0.085 J-0.065 K0.000 F300.000
G2 X-34.962 Y-41.062 Z2.000 I-2.490 J1.859 K0.000 F300.000
G2 X-35.886 Y-40.870 Z2.000 I-0.307 J0.842 K0.000 F300.000
G1 X-35.926 Y-40.830 Z2.000 F300.000
G1 X-40.828 Y-35.928 Z2.000 F300.000
G2 X-40.968 Y-34.760 Z2.000 I0.628 J0.668 K0.000 F300.000
G1 X-40.905 Y-34.684 Z2.000 F300.000
G1 X-40.282 Y-34.054 Z2.000 F300.000
G3 X-40.184 Y-33.963 Z2.000 I-0.359 J0.485 K0.000 F300.000
G3 X-40.232 Y-33.739 Z2.000 I-0.112 J0.093 K0.000 F300.000
G2 X-40.654 Y-33.366 Z2.000 I6.542 J7.843 K0.000 F300.000
G2 X-40.722 Y-32.106 Z2.000 I0.723 J0.671 K0.000 F300.000
G3 X-40.098 Y-31.485 Z2.000 I-21.228 J21.941 K0.000 F300.000
G3 X-40.018 Y-31.375 Z2.000 I-0.073 J0.138 K0.000 F300.000
G3 X-40.079 Y-31.238 Z2.000 I-0.151 J0.014 K0.000 F300.000
G3 X-40.197 Y-31.082 Z2.000 I-1.043 J-0.669 K0.000 F300.000
G3 X-40.457 Y-30.935 Z2.000 I-0.369 J-0.349 K0.000 F300.000
G3 X-40.815 Y-31.224 Z2.000 I0.390 J-0.850 K0.000 F300.000
G2 X-40.963 Y-31.359 Z2.000 I-0.837 J0.774 K0.000 F300.000
G3 X-41.110 Y-31.570 Z2.000 I0.370 J-0.413 K0.000 F300.000
G2 X-41.149 Y-33.581 Z2.000 I-23.617 J-0.548 K0.000 F300.000
G2 X-41.351 Y-34.040 Z2.000 I-0.798 J0.077 K0.000 F300.000
G2 X-42.490 Y-34.223 Z2.000 I-0.679 J0.593 K0.000 F300.000
G2 X-43.045 Y-33.679 Z2.000 I1.388 J1.971 K0.000 F300.000
G3 X-43.279 Y-33.659 Z2.000 I-0.130 J-0.144 K0.000 F300.000
G2 X-43.789 Y-34.186 Z2.000 I-2.233 J1.652 K0.000 F300.000
G2 X-45.023 Y-34.241 Z2.000 I-0.647 J0.653 K0.000 F300.000
G2 X-46.160 Y-33.100 Z2.000 I9.221 J10.326 K0.000 F300.000
G2 X-46.053 Y-31.875 Z2.000 I0.740 J0.553 K0.000 F300.000
G1 X-44.160 Y-29.982 Z2.000 F300.000
G3 X-44.129 Y-29.858 Z2.000 I-0.057 J0.080 K0.000 F300.000
G3 X-44.237 Y-29.710 Z2.000 I-0.268 J-0.081 K0.000 F300.000
G2 X-44.335 Y-29.600 Z2.000 I0.810 J0.821 K0.000 F300.000
G3 X-44.580 Y-29.590 Z2.000 I-0.128 J-0.121 K0.000 F300.000
G1 X-48.751 Y-33.760 Z2.000 F300.000
G3 X-48.772 Y-33.948 Z2.000 I0.098 J-0.106 K0.000 F300.000
G2 X-48.191 Y-34.500 Z2.000 I-1.702 J-2.371 K0.000 F300.000
G2 X-48.049 Y-35.687 Z2.000 I-0.640 J-0.678 K0.000 F300.000
G2 X-48.268 Y-35.917 Z2.000 I-1.173 J0.892 K0.000 F300.000
G3 X-48.708 Y-36.357 Z2.000 I120.054 J-120.758 K0.000 F300.000
G3 X-48.739 Y-36.500 Z2.000 I0.100 J-0.097 K0.000 F300.000
G2 X-48.098 Y-37.346 Z2.000 I-0.957 J-1.391 K0.000 F300.000
G2 X-49.018 Y-38.471 Z2.000 I-0.865 J-0.231 K0.000 F300.000
G1 X-50.881 Y-38.471 Z2.000 F300.000
G3 X-50.946 Y-38.495 Z2.000 I-0.010 J-0.073 K0.000 F300.000
G3 X-51.264 Y-38.780 Z2.000 I0.855 J-1.276 K0.000 F300.000
G2 X-51.402 Y-38.899 Z2.000 I-0.836 J0.825 K0.000 F300.000
G3 X-51.523 Y-39.130 Z2.000 I0.246 J-0.276 K0.000 F300.000
G3 X-51.248 Y-39.477 Z2.000 I1.050 J0.548 K0.000 F300.000
G3 X-51.053 Y-39.576 Z2.000 I0.177 J0.108 K0.000 F300.000
G3 X-50.975 Y-39.549 Z2.000 I-0.019 J0.180 K0.000 F300.000
G2 X-50.439 Y-38.996 Z2.000 I2.457 J-1.842 K0.000 F300.000
G2 X-49.263 Y-38.868 Z2.000 I0.665 J-0.649 K0.000 F300.000
G2 X-49.010 Y-39.112 Z2.000 I-1.006 J-1.294 K0.000 F300.000
G3 X-48.513 Y-39.612 Z2.000 I45.027 J44.339 K0.000 F300.000
G3 X-48.405 Y-39.696 Z2.000 I0.144 J0.073 K0.000 F300.000
G3 X-48.287 Y-39.659 Z2.000 I0.024 J0.128 K0.000 F300.000
G2 X-47.234 Y-38.747 Z2.000 I2.617 J-1.960 K0.000 F300.000
G2 X-46.411 Y-38.854 Z2.000 I0.311 J-0.833 K0.000 F300.000
G2 X-46.267 Y-38.978 Z2.000 I-0.531 J-0.763 K0.000 F300.000
G1 X-45.158 Y-40.086 Z2.000 F300.000
G0 Z9.000
G0 X-41.513 Y-40.337 Z9.000
G0 X-41.513 Y-40.337 Z7.000
G1 X-41.513 Y-40.337 Z2.000 F100.000
G1 X-40.338 Y-41.512 Z2.000 F300.000
G2 X-39.785 Y-40.792 Z2.000 I2.687 J-1.490 K0.000 F300.000
G1 X-39.571 Y-40.579 Z2.000 F300.000
G1 X-40.579 Y-39.571 Z2.000 F300.000
G2 X-41.086 Y-40.050 Z2.000 I-4.125 J3.869 K0.000 F300.000
G2 X-41.513 Y-40.337 Z2.000 I-1.987 J2.492 K0.000 F300.000
G1 X-41.000 Y-40.391 Z2.000 F100.000
G1 X-40.393 Y-40.998 Z2.000 F300.000
G1 X-40.283 Y-40.855 Z2.000 F300.000
G2 X-40.031 Y-40.579 Z2.000 I3.002 J-2.488 K0.000 F300.000
G1 X-40.579 Y-40.031 Z2.000 F300.000
G2 X-41.000 Y-40.391 Z2.000 I-2.674 J2.696 K0.000 F300.000
G0 Z9.000
G0 X-38.182 Y-42.593 Z9.000
G0 X-38.182 Y-42.593 Z7.000
G1 X-38.182 Y-42.593 Z2.000 F100.000
G3 X-38.194 Y-43.714 Z2.000 I0.727 J-0.568 K0.000 F300.000
G3 X-37.269 Y-44.648 Z2.000 I13.539 J12.478 K0.000 F300.000
G3 X-36.855 Y-44.868 Z2.000 I0.615 J0.660 K0.000 F300.000
G3 X-35.997 Y-44.622 Z2.000 I0.201 J0.917 K0.000 F300.000
G1 X-35.075 Y-43.700 Z2.000 F300.000
G3 X-35.030 Y-42.402 Z2.000 I-0.631 J0.671 K0.000 F300.000
G3 X-35.844 Y-41.588 Z2.000 I-86.074 J-85.227 K0.000 F300.000
G3 X-37.142 Y-41.544 Z2.000 I-0.671 J-0.630 K0.000 F300.000
G3 X-38.088 Y-42.489 Z2.000 I111.728 J-112.742 K0.000 F300.000
G3 X-38.182 Y-42.593 Z2.000 I0.632 J-0.672 K0.000 F300.000
G0 Z9.000
G0 X-37.902 Y-45.680 Z9.000
G0 X-37.902 Y-45.680 Z7.000
G1 X-37.902 Y-45.680 Z2.000 F100.000
G2 X-37.492 Y-46.859 Z2.000 I-1.713 J-1.257 K0.000 F300.000
G2 X-36.490 Y-47.155 Z2.000 I-0.060 J-2.047 K0.000 F300.000
G2 X-35.971 Y-46.852 Z2.000 I1.206 J-1.470 K0.000 F300.000
G2 X-33.863 Y-47.157 Z2.000 I0.792 J-1.963 K0.000 F300.000
G1 X-33.825 Y-47.119 Z2.000 F300.000
G2 X-34.044 Y-46.923 Z2.000 I1.389 J1.772 K0.000 F300.000
G2 X-35.017 Y-45.949 Z2.000 I94.095 J95.043 K0.000 F300.000
G2 X-35.291 Y-45.597 Z2.000 I1.343 J1.325 K0.000 F300.000
G1 X-35.352 Y-45.649 Z2.000 F300.000
G2 X-37.525 Y-45.902 Z2.000 I-1.298 J1.694 K0.000 F300.000
G2 X-37.902 Y-45.680 Z2.000 I0.785 J1.764 K0.000 F300.000
G0 Z9.000
G0 X-32.100 Y-41.003 Z9.000
G0 X-32.100 Y-41.003 Z7.000
G1 X-32.100 Y-41.003 Z2.000 F100.000
G2 X-32.023 Y-41.067 Z2.000 I-0.391 J-0.549 K0.000 F300.000
G3 X-31.621 Y-41.111 Z2.000 I0.281 J0.706 K0.000 F300.000
G3 X-31.493 Y-41.064 Z2.000 I-0.005 J0.216 K0.000 F300.000
G3 X-31.078 Y-40.665 Z2.000 I-0.865 J1.312 K0.000 F300.000
G2 X-30.964 Y-40.548 Z2.000 I0.803 J-0.668 K0.000 F300.000
G3 X-30.980 Y-40.312 Z2.000 I-0.117 J0.111 K0.000 F300.000
G2 X-31.132 Y-40.198 Z2.000 I1.812 J2.563 K0.000 F300.000
G3 X-31.287 Y-40.210 Z2.000 I-0.068 J-0.124 K0.000 F300.000
G2 X-32.100 Y-41.003 Z2.000 I-3.126 J2.393 K0.000 F300.000
G0 Z9.000
G0 X-32.100 Y-41.003
G0 X-44.506 Y29.537
G0 X-44.506 Y29.537 Z7.000
G1 X-44.506 Y29.537 Z3.250 F100.000
G3 X-44.177 Y29.807 Z3.250 I-0.146 J0.514 K0.000 F300.000
G3 X-44.139 Y29.887 Z3.250 I-0.074 J0.084 K0.000 F300.000
G3 X-44.179 Y29.958 Z3.250 I-0.092 J-0.005 K0.000 F300.000
G2 X-46.118 Y31.897 Z3.250 I320.932 J322.827 K0.000 F300.000
G2 X-46.074 Y33.196 Z3.250 I0.675 J0.628 K0.000 F300.000
G2 X-45.105 Y34.165 Z3.250 I95.325 J-94.389 K0.000 F300.000
G2 X-43.979 Y34.260 Z3.250 I0.624 J-0.671 K0.000 F300.000
G2 X-43.506 Y33.809 Z3.250 I-7.874 J-8.720 K0.000 F300.000
G2 X-43.316 Y33.618 Z3.250 I-2.593 J-2.765 K0.000 F300.000
G3 X-43.140 Y33.602 Z3.250 I0.099 J0.105 K0.000 F300.000
G2 X-42.551 Y34.183 Z3.250 I2.774 J-2.219 K0.000 F300.000
G2 X-41.145 Y33.211 Z3.250 I0.526 J-0.743 K0.000 F300.000
G3 X-41.035 Y32.934 Z3.250 I0.303 J-0.040 K0.000 F300.000
G1 X-41.013 Y32.905 Z3.250 F300.000
G1 X-41.004 Y32.918 Z3.250 F300.000
G2 X-40.332 Y33.661 Z3.250 I5.505 J-4.301 K0.000 F300.000
G2 X-40.186 Y33.773 Z3.250 I0.648 J-0.696 K0.000 F300.000
G3 X-40.181 Y33.938 Z3.250 I-0.065 J0.085 K0.000 F300.000
G2 X-41.062 Y34.962 Z3.250 I1.859 J2.490 K0.000 F300.000
G2 X-40.870 Y35.886 Z3.250 I0.842 J0.307 K0.000 F300.000
G1 X-40.830 Y35.926 Z3.250 F300.000
G1 X-35.928 Y40.828 Z3.250 F300.000
G2 X-34.760 Y40.968 Z3.250 I0.668 J-0.628 K0.000 F300.000
G1 X-34.684 Y40.905 Z3.250 F300.000
G1 X-34.054 Y40.282 Z3.250 F300.000
G3 X-33.963 Y40.184 Z3.250 I0.485 J0.359 K0.000 F300.000
G3 X-33.739 Y40.232 Z3.250 I0.093 J0.112 K0.000 F300.000
G2 X-33.366 Y40.654 Z3.250 I7.959 J-6.642 K0.000 F300.000
G2 X-32.106 Y40.721 Z3.250 I0.671 J-0.723 K0.000 F300.000
G3 X-31.485 Y40.098 Z3.250 I22.091 J21.380 K0.000 F300.000
G3 X-31.375 Y40.018 Z3.250 I0.138 J0.073 K0.000 F300.000
G3 X-31.238 Y40.079 Z3.250 I0.014 J0.151 K0.000 F300.000
G3 X-31.082 Y40.198 Z3.250 I-0.670 J1.044 K0.000 F300.000
G3 X-30.935 Y40.457 Z3.250 I-0.349 J0.369 K0.000 F300.000
G3 X-31.224 Y40.815 Z3.250 I-0.850 J-0.390 K0.000 F300.000
G2 X-31.359 Y40.963 Z3.250 I0.774 J0.837 K0.000 F300.000
G3 X-31.570 Y41.110 Z3.250 I-0.413 J-0.370 K0.000 F300.000
G2 X-33.581 Y41.149 Z3.250 I-0.548 J23.617 K0.000 F300.000
G2 X-34.066 Y41.375 Z3.250 I0.078 J0.802 K0.000 F300.000
G2 X-34.347 Y42.050 Z3.250 I0.612 J0.650 K0.000 F300.000
G2 X-33.732 Y43.001 Z3.250 I1.352 J-0.199 K0.000 F300.000
G3 X-33.659 Y43.279 Z3.250 I-0.095 J0.173 K0.000 F300.000
G2 X-34.186 Y43.789 Z3.250 I1.652 J2.233 K0.000 F300.000
G2 X-34.241 Y45.023 Z3.250 I0.653 J0.647 K0.000 F300.000
G2 X-33.100 Y46.159 Z3.250 I10.335 J-9.229 K0.000 F300.000
G2 X-31.875 Y46.053 Z3.250 I0.553 J-0.739 K0.000 F300.000
G1 X-29.982 Y44.160 Z3.250 F300.000
G3 X-29.858 Y44.129 Z3.250 I0.080 J0.057 K0.000 F300.000
G3 X-29.710 Y44.237 Z3.250 I-0.081 J0.268 K0.000 F300.000
G2 X-29.600 Y44.335 Z3.250 I0.821 J-0.810 K0.000 F300.000
G3 X-29.590 Y44.580 Z3.250 I-0.121 J0.128 K0.000 F300.000
G1 X-33.760 Y48.751 Z3.250 F300.000
G3 X-33.948 Y48.772 Z3.250 I-0.106 J-0.098 K0.000 F300.000
G2 X-34.500 Y48.191 Z3.250 I-2.373 J1.704 K0.000 F300.000
G2 X-35.687 Y48.050 Z3.250 I-0.678 J0.640 K0.000 F300.000
G2 X-35.917 Y48.268 Z3.250 I0.895 J1.175 K0.000 F300.000
G3 X-36.357 Y48.708 Z3.250 I-131.619 J-130.900 K0.000 F300.000
G3 X-36.500 Y48.739 Z3.250 I-0.097 J-0.100 K0.000 F300.000
G2 X-37.346 Y48.098 Z3.250 I-1.391 J0.957 K0.000 F300.000
G2 X-38.471 Y49.018 Z3.250 I-0.231 J0.865 K0.000 F300.000
G1 X-38.471 Y50.881 Z3.250 F300.000
G3 X-38.495 Y50.946 Z3.250 I-0.073 J0.010 K0.000 F300.000
G3 X-38.780 Y51.264 Z3.250 I-1.276 J-0.855 K0.000 F300.000
G2 X-38.899 Y51.402 Z3.250 I0.825 J0.836 K0.000 F300.000
G3 X-39.130 Y51.523 Z3.250 I-0.276 J-0.246 K0.000 F300.000
G3 X-39.477 Y51.248 Z3.250 I0.547 J-1.048 K0.000 F300.000
G3 X-39.576 Y51.053 Z3.250 I0.108 J-0.177 K0.000 F300.000
G3 X-39.549 Y50.975 Z3.250 I0.180 J0.019 K0.000 F300.000
G2 X-38.995 Y50.439 Z3.250 I-1.836 J-2.451 K0.000 F300.000
G2 X-38.868 Y49.263 Z3.250 I-0.650 J-0.665 K0.000 F300.000
G2 X-39.112 Y49.010 Z3.250 I-1.294 J1.005 K0.000 F300.000
G3 X-39.612 Y48.513 Z3.250 I44.339 J-45.026 K0.000 F300.000
G3 X-39.696 Y48.405 Z3.250 I0.073 J-0.144 K0.000 F300.000
G3 X-39.659 Y48.287 Z3.250 I0.128 J-0.024 K0.000 F300.000
G2 X-38.747 Y47.234 Z3.250 I-1.961 J-2.618 K0.000 F300.000
G2 X-38.854 Y46.411 Z3.250 I-0.833 J-0.311 K0.000 F300.000
G2 X-38.978 Y46.267 Z3.250 I-0.764 J0.531 K0.000 F300.000
G1 X-46.266 Y38.978 Z3.250 F300.000
G2 X-47.434 Y38.840 Z3.250 I-0.667 J0.630 K0.000 F300.000
G2 X-47.675 Y39.067 Z3.250 I1.357 J1.675 K0.000 F300.000
G2 X-48.218 Y39.610 Z3.250 I21.888 J22.472 K0.000 F300.000
G3 X-48.327 Y39.696 Z3.250 I-0.146 J-0.073 K0.000 F300.000
G3 X-48.447 Y39.658 Z3.250 I-0.025 J-0.129 K0.000 F300.000
G2 X-49.477 Y38.771 Z3.250 I-2.532 J1.896 K0.000 F300.000
G2 X-50.256 Y38.856 Z3.250 I-0.306 J0.800 K0.000 F300.000
G2 X-50.796 Y39.376 Z3.250 I1.245 J1.831 K0.000 F300.000
G3 X-51.070 Y39.579 Z3.250 I-0.422 J-0.285 K0.000 F300.000
G3 X-51.266 Y39.457 Z3.250 I0.047 J-0.293 K0.000 F300.000
G2 X-51.412 Y39.336 Z3.250 I-0.725 J0.725 K0.000 F300.000
G3 X-51.517 Y39.072 Z3.250 I0.187 J-0.227 K0.000 F300.000
G3 X-51.040 Y38.564 Z3.250 I2.689 J2.046 K0.000 F300.000
G3 X-50.869 Y38.471 Z3.250 I0.170 J0.109 K0.000 F300.000
G3 X-48.942 Y38.471 Z3.250 I0.935 J172.877 K0.000 F300.000
G2 X-48.177 Y37.116 Z3.250 I-0.022 J-0.906 K0.000 F300.000
G2 X-48.689 Y36.590 Z3.250 I-1.700 J1.145 K0.000 F300.000
G3 X-48.715 Y36.362 Z3.250 I0.135 J-0.131 K0.000 F300.000
G2 X-48.172 Y35.834 Z3.250 I-1.813 J-2.410 K0.000 F300.000
G2 X-48.052 Y34.666 Z3.250 I-0.654 J-0.657 K0.000 F300.000
G2 X-48.278 Y34.429 Z3.250 I-1.234 J0.955 K0.000 F300.000
G3 X-48.718 Y33.989 Z3.250 I23.667 J-24.079 K0.000 F300.000
G3 X-48.798 Y33.880 Z3.250 I0.073 J-0.137 K0.000 F300.000
G3 X-48.754 Y33.763 Z3.250 I0.132 J-0.016 K0.000 F300.000
G1 X-44.568 Y29.577 Z3.250 F300.000
G3 X-44.506 Y29.537 Z3.250 I0.096 J0.080 K0.000 F300.000
G0 Z9.000
G0 X-41.092 Y31.538 Z9.000
G0 X-41.092 Y31.538 Z7.000
G1 X-41.092 Y31.538 Z3.250 F100.000
G3 X-40.665 Y31.078 Z3.250 I1.311 J0.790 K0.000 F300.000
G2 X-40.548 Y30.964 Z3.250 I-0.668 J-0.803 K0.000 F300.000
G3 X-40.396 Y30.926 Z3.250 I0.111 J0.117 K0.000 F300.000
G3 X-40.276 Y31.031 Z3.250 I-0.054 J0.183 K0.000 F300.000
G3 X-40.198 Y31.132 Z3.250 I-0.417 J0.405 K0.000 F300.000
G3 X-40.210 Y31.287 Z3.250 I-0.124 J0.068 K0.000 F300.000
G2 X-41.003 Y32.100 Z3.250 I2.393 J3.127 K0.000 F300.000
G2 X-41.067 Y32.023 Z3.250 I-0.550 J0.392 K0.000 F300.000
G3 X-41.092 Y31.538 Z3.250 I0.701 J-0.280 K0.000 F300.000
G0 Z9.000
G0 X-42.641 Y34.873 Z9.000
G0 X-42.641 Y34.873 Z7.000
G1 X-42.641 Y34.873 Z3.250 F100.000
G3 X-42.379 Y35.054 Z3.250 I-0.395 J0.851 K0.000 F300.000
G1 X-41.588 Y35.844 Z3.250 F300.000
G3 X-41.544 Y37.142 Z3.250 I-0.630 J0.671 K0.000 F300.000
G3 X-42.489 Y38.088 Z3.250 I-112.711 J-111.696 K0.000 F300.000
G3 X-43.787 Y38.132 Z3.250 I-0.671 J-0.631 K0.000 F300.000
G3 X-44.601 Y37.318 Z3.250 I94.880 J-95.750 K0.000 F300.000
G3 X-44.646 Y36.021 Z3.250 I0.631 J-0.671 K0.000 F300.000
G3 X-43.654 Y35.029 Z3.250 I24.849 J23.876 K0.000 F300.000
G3 X-43.240 Y34.809 Z3.250 I0.618 J0.659 K0.000 F300.000
G3 X-42.641 Y34.873 Z3.250 I0.205 J0.916 K0.000 F300.000
G0 Z9.000
G0 X-45.600 Y35.289 Z9.000
G0 X-45.600 Y35.289 Z7.000
G1 X-45.600 Y35.289 Z3.250 F100.000
G2 X-45.681 Y37.901 Z3.250 I1.627 J1.357 K0.000 F300.000
G2 X-46.859 Y37.492 Z3.250 I-1.256 J1.713 K0.000 F300.000
G2 X-47.155 Y36.490 Z3.250 I-2.047 J0.060 K0.000 F300.000
G2 X-46.852 Y35.971 Z3.250 I-1.469 J-1.206 K0.000 F300.000
G2 X-47.157 Y33.863 Z3.250 I-1.962 J-0.793 K0.000 F300.000
G1 X-47.119 Y33.825 Z3.250 F300.000
G2 X-46.923 Y34.044 Z3.250 I1.765 J-1.384 K0.000 F300.000
G2 X-45.949 Y35.017 Z3.250 I95.972 J-95.034 K0.000 F300.000
G2 X-45.600 Y35.289 Z3.250 I1.321 J-1.338 K0.000 F300.000
G0 Z9.000
G0 X-44.305 Y39.242 Z9.000
G0 X-44.305 Y39.242 Z7.000
G1 X-44.305 Y39.242 Z3.250 F100.000
G2 X-41.641 Y38.936 Z3.250 I1.145 J-1.785 K0.000 F300.000
G2 X-40.691 Y37.986 Z3.250 I-112.413 J-113.292 K0.000 F300.000
G1 X-40.584 Y37.869 Z3.250 F300.000
G1 X-37.867 Y40.586 Z3.250 F300.000
G2 X-38.228 Y40.927 Z3.250 I3.245 J3.798 K0.000 F300.000
G2 X-38.985 Y41.690 Z3.250 I30.728 J31.238 K0.000 F300.000
G2 X-39.242 Y44.305 Z3.250 I1.528 J1.470 K0.000 F300.000
G1 X-44.305 Y39.242 Z3.250 F300.000
G0 Z9.000
G0 X-41.513 Y40.338 Z9.000
G0 X-41.513 Y40.338 Z7.000
G1 X-41.513 Y40.338 Z3.250 F100.000
G2 X-40.792 Y39.785 Z3.250 I-1.490 J-2.687 K0.000 F300.000
G1 X-40.579 Y39.571 Z3.250 F300.000
G1 X-39.574 Y40.576 Z3.250 F300.000
G2 X-40.107 Y41.157 Z3.250 I4.521 J4.679 K0.000 F300.000
G2 X-40.338 Y41.512 Z3.250 I2.427 J1.834 K0.000 F300.000
G1 X-41.513 Y40.338 Z3.250 F300.000
G1 X-40.998 Y40.393 Z3.250 F100.000
G1 X-40.857 Y40.285 Z3.250 F300.000
G2 X-40.579 Y40.031 Z3.250 I-2.497 J-3.016 K0.000 F300.000
G1 X-40.031 Y40.579 Z3.250 F300.000
G2 X-40.391 Y40.999 Z3.250 I2.170 J2.225 K0.000 F300.000
G1 X-40.998 Y40.393 Z3.250 F300.000
G0 Z9.000
G0 X-38.183 Y42.593 Z9.000
G0 X-38.183 Y42.593 Z7.000
G1 X-38.183 Y42.593 Z3.250 F100.000
G3 X-38.132 Y42.534 Z3.250 I0.725 J0.567 K0.000 F300.000
G3 X-37.141 Y41.544 Z3.250 I29.835 J28.860 K0.000 F300.000
G3 X-36.727 Y41.322 Z3.250 I0.619 J0.657 K0.000 F300.000
G3 X-35.865 Y41.568 Z3.250 I0.205 J0.915 K0.000 F300.000
G1 X-35.075 Y42.357 Z3.250 F300.000
G3 X-35.030 Y43.655 Z3.250 I-0.631 J0.672 K0.000 F300.000
G3 X-35.976 Y44.601 Z3.250 I-83.713 J-82.732 K0.000 F300.000
G3 X-37.272 Y44.646 Z3.250 I-0.671 J-0.631 K0.000 F300.000
G3 X-38.088 Y43.831 Z3.250 I71.461 J-72.321 K0.000 F300.000
G3 X-38.183 Y42.593 Z3.250 I0.631 J-0.671 K0.000 F300.000
G0 Z9.000
G0 X-37.904 Y45.679 Z9.000
G0 X-37.904 Y45.679 Z7.000
G1 X-37.904 Y45.679 Z3.250 F100.000
G2 X-35.300 Y45.608 Z3.250 I1.256 J-1.702 K0.000 F300.000
G2 X-35.126 Y45.833 Z3.250 I1.204 J-0.752 K0.000 F300.000
G2 X-33.899 Y47.058 Z3.250 I11.958 J-10.756 K0.000 F300.000
G1 X-33.822 Y47.116 Z3.250 F300.000
G1 X-33.861 Y47.154 Z3.250 F300.000
G2 X-36.501 Y47.163 Z3.250 I-1.315 J1.671 K0.000 F300.000
G2 X-37.492 Y46.870 Z3.250 I-1.070 J1.803 K0.000 F300.000
G1 X-37.492 Y46.822 Z3.250 F300.000
G2 X-37.904 Y45.679 Z3.250 I-2.117 J0.116 K0.000 F300.000
G1 X-37.904 Y45.679 Z2.500 F100.000
G2 X-35.300 Y45.608 Z2.500 I1.256 J-1.702 K0.000 F300.000
G2 X-35.126 Y45.833 Z2.500 I1.204 J-0.752 K0.000 F300.000
G2 X-33.899 Y47.058 Z2.500 I11.958 J-10.756 K0.000 F300.000
G1 X-33.822 Y47.116 Z2.500 F300.000
G1 X-33.861 Y47.154 Z2.500 F300.000
G2 X-36.501 Y47.163 Z2.500 I-1.315 J1.671 K0.000 F300.000
G2 X-37.492 Y46.870 Z2.500 I-1.070 J1.803 K0.000 F300.000
G1 X-37.492 Y46.822 Z2.500 F300.000
G2 X-37.904 Y45.679 Z2.500 I-2.117 J0.116 K0.000 F300.000
G1 X-38.869 Y46.390 Z2.500 F100.000
G2 X-38.978 Y46.267 Z2.500 I-0.749 J0.552 K0.000 F300.000
G1 X-46.266 Y38.978 Z2.500 F300.000
G2 X-47.434 Y38.840 Z2.500 I-0.667 J0.630 K0.000 F300.000
G2 X-47.675 Y39.067 Z2.500 I1.357 J1.675 K0.000 F300.000
G2 X-48.218 Y39.610 Z2.500 I21.888 J22.472 K0.000 F300.000
G3 X-48.327 Y39.696 Z2.500 I-0.146 J-0.073 K0.000 F300.000
G3 X-48.447 Y39.658 Z2.500 I-0.025 J-0.129 K0.000 F300.000
G2 X-49.477 Y38.771 Z2.500 I-2.532 J1.896 K0.000 F300.000
G2 X-50.256 Y38.856 Z2.500 I-0.306 J0.800 K0.000 F300.000
G2 X-50.796 Y39.376 Z2.500 I1.245 J1.831 K0.000 F300.000
G3 X-51.070 Y39.579 Z2.500 I-0.422 J-0.285 K0.000 F300.000
G3 X-51.266 Y39.457 Z2.500 I0.047 J-0.293 K0.000 F300.000
G2 X-51.412 Y39.336 Z2.500 I-0.725 J0.725 K0.000 F300.000
G3 X-51.517 Y39.072 Z2.500 I0.187 J-0.227 K0.000 F300.000
G3 X-51.040 Y38.564 Z2.500 I2.689 J2.046 K0.000 F300.000
G3 X-50.869 Y38.471 Z2.500 I0.170 J0.109 K0.000 F300.000
G3 X-48.942 Y38.471 Z2.500 I0.935 J172.877 K0.000 F300.000
G2 X-48.177 Y37.116 Z2.500 I-0.022 J-0.906 K0.000 F300.000
G2 X-48.689 Y36.590 Z2.500 I-1.700 J1.145 K0.000 F300.000
G3 X-48.715 Y36.362 Z2.500 I0.135 J-0.131 K0.000 F300.000
G2 X-48.172 Y35.834 Z2.500 I-1.813 J-2.410 K0.000 F300.000
G2 X-48.052 Y34.666 Z2.500 I-0.654 J-0.657 K0.000 F300.000
G2 X-48.278 Y34.429 Z2.500 I-1.234 J0.955 K0.000 F300.000
G3 X-48.718 Y33.989 Z2.500 I23.667 J-24.079 K0.000 F300.000
G3 X-48.798 Y33.880 Z2.500 I0.073 J-0.137 K0.000 F300.000
G3 X-48.754 Y33.763 Z2.500 I0.132 J-0.016 K0.000 F300.000
G1 X-44.568 Y29.577 Z2.500 F300.000
G3 X-44.506 Y29.537 Z2.500 I0.096 J0.080 K0.000 F300.000
G3 X-44.177 Y29.807 Z2.500 I-0.146 J0.514 K0.000 F300.000
G3 X-44.139 Y29.887 Z2.500 I-0.074 J0.084 K0.000 F300.000
G3 X-44.179 Y29.958 Z2.500 I-0.092 J-0.005 K0.000 F300.000
G2 X-46.118 Y31.897 Z2.500 I320.932 J322.827 K0.000 F300.000
G2 X-46.074 Y33.196 Z2.500 I0.675 J0.628 K0.000 F300.000
G2 X-45.105 Y34.165 Z2.500 I95.325 J-94.389 K0.000 F300.000
G2 X-43.979 Y34.260 Z2.500 I0.624 J-0.671 K0.000 F300.000
G2 X-43.506 Y33.809 Z2.500 I-7.874 J-8.720 K0.000 F300.000
G2 X-43.316 Y33.618 Z2.500 I-2.593 J-2.765 K0.000 F300.000
G3 X-43.140 Y33.602 Z2.500 I0.099 J0.105 K0.000 F300.000
G2 X-42.551 Y34.183 Z2.500 I2.774 J-2.219 K0.000 F300.000
G2 X-41.145 Y33.211 Z2.500 I0.526 J-0.743 K0.000 F300.000
G3 X-41.035 Y32.934 Z2.500 I0.303 J-0.040 K0.000 F300.000
G1 X-41.013 Y32.905 Z2.500 F300.000
G1 X-41.004 Y32.918 Z2.500 F300.000
G2 X-40.332 Y33.661 Z2.500 I5.505 J-4.301 K0.000 F300.000
G2 X-40.186 Y33.773 Z2.500 I0.648 J-0.696 K0.000 F300.000
G3 X-40.181 Y33.938 Z2.500 I-0.065 J0.085 K0.000 F300.000
G2 X-41.062 Y34.962 Z2.500 I1.859 J2.490 K0.000 F300.000
G2 X-40.870 Y35.886 Z2.500 I0.842 J0.307 K0.000 F300.000
G1 X-40.830 Y35.926 Z2.500 F300.000
G1 X-35.928 Y40.828 Z2.500 F300.000
G2 X-34.760 Y40.968 Z2.500 I0.668 J-0.628 K0.000 F300.000
G1 X-34.684 Y40.905 Z2.500 F300.000
G1 X-34.054 Y40.282 Z2.500 F300.000
G3 X-33.963 Y40.184 Z2.500 I0.485 J0.359 K0.000 F300.000
G3 X-33.739 Y40.232 Z2.500 I0.093 J0.112 K0.000 F300.000
G2 X-33.366 Y40.654 Z2.500 I7.959 J-6.642 K0.000 F300.000
G2 X-32.106 Y40.721 Z2.500 I0.671 J-0.723 K0.000 F300.000
G3 X-31.485 Y40.098 Z2.500 I22.091 J21.380 K0.000 F300.000
G3 X-31.375 Y40.018 Z2.500 I0.138 J0.073 K0.000 F300.000
G3 X-31.238 Y40.079 Z2.500 I0.014 J0.151 K0.000 F300.000
G3 X-31.082 Y40.198 Z2.500 I-0.670 J1.044 K0.000 F300.000
G3 X-30.935 Y40.457 Z2.500 I-0.349 J0.369 K0.000 F300.000
G3 X-31.224 Y40.815 Z2.500 I-0.850 J-0.390 K0.000 F300.000
G2 X-31.359 Y40.963 Z2.500 I0.774 J0.837 K0.000 F300.000
G3 X-31.570 Y41.110 Z2.500 I-0.413 J-0.370 K0.000 F300.000
G2 X-33.581 Y41.149 Z2.500 I-0.548 J23.617 K0.000 F300.000
G2 X-34.066 Y41.375 Z2.500 I0.078 J0.802 K0.000 F300.000
G2 X-34.347 Y42.050 Z2.500 I0.612 J0.650 K0.000 F300.000
G2 X-33.732 Y43.001 Z2.500 I1.352 J-0.199 K0.000 F300.000
G3 X-33.659 Y43.279 Z2.500 I-0.095 J0.173 K0.000 F300.000
G2 X-34.186 Y43.789 Z2.500 I1.652 J2.233 K0.000 F300.000
G2 X-34.241 Y45.023 Z2.500 I0.653 J0.647 K0.000 F300.000
G2 X-33.100 Y46.159 Z2.500 I10.335 J-9.229 K0.000 F300.000
G2 X-31.875 Y46.053 Z2.500 I0.553 J-0.739 K0.000 F300.000
G1 X-29.982 Y44.160 Z2.500 F300.000
G3 X-29.858 Y44.129 Z2.500 I0.080 J0.057 K0.000 F300.000
G3 X-29.710 Y44.237 Z2.500 I-0.081 J0.268 K0.000 F300.000
G2 X-29.600 Y44.335 Z2.500 I0.821 J-0.810 K0.000 F300.000
G3 X-29.590 Y44.580 Z2.500 I-0.121 J0.128 K0.000 F300.000
G1 X-33.760 Y48.751 Z2.500 F300.000
G3 X-33.948 Y48.772 Z2.500 I-0.106 J-0.098 K0.000 F300.000
G2 X-34.500 Y48.191 Z2.500 I-2.373 J1.704 K0.000 F300.000
G2 X-35.687 Y48.050 Z2.500 I-0.678 J0.640 K0.000 F300.000
G2 X-35.917 Y48.268 Z2.500 I0.895 J1.175 K0.000 F300.000
G3 X-36.357 Y48.708 Z2.500 I-131.619 J-130.900 K0.000 F300.000
G3 X-36.500 Y48.739 Z2.500 I-0.097 J-0.100 K0.000 F300.000
G2 X-37.346 Y48.098 Z2.500 I-1.391 J0.957 K0.000 F300.000
G2 X-38.471 Y49.018 Z2.500 I-0.231 J0.865 K0.000 F300.000
G1 X-38.471 Y50.881 Z2.500 F300.000
G3 X-38.495 Y50.946 Z2.500 I-0.073 J0.010 K0.000 F300.000
G3 X-38.780 Y51.264 Z2.500 I-1.276 J-0.855 K0.000 F300.000
G2 X-38.899 Y51.402 Z2.500 I0.825 J0.836 K0.000 F300.000
G3 X-39.130 Y51.523 Z2.500 I-0.276 J-0.246 K0.000 F300.000
G3 X-39.477 Y51.248 Z2.500 I0.547 J-1.048 K0.000 F300.000
G3 X-39.576 Y51.053 Z2.500 I0.108 J-0.177 K0.000 F300.000
G3 X-39.549 Y50.975 Z2.500 I0.180 J0.019 K0.000 F300.000
G2 X-38.995 Y50.439 Z2.500 I-1.836 J-2.451 K0.000 F300.000
G2 X-38.868 Y49.263 Z2.500 I-0.650 J-0.665 K0.000 F300.000
G2 X-39.112 Y49.010 Z2.500 I-1.294 J1.005 K0.000 F300.000
G3 X-39.612 Y48.513 Z2.500 I44.339 J-45.026 K0.000 F300.000
G3 X-39.696 Y48.405 Z2.500 I0.073 J-0.144 K0.000 F300.000
G3 X-39.659 Y48.287 Z2.500 I0.128 J-0.024 K0.000 F300.000
G2 X-38.747 Y47.234 Z2.500 I-1.961 J-2.618 K0.000 F300.000
G2 X-38.854 Y46.411 Z2.500 I-0.833 J-0.311 K0.000 F300.000
G2 X-38.869 Y46.390 Z2.500 I-0.764 J0.531 K0.000 F300.000
G0 Z9.000
G0 X-39.242 Y44.305 Z9.000
G0 X-39.242 Y44.305 Z7.000
G1 X-39.242 Y44.305 Z2.500 F100.000
G1 X-44.305 Y39.242 Z2.500 F300.000
G2 X-41.641 Y38.936 Z2.500 I1.145 J-1.785 K0.000 F300.000
G2 X-40.691 Y37.986 Z2.500 I-112.413 J-113.292 K0.000 F300.000
G1 X-40.584 Y37.869 Z2.500 F300.000
G1 X-37.867 Y40.586 Z2.500 F300.000
G2 X-38.228 Y40.927 Z2.500 I3.245 J3.798 K0.000 F300.000
G2 X-38.985 Y41.690 Z2.500 I30.728 J31.238 K0.000 F300.000
G2 X-39.242 Y44.305 Z2.500 I1.528 J1.470 K0.000 F300.000
G1 X-38.232 Y43.658 Z2.500 F100.000
G3 X-38.132 Y42.534 Z2.500 I0.775 J-0.497 K0.000 F300.000
G3 X-37.141 Y41.544 Z2.500 I29.835 J28.860 K0.000 F300.000
G3 X-36.727 Y41.322 Z2.500 I0.619 J0.657 K0.000 F300.000
G3 X-35.865 Y41.568 Z2.500 I0.205 J0.915 K0.000 F300.000
G1 X-35.075 Y42.357 Z2.500 F300.000
G3 X-35.030 Y43.655 Z2.500 I-0.631 J0.672 K0.000 F300.000
G3 X-35.976 Y44.601 Z2.500 I-83.713 J-82.732 K0.000 F300.000
G3 X-37.272 Y44.646 Z2.500 I-0.671 J-0.631 K0.000 F300.000
G3 X-38.088 Y43.831 Z2.500 I71.461 J-72.321 K0.000 F300.000
G3 X-38.232 Y43.658 Z2.500 I0.631 J-0.671 K0.000 F300.000
G0 Z9.000
G0 X-40.338 Y41.512 Z9.000
G0 X-40.338 Y41.512 Z7.000
G1 X-40.338 Y41.512 Z2.500 F100.000
G1 X-41.513 Y40.338 Z2.500 F300.000
G2 X-40.792 Y39.785 Z2.500 I-1.490 J-2.687 K0.000 F300.000
G1 X-40.579 Y39.571 Z2.500 F300.000
G1 X-39.574 Y40.576 Z2.500 F300.000
G2 X-40.107 Y41.157 Z2.500 I4.521 J4.679 K0.000 F300.000
G2 X-40.338 Y41.512 Z2.500 I2.427 J1.834 K0.000 F300.000
G1 X-40.391 Y40.999 Z2.500 F100.000
G1 X-40.998 Y40.393 Z2.500 F300.000
G1 X-40.857 Y40.285 Z2.500 F300.000
G2 X-40.579 Y40.031 Z2.500 I-2.497 J-3.016 K0.000 F300.000
G1 X-40.031 Y40.579 Z2.500 F300.000
G2 X-40.391 Y40.999 Z2.500 I2.170 J2.225 K0.000 F300.000
G0 Z9.000
G0 X-42.593 Y38.183 Z9.000
G0 X-42.593 Y38.183 Z7.000
G1 X-42.593 Y38.183 Z2.500 F100.000
G3 X-43.787 Y38.132 Z2.500 I-0.567 J-0.726 K0.000 F300.000
G3 X-44.601 Y37.318 Z2.500 I94.880 J-95.750 K0.000 F300.000
G3 X-44.646 Y36.021 Z2.500 I0.631 J-0.671 K0.000 F300.000
G3 X-43.654 Y35.029 Z2.500 I24.849 J23.876 K0.000 F300.000
G3 X-43.240 Y34.809 Z2.500 I0.618 J0.659 K0.000 F300.000
G3 X-42.379 Y35.054 Z2.500 I0.205 J0.916 K0.000 F300.000
G1 X-41.588 Y35.844 Z2.500 F300.000
G3 X-41.544 Y37.142 Z2.500 I-0.630 J0.671 K0.000 F300.000
G3 X-42.489 Y38.088 Z2.500 I-112.711 J-111.696 K0.000 F300.000
G3 X-42.593 Y38.183 Z2.500 I-0.671 J-0.631 K0.000 F300.000
G0 Z9.000
G0 X-45.681 Y37.901 Z9.000
G0 X-45.681 Y37.901 Z7.000
G1 X-45.681 Y37.901 Z2.500 F100.000
G2 X-46.859 Y37.492 Z2.500 I-1.256 J1.713 K0.000 F300.000
G2 X-47.155 Y36.490 Z2.500 I-2.047 J0.060 K0.000 F300.000
G2 X-46.852 Y35.971 Z2.500 I-1.469 J-1.206 K0.000 F300.000
G2 X-47.157 Y33.863 Z2.500 I-1.962 J-0.793 K0.000 F300.000
G1 X-47.119 Y33.825 Z2.500 F300.000
G2 X-46.923 Y34.044 Z2.500 I1.765 J-1.384 K0.000 F300.000
G2 X-45.949 Y35.017 Z2.500 I95.972 J-95.034 K0.000 F300.000
G2 X-45.600 Y35.289 Z2.500 I1.321 J-1.338 K0.000 F300.000
G2 X-45.681 Y37.901 Z2.500 I1.627 J1.357 K0.000 F300.000
G0 Z9.000
G0 X-41.003 Y32.100 Z9.000
G0 X-41.003 Y32.100 Z7.000
G1 X-41.003 Y32.100 Z2.500 F100.000
G2 X-41.067 Y32.023 Z2.500 I-0.550 J0.392 K0.000 F300.000
G3 X-41.092 Y31.538 Z2.500 I0.701 J-0.280 K0.000 F300.000
G3 X-40.665 Y31.078 Z2.500 I1.311 J0.790 K0.000 F300.000
G2 X-40.548 Y30.964 Z2.500 I-0.668 J-0.803 K0.000 F300.000
G3 X-40.396 Y30.926 Z2.500 I0.111 J0.117 K0.000 F300.000
G3 X-40.276 Y31.031 Z2.500 I-0.054 J0.183 K0.000 F300.000
G3 X-40.198 Y31.132 Z2.500 I-0.417 J0.405 K0.000 F300.000
G3 X-40.210 Y31.287 Z2.500 I-0.124 J0.068 K0.000 F300.000
G2 X-41.003 Y32.100 Z2.500 I2.393 J3.127 K0.000 F300.000
G1 X-41.003 Y32.100 Z2.000 F100.000
G2 X-41.067 Y32.023 Z2.000 I-0.550 J0.392 K0.000 F300.000
G3 X-41.092 Y31.538 Z2.000 I0.701 J-0.280 K0.000 F300.000
G3 X-40.665 Y31.078 Z2.000 I1.311 J0.790 K0.000 F300.000
G2 X-40.548 Y30.964 Z2.000 I-0.668 J-0.803 K0.000 F300.000
G3 X-40.396 Y30.926 Z2.000 I0.111 J0.117 K0.000 F300.000
G3 X-40.276 Y31.031 Z2.000 I-0.054 J0.183 K0.000 F300.000
G3 X-40.198 Y31.132 Z2.000 I-0.417 J0.405 K0.000 F300.000
G3 X-40.210 Y31.287 Z2.000 I-0.124 J0.068 K0.000 F300.000
G2 X-41.003 Y32.100 Z2.000 I2.393 J3.127 K0.000 F300.000
G1 X-41.013 Y32.905 Z2.000 F100.000
G1 X-41.004 Y32.918 Z2.000 F300.000
G2 X-40.332 Y33.661 Z2.000 I5.505 J-4.301 K0.000 F300.000
G2 X-40.186 Y33.773 Z2.000 I0.648 J-0.696 K0.000 F300.000
G3 X-40.181 Y33.938 Z2.000 I-0.065 J0.085 K0.000 F300.000
G2 X-41.062 Y34.962 Z2.000 I1.859 J2.490 K0.000 F300.000
G2 X-40.870 Y35.886 Z2.000 I0.842 J0.307 K0.000 F300.000
G1 X-40.830 Y35.926 Z2.000 F300.000
G1 X-35.928 Y40.828 Z2.000 F300.000
G2 X-34.760 Y40.968 Z2.000 I0.668 J-0.628 K0.000 F300.000
G1 X-34.684 Y40.905 Z2.000 F300.000
G1 X-34.054 Y40.282 Z2.000 F300.000
G3 X-33.963 Y40.184 Z2.000 I0.485 J0.359 K0.000 F300.000
G3 X-33.739 Y40.232 Z2.000 I0.093 J0.112 K0.000 F300.000
G2 X-33.366 Y40.654 Z2.000 I7.959 J-6.642 K0.000 F300.000
G2 X-32.106 Y40.721 Z2.000 I0.671 J-0.723 K0.000 F300.000
G3 X-31.485 Y40.098 Z2.000 I22.091 J21.380 K0.000 F300.000
G3 X-31.375 Y40.018 Z2.000 I0.138 J0.073 K0.000 F300.000
G3 X-31.238 Y40.079 Z2.000 I0.014 J0.151 K0.000 F300.000
G3 X-31.082 Y40.198 Z2.000 I-0.670 J1.044 K0.000 F300.000
G3 X-30.935 Y40.457 Z2.000 I-0.349 J0.369 K0.000 F300.000
G3 X-31.224 Y40.815 Z2.000 I-0.850 J-0.390 K0.000 F300.000
G2 X-31.359 Y40.963 Z2.000 I0.774 J0.837 K0.000 F300.000
G3 X-31.570 Y41.110 Z2.000 I-0.413 J-0.370 K0.000 F300.000
G2 X-33.581 Y41.149 Z2.000 I-0.548 J23.617 K0.000 F300.000
G2 X-34.066 Y41.375 Z2.000 I0.078 J0.802 K0.000 F300.000
G2 X-34.347 Y42.050 Z2.000 I0.612 J0.650 K0.000 F300.000
G2 X-33.732 Y43.001 Z2.000 I1.352 J-0.199 K0.000 F300.000
G3 X-33.659 Y43.279 Z2.000 I-0.095 J0.173 K0.000 F300.000
G2 X-34.186 Y43.789 Z2.000 I1.652 J2.233 K0.000 F300.000
G2 X-34.241 Y45.023 Z2.000 I0.653 J0.647 K0.000 F300.000
G2 X-33.100 Y46.159 Z2.000 I10.335 J-9.229 K0.000 F300.000
G2 X-31.875 Y46.053 Z2.000 I0.553 J-0.739 K0.000 F300.000
G1 X-29.982 Y44.160 Z2.000 F300.000
G3 X-29.858 Y44.129 Z2.000 I0.080 J0.057 K0.000 F300.000
G3 X-29.710 Y44.237 Z2.000 I-0.081 J0.268 K0.000 F300.000
G2 X-29.600 Y44.335 Z2.000 I0.821 J-0.810 K0.000 F300.000
G3 X-29.590 Y44.580 Z2.000 I-0.121 J0.128 K0.000 F300.000
G1 X-33.760 Y48.751 Z2.000 F300.000
G3 X-33.948 Y48.772 Z2.000 I-0.106 J-0.098 K0.000 F300.000
G2 X-34.500 Y48.191 Z2.000 I-2.373 J1.704 K0.000 F300.000
G2 X-35.687 Y48.050 Z2.000 I-0.678 J0.640 K0.000 F300.000
G2 X-35.917 Y48.268 Z2.000 I0.895 J1.175 K0.000 F300.000
G3 X-36.357 Y48.708 Z2.000 I-131.619 J-130.900 K0.000 F300.000
G3 X-36.500 Y48.739 Z2.000 I-0.097 J-0.100 K0.000 F300.000
G2 X-37.346 Y48.098 Z2.000 I-1.391 J0.957 K0.000 F300.000
G2 X-38.471 Y49.018 Z2.000 I-0.231 J0.865 K0.000 F300.000
G1 X-38.471 Y50.881 Z2.000 F300.000
G3 X-38.495 Y50.946 Z2.000 I-0.073 J0.010 K0.000 F300.000
G3 X-38.780 Y51.264 Z2.000 I-1.276 J-0.855 K0.000 F300.000
G2 X-38.899 Y51.402 Z2.000 I0.825 J0.836 K0.000 F300.000
G3 X-39.130 Y51.523 Z2.000 I-0.276 J-0.246 K0.000 F300.000
G3 X-39.477 Y51.248 Z2.000 I0.547 J-1.048 K0.000 F300.000
G3 X-39.576 Y51.053 Z2.000 I0.108 J-0.177 K0.000 F300.000
G3 X-39.549 Y50.975 Z2.000 I0.180 J0.019 K0.000 F300.000
G2 X-38.995 Y50.439 Z2.000 I-1.836 J-2.451 K0.000 F300.000
G2 X-38.868 Y49.263 Z2.000 I-0.650 J-0.665 K0.000 F300.000
G2 X-39.112 Y49.010 Z2.000 I-1.294 J1.005 K0.000 F300.000
G3 X-39.612 Y48.513 Z2.000 I44.339 J-45.026 K0.000 F300.000
G3 X-39.696 Y48.405 Z2.000 I0.073 J-0.144 K0.000 F300.000
G3 X-39.659 Y48.287 Z2.000 I0.128 J-0.024 K0.000 F300.000
G2 X-38.747 Y47.234 Z2.000 I-1.961 J-2.618 K0.000 F300.000
G2 X-38.854 Y46.411 Z2.000 I-0.833 J-0.311 K0.000 F300.000
G2 X-38.978 Y46.267 Z2.000 I-0.764 J0.531 K0.000 F300.000
G1 X-46.266 Y38.978 Z2.000 F300.000
G2 X-47.434 Y38.840 Z2.000 I-0.667 J0.630 K0.000 F300.000
G2 X-47.675 Y39.067 Z2.000 I1.357 J1.675 K0.000 F300.000
G2 X-48.218 Y39.610 Z2.000 I21.888 J22.472 K0.000 F300.000
G3 X-48.327 Y39.696 Z2.000 I-0.146 J-0.073 K0.000 F300.000
G3 X-48.447 Y39.658 Z2.000 I-0.025 J-0.129 K0.000 F300.000
G2 X-49.477 Y38.771 Z2.000 I-2.532 J1.896 K0.000 F300.000
G2 X-50.256 Y38.856 Z2.000 I-0.306 J0.800 K0.000 F300.000
G2 X-50.796 Y39.376 Z2.000 I1.245 J1.831 K0.000 F300.000
G3 X-51.070 Y39.579 Z2.000 I-0.422 J-0.285 K0.000 F300.000
G3 X-51.266 Y39.457 Z2.000 I0.047 J-0.293 K0.000 F300.000
G2 X-51.412 Y39.336 Z2.000 I-0.725 J0.725 K0.000 F300.000
G3 X-51.517 Y39.072 Z2.000 I0.187 J-0.227 K0.000 F300.000
G3 X-51.040 Y38.564 Z2.000 I2.689 J2.046 K0.000 F300.000
G3 X-50.869 Y38.471 Z2.000 I0.170 J0.109 K0.000 F300.000
G3 X-48.942 Y38.471 Z2.000 I0.935 J172.877 K0.000 F300.000
G2 X-48.177 Y37.116 Z2.000 I-0.022 J-0.906 K0.000 F300.000
G2 X-48.689 Y36.590 Z2.000 I-1.700 J1.145 K0.000 F300.000
G3 X-48.715 Y36.362 Z2.000 I0.135 J-0.131 K0.000 F300.000
G2 X-48.172 Y35.834 Z2.000 I-1.813 J-2.410 K0.000 F300.000
G2 X-48.052 Y34.666 Z2.000 I-0.654 J-0.657 K0.000 F300.000
G2 X-48.278 Y34.429 Z2.000 I-1.234 J0.955 K0.000 F300.000
G3 X-48.718 Y33.989 Z2.000 I23.667 J-24.079 K0.000 F300.000
G3 X-48.798 Y33.880 Z2.000 I0.073 J-0.137 K0.000 F300.000
G3 X-48.754 Y33.763 Z2.000 I0.132 J-0.016 K0.000 F300.000
G1 X-44.568 Y29.577 Z2.000 F300.000
G3 X-44.506 Y29.537 Z2.000 I0.096 J0.080 K0.000 F300.000
G3 X-44.177 Y29.807 Z2.000 I-0.146 J0.514 K0.000 F300.000
G3 X-44.139 Y29.887 Z2.000 I-0.074 J0.084 K0.000 F300.000
G3 X-44.179 Y29.958 Z2.000 I-0.092 J-0.005 K0.000 F300.000
G2 X-46.118 Y31.897 Z2.000 I320.932 J322.827 K0.000 F300.000
G2 X-46.074 Y33.196 Z2.000 I0.675 J0.628 K0.000 F300.000
G2 X-45.105 Y34.165 Z2.000 I95.325 J-94.389 K0.000 F300.000
G2 X-43.979 Y34.260 Z2.000 I0.624 J-0.671 K0.000 F300.000
G2 X-43.506 Y33.809 Z2.000 I-7.874 J-8.720 K0.000 F300.000
G2 X-43.316 Y33.618 Z2.000 I-2.593 J-2.765 K0.000 F300.000
G3 X-43.140 Y33.602 Z2.000 I0.099 J0.105 K0.000 F300.000
G2 X-42.551 Y34.183 Z2.000 I2.774 J-2.219 K0.000 F300.000
G2 X-41.145 Y33.211 Z2.000 I0.526 J-0.743 K0.000 F300.000
G3 X-41.035 Y32.934 Z2.000 I0.303 J-0.040 K0.000 F300.000
G1 X-41.013 Y32.905 Z2.000 F300.000
G0 Z9.000
G0 X-42.489 Y34.962 Z9.000
G0 X-42.489 Y34.962 Z7.000
G1 X-42.489 Y34.962 Z2.000 F100.000
G3 X-42.379 Y35.054 Z2.000 I-0.547 J0.763 K0.000 F300.000
G1 X-41.588 Y35.844 Z2.000 F300.000
G3 X-41.544 Y37.142 Z2.000 I-0.630 J0.671 K0.000 F300.000
G3 X-42.489 Y38.088 Z2.000 I-112.711 J-111.696 K0.000 F300.000
G3 X-43.787 Y38.132 Z2.000 I-0.671 J-0.631 K0.000 F300.000
G3 X-44.601 Y37.318 Z2.000 I94.880 J-95.750 K0.000 F300.000
G3 X-44.646 Y36.021 Z2.000 I0.631 J-0.671 K0.000 F300.000
G3 X-43.654 Y35.029 Z2.000 I24.849 J23.876 K0.000 F300.000
G3 X-43.240 Y34.809 Z2.000 I0.618 J0.659 K0.000 F300.000
G3 X-42.489 Y34.962 Z2.000 I0.205 J0.916 K0.000 F300.000
G0 Z9.000
G0 X-45.600 Y35.289 Z9.000
G0 X-45.600 Y35.289 Z7.000
G1 X-45.600 Y35.289 Z2.000 F100.000
G2 X-45.681 Y37.901 Z2.000 I1.627 J1.357 K0.000 F300.000
G2 X-46.859 Y37.492 Z2.000 I-1.256 J1.713 K0.000 F300.000
G2 X-47.155 Y36.490 Z2.000 I-2.047 J0.060 K0.000 F300.000
G2 X-46.852 Y35.971 Z2.000 I-1.469 J-1.206 K0.000 F300.000
G2 X-47.157 Y33.863 Z2.000 I-1.962 J-0.793 K0.000 F300.000
G1 X-47.119 Y33.825 Z2.000 F300.000
G2 X-46.923 Y34.044 Z2.000 I1.765 J-1.384 K0.000 F300.000
G2 X-45.949 Y35.017 Z2.000 I95.972 J-95.034 K0.000 F300.000
G2 X-45.600 Y35.289 Z2.000 I1.321 J-1.338 K0.000 F300.000
G0 Z9.000
G0 X-44.305 Y39.242 Z9.000
G0 X-44.305 Y39.242 Z7.000
G1 X-44.305 Y39.242 Z2.000 F100.000
G2 X-41.641 Y38.936 Z2.000 I1.145 J-1.785 K0.000 F300.000
G2 X-40.691 Y37.986 Z2.000 I-112.413 J-113.292 K0.000 F300.000
G1 X-40.584 Y37.869 Z2.000 F300.000
G1 X-37.867 Y40.586 Z2.000 F300.000
G2 X-38.228 Y40.927 Z2.000 I3.245 J3.798 K0.000 F300.000
G2 X-38.985 Y41.690 Z2.000 I30.728 J31.238 K0.000 F300.000
G2 X-39.242 Y44.305 Z2.000 I1.528 J1.470 K0.000 F300.000
G1 X-44.305 Y39.242 Z2.000 F300.000
G0 Z9.000
G0 X-41.513 Y40.338 Z9.000
G0 X-41.513 Y40.338 Z7.000
G1 X-41.513 Y40.338 Z2.000 F100.000
G2 X-40.792 Y39.785 Z2.000 I-1.490 J-2.687 K0.000 F300.000
G1 X-40.579 Y39.571 Z2.000 F300.000
G1 X-39.574 Y40.576 Z2.000 F300.000
G2 X-40.107 Y41.157 Z2.000 I4.521 J4.679 K0.000 F300.000
G2 X-40.338 Y41.512 Z2.000 I2.427 J1.834 K0.000 F300.000
G1 X-41.513 Y40.338 Z2.000 F300.000
G1 X-40.998 Y40.393 Z2.000 F100.000
G1 X-40.857 Y40.285 Z2.000 F300.000
G2 X-40.579 Y40.031 Z2.000 I-2.497 J-3.016 K0.000 F300.000
G1 X-40.031 Y40.579 Z2.000 F300.000
G2 X-40.391 Y40.999 Z2.000 I2.170 J2.225 K0.000 F300.000
G1 X-40.998 Y40.393 Z2.000 F300.000
G0 Z9.000
G0 X-38.183 Y42.593 Z9.000
G0 X-38.183 Y42.593 Z7.000
G1 X-38.183 Y42.593 Z2.000 F100.000
G3 X-38.132 Y42.534 Z2.000 I0.725 J0.567 K0.000 F300.000
G3 X-37.141 Y41.544 Z2.000 I29.835 J28.860 K0.000 F300.000
G3 X-36.727 Y41.322 Z2.000 I0.619 J0.657 K0.000 F300.000
G3 X-35.865 Y41.568 Z2.000 I0.205 J0.915 K0.000 F300.000
G1 X-35.075 Y42.357 Z2.000 F300.000
G3 X-35.030 Y43.655 Z2.000 I-0.631 J0.672 K0.000 F300.000
G3 X-35.976 Y44.601 Z2.000 I-83.713 J-82.732 K0.000 F300.000
G3 X-37.272 Y44.646 Z2.000 I-0.671 J-0.631 K0.000 F300.000
G3 X-38.088 Y43.831 Z2.000 I71.461 J-72.321 K0.000 F300.000
G3 X-38.183 Y42.593 Z2.000 I0.631 J-0.671 K0.000 F300.000
G0 Z9.000
G0 X-37.904 Y45.679 Z9.000
G0 X-37.904 Y45.679 Z7.000
G1 X-37.904 Y45.679 Z2.000 F100.000
G2 X-35.300 Y45.608 Z2.000 I1.256 J-1.702 K0.000 F300.000
G2 X-35.126 Y45.833 Z2.000 I1.204 J-0.752 K0.000 F300.000
G2 X-33.899 Y47.058 Z2.000 I11.958 J-10.756 K0.000 F300.000
G1 X-33.822 Y47.116 Z2.000 F300.000
G1 X-33.861 Y47.154 Z2.000 F300.000
G2 X-36.501 Y47.163 Z2.000 I-1.315 J1.671 K0.000 F300.000
G2 X-37.492 Y46.870 Z2.000 I-1.070 J1.803 K0.000 F300.000
G1 X-37.492 Y46.822 Z2.000 F300.000
G2 X-37.904 Y45.679 Z2.000 I-2.117 J0.116 K0.000 F300.000
G0 Z9.000
G0 X-37.904 Y45.679
G0 X29.533 Y44.485
G0 X29.533 Y44.485 Z7.000
G1 X29.533 Y44.485 Z3.250 F100.000
G3 X29.554 Y44.421 Z3.250 I0.103 J-0.002 K0.000 F300.000
G2 X29.706 Y44.211 Z3.250 I-1.104 J-0.963 K0.000 F300.000
G3 X29.973 Y44.195 Z3.250 I0.142 J0.124 K0.000 F300.000
G2 X31.897 Y46.118 Z3.250 I305.376 J-303.496 K0.000 F300.000
G2 X33.195 Y46.075 Z3.250 I0.628 J-0.675 K0.000 F300.000
G2 X34.165 Y45.105 Z3.250 I-96.336 J-97.283 K0.000 F300.000
G2 X34.261 Y43.980 Z3.250 I-0.671 J-0.624 K0.000 F300.000
G2 X33.809 Y43.506 Z3.250 I-8.499 J7.654 K0.000 F300.000
G2 X33.618 Y43.316 Z3.250 I-2.786 J2.616 K0.000 F300.000
G3 X33.602 Y43.140 Z3.250 I0.105 J-0.099 K0.000 F300.000
G2 X34.183 Y42.551 Z3.250 I-2.219 J-2.774 K0.000 F300.000
G2 X33.211 Y41.145 Z3.250 I-0.743 J-0.526 K0.000 F300.000
G3 X32.933 Y41.035 Z3.250 I-0.040 J-0.304 K0.000 F300.000
G1 X32.905 Y41.012 Z3.250 F300.000
G1 X32.918 Y41.004 Z3.250 F300.000
G2 X33.661 Y40.332 Z3.250 I-4.274 J-5.477 K0.000 F300.000
G2 X33.773 Y40.186 Z3.250 I-0.696 J-0.648 K0.000 F300.000
G3 X33.938 Y40.181 Z3.250 I0.085 J0.065 K0.000 F300.000
G2 X34.962 Y41.062 Z3.250 I2.490 J-1.859 K0.000 F300.000
G2 X35.782 Y40.953 Z3.250 I0.307 J-0.835 K0.000 F300.000
G2 X35.926 Y40.830 Z3.250 I-0.530 J-0.762 K0.000 F300.000
G1 X40.828 Y35.928 Z3.250 F300.000
G2 X40.968 Y34.760 Z3.250 I-0.628 J-0.668 K0.000 F300.000
G1 X40.905 Y34.684 Z3.250 F300.000
G1 X40.282 Y34.054 Z3.250 F300.000
G3 X40.184 Y33.963 Z3.250 I0.359 J-0.485 K0.000 F300.000
G3 X40.232 Y33.739 Z3.250 I0.112 J-0.093 K0.000 F300.000
G2 X40.655 Y33.366 Z3.250 I-6.556 J-7.858 K0.000 F300.000
G2 X40.721 Y32.105 Z3.250 I-0.723 J-0.670 K0.000 F300.000
G3 X40.098 Y31.485 Z3.250 I20.980 J-21.694 K0.000 F300.000
G3 X40.018 Y31.375 Z3.250 I0.073 J-0.138 K0.000 F300.000
G3 X40.079 Y31.238 Z3.250 I0.151 J-0.014 K0.000 F300.000
G3 X40.197 Y31.082 Z3.250 I1.045 J0.670 K0.000 F300.000
G3 X40.457 Y30.935 Z3.250 I0.369 J0.349 K0.000 F300.000
G3 X40.815 Y31.224 Z3.250 I-0.390 J0.849 K0.000 F300.000
G2 X40.963 Y31.359 Z3.250 I0.837 J-0.774 K0.000 F300.000
G3 X41.110 Y31.570 Z3.250 I-0.370 J0.413 K0.000 F300.000
G2 X41.149 Y33.580 Z3.250 I23.615 J0.548 K0.000 F300.000
G2 X41.375 Y34.066 Z3.250 I0.802 J-0.078 K0.000 F300.000
G2 X42.050 Y34.347 Z3.250 I0.651 J-0.612 K0.000 F300.000
G2 X43.001 Y33.732 Z3.250 I-0.200 J-1.352 K0.000 F300.000
G3 X43.279 Y33.659 Z3.250 I0.173 J0.095 K0.000 F300.000
G2 X43.789 Y34.186 Z3.250 I2.233 J-1.652 K0.000 F300.000
G2 X45.023 Y34.241 Z3.250 I0.647 J-0.653 K0.000 F300.000
G2 X46.159 Y33.100 Z3.250 I-9.229 J-10.335 K0.000 F300.000
G2 X46.053 Y31.875 Z3.250 I-0.739 J-0.553 K0.000 F300.000
G1 X44.161 Y29.983 Z3.250 F300.000
G3 X44.123 Y29.889 Z3.250 I0.043 J-0.072 K0.000 F300.000
G3 X44.507 Y29.537 Z3.250 I0.541 J0.205 K0.000 F300.000
G3 X44.568 Y29.577 Z3.250 I-0.035 J0.120 K0.000 F300.000
G1 X48.751 Y33.760 Z3.250 F300.000
G3 X48.772 Y33.948 Z3.250 I-0.098 J0.106 K0.000 F300.000
G2 X48.191 Y34.500 Z3.250 I1.702 J2.371 K0.000 F300.000
G2 X48.049 Y35.687 Z3.250 I0.640 J0.678 K0.000 F300.000
G2 X48.268 Y35.917 Z3.250 I1.173 J-0.892 K0.000 F300.000
G3 X48.708 Y36.357 Z3.250 I-120.054 J120.758 K0.000 F300.000
G3 X48.729 Y36.512 Z3.250 I-0.086 J0.091 K0.000 F300.000
G2 X48.184 Y37.116 Z3.250 I1.233 J1.660 K0.000 F300.000
G2 X49.014 Y38.471 Z3.250 I0.781 J0.453 K0.000 F300.000
G1 X50.881 Y38.471 Z3.250 F300.000
G3 X50.946 Y38.495 Z3.250 I0.010 J0.073 K0.000 F300.000
G3 X51.264 Y38.780 Z3.250 I-0.855 J1.276 K0.000 F300.000
G2 X51.402 Y38.899 Z3.250 I0.836 J-0.825 K0.000 F300.000
G3 X51.523 Y39.130 Z3.250 I-0.246 J0.276 K0.000 F300.000
G3 X51.248 Y39.477 Z3.250 I-1.050 J-0.548 K0.000 F300.000
G3 X51.053 Y39.576 Z3.250 I-0.177 J-0.108 K0.000 F300.000
G3 X50.975 Y39.549 Z3.250 I0.019 J-0.180 K0.000 F300.000
G2 X50.439 Y38.995 Z3.250 I-2.451 J1.836 K0.000 F300.000
G2 X49.263 Y38.868 Z3.250 I-0.665 J0.650 K0.000 F300.000
G2 X49.010 Y39.112 Z3.250 I1.005 J1.294 K0.000 F300.000
G3 X48.513 Y39.612 Z3.250 I-44.911 J-44.225 K0.000 F300.000
G3 X48.405 Y39.696 Z3.250 I-0.144 J-0.073 K0.000 F300.000
G3 X48.287 Y39.659 Z3.250 I-0.024 J-0.128 K0.000 F300.000
G2 X47.234 Y38.747 Z3.250 I-2.616 J1.959 K0.000 F300.000
G2 X46.411 Y38.854 Z3.250 I-0.311 J0.833 K0.000 F300.000
G2 X46.267 Y38.978 Z3.250 I0.531 J0.763 K0.000 F300.000
G1 X38.978 Y46.266 Z3.250 F300.000
G2 X38.840 Y47.434 Z3.250 I0.630 J0.667 K0.000 F300.000
G2 X39.068 Y47.675 Z3.250 I1.675 J-1.357 K0.000 F300.000
G2 X39.610 Y48.218 Z3.250 I22.470 J-21.886 K0.000 F300.000
G3 X39.696 Y48.327 Z3.250 I-0.073 J0.146 K0.000 F300.000
G3 X39.658 Y48.447 Z3.250 I-0.129 J0.025 K0.000 F300.000
G2 X38.771 Y49.477 Z3.250 I1.896 J2.532 K0.000 F300.000
G2 X38.856 Y50.256 Z3.250 I0.800 J0.306 K0.000 F300.000
G2 X39.376 Y50.796 Z3.250 I1.831 J-1.245 K0.000 F300.000
G3 X39.579 Y51.070 Z3.250 I-0.285 J0.422 K0.000 F300.000
G3 X39.457 Y51.266 Z3.250 I-0.293 J-0.047 K0.000 F300.000
G2 X39.336 Y51.412 Z3.250 I0.726 J0.725 K0.000 F300.000
G3 X39.072 Y51.517 Z3.250 I-0.227 J-0.187 K0.000 F300.000
G3 X38.564 Y51.040 Z3.250 I2.046 J-2.689 K0.000 F300.000
G3 X38.471 Y50.869 Z3.250 I0.109 J-0.170 K0.000 F300.000
G3 X38.471 Y48.941 Z3.250 I177.586 J-0.935 K0.000 F300.000
G2 X37.115 Y48.177 Z3.250 I-0.906 J0.022 K0.000 F300.000
G2 X36.590 Y48.689 Z3.250 I1.143 J1.696 K0.000 F300.000
G3 X36.362 Y48.715 Z3.250 I-0.131 J-0.135 K0.000 F300.000
G2 X35.834 Y48.171 Z3.250 I-2.404 J1.808 K0.000 F300.000
G2 X34.666 Y48.052 Z3.250 I-0.657 J0.655 K0.000 F300.000
G2 X34.429 Y48.278 Z3.250 I0.955 J1.234 K0.000 F300.000
G3 X33.989 Y48.718 Z3.250 I-24.079 J-23.667 K0.000 F300.000
G3 X33.880 Y48.798 Z3.250 I-0.137 J-0.073 K0.000 F300.000
G3 X33.763 Y48.754 Z3.250 I-0.016 J-0.132 K0.000 F300.000
G1 X29.576 Y44.567 Z3.250 F300.000
G3 X29.533 Y44.485 Z3.250 I0.061 J-0.084 K0.000 F300.000
G0 Z9.000
G0 X31.538 Y41.092 Z9.000
G0 X31.538 Y41.092 Z7.000
G1 X31.538 Y41.092 Z3.250 F100.000
G3 X31.078 Y40.665 Z3.250 I0.790 J-1.311 K0.000 F300.000
G2 X30.964 Y40.548 Z3.250 I-0.803 J0.668 K0.000 F300.000
G3 X30.980 Y40.312 Z3.250 I0.117 J-0.111 K0.000 F300.000
G2 X31.132 Y40.198 Z3.250 I-1.812 J-2.562 K0.000 F300.000
G3 X31.237 Y40.185 Z3.250 I0.068 J0.124 K0.000 F300.000
G3 X31.287 Y40.210 Z3.250 I-0.037 J0.134 K0.000 F300.000
G2 X32.100 Y41.003 Z3.250 I3.126 J-2.393 K0.000 F300.000
G2 X32.023 Y41.067 Z3.250 I0.393 J0.551 K0.000 F300.000
G3 X31.538 Y41.092 Z3.250 I-0.280 J-0.701 K0.000 F300.000
G0 Z9.000
G0 X34.870 Y42.639 Z9.000
G0 X34.870 Y42.639 Z7.000
G1 X34.870 Y42.639 Z3.250 F100.000
G3 X34.969 Y42.474 Z3.250 I0.838 J0.389 K0.000 F300.000
G3 X35.892 Y41.542 Z3.250 I14.128 J13.059 K0.000 F300.000
G3 X36.306 Y41.321 Z3.250 I0.617 J0.660 K0.000 F300.000
G3 X37.167 Y41.570 Z3.250 I0.203 J0.915 K0.000 F300.000
G1 X38.087 Y42.489 Z3.250 F300.000
G3 X38.133 Y43.786 Z3.250 I-0.630 J0.671 K0.000 F300.000
G3 X37.318 Y44.601 Z3.250 I-71.814 J-70.954 K0.000 F300.000
G3 X36.022 Y44.646 Z3.250 I-0.671 J-0.631 K0.000 F300.000
G3 X35.075 Y43.700 Z3.250 I77.260 J-78.260 K0.000 F300.000
G3 X34.870 Y42.639 Z3.250 I0.633 J-0.672 K0.000 F300.000
G0 Z9.000
G0 X35.289 Y45.600 Z9.000
G0 X35.289 Y45.600 Z7.000
G1 X35.289 Y45.600 Z3.250 F100.000
G2 X37.901 Y45.681 Z3.250 I1.357 J-1.626 K0.000 F300.000
G2 X37.492 Y46.859 Z3.250 I1.713 J1.256 K0.000 F300.000
G2 X36.490 Y47.155 Z3.250 I0.060 J2.049 K0.000 F300.000
G2 X35.971 Y46.852 Z3.250 I-1.206 J1.470 K0.000 F300.000
G2 X33.863 Y47.157 Z3.250 I-0.792 J1.963 K0.000 F300.000
G1 X33.825 Y47.119 Z3.250 F300.000
G2 X34.043 Y46.923 Z3.250 I-1.389 J-1.772 K0.000 F300.000
G2 X35.017 Y45.949 Z3.250 I-96.982 J-97.931 K0.000 F300.000
G2 X35.289 Y45.600 Z3.250 I-1.339 J-1.322 K0.000 F300.000
G0 Z9.000
G0 X39.242 Y44.305 Z9.000
G0 X39.242 Y44.305 Z7.000
G1 X39.242 Y44.305 Z3.250 F100.000
G2 X38.936 Y41.640 Z3.250 I-1.785 J-1.145 K0.000 F300.000
G1 X37.982 Y40.689 Z3.250 F300.000
G2 X37.866 Y40.587 Z3.250 I-1.244 J1.300 K0.000 F300.000
G1 X40.585 Y37.867 Z3.250 F300.000
G2 X40.739 Y38.035 Z3.250 I1.651 J-1.364 K0.000 F300.000
G2 X41.690 Y38.985 Z3.250 I95.775 J-94.870 K0.000 F300.000
G2 X44.305 Y39.242 Z3.250 I1.470 J-1.528 K0.000 F300.000
G1 X39.242 Y44.305 Z3.250 F300.000
G0 Z9.000
G0 X40.338 Y41.513 Z9.000
G0 X40.338 Y41.513 Z7.000
G1 X40.338 Y41.513 Z3.250 F100.000
G2 X39.784 Y40.792 Z3.250 I-2.686 J1.489 K0.000 F300.000
G1 X39.571 Y40.579 Z3.250 F300.000
G1 X40.579 Y39.571 Z3.250 F300.000
G2 X41.157 Y40.107 Z3.250 I4.019 J-3.759 K0.000 F300.000
G2 X41.512 Y40.338 Z3.250 I1.834 J-2.427 K0.000 F300.000
G1 X40.338 Y41.513 Z3.250 F300.000
G1 X40.393 Y40.998 Z3.250 F100.000
G2 X40.031 Y40.579 Z3.250 I-2.901 J2.138 K0.000 F300.000
G1 X40.579 Y40.031 Z3.250 F300.000
G2 X40.999 Y40.391 Z3.250 I2.220 J-2.163 K0.000 F300.000
G1 X40.393 Y40.998 Z3.250 F300.000
G0 Z9.000
G0 X42.593 Y38.183 Z9.000
G0 X42.593 Y38.183 Z7.000
G1 X42.593 Y38.183 Z3.250 F100.000
G3 X42.534 Y38.132 Z3.250 I0.567 J-0.725 K0.000 F300.000
G3 X41.588 Y37.186 Z3.250 I94.179 J-95.169 K0.000 F300.000
G3 X41.481 Y35.962 Z3.250 I0.633 J-0.672 K0.000 F300.000
G3 X42.406 Y35.028 Z3.250 I13.418 J12.353 K0.000 F300.000
G3 X42.818 Y34.808 Z3.250 I0.616 J0.660 K0.000 F300.000
G3 X43.678 Y35.054 Z3.250 I0.204 J0.916 K0.000 F300.000
G1 X44.601 Y35.976 Z3.250 F300.000
G3 X44.646 Y37.272 Z3.250 I-0.631 J0.671 K0.000 F300.000
G3 X43.831 Y38.088 Z3.250 I-72.321 J-71.461 K0.000 F300.000
G3 X42.593 Y38.183 Z3.250 I-0.671 J-0.631 K0.000 F300.000
G0 Z9.000
G0 X45.679 Y37.903 Z9.000
G0 X45.679 Y37.903 Z7.000
G1 X45.679 Y37.903 Z3.250 F100.000
G2 X45.608 Y35.300 Z3.250 I-1.702 J-1.256 K0.000 F300.000
G2 X45.833 Y35.126 Z3.250 I-0.752 J-1.204 K0.000 F300.000
G2 X47.058 Y33.899 Z3.250 I-10.756 J-11.958 K0.000 F300.000
G1 X47.116 Y33.822 Z3.250 F300.000
G1 X47.154 Y33.861 Z3.250 F300.000
G2 X47.158 Y36.495 Z3.250 I1.671 J1.315 K0.000 F300.000
G2 X46.863 Y37.492 Z3.250 I1.780 J1.069 K0.000 F300.000
G1 X46.824 Y37.492 Z3.250 F300.000
G2 X45.679 Y37.903 Z3.250 I0.114 J2.117 K0.000 F300.000
G1 X45.679 Y37.903 Z2.500 F100.000
G2 X45.608 Y35.300 Z2.500 I-1.702 J-1.256 K0.000 F300.000
G2 X45.833 Y35.126 Z2.500 I-0.752 J-1.204 K0.000 F300.000
G2 X47.058 Y33.899 Z2.500 I-10.756 J-11.958 K0.000 F300.000
G1 X47.116 Y33.822 Z2.500 F300.000
G1 X47.154 Y33.861 Z2.500 F300.000
G2 X47.158 Y36.495 Z2.500 I1.671 J1.315 K0.000 F300.000
G2 X46.863 Y37.492 Z2.500 I1.780 J1.069 K0.000 F300.000
G1 X46.824 Y37.492 Z2.500 F300.000
G2 X45.679 Y37.903 Z2.500 I0.114 J2.117 K0.000 F300.000
G1 X46.390 Y38.869 Z2.500 F100.000
G2 X46.267 Y38.978 Z2.500 I0.551 J0.748 K0.000 F300.000
G1 X38.978 Y46.266 Z2.500 F300.000
G2 X38.840 Y47.434 Z2.500 I0.630 J0.667 K0.000 F300.000
G2 X39.068 Y47.675 Z2.500 I1.675 J-1.357 K0.000 F300.000
G2 X39.610 Y48.218 Z2.500 I22.470 J-21.886 K0.000 F300.000
G3 X39.696 Y48.327 Z2.500 I-0.073 J0.146 K0.000 F300.000
G3 X39.658 Y48.447 Z2.500 I-0.129 J0.025 K0.000 F300.000
G2 X38.771 Y49.477 Z2.500 I1.896 J2.532 K0.000 F300.000
G2 X38.856 Y50.256 Z2.500 I0.800 J0.306 K0.000 F300.000
G2 X39.376 Y50.796 Z2.500 I1.831 J-1.245 K0.000 F300.000
G3 X39.579 Y51.070 Z2.500 I-0.285 J0.422 K0.000 F300.000
G3 X39.457 Y51.266 Z2.500 I-0.293 J-0.047 K0.000 F300.000
G2 X39.336 Y51.412 Z2.500 I0.726 J0.725 K0.000 F300.000
G3 X39.072 Y51.517 Z2.500 I-0.227 J-0.187 K0.000 F300.000
G3 X38.564 Y51.040 Z2.500 I2.046 J-2.689 K0.000 F300.000
G3 X38.471 Y50.869 Z2.500 I0.109 J-0.170 K0.000 F300.000
G3 X38.471 Y48.941 Z2.500 I177.586 J-0.935 K0.000 F300.000
G2 X37.115 Y48.177 Z2.500 I-0.906 J0.022 K0.000 F300.000
G2 X36.590 Y48.689 Z2.500 I1.143 J1.696 K0.000 F300.000
G3 X36.362 Y48.715 Z2.500 I-0.131 J-0.135 K0.000 F300.000
G2 X35.834 Y48.171 Z2.500 I-2.404 J1.808 K0.000 F300.000
G2 X34.666 Y48.052 Z2.500 I-0.657 J0.655 K0.000 F300.000
G2 X34.429 Y48.278 Z2.500 I0.955 J1.234 K0.000 F300.000
G3 X33.989 Y48.718 Z2.500 I-24.079 J-23.667 K0.000 F300.000
G3 X33.880 Y48.798 Z2.500 I-0.137 J-0.073 K0.000 F300.000
G3 X33.763 Y48.754 Z2.500 I-0.016 J-0.132 K0.000 F300.000
G1 X29.576 Y44.567 Z2.500 F300.000
G3 X29.554 Y44.421 Z2.500 I0.061 J-0.084 K0.000 F300.000
G2 X29.706 Y44.211 Z2.500 I-1.104 J-0.963 K0.000 F300.000
G3 X29.973 Y44.195 Z2.500 I0.142 J0.124 K0.000 F300.000
G2 X31.897 Y46.118 Z2.500 I305.376 J-303.496 K0.000 F300.000
G2 X33.195 Y46.075 Z2.500 I0.628 J-0.675 K0.000 F300.000
G2 X34.165 Y45.105 Z2.500 I-96.336 J-97.283 K0.000 F300.000
G2 X34.261 Y43.980 Z2.500 I-0.671 J-0.624 K0.000 F300.000
G2 X33.809 Y43.506 Z2.500 I-8.499 J7.654 K0.000 F300.000
G2 X33.618 Y43.316 Z2.500 I-2.786 J2.616 K0.000 F300.000
G3 X33.602 Y43.140 Z2.500 I0.105 J-0.099 K0.000 F300.000
G2 X34.183 Y42.551 Z2.500 I-2.219 J-2.774 K0.000 F300.000
G2 X33.211 Y41.145 Z2.500 I-0.743 J-0.526 K0.000 F300.000
G3 X32.933 Y41.035 Z2.500 I-0.040 J-0.304 K0.000 F300.000
G1 X32.905 Y41.012 Z2.500 F300.000
G1 X32.918 Y41.004 Z2.500 F300.000
G2 X33.661 Y40.332 Z2.500 I-4.274 J-5.477 K0.000 F300.000
G2 X33.773 Y40.186 Z2.500 I-0.696 J-0.648 K0.000 F300.000
G3 X33.938 Y40.181 Z2.500 I0.085 J0.065 K0.000 F300.000
G2 X34.962 Y41.062 Z2.500 I2.490 J-1.859 K0.000 F300.000
G2 X35.782 Y40.953 Z2.500 I0.307 J-0.835 K0.000 F300.000
G2 X35.926 Y40.830 Z2.500 I-0.530 J-0.762 K0.000 F300.000
G1 X40.828 Y35.928 Z2.500 F300.000
G2 X40.968 Y34.760 Z2.500 I-0.628 J-0.668 K0.000 F300.000
G1 X40.905 Y34.684 Z2.500 F300.000
G1 X40.282 Y34.054 Z2.500 F300.000
G3 X40.184 Y33.963 Z2.500 I0.359 J-0.485 K0.000 F300.000
G3 X40.232 Y33.739 Z2.500 I0.112 J-0.093 K0.000 F300.000
G2 X40.655 Y33.366 Z2.500 I-6.556 J-7.858 K0.000 F300.000
G2 X40.721 Y32.105 Z2.500 I-0.723 J-0.670 K0.000 F300.000
G3 X40.098 Y31.485 Z2.500 I20.980 J-21.694 K0.000 F300.000
G3 X40.018 Y31.375 Z2.500 I0.073 J-0.138 K0.000 F300.000
G3 X40.079 Y31.238 Z2.500 I0.151 J-0.014 K0.000 F300.000
G3 X40.197 Y31.082 Z2.500 I1.045 J0.670 K0.000 F300.000
G3 X40.457 Y30.935 Z2.500 I0.369 J0.349 K0.000 F300.000
G3 X40.815 Y31.224 Z2.500 I-0.390 J0.849 K0.000 F300.000
G2 X40.963 Y31.359 Z2.500 I0.837 J-0.774 K0.000 F300.000
G3 X41.110 Y31.570 Z2.500 I-0.370 J0.413 K0.000 F300.000
G2 X41.149 Y33.580 Z2.500 I23.615 J0.548 K0.000 F300.000
G2 X41.375 Y34.066 Z2.500 I0.802 J-0.078 K0.000 F300.000
G2 X42.050 Y34.347 Z2.500 I0.651 J-0.612 K0.000 F300.000
G2 X43.001 Y33.732 Z2.500 I-0.200 J-1.352 K0.000 F300.000
G3 X43.279 Y33.659 Z2.500 I0.173 J0.095 K0.000 F300.000
G2 X43.789 Y34.186 Z2.500 I2.233 J-1.652 K0.000 F300.000
G2 X45.023 Y34.241 Z2.500 I0.647 J-0.653 K0.000 F300.000
G2 X46.159 Y33.100 Z2.500 I-9.229 J-10.335 K0.000 F300.000
G2 X46.053 Y31.875 Z2.500 I-0.739 J-0.553 K0.000 F300.000
G1 X44.161 Y29.983 Z2.500 F300.000
G3 X44.123 Y29.889 Z2.500 I0.043 J-0.072 K0.000 F300.000
G3 X44.507 Y29.537 Z2.500 I0.541 J0.205 K0.000 F300.000
G3 X44.568 Y29.577 Z2.500 I-0.035 J0.120 K0.000 F300.000
G1 X48.751 Y33.760 Z2.500 F300.000
G3 X48.772 Y33.948 Z2.500 I-0.098 J0.106 K0.000 F300.000
G2 X48.191 Y34.500 Z2.500 I1.702 J2.371 K0.000 F300.000
G2 X48.049 Y35.687 Z2.500 I0.640 J0.678 K0.000 F300.000
G2 X48.268 Y35.917 Z2.500 I1.173 J-0.892 K0.000 F300.000
G3 X48.708 Y36.357 Z2.500 I-120.054 J120.758 K0.000 F300.000
G3 X48.729 Y36.512 Z2.500 I-0.086 J0.091 K0.000 F300.000
G2 X48.184 Y37.116 Z2.500 I1.233 J1.660 K0.000 F300.000
G2 X49.014 Y38.471 Z2.500 I0.781 J0.453 K0.000 F300.000
G1 X50.881 Y38.471 Z2.500 F300.000
G3 X50.946 Y38.495 Z2.500 I0.010 J0.073 K0.000 F300.000
G3 X51.264 Y38.780 Z2.500 I-0.855 J1.276 K0.000 F300.000
G2 X51.402 Y38.899 Z2.500 I0.836 J-0.825 K0.000 F300.000
G3 X51.523 Y39.130 Z2.500 I-0.246 J0.276 K0.000 F300.000
G3 X51.248 Y39.477 Z2.500 I-1.050 J-0.548 K0.000 F300.000
G3 X51.053 Y39.576 Z2.500 I-0.177 J-0.108 K0.000 F300.000
G3 X50.975 Y39.549 Z2.500 I0.019 J-0.180 K0.000 F300.000
G2 X50.439 Y38.995 Z2.500 I-2.451 J1.836 K0.000 F300.000
G2 X49.263 Y38.868 Z2.500 I-0.665 J0.650 K0.000 F300.000
G2 X49.010 Y39.112 Z2.500 I1.005 J1.294 K0.000 F300.000
G3 X48.513 Y39.612 Z2.500 I-44.911 J-44.225 K0.000 F300.000
G3 X48.405 Y39.696 Z2.500 I-0.144 J-0.073 K0.000 F300.000
G3 X48.287 Y39.659 Z2.500 I-0.024 J-0.128 K0.000 F300.000
G2 X47.234 Y38.747 Z2.500 I-2.616 J1.959 K0.000 F300.000
G2 X46.411 Y38.854 Z2.500 I-0.311 J0.833 K0.000 F300.000
G2 X46.390 Y38.869 Z2.500 I0.531 J0.763 K0.000 F300.000
G0 Z9.000
G0 X44.305 Y39.242 Z9.000
G0 X44.305 Y39.242 Z7.000
G1 X44.305 Y39.242 Z2.500 F100.000
G1 X39.242 Y44.305 Z2.500 F300.000
G2 X38.936 Y41.640 Z2.500 I-1.785 J-1.145 K0.000 F300.000
G1 X37.982 Y40.689 Z2.500 F300.000
G2 X37.866 Y40.587 Z2.500 I-1.244 J1.300 K0.000 F300.000
G1 X40.585 Y37.867 Z2.500 F300.000
G2 X40.739 Y38.035 Z2.500 I1.651 J-1.364 K0.000 F300.000
G2 X41.690 Y38.985 Z2.500 I95.775 J-94.870 K0.000 F300.000
G2 X44.305 Y39.242 Z2.500 I1.470 J-1.528 K0.000 F300.000
G1 X43.658 Y38.232 Z2.500 F100.000
G3 X42.534 Y38.132 Z2.500 I-0.497 J-0.775 K0.000 F300.000
G3 X41.588 Y37.186 Z2.500 I94.179 J-95.169 K0.000 F300.000
G3 X41.481 Y35.962 Z2.500 I0.633 J-0.672 K0.000 F300.000
G3 X42.406 Y35.028 Z2.500 I13.418 J12.353 K0.000 F300.000
G3 X42.818 Y34.808 Z2.500 I0.616 J0.660 K0.000 F300.000
G3 X43.678 Y35.054 Z2.500 I0.204 J0.916 K0.000 F300.000
G1 X44.601 Y35.976 Z2.500 F300.000
G3 X44.646 Y37.272 Z2.500 I-0.631 J0.671 K0.000 F300.000
G3 X43.831 Y38.088 Z2.500 I-72.321 J-71.461 K0.000 F300.000
G3 X43.658 Y38.232 Z2.500 I-0.671 J-0.631 K0.000 F300.000
G0 Z9.000
G0 X41.512 Y40.338 Z9.000
G0 X41.512 Y40.338 Z7.000
G1 X41.512 Y40.338 Z2.500 F100.000
G1 X40.338 Y41.513 Z2.500 F300.000
G2 X39.784 Y40.792 Z2.500 I-2.686 J1.489 K0.000 F300.000
G1 X39.571 Y40.579 Z2.500 F300.000
G1 X40.579 Y39.571 Z2.500 F300.000
G2 X41.157 Y40.107 Z2.500 I4.019 J-3.759 K0.000 F300.000
G2 X41.512 Y40.338 Z2.500 I1.834 J-2.427 K0.000 F300.000
G1 X40.999 Y40.391 Z2.500 F100.000
G1 X40.393 Y40.998 Z2.500 F300.000
G2 X40.031 Y40.579 Z2.500 I-2.901 J2.138 K0.000 F300.000
G1 X40.579 Y40.031 Z2.500 F300.000
G2 X40.999 Y40.391 Z2.500 I2.220 J-2.163 K0.000 F300.000
G0 Z9.000
G0 X38.183 Y42.593 Z9.000
G0 X38.183 Y42.593 Z7.000
G1 X38.183 Y42.593 Z2.500 F100.000
G3 X38.133 Y43.786 Z2.500 I-0.725 J0.567 K0.000 F300.000
G3 X37.318 Y44.601 Z2.500 I-71.814 J-70.954 K0.000 F300.000
G3 X36.022 Y44.646 Z2.500 I-0.671 J-0.631 K0.000 F300.000
G3 X35.075 Y43.700 Z2.500 I77.260 J-78.260 K0.000 F300.000
G3 X34.969 Y42.474 Z2.500 I0.633 J-0.672 K0.000 F300.000
G3 X35.892 Y41.542 Z2.500 I14.128 J13.059 K0.000 F300.000
G3 X36.306 Y41.321 Z2.500 I0.617 J0.660 K0.000 F300.000
G3 X37.167 Y41.570 Z2.500 I0.203 J0.915 K0.000 F300.000
G1 X38.087 Y42.489 Z2.500 F300.000
G3 X38.183 Y42.593 Z2.500 I-0.630 J0.671 K0.000 F300.000
G0 Z9.000
G0 X37.901 Y45.681 Z9.000
G0 X37.901 Y45.681 Z7.000
G1 X37.901 Y45.681 Z2.500 F100.000
G2 X37.492 Y46.859 Z2.500 I1.713 J1.256 K0.000 F300.000
G2 X36.490 Y47.155 Z2.500 I0.060 J2.049 K0.000 F300.000
G2 X35.971 Y46.852 Z2.500 I-1.206 J1.470 K0.000 F300.000
G2 X33.863 Y47.157 Z2.500 I-0.792 J1.963 K0.000 F300.000
G1 X33.825 Y47.119 Z2.500 F300.000
G2 X34.043 Y46.923 Z2.500 I-1.389 J-1.772 K0.000 F300.000
G2 X35.017 Y45.949 Z2.500 I-96.982 J-97.931 K0.000 F300.000
G2 X35.289 Y45.600 Z2.500 I-1.339 J-1.322 K0.000 F300.000
G2 X37.901 Y45.681 Z2.500 I1.357 J-1.626 K0.000 F300.000
G0 Z9.000
G0 X32.100 Y41.003 Z9.000
G0 X32.100 Y41.003 Z7.000
G1 X32.100 Y41.003 Z2.500 F100.000
G2 X32.023 Y41.067 Z2.500 I0.393 J0.551 K0.000 F300.000
G3 X31.538 Y41.092 Z2.500 I-0.280 J-0.701 K0.000 F300.000
G3 X31.078 Y40.665 Z2.500 I0.790 J-1.311 K0.000 F300.000
G2 X30.964 Y40.548 Z2.500 I-0.803 J0.668 K0.000 F300.000
G3 X30.980 Y40.312 Z2.500 I0.117 J-0.111 K0.000 F300.000
G2 X31.132 Y40.198 Z2.500 I-1.812 J-2.562 K0.000 F300.000
G3 X31.237 Y40.185 Z2.500 I0.068 J0.124 K0.000 F300.000
G3 X31.287 Y40.210 Z2.500 I-0.037 J0.134 K0.000 F300.000
G2 X32.100 Y41.003 Z2.500 I3.126 J-2.393 K0.000 F300.000
G1 X32.100 Y41.003 Z2.000 F100.000
G2 X32.023 Y41.067 Z2.000 I0.393 J0.551 K0.000 F300.000
G3 X31.538 Y41.092 Z2.000 I-0.280 J-0.701 K0.000 F300.000
G3 X31.078 Y40.665 Z2.000 I0.790 J-1.311 K0.000 F300.000
G2 X30.964 Y40.548 Z2.000 I-0.803 J0.668 K0.000 F300.000
G3 X30.980 Y40.312 Z2.000 I0.117 J-0.111 K0.000 F300.000
G2 X31.132 Y40.198 Z2.000 I-1.812 J-2.562 K0.000 F300.000
G3 X31.237 Y40.185 Z2.000 I0.068 J0.124 K0.000 F300.000
G3 X31.287 Y40.210 Z2.000 I-0.037 J0.134 K0.000 F300.000
G2 X32.100 Y41.003 Z2.000 I3.126 J-2.393 K0.000 F300.000
G1 X32.905 Y41.012 Z2.000 F100.000
G1 X32.918 Y41.004 Z2.000 F300.000
G2 X33.661 Y40.332 Z2.000 I-4.274 J-5.477 K0.000 F300.000
G2 X33.773 Y40.186 Z2.000 I-0.696 J-0.648 K0.000 F300.000
G3 X33.938 Y40.181 Z2.000 I0.085 J0.065 K0.000 F300.000
G2 X34.962 Y41.062 Z2.000 I2.490 J-1.859 K0.000 F300.000
G2 X35.782 Y40.953 Z2.000 I0.307 J-0.835 K0.000 F300.000
G2 X35.926 Y40.830 Z2.000 I-0.530 J-0.762 K0.000 F300.000
G1 X40.828 Y35.928 Z2.000 F300.000
G2 X40.968 Y34.760 Z2.000 I-0.628 J-0.668 K0.000 F300.000
G1 X40.905 Y34.684 Z2.000 F300.000
G1 X40.282 Y34.054 Z2.000 F300.000
G3 X40.184 Y33.963 Z2.000 I0.359 J-0.485 K0.000 F300.000
G3 X40.232 Y33.739 Z2.000 I0.112 J-0.093 K0.000 F300.000
G2 X40.655 Y33.366 Z2.000 I-6.556 J-7.858 K0.000 F300.000
G2 X40.721 Y32.105 Z2.000 I-0.723 J-0.670 K0.000 F300.000
G3 X40.098 Y31.485 Z2.000 I20.980 J-21.694 K0.000 F300.000
G3 X40.018 Y31.375 Z2.000 I0.073 J-0.138 K0.000 F300.000
G3 X40.079 Y31.238 Z2.000 I0.151 J-0.014 K0.000 F300.000
G3 X40.197 Y31.082 Z2.000 I1.045 J0.670 K0.000 F300.000
G3 X40.457 Y30.935 Z2.000 I0.369 J0.349 K0.000 F300.000
G3 X40.815 Y31.224 Z2.000 I-0.390 J0.849 K0.000 F300.000
G2 X40.963 Y31.359 Z2.000 I0.837 J-0.774 K0.000 F300.000
G3 X41.110 Y31.570 Z2.000 I-0.370 J0.413 K0.000 F300.000
G2 X41.149 Y33.580 Z2.000 I23.615 J0.548 K0.000 F300.000
G2 X41.375 Y34.066 Z2.000 I0.802 J-0.078 K0.000 F300.000
G2 X42.050 Y34.347 Z2.000 I0.651 J-0.612 K0.000 F300.000
G2 X43.001 Y33.732 Z2.000 I-0.200 J-1.352 K0.000 F300.000
G3 X43.279 Y33.659 Z2.000 I0.173 J0.095 K0.000 F300.000
G2 X43.789 Y34.186 Z2.000 I2.233 J-1.652 K0.000 F300.000
G2 X45.023 Y34.241 Z2.000 I0.647 J-0.653 K0.000 F300.000
G2 X46.159 Y33.100 Z2.000 I-9.229 J-10.335 K0.000 F300.000
G2 X46.053 Y31.875 Z2.000 I-0.739 J-0.553 K0.000 F300.000
G1 X44.161 Y29.983 Z2.000 F300.000
G3 X44.123 Y29.889 Z2.000 I0.043 J-0.072 K0.000 F300.000
G3 X44.507 Y29.537 Z2.000 I0.541 J0.205 K0.000 F300.000
G3 X44.568 Y29.577 Z2.000 I-0.035 J0.120 K0.000 F300.000
G1 X48.751 Y33.760 Z2.000 F300.000
G3 X48.772 Y33.948 Z2.000 I-0.098 J0.106 K0.000 F300.000
G2 X48.191 Y34.500 Z2.000 I1.702 J2.371 K0.000 F300.000
G2 X48.049 Y35.687 Z2.000 I0.640 J0.678 K0.000 F300.000
G2 X48.268 Y35.917 Z2.000 I1.173 J-0.892 K0.000 F300.000
G3 X48.708 Y36.357 Z2.000 I-120.054 J120.758 K0.000 F300.000
G3 X48.729 Y36.512 Z2.000 I-0.086 J0.091 K0.000 F300.000
G2 X48.184 Y37.116 Z2.000 I1.233 J1.660 K0.000 F300.000
G2 X49.014 Y38.471 Z2.000 I0.781 J0.453 K0.000 F300.000
G1 X50.881 Y38.471 Z2.000 F300.000
G3 X50.946 Y38.495 Z2.000 I0.010 J0.073 K0.000 F300.000
G3 X51.264 Y38.780 Z2.000 I-0.855 J1.276 K0.000 F300.000
G2 X51.402 Y38.899 Z2.000 I0.836 J-0.825 K0.000 F300.000
G3 X51.523 Y39.130 Z2.000 I-0.246 J0.276 K0.000 F300.000
G3 X51.248 Y39.477 Z2.000 I-1.050 J-0.548 K0.000 F300.000
G3 X51.053 Y39.576 Z2.000 I-0.177 J-0.108 K0.000 F300.000
G3 X50.975 Y39.549 Z2.000 I0.019 J-0.180 K0.000 F300.000
G2 X50.439 Y38.995 Z2.000 I-2.451 J1.836 K0.000 F300.000
G2 X49.263 Y38.868 Z2.000 I-0.665 J0.650 K0.000 F300.000
G2 X49.010 Y39.112 Z2.000 I1.005 J1.294 K0.000 F300.000
G3 X48.513 Y39.612 Z2.000 I-44.911 J-44.225 K0.000 F300.000
G3 X48.405 Y39.696 Z2.000 I-0.144 J-0.073 K0.000 F300.000
G3 X48.287 Y39.659 Z2.000 I-0.024 J-0.128 K0.000 F300.000
G2 X47.234 Y38.747 Z2.000 I-2.616 J1.959 K0.000 F300.000
G2 X46.411 Y38.854 Z2.000 I-0.311 J0.833 K0.000 F300.000
G2 X46.267 Y38.978 Z2.000 I0.531 J0.763 K0.000 F300.000
G1 X38.978 Y46.266 Z2.000 F300.000
G2 X38.840 Y47.434 Z2.000 I0.630 J0.667 K0.000 F300.000
G2 X39.068 Y47.675 Z2.000 I1.675 J-1.357 K0.000 F300.000
G2 X39.610 Y48.218 Z2.000 I22.470 J-21.886 K0.000 F300.000
G3 X39.696 Y48.327 Z2.000 I-0.073 J0.146 K0.000 F300.000
G3 X39.658 Y48.447 Z2.000 I-0.129 J0.025 K0.000 F300.000
G2 X38.771 Y49.477 Z2.000 I1.896 J2.532 K0.000 F300.000
G2 X38.856 Y50.256 Z2.000 I0.800 J0.306 K0.000 F300.000
G2 X39.376 Y50.796 Z2.000 I1.831 J-1.245 K0.000 F300.000
G3 X39.579 Y51.070 Z2.000 I-0.285 J0.422 K0.000 F300.000
G3 X39.457 Y51.266 Z2.000 I-0.293 J-0.047 K0.000 F300.000
G2 X39.336 Y51.412 Z2.000 I0.726 J0.725 K0.000 F300.000
G3 X39.072 Y51.517 Z2.000 I-0.227 J-0.187 K0.000 F300.000
G3 X38.564 Y51.040 Z2.000 I2.046 J-2.689 K0.000 F300.000
G3 X38.471 Y50.869 Z2.000 I0.109 J-0.170 K0.000 F300.000
G3 X38.471 Y48.941 Z2.000 I177.586 J-0.935 K0.000 F300.000
G2 X37.115 Y48.177 Z2.000 I-0.906 J0.022 K0.000 F300.000
G2 X36.590 Y48.689 Z2.000 I1.143 J1.696 K0.000 F300.000
G3 X36.362 Y48.715 Z2.000 I-0.131 J-0.135 K0.000 F300.000
G2 X35.834 Y48.171 Z2.000 I-2.404 J1.808 K0.000 F300.000
G2 X34.666 Y48.052 Z2.000 I-0.657 J0.655 K0.000 F300.000
G2 X34.429 Y48.278 Z2.000 I0.955 J1.234 K0.000 F300.000
G3 X33.989 Y48.718 Z2.000 I-24.079 J-23.667 K0.000 F300.000
G3 X33.880 Y48.798 Z2.000 I-0.137 J-0.073 K0.000 F300.000
G3 X33.763 Y48.754 Z2.000 I-0.016 J-0.132 K0.000 F300.000
G1 X29.576 Y44.567 Z2.000 F300.000
G3 X29.554 Y44.421 Z2.000 I0.061 J-0.084 K0.000 F300.000
G2 X29.706 Y44.211 Z2.000 I-1.104 J-0.963 K0.000 F300.000
G3 X29.973 Y44.195 Z2.000 I0.142 J0.124 K0.000 F300.000
G2 X31.897 Y46.118 Z2.000 I305.376 J-303.496 K0.000 F300.000
G2 X33.195 Y46.075 Z2.000 I0.628 J-0.675 K0.000 F300.000
G2 X34.165 Y45.105 Z2.000 I-96.336 J-97.283 K0.000 F300.000
G2 X34.261 Y43.980 Z2.000 I-0.671 J-0.624 K0.000 F300.000
G2 X33.809 Y43.506 Z2.000 I-8.499 J7.654 K0.000 F300.000
G2 X33.618 Y43.316 Z2.000 I-2.786 J2.616 K0.000 F300.000
G3 X33.602 Y43.140 Z2.000 I0.105 J-0.099 K0.000 F300.000
G2 X34.183 Y42.551 Z2.000 I-2.219 J-2.774 K0.000 F300.000
G2 X33.211 Y41.145 Z2.000 I-0.743 J-0.526 K0.000 F300.000
G3 X32.933 Y41.035 Z2.000 I-0.040 J-0.304 K0.000 F300.000
G1 X32.905 Y41.012 Z2.000 F300.000
G0 Z9.000
G0 X34.958 Y42.489 Z9.000
G0 X34.958 Y42.489 Z7.000
G1 X34.958 Y42.489 Z2.000 F100.000
G3 X34.969 Y42.474 Z2.000 I0.750 J0.539 K0.000 F300.000
G3 X35.892 Y41.542 Z2.000 I14.128 J13.059 K0.000 F300.000
G3 X36.306 Y41.321 Z2.000 I0.617 J0.660 K0.000 F300.000
G3 X37.167 Y41.570 Z2.000 I0.203 J0.915 K0.000 F300.000
G1 X38.087 Y42.489 Z2.000 F300.000
G3 X38.133 Y43.786 Z2.000 I-0.630 J0.671 K0.000 F300.000
G3 X37.318 Y44.601 Z2.000 I-71.814 J-70.954 K0.000 F300.000
G3 X36.022 Y44.646 Z2.000 I-0.671 J-0.631 K0.000 F300.000
G3 X35.075 Y43.700 Z2.000 I77.260 J-78.260 K0.000 F300.000
G3 X34.958 Y42.489 Z2.000 I0.633 J-0.672 K0.000 F300.000
G0 Z9.000
G0 X35.289 Y45.600 Z9.000
G0 X35.289 Y45.600 Z7.000
G1 X35.289 Y45.600 Z2.000 F100.000
G2 X37.901 Y45.681 Z2.000 I1.357 J-1.626 K0.000 F300.000
G2 X37.492 Y46.859 Z2.000 I1.713 J1.256 K0.000 F300.000
G2 X36.490 Y47.155 Z2.000 I0.060 J2.049 K0.000 F300.000
G2 X35.971 Y46.852 Z2.000 I-1.206 J1.470 K0.000 F300.000
G2 X33.863 Y47.157 Z2.000 I-0.792 J1.963 K0.000 F300.000
G1 X33.825 Y47.119 Z2.000 F300.000
G2 X34.043 Y46.923 Z2.000 I-1.389 J-1.772 K0.000 F300.000
G2 X35.017 Y45.949 Z2.000 I-96.982 J-97.931 K0.000 F300.000
G2 X35.289 Y45.600 Z2.000 I-1.339 J-1.322 K0.000 F300.000
G0 Z9.000
G0 X39.242 Y44.305 Z9.000
G0 X39.242 Y44.305 Z7.000
G1 X39.242 Y44.305 Z2.000 F100.000
G2 X38.936 Y41.640 Z2.000 I-1.785 J-1.145 K0.000 F300.000
G1 X37.982 Y40.689 Z2.000 F300.000
G2 X37.866 Y40.587 Z2.000 I-1.244 J1.300 K0.000 F300.000
G1 X40.585 Y37.867 Z2.000 F300.000
G2 X40.739 Y38.035 Z2.000 I1.651 J-1.364 K0.000 F300.000
G2 X41.690 Y38.985 Z2.000 I95.775 J-94.870 K0.000 F300.000
G2 X44.305 Y39.242 Z2.000 I1.470 J-1.528 K0.000 F300.000
G1 X39.242 Y44.305 Z2.000 F300.000
G0 Z9.000
G0 X40.338 Y41.513 Z9.000
G0 X40.338 Y41.513 Z7.000
G1 X40.338 Y41.513 Z2.000 F100.000
G2 X39.784 Y40.792 Z2.000 I-2.686 J1.489 K0.000 F300.000
G1 X39.571 Y40.579 Z2.000 F300.000
G1 X40.579 Y39.571 Z2.000 F300.000
G2 X41.157 Y40.107 Z2.000 I4.019 J-3.759 K0.000 F300.000
G2 X41.512 Y40.338 Z2.000 I1.834 J-2.427 K0.000 F300.000
G1 X40.338 Y41.513 Z2.000 F300.000
G1 X40.393 Y40.998 Z2.000 F100.000
G2 X40.031 Y40.579 Z2.000 I-2.901 J2.138 K0.000 F300.000
G1 X40.579 Y40.031 Z2.000 F300.000
G2 X40.999 Y40.391 Z2.000 I2.220 J-2.163 K0.000 F300.000
G1 X40.393 Y40.998 Z2.000 F300.000
G0 Z9.000
G0 X42.593 Y38.183 Z9.000
G0 X42.593 Y38.183 Z7.000
G1 X42.593 Y38.183 Z2.000 F100.000
G3 X42.534 Y38.132 Z2.000 I0.567 J-0.725 K0.000 F300.000
G3 X41.588 Y37.186 Z2.000 I94.179 J-95.169 K0.000 F300.000
G3 X41.481 Y35.962 Z2.000 I0.633 J-0.672 K0.000 F300.000
G3 X42.406 Y35.028 Z2.000 I13.418 J12.353 K0.000 F300.000
G3 X42.818 Y34.808 Z2.000 I0.616 J0.660 K0.000 F300.000
G3 X43.678 Y35.054 Z2.000 I0.204 J0.916 K0.000 F300.000
G1 X44.601 Y35.976 Z2.000 F300.000
G3 X44.646 Y37.272 Z2.000 I-0.631 J0.671 K0.000 F300.000
G3 X43.831 Y38.088 Z2.000 I-72.321 J-71.461 K0.000 F300.000
G3 X42.593 Y38.183 Z2.000 I-0.671 J-0.631 K0.000 F300.000
G0 Z9.000
G0 X45.679 Y37.903 Z9.000
G0 X45.679 Y37.903 Z7.000
G1 X45.679 Y37.903 Z2.000 F100.000
G2 X45.608 Y35.300 Z2.000 I-1.702 J-1.256 K0.000 F300.000
G2 X45.833 Y35.126 Z2.000 I-0.752 J-1.204 K0.000 F300.000
G2 X47.058 Y33.899 Z2.000 I-10.756 J-11.958 K0.000 F300.000
G1 X47.116 Y33.822 Z2.000 F300.000
G1 X47.154 Y33.861 Z2.000 F300.000
G2 X47.158 Y36.495 Z2.000 I1.671 J1.315 K0.000 F300.000
G2 X46.863 Y37.492 Z2.000 I1.780 J1.069 K0.000 F300.000
G1 X46.824 Y37.492 Z2.000 F300.000
G2 X45.679 Y37.903 Z2.000 I0.114 J2.117 K0.000 F300.000
G0 Z9.000
G0 X45.679 Y37.903
G0 X44.485 Y-29.533
G0 X44.485 Y-29.533 Z7.000
G1 X44.485 Y-29.533 Z3.250 F100.000
G3 X44.421 Y-29.554 Z3.250 I-0.002 J-0.103 K0.000 F300.000
G2 X44.211 Y-29.706 Z3.250 I-0.964 J1.105 K0.000 F300.000
G3 X44.195 Y-29.973 Z3.250 I0.124 J-0.142 K0.000 F300.000
G2 X46.118 Y-31.897 Z3.250 I-303.490 J-305.369 K0.000 F300.000
G2 X46.075 Y-33.195 Z3.250 I-0.675 J-0.628 K0.000 F300.000
G2 X45.105 Y-34.165 Z3.250 I-94.405 J93.459 K0.000 F300.000
G2 X43.979 Y-34.260 Z3.250 I-0.624 J0.671 K0.000 F300.000
G2 X43.506 Y-33.809 Z3.250 I7.874 J8.720 K0.000 F300.000
G2 X43.316 Y-33.618 Z3.250 I2.593 J2.765 K0.000 F300.000
G3 X43.140 Y-33.602 Z3.250 I-0.099 J-0.105 K0.000 F300.000
G2 X42.551 Y-34.183 Z3.250 I-2.775 J2.219 K0.000 F300.000
G2 X41.145 Y-33.211 Z3.250 I-0.526 J0.743 K0.000 F300.000
G3 X41.035 Y-32.933 Z3.250 I-0.304 J0.040 K0.000 F300.000
G1 X41.012 Y-32.905 Z3.250 F300.000
G1 X41.004 Y-32.918 Z3.250 F300.000
G2 X40.332 Y-33.661 Z3.250 I-5.477 J4.274 K0.000 F300.000
G2 X40.186 Y-33.773 Z3.250 I-0.648 J0.696 K0.000 F300.000
G3 X40.181 Y-33.938 Z3.250 I0.065 J-0.085 K0.000 F300.000
G2 X41.062 Y-34.962 Z3.250 I-1.859 J-2.490 K0.000 F300.000
G2 X40.870 Y-35.886 Z3.250 I-0.842 J-0.307 K0.000 F300.000
G1 X40.830 Y-35.926 Z3.250 F300.000
G1 X35.928 Y-40.828 Z3.250 F300.000
G2 X34.760 Y-40.968 Z3.250 I-0.668 J0.628 K0.000 F300.000
G1 X34.684 Y-40.905 Z3.250 F300.000
G1 X34.054 Y-40.282 Z3.250 F300.000
G3 X33.963 Y-40.184 Z3.250 I-0.485 J-0.359 K0.000 F300.000
G3 X33.739 Y-40.232 Z3.250 I-0.093 J-0.112 K0.000 F300.000
G2 X33.366 Y-40.655 Z3.250 I-7.792 J6.495 K0.000 F300.000
G2 X32.105 Y-40.721 Z3.250 I-0.670 J0.723 K0.000 F300.000
G3 X31.485 Y-40.098 Z3.250 I-21.676 J-20.962 K0.000 F300.000
G3 X31.375 Y-40.018 Z3.250 I-0.138 J-0.073 K0.000 F300.000
G3 X31.238 Y-40.079 Z3.250 I-0.014 J-0.151 K0.000 F300.000
G3 X31.082 Y-40.197 Z3.250 I0.670 J-1.043 K0.000 F300.000
G3 X30.935 Y-40.457 Z3.250 I0.349 J-0.369 K0.000 F300.000
G3 X31.224 Y-40.815 Z3.250 I0.850 J0.390 K0.000 F300.000
G2 X31.359 Y-40.964 Z3.250 I-0.774 J-0.836 K0.000 F300.000
G3 X31.570 Y-41.110 Z3.250 I0.412 J0.369 K0.000 F300.000
G2 X33.581 Y-41.149 Z3.250 I0.548 J-23.620 K0.000 F300.000
G2 X34.040 Y-41.352 Z3.250 I-0.077 J-0.798 K0.000 F300.000
G2 X34.223 Y-42.490 Z3.250 I-0.594 J-0.679 K0.000 F300.000
G2 X33.679 Y-43.045 Z3.250 I-1.971 J1.388 K0.000 F300.000
G3 X33.659 Y-43.279 Z3.250 I0.144 J-0.130 K0.000 F300.000
G2 X34.186 Y-43.789 Z3.250 I-1.652 J-2.233 K0.000 F300.000
G2 X34.241 Y-45.023 Z3.250 I-0.653 J-0.647 K0.000 F300.000
G2 X33.100 Y-46.160 Z3.250 I-10.279 J9.175 K0.000 F300.000
G2 X31.875 Y-46.052 Z3.250 I-0.552 J0.741 K0.000 F300.000
G1 X29.982 Y-44.160 Z3.250 F300.000
G3 X29.858 Y-44.129 Z3.250 I-0.080 J-0.057 K0.000 F300.000
G3 X29.710 Y-44.237 Z3.250 I0.081 J-0.268 K0.000 F300.000
G2 X29.600 Y-44.335 Z3.250 I-0.821 J0.810 K0.000 F300.000
G3 X29.590 Y-44.580 Z3.250 I0.121 J-0.128 K0.000 F300.000
G1 X33.760 Y-48.751 Z3.250 F300.000
G3 X33.948 Y-48.772 Z3.250 I0.106 J0.098 K0.000 F300.000
G2 X34.500 Y-48.191 Z3.250 I2.373 J-1.704 K0.000 F300.000
G2 X35.687 Y-48.050 Z3.250 I0.678 J-0.640 K0.000 F300.000
G2 X35.917 Y-48.268 Z3.250 I-0.895 J-1.175 K0.000 F300.000
G3 X36.357 Y-48.708 Z3.250 I131.539 J130.820 K0.000 F300.000
G3 X36.512 Y-48.729 Z3.250 I0.091 J0.086 K0.000 F300.000
G2 X37.117 Y-48.184 Z3.250 I1.660 J-1.232 K0.000 F300.000
G2 X38.471 Y-49.014 Z3.250 I0.453 J-0.781 K0.000 F300.000
G1 X38.471 Y-50.881 Z3.250 F300.000
G3 X38.495 Y-50.946 Z3.250 I0.073 J-0.010 K0.000 F300.000
G3 X38.780 Y-51.264 Z3.250 I1.276 J0.855 K0.000 F300.000
G2 X38.898 Y-51.400 Z3.250 I-0.859 J-0.871 K0.000 F300.000
G3 X39.138 Y-51.531 Z3.250 I0.309 J0.280 K0.000 F300.000
G3 X39.438 Y-51.288 Z3.250 I-0.393 J0.792 K0.000 F300.000
G3 X39.540 Y-51.187 Z3.250 I-0.430 J0.535 K0.000 F300.000
G3 X39.549 Y-50.975 Z3.250 I-0.151 J0.113 K0.000 F300.000
G2 X38.995 Y-50.439 Z3.250 I1.844 J2.459 K0.000 F300.000
G2 X38.867 Y-49.264 Z3.250 I0.649 J0.665 K0.000 F300.000
G2 X39.112 Y-49.010 Z3.250 I1.292 J-1.002 K0.000 F300.000
G3 X39.612 Y-48.513 Z3.250 I-44.247 J44.933 K0.000 F300.000
G3 X39.696 Y-48.405 Z3.250 I-0.073 J0.144 K0.000 F300.000
G3 X39.659 Y-48.287 Z3.250 I-0.128 J0.024 K0.000 F300.000
G2 X38.747 Y-47.234 Z3.250 I1.959 J2.616 K0.000 F300.000
G2 X38.854 Y-46.411 Z3.250 I0.833 J0.311 K0.000 F300.000
G2 X38.978 Y-46.267 Z3.250 I0.763 J-0.531 K0.000 F300.000
G1 X46.265 Y-38.979 Z3.250 F300.000
G2 X47.433 Y-38.839 Z3.250 I0.667 J-0.629 K0.000 F300.000
G1 X47.509 Y-38.903 Z3.250 F300.000
G1 X48.169 Y-39.556 Z3.250 F300.000
G2 X48.255 Y-39.655 Z3.250 I-0.843 J-0.811 K0.000 F300.000
G3 X48.447 Y-39.658 Z3.250 I0.098 J0.089 K0.000 F300.000
G2 X49.477 Y-38.771 Z3.250 I2.531 J-1.896 K0.000 F300.000
G2 X50.256 Y-38.856 Z3.250 I0.306 J-0.800 K0.000 F300.000
G2 X50.796 Y-39.376 Z3.250 I-1.245 J-1.831 K0.000 F300.000
G3 X51.070 Y-39.579 Z3.250 I0.422 J0.285 K0.000 F300.000
G3 X51.266 Y-39.457 Z3.250 I-0.047 J0.293 K0.000 F300.000
G2 X51.412 Y-39.336 Z3.250 I0.725 J-0.726 K0.000 F300.000
G3 X51.517 Y-39.072 Z3.250 I-0.187 J0.227 K0.000 F300.000
G3 X51.040 Y-38.564 Z3.250 I-2.689 J-2.046 K0.000 F300.000
G3 X50.869 Y-38.471 Z3.250 I-0.170 J-0.109 K0.000 F300.000
G3 X48.942 Y-38.471 Z3.250 I-0.935 J-172.877 K0.000 F300.000
G2 X48.177 Y-37.116 Z3.250 I0.022 J0.906 K0.000 F300.000
G2 X48.689 Y-36.590 Z3.250 I1.700 J-1.145 K0.000 F300.000
G3 X48.715 Y-36.362 Z3.250 I-0.135 J0.131 K0.000 F300.000
G2 X48.171 Y-35.834 Z3.250 I1.808 J2.404 K0.000 F300.000
G2 X48.052 Y-34.666 Z3.250 I0.655 J0.657 K0.000 F300.000
G2 X48.278 Y-34.429 Z3.250 I1.234 J-0.955 K0.000 F300.000
G3 X48.718 Y-33.989 Z3.250 I-23.667 J24.079 K0.000 F300.000
G3 X48.798 Y-33.880 Z3.250 I-0.073 J0.137 K0.000 F300.000
G3 X48.754 Y-33.763 Z3.250 I-0.132 J0.016 K0.000 F300.000
G1 X44.567 Y-29.576 Z3.250 F300.000
G3 X44.485 Y-29.533 Z3.250 I-0.084 J-0.061 K0.000 F300.000
G0 Z9.000
G0 X41.092 Y-31.538 Z9.000
G0 X41.092 Y-31.538 Z7.000
G1 X41.092 Y-31.538 Z3.250 F100.000
G3 X40.665 Y-31.078 Z3.250 I-1.311 J-0.790 K0.000 F300.000
G2 X40.548 Y-30.964 Z3.250 I0.668 J0.803 K0.000 F300.000
G3 X40.312 Y-30.980 Z3.250 I-0.111 J-0.117 K0.000 F300.000
G2 X40.198 Y-31.132 Z3.250 I-2.563 J1.812 K0.000 F300.000
G3 X40.210 Y-31.287 Z3.250 I0.124 J-0.068 K0.000 F300.000
G2 X41.003 Y-32.100 Z3.250 I-2.393 J-3.126 K0.000 F300.000
G2 X41.067 Y-32.023 Z3.250 I0.549 J-0.391 K0.000 F300.000
G3 X41.092 Y-31.538 Z3.250 I-0.701 J0.279 K0.000 F300.000
G0 Z9.000
G0 X42.641 Y-34.870 Z9.000
G0 X42.641 Y-34.870 Z7.000
G1 X42.641 Y-34.870 Z3.250 F100.000
G3 X42.403 Y-35.030 Z3.250 I0.388 J-0.836 K0.000 F300.000
G3 X41.588 Y-35.844 Z3.250 I81.112 J-81.971 K0.000 F300.000
G3 X41.544 Y-37.142 Z3.250 I0.631 J-0.671 K0.000 F300.000
G3 X42.535 Y-38.133 Z3.250 I27.306 J26.336 K0.000 F300.000
G3 X42.949 Y-38.354 Z3.250 I0.618 J0.658 K0.000 F300.000
G3 X43.810 Y-38.108 Z3.250 I0.204 J0.916 K0.000 F300.000
G1 X44.601 Y-37.318 Z3.250 F300.000
G3 X44.646 Y-36.021 Z3.250 I-0.631 J0.671 K0.000 F300.000
G3 X43.701 Y-35.075 Z3.250 I-93.721 J-92.732 K0.000 F300.000
G3 X42.641 Y-34.870 Z3.250 I-0.672 J-0.631 K0.000 F300.000
G0 Z9.000
G0 X45.600 Y-35.289 Z9.000
G0 X45.600 Y-35.289 Z7.000
G1 X45.600 Y-35.289 Z3.250 F100.000
G2 X45.681 Y-37.901 Z3.250 I-1.627 J-1.357 K0.000 F300.000
G2 X46.859 Y-37.492 Z3.250 I1.256 J-1.714 K0.000 F300.000
G2 X47.155 Y-36.490 Z3.250 I2.047 J-0.060 K0.000 F300.000
G2 X46.852 Y-35.971 Z3.250 I1.470 J1.206 K0.000 F300.000
G2 X47.157 Y-33.863 Z3.250 I1.963 J0.792 K0.000 F300.000
G1 X47.119 Y-33.825 Z3.250 F300.000
G2 X46.923 Y-34.043 Z3.250 I-1.772 J1.389 K0.000 F300.000
G2 X45.949 Y-35.017 Z3.250 I-95.052 J94.104 K0.000 F300.000
G2 X45.600 Y-35.289 Z3.250 I-1.321 J1.338 K0.000 F300.000
G0 Z9.000
G0 X44.319 Y-39.228 Z9.000
G0 X44.319 Y-39.228 Z7.000
G1 X44.319 Y-39.228 Z3.250 F100.000
G2 X43.815 Y-39.471 Z3.250 I-1.071 J1.575 K0.000 F300.000
G2 X41.700 Y-38.995 Z3.250 I-0.661 J1.999 K0.000 F300.000
G2 X40.585 Y-37.870 Z3.250 I19.146 J20.098 K0.000 F300.000
G1 X40.584 Y-37.869 Z3.250 F300.000
G1 X37.867 Y-40.585 Z3.250 F300.000
G2 X38.035 Y-40.739 Z3.250 I-1.364 J-1.651 K0.000 F300.000
G2 X38.985 Y-41.690 Z3.250 I-94.870 J-95.775 K0.000 F300.000
G2 X39.242 Y-44.305 Z3.250 I-1.528 J-1.470 K0.000 F300.000
G1 X44.319 Y-39.228 Z3.250 F300.000
G0 Z9.000
G0 X41.511 Y-40.340 Z9.000
G0 X41.511 Y-40.340 Z7.000
G1 X41.511 Y-40.340 Z3.250 F100.000
G2 X40.865 Y-39.856 Z3.250 I1.671 J2.903 K0.000 F300.000
G2 X40.575 Y-39.575 Z3.250 I13.827 J14.515 K0.000 F300.000
G1 X39.571 Y-40.579 Z3.250 F300.000
G2 X40.107 Y-41.157 Z3.250 I-3.759 J-4.019 K0.000 F300.000
G2 X40.338 Y-41.512 Z3.250 I-2.427 J-1.834 K0.000 F300.000
G1 X41.511 Y-40.340 Z3.250 F300.000
G1 X40.998 Y-40.392 Z3.250 F100.000
G2 X40.579 Y-40.031 Z3.250 I2.068 J2.827 K0.000 F300.000
G1 X40.031 Y-40.579 Z3.250 F300.000
G2 X40.391 Y-40.999 Z3.250 I-2.163 J-2.220 K0.000 F300.000
G1 X40.998 Y-40.392 Z3.250 F300.000
G0 Z9.000
G0 X38.183 Y-42.593 Z9.000
G0 X38.183 Y-42.593 Z7.000
G1 X38.183 Y-42.593 Z3.250 F100.000
