(Exported by FreeCAD)
(Post Processor: script_module)
(Output Time:2024-09-28 19:25:22.671562)
(Begin preamble)
G17 G90
G21
(Begin operation: 1.5 contours)
(Path: 1.5 contours)
(1.5 contours)
(Begin toolchange)
( M6 T1 )
M3 S24000
(Finish operation: 1.5 contours)
(Begin operation: Fixture)
(Path: Fixture)
G54
(Finish operation: Fixture)
(Begin operation: Pocket_Shape)
(Path: Pocket_Shape)
(Pocket_Shape)
G0 Z9.000
G0 X32.704 Y32.704
G0 Z7.000
G1 X32.704 Y32.704 Z3.250 F500.000
G3 X-4.709 Y46.009 Z3.250 I-32.704 J-32.704 K0.000 F2500.000
G3 X-46.009 Y-4.709 Z3.250 I4.709 J-46.009 K0.000 F2500.000
G3 X4.709 Y-46.009 Z3.250 I46.009 J4.709 K0.000 F2500.000
G3 X32.704 Y32.704 Z3.250 I-4.709 J46.009 K0.000 F2500.000
G1 X32.279 Y32.279 Z3.250 F500.000
G3 X-4.648 Y45.412 Z3.250 I-32.279 J-32.279 K0.000 F2500.000
G3 X-45.412 Y-4.648 Z3.250 I4.648 J-45.412 K0.000 F2500.000
G3 X4.648 Y-45.412 Z3.250 I45.412 J4.648 K0.000 F2500.000
G3 X32.279 Y32.279 Z3.250 I-4.648 J45.412 K0.000 F2500.000
G1 X32.067 Y32.067 Z3.250 F500.000
G3 X3.874 Y45.184 Z3.250 I-32.067 J-32.067 K0.000 F2500.000
G3 X-3.874 Y-45.184 Z3.250 I-3.874 J-45.184 K0.000 F2500.000
G3 X32.067 Y32.067 Z3.250 I3.874 J45.184 K0.000 F2500.000
G1 X31.643 Y31.643 Z3.250 F500.000
G3 X3.811 Y44.587 Z3.250 I-31.643 J-31.643 K0.000 F2500.000
G3 X-3.811 Y-44.587 Z3.250 I-3.811 J-44.587 K0.000 F2500.000
G3 X31.643 Y31.643 Z3.250 I3.811 J44.587 K0.000 F2500.000
G1 X31.643 Y31.643 Z2.500 F500.000
G3 X3.811 Y44.587 Z2.500 I-31.643 J-31.643 K0.000 F2500.000
G3 X-3.811 Y-44.587 Z2.500 I-3.811 J-44.587 K0.000 F2500.000
G3 X31.643 Y31.643 Z2.500 I3.811 J44.587 K0.000 F2500.000
G1 X32.067 Y32.067 Z2.500 F500.000
G3 X3.874 Y45.184 Z2.500 I-32.067 J-32.067 K0.000 F2500.000
G3 X-3.874 Y-45.184 Z2.500 I-3.874 J-45.184 K0.000 F2500.000
G3 X32.067 Y32.067 Z2.500 I3.874 J45.184 K0.000 F2500.000
G1 X32.279 Y32.279 Z2.500 F500.000
G3 X-4.648 Y45.412 Z2.500 I-32.279 J-32.279 K0.000 F2500.000
G3 X-45.412 Y-4.648 Z2.500 I4.648 J-45.412 K0.000 F2500.000
G3 X4.648 Y-45.412 Z2.500 I45.412 J4.648 K0.000 F2500.000
G3 X32.279 Y32.279 Z2.500 I-4.648 J45.412 K0.000 F2500.000
G1 X32.704 Y32.704 Z2.500 F500.000
G3 X-4.709 Y46.009 Z2.500 I-32.704 J-32.704 K0.000 F2500.000
G3 X-46.009 Y-4.709 Z2.500 I4.709 J-46.009 K0.000 F2500.000
G3 X4.709 Y-46.009 Z2.500 I46.009 J4.709 K0.000 F2500.000
G3 X32.704 Y32.704 Z2.500 I-4.709 J46.009 K0.000 F2500.000
G1 X32.704 Y32.704 Z2.000 F500.000
G3 X-4.709 Y46.009 Z2.000 I-32.704 J-32.704 K0.000 F2500.000
G3 X-46.009 Y-4.709 Z2.000 I4.709 J-46.009 K0.000 F2500.000
G3 X4.709 Y-46.009 Z2.000 I46.009 J4.709 K0.000 F2500.000
G3 X32.704 Y32.704 Z2.000 I-4.709 J46.009 K0.000 F2500.000
G1 X32.279 Y32.279 Z2.000 F500.000
G3 X-4.648 Y45.412 Z2.000 I-32.279 J-32.279 K0.000 F2500.000
G3 X-45.412 Y-4.648 Z2.000 I4.648 J-45.412 K0.000 F2500.000
G3 X4.648 Y-45.412 Z2.000 I45.412 J4.648 K0.000 F2500.000
G3 X32.279 Y32.279 Z2.000 I-4.648 J45.412 K0.000 F2500.000
G1 X32.067 Y32.067 Z2.000 F500.000
G3 X3.874 Y45.184 Z2.000 I-32.067 J-32.067 K0.000 F2500.000
G3 X-3.874 Y-45.184 Z2.000 I-3.874 J-45.184 K0.000 F2500.000
G3 X32.067 Y32.067 Z2.000 I3.874 J45.184 K0.000 F2500.000
G1 X31.643 Y31.643 Z2.000 F500.000
G3 X3.811 Y44.587 Z2.000 I-31.643 J-31.643 K0.000 F2500.000
G3 X-3.811 Y-44.587 Z2.000 I-3.811 J-44.587 K0.000 F2500.000
G3 X31.643 Y31.643 Z2.000 I3.811 J44.587 K0.000 F2500.000
G0 Z9.000
G0 X31.643 Y31.643
G0 X49.674 Y49.674
G0 X49.674 Y49.674 Z7.000
G1 X49.674 Y49.674 Z3.250 F500.000
G3 X3.571 Y70.159 Z3.250 I-49.674 J-49.674 K0.000 F2500.000
G3 X-70.159 Y3.571 Z3.250 I-3.571 J-70.159 K0.000 F2500.000
G3 X-3.571 Y-70.159 Z3.250 I70.159 J-3.571 K0.000 F2500.000
G3 X49.674 Y49.674 Z3.250 I3.571 J70.159 K0.000 F2500.000
G1 X50.098 Y50.098 Z3.250 F500.000
G3 X3.611 Y70.758 Z3.250 I-50.098 J-50.098 K0.000 F2500.000
G3 X-70.758 Y3.611 Z3.250 I-3.611 J-70.758 K0.000 F2500.000
G3 X-3.611 Y-70.758 Z3.250 I70.758 J-3.611 K0.000 F2500.000
G3 X50.098 Y50.098 Z3.250 I3.611 J70.758 K0.000 F2500.000
G1 X50.381 Y50.381 Z3.250 F500.000
G3 X-5.884 Y71.006 Z3.250 I-50.381 J-50.381 K0.000 F2500.000
G3 X5.884 Y-71.006 Z3.250 I5.884 J-71.006 K0.000 F2500.000
G3 X50.381 Y50.381 Z3.250 I-5.884 J71.006 K0.000 F2500.000
G1 X50.806 Y50.806 Z3.250 F500.000
G3 X-5.933 Y71.604 Z3.250 I-50.806 J-50.806 K0.000 F2500.000
G3 X5.933 Y-71.604 Z3.250 I5.933 J-71.604 K0.000 F2500.000
G3 X50.806 Y50.806 Z3.250 I-5.933 J71.604 K0.000 F2500.000
G1 X50.806 Y50.806 Z2.500 F500.000
G3 X-5.933 Y71.604 Z2.500 I-50.806 J-50.806 K0.000 F2500.000
G3 X5.933 Y-71.604 Z2.500 I5.933 J-71.604 K0.000 F2500.000
G3 X50.806 Y50.806 Z2.500 I-5.933 J71.604 K0.000 F2500.000
G1 X50.381 Y50.381 Z2.500 F500.000
G3 X-5.884 Y71.006 Z2.500 I-50.381 J-50.381 K0.000 F2500.000
G3 X5.884 Y-71.006 Z2.500 I5.884 J-71.006 K0.000 F2500.000
G3 X50.381 Y50.381 Z2.500 I-5.884 J71.006 K0.000 F2500.000
G1 X50.098 Y50.098 Z2.500 F500.000
G3 X3.611 Y70.758 Z2.500 I-50.098 J-50.098 K0.000 F2500.000
G3 X-70.758 Y3.611 Z2.500 I-3.611 J-70.758 K0.000 F2500.000
G3 X-3.611 Y-70.758 Z2.500 I70.758 J-3.611 K0.000 F2500.000
G3 X50.098 Y50.098 Z2.500 I3.611 J70.758 K0.000 F2500.000
G1 X49.674 Y49.674 Z2.500 F500.000
G3 X3.571 Y70.159 Z2.500 I-49.674 J-49.674 K0.000 F2500.000
G3 X-70.159 Y3.571 Z2.500 I-3.571 J-70.159 K0.000 F2500.000
G3 X-3.571 Y-70.159 Z2.500 I70.159 J-3.571 K0.000 F2500.000
G3 X49.674 Y49.674 Z2.500 I3.571 J70.159 K0.000 F2500.000
G1 X49.674 Y49.674 Z2.000 F500.000
G3 X3.571 Y70.159 Z2.000 I-49.674 J-49.674 K0.000 F2500.000
G3 X-70.159 Y3.571 Z2.000 I-3.571 J-70.159 K0.000 F2500.000
G3 X-3.571 Y-70.159 Z2.000 I70.159 J-3.571 K0.000 F2500.000
G3 X49.674 Y49.674 Z2.000 I3.571 J70.159 K0.000 F2500.000
G1 X50.098 Y50.098 Z2.000 F500.000
G3 X3.611 Y70.758 Z2.000 I-50.098 J-50.098 K0.000 F2500.000
G3 X-70.758 Y3.611 Z2.000 I-3.611 J-70.758 K0.000 F2500.000
G3 X-3.611 Y-70.758 Z2.000 I70.758 J-3.611 K0.000 F2500.000
G3 X50.098 Y50.098 Z2.000 I3.611 J70.758 K0.000 F2500.000
G1 X50.381 Y50.381 Z2.000 F500.000
G3 X-5.884 Y71.006 Z2.000 I-50.381 J-50.381 K0.000 F2500.000
G3 X5.884 Y-71.006 Z2.000 I5.884 J-71.006 K0.000 F2500.000
G3 X50.381 Y50.381 Z2.000 I-5.884 J71.006 K0.000 F2500.000
G1 X50.806 Y50.806 Z2.000 F500.000
G3 X-5.933 Y71.604 Z2.000 I-50.806 J-50.806 K0.000 F2500.000
G3 X5.933 Y-71.604 Z2.000 I5.933 J-71.604 K0.000 F2500.000
G3 X50.806 Y50.806 Z2.000 I-5.933 J71.604 K0.000 F2500.000
G0 Z9.000
(Finish operation: Pocket_Shape)
(Begin postamble)
M5
G17 G90
M2
