(Exported by FreeCAD)
(Post Processor: grbl_post)
(Output Time:2024-04-17 21:18:00.493255)
(Begin preamble)
G17 G90
G21
(Begin operation: 1.5 z2 Q010)
(Path: 1.5 z2 Q010)
(1.5 z2 Q010)
(Begin toolchange)
( M6 T3 )
M3 S5000
(Finish operation: 1.5 z2 Q010)
(Begin operation: Fixture)
(Path: Fixture)
G54
(Finish operation: Fixture)
(Begin operation: Helix)
(Path: Helix)
(Helix)
(helix cut operation)
G0 Z5.000
G0 Z5.000
G0 X0.020 Y5.000 Z5.000
G0 X0.020 Y5.000 Z0.000
G0 X0.030 Y5.000
G1 Z0.000 F300.000
G2 X0.010 Y5.000 Z-0.500 I-0.010 J0.000 F2000.000
G2 X0.030 Y5.000 Z-1.000 I0.010 J0.000 F2000.000
G2 X0.010 Y5.000 Z-1.500 I-0.010 J0.000 F2000.000
G2 X0.030 Y5.000 Z-2.000 I0.010 J0.000 F2000.000
G2 X0.010 Y5.000 Z-2.000 I-0.010 J0.000 F2000.000
G2 X0.030 Y5.000 Z-2.000 I0.010 J0.000 F2000.000
G0 X0.020 Y5.000 Z-2.000
G0 Z0.000
G0 Z5.000
G0 X0.020 Y14.348 Z5.000
G0 X0.020 Y14.348 Z0.000
G0 X0.030 Y14.348
G1 Z0.000 F300.000
G2 X0.010 Y14.348 Z-0.500 I-0.010 J0.000 F2000.000
G2 X0.030 Y14.348 Z-1.000 I0.010 J0.000 F2000.000
G2 X0.010 Y14.348 Z-1.500 I-0.010 J0.000 F2000.000
G2 X0.030 Y14.348 Z-2.000 I0.010 J0.000 F2000.000
G2 X0.010 Y14.348 Z-2.000 I-0.010 J0.000 F2000.000
G2 X0.030 Y14.348 Z-2.000 I0.010 J0.000 F2000.000
G0 X0.020 Y14.348 Z-2.000
G0 Z0.000
G0 Z5.000
G0 X-3.631 Y14.348 Z5.000
G0 X-3.631 Y14.348 Z0.000
G0 X-3.621 Y14.348
G1 Z0.000 F300.000
G2 X-3.641 Y14.348 Z-0.500 I-0.010 J0.000 F2000.000
G2 X-3.621 Y14.348 Z-1.000 I0.010 J0.000 F2000.000
G2 X-3.641 Y14.348 Z-1.500 I-0.010 J0.000 F2000.000
G2 X-3.621 Y14.348 Z-2.000 I0.010 J0.000 F2000.000
G2 X-3.641 Y14.348 Z-2.000 I-0.010 J0.000 F2000.000
G2 X-3.621 Y14.348 Z-2.000 I0.010 J0.000 F2000.000
G0 X-3.631 Y14.348 Z-2.000
G0 Z0.000
G0 Z5.000
G0 X3.686 Y14.348 Z5.000
G0 X3.686 Y14.348 Z0.000
G0 X3.696 Y14.348
G1 Z0.000 F300.000
G2 X3.676 Y14.348 Z-0.500 I-0.010 J0.000 F2000.000
G2 X3.696 Y14.348 Z-1.000 I0.010 J0.000 F2000.000
G2 X3.676 Y14.348 Z-1.500 I-0.010 J0.000 F2000.000
G2 X3.696 Y14.348 Z-2.000 I0.010 J0.000 F2000.000
G2 X3.676 Y14.348 Z-2.000 I-0.010 J0.000 F2000.000
G2 X3.696 Y14.348 Z-2.000 I0.010 J0.000 F2000.000
G0 X3.686 Y14.348 Z-2.000
G0 Z0.000
G0 Z5.000
G0 X57.439 Y51.730 Z5.000
G0 X57.439 Y51.730 Z0.000
G0 X57.449 Y51.730
G1 Z0.000 F300.000
G2 X57.429 Y51.730 Z-0.500 I-0.010 J0.000 F2000.000
G2 X57.449 Y51.730 Z-1.000 I0.010 J0.000 F2000.000
G2 X57.429 Y51.730 Z-1.500 I-0.010 J0.000 F2000.000
G2 X57.449 Y51.730 Z-2.000 I0.010 J0.000 F2000.000
G2 X57.429 Y51.730 Z-2.000 I-0.010 J0.000 F2000.000
G2 X57.449 Y51.730 Z-2.000 I0.010 J0.000 F2000.000
G0 X57.439 Y51.730 Z-2.000
G0 Z0.000
G0 Z5.000
G0 X107.247 Y84.157 Z5.000
G0 X107.247 Y84.157 Z0.000
G0 X107.257 Y84.157
G1 Z0.000 F300.000
G2 X107.237 Y84.157 Z-0.500 I-0.010 J0.000 F2000.000
G2 X107.257 Y84.157 Z-1.000 I0.010 J0.000 F2000.000
G2 X107.237 Y84.157 Z-1.500 I-0.010 J0.000 F2000.000
G2 X107.257 Y84.157 Z-2.000 I0.010 J0.000 F2000.000
G2 X107.237 Y84.157 Z-2.000 I-0.010 J0.000 F2000.000
G2 X107.257 Y84.157 Z-2.000 I0.010 J0.000 F2000.000
G0 X107.247 Y84.157 Z-2.000
G0 Z0.000
G0 Z5.000
G0 X148.026 Y110.706 Z5.000
G0 X148.026 Y110.706 Z0.000
G0 X148.036 Y110.706
G1 Z0.000 F300.000
G2 X148.016 Y110.706 Z-0.500 I-0.010 J0.000 F2000.000
G2 X148.036 Y110.706 Z-1.000 I0.010 J0.000 F2000.000
G2 X148.016 Y110.706 Z-1.500 I-0.010 J0.000 F2000.000
G2 X148.036 Y110.706 Z-2.000 I0.010 J0.000 F2000.000
G2 X148.016 Y110.706 Z-2.000 I-0.010 J0.000 F2000.000
G2 X148.036 Y110.706 Z-2.000 I0.010 J0.000 F2000.000
G0 X148.026 Y110.706 Z-2.000
G0 Z0.000
G0 Z5.000
G0 X177.553 Y127.542 Z5.000
G0 X177.553 Y127.542 Z0.000
G0 X177.563 Y127.542
G1 Z0.000 F300.000
G2 X177.543 Y127.542 Z-0.500 I-0.010 J0.000 F2000.000
G2 X177.563 Y127.542 Z-1.000 I0.010 J0.000 F2000.000
G2 X177.543 Y127.542 Z-1.500 I-0.010 J0.000 F2000.000
G2 X177.563 Y127.542 Z-2.000 I0.010 J0.000 F2000.000
G2 X177.543 Y127.542 Z-2.000 I-0.010 J0.000 F2000.000
G2 X177.563 Y127.542 Z-2.000 I0.010 J0.000 F2000.000
G0 X177.553 Y127.542 Z-2.000
G0 Z0.000
G0 Z5.000
G0 X88.335 Y270.521 Z5.000
G0 X88.335 Y270.521 Z0.000
G0 X88.345 Y270.521
G1 Z0.000 F300.000
G2 X88.325 Y270.521 Z-0.500 I-0.010 J0.000 F2000.000
G2 X88.345 Y270.521 Z-1.000 I0.010 J0.000 F2000.000
G2 X88.325 Y270.521 Z-1.500 I-0.010 J0.000 F2000.000
G2 X88.345 Y270.521 Z-2.000 I0.010 J0.000 F2000.000
G2 X88.325 Y270.521 Z-2.000 I-0.010 J0.000 F2000.000
G2 X88.345 Y270.521 Z-2.000 I0.010 J0.000 F2000.000
G0 X88.335 Y270.521 Z-2.000
G0 Z0.000
G0 Z5.000
G0 X112.551 Y283.808 Z5.000
G0 X112.551 Y283.808 Z0.000
G0 X112.561 Y283.808
G1 Z0.000 F300.000
G2 X112.541 Y283.808 Z-0.500 I-0.010 J0.000 F2000.000
G2 X112.561 Y283.808 Z-1.000 I0.010 J0.000 F2000.000
G2 X112.541 Y283.808 Z-1.500 I-0.010 J0.000 F2000.000
G2 X112.561 Y283.808 Z-2.000 I0.010 J0.000 F2000.000
G2 X112.541 Y283.808 Z-2.000 I-0.010 J0.000 F2000.000
G2 X112.561 Y283.808 Z-2.000 I0.010 J0.000 F2000.000
G0 X112.551 Y283.808 Z-2.000
G0 Z0.000
G0 Z5.000
G0 X56.506 Y270.521 Z5.000
G0 X56.506 Y270.521 Z0.000
G0 X56.516 Y270.521
G1 Z0.000 F300.000
G2 X56.496 Y270.521 Z-0.500 I-0.010 J0.000 F2000.000
G2 X56.516 Y270.521 Z-1.000 I0.010 J0.000 F2000.000
G2 X56.496 Y270.521 Z-1.500 I-0.010 J0.000 F2000.000
G2 X56.516 Y270.521 Z-2.000 I0.010 J0.000 F2000.000
G2 X56.496 Y270.521 Z-2.000 I-0.010 J0.000 F2000.000
G2 X56.516 Y270.521 Z-2.000 I0.010 J0.000 F2000.000
G0 X56.506 Y270.521 Z-2.000
G0 Z0.000
G0 Z5.000
G0 X27.532 Y270.521 Z5.000
G0 X27.532 Y270.521 Z0.000
G0 X27.542 Y270.521
G1 Z0.000 F300.000
G2 X27.522 Y270.521 Z-0.500 I-0.010 J0.000 F2000.000
G2 X27.542 Y270.521 Z-1.000 I0.010 J0.000 F2000.000
G2 X27.522 Y270.521 Z-1.500 I-0.010 J0.000 F2000.000
G2 X27.542 Y270.521 Z-2.000 I0.010 J0.000 F2000.000
G2 X27.522 Y270.521 Z-2.000 I-0.010 J0.000 F2000.000
G2 X27.542 Y270.521 Z-2.000 I0.010 J0.000 F2000.000
G0 X27.532 Y270.521 Z-2.000
G0 Z0.000
G0 Z5.000
G0 X9.259 Y274.064 Z5.000
G0 X9.259 Y274.064 Z0.000
G0 X9.269 Y274.064
G1 Z0.000 F300.000
G2 X9.249 Y274.064 Z-0.500 I-0.010 J0.000 F2000.000
G2 X9.269 Y274.064 Z-1.000 I0.010 J0.000 F2000.000
G2 X9.249 Y274.064 Z-1.500 I-0.010 J0.000 F2000.000
G2 X9.269 Y274.064 Z-2.000 I0.010 J0.000 F2000.000
G2 X9.249 Y274.064 Z-2.000 I-0.010 J0.000 F2000.000
G2 X9.269 Y274.064 Z-2.000 I0.010 J0.000 F2000.000
G0 X9.259 Y274.064 Z-2.000
G0 Z0.000
G0 Z5.000
G0 X0.020 Y258.156 Z5.000
G0 X0.020 Y258.156 Z0.000
G0 X0.030 Y258.156
G1 Z0.000 F300.000
G2 X0.010 Y258.156 Z-0.500 I-0.010 J0.000 F2000.000
G2 X0.030 Y258.156 Z-1.000 I0.010 J0.000 F2000.000
G2 X0.010 Y258.156 Z-1.500 I-0.010 J0.000 F2000.000
G2 X0.030 Y258.156 Z-2.000 I0.010 J0.000 F2000.000
G2 X0.010 Y258.156 Z-2.000 I-0.010 J0.000 F2000.000
G2 X0.030 Y258.156 Z-2.000 I0.010 J0.000 F2000.000
G0 X0.020 Y258.156 Z-2.000
G0 Z0.000
G0 Z5.000
G0 X-31.689 Y240.274 Z5.000
G0 X-31.689 Y240.274 Z0.000
G0 X-31.679 Y240.274
G1 Z0.000 F300.000
G2 X-31.699 Y240.274 Z-0.500 I-0.010 J0.000 F2000.000
G2 X-31.679 Y240.274 Z-1.000 I0.010 J0.000 F2000.000
G2 X-31.699 Y240.274 Z-1.500 I-0.010 J0.000 F2000.000
G2 X-31.679 Y240.274 Z-2.000 I0.010 J0.000 F2000.000
G2 X-31.699 Y240.274 Z-2.000 I-0.010 J0.000 F2000.000
G2 X-31.679 Y240.274 Z-2.000 I0.010 J0.000 F2000.000
G0 X-31.689 Y240.274 Z-2.000
G0 Z0.000
G0 Z5.000
G0 X-70.069 Y219.295 Z5.000
G0 X-70.069 Y219.295 Z0.000
G0 X-70.059 Y219.295
G1 Z0.000 F300.000
G2 X-70.079 Y219.295 Z-0.500 I-0.010 J0.000 F2000.000
G2 X-70.059 Y219.295 Z-1.000 I0.010 J0.000 F2000.000
G2 X-70.079 Y219.295 Z-1.500 I-0.010 J0.000 F2000.000
G2 X-70.059 Y219.295 Z-2.000 I0.010 J0.000 F2000.000
G2 X-70.079 Y219.295 Z-2.000 I-0.010 J0.000 F2000.000
G2 X-70.059 Y219.295 Z-2.000 I0.010 J0.000 F2000.000
G0 X-70.069 Y219.295 Z-2.000
G0 Z0.000
G0 Z5.000
G0 X-116.821 Y193.749 Z5.000
G0 X-116.821 Y193.749 Z0.000
G0 X-116.811 Y193.749
G1 Z0.000 F300.000
G2 X-116.831 Y193.749 Z-0.500 I-0.010 J0.000 F2000.000
G2 X-116.811 Y193.749 Z-1.000 I0.010 J0.000 F2000.000
G2 X-116.831 Y193.749 Z-1.500 I-0.010 J0.000 F2000.000
G2 X-116.811 Y193.749 Z-2.000 I0.010 J0.000 F2000.000
G2 X-116.831 Y193.749 Z-2.000 I-0.010 J0.000 F2000.000
G2 X-116.811 Y193.749 Z-2.000 I0.010 J0.000 F2000.000
G0 X-116.821 Y193.749 Z-2.000
G0 Z0.000
G0 Z5.000
G0 X-173.230 Y169.999 Z5.000
G0 X-173.230 Y169.999 Z0.000
G0 X-173.220 Y169.999
G1 Z0.000 F300.000
G2 X-173.240 Y169.999 Z-0.500 I-0.010 J0.000 F2000.000
G2 X-173.220 Y169.999 Z-1.000 I0.010 J0.000 F2000.000
G2 X-173.240 Y169.999 Z-1.500 I-0.010 J0.000 F2000.000
G2 X-173.220 Y169.999 Z-2.000 I0.010 J0.000 F2000.000
G2 X-173.240 Y169.999 Z-2.000 I-0.010 J0.000 F2000.000
G2 X-173.220 Y169.999 Z-2.000 I0.010 J0.000 F2000.000
G0 X-173.230 Y169.999 Z-2.000
G0 Z0.000
G0 Z5.000
G0 X-177.716 Y128.345 Z5.000
G0 X-177.716 Y128.345 Z0.000
G0 X-177.706 Y128.345
G1 Z0.000 F300.000
G2 X-177.726 Y128.345 Z-0.500 I-0.010 J0.000 F2000.000
G2 X-177.706 Y128.345 Z-1.000 I0.010 J0.000 F2000.000
G2 X-177.726 Y128.345 Z-1.500 I-0.010 J0.000 F2000.000
G2 X-177.706 Y128.345 Z-2.000 I0.010 J0.000 F2000.000
G2 X-177.726 Y128.345 Z-2.000 I-0.010 J0.000 F2000.000
G2 X-177.706 Y128.345 Z-2.000 I0.010 J0.000 F2000.000
G0 X-177.716 Y128.345 Z-2.000
G0 Z0.000
G0 Z5.000
G0 X-147.238 Y110.777 Z5.000
G0 X-147.238 Y110.777 Z0.000
G0 X-147.228 Y110.777
G1 Z0.000 F300.000
G2 X-147.248 Y110.777 Z-0.500 I-0.010 J0.000 F2000.000
G2 X-147.228 Y110.777 Z-1.000 I0.010 J0.000 F2000.000
G2 X-147.248 Y110.777 Z-1.500 I-0.010 J0.000 F2000.000
G2 X-147.228 Y110.777 Z-2.000 I0.010 J0.000 F2000.000
G2 X-147.248 Y110.777 Z-2.000 I-0.010 J0.000 F2000.000
G2 X-147.228 Y110.777 Z-2.000 I0.010 J0.000 F2000.000
G0 X-147.238 Y110.777 Z-2.000
G0 Z0.000
G0 Z5.000
G0 X-106.490 Y84.094 Z5.000
G0 X-106.490 Y84.094 Z0.000
G0 X-106.480 Y84.094
G1 Z0.000 F300.000
G2 X-106.500 Y84.094 Z-0.500 I-0.010 J0.000 F2000.000
G2 X-106.480 Y84.094 Z-1.000 I0.010 J0.000 F2000.000
G2 X-106.500 Y84.094 Z-1.500 I-0.010 J0.000 F2000.000
G2 X-106.480 Y84.094 Z-2.000 I0.010 J0.000 F2000.000
G2 X-106.500 Y84.094 Z-2.000 I-0.010 J0.000 F2000.000
G2 X-106.480 Y84.094 Z-2.000 I0.010 J0.000 F2000.000
G0 X-106.490 Y84.094 Z-2.000
G0 Z0.000
G0 Z5.000
G0 X-56.775 Y51.539 Z5.000
G0 X-56.775 Y51.539 Z0.000
G0 X-56.765 Y51.539
G1 Z0.000 F300.000
G2 X-56.785 Y51.539 Z-0.500 I-0.010 J0.000 F2000.000
G2 X-56.765 Y51.539 Z-1.000 I0.010 J0.000 F2000.000
G2 X-56.785 Y51.539 Z-1.500 I-0.010 J0.000 F2000.000
G2 X-56.765 Y51.539 Z-2.000 I0.010 J0.000 F2000.000
G2 X-56.785 Y51.539 Z-2.000 I-0.010 J0.000 F2000.000
G2 X-56.765 Y51.539 Z-2.000 I0.010 J0.000 F2000.000
G0 X-56.775 Y51.539 Z-2.000
G0 Z0.000
G0 Z5.000
G0 X-112.678 Y283.808 Z5.000
G0 X-112.678 Y283.808 Z0.000
G0 X-112.668 Y283.808
G1 Z0.000 F300.000
G2 X-112.688 Y283.808 Z-0.500 I-0.010 J0.000 F2000.000
G2 X-112.668 Y283.808 Z-1.000 I0.010 J0.000 F2000.000
G2 X-112.688 Y283.808 Z-1.500 I-0.010 J0.000 F2000.000
G2 X-112.668 Y283.808 Z-2.000 I0.010 J0.000 F2000.000
G2 X-112.688 Y283.808 Z-2.000 I-0.010 J0.000 F2000.000
G2 X-112.668 Y283.808 Z-2.000 I0.010 J0.000 F2000.000
G0 X-112.678 Y283.808 Z-2.000
G0 Z0.000
G0 Z5.000
G0 X-131.293 Y391.524 Z5.000
G0 X-131.293 Y391.524 Z0.000
G0 X-131.283 Y391.524
G1 Z0.000 F300.000
G2 X-131.303 Y391.524 Z-0.500 I-0.010 J0.000 F2000.000
G2 X-131.283 Y391.524 Z-1.000 I0.010 J0.000 F2000.000
G2 X-131.303 Y391.524 Z-1.500 I-0.010 J0.000 F2000.000
G2 X-131.283 Y391.524 Z-2.000 I0.010 J0.000 F2000.000
G2 X-131.303 Y391.524 Z-2.000 I-0.010 J0.000 F2000.000
G2 X-131.283 Y391.524 Z-2.000 I0.010 J0.000 F2000.000
G0 X-131.293 Y391.524 Z-2.000
G0 Z0.000
G0 Z5.000
G0 X-124.837 Y428.214 Z5.000
G0 X-124.837 Y428.214 Z0.000
G0 X-124.827 Y428.214
G1 Z0.000 F300.000
G2 X-124.847 Y428.214 Z-0.500 I-0.010 J0.000 F2000.000
G2 X-124.827 Y428.214 Z-1.000 I0.010 J0.000 F2000.000
G2 X-124.847 Y428.214 Z-1.500 I-0.010 J0.000 F2000.000
G2 X-124.827 Y428.214 Z-2.000 I0.010 J0.000 F2000.000
G2 X-124.847 Y428.214 Z-2.000 I-0.010 J0.000 F2000.000
G2 X-124.827 Y428.214 Z-2.000 I0.010 J0.000 F2000.000
G0 X-124.837 Y428.214 Z-2.000
G0 Z0.000
G0 Z5.000
G0 X0.020 Y483.455 Z5.000
G0 X0.020 Y483.455 Z0.000
G0 X0.030 Y483.455
G1 Z0.000 F300.000
G2 X0.010 Y483.455 Z-0.500 I-0.010 J0.000 F2000.000
G2 X0.030 Y483.455 Z-1.000 I0.010 J0.000 F2000.000
G2 X0.010 Y483.455 Z-1.500 I-0.010 J0.000 F2000.000
G2 X0.030 Y483.455 Z-2.000 I0.010 J0.000 F2000.000
G2 X0.010 Y483.455 Z-2.000 I-0.010 J0.000 F2000.000
G2 X0.030 Y483.455 Z-2.000 I0.010 J0.000 F2000.000
G0 X0.020 Y483.455 Z-2.000
G0 Z0.000
G0 Z5.000
G0 X124.719 Y428.214 Z5.000
G0 X124.719 Y428.214 Z0.000
G0 X124.729 Y428.214
G1 Z0.000 F300.000
G2 X124.709 Y428.214 Z-0.500 I-0.010 J0.000 F2000.000
G2 X124.729 Y428.214 Z-1.000 I0.010 J0.000 F2000.000
G2 X124.709 Y428.214 Z-1.500 I-0.010 J0.000 F2000.000
G2 X124.729 Y428.214 Z-2.000 I0.010 J0.000 F2000.000
G2 X124.709 Y428.214 Z-2.000 I-0.010 J0.000 F2000.000
G2 X124.729 Y428.214 Z-2.000 I0.010 J0.000 F2000.000
G0 X124.719 Y428.214 Z-2.000
G0 Z0.000
G0 Z5.000
G0 X131.813 Y391.524 Z5.000
G0 X131.813 Y391.524 Z0.000
G0 X131.823 Y391.524
G1 Z0.000 F300.000
G2 X131.803 Y391.524 Z-0.500 I-0.010 J0.000 F2000.000
G2 X131.823 Y391.524 Z-1.000 I0.010 J0.000 F2000.000
G2 X131.803 Y391.524 Z-1.500 I-0.010 J0.000 F2000.000
G2 X131.823 Y391.524 Z-2.000 I0.010 J0.000 F2000.000
G2 X131.803 Y391.524 Z-2.000 I-0.010 J0.000 F2000.000
G2 X131.823 Y391.524 Z-2.000 I0.010 J0.000 F2000.000
G0 X131.813 Y391.524 Z-2.000
G0 Z0.000
G0 Z5.000
G0 X0.020 Y336.458 Z5.000
G0 X0.020 Y336.458 Z0.000
G0 X0.030 Y336.458
G1 Z0.000 F300.000
G2 X0.010 Y336.458 Z-0.500 I-0.010 J0.000 F2000.000
G2 X0.030 Y336.458 Z-1.000 I0.010 J0.000 F2000.000
G2 X0.010 Y336.458 Z-1.500 I-0.010 J0.000 F2000.000
G2 X0.030 Y336.458 Z-2.000 I0.010 J0.000 F2000.000
G2 X0.010 Y336.458 Z-2.000 I-0.010 J0.000 F2000.000
G2 X0.030 Y336.458 Z-2.000 I0.010 J0.000 F2000.000
G0 X0.020 Y336.458 Z-2.000
G0 Z0.000
G0 Z5.000
(Finish operation: Helix)
(Begin postamble)
M5
G17 G90
M2
