(Exported by FreeCAD)
(Post Processor: grbl_post)
(Output Time:2024-03-04 17:44:38.171844)
(Begin preamble)
G17 G90
G21
(Begin operation: 1.5 z2 Q007)
(Path: 1.5 z2 Q007)
(1.5 z2 Q007)
(Begin toolchange)
( M6 T15 )
M3 S24000
(Finish operation: 1.5 z2 Q007)
(Begin operation: Fixture)
(Path: Fixture)
G54
(Finish operation: Fixture)
(Begin operation: Profile)
(Path: Profile)
(Profile)
(Compensated Tool Path. Diameter: 1.48)
G0 Z8.000
G0 X7.126 Y11.902
G0 Z6.000
G1 X7.126 Y11.902 Z2.260 F200.000
G2 X7.572 Y10.937 Z2.260 I-1.089 J-1.089 K0.000 F1000.000
G1 X7.577 Y0.750 Z2.260 F1000.000
G2 X6.435 Y-0.694 Z2.260 I-1.498 J0.011 K0.000 F1000.000
G2 X4.505 Y0.641 Z2.260 I-0.413 J1.465 K0.000 F1000.000
G1 X4.497 Y10.850 Z2.260 F1000.000
G2 X7.126 Y11.902 Z2.260 I1.540 J-0.037 K0.000 F1000.000
G0 Z8.000
G0 X3.519 Y11.134 Z8.000
G0 X3.519 Y11.134 Z6.000
G1 X3.519 Y11.134 Z2.260 F200.000
G2 X3.547 Y10.937 Z2.260 I-1.506 J-0.321 K0.000 F1000.000
G1 X3.552 Y0.750 Z2.260 F1000.000
G2 X2.410 Y-0.694 Z2.260 I-1.496 J0.009 K0.000 F1000.000
G2 X0.480 Y0.641 Z2.260 I-0.413 J1.465 K0.000 F1000.000
G1 X0.472 Y10.850 Z2.260 F1000.000
G2 X3.519 Y11.134 Z2.260 I1.540 J-0.037 K0.000 F1000.000
G0 Z8.000
G0 X-0.478 Y10.937 Z8.000
G0 X-0.478 Y10.937 Z6.000
G1 X-0.478 Y10.937 Z2.260 F200.000
G1 X-0.472 Y0.750 Z2.260 F1000.000
G2 X-1.615 Y-0.694 Z2.260 I-1.496 J0.009 K0.000 F1000.000
G2 X-3.544 Y0.641 Z2.260 I-0.413 J1.465 K0.000 F1000.000
G1 X-3.552 Y10.850 Z2.260 F1000.000
G2 X-0.478 Y10.937 Z2.260 I1.540 J-0.037 K0.000 F1000.000
G0 Z8.000
G0 X-4.503 Y10.937 Z8.000
G0 X-4.503 Y10.937 Z6.000
G1 X-4.503 Y10.937 Z2.260 F200.000
G1 X-4.497 Y0.750 Z2.260 F1000.000
G2 X-5.640 Y-0.694 Z2.260 I-1.498 J0.011 K0.000 F1000.000
G2 X-7.569 Y0.641 Z2.260 I-0.413 J1.465 K0.000 F1000.000
G1 X-7.577 Y10.850 Z2.260 F1000.000
G2 X-4.503 Y10.937 Z2.260 I1.540 J-0.037 K0.000 F1000.000
G1 X-4.503 Y10.937 Z1.520 F200.000
G1 X-4.497 Y0.750 Z1.520 F1000.000
G2 X-5.640 Y-0.694 Z1.520 I-1.498 J0.011 K0.000 F1000.000
G2 X-7.569 Y0.641 Z1.520 I-0.413 J1.465 K0.000 F1000.000
G1 X-7.577 Y10.850 Z1.520 F1000.000
G2 X-4.503 Y10.937 Z1.520 I1.540 J-0.037 K0.000 F1000.000
G0 Z8.000
G0 X-3.551 Y10.890 Z8.000
G0 X-3.551 Y10.890 Z6.000
G1 X-3.551 Y10.890 Z1.520 F200.000
G2 X-0.478 Y10.937 Z1.520 I1.538 J-0.077 K0.000 F1000.000
G1 X-0.472 Y0.750 Z1.520 F1000.000
G2 X-1.615 Y-0.694 Z1.520 I-1.496 J0.009 K0.000 F1000.000
G2 X-3.544 Y0.641 Z1.520 I-0.413 J1.465 K0.000 F1000.000
G1 X-3.552 Y10.850 Z1.520 F1000.000
G2 X-3.551 Y10.890 Z1.520 I1.540 J-0.037 K0.000 F1000.000
G0 Z8.000
G0 X0.472 Y10.850 Z8.000
G0 X0.472 Y10.850 Z6.000
G1 X0.472 Y10.850 Z1.520 F200.000
G2 X3.547 Y10.937 Z1.520 I1.540 J-0.037 K0.000 F1000.000
G1 X3.552 Y0.750 Z1.520 F1000.000
G2 X2.410 Y-0.694 Z1.520 I-1.496 J0.009 K0.000 F1000.000
G2 X0.480 Y0.641 Z1.520 I-0.413 J1.465 K0.000 F1000.000
G1 X0.472 Y10.850 Z1.520 F1000.000
G0 Z8.000
G0 X4.497 Z8.000
G0 X4.497 Z6.000
G1 X4.497 Y10.850 Z1.520 F200.000
G2 X7.572 Y10.937 Z1.520 I1.540 J-0.037 K0.000 F1000.000
G1 X7.577 Y0.750 Z1.520 F1000.000
G2 X6.435 Y-0.694 Z1.520 I-1.498 J0.011 K0.000 F1000.000
G2 X4.505 Y0.641 Z1.520 I-0.413 J1.465 K0.000 F1000.000
G1 X4.497 Y10.850 Z1.520 F1000.000
G1 X4.497 Y10.850 Z0.780 F200.000
G2 X7.572 Y10.937 Z0.780 I1.540 J-0.037 K0.000 F1000.000
G1 X7.577 Y0.750 Z0.780 F1000.000
G2 X6.435 Y-0.694 Z0.780 I-1.498 J0.011 K0.000 F1000.000
G2 X4.505 Y0.641 Z0.780 I-0.413 J1.465 K0.000 F1000.000
G1 X4.497 Y10.850 Z0.780 F1000.000
G0 Z8.000
G0 X3.547 Y10.850 Z8.000
G0 X3.547 Y10.850 Z6.000
G1 X3.547 Y10.850 Z0.780 F200.000
G1 X3.552 Y0.750 Z0.780 F1000.000
G2 X2.410 Y-0.694 Z0.780 I-1.496 J0.009 K0.000 F1000.000
G2 X0.480 Y0.641 Z0.780 I-0.413 J1.465 K0.000 F1000.000
G1 X0.472 Y10.850 Z0.780 F1000.000
G2 X3.547 Y10.937 Z0.780 I1.540 J-0.037 K0.000 F1000.000
G1 X3.547 Y10.850 Z0.780 F1000.000
G0 Z8.000
G0 X-0.478 Y10.847 Z8.000
G0 X-0.478 Y10.847 Z6.000
G1 X-0.478 Y10.847 Z0.780 F200.000
G1 X-0.472 Y0.750 Z0.780 F1000.000
G2 X-1.615 Y-0.694 Z0.780 I-1.496 J0.009 K0.000 F1000.000
G2 X-3.544 Y0.641 Z0.780 I-0.413 J1.465 K0.000 F1000.000
G1 X-3.552 Y10.850 Z0.780 F1000.000
G2 X-0.478 Y10.937 Z0.780 I1.540 J-0.037 K0.000 F1000.000
G1 X-0.478 Y10.847 Z0.780 F1000.000
G0 Z8.000
G0 X-4.502 Y10.845 Z8.000
G0 X-4.502 Y10.845 Z6.000
G1 X-4.502 Y10.845 Z0.780 F200.000
G1 X-4.497 Y0.750 Z0.780 F1000.000
G2 X-5.640 Y-0.694 Z0.780 I-1.498 J0.011 K0.000 F1000.000
G2 X-7.569 Y0.641 Z0.780 I-0.413 J1.465 K0.000 F1000.000
G1 X-7.577 Y10.850 Z0.780 F1000.000
G2 X-4.503 Y10.937 Z0.780 I1.540 J-0.037 K0.000 F1000.000
G1 X-4.502 Y10.845 Z0.780 F1000.000
G1 X-4.502 Y10.845 Z0.040 F200.000
G1 X-4.497 Y0.750 Z0.040 F1000.000
G2 X-5.640 Y-0.694 Z0.040 I-1.498 J0.011 K0.000 F1000.000
G2 X-7.569 Y0.641 Z0.040 I-0.413 J1.465 K0.000 F1000.000
G1 X-7.577 Y10.850 Z0.040 F1000.000
G2 X-4.503 Y10.937 Z0.040 I1.540 J-0.037 K0.000 F1000.000
G1 X-4.502 Y10.845 Z0.040 F1000.000
G0 Z8.000
G0 X-3.552 Y10.850 Z8.000
G0 X-3.552 Y10.850 Z6.000
G1 X-3.552 Y10.850 Z0.040 F200.000
G2 X-0.478 Y10.937 Z0.040 I1.540 J-0.037 K0.000 F1000.000
G1 X-0.472 Y0.750 Z0.040 F1000.000
G2 X-1.615 Y-0.694 Z0.040 I-1.496 J0.009 K0.000 F1000.000
G2 X-3.544 Y0.641 Z0.040 I-0.413 J1.465 K0.000 F1000.000
G1 X-3.552 Y10.850 Z0.040 F1000.000
G0 Z8.000
G0 X0.472 Z8.000
G0 X0.472 Z6.000
G1 X0.472 Y10.850 Z0.040 F200.000
G2 X3.547 Y10.937 Z0.040 I1.540 J-0.037 K0.000 F1000.000
G1 X3.552 Y0.750 Z0.040 F1000.000
G2 X2.410 Y-0.694 Z0.040 I-1.496 J0.009 K0.000 F1000.000
G2 X0.480 Y0.641 Z0.040 I-0.413 J1.465 K0.000 F1000.000
G1 X0.472 Y10.850 Z0.040 F1000.000
G0 Z8.000
G0 X4.497 Z8.000
G0 X4.497 Z6.000
G1 X4.497 Y10.850 Z0.040 F200.000
G2 X7.572 Y10.937 Z0.040 I1.540 J-0.037 K0.000 F1000.000
G1 X7.577 Y0.750 Z0.040 F1000.000
G2 X6.435 Y-0.694 Z0.040 I-1.498 J0.011 K0.000 F1000.000
G2 X4.505 Y0.641 Z0.040 I-0.413 J1.465 K0.000 F1000.000
G1 X4.497 Y10.850 Z0.040 F1000.000
G1 X4.497 Y10.850 Z0.000 F200.000
G2 X7.572 Y10.937 Z0.000 I1.540 J-0.037 K0.000 F1000.000
G1 X7.577 Y0.750 Z0.000 F1000.000
G2 X6.435 Y-0.694 Z0.000 I-1.498 J0.011 K0.000 F1000.000
G2 X4.505 Y0.641 Z0.000 I-0.413 J1.465 K0.000 F1000.000
G1 X4.497 Y10.850 Z0.000 F1000.000
G0 Z8.000
G0 X3.547 Y10.850 Z8.000
G0 X3.547 Y10.850 Z6.000
G1 X3.547 Y10.850 Z0.000 F200.000
G1 X3.552 Y0.750 Z0.000 F1000.000
G2 X2.410 Y-0.694 Z0.000 I-1.496 J0.009 K0.000 F1000.000
G2 X0.480 Y0.641 Z0.000 I-0.413 J1.465 K0.000 F1000.000
G1 X0.472 Y10.850 Z0.000 F1000.000
G2 X3.547 Y10.937 Z0.000 I1.540 J-0.037 K0.000 F1000.000
G1 X3.547 Y10.850 Z0.000 F1000.000
G0 Z8.000
G0 X-0.478 Y10.847 Z8.000
G0 X-0.478 Y10.847 Z6.000
G1 X-0.478 Y10.847 Z0.000 F200.000
G1 X-0.472 Y0.750 Z0.000 F1000.000
G2 X-1.615 Y-0.694 Z0.000 I-1.496 J0.009 K0.000 F1000.000
G2 X-3.544 Y0.641 Z0.000 I-0.413 J1.465 K0.000 F1000.000
G1 X-3.552 Y10.850 Z0.000 F1000.000
G2 X-0.478 Y10.937 Z0.000 I1.540 J-0.037 K0.000 F1000.000
G1 X-0.478 Y10.847 Z0.000 F1000.000
G0 Z8.000
G0 X-4.502 Y10.845 Z8.000
G0 X-4.502 Y10.845 Z6.000
G1 X-4.502 Y10.845 Z0.000 F200.000
G1 X-4.497 Y0.750 Z0.000 F1000.000
G2 X-5.640 Y-0.694 Z0.000 I-1.498 J0.011 K0.000 F1000.000
G2 X-7.569 Y0.641 Z0.000 I-0.413 J1.465 K0.000 F1000.000
G1 X-7.577 Y10.850 Z0.000 F1000.000
G2 X-4.503 Y10.937 Z0.000 I1.540 J-0.037 K0.000 F1000.000
G1 X-4.502 Y10.845 Z0.000 F1000.000
G0 Z8.000
G0 Z8.000
(Finish operation: Profile)
(Begin postamble)
M5
G17 G90
M2
