(Exported by FreeCAD)
(Post Processor: grbl_post)
(Output Time:2024-01-01 14:35:39.622709)
(Begin preamble)
G17 G90
G21
(Begin operation: TC: 0.5mm_droite)
(Path: TC: 0.5mm_droite)
(TC: 0.5mm_droite)
(Begin toolchange)
( M6 T2 )
M3 S24000
(Finish operation: TC: 0.5mm_droite)
(Begin operation: Fixture)
(Path: Fixture)
G54
(Finish operation: Fixture)
(Begin operation: Frettes)
(Path: Frettes)
(Frettes)
G0 Z12.240
G0 X23.748 Y36.527
G0 Z10.240
G1 X23.748 Y36.527 Z7.040 F60.000
G1 X23.747 Y36.457 Z7.040 F120.000
G1 X-23.874 Y36.457 Z7.040 F120.000
G1 X-23.875 Y36.527 Z7.040 F120.000
G1 X23.748 Y36.527 Z7.040 F120.000
G1 X23.748 Y36.527 Z6.840 F60.000
G1 X23.747 Y36.457 Z6.840 F120.000
G1 X-23.874 Y36.457 Z6.840 F120.000
G1 X-23.875 Y36.527 Z6.840 F120.000
G1 X23.748 Y36.527 Z6.840 F120.000
G1 X23.748 Y36.527 Z6.640 F60.000
G1 X23.747 Y36.457 Z6.640 F120.000
G1 X-23.874 Y36.457 Z6.640 F120.000
G1 X-23.875 Y36.527 Z6.640 F120.000
G1 X23.748 Y36.527 Z6.640 F120.000
G1 X23.748 Y36.527 Z6.440 F60.000
G1 X23.747 Y36.457 Z6.440 F120.000
G1 X-23.874 Y36.457 Z6.440 F120.000
G1 X-23.875 Y36.527 Z6.440 F120.000
G1 X23.748 Y36.527 Z6.440 F120.000
G1 X23.748 Y36.527 Z6.240 F60.000
G1 X23.747 Y36.457 Z6.240 F120.000
G1 X-23.874 Y36.457 Z6.240 F120.000
G1 X-23.875 Y36.527 Z6.240 F120.000
G1 X23.748 Y36.527 Z6.240 F120.000
G1 X23.748 Y36.527 Z6.040 F60.000
G1 X23.747 Y36.457 Z6.040 F120.000
G1 X-23.874 Y36.457 Z6.040 F120.000
G1 X-23.875 Y36.527 Z6.040 F120.000
G1 X23.748 Y36.527 Z6.040 F120.000
G1 X23.748 Y36.527 Z5.840 F60.000
G1 X23.747 Y36.457 Z5.840 F120.000
G1 X-23.874 Y36.457 Z5.840 F120.000
G1 X-23.875 Y36.527 Z5.840 F120.000
G1 X23.748 Y36.527 Z5.840 F120.000
G1 X23.748 Y36.527 Z5.640 F60.000
G1 X23.747 Y36.457 Z5.640 F120.000
G1 X-23.874 Y36.457 Z5.640 F120.000
G1 X-23.875 Y36.527 Z5.640 F120.000
G1 X23.748 Y36.527 Z5.640 F120.000
G1 X23.748 Y36.527 Z5.440 F60.000
G1 X23.747 Y36.457 Z5.440 F120.000
G1 X-23.874 Y36.457 Z5.440 F120.000
G1 X-23.875 Y36.527 Z5.440 F120.000
G1 X23.748 Y36.527 Z5.440 F120.000
G1 X23.748 Y36.527 Z5.240 F60.000
G1 X23.747 Y36.457 Z5.240 F120.000
G1 X-23.874 Y36.457 Z5.240 F120.000
G1 X-23.875 Y36.527 Z5.240 F120.000
G1 X23.748 Y36.527 Z5.240 F120.000
G1 X23.748 Y36.527 Z5.100 F60.000
G1 X23.747 Y36.457 Z5.100 F120.000
G1 X-23.874 Y36.457 Z5.100 F120.000
G1 X-23.875 Y36.527 Z5.100 F120.000
G1 X23.748 Y36.527 Z5.100 F120.000
G0 Z12.240
G0 Z12.240
G0 X23.748 Y36.527
G0 Y70.891
G0 Y70.891 Z10.240
G1 X23.748 Y70.891 Z7.040 F60.000
G1 X-24.404 Y70.891 Z7.040 F120.000
G1 X-24.405 Y70.961 Z7.040 F120.000
G1 X24.278 Y70.961 Z7.040 F120.000
G1 X24.277 Y70.891 Z7.040 F120.000
G1 X23.748 Y70.891 Z7.040 F120.000
G1 X23.748 Y70.891 Z6.840 F60.000
G1 X-24.404 Y70.891 Z6.840 F120.000
G1 X-24.405 Y70.961 Z6.840 F120.000
G1 X24.278 Y70.961 Z6.840 F120.000
G1 X24.277 Y70.891 Z6.840 F120.000
G1 X23.748 Y70.891 Z6.840 F120.000
G1 X23.748 Y70.891 Z6.640 F60.000
G1 X-24.404 Y70.891 Z6.640 F120.000
G1 X-24.405 Y70.961 Z6.640 F120.000
G1 X24.278 Y70.961 Z6.640 F120.000
G1 X24.277 Y70.891 Z6.640 F120.000
G1 X23.748 Y70.891 Z6.640 F120.000
G1 X23.748 Y70.891 Z6.440 F60.000
G1 X-24.404 Y70.891 Z6.440 F120.000
G1 X-24.405 Y70.961 Z6.440 F120.000
G1 X24.278 Y70.961 Z6.440 F120.000
G1 X24.277 Y70.891 Z6.440 F120.000
G1 X23.748 Y70.891 Z6.440 F120.000
G1 X23.748 Y70.891 Z6.240 F60.000
G1 X-24.404 Y70.891 Z6.240 F120.000
G1 X-24.405 Y70.961 Z6.240 F120.000
G1 X24.278 Y70.961 Z6.240 F120.000
G1 X24.277 Y70.891 Z6.240 F120.000
G1 X23.748 Y70.891 Z6.240 F120.000
G1 X23.748 Y70.891 Z6.040 F60.000
G1 X-24.404 Y70.891 Z6.040 F120.000
G1 X-24.405 Y70.961 Z6.040 F120.000
G1 X24.278 Y70.961 Z6.040 F120.000
G1 X24.277 Y70.891 Z6.040 F120.000
G1 X23.748 Y70.891 Z6.040 F120.000
G1 X23.748 Y70.891 Z5.840 F60.000
G1 X-24.404 Y70.891 Z5.840 F120.000
G1 X-24.405 Y70.961 Z5.840 F120.000
G1 X24.278 Y70.961 Z5.840 F120.000
G1 X24.277 Y70.891 Z5.840 F120.000
G1 X23.748 Y70.891 Z5.840 F120.000
G1 X23.748 Y70.891 Z5.640 F60.000
G1 X-24.404 Y70.891 Z5.640 F120.000
G1 X-24.405 Y70.961 Z5.640 F120.000
G1 X24.278 Y70.961 Z5.640 F120.000
G1 X24.277 Y70.891 Z5.640 F120.000
G1 X23.748 Y70.891 Z5.640 F120.000
G1 X23.748 Y70.891 Z5.440 F60.000
G1 X-24.404 Y70.891 Z5.440 F120.000
G1 X-24.405 Y70.961 Z5.440 F120.000
G1 X24.278 Y70.961 Z5.440 F120.000
G1 X24.277 Y70.891 Z5.440 F120.000
G1 X23.748 Y70.891 Z5.440 F120.000
G1 X23.748 Y70.891 Z5.240 F60.000
G1 X-24.404 Y70.891 Z5.240 F120.000
G1 X-24.405 Y70.961 Z5.240 F120.000
G1 X24.278 Y70.961 Z5.240 F120.000
G1 X24.277 Y70.891 Z5.240 F120.000
G1 X23.748 Y70.891 Z5.240 F120.000
G1 X23.748 Y70.891 Z5.100 F60.000
G1 X-24.404 Y70.891 Z5.100 F120.000
G1 X-24.405 Y70.961 Z5.100 F120.000
G1 X24.278 Y70.961 Z5.100 F120.000
G1 X24.277 Y70.891 Z5.100 F120.000
G1 X23.748 Y70.891 Z5.100 F120.000
G0 Z12.240
G0 Z12.240
G0 X23.748 Y70.891
G0 Y103.392
G0 Y103.392 Z10.240
G1 X23.748 Y103.392 Z7.040 F60.000
G1 X-24.904 Y103.392 Z7.040 F120.000
G1 X-24.905 Y103.462 Z7.040 F120.000
G1 X24.778 Y103.462 Z7.040 F120.000
G1 X24.777 Y103.392 Z7.040 F120.000
G1 X23.748 Y103.392 Z7.040 F120.000
G1 X23.748 Y103.392 Z6.840 F60.000
G1 X-24.904 Y103.392 Z6.840 F120.000
G1 X-24.905 Y103.462 Z6.840 F120.000
G1 X24.778 Y103.462 Z6.840 F120.000
G1 X24.777 Y103.392 Z6.840 F120.000
G1 X23.748 Y103.392 Z6.840 F120.000
G1 X23.748 Y103.392 Z6.640 F60.000
G1 X-24.904 Y103.392 Z6.640 F120.000
G1 X-24.905 Y103.462 Z6.640 F120.000
G1 X24.778 Y103.462 Z6.640 F120.000
G1 X24.777 Y103.392 Z6.640 F120.000
G1 X23.748 Y103.392 Z6.640 F120.000
G1 X23.748 Y103.392 Z6.440 F60.000
G1 X-24.904 Y103.392 Z6.440 F120.000
G1 X-24.905 Y103.462 Z6.440 F120.000
G1 X24.778 Y103.462 Z6.440 F120.000
G1 X24.777 Y103.392 Z6.440 F120.000
G1 X23.748 Y103.392 Z6.440 F120.000
G1 X23.748 Y103.392 Z6.240 F60.000
G1 X-24.904 Y103.392 Z6.240 F120.000
G1 X-24.905 Y103.462 Z6.240 F120.000
G1 X24.778 Y103.462 Z6.240 F120.000
G1 X24.777 Y103.392 Z6.240 F120.000
G1 X23.748 Y103.392 Z6.240 F120.000
G1 X23.748 Y103.392 Z6.040 F60.000
G1 X-24.904 Y103.392 Z6.040 F120.000
G1 X-24.905 Y103.462 Z6.040 F120.000
G1 X24.778 Y103.462 Z6.040 F120.000
G1 X24.777 Y103.392 Z6.040 F120.000
G1 X23.748 Y103.392 Z6.040 F120.000
G1 X23.748 Y103.392 Z5.840 F60.000
G1 X-24.904 Y103.392 Z5.840 F120.000
G1 X-24.905 Y103.462 Z5.840 F120.000
G1 X24.778 Y103.462 Z5.840 F120.000
G1 X24.777 Y103.392 Z5.840 F120.000
G1 X23.748 Y103.392 Z5.840 F120.000
G1 X23.748 Y103.392 Z5.640 F60.000
G1 X-24.904 Y103.392 Z5.640 F120.000
G1 X-24.905 Y103.462 Z5.640 F120.000
G1 X24.778 Y103.462 Z5.640 F120.000
G1 X24.777 Y103.392 Z5.640 F120.000
G1 X23.748 Y103.392 Z5.640 F120.000
G1 X23.748 Y103.392 Z5.440 F60.000
G1 X-24.904 Y103.392 Z5.440 F120.000
G1 X-24.905 Y103.462 Z5.440 F120.000
G1 X24.778 Y103.462 Z5.440 F120.000
G1 X24.777 Y103.392 Z5.440 F120.000
G1 X23.748 Y103.392 Z5.440 F120.000
G1 X23.748 Y103.392 Z5.240 F60.000
G1 X-24.904 Y103.392 Z5.240 F120.000
G1 X-24.905 Y103.462 Z5.240 F120.000
G1 X24.778 Y103.462 Z5.240 F120.000
G1 X24.777 Y103.392 Z5.240 F120.000
G1 X23.748 Y103.392 Z5.240 F120.000
G1 X23.748 Y103.392 Z5.100 F60.000
G1 X-24.904 Y103.392 Z5.100 F120.000
G1 X-24.905 Y103.462 Z5.100 F120.000
G1 X24.778 Y103.462 Z5.100 F120.000
G1 X24.777 Y103.392 Z5.100 F120.000
G1 X23.748 Y103.392 Z5.100 F120.000
G0 Z12.240
G0 Z12.240
G0 X23.748 Y103.392
G0 Y134.069
G0 Y134.069 Z10.240
G1 X23.748 Y134.069 Z7.040 F60.000
G1 X-25.376 Y134.069 Z7.040 F120.000
G1 X-25.377 Y134.139 Z7.040 F120.000
G1 X25.250 Y134.139 Z7.040 F120.000
G1 X25.249 Y134.069 Z7.040 F120.000
G1 X23.748 Y134.069 Z7.040 F120.000
G1 X23.748 Y134.069 Z6.840 F60.000
G1 X-25.376 Y134.069 Z6.840 F120.000
G1 X-25.377 Y134.139 Z6.840 F120.000
G1 X25.250 Y134.139 Z6.840 F120.000
G1 X25.249 Y134.069 Z6.840 F120.000
G1 X23.748 Y134.069 Z6.840 F120.000
G1 X23.748 Y134.069 Z6.640 F60.000
G1 X-25.376 Y134.069 Z6.640 F120.000
G1 X-25.377 Y134.139 Z6.640 F120.000
G1 X25.250 Y134.139 Z6.640 F120.000
G1 X25.249 Y134.069 Z6.640 F120.000
G1 X23.748 Y134.069 Z6.640 F120.000
G1 X23.748 Y134.069 Z6.440 F60.000
G1 X-25.376 Y134.069 Z6.440 F120.000
G1 X-25.377 Y134.139 Z6.440 F120.000
G1 X25.250 Y134.139 Z6.440 F120.000
G1 X25.249 Y134.069 Z6.440 F120.000
G1 X23.748 Y134.069 Z6.440 F120.000
G1 X23.748 Y134.069 Z6.240 F60.000
G1 X-25.376 Y134.069 Z6.240 F120.000
G1 X-25.377 Y134.139 Z6.240 F120.000
G1 X25.250 Y134.139 Z6.240 F120.000
G1 X25.249 Y134.069 Z6.240 F120.000
G1 X23.748 Y134.069 Z6.240 F120.000
G1 X23.748 Y134.069 Z6.040 F60.000
G1 X-25.376 Y134.069 Z6.040 F120.000
G1 X-25.377 Y134.139 Z6.040 F120.000
G1 X25.250 Y134.139 Z6.040 F120.000
G1 X25.249 Y134.069 Z6.040 F120.000
G1 X23.748 Y134.069 Z6.040 F120.000
G1 X23.748 Y134.069 Z5.840 F60.000
G1 X-25.376 Y134.069 Z5.840 F120.000
G1 X-25.377 Y134.139 Z5.840 F120.000
G1 X25.250 Y134.139 Z5.840 F120.000
G1 X25.249 Y134.069 Z5.840 F120.000
G1 X23.748 Y134.069 Z5.840 F120.000
G1 X23.748 Y134.069 Z5.640 F60.000
G1 X-25.376 Y134.069 Z5.640 F120.000
G1 X-25.377 Y134.139 Z5.640 F120.000
G1 X25.250 Y134.139 Z5.640 F120.000
G1 X25.249 Y134.069 Z5.640 F120.000
G1 X23.748 Y134.069 Z5.640 F120.000
G1 X23.748 Y134.069 Z5.440 F60.000
G1 X-25.376 Y134.069 Z5.440 F120.000
G1 X-25.377 Y134.139 Z5.440 F120.000
G1 X25.250 Y134.139 Z5.440 F120.000
G1 X25.249 Y134.069 Z5.440 F120.000
G1 X23.748 Y134.069 Z5.440 F120.000
G1 X23.748 Y134.069 Z5.240 F60.000
G1 X-25.376 Y134.069 Z5.240 F120.000
G1 X-25.377 Y134.139 Z5.240 F120.000
G1 X25.250 Y134.139 Z5.240 F120.000
G1 X25.249 Y134.069 Z5.240 F120.000
G1 X23.748 Y134.069 Z5.240 F120.000
G1 X23.748 Y134.069 Z5.100 F60.000
G1 X-25.376 Y134.069 Z5.100 F120.000
G1 X-25.377 Y134.139 Z5.100 F120.000
G1 X25.250 Y134.139 Z5.100 F120.000
G1 X25.249 Y134.069 Z5.100 F120.000
G1 X23.748 Y134.069 Z5.100 F120.000
G0 Z12.240
G0 Z12.240
G0 X23.748 Y134.069
G0 Y163.025
G0 Y163.025 Z10.240
G1 X23.748 Y163.025 Z7.040 F60.000
G1 X-25.821 Y163.025 Z7.040 F120.000
G1 X-25.823 Y163.095 Z7.040 F120.000
G1 X25.695 Y163.095 Z7.040 F120.000
G1 X25.694 Y163.025 Z7.040 F120.000
G1 X23.748 Y163.025 Z7.040 F120.000
G1 X23.748 Y163.025 Z6.840 F60.000
G1 X-25.821 Y163.025 Z6.840 F120.000
G1 X-25.823 Y163.095 Z6.840 F120.000
G1 X25.695 Y163.095 Z6.840 F120.000
G1 X25.694 Y163.025 Z6.840 F120.000
G1 X23.748 Y163.025 Z6.840 F120.000
G1 X23.748 Y163.025 Z6.640 F60.000
G1 X-25.821 Y163.025 Z6.640 F120.000
G1 X-25.823 Y163.095 Z6.640 F120.000
G1 X25.695 Y163.095 Z6.640 F120.000
G1 X25.694 Y163.025 Z6.640 F120.000
G1 X23.748 Y163.025 Z6.640 F120.000
G1 X23.748 Y163.025 Z6.440 F60.000
G1 X-25.821 Y163.025 Z6.440 F120.000
G1 X-25.823 Y163.095 Z6.440 F120.000
G1 X25.695 Y163.095 Z6.440 F120.000
G1 X25.694 Y163.025 Z6.440 F120.000
G1 X23.748 Y163.025 Z6.440 F120.000
G1 X23.748 Y163.025 Z6.240 F60.000
G1 X-25.821 Y163.025 Z6.240 F120.000
G1 X-25.823 Y163.095 Z6.240 F120.000
G1 X25.695 Y163.095 Z6.240 F120.000
G1 X25.694 Y163.025 Z6.240 F120.000
G1 X23.748 Y163.025 Z6.240 F120.000
G1 X23.748 Y163.025 Z6.040 F60.000
G1 X-25.821 Y163.025 Z6.040 F120.000
G1 X-25.823 Y163.095 Z6.040 F120.000
G1 X25.695 Y163.095 Z6.040 F120.000
G1 X25.694 Y163.025 Z6.040 F120.000
G1 X23.748 Y163.025 Z6.040 F120.000
G1 X23.748 Y163.025 Z5.840 F60.000
G1 X-25.821 Y163.025 Z5.840 F120.000
G1 X-25.823 Y163.095 Z5.840 F120.000
G1 X25.695 Y163.095 Z5.840 F120.000
G1 X25.694 Y163.025 Z5.840 F120.000
G1 X23.748 Y163.025 Z5.840 F120.000
G1 X23.748 Y163.025 Z5.640 F60.000
G1 X-25.821 Y163.025 Z5.640 F120.000
G1 X-25.823 Y163.095 Z5.640 F120.000
G1 X25.695 Y163.095 Z5.640 F120.000
G1 X25.694 Y163.025 Z5.640 F120.000
G1 X23.748 Y163.025 Z5.640 F120.000
G1 X23.748 Y163.025 Z5.440 F60.000
G1 X-25.821 Y163.025 Z5.440 F120.000
G1 X-25.823 Y163.095 Z5.440 F120.000
G1 X25.695 Y163.095 Z5.440 F120.000
G1 X25.694 Y163.025 Z5.440 F120.000
G1 X23.748 Y163.025 Z5.440 F120.000
G1 X23.748 Y163.025 Z5.240 F60.000
G1 X-25.821 Y163.025 Z5.240 F120.000
G1 X-25.823 Y163.095 Z5.240 F120.000
G1 X25.695 Y163.095 Z5.240 F120.000
G1 X25.694 Y163.025 Z5.240 F120.000
G1 X23.748 Y163.025 Z5.240 F120.000
G1 X23.748 Y163.025 Z5.100 F60.000
G1 X-25.821 Y163.025 Z5.100 F120.000
G1 X-25.823 Y163.095 Z5.100 F120.000
G1 X25.695 Y163.095 Z5.100 F120.000
G1 X25.694 Y163.025 Z5.100 F120.000
G1 X23.748 Y163.025 Z5.100 F120.000
G0 Z12.240
G0 Z12.240
G0 X23.748 Y163.025
G0 Y190.355
G0 Y190.355 Z10.240
G1 X23.748 Y190.355 Z7.040 F60.000
G1 X-26.242 Y190.355 Z7.040 F120.000
G1 X-26.243 Y190.425 Z7.040 F120.000
G1 X26.116 Y190.425 Z7.040 F120.000
G1 X26.115 Y190.355 Z7.040 F120.000
G1 X23.748 Y190.355 Z7.040 F120.000
G1 X23.748 Y190.355 Z6.840 F60.000
G1 X-26.242 Y190.355 Z6.840 F120.000
G1 X-26.243 Y190.425 Z6.840 F120.000
G1 X26.116 Y190.425 Z6.840 F120.000
G1 X26.115 Y190.355 Z6.840 F120.000
G1 X23.748 Y190.355 Z6.840 F120.000
G1 X23.748 Y190.355 Z6.640 F60.000
G1 X-26.242 Y190.355 Z6.640 F120.000
G1 X-26.243 Y190.425 Z6.640 F120.000
G1 X26.116 Y190.425 Z6.640 F120.000
G1 X26.115 Y190.355 Z6.640 F120.000
G1 X23.748 Y190.355 Z6.640 F120.000
G1 X23.748 Y190.355 Z6.440 F60.000
G1 X-26.242 Y190.355 Z6.440 F120.000
G1 X-26.243 Y190.425 Z6.440 F120.000
G1 X26.116 Y190.425 Z6.440 F120.000
G1 X26.115 Y190.355 Z6.440 F120.000
G1 X23.748 Y190.355 Z6.440 F120.000
G1 X23.748 Y190.355 Z6.240 F60.000
G1 X-26.242 Y190.355 Z6.240 F120.000
G1 X-26.243 Y190.425 Z6.240 F120.000
G1 X26.116 Y190.425 Z6.240 F120.000
G1 X26.115 Y190.355 Z6.240 F120.000
G1 X23.748 Y190.355 Z6.240 F120.000
G1 X23.748 Y190.355 Z6.040 F60.000
G1 X-26.242 Y190.355 Z6.040 F120.000
G1 X-26.243 Y190.425 Z6.040 F120.000
G1 X26.116 Y190.425 Z6.040 F120.000
G1 X26.115 Y190.355 Z6.040 F120.000
G1 X23.748 Y190.355 Z6.040 F120.000
G1 X23.748 Y190.355 Z5.840 F60.000
G1 X-26.242 Y190.355 Z5.840 F120.000
G1 X-26.243 Y190.425 Z5.840 F120.000
G1 X26.116 Y190.425 Z5.840 F120.000
G1 X26.115 Y190.355 Z5.840 F120.000
G1 X23.748 Y190.355 Z5.840 F120.000
G1 X23.748 Y190.355 Z5.640 F60.000
G1 X-26.242 Y190.355 Z5.640 F120.000
G1 X-26.243 Y190.425 Z5.640 F120.000
G1 X26.116 Y190.425 Z5.640 F120.000
G1 X26.115 Y190.355 Z5.640 F120.000
G1 X23.748 Y190.355 Z5.640 F120.000
G1 X23.748 Y190.355 Z5.440 F60.000
G1 X-26.242 Y190.355 Z5.440 F120.000
G1 X-26.243 Y190.425 Z5.440 F120.000
G1 X26.116 Y190.425 Z5.440 F120.000
G1 X26.115 Y190.355 Z5.440 F120.000
G1 X23.748 Y190.355 Z5.440 F120.000
G1 X23.748 Y190.355 Z5.240 F60.000
G1 X-26.242 Y190.355 Z5.240 F120.000
G1 X-26.243 Y190.425 Z5.240 F120.000
G1 X26.116 Y190.425 Z5.240 F120.000
G1 X26.115 Y190.355 Z5.240 F120.000
G1 X23.748 Y190.355 Z5.240 F120.000
G1 X23.748 Y190.355 Z5.100 F60.000
G1 X-26.242 Y190.355 Z5.100 F120.000
G1 X-26.243 Y190.425 Z5.100 F120.000
G1 X26.116 Y190.425 Z5.100 F120.000
G1 X26.115 Y190.355 Z5.100 F120.000
G1 X23.748 Y190.355 Z5.100 F120.000
G0 Z12.240
G0 Z12.240
G0 X23.748 Y190.355
G0 Y216.151
G0 Y216.151 Z10.240
G1 X23.748 Y216.151 Z7.040 F60.000
G1 X-26.639 Y216.151 Z7.040 F120.000
G1 X-26.640 Y216.221 Z7.040 F120.000
G1 X26.513 Y216.221 Z7.040 F120.000
G1 X26.512 Y216.151 Z7.040 F120.000
G1 X23.748 Y216.151 Z7.040 F120.000
G1 X23.748 Y216.151 Z6.840 F60.000
G1 X-26.639 Y216.151 Z6.840 F120.000
G1 X-26.640 Y216.221 Z6.840 F120.000
G1 X26.513 Y216.221 Z6.840 F120.000
G1 X26.512 Y216.151 Z6.840 F120.000
G1 X23.748 Y216.151 Z6.840 F120.000
G1 X23.748 Y216.151 Z6.640 F60.000
G1 X-26.639 Y216.151 Z6.640 F120.000
G1 X-26.640 Y216.221 Z6.640 F120.000
G1 X26.513 Y216.221 Z6.640 F120.000
G1 X26.512 Y216.151 Z6.640 F120.000
G1 X23.748 Y216.151 Z6.640 F120.000
G1 X23.748 Y216.151 Z6.440 F60.000
G1 X-26.639 Y216.151 Z6.440 F120.000
G1 X-26.640 Y216.221 Z6.440 F120.000
G1 X26.513 Y216.221 Z6.440 F120.000
G1 X26.512 Y216.151 Z6.440 F120.000
G1 X23.748 Y216.151 Z6.440 F120.000
G1 X23.748 Y216.151 Z6.240 F60.000
G1 X-26.639 Y216.151 Z6.240 F120.000
G1 X-26.640 Y216.221 Z6.240 F120.000
G1 X26.513 Y216.221 Z6.240 F120.000
G1 X26.512 Y216.151 Z6.240 F120.000
G1 X23.748 Y216.151 Z6.240 F120.000
G1 X23.748 Y216.151 Z6.040 F60.000
G1 X-26.639 Y216.151 Z6.040 F120.000
G1 X-26.640 Y216.221 Z6.040 F120.000
G1 X26.513 Y216.221 Z6.040 F120.000
G1 X26.512 Y216.151 Z6.040 F120.000
G1 X23.748 Y216.151 Z6.040 F120.000
G1 X23.748 Y216.151 Z5.840 F60.000
G1 X-26.639 Y216.151 Z5.840 F120.000
G1 X-26.640 Y216.221 Z5.840 F120.000
G1 X26.513 Y216.221 Z5.840 F120.000
G1 X26.512 Y216.151 Z5.840 F120.000
G1 X23.748 Y216.151 Z5.840 F120.000
G1 X23.748 Y216.151 Z5.640 F60.000
G1 X-26.639 Y216.151 Z5.640 F120.000
G1 X-26.640 Y216.221 Z5.640 F120.000
G1 X26.513 Y216.221 Z5.640 F120.000
G1 X26.512 Y216.151 Z5.640 F120.000
G1 X23.748 Y216.151 Z5.640 F120.000
G1 X23.748 Y216.151 Z5.440 F60.000
G1 X-26.639 Y216.151 Z5.440 F120.000
G1 X-26.640 Y216.221 Z5.440 F120.000
G1 X26.513 Y216.221 Z5.440 F120.000
G1 X26.512 Y216.151 Z5.440 F120.000
G1 X23.748 Y216.151 Z5.440 F120.000
G1 X23.748 Y216.151 Z5.240 F60.000
G1 X-26.639 Y216.151 Z5.240 F120.000
G1 X-26.640 Y216.221 Z5.240 F120.000
G1 X26.513 Y216.221 Z5.240 F120.000
G1 X26.512 Y216.151 Z5.240 F120.000
G1 X23.748 Y216.151 Z5.240 F120.000
G1 X23.748 Y216.151 Z5.100 F60.000
G1 X-26.639 Y216.151 Z5.100 F120.000
G1 X-26.640 Y216.221 Z5.100 F120.000
G1 X26.513 Y216.221 Z5.100 F120.000
G1 X26.512 Y216.151 Z5.100 F120.000
G1 X23.748 Y216.151 Z5.100 F120.000
G0 Z12.240
G0 Z12.240
G0 X23.748 Y216.151
G0 Y240.500
G0 Y240.500 Z10.240
G1 X23.748 Y240.500 Z7.040 F60.000
G1 X-27.013 Y240.500 Z7.040 F120.000
G1 X-27.014 Y240.570 Z7.040 F120.000
G1 X26.887 Y240.570 Z7.040 F120.000
G1 X26.886 Y240.500 Z7.040 F120.000
G1 X23.748 Y240.500 Z7.040 F120.000
G1 X23.748 Y240.500 Z6.840 F60.000
G1 X-27.013 Y240.500 Z6.840 F120.000
G1 X-27.014 Y240.570 Z6.840 F120.000
G1 X26.887 Y240.570 Z6.840 F120.000
G1 X26.886 Y240.500 Z6.840 F120.000
G1 X23.748 Y240.500 Z6.840 F120.000
G1 X23.748 Y240.500 Z6.640 F60.000
G1 X-27.013 Y240.500 Z6.640 F120.000
G1 X-27.014 Y240.570 Z6.640 F120.000
G1 X26.887 Y240.570 Z6.640 F120.000
G1 X26.886 Y240.500 Z6.640 F120.000
G1 X23.748 Y240.500 Z6.640 F120.000
G1 X23.748 Y240.500 Z6.440 F60.000
G1 X-27.013 Y240.500 Z6.440 F120.000
G1 X-27.014 Y240.570 Z6.440 F120.000
G1 X26.887 Y240.570 Z6.440 F120.000
G1 X26.886 Y240.500 Z6.440 F120.000
G1 X23.748 Y240.500 Z6.440 F120.000
G1 X23.748 Y240.500 Z6.240 F60.000
G1 X-27.013 Y240.500 Z6.240 F120.000
G1 X-27.014 Y240.570 Z6.240 F120.000
G1 X26.887 Y240.570 Z6.240 F120.000
G1 X26.886 Y240.500 Z6.240 F120.000
G1 X23.748 Y240.500 Z6.240 F120.000
G1 X23.748 Y240.500 Z6.040 F60.000
G1 X-27.013 Y240.500 Z6.040 F120.000
G1 X-27.014 Y240.570 Z6.040 F120.000
G1 X26.887 Y240.570 Z6.040 F120.000
G1 X26.886 Y240.500 Z6.040 F120.000
G1 X23.748 Y240.500 Z6.040 F120.000
G1 X23.748 Y240.500 Z5.840 F60.000
G1 X-27.013 Y240.500 Z5.840 F120.000
G1 X-27.014 Y240.570 Z5.840 F120.000
G1 X26.887 Y240.570 Z5.840 F120.000
G1 X26.886 Y240.500 Z5.840 F120.000
G1 X23.748 Y240.500 Z5.840 F120.000
G1 X23.748 Y240.500 Z5.640 F60.000
G1 X-27.013 Y240.500 Z5.640 F120.000
G1 X-27.014 Y240.570 Z5.640 F120.000
G1 X26.887 Y240.570 Z5.640 F120.000
G1 X26.886 Y240.500 Z5.640 F120.000
G1 X23.748 Y240.500 Z5.640 F120.000
G1 X23.748 Y240.500 Z5.440 F60.000
G1 X-27.013 Y240.500 Z5.440 F120.000
G1 X-27.014 Y240.570 Z5.440 F120.000
G1 X26.887 Y240.570 Z5.440 F120.000
G1 X26.886 Y240.500 Z5.440 F120.000
G1 X23.748 Y240.500 Z5.440 F120.000
G1 X23.748 Y240.500 Z5.240 F60.000
G1 X-27.013 Y240.500 Z5.240 F120.000
G1 X-27.014 Y240.570 Z5.240 F120.000
G1 X26.887 Y240.570 Z5.240 F120.000
G1 X26.886 Y240.500 Z5.240 F120.000
G1 X23.748 Y240.500 Z5.240 F120.000
G1 X23.748 Y240.500 Z5.100 F60.000
G1 X-27.013 Y240.500 Z5.100 F120.000
G1 X-27.014 Y240.570 Z5.100 F120.000
G1 X26.887 Y240.570 Z5.100 F120.000
G1 X26.886 Y240.500 Z5.100 F120.000
G1 X23.748 Y240.500 Z5.100 F120.000
G0 Z12.240
G0 Z12.240
G0 X23.748 Y240.500
G0 Y263.482
G0 Y263.482 Z10.240
G1 X23.748 Y263.482 Z7.040 F60.000
G1 X-27.367 Y263.482 Z7.040 F120.000
G1 X-27.368 Y263.552 Z7.040 F120.000
G1 X27.241 Y263.552 Z7.040 F120.000
G1 X27.240 Y263.482 Z7.040 F120.000
G1 X23.748 Y263.482 Z7.040 F120.000
G1 X23.748 Y263.482 Z6.840 F60.000
G1 X-27.367 Y263.482 Z6.840 F120.000
G1 X-27.368 Y263.552 Z6.840 F120.000
G1 X27.241 Y263.552 Z6.840 F120.000
G1 X27.240 Y263.482 Z6.840 F120.000
G1 X23.748 Y263.482 Z6.840 F120.000
G1 X23.748 Y263.482 Z6.640 F60.000
G1 X-27.367 Y263.482 Z6.640 F120.000
G1 X-27.368 Y263.552 Z6.640 F120.000
G1 X27.241 Y263.552 Z6.640 F120.000
G1 X27.240 Y263.482 Z6.640 F120.000
G1 X23.748 Y263.482 Z6.640 F120.000
G1 X23.748 Y263.482 Z6.440 F60.000
G1 X-27.367 Y263.482 Z6.440 F120.000
G1 X-27.368 Y263.552 Z6.440 F120.000
G1 X27.241 Y263.552 Z6.440 F120.000
G1 X27.240 Y263.482 Z6.440 F120.000
G1 X23.748 Y263.482 Z6.440 F120.000
G1 X23.748 Y263.482 Z6.240 F60.000
G1 X-27.367 Y263.482 Z6.240 F120.000
G1 X-27.368 Y263.552 Z6.240 F120.000
G1 X27.241 Y263.552 Z6.240 F120.000
G1 X27.240 Y263.482 Z6.240 F120.000
G1 X23.748 Y263.482 Z6.240 F120.000
G1 X23.748 Y263.482 Z6.040 F60.000
G1 X-27.367 Y263.482 Z6.040 F120.000
G1 X-27.368 Y263.552 Z6.040 F120.000
G1 X27.241 Y263.552 Z6.040 F120.000
G1 X27.240 Y263.482 Z6.040 F120.000
G1 X23.748 Y263.482 Z6.040 F120.000
G1 X23.748 Y263.482 Z5.840 F60.000
G1 X-27.367 Y263.482 Z5.840 F120.000
G1 X-27.368 Y263.552 Z5.840 F120.000
G1 X27.241 Y263.552 Z5.840 F120.000
G1 X27.240 Y263.482 Z5.840 F120.000
G1 X23.748 Y263.482 Z5.840 F120.000
G1 X23.748 Y263.482 Z5.640 F60.000
G1 X-27.367 Y263.482 Z5.640 F120.000
G1 X-27.368 Y263.552 Z5.640 F120.000
G1 X27.241 Y263.552 Z5.640 F120.000
G1 X27.240 Y263.482 Z5.640 F120.000
G1 X23.748 Y263.482 Z5.640 F120.000
G1 X23.748 Y263.482 Z5.440 F60.000
G1 X-27.367 Y263.482 Z5.440 F120.000
G1 X-27.368 Y263.552 Z5.440 F120.000
G1 X27.241 Y263.552 Z5.440 F120.000
G1 X27.240 Y263.482 Z5.440 F120.000
G1 X23.748 Y263.482 Z5.440 F120.000
G1 X23.748 Y263.482 Z5.240 F60.000
G1 X-27.367 Y263.482 Z5.240 F120.000
G1 X-27.368 Y263.552 Z5.240 F120.000
G1 X27.241 Y263.552 Z5.240 F120.000
G1 X27.240 Y263.482 Z5.240 F120.000
G1 X23.748 Y263.482 Z5.240 F120.000
G1 X23.748 Y263.482 Z5.100 F60.000
G1 X-27.367 Y263.482 Z5.100 F120.000
G1 X-27.368 Y263.552 Z5.100 F120.000
G1 X27.241 Y263.552 Z5.100 F120.000
G1 X27.240 Y263.482 Z5.100 F120.000
G1 X23.748 Y263.482 Z5.100 F120.000
G0 Z12.240
G0 Z12.240
G0 X23.748 Y263.482
G0 Y285.174
G0 Y285.174 Z10.240
G1 X23.748 Y285.174 Z7.040 F60.000
G1 X-27.701 Y285.174 Z7.040 F120.000
G1 X-27.702 Y285.244 Z7.040 F120.000
G1 X27.575 Y285.244 Z7.040 F120.000
G1 X27.574 Y285.174 Z7.040 F120.000
G1 X23.748 Y285.174 Z7.040 F120.000
G1 X23.748 Y285.174 Z6.840 F60.000
G1 X-27.701 Y285.174 Z6.840 F120.000
G1 X-27.702 Y285.244 Z6.840 F120.000
G1 X27.575 Y285.244 Z6.840 F120.000
G1 X27.574 Y285.174 Z6.840 F120.000
G1 X23.748 Y285.174 Z6.840 F120.000
G1 X23.748 Y285.174 Z6.640 F60.000
G1 X-27.701 Y285.174 Z6.640 F120.000
G1 X-27.702 Y285.244 Z6.640 F120.000
G1 X27.575 Y285.244 Z6.640 F120.000
G1 X27.574 Y285.174 Z6.640 F120.000
G1 X23.748 Y285.174 Z6.640 F120.000
G1 X23.748 Y285.174 Z6.440 F60.000
G1 X-27.701 Y285.174 Z6.440 F120.000
G1 X-27.702 Y285.244 Z6.440 F120.000
G1 X27.575 Y285.244 Z6.440 F120.000
G1 X27.574 Y285.174 Z6.440 F120.000
G1 X23.748 Y285.174 Z6.440 F120.000
G1 X23.748 Y285.174 Z6.240 F60.000
G1 X-27.701 Y285.174 Z6.240 F120.000
G1 X-27.702 Y285.244 Z6.240 F120.000
G1 X27.575 Y285.244 Z6.240 F120.000
G1 X27.574 Y285.174 Z6.240 F120.000
G1 X23.748 Y285.174 Z6.240 F120.000
G1 X23.748 Y285.174 Z6.040 F60.000
G1 X-27.701 Y285.174 Z6.040 F120.000
G1 X-27.702 Y285.244 Z6.040 F120.000
G1 X27.575 Y285.244 Z6.040 F120.000
G1 X27.574 Y285.174 Z6.040 F120.000
G1 X23.748 Y285.174 Z6.040 F120.000
G1 X23.748 Y285.174 Z5.840 F60.000
G1 X-27.701 Y285.174 Z5.840 F120.000
G1 X-27.702 Y285.244 Z5.840 F120.000
G1 X27.575 Y285.244 Z5.840 F120.000
G1 X27.574 Y285.174 Z5.840 F120.000
G1 X23.748 Y285.174 Z5.840 F120.000
G1 X23.748 Y285.174 Z5.640 F60.000
G1 X-27.701 Y285.174 Z5.640 F120.000
G1 X-27.702 Y285.244 Z5.640 F120.000
G1 X27.575 Y285.244 Z5.640 F120.000
G1 X27.574 Y285.174 Z5.640 F120.000
G1 X23.748 Y285.174 Z5.640 F120.000
G1 X23.748 Y285.174 Z5.440 F60.000
G1 X-27.701 Y285.174 Z5.440 F120.000
G1 X-27.702 Y285.244 Z5.440 F120.000
G1 X27.575 Y285.244 Z5.440 F120.000
G1 X27.574 Y285.174 Z5.440 F120.000
G1 X23.748 Y285.174 Z5.440 F120.000
G1 X23.748 Y285.174 Z5.240 F60.000
G1 X-27.701 Y285.174 Z5.240 F120.000
G1 X-27.702 Y285.244 Z5.240 F120.000
G1 X27.575 Y285.244 Z5.240 F120.000
G1 X27.574 Y285.174 Z5.240 F120.000
G1 X23.748 Y285.174 Z5.240 F120.000
G1 X23.748 Y285.174 Z5.100 F60.000
G1 X-27.701 Y285.174 Z5.100 F120.000
G1 X-27.702 Y285.244 Z5.100 F120.000
G1 X27.575 Y285.244 Z5.100 F120.000
G1 X27.574 Y285.174 Z5.100 F120.000
G1 X23.748 Y285.174 Z5.100 F120.000
G0 Z12.240
G0 Z12.240
G0 X23.748 Y285.174
G0 Y305.649
G0 Y305.649 Z10.240
G1 X23.748 Y305.649 Z7.040 F60.000
G1 X-28.016 Y305.649 Z7.040 F120.000
G1 X-28.017 Y305.719 Z7.040 F120.000
G1 X27.890 Y305.719 Z7.040 F120.000
G1 X27.889 Y305.649 Z7.040 F120.000
G1 X23.748 Y305.649 Z7.040 F120.000
G1 X23.748 Y305.649 Z6.840 F60.000
G1 X-28.016 Y305.649 Z6.840 F120.000
G1 X-28.017 Y305.719 Z6.840 F120.000
G1 X27.890 Y305.719 Z6.840 F120.000
G1 X27.889 Y305.649 Z6.840 F120.000
G1 X23.748 Y305.649 Z6.840 F120.000
G1 X23.748 Y305.649 Z6.640 F60.000
G1 X-28.016 Y305.649 Z6.640 F120.000
G1 X-28.017 Y305.719 Z6.640 F120.000
G1 X27.890 Y305.719 Z6.640 F120.000
G1 X27.889 Y305.649 Z6.640 F120.000
G1 X23.748 Y305.649 Z6.640 F120.000
G1 X23.748 Y305.649 Z6.440 F60.000
G1 X-28.016 Y305.649 Z6.440 F120.000
G1 X-28.017 Y305.719 Z6.440 F120.000
G1 X27.890 Y305.719 Z6.440 F120.000
G1 X27.889 Y305.649 Z6.440 F120.000
G1 X23.748 Y305.649 Z6.440 F120.000
G1 X23.748 Y305.649 Z6.240 F60.000
G1 X-28.016 Y305.649 Z6.240 F120.000
G1 X-28.017 Y305.719 Z6.240 F120.000
G1 X27.890 Y305.719 Z6.240 F120.000
G1 X27.889 Y305.649 Z6.240 F120.000
G1 X23.748 Y305.649 Z6.240 F120.000
G1 X23.748 Y305.649 Z6.040 F60.000
G1 X-28.016 Y305.649 Z6.040 F120.000
G1 X-28.017 Y305.719 Z6.040 F120.000
G1 X27.890 Y305.719 Z6.040 F120.000
G1 X27.889 Y305.649 Z6.040 F120.000
G1 X23.748 Y305.649 Z6.040 F120.000
G1 X23.748 Y305.649 Z5.840 F60.000
G1 X-28.016 Y305.649 Z5.840 F120.000
G1 X-28.017 Y305.719 Z5.840 F120.000
G1 X27.890 Y305.719 Z5.840 F120.000
G1 X27.889 Y305.649 Z5.840 F120.000
G1 X23.748 Y305.649 Z5.840 F120.000
G1 X23.748 Y305.649 Z5.640 F60.000
G1 X-28.016 Y305.649 Z5.640 F120.000
G1 X-28.017 Y305.719 Z5.640 F120.000
G1 X27.890 Y305.719 Z5.640 F120.000
G1 X27.889 Y305.649 Z5.640 F120.000
G1 X23.748 Y305.649 Z5.640 F120.000
G1 X23.748 Y305.649 Z5.440 F60.000
G1 X-28.016 Y305.649 Z5.440 F120.000
G1 X-28.017 Y305.719 Z5.440 F120.000
G1 X27.890 Y305.719 Z5.440 F120.000
G1 X27.889 Y305.649 Z5.440 F120.000
G1 X23.748 Y305.649 Z5.440 F120.000
G1 X23.748 Y305.649 Z5.240 F60.000
G1 X-28.016 Y305.649 Z5.240 F120.000
G1 X-28.017 Y305.719 Z5.240 F120.000
G1 X27.890 Y305.719 Z5.240 F120.000
G1 X27.889 Y305.649 Z5.240 F120.000
G1 X23.748 Y305.649 Z5.240 F120.000
G1 X23.748 Y305.649 Z5.100 F60.000
G1 X-28.016 Y305.649 Z5.100 F120.000
G1 X-28.017 Y305.719 Z5.100 F120.000
G1 X27.890 Y305.719 Z5.100 F120.000
G1 X27.889 Y305.649 Z5.100 F120.000
G1 X23.748 Y305.649 Z5.100 F120.000
G0 Z12.240
G0 Z12.240
G0 X23.748 Y305.649
G0 Y324.975
G0 Y324.975 Z10.240
G1 X23.748 Y324.975 Z7.040 F60.000
G1 X-28.309 Y324.975 Z7.040 F120.000
G1 X-28.309 Y325.045 Z7.040 F120.000
G1 X28.187 Y325.045 Z7.040 F120.000
G1 X28.186 Y324.975 Z7.040 F120.000
G1 X23.748 Y324.975 Z7.040 F120.000
G1 X23.748 Y324.975 Z6.840 F60.000
G1 X-28.309 Y324.975 Z6.840 F120.000
G1 X-28.309 Y325.045 Z6.840 F120.000
G1 X28.187 Y325.045 Z6.840 F120.000
G1 X28.186 Y324.975 Z6.840 F120.000
G1 X23.748 Y324.975 Z6.840 F120.000
G1 X23.748 Y324.975 Z6.640 F60.000
G1 X-28.309 Y324.975 Z6.640 F120.000
G1 X-28.309 Y325.045 Z6.640 F120.000
G1 X28.187 Y325.045 Z6.640 F120.000
G1 X28.186 Y324.975 Z6.640 F120.000
G1 X23.748 Y324.975 Z6.640 F120.000
G1 X23.748 Y324.975 Z6.440 F60.000
G1 X-28.309 Y324.975 Z6.440 F120.000
G1 X-28.309 Y325.045 Z6.440 F120.000
G1 X28.187 Y325.045 Z6.440 F120.000
G1 X28.186 Y324.975 Z6.440 F120.000
G1 X23.748 Y324.975 Z6.440 F120.000
G1 X23.748 Y324.975 Z6.240 F60.000
G1 X-28.309 Y324.975 Z6.240 F120.000
G1 X-28.309 Y325.045 Z6.240 F120.000
G1 X28.187 Y325.045 Z6.240 F120.000
G1 X28.186 Y324.975 Z6.240 F120.000
G1 X23.748 Y324.975 Z6.240 F120.000
G1 X23.748 Y324.975 Z6.040 F60.000
G1 X-28.309 Y324.975 Z6.040 F120.000
G1 X-28.309 Y325.045 Z6.040 F120.000
G1 X28.187 Y325.045 Z6.040 F120.000
G1 X28.186 Y324.975 Z6.040 F120.000
G1 X23.748 Y324.975 Z6.040 F120.000
G1 X23.748 Y324.975 Z5.840 F60.000
G1 X-28.309 Y324.975 Z5.840 F120.000
G1 X-28.309 Y325.045 Z5.840 F120.000
G1 X28.187 Y325.045 Z5.840 F120.000
G1 X28.186 Y324.975 Z5.840 F120.000
G1 X23.748 Y324.975 Z5.840 F120.000
G1 X23.748 Y324.975 Z5.640 F60.000
G1 X-28.309 Y324.975 Z5.640 F120.000
G1 X-28.309 Y325.045 Z5.640 F120.000
G1 X28.187 Y325.045 Z5.640 F120.000
G1 X28.186 Y324.975 Z5.640 F120.000
G1 X23.748 Y324.975 Z5.640 F120.000
G1 X23.748 Y324.975 Z5.440 F60.000
G1 X-28.309 Y324.975 Z5.440 F120.000
G1 X-28.309 Y325.045 Z5.440 F120.000
G1 X28.187 Y325.045 Z5.440 F120.000
G1 X28.186 Y324.975 Z5.440 F120.000
G1 X23.748 Y324.975 Z5.440 F120.000
G1 X23.748 Y324.975 Z5.240 F60.000
G1 X-28.309 Y324.975 Z5.240 F120.000
G1 X-28.309 Y325.045 Z5.240 F120.000
G1 X28.187 Y325.045 Z5.240 F120.000
G1 X28.186 Y324.975 Z5.240 F120.000
G1 X23.748 Y324.975 Z5.240 F120.000
G1 X23.748 Y324.975 Z5.100 F60.000
G1 X-28.309 Y324.975 Z5.100 F120.000
G1 X-28.309 Y325.045 Z5.100 F120.000
G1 X28.187 Y325.045 Z5.100 F120.000
G1 X28.186 Y324.975 Z5.100 F120.000
G1 X23.748 Y324.975 Z5.100 F120.000
G0 Z12.240
G0 Z12.240
G0 X23.748 Y324.975
G0 Y343.216
G0 Y343.216 Z10.240
G1 X23.748 Y343.216 Z7.040 F60.000
G1 X-28.594 Y343.216 Z7.040 F120.000
G1 X-28.595 Y343.286 Z7.040 F120.000
G1 X28.468 Y343.286 Z7.040 F120.000
G1 X28.467 Y343.216 Z7.040 F120.000
G1 X23.748 Y343.216 Z7.040 F120.000
G1 X23.748 Y343.216 Z6.840 F60.000
G1 X-28.594 Y343.216 Z6.840 F120.000
G1 X-28.595 Y343.286 Z6.840 F120.000
G1 X28.468 Y343.286 Z6.840 F120.000
G1 X28.467 Y343.216 Z6.840 F120.000
G1 X23.748 Y343.216 Z6.840 F120.000
G1 X23.748 Y343.216 Z6.640 F60.000
G1 X-28.594 Y343.216 Z6.640 F120.000
G1 X-28.595 Y343.286 Z6.640 F120.000
G1 X28.468 Y343.286 Z6.640 F120.000
G1 X28.467 Y343.216 Z6.640 F120.000
G1 X23.748 Y343.216 Z6.640 F120.000
G1 X23.748 Y343.216 Z6.440 F60.000
G1 X-28.594 Y343.216 Z6.440 F120.000
G1 X-28.595 Y343.286 Z6.440 F120.000
G1 X28.468 Y343.286 Z6.440 F120.000
G1 X28.467 Y343.216 Z6.440 F120.000
G1 X23.748 Y343.216 Z6.440 F120.000
G1 X23.748 Y343.216 Z6.240 F60.000
G1 X-28.594 Y343.216 Z6.240 F120.000
G1 X-28.595 Y343.286 Z6.240 F120.000
G1 X28.468 Y343.286 Z6.240 F120.000
G1 X28.467 Y343.216 Z6.240 F120.000
G1 X23.748 Y343.216 Z6.240 F120.000
G1 X23.748 Y343.216 Z6.040 F60.000
G1 X-28.594 Y343.216 Z6.040 F120.000
G1 X-28.595 Y343.286 Z6.040 F120.000
G1 X28.468 Y343.286 Z6.040 F120.000
G1 X28.467 Y343.216 Z6.040 F120.000
G1 X23.748 Y343.216 Z6.040 F120.000
G1 X23.748 Y343.216 Z5.840 F60.000
G1 X-28.594 Y343.216 Z5.840 F120.000
G1 X-28.595 Y343.286 Z5.840 F120.000
G1 X28.468 Y343.286 Z5.840 F120.000
G1 X28.467 Y343.216 Z5.840 F120.000
G1 X23.748 Y343.216 Z5.840 F120.000
G1 X23.748 Y343.216 Z5.640 F60.000
G1 X-28.594 Y343.216 Z5.640 F120.000
G1 X-28.595 Y343.286 Z5.640 F120.000
G1 X28.468 Y343.286 Z5.640 F120.000
G1 X28.467 Y343.216 Z5.640 F120.000
G1 X23.748 Y343.216 Z5.640 F120.000
G1 X23.748 Y343.216 Z5.440 F60.000
G1 X-28.594 Y343.216 Z5.440 F120.000
G1 X-28.595 Y343.286 Z5.440 F120.000
G1 X28.468 Y343.286 Z5.440 F120.000
G1 X28.467 Y343.216 Z5.440 F120.000
G1 X23.748 Y343.216 Z5.440 F120.000
G1 X23.748 Y343.216 Z5.240 F60.000
G1 X-28.594 Y343.216 Z5.240 F120.000
G1 X-28.595 Y343.286 Z5.240 F120.000
G1 X28.468 Y343.286 Z5.240 F120.000
G1 X28.467 Y343.216 Z5.240 F120.000
G1 X23.748 Y343.216 Z5.240 F120.000
G1 X23.748 Y343.216 Z5.100 F60.000
G1 X-28.594 Y343.216 Z5.100 F120.000
G1 X-28.595 Y343.286 Z5.100 F120.000
G1 X28.468 Y343.286 Z5.100 F120.000
G1 X28.467 Y343.216 Z5.100 F120.000
G1 X23.748 Y343.216 Z5.100 F120.000
G0 Z12.240
G0 Z12.240
G0 X23.748 Y343.216
G0 Y360.433
G0 Y360.433 Z10.240
G1 X23.748 Y360.433 Z7.040 F60.000
G1 X-28.858 Y360.433 Z7.040 F120.000
G1 X-28.860 Y360.503 Z7.040 F120.000
G1 X28.732 Y360.503 Z7.040 F120.000
G1 X28.731 Y360.433 Z7.040 F120.000
G1 X23.748 Y360.433 Z7.040 F120.000
G1 X23.748 Y360.433 Z6.840 F60.000
G1 X-28.858 Y360.433 Z6.840 F120.000
G1 X-28.860 Y360.503 Z6.840 F120.000
G1 X28.732 Y360.503 Z6.840 F120.000
G1 X28.731 Y360.433 Z6.840 F120.000
G1 X23.748 Y360.433 Z6.840 F120.000
G1 X23.748 Y360.433 Z6.640 F60.000
G1 X-28.858 Y360.433 Z6.640 F120.000
G1 X-28.860 Y360.503 Z6.640 F120.000
G1 X28.732 Y360.503 Z6.640 F120.000
G1 X28.731 Y360.433 Z6.640 F120.000
G1 X23.748 Y360.433 Z6.640 F120.000
G1 X23.748 Y360.433 Z6.440 F60.000
G1 X-28.858 Y360.433 Z6.440 F120.000
G1 X-28.860 Y360.503 Z6.440 F120.000
G1 X28.732 Y360.503 Z6.440 F120.000
G1 X28.731 Y360.433 Z6.440 F120.000
G1 X23.748 Y360.433 Z6.440 F120.000
G1 X23.748 Y360.433 Z6.240 F60.000
G1 X-28.858 Y360.433 Z6.240 F120.000
G1 X-28.860 Y360.503 Z6.240 F120.000
G1 X28.732 Y360.503 Z6.240 F120.000
G1 X28.731 Y360.433 Z6.240 F120.000
G1 X23.748 Y360.433 Z6.240 F120.000
G1 X23.748 Y360.433 Z6.040 F60.000
G1 X-28.858 Y360.433 Z6.040 F120.000
G1 X-28.860 Y360.503 Z6.040 F120.000
G1 X28.732 Y360.503 Z6.040 F120.000
G1 X28.731 Y360.433 Z6.040 F120.000
G1 X23.748 Y360.433 Z6.040 F120.000
G1 X23.748 Y360.433 Z5.840 F60.000
G1 X-28.858 Y360.433 Z5.840 F120.000
G1 X-28.860 Y360.503 Z5.840 F120.000
G1 X28.732 Y360.503 Z5.840 F120.000
G1 X28.731 Y360.433 Z5.840 F120.000
G1 X23.748 Y360.433 Z5.840 F120.000
G1 X23.748 Y360.433 Z5.640 F60.000
G1 X-28.858 Y360.433 Z5.640 F120.000
G1 X-28.860 Y360.503 Z5.640 F120.000
G1 X28.732 Y360.503 Z5.640 F120.000
G1 X28.731 Y360.433 Z5.640 F120.000
G1 X23.748 Y360.433 Z5.640 F120.000
G1 X23.748 Y360.433 Z5.440 F60.000
G1 X-28.858 Y360.433 Z5.440 F120.000
G1 X-28.860 Y360.503 Z5.440 F120.000
G1 X28.732 Y360.503 Z5.440 F120.000
G1 X28.731 Y360.433 Z5.440 F120.000
G1 X23.748 Y360.433 Z5.440 F120.000
G1 X23.748 Y360.433 Z5.240 F60.000
G1 X-28.858 Y360.433 Z5.240 F120.000
G1 X-28.860 Y360.503 Z5.240 F120.000
G1 X28.732 Y360.503 Z5.240 F120.000
G1 X28.731 Y360.433 Z5.240 F120.000
G1 X23.748 Y360.433 Z5.240 F120.000
G1 X23.748 Y360.433 Z5.100 F60.000
G1 X-28.858 Y360.433 Z5.100 F120.000
G1 X-28.860 Y360.503 Z5.100 F120.000
G1 X28.732 Y360.503 Z5.100 F120.000
G1 X28.731 Y360.433 Z5.100 F120.000
G1 X23.748 Y360.433 Z5.100 F120.000
G0 Z12.240
G0 Z12.240
G0 X23.748 Y360.433
G0 Y376.684
G0 Y376.684 Z10.240
G1 X23.748 Y376.684 Z7.040 F60.000
G1 X-29.108 Y376.684 Z7.040 F120.000
G1 X-29.110 Y376.754 Z7.040 F120.000
G1 X28.982 Y376.754 Z7.040 F120.000
G1 X28.981 Y376.684 Z7.040 F120.000
G1 X23.748 Y376.684 Z7.040 F120.000
G1 X23.748 Y376.684 Z6.840 F60.000
G1 X-29.108 Y376.684 Z6.840 F120.000
G1 X-29.110 Y376.754 Z6.840 F120.000
G1 X28.982 Y376.754 Z6.840 F120.000
G1 X28.981 Y376.684 Z6.840 F120.000
G1 X23.748 Y376.684 Z6.840 F120.000
G1 X23.748 Y376.684 Z6.640 F60.000
G1 X-29.108 Y376.684 Z6.640 F120.000
G1 X-29.110 Y376.754 Z6.640 F120.000
G1 X28.982 Y376.754 Z6.640 F120.000
G1 X28.981 Y376.684 Z6.640 F120.000
G1 X23.748 Y376.684 Z6.640 F120.000
G1 X23.748 Y376.684 Z6.440 F60.000
G1 X-29.108 Y376.684 Z6.440 F120.000
G1 X-29.110 Y376.754 Z6.440 F120.000
G1 X28.982 Y376.754 Z6.440 F120.000
G1 X28.981 Y376.684 Z6.440 F120.000
G1 X23.748 Y376.684 Z6.440 F120.000
G1 X23.748 Y376.684 Z6.240 F60.000
G1 X-29.108 Y376.684 Z6.240 F120.000
G1 X-29.110 Y376.754 Z6.240 F120.000
G1 X28.982 Y376.754 Z6.240 F120.000
G1 X28.981 Y376.684 Z6.240 F120.000
G1 X23.748 Y376.684 Z6.240 F120.000
G1 X23.748 Y376.684 Z6.040 F60.000
G1 X-29.108 Y376.684 Z6.040 F120.000
G1 X-29.110 Y376.754 Z6.040 F120.000
G1 X28.982 Y376.754 Z6.040 F120.000
G1 X28.981 Y376.684 Z6.040 F120.000
G1 X23.748 Y376.684 Z6.040 F120.000
G1 X23.748 Y376.684 Z5.840 F60.000
G1 X-29.108 Y376.684 Z5.840 F120.000
G1 X-29.110 Y376.754 Z5.840 F120.000
G1 X28.982 Y376.754 Z5.840 F120.000
G1 X28.981 Y376.684 Z5.840 F120.000
G1 X23.748 Y376.684 Z5.840 F120.000
G1 X23.748 Y376.684 Z5.640 F60.000
G1 X-29.108 Y376.684 Z5.640 F120.000
G1 X-29.110 Y376.754 Z5.640 F120.000
G1 X28.982 Y376.754 Z5.640 F120.000
G1 X28.981 Y376.684 Z5.640 F120.000
G1 X23.748 Y376.684 Z5.640 F120.000
G1 X23.748 Y376.684 Z5.440 F60.000
G1 X-29.108 Y376.684 Z5.440 F120.000
G1 X-29.110 Y376.754 Z5.440 F120.000
G1 X28.982 Y376.754 Z5.440 F120.000
G1 X28.981 Y376.684 Z5.440 F120.000
G1 X23.748 Y376.684 Z5.440 F120.000
G1 X23.748 Y376.684 Z5.240 F60.000
G1 X-29.108 Y376.684 Z5.240 F120.000
G1 X-29.110 Y376.754 Z5.240 F120.000
G1 X28.982 Y376.754 Z5.240 F120.000
G1 X28.981 Y376.684 Z5.240 F120.000
G1 X23.748 Y376.684 Z5.240 F120.000
G1 X23.748 Y376.684 Z5.100 F60.000
G1 X-29.108 Y376.684 Z5.100 F120.000
G1 X-29.110 Y376.754 Z5.100 F120.000
G1 X28.982 Y376.754 Z5.100 F120.000
G1 X28.981 Y376.684 Z5.100 F120.000
G1 X23.748 Y376.684 Z5.100 F120.000
G0 Z12.240
G0 Z12.240
G0 X23.748 Y376.684
G0 Y392.023
G0 Y392.023 Z10.240
G1 X23.748 Y392.023 Z7.040 F60.000
G1 X-29.344 Y392.023 Z7.040 F120.000
G1 X-29.346 Y392.093 Z7.040 F120.000
G1 X29.218 Y392.093 Z7.040 F120.000
G1 X29.217 Y392.023 Z7.040 F120.000
G1 X23.748 Y392.023 Z7.040 F120.000
G1 X23.748 Y392.023 Z6.840 F60.000
G1 X-29.344 Y392.023 Z6.840 F120.000
G1 X-29.346 Y392.093 Z6.840 F120.000
G1 X29.218 Y392.093 Z6.840 F120.000
G1 X29.217 Y392.023 Z6.840 F120.000
G1 X23.748 Y392.023 Z6.840 F120.000
G1 X23.748 Y392.023 Z6.640 F60.000
G1 X-29.344 Y392.023 Z6.640 F120.000
G1 X-29.346 Y392.093 Z6.640 F120.000
G1 X29.218 Y392.093 Z6.640 F120.000
G1 X29.217 Y392.023 Z6.640 F120.000
G1 X23.748 Y392.023 Z6.640 F120.000
G1 X23.748 Y392.023 Z6.440 F60.000
G1 X-29.344 Y392.023 Z6.440 F120.000
G1 X-29.346 Y392.093 Z6.440 F120.000
G1 X29.218 Y392.093 Z6.440 F120.000
G1 X29.217 Y392.023 Z6.440 F120.000
G1 X23.748 Y392.023 Z6.440 F120.000
G1 X23.748 Y392.023 Z6.240 F60.000
G1 X-29.344 Y392.023 Z6.240 F120.000
G1 X-29.346 Y392.093 Z6.240 F120.000
G1 X29.218 Y392.093 Z6.240 F120.000
G1 X29.217 Y392.023 Z6.240 F120.000
G1 X23.748 Y392.023 Z6.240 F120.000
G1 X23.748 Y392.023 Z6.040 F60.000
G1 X-29.344 Y392.023 Z6.040 F120.000
G1 X-29.346 Y392.093 Z6.040 F120.000
G1 X29.218 Y392.093 Z6.040 F120.000
G1 X29.217 Y392.023 Z6.040 F120.000
G1 X23.748 Y392.023 Z6.040 F120.000
G1 X23.748 Y392.023 Z5.840 F60.000
G1 X-29.344 Y392.023 Z5.840 F120.000
G1 X-29.346 Y392.093 Z5.840 F120.000
G1 X29.218 Y392.093 Z5.840 F120.000
G1 X29.217 Y392.023 Z5.840 F120.000
G1 X23.748 Y392.023 Z5.840 F120.000
G1 X23.748 Y392.023 Z5.640 F60.000
G1 X-29.344 Y392.023 Z5.640 F120.000
G1 X-29.346 Y392.093 Z5.640 F120.000
G1 X29.218 Y392.093 Z5.640 F120.000
G1 X29.217 Y392.023 Z5.640 F120.000
G1 X23.748 Y392.023 Z5.640 F120.000
G1 X23.748 Y392.023 Z5.440 F60.000
G1 X-29.344 Y392.023 Z5.440 F120.000
G1 X-29.346 Y392.093 Z5.440 F120.000
G1 X29.218 Y392.093 Z5.440 F120.000
G1 X29.217 Y392.023 Z5.440 F120.000
G1 X23.748 Y392.023 Z5.440 F120.000
G1 X23.748 Y392.023 Z5.240 F60.000
G1 X-29.344 Y392.023 Z5.240 F120.000
G1 X-29.346 Y392.093 Z5.240 F120.000
G1 X29.218 Y392.093 Z5.240 F120.000
G1 X29.217 Y392.023 Z5.240 F120.000
G1 X23.748 Y392.023 Z5.240 F120.000
G1 X23.748 Y392.023 Z5.100 F60.000
G1 X-29.344 Y392.023 Z5.100 F120.000
G1 X-29.346 Y392.093 Z5.100 F120.000
G1 X29.218 Y392.093 Z5.100 F120.000
G1 X29.217 Y392.023 Z5.100 F120.000
G1 X23.748 Y392.023 Z5.100 F120.000
G0 Z12.240
G0 Z12.240
G0 X23.748 Y392.023
G0 Y406.501
G0 Y406.501 Z10.240
G1 X23.748 Y406.501 Z7.040 F60.000
G1 X-29.567 Y406.501 Z7.040 F120.000
G1 X-29.568 Y406.571 Z7.040 F120.000
G1 X29.441 Y406.571 Z7.040 F120.000
G1 X29.440 Y406.501 Z7.040 F120.000
G1 X23.748 Y406.501 Z7.040 F120.000
G1 X23.748 Y406.501 Z6.840 F60.000
G1 X-29.567 Y406.501 Z6.840 F120.000
G1 X-29.568 Y406.571 Z6.840 F120.000
G1 X29.441 Y406.571 Z6.840 F120.000
G1 X29.440 Y406.501 Z6.840 F120.000
G1 X23.748 Y406.501 Z6.840 F120.000
G1 X23.748 Y406.501 Z6.640 F60.000
G1 X-29.567 Y406.501 Z6.640 F120.000
G1 X-29.568 Y406.571 Z6.640 F120.000
G1 X29.441 Y406.571 Z6.640 F120.000
G1 X29.440 Y406.501 Z6.640 F120.000
G1 X23.748 Y406.501 Z6.640 F120.000
G1 X23.748 Y406.501 Z6.440 F60.000
G1 X-29.567 Y406.501 Z6.440 F120.000
G1 X-29.568 Y406.571 Z6.440 F120.000
G1 X29.441 Y406.571 Z6.440 F120.000
G1 X29.440 Y406.501 Z6.440 F120.000
G1 X23.748 Y406.501 Z6.440 F120.000
G1 X23.748 Y406.501 Z6.240 F60.000
G1 X-29.567 Y406.501 Z6.240 F120.000
G1 X-29.568 Y406.571 Z6.240 F120.000
G1 X29.441 Y406.571 Z6.240 F120.000
G1 X29.440 Y406.501 Z6.240 F120.000
G1 X23.748 Y406.501 Z6.240 F120.000
G1 X23.748 Y406.501 Z6.040 F60.000
G1 X-29.567 Y406.501 Z6.040 F120.000
G1 X-29.568 Y406.571 Z6.040 F120.000
G1 X29.441 Y406.571 Z6.040 F120.000
G1 X29.440 Y406.501 Z6.040 F120.000
G1 X23.748 Y406.501 Z6.040 F120.000
G1 X23.748 Y406.501 Z5.840 F60.000
G1 X-29.567 Y406.501 Z5.840 F120.000
G1 X-29.568 Y406.571 Z5.840 F120.000
G1 X29.441 Y406.571 Z5.840 F120.000
G1 X29.440 Y406.501 Z5.840 F120.000
G1 X23.748 Y406.501 Z5.840 F120.000
G1 X23.748 Y406.501 Z5.640 F60.000
G1 X-29.567 Y406.501 Z5.640 F120.000
G1 X-29.568 Y406.571 Z5.640 F120.000
G1 X29.441 Y406.571 Z5.640 F120.000
G1 X29.440 Y406.501 Z5.640 F120.000
G1 X23.748 Y406.501 Z5.640 F120.000
G1 X23.748 Y406.501 Z5.440 F60.000
G1 X-29.567 Y406.501 Z5.440 F120.000
G1 X-29.568 Y406.571 Z5.440 F120.000
G1 X29.441 Y406.571 Z5.440 F120.000
G1 X29.440 Y406.501 Z5.440 F120.000
G1 X23.748 Y406.501 Z5.440 F120.000
G1 X23.748 Y406.501 Z5.240 F60.000
G1 X-29.567 Y406.501 Z5.240 F120.000
G1 X-29.568 Y406.571 Z5.240 F120.000
G1 X29.441 Y406.571 Z5.240 F120.000
G1 X29.440 Y406.501 Z5.240 F120.000
G1 X23.748 Y406.501 Z5.240 F120.000
G1 X23.748 Y406.501 Z5.100 F60.000
G1 X-29.567 Y406.501 Z5.100 F120.000
G1 X-29.568 Y406.571 Z5.100 F120.000
G1 X29.441 Y406.571 Z5.100 F120.000
G1 X29.440 Y406.501 Z5.100 F120.000
G1 X23.748 Y406.501 Z5.100 F120.000
G0 Z12.240
G0 Z12.240
G0 X23.748 Y406.501
G0 Y420.166
G0 Y420.166 Z10.240
G1 X23.748 Y420.166 Z7.040 F60.000
G1 X-29.777 Y420.166 Z7.040 F120.000
G1 X-29.779 Y420.236 Z7.040 F120.000
G1 X29.651 Y420.236 Z7.040 F120.000
G1 X29.650 Y420.166 Z7.040 F120.000
G1 X23.748 Y420.166 Z7.040 F120.000
G1 X23.748 Y420.166 Z6.840 F60.000
G1 X-29.777 Y420.166 Z6.840 F120.000
G1 X-29.779 Y420.236 Z6.840 F120.000
G1 X29.651 Y420.236 Z6.840 F120.000
G1 X29.650 Y420.166 Z6.840 F120.000
G1 X23.748 Y420.166 Z6.840 F120.000
G1 X23.748 Y420.166 Z6.640 F60.000
G1 X-29.777 Y420.166 Z6.640 F120.000
G1 X-29.779 Y420.236 Z6.640 F120.000
G1 X29.651 Y420.236 Z6.640 F120.000
G1 X29.650 Y420.166 Z6.640 F120.000
G1 X23.748 Y420.166 Z6.640 F120.000
G1 X23.748 Y420.166 Z6.440 F60.000
G1 X-29.777 Y420.166 Z6.440 F120.000
G1 X-29.779 Y420.236 Z6.440 F120.000
G1 X29.651 Y420.236 Z6.440 F120.000
G1 X29.650 Y420.166 Z6.440 F120.000
G1 X23.748 Y420.166 Z6.440 F120.000
G1 X23.748 Y420.166 Z6.240 F60.000
G1 X-29.777 Y420.166 Z6.240 F120.000
G1 X-29.779 Y420.236 Z6.240 F120.000
G1 X29.651 Y420.236 Z6.240 F120.000
G1 X29.650 Y420.166 Z6.240 F120.000
G1 X23.748 Y420.166 Z6.240 F120.000
G1 X23.748 Y420.166 Z6.040 F60.000
G1 X-29.777 Y420.166 Z6.040 F120.000
G1 X-29.779 Y420.236 Z6.040 F120.000
G1 X29.651 Y420.236 Z6.040 F120.000
G1 X29.650 Y420.166 Z6.040 F120.000
G1 X23.748 Y420.166 Z6.040 F120.000
G1 X23.748 Y420.166 Z5.840 F60.000
G1 X-29.777 Y420.166 Z5.840 F120.000
G1 X-29.779 Y420.236 Z5.840 F120.000
G1 X29.651 Y420.236 Z5.840 F120.000
G1 X29.650 Y420.166 Z5.840 F120.000
G1 X23.748 Y420.166 Z5.840 F120.000
G1 X23.748 Y420.166 Z5.640 F60.000
G1 X-29.777 Y420.166 Z5.640 F120.000
G1 X-29.779 Y420.236 Z5.640 F120.000
G1 X29.651 Y420.236 Z5.640 F120.000
G1 X29.650 Y420.166 Z5.640 F120.000
G1 X23.748 Y420.166 Z5.640 F120.000
G1 X23.748 Y420.166 Z5.440 F60.000
G1 X-29.777 Y420.166 Z5.440 F120.000
G1 X-29.779 Y420.236 Z5.440 F120.000
G1 X29.651 Y420.236 Z5.440 F120.000
G1 X29.650 Y420.166 Z5.440 F120.000
G1 X23.748 Y420.166 Z5.440 F120.000
G1 X23.748 Y420.166 Z5.240 F60.000
G1 X-29.777 Y420.166 Z5.240 F120.000
G1 X-29.779 Y420.236 Z5.240 F120.000
G1 X29.651 Y420.236 Z5.240 F120.000
G1 X29.650 Y420.166 Z5.240 F120.000
G1 X23.748 Y420.166 Z5.240 F120.000
G1 X23.748 Y420.166 Z5.100 F60.000
G1 X-29.777 Y420.166 Z5.100 F120.000
G1 X-29.779 Y420.236 Z5.100 F120.000
G1 X29.651 Y420.236 Z5.100 F120.000
G1 X29.650 Y420.166 Z5.100 F120.000
G1 X23.748 Y420.166 Z5.100 F120.000
G0 Z12.240
G0 Z12.240
G0 X23.748 Y420.166
G0 Y433.064
G0 Y433.064 Z10.240
G1 X23.748 Y433.064 Z7.040 F60.000
G1 X-29.976 Y433.064 Z7.040 F120.000
G1 X-29.977 Y433.134 Z7.040 F120.000
G1 X29.850 Y433.134 Z7.040 F120.000
G1 X29.849 Y433.064 Z7.040 F120.000
G1 X23.748 Y433.064 Z7.040 F120.000
G1 X23.748 Y433.064 Z6.840 F60.000
G1 X-29.976 Y433.064 Z6.840 F120.000
G1 X-29.977 Y433.134 Z6.840 F120.000
G1 X29.850 Y433.134 Z6.840 F120.000
G1 X29.849 Y433.064 Z6.840 F120.000
G1 X23.748 Y433.064 Z6.840 F120.000
G1 X23.748 Y433.064 Z6.640 F60.000
G1 X-29.976 Y433.064 Z6.640 F120.000
G1 X-29.977 Y433.134 Z6.640 F120.000
G1 X29.850 Y433.134 Z6.640 F120.000
G1 X29.849 Y433.064 Z6.640 F120.000
G1 X23.748 Y433.064 Z6.640 F120.000
G1 X23.748 Y433.064 Z6.440 F60.000
G1 X-29.976 Y433.064 Z6.440 F120.000
G1 X-29.977 Y433.134 Z6.440 F120.000
G1 X29.850 Y433.134 Z6.440 F120.000
G1 X29.849 Y433.064 Z6.440 F120.000
G1 X23.748 Y433.064 Z6.440 F120.000
G1 X23.748 Y433.064 Z6.240 F60.000
G1 X-29.976 Y433.064 Z6.240 F120.000
G1 X-29.977 Y433.134 Z6.240 F120.000
G1 X29.850 Y433.134 Z6.240 F120.000
G1 X29.849 Y433.064 Z6.240 F120.000
G1 X23.748 Y433.064 Z6.240 F120.000
G1 X23.748 Y433.064 Z6.040 F60.000
G1 X-29.976 Y433.064 Z6.040 F120.000
G1 X-29.977 Y433.134 Z6.040 F120.000
G1 X29.850 Y433.134 Z6.040 F120.000
G1 X29.849 Y433.064 Z6.040 F120.000
G1 X23.748 Y433.064 Z6.040 F120.000
G1 X23.748 Y433.064 Z5.840 F60.000
G1 X-29.976 Y433.064 Z5.840 F120.000
G1 X-29.977 Y433.134 Z5.840 F120.000
G1 X29.850 Y433.134 Z5.840 F120.000
G1 X29.849 Y433.064 Z5.840 F120.000
G1 X23.748 Y433.064 Z5.840 F120.000
G1 X23.748 Y433.064 Z5.640 F60.000
G1 X-29.976 Y433.064 Z5.640 F120.000
G1 X-29.977 Y433.134 Z5.640 F120.000
G1 X29.850 Y433.134 Z5.640 F120.000
G1 X29.849 Y433.064 Z5.640 F120.000
G1 X23.748 Y433.064 Z5.640 F120.000
G1 X23.748 Y433.064 Z5.440 F60.000
G1 X-29.976 Y433.064 Z5.440 F120.000
G1 X-29.977 Y433.134 Z5.440 F120.000
G1 X29.850 Y433.134 Z5.440 F120.000
G1 X29.849 Y433.064 Z5.440 F120.000
G1 X23.748 Y433.064 Z5.440 F120.000
G1 X23.748 Y433.064 Z5.240 F60.000
G1 X-29.976 Y433.064 Z5.240 F120.000
G1 X-29.977 Y433.134 Z5.240 F120.000
G1 X29.850 Y433.134 Z5.240 F120.000
G1 X29.849 Y433.064 Z5.240 F120.000
G1 X23.748 Y433.064 Z5.240 F120.000
G1 X23.748 Y433.064 Z5.100 F60.000
G1 X-29.976 Y433.064 Z5.100 F120.000
G1 X-29.977 Y433.134 Z5.100 F120.000
G1 X29.850 Y433.134 Z5.100 F120.000
G1 X29.849 Y433.064 Z5.100 F120.000
G1 X23.748 Y433.064 Z5.100 F120.000
G0 Z12.240
G0 Z12.240
G0 X23.748 Y433.064
G0 X24.111 Y445.238
G0 X24.111 Y445.238 Z10.240
G1 X24.111 Y445.238 Z7.040 F60.000
G1 X24.179 Y445.308 Z7.040 F120.000
G1 X30.037 Y445.308 Z7.040 F120.000
G1 X30.036 Y445.238 Z7.040 F120.000
G1 X24.111 Y445.238 Z7.040 F120.000
G1 X24.111 Y445.238 Z6.840 F60.000
G1 X24.179 Y445.308 Z6.840 F120.000
G1 X30.037 Y445.308 Z6.840 F120.000
G1 X30.036 Y445.238 Z6.840 F120.000
G1 X24.111 Y445.238 Z6.840 F120.000
G1 X24.111 Y445.238 Z6.640 F60.000
G1 X24.179 Y445.308 Z6.640 F120.000
G1 X30.037 Y445.308 Z6.640 F120.000
G1 X30.036 Y445.238 Z6.640 F120.000
G1 X24.111 Y445.238 Z6.640 F120.000
G1 X24.111 Y445.238 Z6.440 F60.000
G1 X24.179 Y445.308 Z6.440 F120.000
G1 X30.037 Y445.308 Z6.440 F120.000
G1 X30.036 Y445.238 Z6.440 F120.000
G1 X24.111 Y445.238 Z6.440 F120.000
G1 X24.111 Y445.238 Z6.240 F60.000
G1 X24.179 Y445.308 Z6.240 F120.000
G1 X30.037 Y445.308 Z6.240 F120.000
G1 X30.036 Y445.238 Z6.240 F120.000
G1 X24.111 Y445.238 Z6.240 F120.000
G1 X24.111 Y445.238 Z6.040 F60.000
G1 X24.179 Y445.308 Z6.040 F120.000
G1 X30.037 Y445.308 Z6.040 F120.000
G1 X30.036 Y445.238 Z6.040 F120.000
G1 X24.111 Y445.238 Z6.040 F120.000
G1 X24.111 Y445.238 Z5.840 F60.000
G1 X24.179 Y445.308 Z5.840 F120.000
G1 X30.037 Y445.308 Z5.840 F120.000
G1 X30.036 Y445.238 Z5.840 F120.000
G1 X24.111 Y445.238 Z5.840 F120.000
G1 X24.111 Y445.238 Z5.640 F60.000
G1 X24.179 Y445.308 Z5.640 F120.000
G1 X30.037 Y445.308 Z5.640 F120.000
G1 X30.036 Y445.238 Z5.640 F120.000
G1 X24.111 Y445.238 Z5.640 F120.000
G1 X24.111 Y445.238 Z5.440 F60.000
G1 X24.179 Y445.308 Z5.440 F120.000
G1 X30.037 Y445.308 Z5.440 F120.000
G1 X30.036 Y445.238 Z5.440 F120.000
G1 X24.111 Y445.238 Z5.440 F120.000
G1 X24.111 Y445.238 Z5.240 F60.000
G1 X24.179 Y445.308 Z5.240 F120.000
G1 X30.037 Y445.308 Z5.240 F120.000
G1 X30.036 Y445.238 Z5.240 F120.000
G1 X24.111 Y445.238 Z5.240 F120.000
G1 X24.111 Y445.238 Z5.100 F60.000
G1 X24.179 Y445.308 Z5.100 F120.000
G1 X30.037 Y445.308 Z5.100 F120.000
G1 X30.036 Y445.238 Z5.100 F120.000
G1 X24.111 Y445.238 Z5.100 F120.000
G0 Z12.240
G0 Z12.240
G0 X24.111 Y445.238
G0 X-8.046
G0 X-8.046 Z10.240
G1 X-8.046 Y445.238 Z7.040 F60.000
G1 X-30.163 Y445.238 Z7.040 F120.000
G1 X-30.164 Y445.308 Z7.040 F120.000
G1 X-8.118 Y445.308 Z7.040 F120.000
G1 X-8.046 Y445.238 Z7.040 F120.000
G1 X-8.046 Y445.238 Z6.840 F60.000
G1 X-30.163 Y445.238 Z6.840 F120.000
G1 X-30.164 Y445.308 Z6.840 F120.000
G1 X-8.118 Y445.308 Z6.840 F120.000
G1 X-8.046 Y445.238 Z6.840 F120.000
G1 X-8.046 Y445.238 Z6.640 F60.000
G1 X-30.163 Y445.238 Z6.640 F120.000
G1 X-30.164 Y445.308 Z6.640 F120.000
G1 X-8.118 Y445.308 Z6.640 F120.000
G1 X-8.046 Y445.238 Z6.640 F120.000
G1 X-8.046 Y445.238 Z6.440 F60.000
G1 X-30.163 Y445.238 Z6.440 F120.000
G1 X-30.164 Y445.308 Z6.440 F120.000
G1 X-8.118 Y445.308 Z6.440 F120.000
G1 X-8.046 Y445.238 Z6.440 F120.000
G1 X-8.046 Y445.238 Z6.240 F60.000
G1 X-30.163 Y445.238 Z6.240 F120.000
G1 X-30.164 Y445.308 Z6.240 F120.000
G1 X-8.118 Y445.308 Z6.240 F120.000
G1 X-8.046 Y445.238 Z6.240 F120.000
G1 X-8.046 Y445.238 Z6.040 F60.000
G1 X-30.163 Y445.238 Z6.040 F120.000
G1 X-30.164 Y445.308 Z6.040 F120.000
G1 X-8.118 Y445.308 Z6.040 F120.000
G1 X-8.046 Y445.238 Z6.040 F120.000
G1 X-8.046 Y445.238 Z5.840 F60.000
G1 X-30.163 Y445.238 Z5.840 F120.000
G1 X-30.164 Y445.308 Z5.840 F120.000
G1 X-8.118 Y445.308 Z5.840 F120.000
G1 X-8.046 Y445.238 Z5.840 F120.000
G1 X-8.046 Y445.238 Z5.640 F60.000
G1 X-30.163 Y445.238 Z5.640 F120.000
G1 X-30.164 Y445.308 Z5.640 F120.000
G1 X-8.118 Y445.308 Z5.640 F120.000
G1 X-8.046 Y445.238 Z5.640 F120.000
G1 X-8.046 Y445.238 Z5.440 F60.000
G1 X-30.163 Y445.238 Z5.440 F120.000
G1 X-30.164 Y445.308 Z5.440 F120.000
G1 X-8.118 Y445.308 Z5.440 F120.000
G1 X-8.046 Y445.238 Z5.440 F120.000
G1 X-8.046 Y445.238 Z5.240 F60.000
G1 X-30.163 Y445.238 Z5.240 F120.000
G1 X-30.164 Y445.308 Z5.240 F120.000
G1 X-8.118 Y445.308 Z5.240 F120.000
G1 X-8.046 Y445.238 Z5.240 F120.000
G1 X-8.046 Y445.238 Z5.100 F60.000
G1 X-30.163 Y445.238 Z5.100 F120.000
G1 X-30.164 Y445.308 Z5.100 F120.000
G1 X-8.118 Y445.308 Z5.100 F120.000
G1 X-8.046 Y445.238 Z5.100 F120.000
G0 Z12.240
G0 Z12.240
(Finish operation: Frettes)
(Begin postamble)
M5
G17 G90
M2
