(Exported by FreeCAD)
(Post Processor: grbl_post)
(Output Time:2024-01-02 13:07:53.108720)
(Begin preamble)
G17 G90
G21
(Begin operation: TC: 0.5mm_droite)
(Path: TC: 0.5mm_droite)
(TC: 0.5mm_droite)
(Begin toolchange)
( M6 T2 )
M3 S24000
(Finish operation: TC: 0.5mm_droite)
(Begin operation: Fixture)
(Path: Fixture)
G54
(Finish operation: Fixture)
(Begin operation: Pocket_Shape)
(Path: Pocket_Shape)
(Pocket_Shape)
G0 Z5.000
G0 X23.812 Y36.517
G0 Z3.000
G1 X23.812 Y36.517 Z-0.147 F60.000
G1 X23.811 Y36.447 Z-0.147 F200.000
G1 X-23.811 Y36.447 Z-0.147 F200.000
G1 X-23.812 Y36.517 Z-0.147 F200.000
G1 X23.812 Y36.517 Z-0.147 F200.000
G1 X23.812 Y36.517 Z-0.294 F60.000
G1 X23.811 Y36.447 Z-0.294 F200.000
G1 X-23.811 Y36.447 Z-0.294 F200.000
G1 X-23.812 Y36.517 Z-0.294 F200.000
G1 X23.812 Y36.517 Z-0.294 F200.000
G1 X23.812 Y36.517 Z-0.441 F60.000
G1 X23.811 Y36.447 Z-0.441 F200.000
G1 X-23.811 Y36.447 Z-0.441 F200.000
G1 X-23.812 Y36.517 Z-0.441 F200.000
G1 X23.812 Y36.517 Z-0.441 F200.000
G1 X23.812 Y36.517 Z-0.588 F60.000
G1 X23.811 Y36.447 Z-0.588 F200.000
G1 X-23.811 Y36.447 Z-0.588 F200.000
G1 X-23.812 Y36.517 Z-0.588 F200.000
G1 X23.812 Y36.517 Z-0.588 F200.000
G1 X23.812 Y36.517 Z-0.735 F60.000
G1 X23.811 Y36.447 Z-0.735 F200.000
G1 X-23.811 Y36.447 Z-0.735 F200.000
G1 X-23.812 Y36.517 Z-0.735 F200.000
G1 X23.812 Y36.517 Z-0.735 F200.000
G1 X23.812 Y36.517 Z-0.882 F60.000
G1 X23.811 Y36.447 Z-0.882 F200.000
G1 X-23.811 Y36.447 Z-0.882 F200.000
G1 X-23.812 Y36.517 Z-0.882 F200.000
G1 X23.812 Y36.517 Z-0.882 F200.000
G1 X23.812 Y36.517 Z-1.029 F60.000
G1 X23.811 Y36.447 Z-1.029 F200.000
G1 X-23.811 Y36.447 Z-1.029 F200.000
G1 X-23.812 Y36.517 Z-1.029 F200.000
G1 X23.812 Y36.517 Z-1.029 F200.000
G1 X23.812 Y36.517 Z-1.176 F60.000
G1 X23.811 Y36.447 Z-1.176 F200.000
G1 X-23.811 Y36.447 Z-1.176 F200.000
G1 X-23.812 Y36.517 Z-1.176 F200.000
G1 X23.812 Y36.517 Z-1.176 F200.000
G1 X23.812 Y36.517 Z-1.324 F60.000
G1 X23.811 Y36.447 Z-1.324 F200.000
G1 X-23.811 Y36.447 Z-1.324 F200.000
G1 X-23.812 Y36.517 Z-1.324 F200.000
G1 X23.812 Y36.517 Z-1.324 F200.000
G1 X23.812 Y36.517 Z-1.471 F60.000
G1 X23.811 Y36.447 Z-1.471 F200.000
G1 X-23.811 Y36.447 Z-1.471 F200.000
G1 X-23.812 Y36.517 Z-1.471 F200.000
G1 X23.812 Y36.517 Z-1.471 F200.000
G1 X23.812 Y36.517 Z-1.618 F60.000
G1 X23.811 Y36.447 Z-1.618 F200.000
G1 X-23.811 Y36.447 Z-1.618 F200.000
G1 X-23.812 Y36.517 Z-1.618 F200.000
G1 X23.812 Y36.517 Z-1.618 F200.000
G1 X23.812 Y36.517 Z-1.765 F60.000
G1 X23.811 Y36.447 Z-1.765 F200.000
G1 X-23.811 Y36.447 Z-1.765 F200.000
G1 X-23.812 Y36.517 Z-1.765 F200.000
G1 X23.812 Y36.517 Z-1.765 F200.000
G1 X23.812 Y36.517 Z-1.900 F60.000
G1 X23.811 Y36.447 Z-1.900 F200.000
G1 X-23.811 Y36.447 Z-1.900 F200.000
G1 X-23.812 Y36.517 Z-1.900 F200.000
G1 X23.812 Y36.517 Z-1.900 F200.000
G0 Z5.000
G0 Z5.000
G0 X23.812 Y36.517
G0 Y70.881
G0 Y70.881 Z3.000
G1 X23.812 Y70.881 Z-0.147 F60.000
G1 X-24.340 Y70.881 Z-0.147 F200.000
G1 X-24.342 Y70.951 Z-0.147 F200.000
G1 X24.342 Y70.951 Z-0.147 F200.000
G1 X24.340 Y70.881 Z-0.147 F200.000
G1 X23.812 Y70.881 Z-0.147 F200.000
G1 X23.812 Y70.881 Z-0.294 F60.000
G1 X-24.340 Y70.881 Z-0.294 F200.000
G1 X-24.342 Y70.951 Z-0.294 F200.000
G1 X24.342 Y70.951 Z-0.294 F200.000
G1 X24.340 Y70.881 Z-0.294 F200.000
G1 X23.812 Y70.881 Z-0.294 F200.000
G1 X23.812 Y70.881 Z-0.441 F60.000
G1 X-24.340 Y70.881 Z-0.441 F200.000
G1 X-24.342 Y70.951 Z-0.441 F200.000
G1 X24.342 Y70.951 Z-0.441 F200.000
G1 X24.340 Y70.881 Z-0.441 F200.000
G1 X23.812 Y70.881 Z-0.441 F200.000
G1 X23.812 Y70.881 Z-0.588 F60.000
G1 X-24.340 Y70.881 Z-0.588 F200.000
G1 X-24.342 Y70.951 Z-0.588 F200.000
G1 X24.342 Y70.951 Z-0.588 F200.000
G1 X24.340 Y70.881 Z-0.588 F200.000
G1 X23.812 Y70.881 Z-0.588 F200.000
G1 X23.812 Y70.881 Z-0.735 F60.000
G1 X-24.340 Y70.881 Z-0.735 F200.000
G1 X-24.342 Y70.951 Z-0.735 F200.000
G1 X24.342 Y70.951 Z-0.735 F200.000
G1 X24.340 Y70.881 Z-0.735 F200.000
G1 X23.812 Y70.881 Z-0.735 F200.000
G1 X23.812 Y70.881 Z-0.882 F60.000
G1 X-24.340 Y70.881 Z-0.882 F200.000
G1 X-24.342 Y70.951 Z-0.882 F200.000
G1 X24.342 Y70.951 Z-0.882 F200.000
G1 X24.340 Y70.881 Z-0.882 F200.000
G1 X23.812 Y70.881 Z-0.882 F200.000
G1 X23.812 Y70.881 Z-1.029 F60.000
G1 X-24.340 Y70.881 Z-1.029 F200.000
G1 X-24.342 Y70.951 Z-1.029 F200.000
G1 X24.342 Y70.951 Z-1.029 F200.000
G1 X24.340 Y70.881 Z-1.029 F200.000
G1 X23.812 Y70.881 Z-1.029 F200.000
G1 X23.812 Y70.881 Z-1.176 F60.000
G1 X-24.340 Y70.881 Z-1.176 F200.000
G1 X-24.342 Y70.951 Z-1.176 F200.000
G1 X24.342 Y70.951 Z-1.176 F200.000
G1 X24.340 Y70.881 Z-1.176 F200.000
G1 X23.812 Y70.881 Z-1.176 F200.000
G1 X23.812 Y70.881 Z-1.324 F60.000
G1 X-24.340 Y70.881 Z-1.324 F200.000
G1 X-24.342 Y70.951 Z-1.324 F200.000
G1 X24.342 Y70.951 Z-1.324 F200.000
G1 X24.340 Y70.881 Z-1.324 F200.000
G1 X23.812 Y70.881 Z-1.324 F200.000
G1 X23.812 Y70.881 Z-1.471 F60.000
G1 X-24.340 Y70.881 Z-1.471 F200.000
G1 X-24.342 Y70.951 Z-1.471 F200.000
G1 X24.342 Y70.951 Z-1.471 F200.000
G1 X24.340 Y70.881 Z-1.471 F200.000
G1 X23.812 Y70.881 Z-1.471 F200.000
G1 X23.812 Y70.881 Z-1.618 F60.000
G1 X-24.340 Y70.881 Z-1.618 F200.000
G1 X-24.342 Y70.951 Z-1.618 F200.000
G1 X24.342 Y70.951 Z-1.618 F200.000
G1 X24.340 Y70.881 Z-1.618 F200.000
G1 X23.812 Y70.881 Z-1.618 F200.000
G1 X23.812 Y70.881 Z-1.765 F60.000
G1 X-24.340 Y70.881 Z-1.765 F200.000
G1 X-24.342 Y70.951 Z-1.765 F200.000
G1 X24.342 Y70.951 Z-1.765 F200.000
G1 X24.340 Y70.881 Z-1.765 F200.000
G1 X23.812 Y70.881 Z-1.765 F200.000
G1 X23.812 Y70.881 Z-1.900 F60.000
G1 X-24.340 Y70.881 Z-1.900 F200.000
G1 X-24.342 Y70.951 Z-1.900 F200.000
G1 X24.342 Y70.951 Z-1.900 F200.000
G1 X24.340 Y70.881 Z-1.900 F200.000
G1 X23.812 Y70.881 Z-1.900 F200.000
G0 Z5.000
G0 Z5.000
G0 X23.812 Y70.881
G0 Y103.382
G0 Y103.382 Z3.000
G1 X23.812 Y103.382 Z-0.147 F60.000
G1 X-24.840 Y103.382 Z-0.147 F200.000
G1 X-24.842 Y103.452 Z-0.147 F200.000
G1 X24.842 Y103.452 Z-0.147 F200.000
G1 X24.840 Y103.382 Z-0.147 F200.000
G1 X23.812 Y103.382 Z-0.147 F200.000
G1 X23.812 Y103.382 Z-0.294 F60.000
G1 X-24.840 Y103.382 Z-0.294 F200.000
G1 X-24.842 Y103.452 Z-0.294 F200.000
G1 X24.842 Y103.452 Z-0.294 F200.000
G1 X24.840 Y103.382 Z-0.294 F200.000
G1 X23.812 Y103.382 Z-0.294 F200.000
G1 X23.812 Y103.382 Z-0.441 F60.000
G1 X-24.840 Y103.382 Z-0.441 F200.000
G1 X-24.842 Y103.452 Z-0.441 F200.000
G1 X24.842 Y103.452 Z-0.441 F200.000
G1 X24.840 Y103.382 Z-0.441 F200.000
G1 X23.812 Y103.382 Z-0.441 F200.000
G1 X23.812 Y103.382 Z-0.588 F60.000
G1 X-24.840 Y103.382 Z-0.588 F200.000
G1 X-24.842 Y103.452 Z-0.588 F200.000
G1 X24.842 Y103.452 Z-0.588 F200.000
G1 X24.840 Y103.382 Z-0.588 F200.000
G1 X23.812 Y103.382 Z-0.588 F200.000
G1 X23.812 Y103.382 Z-0.735 F60.000
G1 X-24.840 Y103.382 Z-0.735 F200.000
G1 X-24.842 Y103.452 Z-0.735 F200.000
G1 X24.842 Y103.452 Z-0.735 F200.000
G1 X24.840 Y103.382 Z-0.735 F200.000
G1 X23.812 Y103.382 Z-0.735 F200.000
G1 X23.812 Y103.382 Z-0.882 F60.000
G1 X-24.840 Y103.382 Z-0.882 F200.000
G1 X-24.842 Y103.452 Z-0.882 F200.000
G1 X24.842 Y103.452 Z-0.882 F200.000
G1 X24.840 Y103.382 Z-0.882 F200.000
G1 X23.812 Y103.382 Z-0.882 F200.000
G1 X23.812 Y103.382 Z-1.029 F60.000
G1 X-24.840 Y103.382 Z-1.029 F200.000
G1 X-24.842 Y103.452 Z-1.029 F200.000
G1 X24.842 Y103.452 Z-1.029 F200.000
G1 X24.840 Y103.382 Z-1.029 F200.000
G1 X23.812 Y103.382 Z-1.029 F200.000
G1 X23.812 Y103.382 Z-1.176 F60.000
G1 X-24.840 Y103.382 Z-1.176 F200.000
G1 X-24.842 Y103.452 Z-1.176 F200.000
G1 X24.842 Y103.452 Z-1.176 F200.000
G1 X24.840 Y103.382 Z-1.176 F200.000
G1 X23.812 Y103.382 Z-1.176 F200.000
G1 X23.812 Y103.382 Z-1.324 F60.000
G1 X-24.840 Y103.382 Z-1.324 F200.000
G1 X-24.842 Y103.452 Z-1.324 F200.000
G1 X24.842 Y103.452 Z-1.324 F200.000
G1 X24.840 Y103.382 Z-1.324 F200.000
G1 X23.812 Y103.382 Z-1.324 F200.000
G1 X23.812 Y103.382 Z-1.471 F60.000
G1 X-24.840 Y103.382 Z-1.471 F200.000
G1 X-24.842 Y103.452 Z-1.471 F200.000
G1 X24.842 Y103.452 Z-1.471 F200.000
G1 X24.840 Y103.382 Z-1.471 F200.000
G1 X23.812 Y103.382 Z-1.471 F200.000
G1 X23.812 Y103.382 Z-1.618 F60.000
G1 X-24.840 Y103.382 Z-1.618 F200.000
G1 X-24.842 Y103.452 Z-1.618 F200.000
G1 X24.842 Y103.452 Z-1.618 F200.000
G1 X24.840 Y103.382 Z-1.618 F200.000
G1 X23.812 Y103.382 Z-1.618 F200.000
G1 X23.812 Y103.382 Z-1.765 F60.000
G1 X-24.840 Y103.382 Z-1.765 F200.000
G1 X-24.842 Y103.452 Z-1.765 F200.000
G1 X24.842 Y103.452 Z-1.765 F200.000
G1 X24.840 Y103.382 Z-1.765 F200.000
G1 X23.812 Y103.382 Z-1.765 F200.000
G1 X23.812 Y103.382 Z-1.900 F60.000
G1 X-24.840 Y103.382 Z-1.900 F200.000
G1 X-24.842 Y103.452 Z-1.900 F200.000
G1 X24.842 Y103.452 Z-1.900 F200.000
G1 X24.840 Y103.382 Z-1.900 F200.000
G1 X23.812 Y103.382 Z-1.900 F200.000
G0 Z5.000
G0 Z5.000
G0 X23.812 Y103.382
G0 Y134.059
G0 Y134.059 Z3.000
G1 X23.812 Y134.059 Z-0.147 F60.000
G1 X-25.312 Y134.059 Z-0.147 F200.000
G1 X-25.313 Y134.129 Z-0.147 F200.000
G1 X25.313 Y134.129 Z-0.147 F200.000
G1 X25.312 Y134.059 Z-0.147 F200.000
G1 X23.812 Y134.059 Z-0.147 F200.000
G1 X23.812 Y134.059 Z-0.294 F60.000
G1 X-25.312 Y134.059 Z-0.294 F200.000
G1 X-25.313 Y134.129 Z-0.294 F200.000
G1 X25.313 Y134.129 Z-0.294 F200.000
G1 X25.312 Y134.059 Z-0.294 F200.000
G1 X23.812 Y134.059 Z-0.294 F200.000
G1 X23.812 Y134.059 Z-0.441 F60.000
G1 X-25.312 Y134.059 Z-0.441 F200.000
G1 X-25.313 Y134.129 Z-0.441 F200.000
G1 X25.313 Y134.129 Z-0.441 F200.000
G1 X25.312 Y134.059 Z-0.441 F200.000
G1 X23.812 Y134.059 Z-0.441 F200.000
G1 X23.812 Y134.059 Z-0.588 F60.000
G1 X-25.312 Y134.059 Z-0.588 F200.000
G1 X-25.313 Y134.129 Z-0.588 F200.000
G1 X25.313 Y134.129 Z-0.588 F200.000
G1 X25.312 Y134.059 Z-0.588 F200.000
G1 X23.812 Y134.059 Z-0.588 F200.000
G1 X23.812 Y134.059 Z-0.735 F60.000
G1 X-25.312 Y134.059 Z-0.735 F200.000
G1 X-25.313 Y134.129 Z-0.735 F200.000
G1 X25.313 Y134.129 Z-0.735 F200.000
G1 X25.312 Y134.059 Z-0.735 F200.000
G1 X23.812 Y134.059 Z-0.735 F200.000
G1 X23.812 Y134.059 Z-0.882 F60.000
G1 X-25.312 Y134.059 Z-0.882 F200.000
G1 X-25.313 Y134.129 Z-0.882 F200.000
G1 X25.313 Y134.129 Z-0.882 F200.000
G1 X25.312 Y134.059 Z-0.882 F200.000
G1 X23.812 Y134.059 Z-0.882 F200.000
G1 X23.812 Y134.059 Z-1.029 F60.000
G1 X-25.312 Y134.059 Z-1.029 F200.000
G1 X-25.313 Y134.129 Z-1.029 F200.000
G1 X25.313 Y134.129 Z-1.029 F200.000
G1 X25.312 Y134.059 Z-1.029 F200.000
G1 X23.812 Y134.059 Z-1.029 F200.000
G1 X23.812 Y134.059 Z-1.176 F60.000
G1 X-25.312 Y134.059 Z-1.176 F200.000
G1 X-25.313 Y134.129 Z-1.176 F200.000
G1 X25.313 Y134.129 Z-1.176 F200.000
G1 X25.312 Y134.059 Z-1.176 F200.000
G1 X23.812 Y134.059 Z-1.176 F200.000
G1 X23.812 Y134.059 Z-1.324 F60.000
G1 X-25.312 Y134.059 Z-1.324 F200.000
G1 X-25.313 Y134.129 Z-1.324 F200.000
G1 X25.313 Y134.129 Z-1.324 F200.000
G1 X25.312 Y134.059 Z-1.324 F200.000
G1 X23.812 Y134.059 Z-1.324 F200.000
G1 X23.812 Y134.059 Z-1.471 F60.000
G1 X-25.312 Y134.059 Z-1.471 F200.000
G1 X-25.313 Y134.129 Z-1.471 F200.000
G1 X25.313 Y134.129 Z-1.471 F200.000
G1 X25.312 Y134.059 Z-1.471 F200.000
G1 X23.812 Y134.059 Z-1.471 F200.000
G1 X23.812 Y134.059 Z-1.618 F60.000
G1 X-25.312 Y134.059 Z-1.618 F200.000
G1 X-25.313 Y134.129 Z-1.618 F200.000
G1 X25.313 Y134.129 Z-1.618 F200.000
G1 X25.312 Y134.059 Z-1.618 F200.000
G1 X23.812 Y134.059 Z-1.618 F200.000
G1 X23.812 Y134.059 Z-1.765 F60.000
G1 X-25.312 Y134.059 Z-1.765 F200.000
G1 X-25.313 Y134.129 Z-1.765 F200.000
G1 X25.313 Y134.129 Z-1.765 F200.000
G1 X25.312 Y134.059 Z-1.765 F200.000
G1 X23.812 Y134.059 Z-1.765 F200.000
G1 X23.812 Y134.059 Z-1.900 F60.000
G1 X-25.312 Y134.059 Z-1.900 F200.000
G1 X-25.313 Y134.129 Z-1.900 F200.000
G1 X25.313 Y134.129 Z-1.900 F200.000
G1 X25.312 Y134.059 Z-1.900 F200.000
G1 X23.812 Y134.059 Z-1.900 F200.000
G0 Z5.000
G0 Z5.000
G0 X23.812 Y134.059
G0 Y163.015
G0 Y163.015 Z3.000
G1 X23.812 Y163.015 Z-0.147 F60.000
G1 X-25.758 Y163.015 Z-0.147 F200.000
G1 X-25.759 Y163.085 Z-0.147 F200.000
G1 X25.759 Y163.085 Z-0.147 F200.000
G1 X25.758 Y163.015 Z-0.147 F200.000
G1 X23.812 Y163.015 Z-0.147 F200.000
G1 X23.812 Y163.015 Z-0.294 F60.000
G1 X-25.758 Y163.015 Z-0.294 F200.000
G1 X-25.759 Y163.085 Z-0.294 F200.000
G1 X25.759 Y163.085 Z-0.294 F200.000
G1 X25.758 Y163.015 Z-0.294 F200.000
G1 X23.812 Y163.015 Z-0.294 F200.000
G1 X23.812 Y163.015 Z-0.441 F60.000
G1 X-25.758 Y163.015 Z-0.441 F200.000
G1 X-25.759 Y163.085 Z-0.441 F200.000
G1 X25.759 Y163.085 Z-0.441 F200.000
G1 X25.758 Y163.015 Z-0.441 F200.000
G1 X23.812 Y163.015 Z-0.441 F200.000
G1 X23.812 Y163.015 Z-0.588 F60.000
G1 X-25.758 Y163.015 Z-0.588 F200.000
G1 X-25.759 Y163.085 Z-0.588 F200.000
G1 X25.759 Y163.085 Z-0.588 F200.000
G1 X25.758 Y163.015 Z-0.588 F200.000
G1 X23.812 Y163.015 Z-0.588 F200.000
G1 X23.812 Y163.015 Z-0.735 F60.000
G1 X-25.758 Y163.015 Z-0.735 F200.000
G1 X-25.759 Y163.085 Z-0.735 F200.000
G1 X25.759 Y163.085 Z-0.735 F200.000
G1 X25.758 Y163.015 Z-0.735 F200.000
G1 X23.812 Y163.015 Z-0.735 F200.000
G1 X23.812 Y163.015 Z-0.882 F60.000
G1 X-25.758 Y163.015 Z-0.882 F200.000
G1 X-25.759 Y163.085 Z-0.882 F200.000
G1 X25.759 Y163.085 Z-0.882 F200.000
G1 X25.758 Y163.015 Z-0.882 F200.000
G1 X23.812 Y163.015 Z-0.882 F200.000
G1 X23.812 Y163.015 Z-1.029 F60.000
G1 X-25.758 Y163.015 Z-1.029 F200.000
G1 X-25.759 Y163.085 Z-1.029 F200.000
G1 X25.759 Y163.085 Z-1.029 F200.000
G1 X25.758 Y163.015 Z-1.029 F200.000
G1 X23.812 Y163.015 Z-1.029 F200.000
G1 X23.812 Y163.015 Z-1.176 F60.000
G1 X-25.758 Y163.015 Z-1.176 F200.000
G1 X-25.759 Y163.085 Z-1.176 F200.000
G1 X25.759 Y163.085 Z-1.176 F200.000
G1 X25.758 Y163.015 Z-1.176 F200.000
G1 X23.812 Y163.015 Z-1.176 F200.000
G1 X23.812 Y163.015 Z-1.324 F60.000
G1 X-25.758 Y163.015 Z-1.324 F200.000
G1 X-25.759 Y163.085 Z-1.324 F200.000
G1 X25.759 Y163.085 Z-1.324 F200.000
G1 X25.758 Y163.015 Z-1.324 F200.000
G1 X23.812 Y163.015 Z-1.324 F200.000
G1 X23.812 Y163.015 Z-1.471 F60.000
G1 X-25.758 Y163.015 Z-1.471 F200.000
G1 X-25.759 Y163.085 Z-1.471 F200.000
G1 X25.759 Y163.085 Z-1.471 F200.000
G1 X25.758 Y163.015 Z-1.471 F200.000
G1 X23.812 Y163.015 Z-1.471 F200.000
G1 X23.812 Y163.015 Z-1.618 F60.000
G1 X-25.758 Y163.015 Z-1.618 F200.000
G1 X-25.759 Y163.085 Z-1.618 F200.000
G1 X25.759 Y163.085 Z-1.618 F200.000
G1 X25.758 Y163.015 Z-1.618 F200.000
G1 X23.812 Y163.015 Z-1.618 F200.000
G1 X23.812 Y163.015 Z-1.765 F60.000
G1 X-25.758 Y163.015 Z-1.765 F200.000
G1 X-25.759 Y163.085 Z-1.765 F200.000
G1 X25.759 Y163.085 Z-1.765 F200.000
G1 X25.758 Y163.015 Z-1.765 F200.000
G1 X23.812 Y163.015 Z-1.765 F200.000
G1 X23.812 Y163.015 Z-1.900 F60.000
G1 X-25.758 Y163.015 Z-1.900 F200.000
G1 X-25.759 Y163.085 Z-1.900 F200.000
G1 X25.759 Y163.085 Z-1.900 F200.000
G1 X25.758 Y163.015 Z-1.900 F200.000
G1 X23.812 Y163.015 Z-1.900 F200.000
G0 Z5.000
G0 Z5.000
G0 X23.812 Y163.015
G0 Y190.345
G0 Y190.345 Z3.000
G1 X23.812 Y190.345 Z-0.147 F60.000
G1 X-26.178 Y190.345 Z-0.147 F200.000
G1 X-26.179 Y190.415 Z-0.147 F200.000
G1 X26.179 Y190.415 Z-0.147 F200.000
G1 X26.178 Y190.345 Z-0.147 F200.000
G1 X23.812 Y190.345 Z-0.147 F200.000
G1 X23.812 Y190.345 Z-0.294 F60.000
G1 X-26.178 Y190.345 Z-0.294 F200.000
G1 X-26.179 Y190.415 Z-0.294 F200.000
G1 X26.179 Y190.415 Z-0.294 F200.000
G1 X26.178 Y190.345 Z-0.294 F200.000
G1 X23.812 Y190.345 Z-0.294 F200.000
G1 X23.812 Y190.345 Z-0.441 F60.000
G1 X-26.178 Y190.345 Z-0.441 F200.000
G1 X-26.179 Y190.415 Z-0.441 F200.000
G1 X26.179 Y190.415 Z-0.441 F200.000
G1 X26.178 Y190.345 Z-0.441 F200.000
G1 X23.812 Y190.345 Z-0.441 F200.000
G1 X23.812 Y190.345 Z-0.588 F60.000
G1 X-26.178 Y190.345 Z-0.588 F200.000
G1 X-26.179 Y190.415 Z-0.588 F200.000
G1 X26.179 Y190.415 Z-0.588 F200.000
G1 X26.178 Y190.345 Z-0.588 F200.000
G1 X23.812 Y190.345 Z-0.588 F200.000
G1 X23.812 Y190.345 Z-0.735 F60.000
G1 X-26.178 Y190.345 Z-0.735 F200.000
G1 X-26.179 Y190.415 Z-0.735 F200.000
G1 X26.179 Y190.415 Z-0.735 F200.000
G1 X26.178 Y190.345 Z-0.735 F200.000
G1 X23.812 Y190.345 Z-0.735 F200.000
G1 X23.812 Y190.345 Z-0.882 F60.000
G1 X-26.178 Y190.345 Z-0.882 F200.000
G1 X-26.179 Y190.415 Z-0.882 F200.000
G1 X26.179 Y190.415 Z-0.882 F200.000
G1 X26.178 Y190.345 Z-0.882 F200.000
G1 X23.812 Y190.345 Z-0.882 F200.000
G1 X23.812 Y190.345 Z-1.029 F60.000
G1 X-26.178 Y190.345 Z-1.029 F200.000
G1 X-26.179 Y190.415 Z-1.029 F200.000
G1 X26.179 Y190.415 Z-1.029 F200.000
G1 X26.178 Y190.345 Z-1.029 F200.000
G1 X23.812 Y190.345 Z-1.029 F200.000
G1 X23.812 Y190.345 Z-1.176 F60.000
G1 X-26.178 Y190.345 Z-1.176 F200.000
G1 X-26.179 Y190.415 Z-1.176 F200.000
G1 X26.179 Y190.415 Z-1.176 F200.000
G1 X26.178 Y190.345 Z-1.176 F200.000
G1 X23.812 Y190.345 Z-1.176 F200.000
G1 X23.812 Y190.345 Z-1.324 F60.000
G1 X-26.178 Y190.345 Z-1.324 F200.000
G1 X-26.179 Y190.415 Z-1.324 F200.000
G1 X26.179 Y190.415 Z-1.324 F200.000
G1 X26.178 Y190.345 Z-1.324 F200.000
G1 X23.812 Y190.345 Z-1.324 F200.000
G1 X23.812 Y190.345 Z-1.471 F60.000
G1 X-26.178 Y190.345 Z-1.471 F200.000
G1 X-26.179 Y190.415 Z-1.471 F200.000
G1 X26.179 Y190.415 Z-1.471 F200.000
G1 X26.178 Y190.345 Z-1.471 F200.000
G1 X23.812 Y190.345 Z-1.471 F200.000
G1 X23.812 Y190.345 Z-1.618 F60.000
G1 X-26.178 Y190.345 Z-1.618 F200.000
G1 X-26.179 Y190.415 Z-1.618 F200.000
G1 X26.179 Y190.415 Z-1.618 F200.000
G1 X26.178 Y190.345 Z-1.618 F200.000
G1 X23.812 Y190.345 Z-1.618 F200.000
G1 X23.812 Y190.345 Z-1.765 F60.000
G1 X-26.178 Y190.345 Z-1.765 F200.000
G1 X-26.179 Y190.415 Z-1.765 F200.000
G1 X26.179 Y190.415 Z-1.765 F200.000
G1 X26.178 Y190.345 Z-1.765 F200.000
G1 X23.812 Y190.345 Z-1.765 F200.000
G1 X23.812 Y190.345 Z-1.900 F60.000
G1 X-26.178 Y190.345 Z-1.900 F200.000
G1 X-26.179 Y190.415 Z-1.900 F200.000
G1 X26.179 Y190.415 Z-1.900 F200.000
G1 X26.178 Y190.345 Z-1.900 F200.000
G1 X23.812 Y190.345 Z-1.900 F200.000
G0 Z5.000
G0 Z5.000
G0 X23.812 Y190.345
G0 Y216.141
G0 Y216.141 Z3.000
G1 X23.812 Y216.141 Z-0.147 F60.000
G1 X-26.575 Y216.141 Z-0.147 F200.000
G1 X-26.576 Y216.211 Z-0.147 F200.000
G1 X26.576 Y216.211 Z-0.147 F200.000
G1 X26.575 Y216.141 Z-0.147 F200.000
G1 X23.812 Y216.141 Z-0.147 F200.000
G1 X23.812 Y216.141 Z-0.294 F60.000
G1 X-26.575 Y216.141 Z-0.294 F200.000
G1 X-26.576 Y216.211 Z-0.294 F200.000
G1 X26.576 Y216.211 Z-0.294 F200.000
G1 X26.575 Y216.141 Z-0.294 F200.000
G1 X23.812 Y216.141 Z-0.294 F200.000
G1 X23.812 Y216.141 Z-0.441 F60.000
G1 X-26.575 Y216.141 Z-0.441 F200.000
G1 X-26.576 Y216.211 Z-0.441 F200.000
G1 X26.576 Y216.211 Z-0.441 F200.000
G1 X26.575 Y216.141 Z-0.441 F200.000
G1 X23.812 Y216.141 Z-0.441 F200.000
G1 X23.812 Y216.141 Z-0.588 F60.000
G1 X-26.575 Y216.141 Z-0.588 F200.000
G1 X-26.576 Y216.211 Z-0.588 F200.000
G1 X26.576 Y216.211 Z-0.588 F200.000
G1 X26.575 Y216.141 Z-0.588 F200.000
G1 X23.812 Y216.141 Z-0.588 F200.000
G1 X23.812 Y216.141 Z-0.735 F60.000
G1 X-26.575 Y216.141 Z-0.735 F200.000
G1 X-26.576 Y216.211 Z-0.735 F200.000
G1 X26.576 Y216.211 Z-0.735 F200.000
G1 X26.575 Y216.141 Z-0.735 F200.000
G1 X23.812 Y216.141 Z-0.735 F200.000
G1 X23.812 Y216.141 Z-0.882 F60.000
G1 X-26.575 Y216.141 Z-0.882 F200.000
G1 X-26.576 Y216.211 Z-0.882 F200.000
G1 X26.576 Y216.211 Z-0.882 F200.000
G1 X26.575 Y216.141 Z-0.882 F200.000
G1 X23.812 Y216.141 Z-0.882 F200.000
G1 X23.812 Y216.141 Z-1.029 F60.000
G1 X-26.575 Y216.141 Z-1.029 F200.000
G1 X-26.576 Y216.211 Z-1.029 F200.000
G1 X26.576 Y216.211 Z-1.029 F200.000
G1 X26.575 Y216.141 Z-1.029 F200.000
G1 X23.812 Y216.141 Z-1.029 F200.000
G1 X23.812 Y216.141 Z-1.176 F60.000
G1 X-26.575 Y216.141 Z-1.176 F200.000
G1 X-26.576 Y216.211 Z-1.176 F200.000
G1 X26.576 Y216.211 Z-1.176 F200.000
G1 X26.575 Y216.141 Z-1.176 F200.000
G1 X23.812 Y216.141 Z-1.176 F200.000
G1 X23.812 Y216.141 Z-1.324 F60.000
G1 X-26.575 Y216.141 Z-1.324 F200.000
G1 X-26.576 Y216.211 Z-1.324 F200.000
G1 X26.576 Y216.211 Z-1.324 F200.000
G1 X26.575 Y216.141 Z-1.324 F200.000
G1 X23.812 Y216.141 Z-1.324 F200.000
G1 X23.812 Y216.141 Z-1.471 F60.000
G1 X-26.575 Y216.141 Z-1.471 F200.000
G1 X-26.576 Y216.211 Z-1.471 F200.000
G1 X26.576 Y216.211 Z-1.471 F200.000
G1 X26.575 Y216.141 Z-1.471 F200.000
G1 X23.812 Y216.141 Z-1.471 F200.000
G1 X23.812 Y216.141 Z-1.618 F60.000
G1 X-26.575 Y216.141 Z-1.618 F200.000
G1 X-26.576 Y216.211 Z-1.618 F200.000
G1 X26.576 Y216.211 Z-1.618 F200.000
G1 X26.575 Y216.141 Z-1.618 F200.000
G1 X23.812 Y216.141 Z-1.618 F200.000
G1 X23.812 Y216.141 Z-1.765 F60.000
G1 X-26.575 Y216.141 Z-1.765 F200.000
G1 X-26.576 Y216.211 Z-1.765 F200.000
G1 X26.576 Y216.211 Z-1.765 F200.000
G1 X26.575 Y216.141 Z-1.765 F200.000
G1 X23.812 Y216.141 Z-1.765 F200.000
G1 X23.812 Y216.141 Z-1.900 F60.000
G1 X-26.575 Y216.141 Z-1.900 F200.000
G1 X-26.576 Y216.211 Z-1.900 F200.000
G1 X26.576 Y216.211 Z-1.900 F200.000
G1 X26.575 Y216.141 Z-1.900 F200.000
G1 X23.812 Y216.141 Z-1.900 F200.000
G0 Z5.000
G0 Z5.000
G0 X23.812 Y216.141
G0 Y240.490
G0 Y240.490 Z3.000
G1 X23.812 Y240.490 Z-0.147 F60.000
G1 X-26.950 Y240.490 Z-0.147 F200.000
G1 X-26.951 Y240.560 Z-0.147 F200.000
G1 X26.951 Y240.560 Z-0.147 F200.000
G1 X26.950 Y240.490 Z-0.147 F200.000
G1 X23.812 Y240.490 Z-0.147 F200.000
G1 X23.812 Y240.490 Z-0.294 F60.000
G1 X-26.950 Y240.490 Z-0.294 F200.000
G1 X-26.951 Y240.560 Z-0.294 F200.000
G1 X26.951 Y240.560 Z-0.294 F200.000
G1 X26.950 Y240.490 Z-0.294 F200.000
G1 X23.812 Y240.490 Z-0.294 F200.000
G1 X23.812 Y240.490 Z-0.441 F60.000
G1 X-26.950 Y240.490 Z-0.441 F200.000
G1 X-26.951 Y240.560 Z-0.441 F200.000
G1 X26.951 Y240.560 Z-0.441 F200.000
G1 X26.950 Y240.490 Z-0.441 F200.000
G1 X23.812 Y240.490 Z-0.441 F200.000
G1 X23.812 Y240.490 Z-0.588 F60.000
G1 X-26.950 Y240.490 Z-0.588 F200.000
G1 X-26.951 Y240.560 Z-0.588 F200.000
G1 X26.951 Y240.560 Z-0.588 F200.000
G1 X26.950 Y240.490 Z-0.588 F200.000
G1 X23.812 Y240.490 Z-0.588 F200.000
G1 X23.812 Y240.490 Z-0.735 F60.000
G1 X-26.950 Y240.490 Z-0.735 F200.000
G1 X-26.951 Y240.560 Z-0.735 F200.000
G1 X26.951 Y240.560 Z-0.735 F200.000
G1 X26.950 Y240.490 Z-0.735 F200.000
G1 X23.812 Y240.490 Z-0.735 F200.000
G1 X23.812 Y240.490 Z-0.882 F60.000
G1 X-26.950 Y240.490 Z-0.882 F200.000
G1 X-26.951 Y240.560 Z-0.882 F200.000
G1 X26.951 Y240.560 Z-0.882 F200.000
G1 X26.950 Y240.490 Z-0.882 F200.000
G1 X23.812 Y240.490 Z-0.882 F200.000
G1 X23.812 Y240.490 Z-1.029 F60.000
G1 X-26.950 Y240.490 Z-1.029 F200.000
G1 X-26.951 Y240.560 Z-1.029 F200.000
G1 X26.951 Y240.560 Z-1.029 F200.000
G1 X26.950 Y240.490 Z-1.029 F200.000
G1 X23.812 Y240.490 Z-1.029 F200.000
G1 X23.812 Y240.490 Z-1.176 F60.000
G1 X-26.950 Y240.490 Z-1.176 F200.000
G1 X-26.951 Y240.560 Z-1.176 F200.000
G1 X26.951 Y240.560 Z-1.176 F200.000
G1 X26.950 Y240.490 Z-1.176 F200.000
G1 X23.812 Y240.490 Z-1.176 F200.000
G1 X23.812 Y240.490 Z-1.324 F60.000
G1 X-26.950 Y240.490 Z-1.324 F200.000
G1 X-26.951 Y240.560 Z-1.324 F200.000
G1 X26.951 Y240.560 Z-1.324 F200.000
G1 X26.950 Y240.490 Z-1.324 F200.000
G1 X23.812 Y240.490 Z-1.324 F200.000
G1 X23.812 Y240.490 Z-1.471 F60.000
G1 X-26.950 Y240.490 Z-1.471 F200.000
G1 X-26.951 Y240.560 Z-1.471 F200.000
G1 X26.951 Y240.560 Z-1.471 F200.000
G1 X26.950 Y240.490 Z-1.471 F200.000
G1 X23.812 Y240.490 Z-1.471 F200.000
G1 X23.812 Y240.490 Z-1.618 F60.000
G1 X-26.950 Y240.490 Z-1.618 F200.000
G1 X-26.951 Y240.560 Z-1.618 F200.000
G1 X26.951 Y240.560 Z-1.618 F200.000
G1 X26.950 Y240.490 Z-1.618 F200.000
G1 X23.812 Y240.490 Z-1.618 F200.000
G1 X23.812 Y240.490 Z-1.765 F60.000
G1 X-26.950 Y240.490 Z-1.765 F200.000
G1 X-26.951 Y240.560 Z-1.765 F200.000
G1 X26.951 Y240.560 Z-1.765 F200.000
G1 X26.950 Y240.490 Z-1.765 F200.000
G1 X23.812 Y240.490 Z-1.765 F200.000
G1 X23.812 Y240.490 Z-1.900 F60.000
G1 X-26.950 Y240.490 Z-1.900 F200.000
G1 X-26.951 Y240.560 Z-1.900 F200.000
G1 X26.951 Y240.560 Z-1.900 F200.000
G1 X26.950 Y240.490 Z-1.900 F200.000
G1 X23.812 Y240.490 Z-1.900 F200.000
G0 Z5.000
G0 Z5.000
G0 X23.812 Y240.490
G0 Y263.472
G0 Y263.472 Z3.000
G1 X23.812 Y263.472 Z-0.147 F60.000
G1 X-27.303 Y263.472 Z-0.147 F200.000
G1 X-27.304 Y263.542 Z-0.147 F200.000
G1 X27.304 Y263.542 Z-0.147 F200.000
G1 X27.303 Y263.472 Z-0.147 F200.000
G1 X23.812 Y263.472 Z-0.147 F200.000
G1 X23.812 Y263.472 Z-0.294 F60.000
G1 X-27.303 Y263.472 Z-0.294 F200.000
G1 X-27.304 Y263.542 Z-0.294 F200.000
G1 X27.304 Y263.542 Z-0.294 F200.000
G1 X27.303 Y263.472 Z-0.294 F200.000
G1 X23.812 Y263.472 Z-0.294 F200.000
G1 X23.812 Y263.472 Z-0.441 F60.000
G1 X-27.303 Y263.472 Z-0.441 F200.000
G1 X-27.304 Y263.542 Z-0.441 F200.000
G1 X27.304 Y263.542 Z-0.441 F200.000
G1 X27.303 Y263.472 Z-0.441 F200.000
G1 X23.812 Y263.472 Z-0.441 F200.000
G1 X23.812 Y263.472 Z-0.588 F60.000
G1 X-27.303 Y263.472 Z-0.588 F200.000
G1 X-27.304 Y263.542 Z-0.588 F200.000
G1 X27.304 Y263.542 Z-0.588 F200.000
G1 X27.303 Y263.472 Z-0.588 F200.000
G1 X23.812 Y263.472 Z-0.588 F200.000
G1 X23.812 Y263.472 Z-0.735 F60.000
G1 X-27.303 Y263.472 Z-0.735 F200.000
G1 X-27.304 Y263.542 Z-0.735 F200.000
G1 X27.304 Y263.542 Z-0.735 F200.000
G1 X27.303 Y263.472 Z-0.735 F200.000
G1 X23.812 Y263.472 Z-0.735 F200.000
G1 X23.812 Y263.472 Z-0.882 F60.000
G1 X-27.303 Y263.472 Z-0.882 F200.000
G1 X-27.304 Y263.542 Z-0.882 F200.000
G1 X27.304 Y263.542 Z-0.882 F200.000
G1 X27.303 Y263.472 Z-0.882 F200.000
G1 X23.812 Y263.472 Z-0.882 F200.000
G1 X23.812 Y263.472 Z-1.029 F60.000
G1 X-27.303 Y263.472 Z-1.029 F200.000
G1 X-27.304 Y263.542 Z-1.029 F200.000
G1 X27.304 Y263.542 Z-1.029 F200.000
G1 X27.303 Y263.472 Z-1.029 F200.000
G1 X23.812 Y263.472 Z-1.029 F200.000
G1 X23.812 Y263.472 Z-1.176 F60.000
G1 X-27.303 Y263.472 Z-1.176 F200.000
G1 X-27.304 Y263.542 Z-1.176 F200.000
G1 X27.304 Y263.542 Z-1.176 F200.000
G1 X27.303 Y263.472 Z-1.176 F200.000
G1 X23.812 Y263.472 Z-1.176 F200.000
G1 X23.812 Y263.472 Z-1.324 F60.000
G1 X-27.303 Y263.472 Z-1.324 F200.000
G1 X-27.304 Y263.542 Z-1.324 F200.000
G1 X27.304 Y263.542 Z-1.324 F200.000
G1 X27.303 Y263.472 Z-1.324 F200.000
G1 X23.812 Y263.472 Z-1.324 F200.000
G1 X23.812 Y263.472 Z-1.471 F60.000
G1 X-27.303 Y263.472 Z-1.471 F200.000
G1 X-27.304 Y263.542 Z-1.471 F200.000
G1 X27.304 Y263.542 Z-1.471 F200.000
G1 X27.303 Y263.472 Z-1.471 F200.000
G1 X23.812 Y263.472 Z-1.471 F200.000
G1 X23.812 Y263.472 Z-1.618 F60.000
G1 X-27.303 Y263.472 Z-1.618 F200.000
G1 X-27.304 Y263.542 Z-1.618 F200.000
G1 X27.304 Y263.542 Z-1.618 F200.000
G1 X27.303 Y263.472 Z-1.618 F200.000
G1 X23.812 Y263.472 Z-1.618 F200.000
G1 X23.812 Y263.472 Z-1.765 F60.000
G1 X-27.303 Y263.472 Z-1.765 F200.000
G1 X-27.304 Y263.542 Z-1.765 F200.000
G1 X27.304 Y263.542 Z-1.765 F200.000
G1 X27.303 Y263.472 Z-1.765 F200.000
G1 X23.812 Y263.472 Z-1.765 F200.000
G1 X23.812 Y263.472 Z-1.900 F60.000
G1 X-27.303 Y263.472 Z-1.900 F200.000
G1 X-27.304 Y263.542 Z-1.900 F200.000
G1 X27.304 Y263.542 Z-1.900 F200.000
G1 X27.303 Y263.472 Z-1.900 F200.000
G1 X23.812 Y263.472 Z-1.900 F200.000
G0 Z5.000
G0 Z5.000
G0 X23.812 Y263.472
G0 Y285.164
G0 Y285.164 Z3.000
G1 X23.812 Y285.164 Z-0.147 F60.000
G1 X-27.637 Y285.164 Z-0.147 F200.000
G1 X-27.638 Y285.234 Z-0.147 F200.000
G1 X27.638 Y285.234 Z-0.147 F200.000
G1 X27.637 Y285.164 Z-0.147 F200.000
G1 X23.812 Y285.164 Z-0.147 F200.000
G1 X23.812 Y285.164 Z-0.294 F60.000
G1 X-27.637 Y285.164 Z-0.294 F200.000
G1 X-27.638 Y285.234 Z-0.294 F200.000
G1 X27.638 Y285.234 Z-0.294 F200.000
G1 X27.637 Y285.164 Z-0.294 F200.000
G1 X23.812 Y285.164 Z-0.294 F200.000
G1 X23.812 Y285.164 Z-0.441 F60.000
G1 X-27.637 Y285.164 Z-0.441 F200.000
G1 X-27.638 Y285.234 Z-0.441 F200.000
G1 X27.638 Y285.234 Z-0.441 F200.000
G1 X27.637 Y285.164 Z-0.441 F200.000
G1 X23.812 Y285.164 Z-0.441 F200.000
G1 X23.812 Y285.164 Z-0.588 F60.000
G1 X-27.637 Y285.164 Z-0.588 F200.000
G1 X-27.638 Y285.234 Z-0.588 F200.000
G1 X27.638 Y285.234 Z-0.588 F200.000
G1 X27.637 Y285.164 Z-0.588 F200.000
G1 X23.812 Y285.164 Z-0.588 F200.000
G1 X23.812 Y285.164 Z-0.735 F60.000
G1 X-27.637 Y285.164 Z-0.735 F200.000
G1 X-27.638 Y285.234 Z-0.735 F200.000
G1 X27.638 Y285.234 Z-0.735 F200.000
G1 X27.637 Y285.164 Z-0.735 F200.000
G1 X23.812 Y285.164 Z-0.735 F200.000
G1 X23.812 Y285.164 Z-0.882 F60.000
G1 X-27.637 Y285.164 Z-0.882 F200.000
G1 X-27.638 Y285.234 Z-0.882 F200.000
G1 X27.638 Y285.234 Z-0.882 F200.000
G1 X27.637 Y285.164 Z-0.882 F200.000
G1 X23.812 Y285.164 Z-0.882 F200.000
G1 X23.812 Y285.164 Z-1.029 F60.000
G1 X-27.637 Y285.164 Z-1.029 F200.000
G1 X-27.638 Y285.234 Z-1.029 F200.000
G1 X27.638 Y285.234 Z-1.029 F200.000
G1 X27.637 Y285.164 Z-1.029 F200.000
G1 X23.812 Y285.164 Z-1.029 F200.000
G1 X23.812 Y285.164 Z-1.176 F60.000
G1 X-27.637 Y285.164 Z-1.176 F200.000
G1 X-27.638 Y285.234 Z-1.176 F200.000
G1 X27.638 Y285.234 Z-1.176 F200.000
G1 X27.637 Y285.164 Z-1.176 F200.000
G1 X23.812 Y285.164 Z-1.176 F200.000
G1 X23.812 Y285.164 Z-1.324 F60.000
G1 X-27.637 Y285.164 Z-1.324 F200.000
G1 X-27.638 Y285.234 Z-1.324 F200.000
G1 X27.638 Y285.234 Z-1.324 F200.000
G1 X27.637 Y285.164 Z-1.324 F200.000
G1 X23.812 Y285.164 Z-1.324 F200.000
G1 X23.812 Y285.164 Z-1.471 F60.000
G1 X-27.637 Y285.164 Z-1.471 F200.000
G1 X-27.638 Y285.234 Z-1.471 F200.000
G1 X27.638 Y285.234 Z-1.471 F200.000
G1 X27.637 Y285.164 Z-1.471 F200.000
G1 X23.812 Y285.164 Z-1.471 F200.000
G1 X23.812 Y285.164 Z-1.618 F60.000
G1 X-27.637 Y285.164 Z-1.618 F200.000
G1 X-27.638 Y285.234 Z-1.618 F200.000
G1 X27.638 Y285.234 Z-1.618 F200.000
G1 X27.637 Y285.164 Z-1.618 F200.000
G1 X23.812 Y285.164 Z-1.618 F200.000
G1 X23.812 Y285.164 Z-1.765 F60.000
G1 X-27.637 Y285.164 Z-1.765 F200.000
G1 X-27.638 Y285.234 Z-1.765 F200.000
G1 X27.638 Y285.234 Z-1.765 F200.000
G1 X27.637 Y285.164 Z-1.765 F200.000
G1 X23.812 Y285.164 Z-1.765 F200.000
G1 X23.812 Y285.164 Z-1.900 F60.000
G1 X-27.637 Y285.164 Z-1.900 F200.000
G1 X-27.638 Y285.234 Z-1.900 F200.000
G1 X27.638 Y285.234 Z-1.900 F200.000
G1 X27.637 Y285.164 Z-1.900 F200.000
G1 X23.812 Y285.164 Z-1.900 F200.000
G0 Z5.000
G0 Z5.000
G0 X23.812 Y285.164
G0 Y305.639
G0 Y305.639 Z3.000
G1 X23.812 Y305.639 Z-0.147 F60.000
G1 X-27.952 Y305.639 Z-0.147 F200.000
G1 X-27.953 Y305.709 Z-0.147 F200.000
G1 X27.953 Y305.709 Z-0.147 F200.000
G1 X27.952 Y305.639 Z-0.147 F200.000
G1 X23.812 Y305.639 Z-0.147 F200.000
G1 X23.812 Y305.639 Z-0.294 F60.000
G1 X-27.952 Y305.639 Z-0.294 F200.000
G1 X-27.953 Y305.709 Z-0.294 F200.000
G1 X27.953 Y305.709 Z-0.294 F200.000
G1 X27.952 Y305.639 Z-0.294 F200.000
G1 X23.812 Y305.639 Z-0.294 F200.000
G1 X23.812 Y305.639 Z-0.441 F60.000
G1 X-27.952 Y305.639 Z-0.441 F200.000
G1 X-27.953 Y305.709 Z-0.441 F200.000
G1 X27.953 Y305.709 Z-0.441 F200.000
G1 X27.952 Y305.639 Z-0.441 F200.000
G1 X23.812 Y305.639 Z-0.441 F200.000
G1 X23.812 Y305.639 Z-0.588 F60.000
G1 X-27.952 Y305.639 Z-0.588 F200.000
G1 X-27.953 Y305.709 Z-0.588 F200.000
G1 X27.953 Y305.709 Z-0.588 F200.000
G1 X27.952 Y305.639 Z-0.588 F200.000
G1 X23.812 Y305.639 Z-0.588 F200.000
G1 X23.812 Y305.639 Z-0.735 F60.000
G1 X-27.952 Y305.639 Z-0.735 F200.000
G1 X-27.953 Y305.709 Z-0.735 F200.000
G1 X27.953 Y305.709 Z-0.735 F200.000
G1 X27.952 Y305.639 Z-0.735 F200.000
G1 X23.812 Y305.639 Z-0.735 F200.000
G1 X23.812 Y305.639 Z-0.882 F60.000
G1 X-27.952 Y305.639 Z-0.882 F200.000
G1 X-27.953 Y305.709 Z-0.882 F200.000
G1 X27.953 Y305.709 Z-0.882 F200.000
G1 X27.952 Y305.639 Z-0.882 F200.000
G1 X23.812 Y305.639 Z-0.882 F200.000
G1 X23.812 Y305.639 Z-1.029 F60.000
G1 X-27.952 Y305.639 Z-1.029 F200.000
G1 X-27.953 Y305.709 Z-1.029 F200.000
G1 X27.953 Y305.709 Z-1.029 F200.000
G1 X27.952 Y305.639 Z-1.029 F200.000
G1 X23.812 Y305.639 Z-1.029 F200.000
G1 X23.812 Y305.639 Z-1.176 F60.000
G1 X-27.952 Y305.639 Z-1.176 F200.000
G1 X-27.953 Y305.709 Z-1.176 F200.000
G1 X27.953 Y305.709 Z-1.176 F200.000
G1 X27.952 Y305.639 Z-1.176 F200.000
G1 X23.812 Y305.639 Z-1.176 F200.000
G1 X23.812 Y305.639 Z-1.324 F60.000
G1 X-27.952 Y305.639 Z-1.324 F200.000
G1 X-27.953 Y305.709 Z-1.324 F200.000
G1 X27.953 Y305.709 Z-1.324 F200.000
G1 X27.952 Y305.639 Z-1.324 F200.000
G1 X23.812 Y305.639 Z-1.324 F200.000
G1 X23.812 Y305.639 Z-1.471 F60.000
G1 X-27.952 Y305.639 Z-1.471 F200.000
G1 X-27.953 Y305.709 Z-1.471 F200.000
G1 X27.953 Y305.709 Z-1.471 F200.000
G1 X27.952 Y305.639 Z-1.471 F200.000
G1 X23.812 Y305.639 Z-1.471 F200.000
G1 X23.812 Y305.639 Z-1.618 F60.000
G1 X-27.952 Y305.639 Z-1.618 F200.000
G1 X-27.953 Y305.709 Z-1.618 F200.000
G1 X27.953 Y305.709 Z-1.618 F200.000
G1 X27.952 Y305.639 Z-1.618 F200.000
G1 X23.812 Y305.639 Z-1.618 F200.000
G1 X23.812 Y305.639 Z-1.765 F60.000
G1 X-27.952 Y305.639 Z-1.765 F200.000
G1 X-27.953 Y305.709 Z-1.765 F200.000
G1 X27.953 Y305.709 Z-1.765 F200.000
G1 X27.952 Y305.639 Z-1.765 F200.000
G1 X23.812 Y305.639 Z-1.765 F200.000
G1 X23.812 Y305.639 Z-1.900 F60.000
G1 X-27.952 Y305.639 Z-1.900 F200.000
G1 X-27.953 Y305.709 Z-1.900 F200.000
G1 X27.953 Y305.709 Z-1.900 F200.000
G1 X27.952 Y305.639 Z-1.900 F200.000
G1 X23.812 Y305.639 Z-1.900 F200.000
G0 Z5.000
G0 Z5.000
G0 X23.812 Y305.639
G0 Y324.965
G0 Y324.965 Z3.000
G1 X23.812 Y324.965 Z-0.147 F60.000
G1 X-28.246 Y324.965 Z-0.147 F200.000
G1 X-28.246 Y325.035 Z-0.147 F200.000
G1 X28.251 Y325.035 Z-0.147 F200.000
G1 X28.249 Y324.965 Z-0.147 F200.000
G1 X23.812 Y324.965 Z-0.147 F200.000
G1 X23.812 Y324.965 Z-0.294 F60.000
G1 X-28.246 Y324.965 Z-0.294 F200.000
G1 X-28.246 Y325.035 Z-0.294 F200.000
G1 X28.251 Y325.035 Z-0.294 F200.000
G1 X28.249 Y324.965 Z-0.294 F200.000
G1 X23.812 Y324.965 Z-0.294 F200.000
G1 X23.812 Y324.965 Z-0.441 F60.000
G1 X-28.246 Y324.965 Z-0.441 F200.000
G1 X-28.246 Y325.035 Z-0.441 F200.000
G1 X28.251 Y325.035 Z-0.441 F200.000
G1 X28.249 Y324.965 Z-0.441 F200.000
G1 X23.812 Y324.965 Z-0.441 F200.000
G1 X23.812 Y324.965 Z-0.588 F60.000
G1 X-28.246 Y324.965 Z-0.588 F200.000
G1 X-28.246 Y325.035 Z-0.588 F200.000
G1 X28.251 Y325.035 Z-0.588 F200.000
G1 X28.249 Y324.965 Z-0.588 F200.000
G1 X23.812 Y324.965 Z-0.588 F200.000
G1 X23.812 Y324.965 Z-0.735 F60.000
G1 X-28.246 Y324.965 Z-0.735 F200.000
G1 X-28.246 Y325.035 Z-0.735 F200.000
G1 X28.251 Y325.035 Z-0.735 F200.000
G1 X28.249 Y324.965 Z-0.735 F200.000
G1 X23.812 Y324.965 Z-0.735 F200.000
G1 X23.812 Y324.965 Z-0.882 F60.000
G1 X-28.246 Y324.965 Z-0.882 F200.000
G1 X-28.246 Y325.035 Z-0.882 F200.000
G1 X28.251 Y325.035 Z-0.882 F200.000
G1 X28.249 Y324.965 Z-0.882 F200.000
G1 X23.812 Y324.965 Z-0.882 F200.000
G1 X23.812 Y324.965 Z-1.029 F60.000
G1 X-28.246 Y324.965 Z-1.029 F200.000
G1 X-28.246 Y325.035 Z-1.029 F200.000
G1 X28.251 Y325.035 Z-1.029 F200.000
G1 X28.249 Y324.965 Z-1.029 F200.000
G1 X23.812 Y324.965 Z-1.029 F200.000
G1 X23.812 Y324.965 Z-1.176 F60.000
G1 X-28.246 Y324.965 Z-1.176 F200.000
G1 X-28.246 Y325.035 Z-1.176 F200.000
G1 X28.251 Y325.035 Z-1.176 F200.000
G1 X28.249 Y324.965 Z-1.176 F200.000
G1 X23.812 Y324.965 Z-1.176 F200.000
G1 X23.812 Y324.965 Z-1.324 F60.000
G1 X-28.246 Y324.965 Z-1.324 F200.000
G1 X-28.246 Y325.035 Z-1.324 F200.000
G1 X28.251 Y325.035 Z-1.324 F200.000
G1 X28.249 Y324.965 Z-1.324 F200.000
G1 X23.812 Y324.965 Z-1.324 F200.000
G1 X23.812 Y324.965 Z-1.471 F60.000
G1 X-28.246 Y324.965 Z-1.471 F200.000
G1 X-28.246 Y325.035 Z-1.471 F200.000
G1 X28.251 Y325.035 Z-1.471 F200.000
G1 X28.249 Y324.965 Z-1.471 F200.000
G1 X23.812 Y324.965 Z-1.471 F200.000
G1 X23.812 Y324.965 Z-1.618 F60.000
G1 X-28.246 Y324.965 Z-1.618 F200.000
G1 X-28.246 Y325.035 Z-1.618 F200.000
G1 X28.251 Y325.035 Z-1.618 F200.000
G1 X28.249 Y324.965 Z-1.618 F200.000
G1 X23.812 Y324.965 Z-1.618 F200.000
G1 X23.812 Y324.965 Z-1.765 F60.000
G1 X-28.246 Y324.965 Z-1.765 F200.000
G1 X-28.246 Y325.035 Z-1.765 F200.000
G1 X28.251 Y325.035 Z-1.765 F200.000
G1 X28.249 Y324.965 Z-1.765 F200.000
G1 X23.812 Y324.965 Z-1.765 F200.000
G1 X23.812 Y324.965 Z-1.900 F60.000
G1 X-28.246 Y324.965 Z-1.900 F200.000
G1 X-28.246 Y325.035 Z-1.900 F200.000
G1 X28.251 Y325.035 Z-1.900 F200.000
G1 X28.249 Y324.965 Z-1.900 F200.000
G1 X23.812 Y324.965 Z-1.900 F200.000
G0 Z5.000
G0 Z5.000
G0 X23.812 Y324.965
G0 Y343.206
G0 Y343.206 Z3.000
G1 X23.812 Y343.206 Z-0.147 F60.000
G1 X-28.530 Y343.206 Z-0.147 F200.000
G1 X-28.531 Y343.276 Z-0.147 F200.000
G1 X28.531 Y343.276 Z-0.147 F200.000
G1 X28.530 Y343.206 Z-0.147 F200.000
G1 X23.812 Y343.206 Z-0.147 F200.000
G1 X23.812 Y343.206 Z-0.294 F60.000
G1 X-28.530 Y343.206 Z-0.294 F200.000
G1 X-28.531 Y343.276 Z-0.294 F200.000
G1 X28.531 Y343.276 Z-0.294 F200.000
G1 X28.530 Y343.206 Z-0.294 F200.000
G1 X23.812 Y343.206 Z-0.294 F200.000
G1 X23.812 Y343.206 Z-0.441 F60.000
G1 X-28.530 Y343.206 Z-0.441 F200.000
G1 X-28.531 Y343.276 Z-0.441 F200.000
G1 X28.531 Y343.276 Z-0.441 F200.000
G1 X28.530 Y343.206 Z-0.441 F200.000
G1 X23.812 Y343.206 Z-0.441 F200.000
G1 X23.812 Y343.206 Z-0.588 F60.000
G1 X-28.530 Y343.206 Z-0.588 F200.000
G1 X-28.531 Y343.276 Z-0.588 F200.000
G1 X28.531 Y343.276 Z-0.588 F200.000
G1 X28.530 Y343.206 Z-0.588 F200.000
G1 X23.812 Y343.206 Z-0.588 F200.000
G1 X23.812 Y343.206 Z-0.735 F60.000
G1 X-28.530 Y343.206 Z-0.735 F200.000
G1 X-28.531 Y343.276 Z-0.735 F200.000
G1 X28.531 Y343.276 Z-0.735 F200.000
G1 X28.530 Y343.206 Z-0.735 F200.000
G1 X23.812 Y343.206 Z-0.735 F200.000
G1 X23.812 Y343.206 Z-0.882 F60.000
G1 X-28.530 Y343.206 Z-0.882 F200.000
G1 X-28.531 Y343.276 Z-0.882 F200.000
G1 X28.531 Y343.276 Z-0.882 F200.000
G1 X28.530 Y343.206 Z-0.882 F200.000
G1 X23.812 Y343.206 Z-0.882 F200.000
G1 X23.812 Y343.206 Z-1.029 F60.000
G1 X-28.530 Y343.206 Z-1.029 F200.000
G1 X-28.531 Y343.276 Z-1.029 F200.000
G1 X28.531 Y343.276 Z-1.029 F200.000
G1 X28.530 Y343.206 Z-1.029 F200.000
G1 X23.812 Y343.206 Z-1.029 F200.000
G1 X23.812 Y343.206 Z-1.176 F60.000
G1 X-28.530 Y343.206 Z-1.176 F200.000
G1 X-28.531 Y343.276 Z-1.176 F200.000
G1 X28.531 Y343.276 Z-1.176 F200.000
G1 X28.530 Y343.206 Z-1.176 F200.000
G1 X23.812 Y343.206 Z-1.176 F200.000
G1 X23.812 Y343.206 Z-1.324 F60.000
G1 X-28.530 Y343.206 Z-1.324 F200.000
G1 X-28.531 Y343.276 Z-1.324 F200.000
G1 X28.531 Y343.276 Z-1.324 F200.000
G1 X28.530 Y343.206 Z-1.324 F200.000
G1 X23.812 Y343.206 Z-1.324 F200.000
G1 X23.812 Y343.206 Z-1.471 F60.000
G1 X-28.530 Y343.206 Z-1.471 F200.000
G1 X-28.531 Y343.276 Z-1.471 F200.000
G1 X28.531 Y343.276 Z-1.471 F200.000
G1 X28.530 Y343.206 Z-1.471 F200.000
G1 X23.812 Y343.206 Z-1.471 F200.000
G1 X23.812 Y343.206 Z-1.618 F60.000
G1 X-28.530 Y343.206 Z-1.618 F200.000
G1 X-28.531 Y343.276 Z-1.618 F200.000
G1 X28.531 Y343.276 Z-1.618 F200.000
G1 X28.530 Y343.206 Z-1.618 F200.000
G1 X23.812 Y343.206 Z-1.618 F200.000
G1 X23.812 Y343.206 Z-1.765 F60.000
G1 X-28.530 Y343.206 Z-1.765 F200.000
G1 X-28.531 Y343.276 Z-1.765 F200.000
G1 X28.531 Y343.276 Z-1.765 F200.000
G1 X28.530 Y343.206 Z-1.765 F200.000
G1 X23.812 Y343.206 Z-1.765 F200.000
G1 X23.812 Y343.206 Z-1.900 F60.000
G1 X-28.530 Y343.206 Z-1.900 F200.000
G1 X-28.531 Y343.276 Z-1.900 F200.000
G1 X28.531 Y343.276 Z-1.900 F200.000
G1 X28.530 Y343.206 Z-1.900 F200.000
G1 X23.812 Y343.206 Z-1.900 F200.000
G0 Z5.000
G0 Z5.000
G0 X23.812 Y343.206
G0 Y360.423
G0 Y360.423 Z3.000
G1 X23.812 Y360.423 Z-0.147 F60.000
G1 X-28.795 Y360.423 Z-0.147 F200.000
G1 X-28.796 Y360.493 Z-0.147 F200.000
G1 X28.796 Y360.493 Z-0.147 F200.000
G1 X28.795 Y360.423 Z-0.147 F200.000
G1 X23.812 Y360.423 Z-0.147 F200.000
G1 X23.812 Y360.423 Z-0.294 F60.000
G1 X-28.795 Y360.423 Z-0.294 F200.000
G1 X-28.796 Y360.493 Z-0.294 F200.000
G1 X28.796 Y360.493 Z-0.294 F200.000
G1 X28.795 Y360.423 Z-0.294 F200.000
G1 X23.812 Y360.423 Z-0.294 F200.000
G1 X23.812 Y360.423 Z-0.441 F60.000
G1 X-28.795 Y360.423 Z-0.441 F200.000
G1 X-28.796 Y360.493 Z-0.441 F200.000
G1 X28.796 Y360.493 Z-0.441 F200.000
G1 X28.795 Y360.423 Z-0.441 F200.000
G1 X23.812 Y360.423 Z-0.441 F200.000
G1 X23.812 Y360.423 Z-0.588 F60.000
G1 X-28.795 Y360.423 Z-0.588 F200.000
G1 X-28.796 Y360.493 Z-0.588 F200.000
G1 X28.796 Y360.493 Z-0.588 F200.000
G1 X28.795 Y360.423 Z-0.588 F200.000
G1 X23.812 Y360.423 Z-0.588 F200.000
G1 X23.812 Y360.423 Z-0.735 F60.000
G1 X-28.795 Y360.423 Z-0.735 F200.000
G1 X-28.796 Y360.493 Z-0.735 F200.000
G1 X28.796 Y360.493 Z-0.735 F200.000
G1 X28.795 Y360.423 Z-0.735 F200.000
G1 X23.812 Y360.423 Z-0.735 F200.000
G1 X23.812 Y360.423 Z-0.882 F60.000
G1 X-28.795 Y360.423 Z-0.882 F200.000
G1 X-28.796 Y360.493 Z-0.882 F200.000
G1 X28.796 Y360.493 Z-0.882 F200.000
G1 X28.795 Y360.423 Z-0.882 F200.000
G1 X23.812 Y360.423 Z-0.882 F200.000
G1 X23.812 Y360.423 Z-1.029 F60.000
G1 X-28.795 Y360.423 Z-1.029 F200.000
G1 X-28.796 Y360.493 Z-1.029 F200.000
G1 X28.796 Y360.493 Z-1.029 F200.000
G1 X28.795 Y360.423 Z-1.029 F200.000
G1 X23.812 Y360.423 Z-1.029 F200.000
G1 X23.812 Y360.423 Z-1.176 F60.000
G1 X-28.795 Y360.423 Z-1.176 F200.000
G1 X-28.796 Y360.493 Z-1.176 F200.000
G1 X28.796 Y360.493 Z-1.176 F200.000
G1 X28.795 Y360.423 Z-1.176 F200.000
G1 X23.812 Y360.423 Z-1.176 F200.000
G1 X23.812 Y360.423 Z-1.324 F60.000
G1 X-28.795 Y360.423 Z-1.324 F200.000
G1 X-28.796 Y360.493 Z-1.324 F200.000
G1 X28.796 Y360.493 Z-1.324 F200.000
G1 X28.795 Y360.423 Z-1.324 F200.000
G1 X23.812 Y360.423 Z-1.324 F200.000
G1 X23.812 Y360.423 Z-1.471 F60.000
G1 X-28.795 Y360.423 Z-1.471 F200.000
G1 X-28.796 Y360.493 Z-1.471 F200.000
G1 X28.796 Y360.493 Z-1.471 F200.000
G1 X28.795 Y360.423 Z-1.471 F200.000
G1 X23.812 Y360.423 Z-1.471 F200.000
G1 X23.812 Y360.423 Z-1.618 F60.000
G1 X-28.795 Y360.423 Z-1.618 F200.000
G1 X-28.796 Y360.493 Z-1.618 F200.000
G1 X28.796 Y360.493 Z-1.618 F200.000
G1 X28.795 Y360.423 Z-1.618 F200.000
G1 X23.812 Y360.423 Z-1.618 F200.000
G1 X23.812 Y360.423 Z-1.765 F60.000
G1 X-28.795 Y360.423 Z-1.765 F200.000
G1 X-28.796 Y360.493 Z-1.765 F200.000
G1 X28.796 Y360.493 Z-1.765 F200.000
G1 X28.795 Y360.423 Z-1.765 F200.000
G1 X23.812 Y360.423 Z-1.765 F200.000
G1 X23.812 Y360.423 Z-1.900 F60.000
G1 X-28.795 Y360.423 Z-1.900 F200.000
G1 X-28.796 Y360.493 Z-1.900 F200.000
G1 X28.796 Y360.493 Z-1.900 F200.000
G1 X28.795 Y360.423 Z-1.900 F200.000
G1 X23.812 Y360.423 Z-1.900 F200.000
G0 Z5.000
G0 Z5.000
G0 X23.812 Y360.423
G0 Y376.674
G0 Y376.674 Z3.000
G1 X23.812 Y376.674 Z-0.147 F60.000
G1 X-29.045 Y376.674 Z-0.147 F200.000
G1 X-29.046 Y376.744 Z-0.147 F200.000
G1 X29.046 Y376.744 Z-0.147 F200.000
G1 X29.045 Y376.674 Z-0.147 F200.000
G1 X23.812 Y376.674 Z-0.147 F200.000
G1 X23.812 Y376.674 Z-0.294 F60.000
G1 X-29.045 Y376.674 Z-0.294 F200.000
G1 X-29.046 Y376.744 Z-0.294 F200.000
G1 X29.046 Y376.744 Z-0.294 F200.000
G1 X29.045 Y376.674 Z-0.294 F200.000
G1 X23.812 Y376.674 Z-0.294 F200.000
G1 X23.812 Y376.674 Z-0.441 F60.000
G1 X-29.045 Y376.674 Z-0.441 F200.000
G1 X-29.046 Y376.744 Z-0.441 F200.000
G1 X29.046 Y376.744 Z-0.441 F200.000
G1 X29.045 Y376.674 Z-0.441 F200.000
G1 X23.812 Y376.674 Z-0.441 F200.000
G1 X23.812 Y376.674 Z-0.588 F60.000
G1 X-29.045 Y376.674 Z-0.588 F200.000
G1 X-29.046 Y376.744 Z-0.588 F200.000
G1 X29.046 Y376.744 Z-0.588 F200.000
G1 X29.045 Y376.674 Z-0.588 F200.000
G1 X23.812 Y376.674 Z-0.588 F200.000
G1 X23.812 Y376.674 Z-0.735 F60.000
G1 X-29.045 Y376.674 Z-0.735 F200.000
G1 X-29.046 Y376.744 Z-0.735 F200.000
G1 X29.046 Y376.744 Z-0.735 F200.000
G1 X29.045 Y376.674 Z-0.735 F200.000
G1 X23.812 Y376.674 Z-0.735 F200.000
G1 X23.812 Y376.674 Z-0.882 F60.000
G1 X-29.045 Y376.674 Z-0.882 F200.000
G1 X-29.046 Y376.744 Z-0.882 F200.000
G1 X29.046 Y376.744 Z-0.882 F200.000
G1 X29.045 Y376.674 Z-0.882 F200.000
G1 X23.812 Y376.674 Z-0.882 F200.000
G1 X23.812 Y376.674 Z-1.029 F60.000
G1 X-29.045 Y376.674 Z-1.029 F200.000
G1 X-29.046 Y376.744 Z-1.029 F200.000
G1 X29.046 Y376.744 Z-1.029 F200.000
G1 X29.045 Y376.674 Z-1.029 F200.000
G1 X23.812 Y376.674 Z-1.029 F200.000
G1 X23.812 Y376.674 Z-1.176 F60.000
G1 X-29.045 Y376.674 Z-1.176 F200.000
G1 X-29.046 Y376.744 Z-1.176 F200.000
G1 X29.046 Y376.744 Z-1.176 F200.000
G1 X29.045 Y376.674 Z-1.176 F200.000
G1 X23.812 Y376.674 Z-1.176 F200.000
G1 X23.812 Y376.674 Z-1.324 F60.000
G1 X-29.045 Y376.674 Z-1.324 F200.000
G1 X-29.046 Y376.744 Z-1.324 F200.000
G1 X29.046 Y376.744 Z-1.324 F200.000
G1 X29.045 Y376.674 Z-1.324 F200.000
G1 X23.812 Y376.674 Z-1.324 F200.000
G1 X23.812 Y376.674 Z-1.471 F60.000
G1 X-29.045 Y376.674 Z-1.471 F200.000
G1 X-29.046 Y376.744 Z-1.471 F200.000
G1 X29.046 Y376.744 Z-1.471 F200.000
G1 X29.045 Y376.674 Z-1.471 F200.000
G1 X23.812 Y376.674 Z-1.471 F200.000
G1 X23.812 Y376.674 Z-1.618 F60.000
G1 X-29.045 Y376.674 Z-1.618 F200.000
G1 X-29.046 Y376.744 Z-1.618 F200.000
G1 X29.046 Y376.744 Z-1.618 F200.000
G1 X29.045 Y376.674 Z-1.618 F200.000
G1 X23.812 Y376.674 Z-1.618 F200.000
G1 X23.812 Y376.674 Z-1.765 F60.000
G1 X-29.045 Y376.674 Z-1.765 F200.000
G1 X-29.046 Y376.744 Z-1.765 F200.000
G1 X29.046 Y376.744 Z-1.765 F200.000
G1 X29.045 Y376.674 Z-1.765 F200.000
G1 X23.812 Y376.674 Z-1.765 F200.000
G1 X23.812 Y376.674 Z-1.900 F60.000
G1 X-29.045 Y376.674 Z-1.900 F200.000
G1 X-29.046 Y376.744 Z-1.900 F200.000
G1 X29.046 Y376.744 Z-1.900 F200.000
G1 X29.045 Y376.674 Z-1.900 F200.000
G1 X23.812 Y376.674 Z-1.900 F200.000
G0 Z5.000
G0 Z5.000
G0 X23.812 Y376.674
G0 Y392.013
G0 Y392.013 Z3.000
G1 X23.812 Y392.013 Z-0.147 F60.000
G1 X-29.281 Y392.013 Z-0.147 F200.000
G1 X-29.282 Y392.083 Z-0.147 F200.000
G1 X29.282 Y392.083 Z-0.147 F200.000
G1 X29.281 Y392.013 Z-0.147 F200.000
G1 X23.812 Y392.013 Z-0.147 F200.000
G1 X23.812 Y392.013 Z-0.294 F60.000
G1 X-29.281 Y392.013 Z-0.294 F200.000
G1 X-29.282 Y392.083 Z-0.294 F200.000
G1 X29.282 Y392.083 Z-0.294 F200.000
G1 X29.281 Y392.013 Z-0.294 F200.000
G1 X23.812 Y392.013 Z-0.294 F200.000
G1 X23.812 Y392.013 Z-0.441 F60.000
G1 X-29.281 Y392.013 Z-0.441 F200.000
G1 X-29.282 Y392.083 Z-0.441 F200.000
G1 X29.282 Y392.083 Z-0.441 F200.000
G1 X29.281 Y392.013 Z-0.441 F200.000
G1 X23.812 Y392.013 Z-0.441 F200.000
G1 X23.812 Y392.013 Z-0.588 F60.000
G1 X-29.281 Y392.013 Z-0.588 F200.000
G1 X-29.282 Y392.083 Z-0.588 F200.000
G1 X29.282 Y392.083 Z-0.588 F200.000
G1 X29.281 Y392.013 Z-0.588 F200.000
G1 X23.812 Y392.013 Z-0.588 F200.000
G1 X23.812 Y392.013 Z-0.735 F60.000
G1 X-29.281 Y392.013 Z-0.735 F200.000
G1 X-29.282 Y392.083 Z-0.735 F200.000
G1 X29.282 Y392.083 Z-0.735 F200.000
G1 X29.281 Y392.013 Z-0.735 F200.000
G1 X23.812 Y392.013 Z-0.735 F200.000
G1 X23.812 Y392.013 Z-0.882 F60.000
G1 X-29.281 Y392.013 Z-0.882 F200.000
G1 X-29.282 Y392.083 Z-0.882 F200.000
G1 X29.282 Y392.083 Z-0.882 F200.000
G1 X29.281 Y392.013 Z-0.882 F200.000
G1 X23.812 Y392.013 Z-0.882 F200.000
G1 X23.812 Y392.013 Z-1.029 F60.000
G1 X-29.281 Y392.013 Z-1.029 F200.000
G1 X-29.282 Y392.083 Z-1.029 F200.000
G1 X29.282 Y392.083 Z-1.029 F200.000
G1 X29.281 Y392.013 Z-1.029 F200.000
G1 X23.812 Y392.013 Z-1.029 F200.000
G1 X23.812 Y392.013 Z-1.176 F60.000
G1 X-29.281 Y392.013 Z-1.176 F200.000
G1 X-29.282 Y392.083 Z-1.176 F200.000
G1 X29.282 Y392.083 Z-1.176 F200.000
G1 X29.281 Y392.013 Z-1.176 F200.000
G1 X23.812 Y392.013 Z-1.176 F200.000
G1 X23.812 Y392.013 Z-1.324 F60.000
G1 X-29.281 Y392.013 Z-1.324 F200.000
G1 X-29.282 Y392.083 Z-1.324 F200.000
G1 X29.282 Y392.083 Z-1.324 F200.000
G1 X29.281 Y392.013 Z-1.324 F200.000
G1 X23.812 Y392.013 Z-1.324 F200.000
G1 X23.812 Y392.013 Z-1.471 F60.000
G1 X-29.281 Y392.013 Z-1.471 F200.000
G1 X-29.282 Y392.083 Z-1.471 F200.000
G1 X29.282 Y392.083 Z-1.471 F200.000
G1 X29.281 Y392.013 Z-1.471 F200.000
G1 X23.812 Y392.013 Z-1.471 F200.000
G1 X23.812 Y392.013 Z-1.618 F60.000
G1 X-29.281 Y392.013 Z-1.618 F200.000
G1 X-29.282 Y392.083 Z-1.618 F200.000
G1 X29.282 Y392.083 Z-1.618 F200.000
G1 X29.281 Y392.013 Z-1.618 F200.000
G1 X23.812 Y392.013 Z-1.618 F200.000
G1 X23.812 Y392.013 Z-1.765 F60.000
G1 X-29.281 Y392.013 Z-1.765 F200.000
G1 X-29.282 Y392.083 Z-1.765 F200.000
G1 X29.282 Y392.083 Z-1.765 F200.000
G1 X29.281 Y392.013 Z-1.765 F200.000
G1 X23.812 Y392.013 Z-1.765 F200.000
G1 X23.812 Y392.013 Z-1.900 F60.000
G1 X-29.281 Y392.013 Z-1.900 F200.000
G1 X-29.282 Y392.083 Z-1.900 F200.000
G1 X29.282 Y392.083 Z-1.900 F200.000
G1 X29.281 Y392.013 Z-1.900 F200.000
G1 X23.812 Y392.013 Z-1.900 F200.000
G0 Z5.000
G0 Z5.000
G0 X23.812 Y392.013
G0 Y406.491
G0 Y406.491 Z3.000
G1 X23.812 Y406.491 Z-0.147 F60.000
G1 X-29.504 Y406.491 Z-0.147 F200.000
G1 X-29.505 Y406.561 Z-0.147 F200.000
G1 X29.505 Y406.561 Z-0.147 F200.000
G1 X29.504 Y406.491 Z-0.147 F200.000
G1 X23.812 Y406.491 Z-0.147 F200.000
G1 X23.812 Y406.491 Z-0.294 F60.000
G1 X-29.504 Y406.491 Z-0.294 F200.000
G1 X-29.505 Y406.561 Z-0.294 F200.000
G1 X29.505 Y406.561 Z-0.294 F200.000
G1 X29.504 Y406.491 Z-0.294 F200.000
G1 X23.812 Y406.491 Z-0.294 F200.000
G1 X23.812 Y406.491 Z-0.441 F60.000
G1 X-29.504 Y406.491 Z-0.441 F200.000
G1 X-29.505 Y406.561 Z-0.441 F200.000
G1 X29.505 Y406.561 Z-0.441 F200.000
G1 X29.504 Y406.491 Z-0.441 F200.000
G1 X23.812 Y406.491 Z-0.441 F200.000
G1 X23.812 Y406.491 Z-0.588 F60.000
G1 X-29.504 Y406.491 Z-0.588 F200.000
G1 X-29.505 Y406.561 Z-0.588 F200.000
G1 X29.505 Y406.561 Z-0.588 F200.000
G1 X29.504 Y406.491 Z-0.588 F200.000
G1 X23.812 Y406.491 Z-0.588 F200.000
G1 X23.812 Y406.491 Z-0.735 F60.000
G1 X-29.504 Y406.491 Z-0.735 F200.000
G1 X-29.505 Y406.561 Z-0.735 F200.000
G1 X29.505 Y406.561 Z-0.735 F200.000
G1 X29.504 Y406.491 Z-0.735 F200.000
G1 X23.812 Y406.491 Z-0.735 F200.000
G1 X23.812 Y406.491 Z-0.882 F60.000
G1 X-29.504 Y406.491 Z-0.882 F200.000
G1 X-29.505 Y406.561 Z-0.882 F200.000
G1 X29.505 Y406.561 Z-0.882 F200.000
G1 X29.504 Y406.491 Z-0.882 F200.000
G1 X23.812 Y406.491 Z-0.882 F200.000
G1 X23.812 Y406.491 Z-1.029 F60.000
G1 X-29.504 Y406.491 Z-1.029 F200.000
G1 X-29.505 Y406.561 Z-1.029 F200.000
G1 X29.505 Y406.561 Z-1.029 F200.000
G1 X29.504 Y406.491 Z-1.029 F200.000
G1 X23.812 Y406.491 Z-1.029 F200.000
G1 X23.812 Y406.491 Z-1.176 F60.000
G1 X-29.504 Y406.491 Z-1.176 F200.000
G1 X-29.505 Y406.561 Z-1.176 F200.000
G1 X29.505 Y406.561 Z-1.176 F200.000
G1 X29.504 Y406.491 Z-1.176 F200.000
G1 X23.812 Y406.491 Z-1.176 F200.000
G1 X23.812 Y406.491 Z-1.324 F60.000
G1 X-29.504 Y406.491 Z-1.324 F200.000
G1 X-29.505 Y406.561 Z-1.324 F200.000
G1 X29.505 Y406.561 Z-1.324 F200.000
G1 X29.504 Y406.491 Z-1.324 F200.000
G1 X23.812 Y406.491 Z-1.324 F200.000
G1 X23.812 Y406.491 Z-1.471 F60.000
G1 X-29.504 Y406.491 Z-1.471 F200.000
G1 X-29.505 Y406.561 Z-1.471 F200.000
G1 X29.505 Y406.561 Z-1.471 F200.000
G1 X29.504 Y406.491 Z-1.471 F200.000
G1 X23.812 Y406.491 Z-1.471 F200.000
G1 X23.812 Y406.491 Z-1.618 F60.000
G1 X-29.504 Y406.491 Z-1.618 F200.000
G1 X-29.505 Y406.561 Z-1.618 F200.000
G1 X29.505 Y406.561 Z-1.618 F200.000
G1 X29.504 Y406.491 Z-1.618 F200.000
G1 X23.812 Y406.491 Z-1.618 F200.000
G1 X23.812 Y406.491 Z-1.765 F60.000
G1 X-29.504 Y406.491 Z-1.765 F200.000
G1 X-29.505 Y406.561 Z-1.765 F200.000
G1 X29.505 Y406.561 Z-1.765 F200.000
G1 X29.504 Y406.491 Z-1.765 F200.000
G1 X23.812 Y406.491 Z-1.765 F200.000
G1 X23.812 Y406.491 Z-1.900 F60.000
G1 X-29.504 Y406.491 Z-1.900 F200.000
G1 X-29.505 Y406.561 Z-1.900 F200.000
G1 X29.505 Y406.561 Z-1.900 F200.000
G1 X29.504 Y406.491 Z-1.900 F200.000
G1 X23.812 Y406.491 Z-1.900 F200.000
G0 Z5.000
G0 Z5.000
G0 X23.812 Y406.491
G0 Y420.156
G0 Y420.156 Z3.000
G1 X23.812 Y420.156 Z-0.147 F60.000
G1 X-29.714 Y420.156 Z-0.147 F200.000
G1 X-29.715 Y420.226 Z-0.147 F200.000
G1 X29.715 Y420.226 Z-0.147 F200.000
G1 X29.714 Y420.156 Z-0.147 F200.000
G1 X23.812 Y420.156 Z-0.147 F200.000
G1 X23.812 Y420.156 Z-0.294 F60.000
G1 X-29.714 Y420.156 Z-0.294 F200.000
G1 X-29.715 Y420.226 Z-0.294 F200.000
G1 X29.715 Y420.226 Z-0.294 F200.000
G1 X29.714 Y420.156 Z-0.294 F200.000
G1 X23.812 Y420.156 Z-0.294 F200.000
G1 X23.812 Y420.156 Z-0.441 F60.000
G1 X-29.714 Y420.156 Z-0.441 F200.000
G1 X-29.715 Y420.226 Z-0.441 F200.000
G1 X29.715 Y420.226 Z-0.441 F200.000
G1 X29.714 Y420.156 Z-0.441 F200.000
G1 X23.812 Y420.156 Z-0.441 F200.000
G1 X23.812 Y420.156 Z-0.588 F60.000
G1 X-29.714 Y420.156 Z-0.588 F200.000
G1 X-29.715 Y420.226 Z-0.588 F200.000
G1 X29.715 Y420.226 Z-0.588 F200.000
G1 X29.714 Y420.156 Z-0.588 F200.000
G1 X23.812 Y420.156 Z-0.588 F200.000
G1 X23.812 Y420.156 Z-0.735 F60.000
G1 X-29.714 Y420.156 Z-0.735 F200.000
G1 X-29.715 Y420.226 Z-0.735 F200.000
G1 X29.715 Y420.226 Z-0.735 F200.000
G1 X29.714 Y420.156 Z-0.735 F200.000
G1 X23.812 Y420.156 Z-0.735 F200.000
G1 X23.812 Y420.156 Z-0.882 F60.000
G1 X-29.714 Y420.156 Z-0.882 F200.000
G1 X-29.715 Y420.226 Z-0.882 F200.000
G1 X29.715 Y420.226 Z-0.882 F200.000
G1 X29.714 Y420.156 Z-0.882 F200.000
G1 X23.812 Y420.156 Z-0.882 F200.000
G1 X23.812 Y420.156 Z-1.029 F60.000
G1 X-29.714 Y420.156 Z-1.029 F200.000
G1 X-29.715 Y420.226 Z-1.029 F200.000
G1 X29.715 Y420.226 Z-1.029 F200.000
G1 X29.714 Y420.156 Z-1.029 F200.000
G1 X23.812 Y420.156 Z-1.029 F200.000
G1 X23.812 Y420.156 Z-1.176 F60.000
G1 X-29.714 Y420.156 Z-1.176 F200.000
G1 X-29.715 Y420.226 Z-1.176 F200.000
G1 X29.715 Y420.226 Z-1.176 F200.000
G1 X29.714 Y420.156 Z-1.176 F200.000
G1 X23.812 Y420.156 Z-1.176 F200.000
G1 X23.812 Y420.156 Z-1.324 F60.000
G1 X-29.714 Y420.156 Z-1.324 F200.000
G1 X-29.715 Y420.226 Z-1.324 F200.000
G1 X29.715 Y420.226 Z-1.324 F200.000
G1 X29.714 Y420.156 Z-1.324 F200.000
G1 X23.812 Y420.156 Z-1.324 F200.000
G1 X23.812 Y420.156 Z-1.471 F60.000
G1 X-29.714 Y420.156 Z-1.471 F200.000
G1 X-29.715 Y420.226 Z-1.471 F200.000
G1 X29.715 Y420.226 Z-1.471 F200.000
G1 X29.714 Y420.156 Z-1.471 F200.000
G1 X23.812 Y420.156 Z-1.471 F200.000
G1 X23.812 Y420.156 Z-1.618 F60.000
G1 X-29.714 Y420.156 Z-1.618 F200.000
G1 X-29.715 Y420.226 Z-1.618 F200.000
G1 X29.715 Y420.226 Z-1.618 F200.000
G1 X29.714 Y420.156 Z-1.618 F200.000
G1 X23.812 Y420.156 Z-1.618 F200.000
G1 X23.812 Y420.156 Z-1.765 F60.000
G1 X-29.714 Y420.156 Z-1.765 F200.000
G1 X-29.715 Y420.226 Z-1.765 F200.000
G1 X29.715 Y420.226 Z-1.765 F200.000
G1 X29.714 Y420.156 Z-1.765 F200.000
G1 X23.812 Y420.156 Z-1.765 F200.000
G1 X23.812 Y420.156 Z-1.900 F60.000
G1 X-29.714 Y420.156 Z-1.900 F200.000
G1 X-29.715 Y420.226 Z-1.900 F200.000
G1 X29.715 Y420.226 Z-1.900 F200.000
G1 X29.714 Y420.156 Z-1.900 F200.000
G1 X23.812 Y420.156 Z-1.900 F200.000
G0 Z5.000
G0 Z5.000
G0 X23.812 Y420.156
G0 Y433.054
G0 Y433.054 Z3.000
G1 X23.812 Y433.054 Z-0.147 F60.000
G1 X-29.912 Y433.054 Z-0.147 F200.000
G1 X-29.913 Y433.124 Z-0.147 F200.000
G1 X29.913 Y433.124 Z-0.147 F200.000
G1 X29.912 Y433.054 Z-0.147 F200.000
G1 X23.812 Y433.054 Z-0.147 F200.000
G1 X23.812 Y433.054 Z-0.294 F60.000
G1 X-29.912 Y433.054 Z-0.294 F200.000
G1 X-29.913 Y433.124 Z-0.294 F200.000
G1 X29.913 Y433.124 Z-0.294 F200.000
G1 X29.912 Y433.054 Z-0.294 F200.000
G1 X23.812 Y433.054 Z-0.294 F200.000
G1 X23.812 Y433.054 Z-0.441 F60.000
G1 X-29.912 Y433.054 Z-0.441 F200.000
G1 X-29.913 Y433.124 Z-0.441 F200.000
G1 X29.913 Y433.124 Z-0.441 F200.000
G1 X29.912 Y433.054 Z-0.441 F200.000
G1 X23.812 Y433.054 Z-0.441 F200.000
G1 X23.812 Y433.054 Z-0.588 F60.000
G1 X-29.912 Y433.054 Z-0.588 F200.000
G1 X-29.913 Y433.124 Z-0.588 F200.000
G1 X29.913 Y433.124 Z-0.588 F200.000
G1 X29.912 Y433.054 Z-0.588 F200.000
G1 X23.812 Y433.054 Z-0.588 F200.000
G1 X23.812 Y433.054 Z-0.735 F60.000
G1 X-29.912 Y433.054 Z-0.735 F200.000
G1 X-29.913 Y433.124 Z-0.735 F200.000
G1 X29.913 Y433.124 Z-0.735 F200.000
G1 X29.912 Y433.054 Z-0.735 F200.000
G1 X23.812 Y433.054 Z-0.735 F200.000
G1 X23.812 Y433.054 Z-0.882 F60.000
G1 X-29.912 Y433.054 Z-0.882 F200.000
G1 X-29.913 Y433.124 Z-0.882 F200.000
G1 X29.913 Y433.124 Z-0.882 F200.000
G1 X29.912 Y433.054 Z-0.882 F200.000
G1 X23.812 Y433.054 Z-0.882 F200.000
G1 X23.812 Y433.054 Z-1.029 F60.000
G1 X-29.912 Y433.054 Z-1.029 F200.000
G1 X-29.913 Y433.124 Z-1.029 F200.000
G1 X29.913 Y433.124 Z-1.029 F200.000
G1 X29.912 Y433.054 Z-1.029 F200.000
G1 X23.812 Y433.054 Z-1.029 F200.000
G1 X23.812 Y433.054 Z-1.176 F60.000
G1 X-29.912 Y433.054 Z-1.176 F200.000
G1 X-29.913 Y433.124 Z-1.176 F200.000
G1 X29.913 Y433.124 Z-1.176 F200.000
G1 X29.912 Y433.054 Z-1.176 F200.000
G1 X23.812 Y433.054 Z-1.176 F200.000
G1 X23.812 Y433.054 Z-1.324 F60.000
G1 X-29.912 Y433.054 Z-1.324 F200.000
G1 X-29.913 Y433.124 Z-1.324 F200.000
G1 X29.913 Y433.124 Z-1.324 F200.000
G1 X29.912 Y433.054 Z-1.324 F200.000
G1 X23.812 Y433.054 Z-1.324 F200.000
G1 X23.812 Y433.054 Z-1.471 F60.000
G1 X-29.912 Y433.054 Z-1.471 F200.000
G1 X-29.913 Y433.124 Z-1.471 F200.000
G1 X29.913 Y433.124 Z-1.471 F200.000
G1 X29.912 Y433.054 Z-1.471 F200.000
G1 X23.812 Y433.054 Z-1.471 F200.000
G1 X23.812 Y433.054 Z-1.618 F60.000
G1 X-29.912 Y433.054 Z-1.618 F200.000
G1 X-29.913 Y433.124 Z-1.618 F200.000
G1 X29.913 Y433.124 Z-1.618 F200.000
G1 X29.912 Y433.054 Z-1.618 F200.000
G1 X23.812 Y433.054 Z-1.618 F200.000
G1 X23.812 Y433.054 Z-1.765 F60.000
G1 X-29.912 Y433.054 Z-1.765 F200.000
G1 X-29.913 Y433.124 Z-1.765 F200.000
G1 X29.913 Y433.124 Z-1.765 F200.000
G1 X29.912 Y433.054 Z-1.765 F200.000
G1 X23.812 Y433.054 Z-1.765 F200.000
G1 X23.812 Y433.054 Z-1.900 F60.000
G1 X-29.912 Y433.054 Z-1.900 F200.000
G1 X-29.913 Y433.124 Z-1.900 F200.000
G1 X29.913 Y433.124 Z-1.900 F200.000
G1 X29.912 Y433.054 Z-1.900 F200.000
G1 X23.812 Y433.054 Z-1.900 F200.000
G0 Z5.000
G0 Z5.000
G0 X23.812 Y433.054
G0 X24.175 Y445.228
G0 X24.175 Y445.228 Z3.000
G1 X24.175 Y445.228 Z-0.147 F60.000
G1 X24.243 Y445.298 Z-0.147 F200.000
G1 X30.101 Y445.298 Z-0.147 F200.000
G1 X30.100 Y445.228 Z-0.147 F200.000
G1 X24.175 Y445.228 Z-0.147 F200.000
G1 X24.175 Y445.228 Z-0.294 F60.000
G1 X24.243 Y445.298 Z-0.294 F200.000
G1 X30.101 Y445.298 Z-0.294 F200.000
G1 X30.100 Y445.228 Z-0.294 F200.000
G1 X24.175 Y445.228 Z-0.294 F200.000
G1 X24.175 Y445.228 Z-0.441 F60.000
G1 X24.243 Y445.298 Z-0.441 F200.000
G1 X30.101 Y445.298 Z-0.441 F200.000
G1 X30.100 Y445.228 Z-0.441 F200.000
G1 X24.175 Y445.228 Z-0.441 F200.000
G1 X24.175 Y445.228 Z-0.588 F60.000
G1 X24.243 Y445.298 Z-0.588 F200.000
G1 X30.101 Y445.298 Z-0.588 F200.000
G1 X30.100 Y445.228 Z-0.588 F200.000
G1 X24.175 Y445.228 Z-0.588 F200.000
G1 X24.175 Y445.228 Z-0.735 F60.000
G1 X24.243 Y445.298 Z-0.735 F200.000
G1 X30.101 Y445.298 Z-0.735 F200.000
G1 X30.100 Y445.228 Z-0.735 F200.000
G1 X24.175 Y445.228 Z-0.735 F200.000
G1 X24.175 Y445.228 Z-0.882 F60.000
G1 X24.243 Y445.298 Z-0.882 F200.000
G1 X30.101 Y445.298 Z-0.882 F200.000
G1 X30.100 Y445.228 Z-0.882 F200.000
G1 X24.175 Y445.228 Z-0.882 F200.000
G1 X24.175 Y445.228 Z-1.029 F60.000
G1 X24.243 Y445.298 Z-1.029 F200.000
G1 X30.101 Y445.298 Z-1.029 F200.000
G1 X30.100 Y445.228 Z-1.029 F200.000
G1 X24.175 Y445.228 Z-1.029 F200.000
G1 X24.175 Y445.228 Z-1.176 F60.000
G1 X24.243 Y445.298 Z-1.176 F200.000
G1 X30.101 Y445.298 Z-1.176 F200.000
G1 X30.100 Y445.228 Z-1.176 F200.000
G1 X24.175 Y445.228 Z-1.176 F200.000
G1 X24.175 Y445.228 Z-1.324 F60.000
G1 X24.243 Y445.298 Z-1.324 F200.000
G1 X30.101 Y445.298 Z-1.324 F200.000
G1 X30.100 Y445.228 Z-1.324 F200.000
G1 X24.175 Y445.228 Z-1.324 F200.000
G1 X24.175 Y445.228 Z-1.471 F60.000
G1 X24.243 Y445.298 Z-1.471 F200.000
G1 X30.101 Y445.298 Z-1.471 F200.000
G1 X30.100 Y445.228 Z-1.471 F200.000
G1 X24.175 Y445.228 Z-1.471 F200.000
G1 X24.175 Y445.228 Z-1.618 F60.000
G1 X24.243 Y445.298 Z-1.618 F200.000
G1 X30.101 Y445.298 Z-1.618 F200.000
G1 X30.100 Y445.228 Z-1.618 F200.000
G1 X24.175 Y445.228 Z-1.618 F200.000
G1 X24.175 Y445.228 Z-1.765 F60.000
G1 X24.243 Y445.298 Z-1.765 F200.000
G1 X30.101 Y445.298 Z-1.765 F200.000
G1 X30.100 Y445.228 Z-1.765 F200.000
G1 X24.175 Y445.228 Z-1.765 F200.000
G1 X24.175 Y445.228 Z-1.900 F60.000
G1 X24.243 Y445.298 Z-1.900 F200.000
G1 X30.101 Y445.298 Z-1.900 F200.000
G1 X30.100 Y445.228 Z-1.900 F200.000
G1 X24.175 Y445.228 Z-1.900 F200.000
G0 Z5.000
G0 Z5.000
G0 X24.175 Y445.228
G0 X-7.983
G0 X-7.983 Z3.000
G1 X-7.983 Y445.228 Z-0.147 F60.000
G1 X-30.100 Y445.228 Z-0.147 F200.000
G1 X-30.101 Y445.298 Z-0.147 F200.000
G1 X-8.054 Y445.298 Z-0.147 F200.000
G1 X-7.983 Y445.228 Z-0.147 F200.000
G1 X-7.983 Y445.228 Z-0.294 F60.000
G1 X-30.100 Y445.228 Z-0.294 F200.000
G1 X-30.101 Y445.298 Z-0.294 F200.000
G1 X-8.054 Y445.298 Z-0.294 F200.000
G1 X-7.983 Y445.228 Z-0.294 F200.000
G1 X-7.983 Y445.228 Z-0.441 F60.000
G1 X-30.100 Y445.228 Z-0.441 F200.000
G1 X-30.101 Y445.298 Z-0.441 F200.000
G1 X-8.054 Y445.298 Z-0.441 F200.000
G1 X-7.983 Y445.228 Z-0.441 F200.000
G1 X-7.983 Y445.228 Z-0.588 F60.000
G1 X-30.100 Y445.228 Z-0.588 F200.000
G1 X-30.101 Y445.298 Z-0.588 F200.000
G1 X-8.054 Y445.298 Z-0.588 F200.000
G1 X-7.983 Y445.228 Z-0.588 F200.000
G1 X-7.983 Y445.228 Z-0.735 F60.000
G1 X-30.100 Y445.228 Z-0.735 F200.000
G1 X-30.101 Y445.298 Z-0.735 F200.000
G1 X-8.054 Y445.298 Z-0.735 F200.000
G1 X-7.983 Y445.228 Z-0.735 F200.000
G1 X-7.983 Y445.228 Z-0.882 F60.000
G1 X-30.100 Y445.228 Z-0.882 F200.000
G1 X-30.101 Y445.298 Z-0.882 F200.000
G1 X-8.054 Y445.298 Z-0.882 F200.000
G1 X-7.983 Y445.228 Z-0.882 F200.000
G1 X-7.983 Y445.228 Z-1.029 F60.000
G1 X-30.100 Y445.228 Z-1.029 F200.000
G1 X-30.101 Y445.298 Z-1.029 F200.000
G1 X-8.054 Y445.298 Z-1.029 F200.000
G1 X-7.983 Y445.228 Z-1.029 F200.000
G1 X-7.983 Y445.228 Z-1.176 F60.000
G1 X-30.100 Y445.228 Z-1.176 F200.000
G1 X-30.101 Y445.298 Z-1.176 F200.000
G1 X-8.054 Y445.298 Z-1.176 F200.000
G1 X-7.983 Y445.228 Z-1.176 F200.000
G1 X-7.983 Y445.228 Z-1.324 F60.000
G1 X-30.100 Y445.228 Z-1.324 F200.000
G1 X-30.101 Y445.298 Z-1.324 F200.000
G1 X-8.054 Y445.298 Z-1.324 F200.000
G1 X-7.983 Y445.228 Z-1.324 F200.000
G1 X-7.983 Y445.228 Z-1.471 F60.000
G1 X-30.100 Y445.228 Z-1.471 F200.000
G1 X-30.101 Y445.298 Z-1.471 F200.000
G1 X-8.054 Y445.298 Z-1.471 F200.000
G1 X-7.983 Y445.228 Z-1.471 F200.000
G1 X-7.983 Y445.228 Z-1.618 F60.000
G1 X-30.100 Y445.228 Z-1.618 F200.000
G1 X-30.101 Y445.298 Z-1.618 F200.000
G1 X-8.054 Y445.298 Z-1.618 F200.000
G1 X-7.983 Y445.228 Z-1.618 F200.000
G1 X-7.983 Y445.228 Z-1.765 F60.000
G1 X-30.100 Y445.228 Z-1.765 F200.000
G1 X-30.101 Y445.298 Z-1.765 F200.000
G1 X-8.054 Y445.298 Z-1.765 F200.000
G1 X-7.983 Y445.228 Z-1.765 F200.000
G1 X-7.983 Y445.228 Z-1.900 F60.000
G1 X-30.100 Y445.228 Z-1.900 F200.000
G1 X-30.101 Y445.298 Z-1.900 F200.000
G1 X-8.054 Y445.298 Z-1.900 F200.000
G1 X-7.983 Y445.228 Z-1.900 F200.000
G0 Z5.000
G0 Z5.000
(Finish operation: Pocket_Shape)
(Begin postamble)
M5
G17 G90
M2
