(Exported by FreeCAD)
(Post Processor: grbl_post)
(Output Time:2024-01-07 20:50:49.529391)
(Begin preamble)
G17 G90
G21
(Begin operation: TC: 6 Ball Q6)
(Path: TC: 6 Ball Q6)
(TC: 6 Ball Q6)
(Begin toolchange)
( M6 T9 )
M3 S24000
(Finish operation: TC: 6 Ball Q6)
(Begin operation: Fixture)
(Path: Fixture)
G54
(Finish operation: Fixture)
(Begin operation: radius)
(Path: radius)
(radius)
(radius)
(Tool type: ballend)
(Compensated Tool Path. Diameter: 6.0)
(Sample interval: 1.0)
(Step over %: 15.0)
()
G0 Z12.000
(Beginning of Single-pass layer.)
G0 X0.505 Y393.359
(Begin step 0.)
(part 1.)
G1 X0.505 Y393.359 Z6.994 F2500.000
G1 X0.514 Y393.959 Z6.990 F2500.000
G1 X0.547 Y395.959 Z6.975 F2500.000
G1 X0.579 Y397.959 Z6.953 F2500.000
G1 X0.608 Y399.758 Z6.922 F2500.000
G1 X0.631 Y401.158 Z6.884 F2500.000
G1 X0.641 Y401.758 Z6.883 F2500.000
G1 X0.663 Y403.158 Z6.930 F2500.000
G1 X0.699 Y405.358 Z6.982 F2500.000
G1 X0.597 Y405.470 Z6.985 F2500.000
G1 X-0.585 Y405.676 Z6.991 F2500.000
G1 X-0.625 Y405.527 Z6.988 F2500.000
G1 X-0.601 Y403.928 Z6.957 F2500.000
G1 X-0.577 Y402.328 Z6.915 F2500.000
G1 X-0.561 Y401.328 Z6.882 F2500.000
G1 X-0.552 Y400.728 Z6.873 F2500.000
G1 X-0.537 Y399.728 Z6.905 F2500.000
G1 X-0.509 Y397.928 Z6.944 F2500.000
G1 X-0.485 Y396.328 Z6.966 F2500.000
G1 X-0.461 Y394.729 Z6.983 F2500.000
G1 X-0.427 Y392.529 Z6.998 F2500.000
G1 X-0.415 Y391.729 Z6.999 F2500.000
G1 X-0.406 Y391.129 Z6.990 F2500.000
G1 X-0.385 Y389.729 Z6.965 F2500.000
G1 X-0.360 Y388.129 Z6.929 F2500.000
G1 X-0.351 Y387.529 Z6.912 F2500.000
G1 X-0.339 Y386.730 Z6.912 F2500.000
G1 X-0.318 Y385.330 Z6.941 F2500.000
G1 X-0.296 Y383.930 Z6.959 F2500.000
G1 X-0.275 Y382.530 Z6.973 F2500.000
G1 X-0.241 Y380.330 Z6.987 F2500.000
G1 X-0.199 Y377.531 Z6.998 F2500.000
G1 X-0.187 Y376.731 Z6.988 F2500.000
G1 X-0.177 Y376.131 Z7.000 F2500.000
G1 X-0.056 Y368.132 Z6.983 F2500.000
G1 X0.018 Y363.332 Z6.995 F2500.000
G1 X0.105 Y368.668 Z6.982 F2500.000
G1 X0.150 Y371.467 Z6.991 F2500.000
G1 X0.228 Y376.267 Z6.999 F2500.000
G1 X0.251 Y377.667 Z6.998 F2500.000
G1 X0.312 Y381.466 Z6.983 F2500.000
G1 X0.344 Y383.466 Z6.969 F2500.000
G1 X0.383 Y385.865 Z6.942 F2500.000
G1 X0.406 Y387.265 Z6.914 F2500.000
G1 X0.419 Y388.065 Z6.921 F2500.000
G1 X0.448 Y389.865 Z6.965 F2500.000
G1 X0.474 Y391.465 Z6.994 F2500.000
G1 X0.490 Y392.465 Z6.999 F2500.000
G1 X0.505 Y393.359 Z6.994 F2500.000
(Break)
G0 Z10.000
G0 X0.345 Y327.880
(part 3.)
G1 X0.345 Y327.880 Z6.999 F2500.000
G1 X0.351 Y328.280 Z6.999 F2500.000
G1 X0.668 Y347.878 Z6.999 F2500.000
G1 X0.801 Y356.077 Z6.993 F2500.000
G1 X0.866 Y360.076 Z6.998 F2500.000
G1 X0.872 Y360.476 Z6.987 F2500.000
G1 X0.876 Y360.676 Z6.998 F2500.000
G1 X0.892 Y361.676 Z6.998 F2500.000
G1 X0.987 Y367.575 Z6.990 F2500.000
G1 X1.023 Y369.775 Z6.983 F2500.000
G1 X1.141 Y377.074 Z6.998 F2500.000
G1 X1.177 Y379.274 Z6.993 F2500.000
G1 X1.251 Y383.873 Z6.972 F2500.000
G1 X1.290 Y386.273 Z6.948 F2500.000
G1 X1.309 Y387.473 Z6.927 F2500.000
G1 X1.326 Y388.472 Z6.924 F2500.000
G1 X1.348 Y389.872 Z6.960 F2500.000
G1 X1.371 Y391.272 Z6.989 F2500.000
G1 X1.384 Y392.072 Z6.986 F2500.000
G1 X1.397 Y392.872 Z6.995 F2500.000
G1 X1.458 Y396.671 Z6.973 F2500.000
G1 X1.487 Y398.471 Z6.953 F2500.000
G1 X1.517 Y400.271 Z6.924 F2500.000
G1 X1.533 Y401.271 Z6.898 F2500.000
G1 X1.542 Y401.871 Z6.878 F2500.000
G1 X1.559 Y402.870 Z6.913 F2500.000
G1 X1.578 Y404.070 Z6.949 F2500.000
G1 X1.610 Y406.070 Z6.994 F2500.000
G1 X1.571 Y406.234 Z6.997 F2500.000
G1 X0.780 Y406.352 Z6.997 F2500.000
G1 X0.386 Y406.418 Z6.994 F2500.000
G1 X-0.205 Y406.522 Z6.986 F2500.000
G1 X-0.795 Y406.632 Z6.993 F2500.000
G1 X-1.383 Y406.753 Z6.997 F2500.000
G1 X-1.544 Y406.753 Z6.997 F2500.000
G1 X-1.534 Y406.086 Z6.995 F2500.000
G1 X-1.498 Y403.753 Z6.956 F2500.000
G1 X-1.477 Y402.353 Z6.923 F2500.000
G1 X-1.454 Y400.820 Z6.874 F2500.000
G1 X-1.442 Y400.087 Z6.877 F2500.000
G1 X-1.419 Y398.554 Z6.920 F2500.000
G1 X-1.395 Y396.954 Z6.950 F2500.000
G1 X-1.370 Y395.354 Z6.971 F2500.000
G1 X-1.331 Y392.754 Z6.995 F2500.000
G1 X-1.322 Y392.154 Z6.992 F2500.000
G1 X-1.313 Y391.554 Z6.995 F2500.000
G1 X-1.297 Y390.554 Z6.981 F2500.000
G1 X-1.270 Y388.755 Z6.949 F2500.000
G1 X-1.236 Y386.555 Z6.897 F2500.000
G1 X-1.227 Y385.955 Z6.913 F2500.000
G1 X-1.209 Y384.755 Z6.937 F2500.000
G1 X-1.182 Y382.955 Z6.961 F2500.000
G1 X-1.124 Y379.156 Z6.990 F2500.000
G1 X-1.096 Y377.356 Z6.997 F2500.000
G1 X-1.087 Y376.756 Z6.989 F2500.000
G1 X-1.078 Y376.156 Z6.998 F2500.000
G1 X-1.038 Y373.556 Z6.997 F2500.000
G1 X-0.944 Y367.357 Z6.982 F2500.000
G1 X-0.843 Y360.758 Z6.999 F2500.000
G1 X-0.840 Y360.558 Z6.993 F2500.000
G1 X-0.826 Y359.608 Z6.998 F2500.000
G1 X-0.729 Y353.239 Z6.990 F2500.000
G1 X-0.591 Y344.160 Z6.999 F2500.000
G1 X-0.578 Y343.360 Z6.994 F2500.000
G1 X-0.566 Y342.560 Z6.999 F2500.000
G1 X-0.009 Y306.049 Z7.000 F2500.000
G1 X0.283 Y324.046 Z7.000 F2500.000
G1 X0.296 Y324.846 Z6.997 F2500.000
G1 X0.345 Y327.880 Z6.999 F2500.000
(Break)
G0 Z10.000
G0 X0.185 Y262.398
(part 5.)
G1 X0.185 Y262.398 Z7.000 F2500.000
G1 X0.195 Y262.998 Z7.000 F2500.000
G1 X0.204 Y263.598 Z6.993 F2500.000
G1 X0.214 Y264.197 Z7.000 F2500.000
G1 X0.878 Y305.192 Z6.999 F2500.000
G1 X0.887 Y305.792 Z6.994 F2500.000
G1 X0.897 Y306.392 Z6.998 F2500.000
G1 X1.480 Y342.387 Z6.997 F2500.000
G1 X1.496 Y343.387 Z6.994 F2500.000
G1 X1.506 Y343.987 Z6.997 F2500.000
G1 X1.667 Y353.986 Z6.997 F2500.000
G1 X1.761 Y359.785 Z6.996 F2500.000
G1 X1.771 Y360.385 Z6.989 F2500.000
G1 X1.778 Y360.785 Z6.997 F2500.000
G1 X1.871 Y366.584 Z6.993 F2500.000
G1 X1.952 Y371.583 Z6.982 F2500.000
G1 X2.007 Y374.983 Z6.994 F2500.000
G1 X2.040 Y376.983 Z6.996 F2500.000
G1 X2.108 Y381.182 Z6.988 F2500.000
G1 X2.166 Y384.782 Z6.971 F2500.000
G1 X2.192 Y386.381 Z6.958 F2500.000
G1 X2.208 Y387.381 Z6.944 F2500.000
G1 X2.224 Y388.381 Z6.923 F2500.000
G1 X2.231 Y388.781 Z6.925 F2500.000
G1 X2.244 Y389.581 Z6.948 F2500.000
G1 X2.276 Y391.581 Z6.993 F2500.000
G1 X2.295 Y392.781 Z6.994 F2500.000
G1 X2.342 Y395.680 Z6.981 F2500.000
G1 X2.396 Y398.980 Z6.954 F2500.000
G1 X2.422 Y400.580 Z6.929 F2500.000
G1 X2.441 Y401.779 Z6.900 F2500.000
G1 X2.449 Y402.279 Z6.883 F2500.000
G1 X2.485 Y404.479 Z6.954 F2500.000
G1 X2.503 Y405.579 Z6.981 F2500.000
G1 X2.516 Y406.379 Z6.992 F2500.000
G1 X2.525 Y406.979 Z6.994 F2500.000
G1 X2.361 Y407.034 Z6.994 F2500.000
G1 X1.569 Y407.143 Z6.994 F2500.000
G1 X0.976 Y407.232 Z6.994 F2500.000
G1 X0.384 Y407.332 Z6.993 F2500.000
G1 X-0.403 Y407.473 Z6.989 F2500.000
G1 X-0.796 Y407.550 Z6.987 F2500.000
G1 X-1.579 Y407.715 Z6.983 F2500.000
G1 X-2.359 Y407.891 Z6.975 F2500.000
G1 X-2.460 Y407.821 Z6.976 F2500.000
G1 X-2.448 Y407.021 Z6.993 F2500.000
G1 X-2.430 Y405.821 Z6.990 F2500.000
G1 X-2.409 Y404.422 Z6.970 F2500.000
G1 X-2.393 Y403.422 Z6.951 F2500.000
G1 X-2.369 Y401.822 Z6.915 F2500.000
G1 X-2.354 Y400.822 Z6.885 F2500.000
G1 X-2.339 Y399.822 Z6.866 F2500.000
G1 X-2.323 Y398.822 Z6.899 F2500.000
G1 X-2.308 Y397.822 Z6.924 F2500.000
G1 X-2.293 Y396.822 Z6.943 F2500.000
G1 X-2.272 Y395.423 Z6.964 F2500.000
G1 X-2.226 Y392.423 Z6.996 F2500.000
G1 X-2.217 Y391.823 Z6.995 F2500.000
G1 X-2.183 Y389.623 Z6.966 F2500.000
G1 X-2.165 Y388.423 Z6.945 F2500.000
G1 X-2.137 Y386.624 Z6.902 F2500.000
G1 X-2.128 Y386.024 Z6.892 F2500.000
G1 X-2.110 Y384.824 Z6.922 F2500.000
G1 X-2.089 Y383.424 Z6.945 F2500.000
G1 X-2.070 Y382.224 Z6.960 F2500.000
G1 X-2.043 Y380.424 Z6.977 F2500.000
G1 X-2.006 Y378.025 Z6.992 F2500.000
G1 X-1.997 Y377.425 Z6.995 F2500.000
G1 X-1.988 Y376.825 Z6.992 F2500.000
G1 X-1.979 Y376.225 Z6.996 F2500.000
G1 X-1.891 Y370.425 Z6.993 F2500.000
G1 X-1.824 Y366.026 Z6.982 F2500.000
G1 X-1.745 Y360.827 Z6.997 F2500.000
G1 X-1.741 Y360.627 Z6.995 F2500.000
G1 X-1.738 Y360.427 Z6.986 F2500.000
G1 X-1.725 Y359.527 Z6.997 F2500.000
G1 X-1.604 Y351.628 Z6.989 F2500.000
G1 X-1.486 Y343.829 Z6.997 F2500.000
G1 X-1.210 Y325.731 Z6.998 F2500.000
G1 X-1.199 Y325.031 Z6.987 F2500.000
G1 X-1.190 Y324.431 Z6.998 F2500.000
G1 X-0.916 Y306.433 Z6.998 F2500.000
G1 X-0.906 Y305.766 Z6.992 F2500.000
G1 X-0.896 Y305.100 Z6.998 F2500.000
G1 X-0.273 Y264.238 Z7.000 F2500.000
G1 X-0.264 Y263.638 Z6.996 F2500.000
G1 X-0.255 Y263.038 Z7.000 F2500.000
G1 X-0.035 Y248.785 Z7.000 F2500.000
G1 X0.185 Y262.398 Z7.000 F2500.000
(Break)
G0 Z10.000
G0 X0.025 Y196.911
(part 7.)
G1 X0.025 Y196.911 Z7.000 F2500.000
G1 X0.041 Y197.911 Z7.000 F2500.000
G1 X0.329 Y215.709 Z6.999 F2500.000
G1 X0.339 Y216.309 Z6.996 F2500.000
G1 X0.352 Y217.109 Z6.999 F2500.000
G1 X2.087 Y324.295 Z6.996 F2500.000
G1 X2.097 Y324.895 Z6.991 F2500.000
G1 X2.106 Y325.495 Z6.996 F2500.000
G1 X2.388 Y342.892 Z6.996 F2500.000
G1 X2.391 Y343.092 Z6.993 F2500.000
G1 X2.401 Y343.692 Z6.996 F2500.000
G1 X2.660 Y359.690 Z6.995 F2500.000
G1 X2.670 Y360.290 Z6.993 F2500.000
G1 X2.673 Y360.490 Z6.985 F2500.000
G1 X2.676 Y360.690 Z6.995 F2500.000
G1 X2.692 Y361.690 Z6.995 F2500.000
G1 X2.806 Y368.689 Z6.990 F2500.000
G1 X2.874 Y372.888 Z6.982 F2500.000
G1 X2.929 Y376.288 Z6.994 F2500.000
G1 X2.945 Y377.288 Z6.994 F2500.000
G1 X3.029 Y382.487 Z6.984 F2500.000
G1 X3.071 Y385.087 Z6.974 F2500.000
G1 X3.107 Y387.287 Z6.957 F2500.000
G1 X3.139 Y389.286 Z6.931 F2500.000
G1 X3.155 Y390.286 Z6.960 F2500.000
G1 X3.171 Y391.286 Z6.983 F2500.000
G1 X3.181 Y391.886 Z6.990 F2500.000
G1 X3.191 Y392.486 Z6.992 F2500.000
G1 X3.249 Y396.085 Z6.979 F2500.000
G1 X3.285 Y398.285 Z6.965 F2500.000
G1 X3.307 Y399.685 Z6.951 F2500.000
G1 X3.327 Y400.885 Z6.934 F2500.000
G1 X3.349 Y402.285 Z6.902 F2500.000
G1 X3.362 Y403.084 Z6.899 F2500.000
G1 X3.382 Y404.284 Z6.940 F2500.000
G1 X3.404 Y405.684 Z6.979 F2500.000
G1 X3.421 Y406.684 Z6.989 F2500.000
G1 X3.437 Y407.684 Z6.984 F2500.000
G1 X3.372 Y407.823 Z6.983 F2500.000
G1 X2.577 Y407.914 Z6.983 F2500.000
G1 X1.586 Y408.050 Z6.984 F2500.000
G1 X0.796 Y408.174 Z6.981 F2500.000
G1 X0.008 Y408.312 Z6.977 F2500.000
G1 X-0.385 Y408.386 Z6.975 F2500.000
G1 X-0.777 Y408.465 Z6.972 F2500.000
G1 X-1.755 Y408.675 Z6.962 F2500.000
G1 X-2.339 Y408.812 Z6.956 F2500.000
G1 X-3.308 Y409.057 Z6.941 F2500.000
G1 X-3.378 Y408.950 Z6.943 F2500.000
G1 X-3.347 Y406.950 Z6.990 F2500.000
G1 X-3.338 Y406.350 Z6.990 F2500.000
G1 X-3.327 Y405.650 Z6.986 F2500.000
G1 X-3.305 Y404.150 Z6.965 F2500.000
G1 X-3.277 Y402.351 Z6.932 F2500.000
G1 X-3.250 Y400.551 Z6.884 F2500.000
G1 X-3.236 Y399.651 Z6.852 F2500.000
G1 X-3.216 Y398.351 Z6.896 F2500.000
G1 X-3.201 Y397.351 Z6.921 F2500.000
G1 X-3.183 Y396.151 Z6.945 F2500.000
G1 X-3.149 Y393.952 Z6.976 F2500.000
G1 X-3.128 Y392.552 Z6.991 F2500.000
G1 X-3.119 Y391.952 Z6.987 F2500.000
G1 X-3.116 Y391.752 Z6.993 F2500.000
G1 X-3.073 Y388.952 Z6.956 F2500.000
G1 X-3.052 Y387.552 Z6.931 F2500.000
G1 X-3.027 Y385.953 Z6.891 F2500.000
G1 X-3.018 Y385.353 Z6.891 F2500.000
G1 X-2.997 Y383.953 Z6.923 F2500.000
G1 X-2.966 Y381.953 Z6.954 F2500.000
G1 X-2.930 Y379.553 Z6.978 F2500.000
G1 X-2.890 Y376.954 Z6.994 F2500.000
G1 X-2.756 Y368.155 Z6.990 F2500.000
G1 X-2.698 Y364.355 Z6.982 F2500.000
G1 X-2.650 Y361.155 Z6.994 F2500.000
G1 X-2.637 Y360.356 Z6.990 F2500.000
G1 X-2.628 Y359.756 Z6.995 F2500.000
G1 X-2.468 Y349.257 Z6.987 F2500.000
G1 X-2.382 Y343.557 Z6.996 F2500.000
G1 X-2.375 Y343.158 Z6.989 F2500.000
G1 X-2.372 Y342.958 Z6.996 F2500.000
G1 X-1.172 Y264.167 Z6.998 F2500.000
G1 X-1.163 Y263.567 Z6.989 F2500.000
G1 X-1.154 Y262.967 Z6.998 F2500.000
G1 X-0.817 Y240.869 Z6.999 F2500.000
G1 X-0.810 Y240.369 Z6.996 F2500.000
G1 X-0.799 Y239.670 Z6.999 F2500.000
G1 X-0.063 Y191.462 Z7.000 F2500.000
G1 X0.025 Y196.911 Z7.000 F2500.000
(Break)
G0 Z10.000
G0 X0.395 Y164.160
(part 9.)
G1 X0.395 Y164.160 Z6.999 F2500.000
G1 X0.809 Y189.756 Z6.999 F2500.000
G1 X0.817 Y190.256 Z6.994 F2500.000
G1 X0.826 Y190.756 Z6.999 F2500.000
G1 X1.625 Y240.150 Z6.997 F2500.000
G1 X1.756 Y248.249 Z6.994 F2500.000
G1 X1.994 Y262.947 Z6.996 F2500.000
G1 X2.004 Y263.547 Z6.986 F2500.000
G1 X2.007 Y263.747 Z6.996 F2500.000
G1 X2.010 Y263.947 Z6.996 F2500.000
G1 X2.344 Y284.544 Z6.996 F2500.000
G1 X2.353 Y285.144 Z6.987 F2500.000
G1 X2.363 Y285.744 Z6.996 F2500.000
G1 X2.988 Y324.339 Z6.994 F2500.000
G1 X2.998 Y324.939 Z6.985 F2500.000
G1 X3.007 Y325.539 Z6.994 F2500.000
G1 X3.289 Y342.936 Z6.992 F2500.000
G1 X3.295 Y343.336 Z6.986 F2500.000
G1 X3.302 Y343.736 Z6.992 F2500.000
G1 X3.567 Y360.134 Z6.991 F2500.000
G1 X3.574 Y360.534 Z6.983 F2500.000
G1 X3.577 Y360.734 Z6.991 F2500.000
G1 X3.674 Y366.733 Z6.990 F2500.000
G1 X3.800 Y374.532 Z6.983 F2500.000
G1 X3.842 Y377.132 Z6.989 F2500.000
G1 X3.897 Y380.531 Z6.986 F2500.000
G1 X3.985 Y385.931 Z6.973 F2500.000
G1 X4.020 Y388.130 Z6.957 F2500.000
G1 X4.030 Y388.730 Z6.949 F2500.000
G1 X4.043 Y389.530 Z6.932 F2500.000
G1 X4.075 Y391.530 Z6.983 F2500.000
G1 X4.085 Y392.130 Z6.981 F2500.000
G1 X4.095 Y392.730 Z6.987 F2500.000
G1 X4.174 Y397.629 Z6.971 F2500.000
G1 X4.205 Y399.529 Z6.958 F2500.000
G1 X4.236 Y401.429 Z6.935 F2500.000
G1 X4.266 Y403.328 Z6.897 F2500.000
G1 X4.279 Y404.128 Z6.927 F2500.000
G1 X4.312 Y406.128 Z6.985 F2500.000
G1 X4.328 Y407.128 Z6.984 F2500.000
G1 X4.351 Y408.528 Z6.973 F2500.000
G1 X4.257 Y408.640 Z6.972 F2500.000
G1 X3.659 Y408.698 Z6.973 F2500.000
G1 X2.864 Y408.785 Z6.973 F2500.000
G1 X2.467 Y408.835 Z6.973 F2500.000
G1 X1.873 Y408.918 Z6.971 F2500.000
G1 X1.477 Y408.976 Z6.969 F2500.000
G1 X0.885 Y409.071 Z6.967 F2500.000
G1 X0.097 Y409.211 Z6.961 F2500.000
G1 X-0.296 Y409.286 Z6.957 F2500.000
G1 X-0.688 Y409.366 Z6.954 F2500.000
G1 X-1.470 Y409.533 Z6.944 F2500.000
G1 X-2.249 Y409.716 Z6.933 F2500.000
G1 X-3.217 Y409.964 Z6.915 F2500.000
G1 X-3.603 Y410.070 Z6.906 F2500.000
G1 X-4.180 Y410.236 Z6.893 F2500.000
G1 X-4.297 Y410.193 Z6.893 F2500.000
G1 X-4.278 Y408.993 Z6.934 F2500.000
G1 X-4.248 Y406.994 Z6.984 F2500.000
G1 X-4.230 Y405.794 Z6.983 F2500.000
G1 X-4.218 Y404.994 Z6.975 F2500.000
G1 X-4.184 Y402.794 Z6.942 F2500.000
G1 X-4.169 Y401.794 Z6.923 F2500.000
G1 X-4.154 Y400.794 Z6.899 F2500.000
G1 X-4.138 Y399.794 Z6.869 F2500.000
G1 X-4.131 Y399.294 Z6.850 F2500.000
G1 X-4.108 Y397.795 Z6.896 F2500.000
G1 X-4.093 Y396.795 Z6.921 F2500.000
G1 X-4.070 Y395.295 Z6.950 F2500.000
G1 X-4.041 Y393.395 Z6.977 F2500.000
G1 X-4.026 Y392.395 Z6.988 F2500.000
G1 X-4.016 Y391.795 Z6.988 F2500.000
G1 X-3.995 Y390.395 Z6.975 F2500.000
G1 X-3.968 Y388.596 Z6.951 F2500.000
G1 X-3.946 Y387.196 Z6.927 F2500.000
G1 X-3.919 Y385.396 Z6.883 F2500.000
G1 X-3.904 Y384.396 Z6.897 F2500.000
G1 X-3.873 Y382.396 Z6.937 F2500.000
G1 X-3.852 Y380.997 Z6.956 F2500.000
G1 X-3.818 Y378.797 Z6.978 F2500.000
G1 X-3.800 Y377.597 Z6.986 F2500.000
G1 X-3.788 Y376.797 Z6.983 F2500.000
G1 X-3.782 Y376.397 Z6.990 F2500.000
G1 X-3.627 Y366.198 Z6.988 F2500.000
G1 X-3.584 Y363.399 Z6.982 F2500.000
G1 X-3.550 Y361.199 Z6.989 F2500.000
G1 X-3.541 Y360.599 Z6.987 F2500.000
G1 X-3.538 Y360.399 Z6.982 F2500.000
G1 X-3.531 Y359.899 Z6.991 F2500.000
G1 X-3.451 Y354.700 Z6.991 F2500.000
G1 X-3.342 Y347.500 Z6.985 F2500.000
G1 X-3.281 Y343.501 Z6.992 F2500.000
G1 X-3.008 Y325.603 Z6.994 F2500.000
G1 X-3.001 Y325.103 Z6.988 F2500.000
G1 X-2.993 Y324.603 Z6.994 F2500.000
G1 X-2.710 Y306.005 Z6.995 F2500.000
G1 X-2.703 Y305.605 Z6.987 F2500.000
G1 X-2.696 Y305.105 Z6.995 F2500.000
G1 X-2.399 Y285.608 Z6.996 F2500.000
G1 X-2.393 Y285.208 Z6.983 F2500.000
G1 X-2.390 Y285.008 Z6.995 F2500.000
G1 X-2.387 Y284.808 Z6.996 F2500.000
G1 X-1.351 Y216.816 Z6.998 F2500.000
G1 X-1.340 Y216.116 Z6.989 F2500.000
G1 X-1.330 Y215.416 Z6.998 F2500.000
G1 X-0.959 Y191.119 Z6.998 F2500.000
G1 X-0.949 Y190.419 Z6.988 F2500.000
G1 X-0.937 Y189.619 Z6.998 F2500.000
G1 X-0.547 Y164.022 Z6.999 F2500.000
G1 X-0.531 Y163.022 Z6.988 F2500.000
G1 X-0.519 Y162.222 Z6.999 F2500.000
G1 X-0.099 Y134.625 Z7.000 F2500.000
G1 X-0.093 Y134.225 Z6.996 F2500.000
G1 X-0.090 Y134.224 Z6.996 F2500.000
G1 X-0.074 Y135.157 Z7.000 F2500.000
G1 X0.365 Y162.287 Z6.999 F2500.000
G1 X0.379 Y163.154 Z6.994 F2500.000
G1 X0.395 Y164.160 Z6.999 F2500.000
(Break)
G0 Z10.000
G0 X0.235 Y98.668
(part 11.)
G1 X0.235 Y98.668 Z7.000 F2500.000
G1 X0.250 Y99.568 Z7.000 F2500.000
G1 X1.267 Y162.393 Z6.998 F2500.000
G1 X1.277 Y163.060 Z6.985 F2500.000
G1 X1.287 Y163.660 Z6.998 F2500.000
G1 X2.125 Y215.453 Z6.996 F2500.000
G1 X2.137 Y216.153 Z6.985 F2500.000
G1 X2.148 Y216.853 Z6.996 F2500.000
G1 X2.540 Y241.050 Z6.995 F2500.000
G1 X2.708 Y251.448 Z6.990 F2500.000
G1 X2.893 Y262.847 Z6.994 F2500.000
G1 X2.902 Y263.447 Z6.986 F2500.000
G1 X2.906 Y263.647 Z6.991 F2500.000
G1 X2.915 Y264.247 Z6.994 F2500.000
G1 X3.242 Y284.444 Z6.992 F2500.000
G1 X3.252 Y285.044 Z6.989 F2500.000
G1 X3.255 Y285.244 Z6.983 F2500.000
G1 X3.265 Y285.844 Z6.992 F2500.000
G1 X3.576 Y305.041 Z6.991 F2500.000
G1 X3.585 Y305.641 Z6.980 F2500.000
G1 X3.589 Y305.841 Z6.988 F2500.000
G1 X3.598 Y306.441 Z6.991 F2500.000
G1 X4.184 Y342.636 Z6.987 F2500.000
G1 X4.191 Y343.036 Z6.986 F2500.000
G1 X4.194 Y343.236 Z6.974 F2500.000
G1 X4.207 Y344.036 Z6.987 F2500.000
G1 X4.459 Y359.634 Z6.986 F2500.000
G1 X4.472 Y360.434 Z6.975 F2500.000
G1 X4.475 Y360.634 Z6.984 F2500.000
G1 X4.482 Y361.034 Z6.986 F2500.000
G1 X4.725 Y376.032 Z6.983 F2500.000
G1 X4.734 Y376.632 Z6.977 F2500.000
G1 X4.744 Y377.232 Z6.984 F2500.000
G1 X4.883 Y385.831 Z6.974 F2500.000
G1 X4.922 Y388.230 Z6.964 F2500.000
G1 X4.955 Y390.230 Z6.942 F2500.000
G1 X4.977 Y391.630 Z6.981 F2500.000
G1 X4.997 Y392.830 Z6.982 F2500.000
G1 X5.061 Y396.829 Z6.972 F2500.000
G1 X5.120 Y400.429 Z6.953 F2500.000
G1 X5.152 Y402.428 Z6.927 F2500.000
G1 X5.168 Y403.428 Z6.902 F2500.000
G1 X5.175 Y403.828 Z6.905 F2500.000
G1 X5.188 Y404.628 Z6.935 F2500.000
G1 X5.213 Y406.228 Z6.982 F2500.000
G1 X5.223 Y406.828 Z6.982 F2500.000
G1 X5.265 Y409.428 Z6.962 F2500.000
G1 X5.105 Y409.478 Z6.961 F2500.000
G1 X4.507 Y409.522 Z6.962 F2500.000
G1 X3.910 Y409.577 Z6.962 F2500.000
G1 X3.114 Y409.662 Z6.961 F2500.000
G1 X2.519 Y409.737 Z6.959 F2500.000
G1 X1.727 Y409.848 Z6.956 F2500.000
G1 X1.331 Y409.909 Z6.953 F2500.000
G1 X0.543 Y410.045 Z6.946 F2500.000
G1 X-0.047 Y410.154 Z6.940 F2500.000
G1 X-0.635 Y410.275 Z6.932 F2500.000
G1 X-1.417 Y410.444 Z6.921 F2500.000
G1 X-2.001 Y410.582 Z6.909 F2500.000
G1 X-2.776 Y410.779 Z6.893 F2500.000
G1 X-3.355 Y410.935 Z6.878 F2500.000
G1 X-4.124 Y411.157 Z6.856 F2500.000
G1 X-4.507 Y411.272 Z6.843 F2500.000
G1 X-5.079 Y411.454 Z6.823 F2500.000
G1 X-5.216 Y411.444 Z6.820 F2500.000
G1 X-5.195 Y410.044 Z6.884 F2500.000
G1 X-5.176 Y408.844 Z6.927 F2500.000
G1 X-5.152 Y407.244 Z6.973 F2500.000
G1 X-5.137 Y406.244 Z6.982 F2500.000
G1 X-5.106 Y404.245 Z6.962 F2500.000
G1 X-5.079 Y402.445 Z6.937 F2500.000
G1 X-5.062 Y401.345 Z6.916 F2500.000
G1 X-5.021 Y398.645 Z6.849 F2500.000
G1 X-5.001 Y397.345 Z6.893 F2500.000
G1 X-4.987 Y396.446 Z6.915 F2500.000
G1 X-4.957 Y394.446 Z6.955 F2500.000
G1 X-4.930 Y392.646 Z6.980 F2500.000
G1 X-4.920 Y392.046 Z6.970 F2500.000
G1 X-4.911 Y391.446 Z6.981 F2500.000
G1 X-4.884 Y389.646 Z6.964 F2500.000
G1 X-4.859 Y388.047 Z6.943 F2500.000
G1 X-4.838 Y386.647 Z6.919 F2500.000
G1 X-4.808 Y384.647 Z6.870 F2500.000
G1 X-4.780 Y382.847 Z6.915 F2500.000
G1 X-4.759 Y381.447 Z6.939 F2500.000
G1 X-4.735 Y379.848 Z6.960 F2500.000
G1 X-4.692 Y377.048 Z6.984 F2500.000
G1 X-4.515 Y365.449 Z6.986 F2500.000
G1 X-4.460 Y361.850 Z6.982 F2500.000
G1 X-4.442 Y360.650 Z6.985 F2500.000
G1 X-4.439 Y360.450 Z6.973 F2500.000
G1 X-4.433 Y360.050 Z6.986 F2500.000
G1 X-4.214 Y345.651 Z6.984 F2500.000
G1 X-4.165 Y342.452 Z6.988 F2500.000
G1 X-3.300 Y285.658 Z6.992 F2500.000
G1 X-3.297 Y285.458 Z6.992 F2500.000
G1 X-3.294 Y285.258 Z6.984 F2500.000
G1 X-3.284 Y284.659 Z6.992 F2500.000
G1 X-2.968 Y263.861 Z6.994 F2500.000
G1 X-2.962 Y263.461 Z6.984 F2500.000
G1 X-2.959 Y263.261 Z6.994 F2500.000
G1 X-2.931 Y261.461 Z6.994 F2500.000
G1 X-2.623 Y241.264 Z6.995 F2500.000
G1 X-2.611 Y240.464 Z6.987 F2500.000
G1 X-2.596 Y239.464 Z6.995 F2500.000
G1 X-0.119 Y76.883 Z7.000 F2500.000
G1 X0.235 Y98.668 Z7.000 F2500.000
(Break)
G0 Z10.000
G0 X0.075 Y33.173
(part 13.)
G1 X0.075 Y33.173 Z7.000 F2500.000
G1 X0.078 Y33.373 Z7.000 F2500.000
G1 X0.672 Y70.069 Z6.999 F2500.000
G1 X0.687 Y70.968 Z6.990 F2500.000
G1 X0.701 Y71.868 Z6.999 F2500.000
G1 X1.198 Y102.564 Z6.998 F2500.000
G1 X1.214 Y103.564 Z6.995 F2500.000
G1 X1.231 Y104.564 Z6.998 F2500.000
G1 X1.428 Y116.762 Z6.998 F2500.000
G1 X1.697 Y133.360 Z6.997 F2500.000
G1 X1.706 Y133.960 Z6.993 F2500.000
G1 X1.716 Y134.560 Z6.997 F2500.000
G1 X2.606 Y189.553 Z6.995 F2500.000
G1 X2.619 Y190.353 Z6.984 F2500.000
G1 X2.632 Y191.153 Z6.995 F2500.000
G1 X3.030 Y215.750 Z6.993 F2500.000
G1 X3.038 Y216.249 Z6.986 F2500.000
G1 X3.046 Y216.749 Z6.993 F2500.000
G1 X3.681 Y255.944 Z6.987 F2500.000
G1 X3.797 Y263.143 Z6.989 F2500.000
G1 X3.804 Y263.543 Z6.979 F2500.000
G1 X3.817 Y264.343 Z6.989 F2500.000
G1 X4.144 Y284.541 Z6.988 F2500.000
G1 X4.157 Y285.340 Z6.984 F2500.000
G1 X4.170 Y286.140 Z6.988 F2500.000
G1 X4.471 Y304.738 Z6.986 F2500.000
G1 X4.484 Y305.538 Z6.982 F2500.000
G1 X4.497 Y306.338 Z6.986 F2500.000
G1 X5.083 Y342.533 Z6.983 F2500.000
G1 X5.096 Y343.333 Z6.977 F2500.000
G1 X5.107 Y344.033 Z6.983 F2500.000
G1 X5.283 Y354.931 Z6.982 F2500.000
G1 X5.367 Y360.131 Z6.981 F2500.000
G1 X5.374 Y360.531 Z6.973 F2500.000
G1 X5.377 Y360.731 Z6.981 F2500.000
G1 X5.626 Y376.129 Z6.979 F2500.000
G1 X5.636 Y376.728 Z6.967 F2500.000
G1 X5.649 Y377.528 Z6.979 F2500.000
G1 X5.659 Y378.128 Z6.979 F2500.000
G1 X5.775 Y385.327 Z6.974 F2500.000
G1 X5.817 Y387.927 Z6.968 F2500.000
G1 X5.846 Y389.727 Z6.958 F2500.000
G1 X5.859 Y390.527 Z6.945 F2500.000
G1 X5.879 Y391.726 Z6.976 F2500.000
G1 X5.889 Y392.326 Z6.977 F2500.000
G1 X5.973 Y397.526 Z6.967 F2500.000
G1 X6.015 Y400.125 Z6.957 F2500.000
G1 X6.054 Y402.525 Z6.935 F2500.000
G1 X6.067 Y403.325 Z6.921 F2500.000
G1 X6.076 Y403.925 Z6.905 F2500.000
G1 X6.080 Y404.125 Z6.905 F2500.000
G1 X6.092 Y404.925 Z6.935 F2500.000
G1 X6.109 Y405.925 Z6.966 F2500.000
G1 X6.122 Y406.724 Z6.973 F2500.000
G1 X6.135 Y407.524 Z6.971 F2500.000
G1 X6.177 Y410.124 Z6.952 F2500.000
G1 X6.172 Y410.317 Z6.950 F2500.000
G1 X5.773 Y410.336 Z6.951 F2500.000
G1 X5.373 Y410.361 Z6.951 F2500.000
G1 X4.775 Y410.403 Z6.952 F2500.000
G1 X4.376 Y410.436 Z6.952 F2500.000
G1 X3.381 Y410.538 Z6.948 F2500.000
G1 X2.786 Y410.609 Z6.946 F2500.000
G1 X1.795 Y410.748 Z6.938 F2500.000
G1 X1.203 Y410.843 Z6.933 F2500.000
G1 X0.219 Y411.019 Z6.920 F2500.000
G1 X-0.174 Y411.097 Z6.914 F2500.000
G1 X-0.761 Y411.221 Z6.903 F2500.000
G1 X-1.152 Y411.306 Z6.896 F2500.000
G1 X-1.541 Y411.397 Z6.888 F2500.000
G1 X-1.930 Y411.492 Z6.878 F2500.000
G1 X-2.705 Y411.691 Z6.857 F2500.000
G1 X-3.091 Y411.796 Z6.845 F2500.000
G1 X-3.667 Y411.961 Z6.825 F2500.000
G1 X-4.051 Y412.074 Z6.811 F2500.000
G1 X-4.433 Y412.192 Z6.795 F2500.000
G1 X-5.384 Y412.501 Z6.827 F2500.000
G1 X-6.136 Y412.762 Z6.848 F2500.000
G1 X-6.118 Y411.562 Z6.793 F2500.000
G1 X-6.100 Y410.362 Z6.856 F2500.000
G1 X-6.087 Y409.562 Z6.890 F2500.000
G1 X-6.063 Y407.962 Z6.945 F2500.000
G1 X-6.045 Y406.762 Z6.975 F2500.000
G1 X-6.042 Y406.563 Z6.965 F2500.000
G1 X-6.029 Y405.763 Z6.972 F2500.000
G1 X-5.990 Y403.163 Z6.946 F2500.000
G1 X-5.969 Y401.763 Z6.926 F2500.000
G1 X-5.944 Y400.163 Z6.893 F2500.000
G1 X-5.926 Y398.963 Z6.859 F2500.000
G1 X-5.914 Y398.163 Z6.847 F2500.000
G1 X-5.898 Y397.164 Z6.881 F2500.000
G1 X-5.868 Y395.164 Z6.931 F2500.000
G1 X-5.838 Y393.164 Z6.965 F2500.000
G1 X-5.813 Y391.564 Z6.976 F2500.000
G1 X-5.777 Y389.165 Z6.955 F2500.000
G1 X-5.749 Y387.365 Z6.932 F2500.000
G1 X-5.728 Y385.965 Z6.908 F2500.000
G1 X-5.707 Y384.565 Z6.875 F2500.000
G1 X-5.697 Y383.965 Z6.869 F2500.000
G1 X-5.679 Y382.765 Z6.900 F2500.000
G1 X-5.655 Y381.165 Z6.931 F2500.000
G1 X-5.627 Y379.366 Z6.956 F2500.000
G1 X-5.591 Y376.966 Z6.979 F2500.000
G1 X-5.347 Y360.968 Z6.981 F2500.000
G1 X-5.338 Y360.368 Z6.975 F2500.000
G1 X-5.327 Y359.668 Z6.981 F2500.000
G1 X-5.094 Y344.370 Z6.983 F2500.000
G1 X-5.085 Y343.770 Z6.982 F2500.000
G1 X-5.076 Y343.170 Z6.975 F2500.000
G1 X-5.067 Y342.570 Z6.983 F2500.000
G1 X-4.810 Y325.705 Z6.984 F2500.000
G1 X-4.799 Y324.972 Z6.973 F2500.000
G1 X-4.796 Y324.772 Z6.984 F2500.000
G1 X-4.780 Y323.772 Z6.984 F2500.000
G1 X-2.377 Y165.990 Z6.996 F2500.000
G1 X-1.900 Y134.694 Z6.997 F2500.000
G1 X-1.889 Y133.994 Z6.991 F2500.000
G1 X-1.879 Y133.294 Z6.997 F2500.000
G1 X-0.941 Y71.735 Z6.998 F2500.000
G1 X-0.930 Y71.001 Z6.992 F2500.000
G1 X-0.918 Y70.202 Z6.998 F2500.000
G1 X-0.420 Y37.505 Z6.999 F2500.000
G1 X-0.406 Y36.605 Z6.995 F2500.000
G1 X-0.392 Y35.706 Z6.999 F2500.000
G1 X-0.257 Y26.807 Z7.000 F2500.000
G1 X-0.164 Y26.698 Z7.000 F2500.000
G1 X-0.029 Y26.764 Z7.000 F2500.000
G1 X0.075 Y33.173 Z7.000 F2500.000
(Break)
G0 Z10.000
G0 X0.975 Y33.159
(part 15.)
G1 X0.975 Y33.159 Z6.998 F2500.000
G1 X0.987 Y33.892 Z6.998 F2500.000
G1 X2.564 Y131.346 Z6.996 F2500.000
G1 X2.606 Y133.946 Z6.992 F2500.000
G1 X2.616 Y134.546 Z6.995 F2500.000
G1 X4.697 Y263.129 Z6.984 F2500.000
G1 X4.701 Y263.329 Z6.983 F2500.000
G1 X4.704 Y263.529 Z6.973 F2500.000
G1 X4.714 Y264.129 Z6.984 F2500.000
G1 X5.050 Y284.926 Z6.983 F2500.000
G1 X5.053 Y285.126 Z6.976 F2500.000
G1 X5.060 Y285.526 Z6.983 F2500.000
G1 X5.348 Y303.323 Z6.981 F2500.000
G1 X5.377 Y305.123 Z6.981 F2500.000
G1 X5.387 Y305.723 Z6.971 F2500.000
G1 X5.397 Y306.323 Z6.981 F2500.000
G1 X5.686 Y324.187 Z6.978 F2500.000
G1 X5.698 Y324.921 Z6.971 F2500.000
G1 X5.711 Y325.721 Z6.978 F2500.000
G1 X5.982 Y342.518 Z6.976 F2500.000
G1 X5.995 Y343.318 Z6.968 F2500.000
G1 X5.999 Y343.518 Z6.976 F2500.000
G1 X6.261 Y359.716 Z6.973 F2500.000
G1 X6.271 Y360.316 Z6.970 F2500.000
G1 X6.274 Y360.516 Z6.965 F2500.000
G1 X6.277 Y360.716 Z6.973 F2500.000
G1 X6.656 Y384.113 Z6.970 F2500.000
G1 X6.737 Y389.112 Z6.965 F2500.000
G1 X6.759 Y390.512 Z6.958 F2500.000
G1 X6.769 Y391.112 Z6.952 F2500.000
G1 X6.782 Y391.912 Z6.965 F2500.000
G1 X6.792 Y392.512 Z6.969 F2500.000
G1 X6.856 Y396.511 Z6.965 F2500.000
G1 X6.931 Y401.111 Z6.951 F2500.000
G1 X6.963 Y403.110 Z6.935 F2500.000
G1 X6.986 Y404.510 Z6.908 F2500.000
G1 X7.002 Y405.510 Z6.945 F2500.000
G1 X7.012 Y406.110 Z6.964 F2500.000
G1 X7.015 Y406.310 Z6.966 F2500.000
G1 X7.051 Y408.510 Z6.959 F2500.000
G1 X7.093 Y411.109 Z6.940 F2500.000
G1 X6.971 Y411.189 Z6.939 F2500.000
G1 X5.971 Y411.227 Z6.940 F2500.000
G1 X5.572 Y411.250 Z6.941 F2500.000
G1 X4.774 Y411.306 Z6.939 F2500.000
G1 X4.375 Y411.340 Z6.937 F2500.000
G1 X3.977 Y411.380 Z6.936 F2500.000
G1 X3.381 Y411.443 Z6.932 F2500.000
G1 X2.984 Y411.491 Z6.929 F2500.000
G1 X1.993 Y411.628 Z6.919 F2500.000
G1 X1.400 Y411.723 Z6.911 F2500.000
G1 X0.613 Y411.861 Z6.899 F2500.000
G1 X0.220 Y411.936 Z6.892 F2500.000
G1 X-0.172 Y412.016 Z6.884 F2500.000
G1 X-0.954 Y412.185 Z6.865 F2500.000
G1 X-1.538 Y412.322 Z6.849 F2500.000
G1 X-2.507 Y412.569 Z6.818 F2500.000
G1 X-2.893 Y412.675 Z6.803 F2500.000
G1 X-3.085 Y412.730 Z6.799 F2500.000
G1 X-3.662 Y412.897 Z6.819 F2500.000
G1 X-4.044 Y413.013 Z6.831 F2500.000
G1 X-4.426 Y413.134 Z6.842 F2500.000
G1 X-5.186 Y413.384 Z6.861 F2500.000
G1 X-5.563 Y413.515 Z6.869 F2500.000
G1 X-6.128 Y413.719 Z6.880 F2500.000
G1 X-6.503 Y413.858 Z6.886 F2500.000
G1 X-6.876 Y414.001 Z6.891 F2500.000
G1 X-7.056 Y414.065 Z6.893 F2500.000
G1 X-7.041 Y413.065 Z6.867 F2500.000
G1 X-7.032 Y412.466 Z6.847 F2500.000
G1 X-7.019 Y411.666 Z6.813 F2500.000
G1 X-7.010 Y411.066 Z6.801 F2500.000
G1 X-6.989 Y409.666 Z6.871 F2500.000
G1 X-6.977 Y408.866 Z6.904 F2500.000
G1 X-6.962 Y407.866 Z6.938 F2500.000
G1 X-6.952 Y407.266 Z6.956 F2500.000
G1 X-6.943 Y406.666 Z6.964 F2500.000
G1 X-6.940 Y406.466 Z6.959 F2500.000
G1 X-6.931 Y405.866 Z6.965 F2500.000
G1 X-6.882 Y402.667 Z6.937 F2500.000
G1 X-6.855 Y400.867 Z6.910 F2500.000
G1 X-6.834 Y399.467 Z6.881 F2500.000
G1 X-6.812 Y398.067 Z6.837 F2500.000
G1 X-6.770 Y395.268 Z6.916 F2500.000
G1 X-6.742 Y393.468 Z6.953 F2500.000
G1 X-6.727 Y392.468 Z6.968 F2500.000
G1 X-6.712 Y391.468 Z6.968 F2500.000
G1 X-6.697 Y390.468 Z6.961 F2500.000
G1 X-6.657 Y387.868 Z6.937 F2500.000
G1 X-6.627 Y385.869 Z6.908 F2500.000
G1 X-6.611 Y384.869 Z6.888 F2500.000
G1 X-6.593 Y383.669 Z6.857 F2500.000
G1 X-6.581 Y382.869 Z6.880 F2500.000
G1 X-6.563 Y381.669 Z6.908 F2500.000
G1 X-6.538 Y380.069 Z6.935 F2500.000
G1 X-6.514 Y378.469 Z6.957 F2500.000
G1 X-6.496 Y377.270 Z6.969 F2500.000
G1 X-6.480 Y376.270 Z6.971 F2500.000
G1 X-6.249 Y361.072 Z6.973 F2500.000
G1 X-6.243 Y360.672 Z6.973 F2500.000
G1 X-6.240 Y360.472 Z6.961 F2500.000
G1 X-6.234 Y360.072 Z6.974 F2500.000
G1 X-5.710 Y325.676 Z6.978 F2500.000
G1 X-5.697 Y324.876 Z6.974 F2500.000
G1 X-5.685 Y324.076 Z6.978 F2500.000
G1 X-5.097 Y285.480 Z6.983 F2500.000
G1 X-4.049 Y216.688 Z6.988 F2500.000
G1 X-4.040 Y216.088 Z6.982 F2500.000
G1 X-4.034 Y215.688 Z6.988 F2500.000
G1 X-3.656 Y190.891 Z6.990 F2500.000
G1 X-3.647 Y190.291 Z6.984 F2500.000
G1 X-3.635 Y189.491 Z6.990 F2500.000
G1 X-3.245 Y163.894 Z6.992 F2500.000
G1 X-3.233 Y163.094 Z6.983 F2500.000
G1 X-3.224 Y162.495 Z6.992 F2500.000
G1 X-2.800 Y134.698 Z6.995 F2500.000
G1 X-2.791 Y134.098 Z6.981 F2500.000
G1 X-2.782 Y133.498 Z6.995 F2500.000
G1 X-1.143 Y25.910 Z6.998 F2500.000
G1 X-1.054 Y25.798 Z6.998 F2500.000
G1 X0.746 Y25.798 Z6.999 F2500.000
G1 X0.857 Y25.888 Z6.999 F2500.000
G1 X0.975 Y33.159 Z6.998 F2500.000
(Break)
G0 Z10.000
G0 X1.875 Y33.144
(part 17.)
G1 X1.875 Y33.144 Z6.997 F2500.000
G1 X1.888 Y33.944 Z6.997 F2500.000
G1 X2.998 Y102.535 Z6.993 F2500.000
G1 X3.011 Y103.335 Z6.987 F2500.000
G1 X3.022 Y104.035 Z6.993 F2500.000
G1 X4.406 Y189.524 Z6.986 F2500.000
G1 X4.422 Y190.524 Z6.983 F2500.000
G1 X4.432 Y191.124 Z6.986 F2500.000
G1 X4.827 Y215.520 Z6.984 F2500.000
G1 X4.833 Y215.920 Z6.984 F2500.000
G1 X4.837 Y216.120 Z6.975 F2500.000
G1 X4.843 Y216.520 Z6.984 F2500.000
G1 X5.520 Y258.315 Z6.980 F2500.000
G1 X5.597 Y263.114 Z6.979 F2500.000
G1 X5.600 Y263.314 Z6.978 F2500.000
G1 X5.604 Y263.514 Z6.966 F2500.000
G1 X5.613 Y264.114 Z6.979 F2500.000
G1 X5.950 Y284.911 Z6.976 F2500.000
G1 X5.953 Y285.111 Z6.969 F2500.000
G1 X5.960 Y285.511 Z6.976 F2500.000
G1 X6.277 Y305.109 Z6.973 F2500.000
G1 X6.287 Y305.709 Z6.963 F2500.000
G1 X6.296 Y306.309 Z6.973 F2500.000
G1 X6.882 Y342.504 Z6.968 F2500.000
G1 X6.895 Y343.304 Z6.960 F2500.000
G1 X6.899 Y343.504 Z6.968 F2500.000
G1 X7.167 Y360.101 Z6.965 F2500.000
G1 X7.174 Y360.501 Z6.956 F2500.000
G1 X7.177 Y360.701 Z6.965 F2500.000
G1 X7.187 Y361.301 Z6.965 F2500.000
G1 X7.692 Y392.497 Z6.961 F2500.000
G1 X7.790 Y398.596 Z6.955 F2500.000
G1 X7.836 Y401.396 Z6.949 F2500.000
G1 X7.870 Y403.496 Z6.936 F2500.000
G1 X7.887 Y404.562 Z6.919 F2500.000
G1 X7.898 Y405.229 Z6.924 F2500.000
G1 X7.908 Y405.895 Z6.949 F2500.000
G1 X7.915 Y406.295 Z6.958 F2500.000
G1 X7.925 Y406.895 Z6.958 F2500.000
G1 X7.970 Y409.695 Z6.945 F2500.000
G1 X8.006 Y411.895 Z6.929 F2500.000
G1 X7.989 Y412.075 Z6.927 F2500.000
G1 X7.389 Y412.080 Z6.928 F2500.000
G1 X6.989 Y412.089 Z6.929 F2500.000
G1 X6.190 Y412.118 Z6.929 F2500.000
G1 X5.790 Y412.138 Z6.928 F2500.000
G1 X4.992 Y412.192 Z6.925 F2500.000
G1 X4.593 Y412.224 Z6.922 F2500.000
G1 X4.195 Y412.262 Z6.919 F2500.000
G1 X3.400 Y412.347 Z6.913 F2500.000
G1 X3.003 Y412.396 Z6.908 F2500.000
G1 X2.210 Y412.506 Z6.897 F2500.000
G1 X1.815 Y412.566 Z6.890 F2500.000
G1 X1.420 Y412.632 Z6.883 F2500.000
G1 X0.829 Y412.737 Z6.871 F2500.000
G1 X0.436 Y412.811 Z6.862 F2500.000
G1 X0.044 Y412.891 Z6.852 F2500.000
G1 X-0.738 Y413.058 Z6.829 F2500.000
G1 X-1.127 Y413.149 Z6.816 F2500.000
G1 X-1.516 Y413.244 Z6.802 F2500.000
G1 X-2.291 Y413.443 Z6.824 F2500.000
G1 X-2.676 Y413.549 Z6.835 F2500.000
G1 X-3.445 Y413.772 Z6.856 F2500.000
G1 X-4.018 Y413.949 Z6.869 F2500.000
G1 X-4.589 Y414.134 Z6.881 F2500.000
G1 X-4.968 Y414.261 Z6.888 F2500.000
G1 X-5.346 Y414.393 Z6.894 F2500.000
G1 X-6.285 Y414.737 Z6.906 F2500.000
G1 X-7.215 Y415.104 Z6.914 F2500.000
G1 X-7.585 Y415.256 Z6.915 F2500.000
G1 X-7.952 Y415.414 Z6.917 F2500.000
G1 X-7.974 Y415.251 Z6.914 F2500.000
G1 X-7.956 Y414.051 Z6.894 F2500.000
G1 X-7.938 Y412.851 Z6.867 F2500.000
G1 X-7.922 Y411.851 Z6.834 F2500.000
G1 X-7.907 Y410.851 Z6.792 F2500.000
G1 X-7.895 Y410.052 Z6.836 F2500.000
G1 X-7.880 Y409.052 Z6.882 F2500.000
G1 X-7.865 Y408.052 Z6.920 F2500.000
G1 X-7.849 Y407.052 Z6.954 F2500.000
G1 X-7.837 Y406.252 Z6.959 F2500.000
G1 X-7.801 Y403.852 Z6.944 F2500.000
G1 X-7.761 Y401.253 Z6.915 F2500.000
G1 X-7.737 Y399.653 Z6.889 F2500.000
G1 X-7.724 Y398.853 Z6.870 F2500.000
G1 X-7.709 Y397.853 Z6.840 F2500.000
G1 X-7.694 Y396.853 Z6.855 F2500.000
G1 X-7.679 Y395.853 Z6.887 F2500.000
G1 X-7.663 Y394.853 Z6.912 F2500.000
G1 X-7.627 Y392.454 Z6.960 F2500.000
G1 X-7.606 Y391.054 Z6.957 F2500.000
G1 X-7.578 Y389.254 Z6.946 F2500.000
G1 X-7.545 Y387.054 Z6.925 F2500.000
G1 X-7.523 Y385.654 Z6.906 F2500.000
G1 X-7.484 Y383.055 Z6.855 F2500.000
G1 X-7.453 Y381.055 Z6.905 F2500.000
G1 X-7.432 Y379.655 Z6.930 F2500.000
G1 X-7.395 Y377.255 Z6.961 F2500.000
G1 X-7.386 Y376.655 Z6.955 F2500.000
G1 X-7.374 Y375.855 Z6.963 F2500.000
G1 X-7.295 Y370.656 Z6.961 F2500.000
G1 X-7.155 Y361.457 Z6.966 F2500.000
G1 X-7.143 Y360.657 Z6.964 F2500.000
G1 X-7.140 Y360.457 Z6.952 F2500.000
G1 X-7.133 Y360.057 Z6.966 F2500.000
G1 X-7.054 Y354.858 Z6.964 F2500.000
G1 X-6.971 Y349.392 Z6.967 F2500.000
G1 X-6.000 Y285.666 Z6.976 F2500.000
G1 X-5.994 Y285.266 Z6.968 F2500.000
G1 X-5.982 Y284.466 Z6.976 F2500.000
G1 X-5.689 Y265.268 Z6.979 F2500.000
G1 X-5.668 Y263.868 Z6.979 F2500.000
G1 X-5.662 Y263.469 Z6.969 F2500.000
G1 X-5.659 Y263.269 Z6.978 F2500.000
G1 X-5.647 Y262.469 Z6.979 F2500.000
G1 X-5.321 Y241.071 Z6.981 F2500.000
G1 X-5.312 Y240.471 Z6.972 F2500.000
G1 X-5.306 Y240.071 Z6.981 F2500.000
G1 X-4.952 Y216.874 Z6.983 F2500.000
G1 X-4.943 Y216.274 Z6.978 F2500.000
G1 X-4.937 Y215.874 Z6.983 F2500.000
G1 X-3.699 Y134.583 Z6.990 F2500.000
G1 X-3.691 Y134.084 Z6.977 F2500.000
G1 X-3.682 Y133.484 Z6.990 F2500.000
G1 X-2.026 Y24.898 Z6.996 F2500.000
G1 X-0.226 Y24.898 Z7.000 F2500.000
G1 X1.574 Y24.898 Z6.997 F2500.000
G1 X1.742 Y24.930 Z6.997 F2500.000
G1 X1.875 Y33.144 Z6.997 F2500.000
(Break)
G0 Z10.000
G0 X2.775 Y33.130
(part 19.)
G1 X2.775 Y33.130 Z6.995 F2500.000
G1 X2.788 Y33.930 Z6.995 F2500.000
G1 X6.125 Y240.103 Z6.975 F2500.000
G1 X6.131 Y240.503 Z6.963 F2500.000
G1 X6.146 Y241.402 Z6.974 F2500.000
G1 X6.698 Y275.498 Z6.970 F2500.000
G1 X6.850 Y284.897 Z6.968 F2500.000
G1 X6.853 Y285.097 Z6.963 F2500.000
G1 X6.856 Y285.297 Z6.963 F2500.000
G1 X6.860 Y285.497 Z6.968 F2500.000
G1 X7.494 Y324.692 Z6.963 F2500.000
G1 X7.497 Y324.892 Z6.958 F2500.000
G1 X7.505 Y325.391 Z6.963 F2500.000
G1 X7.779 Y342.289 Z6.960 F2500.000
G1 X7.792 Y343.089 Z6.957 F2500.000
G1 X7.795 Y343.289 Z6.951 F2500.000
G1 X7.798 Y343.489 Z6.960 F2500.000
G1 X7.902 Y349.888 Z6.959 F2500.000
G1 X8.064 Y359.887 Z6.957 F2500.000
G1 X8.074 Y360.487 Z6.946 F2500.000
G1 X8.077 Y360.687 Z6.957 F2500.000
G1 X8.080 Y360.887 Z6.957 F2500.000
G1 X8.575 Y391.483 Z6.951 F2500.000
G1 X8.582 Y391.883 Z6.949 F2500.000
G1 X8.585 Y392.083 Z6.941 F2500.000
G1 X8.588 Y392.283 Z6.951 F2500.000
G1 X8.591 Y392.483 Z6.951 F2500.000
G1 X8.757 Y402.681 Z6.942 F2500.000
G1 X8.786 Y404.481 Z6.931 F2500.000
G1 X8.799 Y405.281 Z6.916 F2500.000
G1 X8.808 Y405.881 Z6.937 F2500.000
G1 X8.828 Y407.081 Z6.948 F2500.000
G1 X8.889 Y410.880 Z6.932 F2500.000
G1 X8.922 Y412.880 Z6.917 F2500.000
G1 X8.831 Y412.985 Z6.916 F2500.000
G1 X8.231 Y412.975 Z6.917 F2500.000
G1 X7.431 Y412.979 Z6.917 F2500.000
G1 X7.031 Y412.988 Z6.916 F2500.000
G1 X6.231 Y413.017 Z6.915 F2500.000
G1 X5.632 Y413.050 Z6.911 F2500.000
G1 X4.834 Y413.107 Z6.905 F2500.000
G1 X4.436 Y413.142 Z6.901 F2500.000
G1 X3.640 Y413.225 Z6.891 F2500.000
G1 X3.243 Y413.272 Z6.885 F2500.000
G1 X2.846 Y413.325 Z6.878 F2500.000
G1 X2.252 Y413.410 Z6.867 F2500.000
G1 X1.857 Y413.471 Z6.858 F2500.000
G1 X1.069 Y413.608 Z6.838 F2500.000
G1 X0.676 Y413.681 Z6.826 F2500.000
G1 X0.088 Y413.801 Z6.807 F2500.000
G1 X-0.108 Y413.843 Z6.805 F2500.000
G1 X-0.303 Y413.884 Z6.811 F2500.000
G1 X-0.694 Y413.971 Z6.824 F2500.000
G1 X-1.277 Y414.112 Z6.840 F2500.000
G1 X-1.859 Y414.260 Z6.856 F2500.000
G1 X-2.438 Y414.417 Z6.869 F2500.000
G1 X-3.398 Y414.697 Z6.889 F2500.000
G1 X-3.779 Y414.817 Z6.896 F2500.000
G1 X-4.540 Y415.066 Z6.907 F2500.000
G1 X-5.106 Y415.264 Z6.914 F2500.000
G1 X-5.858 Y415.538 Z6.921 F2500.000
G1 X-6.231 Y415.681 Z6.924 F2500.000
G1 X-6.788 Y415.903 Z6.927 F2500.000
G1 X-7.343 Y416.131 Z6.929 F2500.000
G1 X-7.894 Y416.370 Z6.929 F2500.000
G1 X-8.260 Y416.530 Z6.929 F2500.000
G1 X-8.805 Y416.782 Z6.928 F2500.000
G1 X-8.897 Y416.729 Z6.927 F2500.000
G1 X-8.869 Y414.929 Z6.908 F2500.000
G1 X-8.848 Y413.529 Z6.885 F2500.000
G1 X-8.836 Y412.729 Z6.868 F2500.000
G1 X-8.818 Y411.529 Z6.832 F2500.000
G1 X-8.802 Y410.529 Z6.790 F2500.000
G1 X-8.790 Y409.729 Z6.834 F2500.000
G1 X-8.778 Y408.930 Z6.873 F2500.000
G1 X-8.763 Y407.930 Z6.913 F2500.000
G1 X-8.748 Y406.930 Z6.947 F2500.000
G1 X-8.745 Y406.730 Z6.948 F2500.000
G1 X-8.741 Y406.530 Z6.936 F2500.000
G1 X-8.738 Y406.330 Z6.948 F2500.000
G1 X-8.726 Y405.530 Z6.947 F2500.000
G1 X-8.684 Y402.730 Z6.928 F2500.000
G1 X-8.659 Y401.130 Z6.912 F2500.000
G1 X-8.638 Y399.731 Z6.892 F2500.000
G1 X-8.623 Y398.731 Z6.872 F2500.000
G1 X-8.610 Y397.931 Z6.851 F2500.000
G1 X-8.598 Y397.131 Z6.824 F2500.000
G1 X-8.586 Y396.331 Z6.854 F2500.000
G1 X-8.571 Y395.331 Z6.885 F2500.000
G1 X-8.543 Y393.531 Z6.929 F2500.000
G1 X-8.528 Y392.531 Z6.949 F2500.000
G1 X-8.510 Y391.332 Z6.950 F2500.000
G1 X-8.467 Y388.532 Z6.934 F2500.000
G1 X-8.437 Y386.532 Z6.916 F2500.000
G1 X-8.400 Y384.132 Z6.880 F2500.000
G1 X-8.382 Y382.933 Z6.852 F2500.000
G1 X-8.373 Y382.333 Z6.855 F2500.000
G1 X-8.348 Y380.733 Z6.895 F2500.000
G1 X-8.321 Y378.933 Z6.929 F2500.000
G1 X-8.291 Y376.933 Z6.954 F2500.000
G1 X-8.281 Y376.333 Z6.954 F2500.000
G1 X-8.154 Y367.934 Z6.952 F2500.000
G1 X-8.047 Y360.935 Z6.957 F2500.000
G1 X-8.041 Y360.535 Z6.950 F2500.000
G1 X-8.029 Y359.735 Z6.958 F2500.000
G1 X-7.907 Y351.736 Z6.955 F2500.000
G1 X-7.794 Y344.337 Z6.960 F2500.000
G1 X-7.779 Y343.337 Z6.954 F2500.000
G1 X-7.768 Y342.604 Z6.960 F2500.000
G1 X-7.648 Y334.738 Z6.957 F2500.000
G1 X-7.530 Y327.006 Z6.963 F2500.000
G1 X-6.752 Y275.945 Z6.969 F2500.000
G1 X-5.269 Y178.556 Z6.982 F2500.000
G1 X-2.917 Y24.174 Z6.994 F2500.000
G1 X-2.891 Y23.998 Z6.994 F2500.000
G1 X-0.191 Y23.998 Z7.000 F2500.000
G1 X2.509 Y23.998 Z6.996 F2500.000
G1 X2.628 Y24.080 Z6.995 F2500.000
G1 X2.775 Y33.130 Z6.995 F2500.000
(Break)
G0 Z10.000
G0 X3.674 Y33.115
(part 21.)
G1 X3.674 Y33.115 Z6.990 F2500.000
G1 X3.687 Y33.915 Z6.990 F2500.000
G1 X3.713 Y35.515 Z6.990 F2500.000
G1 X3.729 Y36.515 Z6.979 F2500.000
G1 X3.746 Y37.515 Z6.990 F2500.000
G1 X6.076 Y181.496 Z6.975 F2500.000
G1 X6.206 Y189.495 Z6.974 F2500.000
G1 X6.222 Y190.495 Z6.969 F2500.000
G1 X6.232 Y191.094 Z6.974 F2500.000
G1 X7.025 Y240.088 Z6.967 F2500.000
G1 X7.031 Y240.488 Z6.956 F2500.000
G1 X7.046 Y241.388 Z6.966 F2500.000
G1 X7.715 Y282.749 Z6.961 F2500.000
G1 X7.743 Y284.482 Z6.961 F2500.000
G1 X7.756 Y285.282 Z6.954 F2500.000
G1 X7.760 Y285.482 Z6.960 F2500.000
G1 X8.394 Y324.677 Z6.953 F2500.000
G1 X8.397 Y324.877 Z6.949 F2500.000
G1 X8.412 Y325.777 Z6.953 F2500.000
G1 X8.964 Y359.872 Z6.946 F2500.000
G1 X8.973 Y360.472 Z6.934 F2500.000
G1 X8.977 Y360.672 Z6.945 F2500.000
G1 X8.980 Y360.872 Z6.946 F2500.000
G1 X9.239 Y376.870 Z6.940 F2500.000
G1 X9.242 Y377.070 Z6.943 F2500.000
G1 X9.475 Y391.468 Z6.940 F2500.000
G1 X9.482 Y391.868 Z6.938 F2500.000
G1 X9.485 Y392.068 Z6.928 F2500.000
G1 X9.488 Y392.268 Z6.939 F2500.000
G1 X9.491 Y392.468 Z6.940 F2500.000
G1 X9.611 Y399.867 Z6.938 F2500.000
G1 X9.676 Y403.867 Z6.934 F2500.000
G1 X9.708 Y405.866 Z6.925 F2500.000
G1 X9.715 Y406.266 Z6.937 F2500.000
G1 X9.721 Y406.666 Z6.934 F2500.000
G1 X9.731 Y407.266 Z6.936 F2500.000
G1 X9.770 Y409.666 Z6.929 F2500.000
G1 X9.809 Y412.066 Z6.918 F2500.000
G1 X9.838 Y413.865 Z6.904 F2500.000
G1 X9.692 Y413.912 Z6.904 F2500.000
G1 X8.893 Y413.887 Z6.905 F2500.000
G1 X8.293 Y413.876 Z6.905 F2500.000
G1 X7.693 Y413.876 Z6.904 F2500.000
G1 X7.093 Y413.887 Z6.901 F2500.000
G1 X6.294 Y413.915 Z6.896 F2500.000
G1 X5.894 Y413.935 Z6.892 F2500.000
G1 X5.096 Y413.989 Z6.884 F2500.000
G1 X4.697 Y414.022 Z6.878 F2500.000
G1 X3.901 Y414.102 Z6.865 F2500.000
G1 X3.305 Y414.172 Z6.852 F2500.000
G1 X2.315 Y414.310 Z6.828 F2500.000
G1 X1.723 Y414.407 Z6.810 F2500.000
G1 X1.526 Y414.441 Z6.807 F2500.000
G1 X0.739 Y414.586 Z6.830 F2500.000
G1 X-0.240 Y414.792 Z6.856 F2500.000
G1 X-0.824 Y414.927 Z6.870 F2500.000
G1 X-1.793 Y415.173 Z6.890 F2500.000
G1 X-2.179 Y415.279 Z6.897 F2500.000
G1 X-2.947 Y415.502 Z6.910 F2500.000
G1 X-3.520 Y415.679 Z6.918 F2500.000
G1 X-4.281 Y415.928 Z6.926 F2500.000
G1 X-4.659 Y416.059 Z6.930 F2500.000
G1 X-5.223 Y416.263 Z6.935 F2500.000
G1 X-5.785 Y416.473 Z6.937 F2500.000
G1 X-6.528 Y416.769 Z6.940 F2500.000
G1 X-6.898 Y416.921 Z6.940 F2500.000
G1 X-7.633 Y417.237 Z6.940 F2500.000
G1 X-8.180 Y417.483 Z6.939 F2500.000
G1 X-8.904 Y417.824 Z6.935 F2500.000
G1 X-9.264 Y417.998 Z6.933 F2500.000
G1 X-9.800 Y418.267 Z6.929 F2500.000
G1 X-9.818 Y418.100 Z6.928 F2500.000
G1 X-9.781 Y415.700 Z6.911 F2500.000
G1 X-9.760 Y414.301 Z6.896 F2500.000
G1 X-9.742 Y413.101 Z6.878 F2500.000
G1 X-9.726 Y412.101 Z6.856 F2500.000
G1 X-9.711 Y411.101 Z6.826 F2500.000
G1 X-9.699 Y410.301 Z6.789 F2500.000
G1 X-9.693 Y409.901 Z6.806 F2500.000
G1 X-9.678 Y408.901 Z6.857 F2500.000
G1 X-9.656 Y407.501 Z6.917 F2500.000
G1 X-9.650 Y407.101 Z6.930 F2500.000
G1 X-9.644 Y406.702 Z6.936 F2500.000
G1 X-9.635 Y406.102 Z6.938 F2500.000
G1 X-9.605 Y404.102 Z6.929 F2500.000
G1 X-9.568 Y401.702 Z6.913 F2500.000
G1 X-9.550 Y400.502 Z6.901 F2500.000
G1 X-9.519 Y398.502 Z6.870 F2500.000
G1 X-9.501 Y397.303 Z6.840 F2500.000
G1 X-9.492 Y396.703 Z6.820 F2500.000
G1 X-9.480 Y395.903 Z6.850 F2500.000
G1 X-9.461 Y394.703 Z6.887 F2500.000
G1 X-9.440 Y393.303 Z6.922 F2500.000
G1 X-9.425 Y392.303 Z6.941 F2500.000
G1 X-9.385 Y389.704 Z6.933 F2500.000
G1 X-9.349 Y387.304 Z6.918 F2500.000
G1 X-9.324 Y385.704 Z6.903 F2500.000
G1 X-9.303 Y384.304 Z6.885 F2500.000
G1 X-9.288 Y383.304 Z6.867 F2500.000
G1 X-9.273 Y382.304 Z6.842 F2500.000
G1 X-9.269 Y382.104 Z6.841 F2500.000
G1 X-9.254 Y381.105 Z6.869 F2500.000
G1 X-9.236 Y379.905 Z6.897 F2500.000
G1 X-9.212 Y378.305 Z6.926 F2500.000
G1 X-9.193 Y377.105 Z6.942 F2500.000
G1 X-9.157 Y374.705 Z6.939 F2500.000
G1 X-9.090 Y370.306 Z6.945 F2500.000
G1 X-9.017 Y365.506 Z6.943 F2500.000
G1 X-8.944 Y360.707 Z6.946 F2500.000
G1 X-8.940 Y360.507 Z6.937 F2500.000
G1 X-8.934 Y360.107 Z6.947 F2500.000
G1 X-8.912 Y358.640 Z6.942 F2500.000
G1 X-8.845 Y354.241 Z6.948 F2500.000
G1 X-8.499 Y331.510 Z6.949 F2500.000
G1 X-8.404 Y325.311 Z6.953 F2500.000
G1 X-8.401 Y325.111 Z6.948 F2500.000
G1 X-8.395 Y324.711 Z6.953 F2500.000
G1 X-8.112 Y306.113 Z6.956 F2500.000
G1 X-8.109 Y305.913 Z6.956 F2500.000
G1 X-8.106 Y305.713 Z6.946 F2500.000
G1 X-8.100 Y305.313 Z6.957 F2500.000
G1 X-7.478 Y264.518 Z6.962 F2500.000
G1 X-7.466 Y263.718 Z6.962 F2500.000
G1 X-7.463 Y263.518 Z6.950 F2500.000
G1 X-7.454 Y262.918 Z6.963 F2500.000
G1 X-7.119 Y240.921 Z6.966 F2500.000
G1 X-7.113 Y240.521 Z6.953 F2500.000
G1 X-7.107 Y240.121 Z6.966 F2500.000
G1 X-6.747 Y216.524 Z6.969 F2500.000
G1 X-6.741 Y216.124 Z6.960 F2500.000
G1 X-6.732 Y215.524 Z6.969 F2500.000
G1 X-6.354 Y190.727 Z6.973 F2500.000
G1 X-6.346 Y190.227 Z6.970 F2500.000
G1 X-6.339 Y189.727 Z6.973 F2500.000
G1 X-5.038 Y104.337 Z6.983 F2500.000
G1 X-5.026 Y103.537 Z6.979 F2500.000
G1 X-5.020 Y103.137 Z6.984 F2500.000
G1 X-4.011 Y36.944 Z6.988 F2500.000
G1 X-4.002 Y36.345 Z6.985 F2500.000
G1 X-3.993 Y35.745 Z6.988 F2500.000
G1 X-3.801 Y23.146 Z6.989 F2500.000
G1 X-3.649 Y23.098 Z6.990 F2500.000
G1 X-2.649 Y23.098 Z6.995 F2500.000
G1 X0.351 Y23.098 Z6.999 F2500.000
G1 X3.351 Y23.098 Z6.992 F2500.000
G1 X3.513 Y23.137 Z6.991 F2500.000
G1 X3.674 Y33.115 Z6.990 F2500.000
(Break)
G0 Z10.000
G0 X4.574 Y33.101
(part 23.)
G1 X4.574 Y33.101 Z6.985 F2500.000
G1 X4.581 Y33.501 Z6.985 F2500.000
G1 X5.698 Y102.492 Z6.978 F2500.000
G1 X5.712 Y103.391 Z6.967 F2500.000
G1 X5.727 Y104.291 Z6.978 F2500.000
G1 X7.109 Y189.680 Z6.966 F2500.000
G1 X7.122 Y190.480 Z6.960 F2500.000
G1 X7.132 Y191.080 Z6.966 F2500.000
G1 X7.526 Y215.477 Z6.962 F2500.000
G1 X7.536 Y216.077 Z6.956 F2500.000
G1 X7.546 Y216.677 Z6.962 F2500.000
G1 X7.921 Y239.874 Z6.959 F2500.000
G1 X7.934 Y240.673 Z6.955 F2500.000
G1 X7.941 Y241.073 Z6.958 F2500.000
G1 X8.294 Y262.871 Z6.955 F2500.000
G1 X8.300 Y263.270 Z6.955 F2500.000
G1 X8.303 Y263.470 Z6.945 F2500.000
G1 X8.307 Y263.670 Z6.952 F2500.000
G1 X8.313 Y264.070 Z6.955 F2500.000
G1 X8.650 Y284.868 Z6.950 F2500.000
G1 X8.656 Y285.268 Z6.942 F2500.000
G1 X8.663 Y285.668 Z6.950 F2500.000
G1 X9.585 Y342.660 Z6.939 F2500.000
G1 X9.595 Y343.260 Z6.927 F2500.000
G1 X9.601 Y343.660 Z6.939 F2500.000
G1 X9.864 Y359.858 Z6.935 F2500.000
G1 X9.870 Y360.258 Z6.934 F2500.000
G1 X9.873 Y360.458 Z6.922 F2500.000
G1 X9.877 Y360.658 Z6.934 F2500.000
G1 X9.880 Y360.858 Z6.935 F2500.000
G1 X10.132 Y376.456 Z6.932 F2500.000
G1 X10.135 Y376.656 Z6.923 F2500.000
G1 X10.142 Y377.056 Z6.932 F2500.000
G1 X10.378 Y391.654 Z6.929 F2500.000
G1 X10.382 Y391.854 Z6.928 F2500.000
G1 X10.385 Y392.054 Z6.916 F2500.000
G1 X10.391 Y392.454 Z6.929 F2500.000
G1 X10.595 Y405.052 Z6.926 F2500.000
G1 X10.611 Y406.052 Z6.924 F2500.000
G1 X10.618 Y406.452 Z6.919 F2500.000
G1 X10.624 Y406.852 Z6.926 F2500.000
G1 X10.692 Y411.051 Z6.915 F2500.000
G1 X10.728 Y413.251 Z6.904 F2500.000
G1 X10.754 Y414.851 Z6.891 F2500.000
G1 X10.581 Y414.865 Z6.891 F2500.000
G1 X9.982 Y414.828 Z6.893 F2500.000
G1 X9.583 Y414.808 Z6.893 F2500.000
G1 X8.783 Y414.784 Z6.891 F2500.000
G1 X8.183 Y414.775 Z6.888 F2500.000
G1 X7.583 Y414.777 Z6.885 F2500.000
G1 X6.983 Y414.791 Z6.879 F2500.000
G1 X6.184 Y414.821 Z6.870 F2500.000
G1 X5.785 Y414.844 Z6.864 F2500.000
G1 X4.987 Y414.901 Z6.850 F2500.000
G1 X4.588 Y414.936 Z6.842 F2500.000
G1 X3.991 Y414.998 Z6.827 F2500.000
G1 X3.395 Y415.068 Z6.810 F2500.000
G1 X3.197 Y415.094 Z6.812 F2500.000
G1 X2.405 Y415.207 Z6.834 F2500.000
G1 X1.813 Y415.305 Z6.848 F2500.000
G1 X1.026 Y415.447 Z6.868 F2500.000
G1 X0.242 Y415.608 Z6.884 F2500.000
G1 X-0.343 Y415.738 Z6.896 F2500.000
G1 X-0.926 Y415.880 Z6.906 F2500.000
G1 X-1.701 Y416.080 Z6.919 F2500.000
G1 X-2.086 Y416.188 Z6.924 F2500.000
G1 X-2.854 Y416.413 Z6.934 F2500.000
G1 X-3.616 Y416.657 Z6.940 F2500.000
G1 X-4.185 Y416.847 Z6.945 F2500.000
G1 X-4.938 Y417.117 Z6.949 F2500.000
G1 X-5.499 Y417.328 Z6.951 F2500.000
G1 X-6.243 Y417.624 Z6.951 F2500.000
G1 X-6.612 Y417.777 Z6.951 F2500.000
G1 X-7.347 Y418.094 Z6.951 F2500.000
G1 X-7.893 Y418.342 Z6.947 F2500.000
G1 X-8.616 Y418.684 Z6.944 F2500.000
G1 X-9.333 Y419.039 Z6.938 F2500.000
G1 X-10.043 Y419.408 Z6.931 F2500.000
G1 X-10.744 Y419.787 Z6.924 F2500.000
G1 X-10.692 Y416.388 Z6.908 F2500.000
G1 X-10.667 Y414.788 Z6.897 F2500.000
G1 X-10.643 Y413.188 Z6.878 F2500.000
G1 X-10.621 Y411.721 Z6.851 F2500.000
G1 X-10.610 Y410.988 Z6.830 F2500.000
G1 X-10.597 Y410.188 Z6.799 F2500.000
G1 X-10.585 Y409.388 Z6.815 F2500.000
G1 X-10.573 Y408.588 Z6.855 F2500.000
G1 X-10.549 Y406.989 Z6.923 F2500.000
G1 X-10.536 Y406.189 Z6.927 F2500.000
G1 X-10.492 Y403.256 Z6.916 F2500.000
G1 X-10.443 Y400.056 Z6.891 F2500.000
G1 X-10.419 Y398.456 Z6.871 F2500.000
G1 X-10.383 Y396.123 Z6.821 F2500.000
G1 X-10.357 Y394.390 Z6.880 F2500.000
G1 X-10.329 Y392.590 Z6.925 F2500.000
G1 X-10.320 Y391.990 Z6.921 F2500.000
G1 X-10.311 Y391.390 Z6.928 F2500.000
G1 X-10.268 Y388.591 Z6.918 F2500.000
G1 X-10.235 Y386.391 Z6.905 F2500.000
G1 X-10.214 Y384.991 Z6.892 F2500.000
G1 X-10.183 Y382.991 Z6.863 F2500.000
G1 X-10.165 Y381.792 Z6.835 F2500.000
G1 X-10.125 Y379.192 Z6.896 F2500.000
G1 X-10.107 Y377.992 Z6.917 F2500.000
G1 X-10.098 Y377.392 Z6.927 F2500.000
G1 X-10.089 Y376.792 Z6.926 F2500.000
G1 X-10.080 Y376.192 Z6.932 F2500.000
G1 X-10.040 Y373.593 Z6.924 F2500.000
G1 X-9.994 Y370.593 Z6.930 F2500.000
G1 X-9.909 Y364.994 Z6.935 F2500.000
G1 X-9.848 Y360.994 Z6.936 F2500.000
G1 X-9.839 Y360.394 Z6.928 F2500.000
G1 X-9.827 Y359.594 Z6.934 F2500.000
G1 X-9.793 Y357.394 Z6.928 F2500.000
G1 X-9.747 Y354.395 Z6.934 F2500.000
G1 X-9.671 Y349.395 Z6.938 F2500.000
G1 X-9.589 Y343.996 Z6.939 F2500.000
G1 X-9.575 Y343.096 Z6.936 F2500.000
G1 X-9.562 Y342.196 Z6.939 F2500.000
G1 X-9.306 Y325.398 Z6.942 F2500.000
G1 X-9.300 Y324.998 Z6.929 F2500.000
G1 X-9.297 Y324.798 Z6.941 F2500.000
G1 X-9.294 Y324.598 Z6.942 F2500.000
G1 X-9.010 Y306.000 Z6.946 F2500.000
G1 X-9.004 Y305.600 Z6.938 F2500.000
G1 X-9.001 Y305.400 Z6.946 F2500.000
G1 X-8.703 Y285.803 Z6.949 F2500.000
G1 X-8.696 Y285.403 Z6.948 F2500.000
G1 X-8.693 Y285.203 Z6.936 F2500.000
G1 X-8.687 Y284.803 Z6.950 F2500.000
G1 X-8.380 Y264.605 Z6.954 F2500.000
G1 X-8.372 Y264.105 Z6.954 F2500.000
G1 X-8.364 Y263.605 Z6.948 F2500.000
G1 X-8.357 Y263.105 Z6.954 F2500.000
G1 X-7.259 Y191.014 Z6.965 F2500.000
G1 X-7.249 Y190.414 Z6.954 F2500.000
G1 X-7.243 Y190.014 Z6.965 F2500.000
G1 X-6.406 Y135.020 Z6.972 F2500.000
G1 X-6.393 Y134.220 Z6.968 F2500.000
G1 X-6.384 Y133.620 Z6.972 F2500.000
G1 X-5.437 Y71.428 Z6.981 F2500.000
G1 X-5.431 Y71.028 Z6.976 F2500.000
G1 X-5.422 Y70.428 Z6.981 F2500.000
G1 X-4.910 Y36.832 Z6.984 F2500.000
G1 X-4.902 Y36.332 Z6.981 F2500.000
G1 X-4.895 Y35.832 Z6.984 F2500.000
G1 X-4.687 Y22.233 Z6.985 F2500.000
G1 X-4.522 Y22.198 Z6.986 F2500.000
G1 X-2.567 Y22.198 Z6.996 F2500.000
G1 X0.366 Y22.198 Z6.999 F2500.000
G1 X2.322 Y22.198 Z6.996 F2500.000
G1 X4.278 Y22.198 Z6.987 F2500.000
G1 X4.399 Y22.277 Z6.986 F2500.000
G1 X4.574 Y33.101 Z6.985 F2500.000
(Break)
G0 Z10.000
G0 X5.474 Y33.086
(part 25.)
G1 X5.474 Y33.086 Z6.980 F2500.000
G1 X5.481 Y33.486 Z6.980 F2500.000
G1 X7.947 Y185.866 Z6.959 F2500.000
G1 X8.009 Y189.666 Z6.958 F2500.000
G1 X8.022 Y190.465 Z6.951 F2500.000
G1 X8.038 Y191.465 Z6.958 F2500.000
G1 X8.822 Y239.926 Z6.948 F2500.000
G1 X8.834 Y240.659 Z6.944 F2500.000
G1 X8.847 Y241.459 Z6.948 F2500.000
G1 X9.083 Y256.057 Z6.945 F2500.000
G1 X9.200 Y263.256 Z6.943 F2500.000
G1 X9.203 Y263.456 Z6.934 F2500.000
G1 X9.206 Y263.656 Z6.940 F2500.000
G1 X9.213 Y264.056 Z6.943 F2500.000
G1 X9.414 Y276.454 Z6.942 F2500.000
G1 X9.550 Y284.853 Z6.940 F2500.000
G1 X9.556 Y285.253 Z6.931 F2500.000
G1 X9.563 Y285.653 Z6.939 F2500.000
G1 X10.517 Y344.645 Z6.928 F2500.000
G1 X10.763 Y359.843 Z6.924 F2500.000
G1 X10.770 Y360.243 Z6.923 F2500.000
G1 X10.773 Y360.443 Z6.912 F2500.000
G1 X10.776 Y360.643 Z6.922 F2500.000
G1 X10.780 Y360.843 Z6.924 F2500.000
G1 X11.032 Y376.441 Z6.920 F2500.000
G1 X11.035 Y376.641 Z6.912 F2500.000
G1 X11.042 Y377.041 Z6.920 F2500.000
G1 X11.278 Y391.639 Z6.916 F2500.000
G1 X11.281 Y391.839 Z6.915 F2500.000
G1 X11.285 Y392.039 Z6.903 F2500.000
G1 X11.291 Y392.439 Z6.916 F2500.000
G1 X11.511 Y406.037 Z6.913 F2500.000
G1 X11.518 Y406.437 Z6.906 F2500.000
G1 X11.524 Y406.837 Z6.912 F2500.000
G1 X11.612 Y412.236 Z6.901 F2500.000
G1 X11.644 Y414.236 Z6.892 F2500.000
G1 X11.670 Y415.836 Z6.879 F2500.000
G1 X11.498 Y415.846 Z6.879 F2500.000
G1 X11.099 Y415.808 Z6.880 F2500.000
G1 X10.701 Y415.775 Z6.879 F2500.000
G1 X9.703 Y415.715 Z6.877 F2500.000
G1 X9.103 Y415.693 Z6.874 F2500.000
G1 X8.303 Y415.676 Z6.867 F2500.000
G1 X7.503 Y415.678 Z6.857 F2500.000
G1 X6.704 Y415.701 Z6.845 F2500.000
G1 X6.104 Y415.726 Z6.833 F2500.000
G1 X5.306 Y415.779 Z6.813 F2500.000
G1 X5.106 Y415.794 Z6.814 F2500.000
G1 X4.708 Y415.829 Z6.824 F2500.000
G1 X3.912 Y415.912 Z6.844 F2500.000
G1 X3.317 Y415.986 Z6.857 F2500.000
G1 X2.525 Y416.099 Z6.875 F2500.000
G1 X1.933 Y416.197 Z6.887 F2500.000
G1 X1.146 Y416.340 Z6.902 F2500.000
G1 X0.363 Y416.503 Z6.915 F2500.000
G1 X-0.223 Y416.634 Z6.925 F2500.000
G1 X-0.999 Y416.827 Z6.935 F2500.000
G1 X-1.579 Y416.980 Z6.942 F2500.000
G1 X-2.540 Y417.259 Z6.951 F2500.000
G1 X-3.112 Y417.439 Z6.955 F2500.000
G1 X-3.871 Y417.691 Z6.959 F2500.000
G1 X-4.812 Y418.030 Z6.963 F2500.000
G1 X-5.372 Y418.245 Z6.963 F2500.000
G1 X-6.114 Y418.544 Z6.962 F2500.000
G1 X-6.849 Y418.859 Z6.961 F2500.000
G1 X-7.397 Y419.104 Z6.957 F2500.000
G1 X-8.301 Y419.531 Z6.952 F2500.000
G1 X-8.839 Y419.798 Z6.948 F2500.000
G1 X-9.195 Y419.980 Z6.943 F2500.000
G1 X-9.549 Y420.165 Z6.928 F2500.000
G1 X-9.902 Y420.355 Z6.932 F2500.000
G1 X-10.253 Y420.546 Z6.930 F2500.000
G1 X-11.122 Y421.041 Z6.918 F2500.000
G1 X-11.638 Y421.347 Z6.910 F2500.000
G1 X-11.665 Y421.199 Z6.910 F2500.000
G1 X-11.629 Y418.800 Z6.908 F2500.000
G1 X-11.583 Y415.800 Z6.896 F2500.000
G1 X-11.556 Y414.000 Z6.883 F2500.000
G1 X-11.537 Y412.800 Z6.870 F2500.000
G1 X-11.522 Y411.800 Z6.855 F2500.000
G1 X-11.507 Y410.801 Z6.831 F2500.000
G1 X-11.492 Y409.801 Z6.794 F2500.000
G1 X-11.486 Y409.401 Z6.793 F2500.000
G1 X-11.476 Y408.801 Z6.827 F2500.000
G1 X-11.464 Y408.001 Z6.866 F2500.000
G1 X-11.449 Y407.001 Z6.908 F2500.000
G1 X-11.446 Y406.801 Z6.914 F2500.000
G1 X-11.443 Y406.601 Z6.906 F2500.000
G1 X-11.434 Y406.001 Z6.913 F2500.000
G1 X-11.425 Y405.401 Z6.912 F2500.000
G1 X-11.373 Y402.002 Z6.899 F2500.000
G1 X-11.342 Y400.002 Z6.886 F2500.000
G1 X-11.321 Y398.602 Z6.871 F2500.000
G1 X-11.306 Y397.602 Z6.856 F2500.000
G1 X-11.291 Y396.602 Z6.834 F2500.000
G1 X-11.281 Y396.002 Z6.815 F2500.000
G1 X-11.275 Y395.602 Z6.820 F2500.000
G1 X-11.260 Y394.602 Z6.856 F2500.000
G1 X-11.236 Y393.003 Z6.901 F2500.000
G1 X-11.224 Y392.203 Z6.914 F2500.000
G1 X-11.217 Y391.803 Z6.917 F2500.000
G1 X-11.157 Y387.803 Z6.905 F2500.000
G1 X-11.120 Y385.404 Z6.891 F2500.000
G1 X-11.086 Y383.204 Z6.868 F2500.000
G1 X-11.062 Y381.604 Z6.837 F2500.000
G1 X-11.053 Y381.004 Z6.832 F2500.000
G1 X-11.041 Y380.204 Z6.855 F2500.000
G1 X-11.016 Y378.604 Z6.892 F2500.000
G1 X-10.992 Y377.005 Z6.921 F2500.000
G1 X-10.916 Y372.005 Z6.908 F2500.000
G1 X-10.855 Y368.006 Z6.918 F2500.000
G1 X-10.751 Y361.206 Z6.924 F2500.000
G1 X-10.742 Y360.606 Z6.921 F2500.000
G1 X-10.739 Y360.406 Z6.915 F2500.000
G1 X-10.733 Y360.006 Z6.924 F2500.000
G1 X-10.663 Y355.407 Z6.914 F2500.000
G1 X-10.611 Y352.007 Z6.921 F2500.000
G1 X-10.468 Y342.609 Z6.928 F2500.000
G1 X-10.206 Y325.411 Z6.932 F2500.000
G1 X-10.200 Y325.011 Z6.919 F2500.000
G1 X-10.197 Y324.811 Z6.930 F2500.000
G1 X-10.194 Y324.611 Z6.932 F2500.000
G1 X-9.911 Y306.013 Z6.935 F2500.000
G1 X-9.904 Y305.613 Z6.927 F2500.000
G1 X-9.901 Y305.413 Z6.935 F2500.000
G1 X-9.898 Y305.213 Z6.935 F2500.000
G1 X-9.466 Y276.816 Z6.941 F2500.000
G1 X-9.274 Y264.218 Z6.943 F2500.000
G1 X-9.262 Y263.418 Z6.936 F2500.000
G1 X-9.259 Y263.218 Z6.943 F2500.000
G1 X-8.923 Y241.220 Z6.947 F2500.000
G1 X-8.911 Y240.420 Z6.942 F2500.000
G1 X-8.908 Y240.220 Z6.947 F2500.000
G1 X-8.552 Y216.823 Z6.952 F2500.000
G1 X-8.543 Y216.223 Z6.942 F2500.000
G1 X-8.540 Y216.023 Z6.949 F2500.000
G1 X-8.534 Y215.623 Z6.952 F2500.000
G1 X-8.482 Y212.224 Z6.952 F2500.000
G1 X-8.162 Y191.226 Z6.956 F2500.000
G1 X-8.150 Y190.426 Z6.947 F2500.000
G1 X-8.144 Y190.026 Z6.956 F2500.000
G1 X-7.297 Y134.433 Z6.965 F2500.000
G1 X-7.291 Y134.033 Z6.956 F2500.000
G1 X-7.281 Y133.433 Z6.965 F2500.000
G1 X-6.340 Y71.640 Z6.973 F2500.000
G1 X-6.331 Y71.040 Z6.968 F2500.000
G1 X-6.319 Y70.240 Z6.973 F2500.000
G1 X-5.812 Y36.944 Z6.977 F2500.000
G1 X-5.804 Y36.444 Z6.967 F2500.000
G1 X-5.796 Y35.944 Z6.977 F2500.000
G1 X-5.576 Y21.446 Z6.979 F2500.000
G1 X-5.521 Y21.298 Z6.980 F2500.000
G1 X-2.576 Y21.298 Z6.995 F2500.000
G1 X0.370 Y21.298 Z6.999 F2500.000
G1 X2.333 Y21.298 Z6.996 F2500.000
G1 X5.279 Y21.298 Z6.982 F2500.000
G1 X5.287 Y21.493 Z6.982 F2500.000
G1 X5.474 Y33.086 Z6.980 F2500.000
(Break)
G0 Z10.000
G0 X6.374 Y33.071
(part 27.)
G1 X6.374 Y33.071 Z6.972 F2500.000
G1 X6.381 Y33.471 Z6.972 F2500.000
G1 X6.973 Y70.067 Z6.967 F2500.000
G1 X6.989 Y71.066 Z6.964 F2500.000
G1 X6.999 Y71.666 Z6.967 F2500.000
G1 X7.497 Y102.462 Z6.963 F2500.000
G1 X7.512 Y103.362 Z6.954 F2500.000
G1 X7.526 Y104.262 Z6.963 F2500.000
G1 X7.993 Y133.058 Z6.958 F2500.000
G1 X8.009 Y134.058 Z6.947 F2500.000
G1 X8.012 Y134.258 Z6.955 F2500.000
G1 X8.028 Y135.258 Z6.957 F2500.000
G1 X8.905 Y189.451 Z6.947 F2500.000
G1 X8.922 Y190.451 Z6.939 F2500.000
G1 X8.938 Y191.451 Z6.947 F2500.000
G1 X9.728 Y240.244 Z6.937 F2500.000
G1 X9.731 Y240.444 Z6.930 F2500.000
G1 X9.749 Y241.544 Z6.937 F2500.000
G1 X9.886 Y250.043 Z6.935 F2500.000
G1 X10.093 Y262.841 Z6.932 F2500.000
G1 X10.103 Y263.441 Z6.924 F2500.000
G1 X10.110 Y263.841 Z6.932 F2500.000
G1 X10.375 Y280.239 Z6.930 F2500.000
G1 X11.087 Y324.233 Z6.919 F2500.000
G1 X11.102 Y325.133 Z6.915 F2500.000
G1 X11.116 Y326.033 Z6.918 F2500.000
G1 X11.667 Y360.029 Z6.910 F2500.000
G1 X11.673 Y360.429 Z6.899 F2500.000
G1 X11.676 Y360.629 Z6.908 F2500.000
G1 X11.680 Y360.829 Z6.910 F2500.000
G1 X11.932 Y376.426 Z6.906 F2500.000
G1 X11.938 Y376.826 Z6.901 F2500.000
G1 X11.942 Y377.026 Z6.906 F2500.000
G1 X12.175 Y391.425 Z6.902 F2500.000
G1 X12.181 Y391.824 Z6.901 F2500.000
G1 X12.185 Y392.024 Z6.890 F2500.000
G1 X12.191 Y392.424 Z6.902 F2500.000
G1 X12.411 Y406.023 Z6.898 F2500.000
G1 X12.421 Y406.623 Z6.892 F2500.000
G1 X12.427 Y407.022 Z6.898 F2500.000
G1 X12.537 Y413.822 Z6.886 F2500.000
G1 X12.563 Y415.421 Z6.878 F2500.000
G1 X12.586 Y416.821 Z6.866 F2500.000
G1 X12.443 Y416.857 Z6.866 F2500.000
G1 X11.847 Y416.785 Z6.866 F2500.000
G1 X10.851 Y416.690 Z6.863 F2500.000
G1 X10.452 Y416.661 Z6.860 F2500.000
G1 X9.854 Y416.624 Z6.855 F2500.000
G1 X9.254 Y416.597 Z6.849 F2500.000
G1 X8.454 Y416.578 Z6.837 F2500.000
G1 X8.054 Y416.575 Z6.829 F2500.000
G1 X7.455 Y416.579 Z6.817 F2500.000
G1 X7.255 Y416.583 Z6.818 F2500.000
G1 X6.655 Y416.603 Z6.831 F2500.000
G1 X6.056 Y416.630 Z6.844 F2500.000
G1 X5.058 Y416.701 Z6.864 F2500.000
G1 X4.262 Y416.779 Z6.881 F2500.000
G1 X3.666 Y416.848 Z6.891 F2500.000
G1 X2.676 Y416.986 Z6.909 F2500.000
G1 X2.084 Y417.085 Z6.919 F2500.000
G1 X1.297 Y417.228 Z6.931 F2500.000
G1 X0.318 Y417.433 Z6.944 F2500.000
G1 X-0.266 Y417.570 Z6.950 F2500.000
G1 X-0.848 Y417.717 Z6.957 F2500.000
G1 X-1.235 Y417.819 Z6.960 F2500.000
G1 X-2.004 Y418.039 Z6.966 F2500.000
G1 X-2.578 Y418.213 Z6.970 F2500.000
G1 X-3.528 Y418.524 Z6.973 F2500.000
G1 X-4.282 Y418.794 Z6.975 F2500.000
G1 X-4.844 Y419.004 Z6.974 F2500.000
G1 X-5.772 Y419.376 Z6.973 F2500.000
G1 X-6.507 Y419.692 Z6.970 F2500.000
G1 X-7.054 Y419.937 Z6.966 F2500.000
G1 X-7.597 Y420.192 Z6.948 F2500.000
G1 X-7.958 Y420.365 Z6.956 F2500.000
G1 X-8.495 Y420.632 Z6.952 F2500.000
G1 X-9.205 Y421.001 Z6.943 F2500.000
G1 X-9.908 Y421.384 Z6.934 F2500.000
G1 X-10.776 Y421.881 Z6.923 F2500.000
G1 X-11.462 Y422.292 Z6.912 F2500.000
G1 X-12.476 Y422.933 Z6.895 F2500.000
G1 X-12.592 Y422.947 Z6.893 F2500.000
G1 X-12.543 Y419.747 Z6.896 F2500.000
G1 X-12.507 Y417.347 Z6.891 F2500.000
G1 X-12.446 Y413.348 Z6.870 F2500.000
G1 X-12.431 Y412.348 Z6.860 F2500.000
G1 X-12.412 Y411.148 Z6.843 F2500.000
G1 X-12.394 Y409.948 Z6.812 F2500.000
G1 X-12.385 Y409.348 Z6.787 F2500.000
G1 X-12.376 Y408.748 Z6.810 F2500.000
G1 X-12.351 Y407.149 Z6.888 F2500.000
G1 X-12.345 Y406.749 Z6.899 F2500.000
G1 X-12.342 Y406.549 Z6.888 F2500.000
G1 X-12.333 Y405.949 Z6.899 F2500.000
G1 X-12.300 Y403.749 Z6.895 F2500.000
G1 X-12.257 Y400.949 Z6.884 F2500.000
G1 X-12.229 Y399.150 Z6.873 F2500.000
G1 X-12.202 Y397.350 Z6.852 F2500.000
G1 X-12.187 Y396.350 Z6.832 F2500.000
G1 X-12.178 Y395.750 Z6.816 F2500.000
G1 X-12.169 Y395.150 Z6.817 F2500.000
G1 X-12.150 Y393.950 Z6.859 F2500.000
G1 X-12.135 Y392.950 Z6.888 F2500.000
G1 X-12.114 Y391.550 Z6.903 F2500.000
G1 X-12.038 Y386.551 Z6.889 F2500.000
G1 X-12.001 Y384.151 Z6.875 F2500.000
G1 X-11.986 Y383.151 Z6.865 F2500.000
G1 X-11.967 Y381.951 Z6.848 F2500.000
G1 X-11.949 Y380.752 Z6.821 F2500.000
G1 X-11.931 Y379.552 Z6.853 F2500.000
G1 X-11.907 Y377.952 Z6.890 F2500.000
G1 X-11.897 Y377.352 Z6.900 F2500.000
G1 X-11.888 Y376.752 Z6.897 F2500.000
G1 X-11.882 Y376.352 Z6.906 F2500.000
G1 X-11.800 Y370.953 Z6.893 F2500.000
G1 X-11.721 Y365.753 Z6.906 F2500.000
G1 X-11.645 Y360.754 Z6.910 F2500.000
G1 X-11.642 Y360.554 Z6.904 F2500.000
G1 X-11.632 Y359.954 Z6.910 F2500.000
G1 X-11.553 Y354.755 Z6.898 F2500.000
G1 X-11.468 Y349.155 Z6.910 F2500.000
G1 X-11.383 Y343.556 Z6.914 F2500.000
G1 X-11.105 Y325.358 Z6.919 F2500.000
G1 X-11.102 Y325.158 Z6.916 F2500.000
G1 X-11.093 Y324.558 Z6.919 F2500.000
G1 X-10.810 Y305.960 Z6.923 F2500.000
G1 X-10.807 Y305.760 Z6.916 F2500.000
G1 X-10.801 Y305.360 Z6.923 F2500.000
G1 X-10.405 Y279.363 Z6.929 F2500.000
G1 X-9.820 Y240.968 Z6.936 F2500.000
G1 X-9.817 Y240.768 Z6.936 F2500.000
G1 X-9.814 Y240.568 Z6.926 F2500.000
G1 X-9.801 Y239.768 Z6.936 F2500.000
G1 X-9.451 Y216.771 Z6.940 F2500.000
G1 X-9.445 Y216.371 Z6.939 F2500.000
G1 X-9.442 Y216.171 Z6.927 F2500.000
G1 X-9.433 Y215.571 Z6.941 F2500.000
G1 X-8.644 Y163.777 Z6.950 F2500.000
G1 X-8.632 Y162.977 Z6.943 F2500.000
G1 X-8.629 Y162.777 Z6.950 F2500.000
G1 X-7.651 Y98.584 Z6.962 F2500.000
G1 X-7.239 Y71.588 Z6.965 F2500.000
G1 X-7.230 Y70.988 Z6.957 F2500.000
G1 X-7.221 Y70.388 Z6.965 F2500.000
G1 X-6.715 Y37.191 Z6.969 F2500.000
G1 X-6.706 Y36.592 Z6.964 F2500.000
G1 X-6.693 Y35.692 Z6.970 F2500.000
G1 X-6.463 Y20.593 Z6.972 F2500.000
G1 X-6.455 Y20.398 Z6.972 F2500.000
G1 X-2.578 Y20.398 Z6.995 F2500.000
G1 X0.329 Y20.398 Z6.999 F2500.000
G1 X3.237 Y20.398 Z6.992 F2500.000
G1 X6.145 Y20.398 Z6.974 F2500.000
G1 X6.172 Y20.573 Z6.974 F2500.000
G1 X6.374 Y33.071 Z6.972 F2500.000
(Break)
G0 Z10.000
G0 X7.274 Y33.057
(part 29.)
G1 X7.274 Y33.057 Z6.964 F2500.000
G1 X7.280 Y33.457 Z6.964 F2500.000
G1 X7.873 Y70.052 Z6.959 F2500.000
G1 X7.886 Y70.852 Z6.951 F2500.000
G1 X7.889 Y71.052 Z6.955 F2500.000
G1 X7.905 Y72.052 Z6.959 F2500.000
G1 X8.407 Y103.048 Z6.953 F2500.000
G1 X8.410 Y103.248 Z6.951 F2500.000
G1 X8.413 Y103.448 Z6.942 F2500.000
G1 X8.420 Y103.848 Z6.953 F2500.000
G1 X8.899 Y133.444 Z6.947 F2500.000
G1 X8.910 Y134.144 Z6.938 F2500.000
G1 X8.922 Y134.844 Z6.947 F2500.000
G1 X9.362 Y162.040 Z6.942 F2500.000
G1 X9.378 Y163.040 Z6.929 F2500.000
G1 X9.381 Y163.240 Z6.940 F2500.000
G1 X9.385 Y163.440 Z6.941 F2500.000
G1 X10.619 Y239.730 Z6.926 F2500.000
G1 X10.631 Y240.430 Z6.920 F2500.000
G1 X10.644 Y241.230 Z6.926 F2500.000
G1 X10.993 Y262.827 Z6.921 F2500.000
G1 X11.003 Y263.427 Z6.914 F2500.000
G1 X11.016 Y264.227 Z6.921 F2500.000
G1 X11.026 Y264.827 Z6.921 F2500.000
G1 X11.353 Y285.024 Z6.913 F2500.000
G1 X11.988 Y324.285 Z6.905 F2500.000
G1 X12.002 Y325.152 Z6.902 F2500.000
G1 X12.016 Y326.019 Z6.905 F2500.000
G1 X12.285 Y342.616 Z6.900 F2500.000
G1 X12.295 Y343.216 Z6.889 F2500.000
G1 X12.304 Y343.816 Z6.900 F2500.000
G1 X12.566 Y360.014 Z6.896 F2500.000
G1 X12.573 Y360.414 Z6.886 F2500.000
G1 X12.579 Y360.814 Z6.896 F2500.000
G1 X12.832 Y376.412 Z6.892 F2500.000
G1 X12.838 Y376.812 Z6.886 F2500.000
G1 X12.842 Y377.012 Z6.891 F2500.000
G1 X13.075 Y391.410 Z6.888 F2500.000
G1 X13.081 Y391.810 Z6.887 F2500.000
G1 X13.084 Y392.010 Z6.877 F2500.000
G1 X13.091 Y392.410 Z6.887 F2500.000
G1 X13.314 Y406.208 Z6.884 F2500.000
G1 X13.453 Y414.807 Z6.872 F2500.000
G1 X13.479 Y416.407 Z6.866 F2500.000
G1 X13.502 Y417.806 Z6.853 F2500.000
G1 X13.417 Y417.905 Z6.851 F2500.000
G1 X13.022 Y417.843 Z6.851 F2500.000
G1 X12.626 Y417.789 Z6.849 F2500.000
G1 X12.031 Y417.712 Z6.846 F2500.000
G1 X11.633 Y417.668 Z6.843 F2500.000
G1 X10.837 Y417.592 Z6.834 F2500.000
G1 X10.438 Y417.561 Z6.828 F2500.000
G1 X9.839 Y417.524 Z6.821 F2500.000
G1 X9.440 Y417.505 Z6.828 F2500.000
G1 X8.440 Y417.477 Z6.846 F2500.000
G1 X7.840 Y417.476 Z6.857 F2500.000
G1 X7.240 Y417.484 Z6.867 F2500.000
G1 X6.641 Y417.504 Z6.878 F2500.000
G1 X6.241 Y417.521 Z6.885 F2500.000
G1 X5.243 Y417.589 Z6.902 F2500.000
G1 X4.845 Y417.624 Z6.908 F2500.000
G1 X4.248 Y417.686 Z6.918 F2500.000
G1 X3.652 Y417.757 Z6.927 F2500.000
G1 X3.058 Y417.840 Z6.935 F2500.000
G1 X2.662 Y417.899 Z6.941 F2500.000
G1 X1.677 Y418.071 Z6.953 F2500.000
G1 X1.089 Y418.189 Z6.960 F2500.000
G1 X0.307 Y418.359 Z6.968 F2500.000
G1 X-0.082 Y418.452 Z6.971 F2500.000
G1 X-0.663 Y418.599 Z6.975 F2500.000
G1 X-1.243 Y418.755 Z6.979 F2500.000
G1 X-1.819 Y418.922 Z6.982 F2500.000
G1 X-2.202 Y419.038 Z6.983 F2500.000
G1 X-3.153 Y419.347 Z6.986 F2500.000
G1 X-3.531 Y419.479 Z6.986 F2500.000
G1 X-4.095 Y419.684 Z6.986 F2500.000
G1 X-4.655 Y419.897 Z6.985 F2500.000
G1 X-5.027 Y420.045 Z6.980 F2500.000
G1 X-5.398 Y420.195 Z6.968 F2500.000
G1 X-5.582 Y420.272 Z6.973 F2500.000
G1 X-6.133 Y420.511 Z6.975 F2500.000
G1 X-6.499 Y420.672 Z6.971 F2500.000
G1 X-7.404 Y421.097 Z6.963 F2500.000
G1 X-8.121 Y421.452 Z6.956 F2500.000
G1 X-8.830 Y421.822 Z6.947 F2500.000
G1 X-9.532 Y422.205 Z6.938 F2500.000
G1 X-10.399 Y422.704 Z6.928 F2500.000
G1 X-11.084 Y423.117 Z6.917 F2500.000
G1 X-12.098 Y423.760 Z6.901 F2500.000
G1 X-12.431 Y423.981 Z6.894 F2500.000
G1 X-13.422 Y424.657 Z6.873 F2500.000
G1 X-13.518 Y424.644 Z6.871 F2500.000
G1 X-13.463 Y421.044 Z6.881 F2500.000
G1 X-13.451 Y420.244 Z6.872 F2500.000
G1 X-13.445 Y419.845 Z6.881 F2500.000
G1 X-13.384 Y415.845 Z6.874 F2500.000
G1 X-13.350 Y413.645 Z6.864 F2500.000
G1 X-13.329 Y412.245 Z6.854 F2500.000
G1 X-13.311 Y411.046 Z6.840 F2500.000
G1 X-13.296 Y410.046 Z6.821 F2500.000
G1 X-13.277 Y408.846 Z6.784 F2500.000
G1 X-13.265 Y408.046 Z6.829 F2500.000
G1 X-13.253 Y407.246 Z6.868 F2500.000
G1 X-13.238 Y406.246 Z6.885 F2500.000
G1 X-13.177 Y402.247 Z6.878 F2500.000
G1 X-13.119 Y398.447 Z6.860 F2500.000
G1 X-13.088 Y396.447 Z6.837 F2500.000
G1 X-13.070 Y395.247 Z6.808 F2500.000
G1 X-13.058 Y394.447 Z6.823 F2500.000
G1 X-13.037 Y393.048 Z6.869 F2500.000
G1 X-13.024 Y392.248 Z6.887 F2500.000
G1 X-13.015 Y391.648 Z6.888 F2500.000
G1 X-12.954 Y387.648 Z6.882 F2500.000
G1 X-12.912 Y384.849 Z6.872 F2500.000
G1 X-12.887 Y383.249 Z6.861 F2500.000
G1 X-12.869 Y382.049 Z6.849 F2500.000
G1 X-12.854 Y381.049 Z6.834 F2500.000
G1 X-12.845 Y380.449 Z6.820 F2500.000
G1 X-12.836 Y379.849 Z6.824 F2500.000
G1 X-12.817 Y378.649 Z6.857 F2500.000
G1 X-12.793 Y377.049 Z6.892 F2500.000
G1 X-12.784 Y376.450 Z6.892 F2500.000
G1 X-12.723 Y372.450 Z6.887 F2500.000
G1 X-12.680 Y369.650 Z6.878 F2500.000
G1 X-12.638 Y366.851 Z6.886 F2500.000
G1 X-12.552 Y361.251 Z6.896 F2500.000
G1 X-12.543 Y360.651 Z6.895 F2500.000
G1 X-12.540 Y360.451 Z6.883 F2500.000
G1 X-12.537 Y360.251 Z6.895 F2500.000
G1 X-12.531 Y359.851 Z6.896 F2500.000
G1 X-12.476 Y356.252 Z6.891 F2500.000
G1 X-12.427 Y353.052 Z6.882 F2500.000
G1 X-12.391 Y350.653 Z6.890 F2500.000
G1 X-12.321 Y346.053 Z6.899 F2500.000
G1 X-12.281 Y343.453 Z6.900 F2500.000
G1 X-12.278 Y343.253 Z6.888 F2500.000
G1 X-12.272 Y342.853 Z6.901 F2500.000
G1 X-12.104 Y331.855 Z6.903 F2500.000
G1 X-12.004 Y325.255 Z6.905 F2500.000
G1 X-12.001 Y325.056 Z6.896 F2500.000
G1 X-11.995 Y324.656 Z6.905 F2500.000
G1 X-11.711 Y306.058 Z6.909 F2500.000
G1 X-11.708 Y305.858 Z6.908 F2500.000
G1 X-11.705 Y305.658 Z6.897 F2500.000
G1 X-11.702 Y305.458 Z6.909 F2500.000
G1 X-11.696 Y305.058 Z6.909 F2500.000
G1 X-11.401 Y285.660 Z6.914 F2500.000
G1 X-11.393 Y285.160 Z6.904 F2500.000
G1 X-11.385 Y284.660 Z6.914 F2500.000
G1 X-11.069 Y263.863 Z6.920 F2500.000
G1 X-10.718 Y240.865 Z6.925 F2500.000
G1 X-10.715 Y240.665 Z6.921 F2500.000
G1 X-10.703 Y239.865 Z6.925 F2500.000
G1 X-10.347 Y216.468 Z6.929 F2500.000
G1 X-10.341 Y216.068 Z6.924 F2500.000
G1 X-10.338 Y215.868 Z6.930 F2500.000
G1 X-9.957 Y190.871 Z6.934 F2500.000
G1 X-9.949 Y190.371 Z6.922 F2500.000
G1 X-9.941 Y189.871 Z6.935 F2500.000
G1 X-9.542 Y163.674 Z6.939 F2500.000
G1 X-9.533 Y163.074 Z6.928 F2500.000
G1 X-9.530 Y162.874 Z6.938 F2500.000
G1 X-9.527 Y162.674 Z6.940 F2500.000
G1 X-9.104 Y134.878 Z6.945 F2500.000
G1 X-9.092 Y134.078 Z6.933 F2500.000
G1 X-9.088 Y133.878 Z6.944 F2500.000
G1 X-9.079 Y133.278 Z6.945 F2500.000
G1 X-8.632 Y103.881 Z6.950 F2500.000
G1 X-8.628 Y103.681 Z6.950 F2500.000
G1 X-8.625 Y103.481 Z6.942 F2500.000
G1 X-8.616 Y102.881 Z6.950 F2500.000
G1 X-7.349 Y19.691 Z6.964 F2500.000
G1 X-7.339 Y19.498 Z6.964 F2500.000
G1 X-5.446 Y19.498 Z6.980 F2500.000
G1 X-2.606 Y19.498 Z6.995 F2500.000
G1 X0.234 Y19.498 Z7.000 F2500.000
G1 X3.074 Y19.498 Z6.993 F2500.000
G1 X4.967 Y19.498 Z6.983 F2500.000
G1 X6.861 Y19.498 Z6.968 F2500.000
G1 X7.055 Y19.504 Z6.966 F2500.000
G1 X7.274 Y33.057 Z6.964 F2500.000
(Break)
G0 Z10.000
G0 X8.174 Y33.042
(part 31.)
G1 X8.174 Y33.042 Z6.956 F2500.000
G1 X8.177 Y33.242 Z6.956 F2500.000
G1 X8.226 Y36.242 Z6.955 F2500.000
G1 X8.229 Y36.442 Z6.945 F2500.000
G1 X8.235 Y36.842 Z6.955 F2500.000
G1 X8.782 Y70.637 Z6.949 F2500.000
G1 X8.786 Y70.837 Z6.942 F2500.000
G1 X8.792 Y71.237 Z6.949 F2500.000
G1 X9.307 Y103.033 Z6.943 F2500.000
G1 X9.310 Y103.233 Z6.941 F2500.000
G1 X9.313 Y103.433 Z6.930 F2500.000
G1 X9.320 Y103.833 Z6.942 F2500.000
G1 X9.802 Y133.629 Z6.937 F2500.000
G1 X9.812 Y134.229 Z6.933 F2500.000
G1 X9.822 Y134.829 Z6.936 F2500.000
G1 X10.268 Y162.425 Z6.931 F2500.000
G1 X10.278 Y163.025 Z6.919 F2500.000
G1 X10.281 Y163.225 Z6.929 F2500.000
G1 X10.284 Y163.425 Z6.931 F2500.000
G1 X10.547 Y179.623 Z6.927 F2500.000
G1 X10.705 Y189.422 Z6.925 F2500.000
G1 X10.721 Y190.422 Z6.915 F2500.000
G1 X10.738 Y191.422 Z6.924 F2500.000
G1 X11.519 Y239.715 Z6.912 F2500.000
G1 X11.534 Y240.615 Z6.906 F2500.000
G1 X11.544 Y241.215 Z6.912 F2500.000
G1 X11.893 Y262.812 Z6.907 F2500.000
G1 X11.903 Y263.412 Z6.900 F2500.000
G1 X11.916 Y264.212 Z6.906 F2500.000
G1 X12.888 Y324.271 Z6.891 F2500.000
G1 X12.902 Y325.137 Z6.887 F2500.000
G1 X12.916 Y326.004 Z6.891 F2500.000
G1 X13.185 Y342.602 Z6.886 F2500.000
G1 X13.194 Y343.202 Z6.876 F2500.000
G1 X13.204 Y343.802 Z6.886 F2500.000
G1 X13.466 Y360.000 Z6.881 F2500.000
G1 X13.473 Y360.399 Z6.872 F2500.000
G1 X13.479 Y360.799 Z6.881 F2500.000
G1 X13.732 Y376.397 Z6.876 F2500.000
G1 X13.738 Y376.797 Z6.870 F2500.000
G1 X13.741 Y376.997 Z6.876 F2500.000
G1 X13.936 Y388.996 Z6.872 F2500.000
G1 X13.981 Y391.795 Z6.871 F2500.000
G1 X13.984 Y391.995 Z6.862 F2500.000
G1 X13.991 Y392.395 Z6.871 F2500.000
G1 X14.166 Y403.194 Z6.868 F2500.000
G1 X14.211 Y405.993 Z6.867 F2500.000
G1 X14.221 Y406.593 Z6.859 F2500.000
G1 X14.224 Y406.793 Z6.867 F2500.000
G1 X14.360 Y415.192 Z6.860 F2500.000
G1 X14.399 Y417.592 Z6.852 F2500.000
G1 X14.415 Y418.592 Z6.842 F2500.000
G1 X14.421 Y418.992 Z6.833 F2500.000
G1 X13.441 Y418.821 Z6.825 F2500.000
G1 X13.046 Y418.757 Z6.829 F2500.000
G1 X12.650 Y418.700 Z6.833 F2500.000
G1 X12.055 Y418.621 Z6.841 F2500.000
G1 X11.658 Y418.575 Z6.846 F2500.000
G1 X10.662 Y418.480 Z6.860 F2500.000
G1 X10.263 Y418.452 Z6.865 F2500.000
G1 X9.465 Y418.406 Z6.876 F2500.000
G1 X8.465 Y418.378 Z6.891 F2500.000
G1 X8.065 Y418.375 Z6.897 F2500.000
G1 X7.465 Y418.379 Z6.906 F2500.000
G1 X6.666 Y418.404 Z6.917 F2500.000
G1 X6.266 Y418.421 Z6.923 F2500.000
G1 X5.867 Y418.447 Z6.929 F2500.000
G1 X5.268 Y418.490 Z6.937 F2500.000
G1 X4.870 Y418.526 Z6.942 F2500.000
G1 X4.273 Y418.588 Z6.949 F2500.000
G1 X3.876 Y418.635 Z6.954 F2500.000
G1 X2.886 Y418.775 Z6.965 F2500.000
G1 X2.491 Y418.841 Z6.969 F2500.000
G1 X1.900 Y418.945 Z6.975 F2500.000
G1 X1.508 Y419.021 Z6.979 F2500.000
G1 X0.921 Y419.145 Z6.983 F2500.000
G1 X0.335 Y419.276 Z6.987 F2500.000
G1 X-0.634 Y419.521 Z6.993 F2500.000
G1 X-1.020 Y419.628 Z6.994 F2500.000
G1 X-1.596 Y419.795 Z6.996 F2500.000
G1 X-2.169 Y419.972 Z6.995 F2500.000
G1 X-2.929 Y420.222 Z6.983 F2500.000
G1 X-3.307 Y420.355 Z6.990 F2500.000
G1 X-4.058 Y420.630 Z6.988 F2500.000
G1 X-4.802 Y420.924 Z6.984 F2500.000
G1 X-5.172 Y421.076 Z6.982 F2500.000
G1 X-6.089 Y421.475 Z6.975 F2500.000
G1 X-6.995 Y421.899 Z6.967 F2500.000
G1 X-7.712 Y422.253 Z6.960 F2500.000
G1 X-8.421 Y422.624 Z6.952 F2500.000
G1 X-9.123 Y423.007 Z6.943 F2500.000
G1 X-9.644 Y423.305 Z6.936 F2500.000
G1 X-9.989 Y423.507 Z6.933 F2500.000
G1 X-10.503 Y423.816 Z6.926 F2500.000
G1 X-10.842 Y424.028 Z6.921 F2500.000
G1 X-11.686 Y424.565 Z6.907 F2500.000
G1 X-12.844 Y425.351 Z6.883 F2500.000
G1 X-13.171 Y425.583 Z6.875 F2500.000
G1 X-13.819 Y426.052 Z6.858 F2500.000
G1 X-14.299 Y426.412 Z6.849 F2500.000
G1 X-14.446 Y426.511 Z6.848 F2500.000
G1 X-14.434 Y425.711 Z6.845 F2500.000
G1 X-14.398 Y423.311 Z6.857 F2500.000
G1 X-14.361 Y420.912 Z6.863 F2500.000
G1 X-14.352 Y420.312 Z6.860 F2500.000
G1 X-14.343 Y419.712 Z6.864 F2500.000
G1 X-14.267 Y414.712 Z6.857 F2500.000
G1 X-14.230 Y412.313 Z6.847 F2500.000
G1 X-14.206 Y410.713 Z6.833 F2500.000
G1 X-14.191 Y409.713 Z6.816 F2500.000
G1 X-14.178 Y408.913 Z6.793 F2500.000
G1 X-14.169 Y408.313 Z6.794 F2500.000
G1 X-14.151 Y407.113 Z6.857 F2500.000
G1 X-14.145 Y406.713 Z6.867 F2500.000
G1 X-14.136 Y406.113 Z6.869 F2500.000
G1 X-14.057 Y400.914 Z6.861 F2500.000
G1 X-14.014 Y398.114 Z6.850 F2500.000
G1 X-13.986 Y396.314 Z6.834 F2500.000
G1 X-13.971 Y395.315 Z6.817 F2500.000
G1 X-13.962 Y394.715 Z6.800 F2500.000
G1 X-13.953 Y394.115 Z6.815 F2500.000
G1 X-13.929 Y392.515 Z6.868 F2500.000
G1 X-13.910 Y391.315 Z6.873 F2500.000
G1 X-13.834 Y386.316 Z6.866 F2500.000
G1 X-13.788 Y383.316 Z6.854 F2500.000
G1 X-13.761 Y381.516 Z6.840 F2500.000
G1 X-13.743 Y380.316 Z6.822 F2500.000
G1 X-13.734 Y379.716 Z6.808 F2500.000
G1 X-13.718 Y378.717 Z6.837 F2500.000
G1 X-13.700 Y377.517 Z6.866 F2500.000
G1 X-13.691 Y376.917 Z6.876 F2500.000
G1 X-13.682 Y376.317 Z6.877 F2500.000
G1 X-13.593 Y370.517 Z6.869 F2500.000
G1 X-13.560 Y368.318 Z6.862 F2500.000
G1 X-13.517 Y365.518 Z6.872 F2500.000
G1 X-13.447 Y360.919 Z6.881 F2500.000
G1 X-13.441 Y360.519 Z6.873 F2500.000
G1 X-13.432 Y359.919 Z6.882 F2500.000
G1 X-13.350 Y354.519 Z6.875 F2500.000
G1 X-13.310 Y351.920 Z6.867 F2500.000
G1 X-13.188 Y343.921 Z6.886 F2500.000
G1 X-13.179 Y343.321 Z6.879 F2500.000
G1 X-13.173 Y342.921 Z6.887 F2500.000
G1 X-13.103 Y338.321 Z6.888 F2500.000
G1 X-12.908 Y325.523 Z6.891 F2500.000
G1 X-12.899 Y324.923 Z6.884 F2500.000
G1 X-12.896 Y324.723 Z6.891 F2500.000
G1 X-12.613 Y306.125 Z6.896 F2500.000
G1 X-12.610 Y305.925 Z6.895 F2500.000
G1 X-12.606 Y305.725 Z6.887 F2500.000
G1 X-12.600 Y305.325 Z6.896 F2500.000
G1 X-12.469 Y296.726 Z6.894 F2500.000
G1 X-12.340 Y288.227 Z6.900 F2500.000
G1 X-11.626 Y241.332 Z6.911 F2500.000
G1 X-11.613 Y240.533 Z6.898 F2500.000
G1 X-11.610 Y240.333 Z6.910 F2500.000
G1 X-11.598 Y239.533 Z6.911 F2500.000
G1 X-11.248 Y216.535 Z6.917 F2500.000
G1 X-11.245 Y216.335 Z6.914 F2500.000
G1 X-11.236 Y215.735 Z6.917 F2500.000
G1 X-10.864 Y191.338 Z6.922 F2500.000
G1 X-10.852 Y190.538 Z6.920 F2500.000
G1 X-10.849 Y190.338 Z6.913 F2500.000
G1 X-10.846 Y190.138 Z6.922 F2500.000
G1 X-10.838 Y189.638 Z6.923 F2500.000
G1 X-10.005 Y134.945 Z6.934 F2500.000
G1 X-9.993 Y134.145 Z6.925 F2500.000
G1 X-9.990 Y133.945 Z6.931 F2500.000
G1 X-9.977 Y133.145 Z6.935 F2500.000
G1 X-9.533 Y103.948 Z6.940 F2500.000
G1 X-9.524 Y103.348 Z6.932 F2500.000
G1 X-9.517 Y102.949 Z6.940 F2500.000
G1 X-9.045 Y71.952 Z6.946 F2500.000
G1 X-9.033 Y71.152 Z6.945 F2500.000
G1 X-9.030 Y70.952 Z6.935 F2500.000
G1 X-9.018 Y70.152 Z6.946 F2500.000
G1 X-8.512 Y36.956 Z6.952 F2500.000
G1 X-8.506 Y36.556 Z6.945 F2500.000
G1 X-8.500 Y36.156 Z6.952 F2500.000
G1 X-8.235 Y18.758 Z6.955 F2500.000
G1 X-8.193 Y18.598 Z6.956 F2500.000
G1 X-5.193 Y18.598 Z6.982 F2500.000
G1 X-2.193 Y18.598 Z6.996 F2500.000
G1 X-0.193 Y18.598 Z7.000 F2500.000
G1 X2.807 Y18.598 Z6.995 F2500.000
G1 X5.807 Y18.598 Z6.977 F2500.000
G1 X7.807 Y18.598 Z6.960 F2500.000
G1 X7.941 Y18.665 Z6.959 F2500.000
G1 X8.174 Y33.042 Z6.956 F2500.000
(Break)
G0 Z10.000
G0 X9.074 Y33.028
(part 33.)
G1 X9.074 Y33.028 Z6.945 F2500.000
G1 X9.077 Y33.228 Z6.945 F2500.000
G1 X9.126 Y36.227 Z6.944 F2500.000
G1 X9.129 Y36.427 Z6.936 F2500.000
G1 X9.135 Y36.827 Z6.944 F2500.000
G1 X9.682 Y70.623 Z6.938 F2500.000
G1 X9.686 Y70.823 Z6.931 F2500.000
G1 X9.692 Y71.223 Z6.937 F2500.000
G1 X10.207 Y103.019 Z6.932 F2500.000
G1 X10.210 Y103.219 Z6.930 F2500.000
G1 X10.213 Y103.419 Z6.918 F2500.000
G1 X10.220 Y103.818 Z6.932 F2500.000
G1 X10.699 Y133.415 Z6.925 F2500.000
G1 X10.708 Y134.015 Z6.917 F2500.000
G1 X10.718 Y134.614 Z6.924 F2500.000
G1 X11.168 Y162.411 Z6.918 F2500.000
G1 X11.178 Y163.011 Z6.907 F2500.000
G1 X11.184 Y163.411 Z6.917 F2500.000
G1 X12.418 Y239.601 Z6.898 F2500.000
G1 X12.434 Y240.601 Z6.890 F2500.000
G1 X12.443 Y241.200 Z6.898 F2500.000
G1 X12.800 Y263.198 Z6.892 F2500.000
G1 X12.806 Y263.598 Z6.885 F2500.000
G1 X12.816 Y264.197 Z6.892 F2500.000
G1 X13.055 Y278.996 Z6.888 F2500.000
G1 X13.149 Y284.795 Z6.886 F2500.000
G1 X13.156 Y285.195 Z6.873 F2500.000
G1 X13.162 Y285.595 Z6.886 F2500.000
G1 X13.476 Y304.992 Z6.881 F2500.000
G1 X13.486 Y305.592 Z6.873 F2500.000
G1 X13.492 Y305.992 Z6.880 F2500.000
G1 X14.085 Y342.587 Z6.869 F2500.000
G1 X14.094 Y343.187 Z6.860 F2500.000
G1 X14.101 Y343.587 Z6.869 F2500.000
G1 X14.369 Y360.185 Z6.864 F2500.000
G1 X14.373 Y360.385 Z6.856 F2500.000
G1 X14.379 Y360.785 Z6.864 F2500.000
G1 X14.632 Y376.383 Z6.859 F2500.000
G1 X14.635 Y376.583 Z6.855 F2500.000
G1 X14.641 Y376.983 Z6.859 F2500.000
G1 X14.878 Y391.581 Z6.854 F2500.000
G1 X14.884 Y391.981 Z6.846 F2500.000
G1 X14.894 Y392.581 Z6.854 F2500.000
G1 X15.111 Y405.979 Z6.850 F2500.000
G1 X15.117 Y406.379 Z6.846 F2500.000
G1 X15.120 Y406.579 Z6.840 F2500.000
G1 X15.127 Y406.979 Z6.849 F2500.000
G1 X15.250 Y414.578 Z6.847 F2500.000
G1 X15.305 Y417.977 Z6.842 F2500.000
G1 X15.318 Y418.777 Z6.839 F2500.000
G1 X15.328 Y419.377 Z6.831 F2500.000
G1 X15.331 Y419.577 Z6.831 F2500.000
G1 X15.337 Y419.977 Z6.844 F2500.000
G1 X15.275 Y420.096 Z6.840 F2500.000
G1 X14.885 Y420.009 Z6.852 F2500.000
G1 X14.101 Y419.850 Z6.869 F2500.000
G1 X13.707 Y419.779 Z6.874 F2500.000
G1 X12.918 Y419.648 Z6.881 F2500.000
G1 X12.522 Y419.591 Z6.885 F2500.000
G1 X11.729 Y419.489 Z6.892 F2500.000
G1 X11.331 Y419.446 Z6.897 F2500.000
G1 X10.734 Y419.390 Z6.904 F2500.000
G1 X10.335 Y419.359 Z6.908 F2500.000
G1 X9.736 Y419.321 Z6.916 F2500.000
G1 X9.137 Y419.295 Z6.922 F2500.000
G1 X8.337 Y419.276 Z6.931 F2500.000
G1 X7.737 Y419.276 Z6.939 F2500.000
G1 X7.337 Y419.282 Z6.944 F2500.000
G1 X6.737 Y419.302 Z6.951 F2500.000
G1 X6.338 Y419.319 Z6.955 F2500.000
G1 X5.340 Y419.387 Z6.966 F2500.000
G1 X4.942 Y419.423 Z6.971 F2500.000
G1 X4.146 Y419.509 Z6.978 F2500.000
G1 X3.750 Y419.560 Z6.982 F2500.000
G1 X3.155 Y419.645 Z6.987 F2500.000
G1 X2.760 Y419.708 Z6.991 F2500.000
G1 X1.973 Y419.847 Z6.996 F2500.000
G1 X1.580 Y419.925 Z6.997 F2500.000
G1 X1.189 Y420.008 Z6.996 F2500.000
G1 X0.798 Y420.093 Z6.993 F2500.000
G1 X0.409 Y420.185 Z6.986 F2500.000
G1 X-0.173 Y420.331 Z6.996 F2500.000
G1 X-0.560 Y420.434 Z6.999 F2500.000
G1 X-1.520 Y420.711 Z6.997 F2500.000
G1 X-1.902 Y420.831 Z6.997 F2500.000
G1 X-2.662 Y421.082 Z6.995 F2500.000
G1 X-3.602 Y421.421 Z6.990 F2500.000
G1 X-3.976 Y421.564 Z6.988 F2500.000
G1 X-4.533 Y421.786 Z6.985 F2500.000
G1 X-4.903 Y421.940 Z6.983 F2500.000
G1 X-5.453 Y422.178 Z6.981 F2500.000
G1 X-6.000 Y422.424 Z6.976 F2500.000
G1 X-6.543 Y422.680 Z6.971 F2500.000
G1 X-6.903 Y422.855 Z6.968 F2500.000
G1 X-7.439 Y423.125 Z6.963 F2500.000
G1 X-7.970 Y423.403 Z6.957 F2500.000
G1 X-8.672 Y423.787 Z6.948 F2500.000
G1 X-9.193 Y424.084 Z6.941 F2500.000
G1 X-9.539 Y424.286 Z6.937 F2500.000
G1 X-10.223 Y424.701 Z6.930 F2500.000
G1 X-10.899 Y425.129 Z6.919 F2500.000
G1 X-11.234 Y425.346 Z6.913 F2500.000
G1 X-12.392 Y426.133 Z6.890 F2500.000
G1 X-13.204 Y426.718 Z6.869 F2500.000
G1 X-13.526 Y426.955 Z6.862 F2500.000
G1 X-14.321 Y427.561 Z6.855 F2500.000
G1 X-15.259 Y428.309 Z6.842 F2500.000
G1 X-15.375 Y428.353 Z6.840 F2500.000
G1 X-15.323 Y424.953 Z6.830 F2500.000
G1 X-15.280 Y422.154 Z6.842 F2500.000
G1 X-15.244 Y419.754 Z6.847 F2500.000
G1 X-15.192 Y416.354 Z6.845 F2500.000
G1 X-15.140 Y412.955 Z6.839 F2500.000
G1 X-15.116 Y411.355 Z6.832 F2500.000
G1 X-15.097 Y410.155 Z6.822 F2500.000
G1 X-15.088 Y409.555 Z6.814 F2500.000
G1 X-15.073 Y408.555 Z6.790 F2500.000
G1 X-15.064 Y407.955 Z6.794 F2500.000
G1 X-15.055 Y407.355 Z6.828 F2500.000
G1 X-15.046 Y406.755 Z6.850 F2500.000
G1 X-15.043 Y406.556 Z6.840 F2500.000
G1 X-15.037 Y406.156 Z6.851 F2500.000
G1 X-14.979 Y402.356 Z6.849 F2500.000
G1 X-14.906 Y397.557 Z6.838 F2500.000
G1 X-14.878 Y395.757 Z6.824 F2500.000
G1 X-14.863 Y394.757 Z6.808 F2500.000
G1 X-14.857 Y394.357 Z6.797 F2500.000
G1 X-14.851 Y393.957 Z6.800 F2500.000
G1 X-14.829 Y392.557 Z6.850 F2500.000
G1 X-14.817 Y391.757 Z6.855 F2500.000
G1 X-14.762 Y388.158 Z6.854 F2500.000
G1 X-14.677 Y382.558 Z6.842 F2500.000
G1 X-14.650 Y380.758 Z6.829 F2500.000
G1 X-14.631 Y379.559 Z6.810 F2500.000
G1 X-14.622 Y378.959 Z6.809 F2500.000
G1 X-14.598 Y377.359 Z6.852 F2500.000
G1 X-14.589 Y376.759 Z6.851 F2500.000
G1 X-14.580 Y376.159 Z6.860 F2500.000
G1 X-14.528 Y372.759 Z6.859 F2500.000
G1 X-14.439 Y366.960 Z6.847 F2500.000
G1 X-14.345 Y360.761 Z6.864 F2500.000
G1 X-14.342 Y360.561 Z6.859 F2500.000
G1 X-14.339 Y360.361 Z6.859 F2500.000
G1 X-14.333 Y359.961 Z6.865 F2500.000
G1 X-14.287 Y356.961 Z6.864 F2500.000
G1 X-14.187 Y350.362 Z6.852 F2500.000
G1 X-14.083 Y343.563 Z6.869 F2500.000
G1 X-14.077 Y343.163 Z6.862 F2500.000
G1 X-14.068 Y342.563 Z6.870 F2500.000
G1 X-13.806 Y325.365 Z6.874 F2500.000
G1 X-13.803 Y325.165 Z6.872 F2500.000
G1 X-13.800 Y324.965 Z6.864 F2500.000
G1 X-13.797 Y324.765 Z6.874 F2500.000
G1 X-13.794 Y324.565 Z6.875 F2500.000
G1 X-13.510 Y305.967 Z6.880 F2500.000
G1 X-13.507 Y305.767 Z6.874 F2500.000
G1 X-13.501 Y305.367 Z6.880 F2500.000
G1 X-13.318 Y293.369 Z6.880 F2500.000
G1 X-13.088 Y278.270 Z6.888 F2500.000
G1 X-12.872 Y264.072 Z6.891 F2500.000
G1 X-12.864 Y263.572 Z6.883 F2500.000
G1 X-12.855 Y262.972 Z6.891 F2500.000
G1 X-12.529 Y241.575 Z6.896 F2500.000
G1 X-12.517 Y240.775 Z6.896 F2500.000
G1 X-12.514 Y240.575 Z6.887 F2500.000
G1 X-12.511 Y240.375 Z6.893 F2500.000
G1 X-12.499 Y239.575 Z6.897 F2500.000
G1 X-12.149 Y216.578 Z6.902 F2500.000
G1 X-12.142 Y216.178 Z6.889 F2500.000
G1 X-12.139 Y215.978 Z6.901 F2500.000
G1 X-12.130 Y215.378 Z6.903 F2500.000
G1 X-11.757 Y190.881 Z6.909 F2500.000
G1 X-11.749 Y190.381 Z6.895 F2500.000
G1 X-11.746 Y190.181 Z6.907 F2500.000
G1 X-11.739 Y189.681 Z6.909 F2500.000
G1 X-11.341 Y163.584 Z6.915 F2500.000
G1 X-11.332 Y162.984 Z6.907 F2500.000
G1 X-11.329 Y162.784 Z6.915 F2500.000
G1 X-11.326 Y162.584 Z6.915 F2500.000
G1 X-10.903 Y134.787 Z6.922 F2500.000
G1 X-10.890 Y133.987 Z6.916 F2500.000
G1 X-10.887 Y133.787 Z6.922 F2500.000
G1 X-10.430 Y103.791 Z6.928 F2500.000
G1 X-10.424 Y103.391 Z6.917 F2500.000
G1 X-10.421 Y103.191 Z6.928 F2500.000
G1 X-10.418 Y102.991 Z6.929 F2500.000
G1 X-9.943 Y71.794 Z6.934 F2500.000
G1 X-9.931 Y70.994 Z6.927 F2500.000
G1 X-9.916 Y69.995 Z6.935 F2500.000
G1 X-9.413 Y36.998 Z6.941 F2500.000
G1 X-9.404 Y36.398 Z6.934 F2500.000
G1 X-9.401 Y36.198 Z6.941 F2500.000
G1 X-9.120 Y17.801 Z6.945 F2500.000
G1 X-9.022 Y17.698 Z6.946 F2500.000
G1 X-8.033 Y17.698 Z6.958 F2500.000
G1 X-5.066 Y17.698 Z6.983 F2500.000
G1 X-3.088 Y17.698 Z6.993 F2500.000
G1 X-0.122 Y17.698 Z7.000 F2500.000
G1 X2.845 Y17.698 Z6.994 F2500.000
G1 X4.823 Y17.698 Z6.984 F2500.000
G1 X8.778 Y17.698 Z6.949 F2500.000
G1 X8.828 Y17.850 Z6.948 F2500.000
G1 X9.074 Y33.028 Z6.945 F2500.000
(Break)
G0 Z10.000
G0 X9.974 Y33.013
(part 35.)
G1 X9.974 Y33.013 Z6.934 F2500.000
G1 X9.977 Y33.213 Z6.934 F2500.000
G1 X10.025 Y36.213 Z6.933 F2500.000
G1 X10.029 Y36.413 Z6.926 F2500.000
G1 X10.035 Y36.813 Z6.933 F2500.000
G1 X10.582 Y70.608 Z6.926 F2500.000
G1 X10.589 Y71.008 Z6.920 F2500.000
G1 X10.592 Y71.208 Z6.926 F2500.000
G1 X11.107 Y103.004 Z6.918 F2500.000
G1 X11.110 Y103.204 Z6.917 F2500.000
G1 X11.113 Y103.404 Z6.906 F2500.000
G1 X11.120 Y103.804 Z6.918 F2500.000
G1 X12.068 Y162.396 Z6.904 F2500.000
G1 X12.078 Y162.996 Z6.895 F2500.000
G1 X12.084 Y163.396 Z6.904 F2500.000
G1 X12.508 Y189.593 Z6.897 F2500.000
G1 X12.521 Y190.393 Z6.884 F2500.000
G1 X12.537 Y191.392 Z6.896 F2500.000
G1 X13.317 Y239.586 Z6.884 F2500.000
G1 X13.330 Y240.386 Z6.880 F2500.000
G1 X13.334 Y240.586 Z6.875 F2500.000
G1 X13.343 Y241.186 Z6.883 F2500.000
G1 X13.699 Y263.183 Z6.877 F2500.000
G1 X13.706 Y263.583 Z6.870 F2500.000
G1 X13.716 Y264.183 Z6.877 F2500.000
G1 X13.738 Y265.583 Z6.877 F2500.000
G1 X14.049 Y284.780 Z6.870 F2500.000
G1 X14.055 Y285.180 Z6.858 F2500.000
G1 X14.062 Y285.580 Z6.870 F2500.000
G1 X14.376 Y304.978 Z6.864 F2500.000
G1 X14.386 Y305.577 Z6.858 F2500.000
G1 X14.392 Y305.977 Z6.864 F2500.000
G1 X14.794 Y330.774 Z6.856 F2500.000
G1 X14.991 Y342.973 Z6.852 F2500.000
G1 X14.997 Y343.373 Z6.848 F2500.000
G1 X15.007 Y343.972 Z6.852 F2500.000
G1 X15.269 Y360.170 Z6.847 F2500.000
G1 X15.273 Y360.370 Z6.840 F2500.000
G1 X15.279 Y360.770 Z6.847 F2500.000
G1 X15.532 Y376.368 Z6.842 F2500.000
G1 X15.535 Y376.568 Z6.838 F2500.000
G1 X15.544 Y377.168 Z6.841 F2500.000
G1 X15.778 Y391.566 Z6.837 F2500.000
G1 X15.784 Y391.966 Z6.830 F2500.000
G1 X15.794 Y392.566 Z6.836 F2500.000
G1 X16.014 Y406.164 Z6.832 F2500.000
G1 X16.017 Y406.364 Z6.829 F2500.000
G1 X16.020 Y406.564 Z6.822 F2500.000
G1 X16.024 Y406.764 Z6.831 F2500.000
G1 X16.030 Y407.164 Z6.832 F2500.000
G1 X16.221 Y418.963 Z6.828 F2500.000
G1 X16.237 Y419.963 Z6.827 F2500.000
G1 X16.240 Y420.162 Z6.816 F2500.000
G1 X16.244 Y420.362 Z6.825 F2500.000
G1 X16.247 Y420.562 Z6.827 F2500.000
G1 X16.257 Y421.162 Z6.825 F2500.000
G1 X16.165 Y421.241 Z6.827 F2500.000
G1 X15.778 Y421.140 Z6.835 F2500.000
G1 X14.999 Y420.956 Z6.851 F2500.000
G1 X14.609 Y420.870 Z6.858 F2500.000
G1 X13.824 Y420.714 Z6.874 F2500.000
G1 X13.036 Y420.578 Z6.888 F2500.000
G1 X12.641 Y420.516 Z6.894 F2500.000
G1 X11.649 Y420.385 Z6.909 F2500.000
G1 X11.252 Y420.343 Z6.914 F2500.000
G1 X10.654 Y420.286 Z6.919 F2500.000
G1 X10.255 Y420.255 Z6.922 F2500.000
G1 X9.657 Y420.218 Z6.927 F2500.000
G1 X9.257 Y420.200 Z6.930 F2500.000
G1 X8.457 Y420.178 Z6.940 F2500.000
G1 X7.657 Y420.177 Z6.949 F2500.000
G1 X7.257 Y420.185 Z6.951 F2500.000
G1 X6.458 Y420.214 Z6.960 F2500.000
G1 X6.059 Y420.238 Z6.966 F2500.000
G1 X5.460 Y420.280 Z6.974 F2500.000
G1 X5.062 Y420.316 Z6.978 F2500.000
G1 X4.266 Y420.401 Z6.986 F2500.000
G1 X3.474 Y420.508 Z6.991 F2500.000
G1 X3.078 Y420.567 Z6.992 F2500.000
G1 X2.684 Y420.634 Z6.992 F2500.000
G1 X2.093 Y420.740 Z6.991 F2500.000
G1 X1.701 Y420.819 Z6.990 F2500.000
G1 X1.114 Y420.944 Z6.988 F2500.000
G1 X0.919 Y420.988 Z6.988 F2500.000
G1 X0.724 Y421.034 Z6.993 F2500.000
G1 X0.142 Y421.180 Z7.000 F2500.000
G1 X-0.438 Y421.334 Z6.999 F2500.000
G1 X-1.014 Y421.500 Z6.998 F2500.000
G1 X-1.397 Y421.615 Z6.998 F2500.000
G1 X-2.348 Y421.925 Z6.996 F2500.000
G1 X-3.101 Y422.195 Z6.993 F2500.000
G1 X-3.476 Y422.335 Z6.991 F2500.000
G1 X-4.404 Y422.706 Z6.986 F2500.000
G1 X-5.322 Y423.104 Z6.981 F2500.000
G1 X-5.685 Y423.271 Z6.979 F2500.000
G1 X-6.408 Y423.614 Z6.972 F2500.000
G1 X-6.944 Y423.883 Z6.967 F2500.000
G1 X-7.477 Y424.160 Z6.962 F2500.000
G1 X-8.004 Y424.446 Z6.955 F2500.000
G1 X-8.353 Y424.640 Z6.951 F2500.000
G1 X-8.874 Y424.939 Z6.944 F2500.000
G1 X-9.390 Y425.246 Z6.939 F2500.000
G1 X-9.731 Y425.455 Z6.937 F2500.000
G1 X-10.407 Y425.882 Z6.926 F2500.000
G1 X-10.909 Y426.211 Z6.918 F2500.000
G1 X-11.736 Y426.773 Z6.901 F2500.000
G1 X-12.063 Y427.003 Z6.894 F2500.000
G1 X-12.872 Y427.590 Z6.873 F2500.000
G1 X-13.669 Y428.195 Z6.866 F2500.000
G1 X-13.984 Y428.441 Z6.863 F2500.000
G1 X-14.609 Y428.941 Z6.854 F2500.000
G1 X-14.919 Y429.194 Z6.849 F2500.000
G1 X-15.686 Y429.835 Z6.836 F2500.000
G1 X-16.290 Y430.360 Z6.824 F2500.000
G1 X-16.303 Y430.195 Z6.824 F2500.000
G1 X-16.254 Y426.995 Z6.822 F2500.000
G1 X-16.205 Y423.796 Z6.813 F2500.000
G1 X-16.163 Y420.996 Z6.827 F2500.000
G1 X-16.053 Y413.797 Z6.826 F2500.000
G1 X-16.020 Y411.597 Z6.822 F2500.000
G1 X-15.992 Y409.797 Z6.813 F2500.000
G1 X-15.974 Y408.598 Z6.797 F2500.000
G1 X-15.968 Y408.198 Z6.786 F2500.000
G1 X-15.959 Y407.598 Z6.794 F2500.000
G1 X-15.949 Y406.998 Z6.828 F2500.000
G1 X-15.943 Y406.598 Z6.826 F2500.000
G1 X-15.934 Y405.998 Z6.833 F2500.000
G1 X-15.846 Y400.199 Z6.831 F2500.000
G1 X-15.803 Y397.399 Z6.826 F2500.000
G1 X-15.776 Y395.599 Z6.817 F2500.000
G1 X-15.745 Y393.599 Z6.793 F2500.000
G1 X-15.736 Y392.999 Z6.816 F2500.000
G1 X-15.724 Y392.200 Z6.835 F2500.000
G1 X-15.715 Y391.600 Z6.838 F2500.000
G1 X-15.630 Y386.000 Z6.836 F2500.000
G1 X-15.578 Y382.601 Z6.831 F2500.000
G1 X-15.541 Y380.201 Z6.819 F2500.000
G1 X-15.517 Y378.601 Z6.799 F2500.000
G1 X-15.496 Y377.201 Z6.838 F2500.000
G1 X-15.483 Y376.401 Z6.843 F2500.000
G1 X-15.389 Y370.202 Z6.841 F2500.000
G1 X-15.319 Y365.603 Z6.831 F2500.000
G1 X-15.252 Y361.203 Z6.846 F2500.000
G1 X-15.243 Y360.603 Z6.844 F2500.000
G1 X-15.240 Y360.403 Z6.838 F2500.000
G1 X-15.237 Y360.203 Z6.847 F2500.000
G1 X-15.142 Y354.004 Z6.846 F2500.000
G1 X-15.066 Y349.005 Z6.837 F2500.000
G1 X-14.984 Y343.605 Z6.852 F2500.000
G1 X-14.707 Y325.407 Z6.858 F2500.000
G1 X-14.703 Y325.207 Z6.857 F2500.000
G1 X-14.700 Y325.007 Z6.845 F2500.000
G1 X-14.697 Y324.807 Z6.856 F2500.000
G1 X-14.694 Y324.607 Z6.858 F2500.000
G1 X-14.411 Y306.010 Z6.863 F2500.000
G1 X-14.405 Y305.610 Z6.855 F2500.000
G1 X-14.402 Y305.410 Z6.863 F2500.000
G1 X-13.783 Y264.814 Z6.876 F2500.000
G1 X-13.424 Y241.217 Z6.882 F2500.000
G1 X-13.412 Y240.417 Z6.877 F2500.000
G1 X-13.409 Y240.217 Z6.882 F2500.000
G1 X-13.049 Y216.620 Z6.888 F2500.000
G1 X-13.040 Y216.020 Z6.885 F2500.000
G1 X-13.037 Y215.820 Z6.888 F2500.000
G1 X-12.662 Y191.223 Z6.894 F2500.000
G1 X-12.650 Y190.423 Z6.885 F2500.000
G1 X-12.644 Y190.023 Z6.895 F2500.000
G1 X-12.245 Y163.826 Z6.901 F2500.000
G1 X-12.236 Y163.226 Z6.899 F2500.000
G1 X-12.233 Y163.026 Z6.890 F2500.000
G1 X-12.221 Y162.226 Z6.901 F2500.000
G1 X-11.331 Y103.833 Z6.915 F2500.000
G1 X-11.328 Y103.633 Z6.914 F2500.000
G1 X-11.325 Y103.433 Z6.903 F2500.000
G1 X-11.322 Y103.233 Z6.913 F2500.000
G1 X-11.316 Y102.833 Z6.915 F2500.000
G1 X-10.006 Y16.843 Z6.934 F2500.000
G1 X-9.851 Y16.798 Z6.936 F2500.000
G1 X-7.911 Y16.798 Z6.959 F2500.000
G1 X-5.001 Y16.798 Z6.983 F2500.000
G1 X-3.061 Y16.798 Z6.993 F2500.000
G1 X-0.151 Y16.798 Z7.000 F2500.000
G1 X2.759 Y16.798 Z6.995 F2500.000
G1 X4.699 Y16.798 Z6.985 F2500.000
G1 X7.609 Y16.798 Z6.962 F2500.000
G1 X9.549 Y16.798 Z6.939 F2500.000
G1 X9.712 Y16.836 Z6.937 F2500.000
G1 X9.974 Y33.013 Z6.934 F2500.000
(Break)
G0 Z10.000
G0 X10.874 Y32.999
(part 37.)
G1 X10.874 Y32.999 Z6.923 F2500.000
G1 X10.877 Y33.199 Z6.922 F2500.000
G1 X10.925 Y36.198 Z6.922 F2500.000
G1 X10.929 Y36.398 Z6.915 F2500.000
G1 X10.935 Y36.798 Z6.922 F2500.000
G1 X11.482 Y70.594 Z6.913 F2500.000
G1 X11.489 Y70.994 Z6.906 F2500.000
G1 X11.492 Y71.194 Z6.913 F2500.000
G1 X12.006 Y102.989 Z6.905 F2500.000
G1 X12.010 Y103.189 Z6.904 F2500.000
G1 X12.013 Y103.389 Z6.894 F2500.000
G1 X12.019 Y103.789 Z6.905 F2500.000
G1 X12.968 Y162.382 Z6.890 F2500.000
G1 X12.981 Y163.182 Z6.886 F2500.000
G1 X12.984 Y163.382 Z6.890 F2500.000
G1 X13.405 Y189.378 Z6.882 F2500.000
G1 X13.421 Y190.378 Z6.869 F2500.000
G1 X13.437 Y191.378 Z6.882 F2500.000
G1 X14.219 Y239.672 Z6.867 F2500.000
G1 X14.230 Y240.371 Z6.864 F2500.000
G1 X14.234 Y240.571 Z6.857 F2500.000
G1 X14.243 Y241.171 Z6.867 F2500.000
G1 X14.599 Y263.168 Z6.860 F2500.000
G1 X14.606 Y263.568 Z6.851 F2500.000
G1 X14.615 Y264.168 Z6.859 F2500.000
G1 X14.949 Y284.766 Z6.853 F2500.000
G1 X14.955 Y285.166 Z6.843 F2500.000
G1 X14.962 Y285.566 Z6.853 F2500.000
G1 X15.276 Y304.963 Z6.847 F2500.000
G1 X15.286 Y305.563 Z6.842 F2500.000
G1 X15.292 Y305.963 Z6.847 F2500.000
G1 X15.603 Y325.160 Z6.838 F2500.000
G1 X15.616 Y325.960 Z6.841 F2500.000
G1 X15.888 Y342.758 Z6.835 F2500.000
G1 X15.897 Y343.358 Z6.830 F2500.000
G1 X15.910 Y344.158 Z6.834 F2500.000
G1 X16.163 Y359.756 Z6.829 F2500.000
G1 X16.176 Y360.556 Z6.823 F2500.000
G1 X16.182 Y360.956 Z6.828 F2500.000
G1 X16.425 Y375.954 Z6.823 F2500.000
G1 X16.438 Y376.754 Z6.813 F2500.000
G1 X16.441 Y376.954 Z6.822 F2500.000
G1 X16.444 Y377.154 Z6.823 F2500.000
G1 X16.681 Y391.752 Z6.817 F2500.000
G1 X16.684 Y391.952 Z6.811 F2500.000
G1 X16.697 Y392.752 Z6.817 F2500.000
G1 X16.907 Y405.750 Z6.812 F2500.000
G1 X16.920 Y406.550 Z6.801 F2500.000
G1 X16.930 Y407.150 Z6.812 F2500.000
G1 X17.176 Y422.348 Z6.804 F2500.000
G1 X17.100 Y422.442 Z6.806 F2500.000
G1 X16.525 Y422.271 Z6.817 F2500.000
G1 X15.752 Y422.062 Z6.833 F2500.000
G1 X15.364 Y421.966 Z6.841 F2500.000
G1 X14.780 Y421.829 Z6.853 F2500.000
G1 X14.389 Y421.744 Z6.860 F2500.000
G1 X13.604 Y421.588 Z6.874 F2500.000
G1 X12.816 Y421.454 Z6.887 F2500.000
G1 X12.420 Y421.394 Z6.894 F2500.000
G1 X11.826 Y421.314 Z6.903 F2500.000
G1 X11.429 Y421.266 Z6.909 F2500.000
G1 X10.632 Y421.188 Z6.920 F2500.000
G1 X10.234 Y421.156 Z6.925 F2500.000
G1 X9.635 Y421.119 Z6.933 F2500.000
G1 X9.235 Y421.099 Z6.938 F2500.000
G1 X8.436 Y421.078 Z6.947 F2500.000
G1 X8.036 Y421.075 Z6.950 F2500.000
G1 X7.436 Y421.080 Z6.956 F2500.000
G1 X6.636 Y421.107 Z6.963 F2500.000
G1 X6.237 Y421.128 Z6.966 F2500.000
G1 X5.638 Y421.169 Z6.968 F2500.000
G1 X5.239 Y421.203 Z6.970 F2500.000
G1 X4.444 Y421.286 Z6.973 F2500.000
G1 X4.047 Y421.337 Z6.974 F2500.000
G1 X3.453 Y421.420 Z6.973 F2500.000
G1 X3.058 Y421.483 Z6.973 F2500.000
G1 X2.270 Y421.623 Z6.971 F2500.000
G1 X2.074 Y421.661 Z6.972 F2500.000
G1 X1.291 Y421.827 Z6.990 F2500.000
G1 X0.902 Y421.917 Z6.995 F2500.000
G1 X0.126 Y422.113 Z7.000 F2500.000
G1 X-0.260 Y422.219 Z7.000 F2500.000
G1 X-0.836 Y422.386 Z6.999 F2500.000
G1 X-1.219 Y422.502 Z6.998 F2500.000
G1 X-1.979 Y422.751 Z6.996 F2500.000
G1 X-2.357 Y422.883 Z6.996 F2500.000
G1 X-2.921 Y423.087 Z6.994 F2500.000
G1 X-3.294 Y423.230 Z6.992 F2500.000
G1 X-4.037 Y423.528 Z6.988 F2500.000
G1 X-4.955 Y423.925 Z6.983 F2500.000
G1 X-5.318 Y424.093 Z6.981 F2500.000
G1 X-6.040 Y424.436 Z6.975 F2500.000
G1 X-6.576 Y424.706 Z6.971 F2500.000
G1 X-7.108 Y424.983 Z6.966 F2500.000
G1 X-7.635 Y425.270 Z6.959 F2500.000
G1 X-7.984 Y425.466 Z6.955 F2500.000
G1 X-8.504 Y425.765 Z6.948 F2500.000
G1 X-9.019 Y426.073 Z6.943 F2500.000
G1 X-9.697 Y426.498 Z6.937 F2500.000
G1 X-10.202 Y426.821 Z6.929 F2500.000
G1 X-11.360 Y427.608 Z6.907 F2500.000
G1 X-12.333 Y428.311 Z6.883 F2500.000
G1 X-13.129 Y428.916 Z6.876 F2500.000
G1 X-13.444 Y429.162 Z6.873 F2500.000
G1 X-14.225 Y429.788 Z6.862 F2500.000
G1 X-15.145 Y430.557 Z6.847 F2500.000
G1 X-16.199 Y431.479 Z6.827 F2500.000
G1 X-17.233 Y432.423 Z6.805 F2500.000
G1 X-17.234 Y432.232 Z6.805 F2500.000
G1 X-17.127 Y425.233 Z6.804 F2500.000
G1 X-17.094 Y423.033 Z6.798 F2500.000
G1 X-17.060 Y420.834 Z6.807 F2500.000
G1 X-17.051 Y420.234 Z6.799 F2500.000
G1 X-17.042 Y419.634 Z6.809 F2500.000
G1 X-16.923 Y411.835 Z6.808 F2500.000
G1 X-16.881 Y409.035 Z6.799 F2500.000
G1 X-16.871 Y408.435 Z6.794 F2500.000
G1 X-16.862 Y407.835 Z6.782 F2500.000
G1 X-16.853 Y407.235 Z6.794 F2500.000
G1 X-16.847 Y406.835 Z6.814 F2500.000
G1 X-16.716 Y398.236 Z6.813 F2500.000
G1 X-16.667 Y395.037 Z6.805 F2500.000
G1 X-16.640 Y393.237 Z6.786 F2500.000
G1 X-16.628 Y392.437 Z6.817 F2500.000
G1 X-16.576 Y389.037 Z6.820 F2500.000
G1 X-16.454 Y381.038 Z6.814 F2500.000
G1 X-16.430 Y379.438 Z6.807 F2500.000
G1 X-16.411 Y378.239 Z6.789 F2500.000
G1 X-16.396 Y377.239 Z6.818 F2500.000
G1 X-16.387 Y376.639 Z6.816 F2500.000
G1 X-16.384 Y376.439 Z6.824 F2500.000
G1 X-16.381 Y376.239 Z6.824 F2500.000
G1 X-16.256 Y368.040 Z6.823 F2500.000
G1 X-16.198 Y364.240 Z6.816 F2500.000
G1 X-16.152 Y361.241 Z6.827 F2500.000
G1 X-16.143 Y360.641 Z6.828 F2500.000
G1 X-16.140 Y360.441 Z6.817 F2500.000
G1 X-16.137 Y360.241 Z6.829 F2500.000
G1 X-16.131 Y359.841 Z6.830 F2500.000
G1 X-16.000 Y351.242 Z6.828 F2500.000
G1 X-15.942 Y347.442 Z6.821 F2500.000
G1 X-15.881 Y343.443 Z6.834 F2500.000
G1 X-15.878 Y343.243 Z6.822 F2500.000
G1 X-15.875 Y343.043 Z6.834 F2500.000
G1 X-15.872 Y342.843 Z6.835 F2500.000
G1 X-15.607 Y325.445 Z6.841 F2500.000
G1 X-15.604 Y325.245 Z6.841 F2500.000
G1 X-15.601 Y325.045 Z6.831 F2500.000
G1 X-15.595 Y324.645 Z6.841 F2500.000
G1 X-15.312 Y306.047 Z6.847 F2500.000
G1 X-15.306 Y305.647 Z6.836 F2500.000
G1 X-15.303 Y305.447 Z6.846 F2500.000
G1 X-15.299 Y305.247 Z6.847 F2500.000
G1 X-15.162 Y296.248 Z6.846 F2500.000
G1 X-14.907 Y279.450 Z6.854 F2500.000
G1 X-14.319 Y240.855 Z6.865 F2500.000
G1 X-14.316 Y240.655 Z6.861 F2500.000
G1 X-14.303 Y239.855 Z6.865 F2500.000
G1 X-13.953 Y216.857 Z6.872 F2500.000
G1 X-13.944 Y216.257 Z6.865 F2500.000
G1 X-13.935 Y215.657 Z6.872 F2500.000
G1 X-13.557 Y190.860 Z6.879 F2500.000
G1 X-13.549 Y190.360 Z6.868 F2500.000
G1 X-13.542 Y189.860 Z6.880 F2500.000
G1 X-13.143 Y163.663 Z6.887 F2500.000
G1 X-13.134 Y163.064 Z6.875 F2500.000
G1 X-13.130 Y162.864 Z6.886 F2500.000
G1 X-13.127 Y162.664 Z6.887 F2500.000
G1 X-12.704 Y134.867 Z6.894 F2500.000
G1 X-12.695 Y134.267 Z6.892 F2500.000
G1 X-12.692 Y134.067 Z6.883 F2500.000
G1 X-12.683 Y133.467 Z6.895 F2500.000
G1 X-12.232 Y103.870 Z6.902 F2500.000
G1 X-12.223 Y103.270 Z6.899 F2500.000
G1 X-12.220 Y103.070 Z6.902 F2500.000
G1 X-10.894 Y16.081 Z6.922 F2500.000
G1 X-10.874 Y15.898 Z6.922 F2500.000
G1 X-7.956 Y15.898 Z6.959 F2500.000
G1 X-5.038 Y15.898 Z6.983 F2500.000
G1 X-3.093 Y15.898 Z6.993 F2500.000
G1 X-0.174 Y15.898 Z7.000 F2500.000
G1 X2.744 Y15.898 Z6.995 F2500.000
G1 X5.662 Y15.898 Z6.979 F2500.000
G1 X7.607 Y15.898 Z6.962 F2500.000
G1 X10.526 Y15.898 Z6.927 F2500.000
G1 X10.599 Y16.027 Z6.927 F2500.000
G1 X10.874 Y32.999 Z6.923 F2500.000
(Break)
G0 Z10.000
G0 X11.773 Y32.984
(part 39.)
G1 X11.773 Y32.984 Z6.908 F2500.000
G1 X11.777 Y33.184 Z6.908 F2500.000
G1 X11.825 Y36.184 Z6.907 F2500.000
G1 X11.828 Y36.384 Z6.902 F2500.000
G1 X11.832 Y36.584 Z6.902 F2500.000
G1 X11.835 Y36.784 Z6.907 F2500.000
G1 X12.382 Y70.579 Z6.899 F2500.000
G1 X12.388 Y70.979 Z6.890 F2500.000
G1 X12.392 Y71.179 Z6.898 F2500.000
G1 X12.395 Y71.379 Z6.898 F2500.000
G1 X12.906 Y102.975 Z6.891 F2500.000
G1 X12.910 Y103.175 Z6.890 F2500.000
G1 X12.913 Y103.375 Z6.881 F2500.000
G1 X12.919 Y103.775 Z6.890 F2500.000
G1 X13.398 Y133.371 Z6.882 F2500.000
G1 X13.408 Y133.971 Z6.877 F2500.000
G1 X13.418 Y134.571 Z6.882 F2500.000
G1 X13.868 Y162.367 Z6.873 F2500.000
G1 X13.881 Y163.167 Z6.868 F2500.000
G1 X13.884 Y163.367 Z6.873 F2500.000
G1 X15.119 Y239.657 Z6.849 F2500.000
G1 X15.130 Y240.357 Z6.847 F2500.000
G1 X15.133 Y240.557 Z6.838 F2500.000
G1 X15.143 Y241.157 Z6.849 F2500.000
G1 X15.499 Y263.154 Z6.842 F2500.000
G1 X15.506 Y263.554 Z6.832 F2500.000
G1 X15.515 Y264.154 Z6.841 F2500.000
G1 X15.732 Y277.552 Z6.838 F2500.000
G1 X15.849 Y284.751 Z6.835 F2500.000
G1 X15.855 Y285.151 Z6.826 F2500.000
G1 X15.862 Y285.551 Z6.835 F2500.000
G1 X16.182 Y305.348 Z6.828 F2500.000
G1 X16.189 Y305.748 Z6.820 F2500.000
G1 X16.192 Y305.948 Z6.828 F2500.000
G1 X16.493 Y324.546 Z6.821 F2500.000
G1 X16.496 Y324.746 Z6.821 F2500.000
G1 X16.499 Y324.946 Z6.812 F2500.000
G1 X16.506 Y325.346 Z6.821 F2500.000
G1 X17.066 Y359.941 Z6.808 F2500.000
G1 X17.076 Y360.541 Z6.801 F2500.000
G1 X17.079 Y360.741 Z6.808 F2500.000
G1 X17.810 Y405.935 Z6.791 F2500.000
G1 X17.817 Y406.335 Z6.790 F2500.000
G1 X17.820 Y406.535 Z6.779 F2500.000
G1 X17.823 Y406.735 Z6.790 F2500.000
G1 X17.827 Y406.935 Z6.791 F2500.000
G1 X18.037 Y419.933 Z6.786 F2500.000
G1 X18.040 Y420.133 Z6.777 F2500.000
G1 X18.047 Y420.533 Z6.786 F2500.000
G1 X18.095 Y423.533 Z6.782 F2500.000
G1 X18.078 Y423.705 Z6.782 F2500.000
G1 X17.510 Y423.513 Z6.795 F2500.000
G1 X16.555 Y423.216 Z6.814 F2500.000
G1 X16.170 Y423.107 Z6.822 F2500.000
G1 X15.397 Y422.900 Z6.838 F2500.000
G1 X14.619 Y422.716 Z6.852 F2500.000
G1 X14.228 Y422.630 Z6.858 F2500.000
G1 X13.444 Y422.474 Z6.872 F2500.000
G1 X12.655 Y422.340 Z6.885 F2500.000
G1 X12.259 Y422.280 Z6.891 F2500.000
G1 X11.466 Y422.176 Z6.902 F2500.000
G1 X11.068 Y422.134 Z6.907 F2500.000
G1 X10.471 Y422.077 Z6.915 F2500.000
G1 X10.072 Y422.047 Z6.920 F2500.000
G1 X9.274 Y422.002 Z6.928 F2500.000
G1 X8.274 Y421.976 Z6.937 F2500.000
G1 X7.474 Y421.980 Z6.945 F2500.000
G1 X6.874 Y421.998 Z6.948 F2500.000
G1 X6.475 Y422.015 Z6.950 F2500.000
G1 X5.676 Y422.069 Z6.953 F2500.000
G1 X5.278 Y422.103 Z6.954 F2500.000
G1 X4.482 Y422.188 Z6.954 F2500.000
G1 X4.086 Y422.240 Z6.954 F2500.000
G1 X3.492 Y422.324 Z6.953 F2500.000
G1 X3.097 Y422.389 Z6.961 F2500.000
G1 X2.310 Y422.532 Z6.980 F2500.000
G1 X1.723 Y422.655 Z6.989 F2500.000
G1 X1.332 Y422.740 Z6.994 F2500.000
G1 X0.943 Y422.834 Z6.997 F2500.000
G1 X0.168 Y423.034 Z7.000 F2500.000
G1 X-0.792 Y423.312 Z6.999 F2500.000
G1 X-1.553 Y423.557 Z6.997 F2500.000
G1 X-1.932 Y423.687 Z6.997 F2500.000
G1 X-2.684 Y423.960 Z6.995 F2500.000
G1 X-3.057 Y424.104 Z6.993 F2500.000
G1 X-3.799 Y424.404 Z6.989 F2500.000
G1 X-4.349 Y424.642 Z6.986 F2500.000
G1 X-4.715 Y424.805 Z6.985 F2500.000
G1 X-5.439 Y425.145 Z6.981 F2500.000
G1 X-5.977 Y425.410 Z6.976 F2500.000
G1 X-6.510 Y425.685 Z6.971 F2500.000
G1 X-6.863 Y425.874 Z6.968 F2500.000
G1 X-7.389 Y426.163 Z6.962 F2500.000
G1 X-8.082 Y426.561 Z6.953 F2500.000
G1 X-8.597 Y426.870 Z6.948 F2500.000
