(Exported by FreeCAD)
(Post Processor: script_module)
(Output Time:2025-01-01 01:49:16.159978)
(Begin preamble)
G17 G90
G21
(Begin operation: 3.0 ball Q3.003)
(Path: 3.0 ball Q3.003)
(3.0 ball Q3.003)
(Begin toolchange)
( M6 T2 )
M3 S24000
(Finish operation: 3.0 ball Q3.003)
(Begin operation: Fixture)
(Path: Fixture)
G54
(Finish operation: Fixture)
(Begin operation: Surface004)
(Path: Surface004)
(Surface004)
(Surface004)
(Tool type: ballend)
(Compensated Tool Path. Diameter: 3.0)
(Sample interval: 1.0)
(Step over %: 10.0)
()
G0 Z17.300
(Beginning of Single-pass layer.)
G0 X36.402 Y24.402
(Begin step 0.)
(part 1.)
G1 X36.402 Y24.402 Z9.824 F2500.000
G1 X35.405 Y24.402 Z9.824 F2500.000
G1 X-36.398 Y24.402 Z9.824 F2500.000
G1 X-36.353 Y24.256 Z9.804 F2500.000
G1 X-34.364 Y24.256 Z9.804 F2500.000
G1 X36.247 Y24.256 Z9.804 F2500.000
G1 X36.402 Y24.301 Z9.810 F2500.000
G1 X36.402 Y24.402 Z9.824 F2500.000
(Break)
G1 X36.702 Y24.702 Z9.865 F2500.000
(part 3.)
G1 X36.702 Y24.702 Z9.865 F2500.000
G1 X35.710 Y24.702 Z9.865 F2500.000
G1 X-36.698 Y24.702 Z9.865 F2500.000
G1 X-36.702 Y24.507 Z9.838 F2500.000
G1 X-36.702 Y24.107 Z9.784 F2500.000
G1 X-36.653 Y23.956 Z9.763 F2500.000
G1 X36.547 Y23.956 Z9.763 F2500.000
G1 X36.702 Y24.001 Z9.769 F2500.000
G1 X36.702 Y24.702 Z9.865 F2500.000
(Break)
G1 X37.002 Y25.002 Z9.906 F2500.000
(part 5.)
G1 X37.002 Y25.002 Z9.906 F2500.000
G1 X36.002 Y25.002 Z9.906 F2500.000
G1 X-36.998 Y25.002 Z9.906 F2500.000
G1 X-37.002 Y24.807 Z9.879 F2500.000
G1 X-37.002 Y23.807 Z9.743 F2500.000
G1 X-36.953 Y23.656 Z9.722 F2500.000
G1 X36.847 Y23.656 Z9.722 F2500.000
G1 X37.002 Y23.701 Z9.728 F2500.000
G1 X37.002 Y25.002 Z9.906 F2500.000
(Break)
G1 X37.302 Y25.302 Z9.946 F2500.000
(part 7.)
G1 X37.302 Y25.302 Z9.946 F2500.000
G1 X36.308 Y25.302 Z9.946 F2500.000
G1 X-37.298 Y25.302 Z9.946 F2500.000
G1 X-37.302 Y25.107 Z9.920 F2500.000
G1 X-37.302 Y23.507 Z9.702 F2500.000
G1 X-37.253 Y23.356 Z9.681 F2500.000
G1 X37.147 Y23.356 Z9.681 F2500.000
G1 X37.302 Y23.401 Z9.687 F2500.000
G1 X37.302 Y25.302 Z9.946 F2500.000
(Break)
G1 X37.602 Y25.602 Z9.987 F2500.000
(part 9.)
G1 X37.602 Y25.602 Z9.987 F2500.000
G1 X36.613 Y25.602 Z9.987 F2500.000
G1 X-37.598 Y25.602 Z9.987 F2500.000
G1 X-37.602 Y25.407 Z9.961 F2500.000
G1 X-37.602 Y23.207 Z9.661 F2500.000
G1 X-37.553 Y23.056 Z9.640 F2500.000
G1 X37.447 Y23.056 Z9.640 F2500.000
G1 X37.602 Y23.101 Z9.647 F2500.000
G1 X37.602 Y25.602 Z9.987 F2500.000
(Break)
G1 X37.902 Y25.902 Z10.028 F2500.000
(part 11.)
G1 X37.902 Y25.902 Z10.028 F2500.000
G1 X36.905 Y25.902 Z10.028 F2500.000
G1 X-37.898 Y25.902 Z10.028 F2500.000
G1 X-37.902 Y25.707 Z10.001 F2500.000
G1 X-37.902 Y22.907 Z9.620 F2500.000
G1 X-37.853 Y22.756 Z9.600 F2500.000
G1 X37.747 Y22.756 Z9.600 F2500.000
G1 X37.902 Y22.801 Z9.606 F2500.000
G1 X37.902 Y25.902 Z10.028 F2500.000
(Break)
G1 X38.202 Y26.202 Z10.069 F2500.000
(part 13.)
G1 X38.202 Y26.202 Z10.069 F2500.000
G1 X37.210 Y26.202 Z10.069 F2500.000
G1 X-38.198 Y26.202 Z10.069 F2500.000
G1 X-38.202 Y26.007 Z10.042 F2500.000
G1 X-38.202 Y22.607 Z9.579 F2500.000
G1 X-38.153 Y22.456 Z9.559 F2500.000
G1 X38.047 Y22.456 Z9.559 F2500.000
G1 X38.202 Y22.501 Z9.565 F2500.000
G1 X38.202 Y26.202 Z10.069 F2500.000
(Break)
G1 X38.502 Y26.502 Z10.110 F2500.000
(part 15.)
G1 X38.502 Y26.502 Z10.110 F2500.000
G1 X37.515 Y26.502 Z10.110 F2500.000
G1 X-38.498 Y26.502 Z10.110 F2500.000
G1 X-38.502 Y26.307 Z10.083 F2500.000
G1 X-38.502 Y22.307 Z9.538 F2500.000
G1 X-38.453 Y22.156 Z9.518 F2500.000
G1 X38.347 Y22.156 Z9.518 F2500.000
G1 X38.502 Y22.201 Z9.524 F2500.000
G1 X38.502 Y26.502 Z10.110 F2500.000
(Break)
G1 X38.802 Y26.802 Z10.151 F2500.000
(part 17.)
G1 X38.802 Y26.802 Z10.151 F2500.000
G1 X37.807 Y26.802 Z10.151 F2500.000
G1 X-38.798 Y26.802 Z10.151 F2500.000
G1 X-38.802 Y26.607 Z10.124 F2500.000
G1 X-38.802 Y22.007 Z9.497 F2500.000
G1 X-38.753 Y21.856 Z9.477 F2500.000
G1 X38.647 Y21.856 Z9.477 F2500.000
G1 X38.802 Y21.901 Z9.483 F2500.000
G1 X38.802 Y26.802 Z10.151 F2500.000
(Break)
G1 X39.102 Y27.102 Z10.192 F2500.000
(part 19.)
G1 X39.102 Y27.102 Z10.192 F2500.000
G1 X38.112 Y27.102 Z10.192 F2500.000
G1 X-39.098 Y27.102 Z10.192 F2500.000
G1 X-39.102 Y26.907 Z10.165 F2500.000
G1 X-39.102 Y21.707 Z9.457 F2500.000
G1 X-39.053 Y21.556 Z9.436 F2500.000
G1 X38.947 Y21.556 Z9.436 F2500.000
G1 X39.102 Y21.601 Z9.442 F2500.000
G1 X39.102 Y27.102 Z10.192 F2500.000
(Break)
G1 X39.402 Y27.402 Z10.232 F2500.000
(part 21.)
G1 X39.402 Y27.402 Z10.232 F2500.000
G1 X38.405 Y27.402 Z10.232 F2500.000
G1 X-39.398 Y27.402 Z10.232 F2500.000
G1 X-39.402 Y27.207 Z10.206 F2500.000
G1 X-39.402 Y21.407 Z9.416 F2500.000
G1 X-39.353 Y21.256 Z9.395 F2500.000
G1 X39.247 Y21.256 Z9.395 F2500.000
G1 X39.402 Y21.301 Z9.401 F2500.000
G1 X39.402 Y27.402 Z10.232 F2500.000
(Break)
G1 X39.702 Y27.702 Z10.273 F2500.000
(part 23.)
G1 X39.702 Y27.702 Z10.273 F2500.000
G1 X38.710 Y27.702 Z10.273 F2500.000
G1 X-39.698 Y27.702 Z10.273 F2500.000
G1 X-39.702 Y27.507 Z10.247 F2500.000
G1 X-39.702 Y21.107 Z9.375 F2500.000
G1 X-39.653 Y20.956 Z9.354 F2500.000
G1 X39.547 Y20.956 Z9.354 F2500.000
G1 X39.702 Y21.001 Z9.361 F2500.000
G1 X39.702 Y27.702 Z10.273 F2500.000
(Break)
G0 Z15.300
G0 X40.000 Y20.656
G0 Z14.314
(part 25.)
G1 X40.000 Y20.656 Z9.314 F2500.000
G1 X40.002 Y20.855 Z9.341 F2500.000
G1 X40.002 Y27.855 Z10.293 F2500.000
G1 X39.948 Y28.002 Z10.300 F2500.000
G1 X-39.852 Y28.002 Z10.300 F2500.000
G1 X-40.002 Y27.951 Z10.299 F2500.000
G1 X-40.002 Y27.051 Z10.185 F2500.000
G1 X-40.002 Y20.751 Z9.326 F2500.000
G1 X-39.896 Y20.656 Z9.314 F2500.000
G1 X40.000 Y20.656 Z9.314 F2500.000
(Break)
G1 X40.007 Y20.357 Z9.300 F2500.000
(part 27.)
G1 X40.007 Y20.357 Z9.300 F2500.000
G1 X40.191 Y20.425 Z9.300 F2500.000
G1 X40.295 Y20.591 Z9.300 F2500.000
G1 X40.302 Y20.791 Z9.301 F2500.000
G1 X40.302 Y27.391 Z10.200 F2500.000
G1 X40.302 Y27.991 Z10.269 F2500.000
G1 X40.244 Y28.178 Z10.269 F2500.000
G1 X40.083 Y28.291 Z10.269 F2500.000
G1 X39.884 Y28.302 Z10.269 F2500.000
G1 X-39.916 Y28.302 Z10.269 F2500.000
G1 X-40.113 Y28.280 Z10.269 F2500.000
G1 X-40.262 Y28.151 Z10.269 F2500.000
G1 X-40.302 Y27.958 Z10.269 F2500.000
G1 X-40.302 Y27.058 Z10.155 F2500.000
G1 X-40.302 Y21.658 Z9.419 F2500.000
G1 X-40.302 Y20.758 Z9.300 F2500.000
G1 X-40.286 Y20.560 Z9.300 F2500.000
G1 X-40.165 Y20.405 Z9.300 F2500.000
G1 X-39.974 Y20.356 Z9.300 F2500.000
G1 X40.007 Y20.357 Z9.300 F2500.000
(Break)
G1 X40.014 Y20.057 Z9.300 F2500.000
(part 29.)
G1 X40.014 Y20.057 Z9.300 F2500.000
G1 X40.209 Y20.094 Z9.300 F2500.000
G1 X40.382 Y20.193 Z9.300 F2500.000
G1 X40.513 Y20.343 Z9.300 F2500.000
G1 X40.588 Y20.527 Z9.300 F2500.000
G1 X40.602 Y20.726 Z9.300 F2500.000
G1 X40.602 Y20.926 Z9.300 F2500.000
G1 X40.602 Y21.876 Z9.352 F2500.000
G1 X40.602 Y27.176 Z10.074 F2500.000
G1 X40.602 Y27.926 Z10.172 F2500.000
G1 X40.589 Y28.125 Z10.174 F2500.000
G1 X40.516 Y28.311 Z10.174 F2500.000
G1 X40.386 Y28.462 Z10.174 F2500.000
G1 X40.215 Y28.563 Z10.174 F2500.000
G1 X40.019 Y28.602 Z10.174 F2500.000
G1 X-39.981 Y28.602 Z10.174 F2500.000
G1 X-40.178 Y28.575 Z10.174 F2500.000
G1 X-40.356 Y28.486 Z10.174 F2500.000
G1 X-40.495 Y28.343 Z10.174 F2500.000
G1 X-40.580 Y28.163 Z10.174 F2500.000
G1 X-40.602 Y27.965 Z10.173 F2500.000
G1 X-40.602 Y27.065 Z10.059 F2500.000
G1 X-40.602 Y21.665 Z9.324 F2500.000
G1 X-40.602 Y20.765 Z9.300 F2500.000
G1 X-40.595 Y20.566 Z9.300 F2500.000
G1 X-40.532 Y20.377 Z9.300 F2500.000
G1 X-40.411 Y20.219 Z9.300 F2500.000
G1 X-40.245 Y20.109 Z9.300 F2500.000
G1 X-40.052 Y20.059 Z9.300 F2500.000
G1 X40.014 Y20.057 Z9.300 F2500.000
(Break)
G1 X40.021 Y19.757 Z9.300 F2500.000
(part 31.)
G1 X40.021 Y19.757 Z9.300 F2500.000
G1 X40.218 Y19.783 Z9.300 F2500.000
G1 X40.405 Y19.853 Z9.300 F2500.000
G1 X40.573 Y19.962 Z9.300 F2500.000
G1 X40.712 Y20.105 Z9.300 F2500.000
G1 X40.816 Y20.275 Z9.300 F2500.000
G1 X40.881 Y20.464 Z9.300 F2500.000
G1 X40.902 Y20.662 Z9.300 F2500.000
G1 X40.902 Y22.662 Z9.300 F2500.000
G1 X40.902 Y22.862 Z9.310 F2500.000
G1 X40.902 Y27.862 Z9.990 F2500.000
G1 X40.900 Y28.062 Z9.998 F2500.000
G1 X40.864 Y28.258 Z9.998 F2500.000
G1 X40.786 Y28.442 Z9.998 F2500.000
G1 X40.670 Y28.604 Z9.998 F2500.000
G1 X40.521 Y28.737 Z9.998 F2500.000
G1 X40.346 Y28.833 Z9.998 F2500.000
G1 X40.154 Y28.889 Z9.998 F2500.000
G1 X39.955 Y28.902 Z9.998 F2500.000
G1 X-40.045 Y28.901 Z9.998 F2500.000
G1 X-40.242 Y28.869 Z9.998 F2500.000
G1 X-40.427 Y28.795 Z9.998 F2500.000
G1 X-40.591 Y28.681 Z9.998 F2500.000
G1 X-40.727 Y28.534 Z9.998 F2500.000
G1 X-40.826 Y28.362 Z9.998 F2500.000
G1 X-40.886 Y28.171 Z9.998 F2500.000
G1 X-40.902 Y27.972 Z9.998 F2500.000
G1 X-40.902 Y27.072 Z9.883 F2500.000
G1 X-40.902 Y23.472 Z9.393 F2500.000
G1 X-40.902 Y22.572 Z9.300 F2500.000
G1 X-40.902 Y20.772 Z9.300 F2500.000
G1 X-40.898 Y20.572 Z9.300 F2500.000
G1 X-40.857 Y20.377 Z9.300 F2500.000
G1 X-40.774 Y20.195 Z9.300 F2500.000
G1 X-40.653 Y20.036 Z9.300 F2500.000
G1 X-40.500 Y19.908 Z9.300 F2500.000
G1 X-40.323 Y19.816 Z9.300 F2500.000
G1 X-40.130 Y19.766 Z9.300 F2500.000
G1 X-39.930 Y19.756 Z9.300 F2500.000
G1 X40.021 Y19.757 Z9.300 F2500.000
(Break)
G1 X40.027 Y19.457 Z9.300 F2500.000
(part 33.)
G1 X40.027 Y19.457 Z9.300 F2500.000
G1 X40.226 Y19.478 Z9.300 F2500.000
G1 X40.418 Y19.532 Z9.300 F2500.000
G1 X40.599 Y19.617 Z9.300 F2500.000
G1 X40.764 Y19.730 Z9.300 F2500.000
G1 X40.907 Y19.869 Z9.300 F2500.000
G1 X41.025 Y20.031 Z9.300 F2500.000
G1 X41.115 Y20.209 Z9.300 F2500.000
G1 X41.174 Y20.400 Z9.300 F2500.000
G1 X41.201 Y20.598 Z9.300 F2500.000
G1 X41.202 Y24.998 Z9.300 F2500.000
G1 X41.202 Y27.398 Z9.623 F2500.000
G1 X41.202 Y27.998 Z9.697 F2500.000
G1 X41.186 Y28.197 Z9.697 F2500.000
G1 X41.137 Y28.390 Z9.697 F2500.000
G1 X41.057 Y28.573 Z9.697 F2500.000
G1 X40.947 Y28.740 Z9.697 F2500.000
G1 X40.811 Y28.887 Z9.697 F2500.000
G1 X40.653 Y29.009 Z9.697 F2500.000
G1 X40.477 Y29.103 Z9.697 F2500.000
G1 X40.288 Y29.167 Z9.697 F2500.000
G1 X40.091 Y29.199 Z9.697 F2500.000
G1 X39.891 Y29.202 Z9.697 F2500.000
G1 X-39.909 Y29.202 Z9.697 F2500.000
G1 X-40.109 Y29.197 Z9.697 F2500.000
G1 X-40.306 Y29.163 Z9.697 F2500.000
G1 X-40.494 Y29.096 Z9.697 F2500.000
G1 X-40.669 Y28.999 Z9.697 F2500.000
G1 X-40.825 Y28.874 Z9.697 F2500.000
G1 X-40.958 Y28.726 Z9.697 F2500.000
G1 X-41.065 Y28.557 Z9.697 F2500.000
G1 X-41.143 Y28.373 Z9.697 F2500.000
G1 X-41.189 Y28.178 Z9.697 F2500.000
G1 X-41.202 Y27.979 Z9.697 F2500.000
G1 X-41.202 Y27.079 Z9.580 F2500.000
G1 X-41.202 Y25.279 Z9.335 F2500.000
G1 X-41.202 Y24.379 Z9.300 F2500.000
G1 X-41.202 Y20.779 Z9.300 F2500.000
G1 X-41.200 Y20.579 Z9.300 F2500.000
G1 X-41.170 Y20.381 Z9.300 F2500.000
G1 X-41.108 Y20.192 Z9.300 F2500.000
G1 X-41.015 Y20.015 Z9.300 F2500.000
G1 X-40.894 Y19.855 Z9.300 F2500.000
G1 X-40.749 Y19.718 Z9.300 F2500.000
G1 X-40.583 Y19.607 Z9.300 F2500.000
G1 X-40.401 Y19.525 Z9.300 F2500.000
G1 X-40.208 Y19.475 Z9.300 F2500.000
G1 X-40.009 Y19.457 Z9.300 F2500.000
G1 X-39.809 Y19.456 Z9.300 F2500.000
G1 X40.027 Y19.457 Z9.300 F2500.000
(Break)
G1 X40.000 Y19.156 Z9.300 F2500.000
(part 35.)
G1 X40.000 Y19.156 Z9.300 F2500.000
G1 X40.199 Y19.170 Z9.300 F2500.000
G1 X40.395 Y19.209 Z9.300 F2500.000
G1 X40.584 Y19.275 Z9.300 F2500.000
G1 X40.762 Y19.364 Z9.300 F2500.000
G1 X40.928 Y19.477 Z9.300 F2500.000
G1 X41.076 Y19.611 Z9.300 F2500.000
G1 X41.206 Y19.763 Z9.300 F2500.000
G1 X41.314 Y19.931 Z9.300 F2500.000
G1 X41.399 Y20.112 Z9.300 F2500.000
G1 X41.459 Y20.302 Z9.300 F2500.000
G1 X41.494 Y20.499 Z9.300 F2500.000
G1 X41.502 Y20.699 Z9.300 F2500.000
G1 X41.502 Y27.899 Z9.300 F2500.000
G1 X41.499 Y28.099 Z9.300 F2500.000
G1 X41.473 Y28.297 Z9.300 F2500.000
G1 X41.420 Y28.490 Z9.300 F2500.000
G1 X41.342 Y28.674 Z9.300 F2500.000
G1 X41.241 Y28.846 Z9.300 F2500.000
G1 X41.118 Y29.003 Z9.300 F2500.000
G1 X40.975 Y29.143 Z9.300 F2500.000
G1 X40.814 Y29.262 Z9.300 F2500.000
G1 X40.640 Y29.359 Z9.300 F2500.000
G1 X40.454 Y29.432 Z9.300 F2500.000
G1 X40.259 Y29.480 Z9.300 F2500.000
G1 X40.061 Y29.501 Z9.300 F2500.000
G1 X39.861 Y29.502 Z9.300 F2500.000
G1 X-39.939 Y29.502 Z9.300 F2500.000
G1 X-40.139 Y29.496 Z9.300 F2500.000
G1 X-40.336 Y29.464 Z9.300 F2500.000
G1 X-40.528 Y29.406 Z9.300 F2500.000
G1 X-40.710 Y29.324 Z9.300 F2500.000
G1 X-40.879 Y29.218 Z9.300 F2500.000
G1 X-41.033 Y29.090 Z9.300 F2500.000
G1 X-41.169 Y28.944 Z9.300 F2500.000
G1 X-41.284 Y28.780 Z9.300 F2500.000
G1 X-41.376 Y28.603 Z9.300 F2500.000
G1 X-41.444 Y28.415 Z9.300 F2500.000
G1 X-41.486 Y28.220 Z9.300 F2500.000
G1 X-41.502 Y28.020 Z9.300 F2500.000
G1 X-41.502 Y20.820 Z9.300 F2500.000
G1 X-41.502 Y20.620 Z9.300 F2500.000
G1 X-41.483 Y20.421 Z9.300 F2500.000
G1 X-41.439 Y20.227 Z9.300 F2500.000
G1 X-41.369 Y20.039 Z9.300 F2500.000
G1 X-41.274 Y19.863 Z9.300 F2500.000
G1 X-41.157 Y19.701 Z9.300 F2500.000
G1 X-41.020 Y19.556 Z9.300 F2500.000
G1 X-40.865 Y19.430 Z9.300 F2500.000
G1 X-40.694 Y19.326 Z9.300 F2500.000
G1 X-40.511 Y19.246 Z9.300 F2500.000
G1 X-40.319 Y19.191 Z9.300 F2500.000
G1 X-40.121 Y19.161 Z9.300 F2500.000
G1 X-39.921 Y19.156 Z9.300 F2500.000
G1 X40.000 Y19.156 Z9.300 F2500.000
(End of step 0.)
G0 Z17.300
(Finish operation: Surface004)
(Begin operation: Surface001)
(Path: Surface001)
(Surface001)
(Surface001)
(Tool type: ballend)
(Compensated Tool Path. Diameter: 3.0)
(Sample interval: 0.1)
(Step over %: 20.0)
()
G0 Z17.300
(Beginning of Single-pass layer.)
G0 X80.297 Y14.703
(Begin step 0.)
(part 1.)
G1 X80.297 Y14.703 Z4.246 F2500.000
G1 X80.297 Y14.799 Z4.247 F2500.000
G1 X80.297 Y15.283 Z4.246 F2500.000
G1 X80.292 Y15.297 Z4.246 F2500.000
G1 X54.712 Y15.297 Z4.246 F2500.000
G1 X54.703 Y15.286 Z4.246 F2500.000
G1 X54.703 Y14.706 Z4.246 F2500.000
G1 X54.719 Y14.703 Z4.246 F2500.000
G1 X80.297 Y14.703 Z4.246 F2500.000
(Break)
G1 X80.897 Y14.103 Z4.237 F2500.000
(part 3.)
G1 X80.897 Y14.103 Z4.237 F2500.000
G1 X80.897 Y14.202 Z4.239 F2500.000
G1 X80.897 Y14.993 Z4.248 F2500.000
G1 X80.897 Y15.388 Z4.245 F2500.000
G1 X80.897 Y15.883 Z4.237 F2500.000
G1 X80.892 Y15.897 Z4.237 F2500.000
G1 X54.112 Y15.897 Z4.237 F2500.000
G1 X54.103 Y15.886 Z4.237 F2500.000
G1 X54.103 Y15.392 Z4.245 F2500.000
G1 X54.103 Y14.996 Z4.248 F2500.000
G1 X54.103 Y14.106 Z4.237 F2500.000
G1 X54.119 Y14.103 Z4.237 F2500.000
G1 X80.897 Y14.103 Z4.237 F2500.000
(Break)
G1 X81.497 Y13.503 Z4.218 F2500.000
(part 5.)
G1 X81.497 Y13.503 Z4.218 F2500.000
G1 X81.497 Y13.602 Z4.221 F2500.000
G1 X81.497 Y14.297 Z4.241 F2500.000
G1 X81.497 Y14.993 Z4.248 F2500.000
G1 X81.497 Y15.688 Z4.241 F2500.000
G1 X81.497 Y16.483 Z4.218 F2500.000
G1 X81.492 Y16.497 Z4.218 F2500.000
G1 X53.512 Y16.497 Z4.218 F2500.000
G1 X53.503 Y16.486 Z4.218 F2500.000
G1 X53.503 Y15.692 Z4.241 F2500.000
G1 X53.503 Y14.996 Z4.248 F2500.000
G1 X53.503 Y14.301 Z4.241 F2500.000
G1 X53.503 Y13.506 Z4.218 F2500.000
G1 X53.519 Y13.503 Z4.218 F2500.000
G1 X81.497 Y13.503 Z4.218 F2500.000
(Break)
G1 X82.097 Y12.903 Z4.189 F2500.000
(part 7.)
G1 X82.097 Y12.903 Z4.189 F2500.000
G1 X82.097 Y13.002 Z4.195 F2500.000
G1 X82.097 Y13.400 Z4.214 F2500.000
G1 X82.097 Y13.998 Z4.234 F2500.000
G1 X82.097 Y14.396 Z4.243 F2500.000
G1 X82.097 Y14.993 Z4.248 F2500.000
G1 X82.097 Y15.391 Z4.245 F2500.000
G1 X82.097 Y15.988 Z4.235 F2500.000
G1 X82.097 Y16.585 Z4.214 F2500.000
G1 X82.097 Y17.083 Z4.190 F2500.000
G1 X82.092 Y17.097 Z4.189 F2500.000
G1 X52.912 Y17.097 Z4.189 F2500.000
G1 X52.903 Y17.086 Z4.190 F2500.000
G1 X52.903 Y16.589 Z4.214 F2500.000
G1 X52.903 Y15.991 Z4.235 F2500.000
G1 X52.903 Y15.593 Z4.243 F2500.000
G1 X52.903 Y14.996 Z4.248 F2500.000
G1 X52.903 Y14.300 Z4.241 F2500.000
G1 X52.903 Y13.702 Z4.225 F2500.000
G1 X52.903 Y12.906 Z4.189 F2500.000
G1 X52.919 Y12.903 Z4.189 F2500.000
G1 X82.097 Y12.903 Z4.189 F2500.000
(Break)
G1 X82.697 Y12.303 Z4.151 F2500.000
(part 9.)
G1 X82.697 Y12.303 Z4.151 F2500.000
G1 X82.697 Y12.402 Z4.158 F2500.000
G1 X82.697 Y13.000 Z4.194 F2500.000
G1 X82.697 Y13.698 Z4.225 F2500.000
G1 X82.697 Y14.295 Z4.241 F2500.000
G1 X82.697 Y14.993 Z4.248 F2500.000
G1 X82.697 Y15.690 Z4.241 F2500.000
G1 X82.697 Y16.288 Z4.225 F2500.000
G1 X82.697 Y16.985 Z4.195 F2500.000
G1 X82.697 Y17.683 Z4.152 F2500.000
G1 X82.692 Y17.697 Z4.151 F2500.000
G1 X52.312 Y17.697 Z4.151 F2500.000
G1 X52.303 Y17.686 Z4.152 F2500.000
G1 X52.303 Y16.989 Z4.195 F2500.000
G1 X52.303 Y16.291 Z4.225 F2500.000
G1 X52.303 Y15.694 Z4.241 F2500.000
G1 X52.303 Y14.996 Z4.248 F2500.000
G1 X52.303 Y14.299 Z4.241 F2500.000
G1 X52.303 Y13.601 Z4.221 F2500.000
G1 X52.303 Y13.004 Z4.195 F2500.000
G1 X52.303 Y12.306 Z4.151 F2500.000
G1 X52.319 Y12.303 Z4.151 F2500.000
G1 X82.697 Y12.303 Z4.151 F2500.000
(Break)
G1 X83.297 Y11.703 Z4.103 F2500.000
(part 11.)
G1 X83.297 Y11.703 Z4.103 F2500.000
G1 X83.297 Y11.802 Z4.112 F2500.000
G1 X83.297 Y12.301 Z4.151 F2500.000
G1 X83.297 Y12.700 Z4.177 F2500.000
G1 X83.297 Y13.398 Z4.213 F2500.000
G1 X83.297 Y14.295 Z4.241 F2500.000
G1 X83.297 Y14.993 Z4.248 F2500.000
G1 X83.297 Y15.392 Z4.245 F2500.000
G1 X83.297 Y15.990 Z4.235 F2500.000
G1 X83.297 Y16.688 Z4.210 F2500.000
G1 X83.297 Y17.585 Z4.159 F2500.000
G1 X83.297 Y18.283 Z4.105 F2500.000
G1 X83.292 Y18.297 Z4.103 F2500.000
G1 X51.712 Y18.297 Z4.103 F2500.000
G1 X51.703 Y18.286 Z4.104 F2500.000
G1 X51.703 Y17.588 Z4.159 F2500.000
G1 X51.703 Y16.691 Z4.210 F2500.000
G1 X51.703 Y15.993 Z4.234 F2500.000
G1 X51.703 Y15.594 Z4.243 F2500.000
G1 X51.703 Y14.996 Z4.248 F2500.000
G1 X51.703 Y14.597 Z4.245 F2500.000
G1 X51.703 Y14.099 Z4.237 F2500.000
G1 X51.703 Y13.301 Z4.209 F2500.000
G1 X51.703 Y12.703 Z4.178 F2500.000
G1 X51.703 Y12.404 Z4.158 F2500.000
G1 X51.703 Y11.706 Z4.104 F2500.000
G1 X51.719 Y11.703 Z4.103 F2500.000
G1 X83.297 Y11.703 Z4.103 F2500.000
(Break)
G1 X83.897 Y11.103 Z4.046 F2500.000
(part 13.)
G1 X83.897 Y11.103 Z4.046 F2500.000
G1 X83.897 Y11.202 Z4.056 F2500.000
G1 X83.897 Y11.701 Z4.103 F2500.000
G1 X83.897 Y12.100 Z4.136 F2500.000
G1 X83.897 Y12.699 Z4.177 F2500.000
G1 X83.897 Y13.098 Z4.199 F2500.000
G1 X83.897 Y13.596 Z4.221 F2500.000
G1 X83.897 Y13.995 Z4.234 F2500.000
G1 X83.897 Y14.394 Z4.243 F2500.000
G1 X83.897 Y14.993 Z4.248 F2500.000
G1 X83.897 Y15.392 Z4.245 F2500.000
G1 X83.897 Y15.990 Z4.235 F2500.000
G1 X83.897 Y16.589 Z4.214 F2500.000
G1 X83.897 Y16.988 Z4.195 F2500.000
G1 X83.897 Y17.586 Z4.159 F2500.000
G1 X83.897 Y17.985 Z4.129 F2500.000
G1 X83.897 Y18.284 Z4.104 F2500.000
G1 X83.897 Y18.883 Z4.047 F2500.000
G1 X83.892 Y18.897 Z4.046 F2500.000
G1 X51.112 Y18.897 Z4.046 F2500.000
G1 X51.103 Y18.886 Z4.047 F2500.000
G1 X51.103 Y18.288 Z4.104 F2500.000
G1 X51.103 Y17.989 Z4.129 F2500.000
G1 X51.103 Y17.590 Z4.159 F2500.000
G1 X51.103 Y16.991 Z4.195 F2500.000
G1 X51.103 Y16.592 Z4.214 F2500.000
G1 X51.103 Y15.994 Z4.234 F2500.000
G1 X51.103 Y15.595 Z4.243 F2500.000
G1 X51.103 Y14.996 Z4.248 F2500.000
G1 X51.103 Y14.398 Z4.243 F2500.000
G1 X51.103 Y13.999 Z4.234 F2500.000
G1 X51.103 Y13.400 Z4.214 F2500.000
G1 X51.103 Y13.001 Z4.195 F2500.000
G1 X51.103 Y12.403 Z4.158 F2500.000
G1 X51.103 Y12.004 Z4.128 F2500.000
G1 X51.103 Y11.106 Z4.046 F2500.000
G1 X51.119 Y11.103 Z4.046 F2500.000
G1 X83.897 Y11.103 Z4.046 F2500.000
(Break)
G1 X84.497 Y10.503 Z3.979 F2500.000
(part 15.)
G1 X84.497 Y10.503 Z3.979 F2500.000
G1 X84.497 Y10.603 Z3.990 F2500.000
G1 X84.497 Y11.101 Z4.046 F2500.000
G1 X84.497 Y11.700 Z4.103 F2500.000
G1 X84.497 Y12.099 Z4.136 F2500.000
G1 X84.497 Y12.698 Z4.177 F2500.000
G1 X84.497 Y13.297 Z4.209 F2500.000
G1 X84.497 Y13.696 Z4.225 F2500.000
G1 X84.497 Y14.294 Z4.241 F2500.000
G1 X84.497 Y14.993 Z4.248 F2500.000
G1 X84.497 Y15.392 Z4.245 F2500.000
G1 X84.497 Y15.991 Z4.235 F2500.000
G1 X84.497 Y16.689 Z4.210 F2500.000
G1 X84.497 Y17.288 Z4.178 F2500.000
G1 X84.497 Y17.687 Z4.152 F2500.000
G1 X84.497 Y18.285 Z4.104 F2500.000
G1 X84.497 Y18.984 Z4.037 F2500.000
G1 X84.497 Y19.483 Z3.980 F2500.000
G1 X84.492 Y19.497 Z3.979 F2500.000
G1 X50.512 Y19.497 Z3.979 F2500.000
G1 X50.503 Y19.486 Z3.980 F2500.000
G1 X50.503 Y18.888 Z4.047 F2500.000
G1 X50.503 Y18.289 Z4.104 F2500.000
G1 X50.503 Y17.690 Z4.151 F2500.000
G1 X50.503 Y17.291 Z4.178 F2500.000
G1 X50.503 Y16.692 Z4.209 F2500.000
G1 X50.503 Y15.994 Z4.234 F2500.000
G1 X50.503 Y15.595 Z4.243 F2500.000
G1 X50.503 Y14.996 Z4.248 F2500.000
G1 X50.503 Y14.298 Z4.241 F2500.000
G1 X50.503 Y13.699 Z4.225 F2500.000
G1 X50.503 Y13.300 Z4.209 F2500.000
G1 X50.503 Y12.701 Z4.178 F2500.000
G1 X50.503 Y12.103 Z4.136 F2500.000
G1 X50.503 Y11.704 Z4.103 F2500.000
G1 X50.503 Y11.105 Z4.046 F2500.000
G1 X50.503 Y10.506 Z3.979 F2500.000
G1 X50.519 Y10.503 Z3.979 F2500.000
G1 X84.497 Y10.503 Z3.979 F2500.000
(Break)
G1 X85.097 Y9.903 Z3.902 F2500.000
(part 17.)
G1 X85.097 Y9.903 Z3.902 F2500.000
G1 X85.097 Y10.003 Z3.915 F2500.000
G1 X85.097 Y10.502 Z3.978 F2500.000
G1 X85.097 Y11.100 Z4.046 F2500.000
G1 X85.097 Y11.699 Z4.103 F2500.000
G1 X85.097 Y12.398 Z4.158 F2500.000
G1 X85.097 Y12.997 Z4.194 F2500.000
G1 X85.097 Y13.695 Z4.225 F2500.000
G1 X85.097 Y14.294 Z4.241 F2500.000
G1 X85.097 Y14.993 Z4.248 F2500.000
G1 X85.097 Y15.691 Z4.241 F2500.000
G1 X85.097 Y16.290 Z4.225 F2500.000
G1 X85.097 Y16.989 Z4.195 F2500.000
G1 X85.097 Y17.588 Z4.159 F2500.000
G1 X85.097 Y18.286 Z4.104 F2500.000
G1 X85.097 Y18.885 Z4.047 F2500.000
G1 X85.097 Y19.584 Z3.968 F2500.000
G1 X85.097 Y20.083 Z3.904 F2500.000
G1 X85.092 Y20.097 Z3.902 F2500.000
G1 X49.912 Y20.097 Z3.902 F2500.000
G1 X49.903 Y20.086 Z3.903 F2500.000
G1 X49.903 Y19.587 Z3.968 F2500.000
G1 X49.903 Y18.889 Z4.047 F2500.000
G1 X49.903 Y18.290 Z4.104 F2500.000
G1 X49.903 Y17.591 Z4.158 F2500.000
G1 X49.903 Y16.992 Z4.195 F2500.000
G1 X49.903 Y16.294 Z4.225 F2500.000
G1 X49.903 Y15.695 Z4.241 F2500.000
G1 X49.903 Y14.996 Z4.248 F2500.000
G1 X49.903 Y14.298 Z4.241 F2500.000
G1 X49.903 Y13.699 Z4.225 F2500.000
G1 X49.903 Y13.000 Z4.194 F2500.000
G1 X49.903 Y12.401 Z4.158 F2500.000
G1 X49.903 Y11.703 Z4.103 F2500.000
G1 X49.903 Y11.104 Z4.046 F2500.000
G1 X49.903 Y10.405 Z3.967 F2500.000
G1 X49.903 Y9.906 Z3.902 F2500.000
G1 X49.919 Y9.903 Z3.902 F2500.000
G1 X85.097 Y9.903 Z3.902 F2500.000
(Break)
G1 X85.697 Y9.303 Z3.815 F2500.000
(part 19.)
G1 X85.697 Y9.303 Z3.815 F2500.000
G1 X85.697 Y9.403 Z3.830 F2500.000
G1 X85.697 Y10.101 Z3.928 F2500.000
G1 X85.697 Y10.700 Z4.002 F2500.000
G1 X85.697 Y11.399 Z4.075 F2500.000
G1 X85.697 Y12.098 Z4.136 F2500.000
G1 X85.697 Y12.697 Z4.177 F2500.000
G1 X85.697 Y13.096 Z4.199 F2500.000
G1 X85.697 Y13.595 Z4.221 F2500.000
G1 X85.697 Y14.294 Z4.241 F2500.000
G1 X85.697 Y14.993 Z4.248 F2500.000
G1 X85.697 Y15.692 Z4.241 F2500.000
G1 X85.697 Y16.390 Z4.222 F2500.000
G1 X85.697 Y16.889 Z4.200 F2500.000
G1 X85.697 Y17.289 Z4.178 F2500.000
G1 X85.697 Y17.888 Z4.137 F2500.000
G1 X85.697 Y18.586 Z4.077 F2500.000
G1 X85.697 Y19.285 Z4.004 F2500.000
G1 X85.697 Y19.984 Z3.917 F2500.000
G1 X85.697 Y20.683 Z3.817 F2500.000
G1 X85.692 Y20.697 Z3.815 F2500.000
G1 X49.312 Y20.697 Z3.815 F2500.000
G1 X49.303 Y20.686 Z3.817 F2500.000
G1 X49.303 Y19.987 Z3.917 F2500.000
G1 X49.303 Y19.289 Z4.003 F2500.000
G1 X49.303 Y18.590 Z4.076 F2500.000
G1 X49.303 Y17.891 Z4.137 F2500.000
G1 X49.303 Y17.292 Z4.178 F2500.000
G1 X49.303 Y16.893 Z4.200 F2500.000
G1 X49.303 Y16.394 Z4.222 F2500.000
G1 X49.303 Y15.695 Z4.241 F2500.000
G1 X49.303 Y14.996 Z4.248 F2500.000
G1 X49.303 Y14.297 Z4.241 F2500.000
G1 X49.303 Y13.599 Z4.221 F2500.000
G1 X49.303 Y13.100 Z4.199 F2500.000
G1 X49.303 Y12.700 Z4.177 F2500.000
G1 X49.303 Y12.101 Z4.136 F2500.000
G1 X49.303 Y11.403 Z4.076 F2500.000
G1 X49.303 Y10.704 Z4.002 F2500.000
G1 X49.303 Y10.105 Z3.929 F2500.000
G1 X49.303 Y9.306 Z3.816 F2500.000
G1 X49.319 Y9.303 Z3.815 F2500.000
G1 X85.697 Y9.303 Z3.815 F2500.000
(Break)
G1 X86.297 Y8.703 Z3.719 F2500.000
(part 21.)
G1 X86.297 Y8.703 Z3.719 F2500.000
G1 X86.297 Y8.803 Z3.736 F2500.000
G1 X86.297 Y9.202 Z3.800 F2500.000
G1 X86.297 Y9.701 Z3.874 F2500.000
G1 X86.297 Y10.400 Z3.966 F2500.000
G1 X86.297 Y11.099 Z4.045 F2500.000
G1 X86.297 Y11.398 Z4.075 F2500.000
G1 X86.297 Y11.998 Z4.128 F2500.000
G1 X86.297 Y12.696 Z4.177 F2500.000
G1 X86.297 Y13.395 Z4.213 F2500.000
G1 X86.297 Y14.294 Z4.241 F2500.000
G1 X86.297 Y14.993 Z4.248 F2500.000
G1 X86.297 Y15.392 Z4.245 F2500.000
G1 X86.297 Y15.991 Z4.235 F2500.000
G1 X86.297 Y16.690 Z4.210 F2500.000
G1 X86.297 Y17.589 Z4.159 F2500.000
G1 X86.297 Y18.288 Z4.104 F2500.000
G1 X86.297 Y18.986 Z4.036 F2500.000
G1 X86.297 Y19.585 Z3.968 F2500.000
G1 X86.297 Y19.885 Z3.930 F2500.000
G1 X86.297 Y20.584 Z3.832 F2500.000
G1 X86.297 Y21.283 Z3.721 F2500.000
G1 X86.292 Y21.297 Z3.719 F2500.000
G1 X48.712 Y21.297 Z3.719 F2500.000
G1 X48.703 Y21.286 Z3.720 F2500.000
G1 X48.703 Y20.587 Z3.832 F2500.000
G1 X48.703 Y19.888 Z3.930 F2500.000
G1 X48.703 Y19.589 Z3.968 F2500.000
G1 X48.703 Y18.990 Z4.036 F2500.000
G1 X48.703 Y18.291 Z4.104 F2500.000
G1 X48.703 Y17.892 Z4.136 F2500.000
G1 X48.703 Y17.293 Z4.178 F2500.000
G1 X48.703 Y16.594 Z4.214 F2500.000
G1 X48.703 Y15.695 Z4.241 F2500.000
G1 X48.703 Y14.996 Z4.248 F2500.000
G1 X48.703 Y14.297 Z4.241 F2500.000
G1 X48.703 Y13.399 Z4.213 F2500.000
G1 X48.703 Y12.700 Z4.177 F2500.000
G1 X48.703 Y12.301 Z4.151 F2500.000
G1 X48.703 Y11.801 Z4.112 F2500.000
G1 X48.703 Y11.102 Z4.046 F2500.000
G1 X48.703 Y10.404 Z3.967 F2500.000
G1 X48.703 Y10.004 Z3.915 F2500.000
G1 X48.703 Y9.505 Z3.845 F2500.000
G1 X48.703 Y8.706 Z3.719 F2500.000
G1 X48.719 Y8.703 Z3.719 F2500.000
G1 X86.297 Y8.703 Z3.719 F2500.000
(Break)
G1 X86.897 Y8.103 Z3.612 F2500.000
(part 23.)
G1 X86.897 Y8.103 Z3.612 F2500.000
G1 X86.897 Y8.203 Z3.631 F2500.000
G1 X86.897 Y8.702 Z3.718 F2500.000
G1 X86.897 Y9.101 Z3.784 F2500.000
G1 X86.897 Y9.501 Z3.845 F2500.000
G1 X86.897 Y10.000 Z3.915 F2500.000
G1 X86.897 Y10.799 Z4.013 F2500.000
G1 X86.897 Y11.298 Z4.065 F2500.000
G1 X86.897 Y11.698 Z4.103 F2500.000
G1 X86.897 Y12.097 Z4.136 F2500.000
G1 X86.897 Y12.696 Z4.177 F2500.000
G1 X86.897 Y13.395 Z4.213 F2500.000
G1 X86.897 Y14.294 Z4.241 F2500.000
G1 X86.897 Y14.993 Z4.248 F2500.000
G1 X86.897 Y15.392 Z4.245 F2500.000
G1 X86.897 Y15.991 Z4.235 F2500.000
G1 X86.897 Y16.690 Z4.210 F2500.000
G1 X86.897 Y17.289 Z4.178 F2500.000
G1 X86.897 Y17.589 Z4.159 F2500.000
G1 X86.897 Y17.988 Z4.129 F2500.000
G1 X86.897 Y18.588 Z4.077 F2500.000
G1 X86.897 Y18.987 Z4.036 F2500.000
G1 X86.897 Y19.586 Z3.968 F2500.000
G1 X86.897 Y20.285 Z3.876 F2500.000
G1 X86.897 Y20.884 Z3.786 F2500.000
G1 X86.897 Y21.184 Z3.738 F2500.000
G1 X86.897 Y21.883 Z3.615 F2500.000
G1 X86.892 Y21.897 Z3.612 F2500.000
G1 X48.112 Y21.897 Z3.612 F2500.000
G1 X48.103 Y21.886 Z3.614 F2500.000
G1 X48.103 Y21.187 Z3.737 F2500.000
G1 X48.103 Y20.888 Z3.786 F2500.000
G1 X48.103 Y20.289 Z3.875 F2500.000
G1 X48.103 Y19.590 Z3.968 F2500.000
G1 X48.103 Y18.990 Z4.036 F2500.000
G1 X48.103 Y18.591 Z4.076 F2500.000
G1 X48.103 Y17.992 Z4.129 F2500.000
G1 X48.103 Y17.592 Z4.158 F2500.000
G1 X48.103 Y17.293 Z4.178 F2500.000
G1 X48.103 Y16.694 Z4.209 F2500.000
G1 X48.103 Y15.895 Z4.237 F2500.000
G1 X48.103 Y15.396 Z4.245 F2500.000
G1 X48.103 Y14.996 Z4.248 F2500.000
G1 X48.103 Y14.597 Z4.245 F2500.000
G1 X48.103 Y14.098 Z4.237 F2500.000
G1 X48.103 Y13.299 Z4.209 F2500.000
G1 X48.103 Y12.700 Z4.177 F2500.000
G1 X48.103 Y12.400 Z4.158 F2500.000
G1 X48.103 Y12.001 Z4.128 F2500.000
G1 X48.103 Y11.401 Z4.076 F2500.000
G1 X48.103 Y10.702 Z4.002 F2500.000
G1 X48.103 Y10.403 Z3.967 F2500.000
G1 X48.103 Y9.804 Z3.888 F2500.000
G1 X48.103 Y9.105 Z3.785 F2500.000
G1 X48.103 Y8.506 Z3.685 F2500.000
G1 X48.103 Y8.106 Z3.613 F2500.000
G1 X48.119 Y8.103 Z3.612 F2500.000
G1 X86.897 Y8.103 Z3.612 F2500.000
(Break)
G1 X87.497 Y7.503 Z3.496 F2500.000
(part 25.)
G1 X87.497 Y7.503 Z3.496 F2500.000
G1 X87.497 Y7.603 Z3.516 F2500.000
G1 X87.497 Y8.102 Z3.612 F2500.000
G1 X87.497 Y8.501 Z3.684 F2500.000
G1 X87.497 Y9.101 Z3.784 F2500.000
G1 X87.497 Y9.500 Z3.845 F2500.000
G1 X87.497 Y9.999 Z3.915 F2500.000
G1 X87.497 Y10.399 Z3.966 F2500.000
G1 X87.497 Y10.798 Z4.013 F2500.000
G1 X87.497 Y11.398 Z4.075 F2500.000
G1 X87.497 Y11.997 Z4.128 F2500.000
G1 X87.497 Y12.396 Z4.158 F2500.000
G1 X87.497 Y12.796 Z4.183 F2500.000
G1 X87.497 Y13.295 Z4.209 F2500.000
G1 X87.497 Y14.094 Z4.236 F2500.000
G1 X87.497 Y14.593 Z4.245 F2500.000
G1 X87.497 Y14.993 Z4.248 F2500.000
G1 X87.497 Y15.392 Z4.245 F2500.000
G1 X87.497 Y15.991 Z4.235 F2500.000
G1 X87.497 Y16.391 Z4.222 F2500.000
G1 X87.497 Y16.890 Z4.200 F2500.000
G1 X87.497 Y17.689 Z4.151 F2500.000
G1 X87.497 Y18.288 Z4.104 F2500.000
G1 X87.497 Y18.688 Z4.067 F2500.000
G1 X87.497 Y19.187 Z4.014 F2500.000
G1 X87.497 Y19.587 Z3.968 F2500.000
G1 X87.497 Y20.186 Z3.890 F2500.000
G1 X87.497 Y20.585 Z3.832 F2500.000
G1 X87.497 Y21.184 Z3.738 F2500.000
G1 X87.497 Y21.584 Z3.669 F2500.000
G1 X87.497 Y22.183 Z3.558 F2500.000
G1 X87.497 Y22.483 Z3.499 F2500.000
G1 X87.492 Y22.497 Z3.496 F2500.000
G1 X47.512 Y22.497 Z3.496 F2500.000
G1 X47.503 Y22.486 Z3.498 F2500.000
G1 X47.503 Y22.187 Z3.557 F2500.000
G1 X47.503 Y21.587 Z3.668 F2500.000
G1 X47.503 Y21.188 Z3.737 F2500.000
G1 X47.503 Y20.589 Z3.832 F2500.000
G1 X47.503 Y20.189 Z3.889 F2500.000
G1 X47.503 Y19.590 Z3.968 F2500.000
G1 X47.503 Y19.191 Z4.014 F2500.000
G1 X47.503 Y18.691 Z4.066 F2500.000
G1 X47.503 Y17.892 Z4.136 F2500.000
G1 X47.503 Y17.293 Z4.178 F2500.000
G1 X47.503 Y16.894 Z4.200 F2500.000
G1 X47.503 Y16.394 Z4.222 F2500.000
G1 X47.503 Y15.995 Z4.234 F2500.000
G1 X47.503 Y15.595 Z4.243 F2500.000
G1 X47.503 Y14.996 Z4.248 F2500.000
G1 X47.503 Y14.397 Z4.243 F2500.000
G1 X47.503 Y13.998 Z4.234 F2500.000
G1 X47.503 Y13.598 Z4.221 F2500.000
G1 X47.503 Y13.099 Z4.199 F2500.000
G1 X47.503 Y12.699 Z4.177 F2500.000
G1 X47.503 Y12.100 Z4.136 F2500.000
G1 X47.503 Y11.301 Z4.066 F2500.000
G1 X47.503 Y10.802 Z4.013 F2500.000
G1 X47.503 Y10.402 Z3.967 F2500.000
G1 X47.503 Y9.803 Z3.888 F2500.000
G1 X47.503 Y9.404 Z3.831 F2500.000
G1 X47.503 Y9.104 Z3.784 F2500.000
G1 X47.503 Y8.505 Z3.685 F2500.000
G1 X47.503 Y8.105 Z3.613 F2500.000
G1 X47.503 Y7.506 Z3.497 F2500.000
G1 X47.519 Y7.503 Z3.496 F2500.000
G1 X87.497 Y7.503 Z3.496 F2500.000
(Break)
G1 X88.097 Y6.903 Z3.369 F2500.000
(part 27.)
G1 X88.097 Y6.903 Z3.369 F2500.000
G1 X88.097 Y7.003 Z3.391 F2500.000
G1 X88.097 Y7.502 Z3.496 F2500.000
G1 X88.097 Y8.101 Z3.612 F2500.000
G1 X88.097 Y8.501 Z3.684 F2500.000
G1 X88.097 Y9.100 Z3.784 F2500.000
G1 X88.097 Y9.699 Z3.874 F2500.000
G1 X88.097 Y10.099 Z3.928 F2500.000
G1 X88.097 Y10.498 Z3.978 F2500.000
G1 X88.097 Y10.998 Z4.035 F2500.000
G1 X88.097 Y11.397 Z4.075 F2500.000
G1 X88.097 Y11.996 Z4.128 F2500.000
G1 X88.097 Y12.396 Z4.158 F2500.000
G1 X88.097 Y12.995 Z4.194 F2500.000
G1 X88.097 Y13.395 Z4.213 F2500.000
G1 X88.097 Y13.994 Z4.234 F2500.000
G1 X88.097 Y14.393 Z4.243 F2500.000
G1 X88.097 Y14.993 Z4.248 F2500.000
G1 X88.097 Y15.392 Z4.245 F2500.000
G1 X88.097 Y15.992 Z4.235 F2500.000
G1 X88.097 Y16.591 Z4.214 F2500.000
G1 X88.097 Y16.990 Z4.195 F2500.000
G1 X88.097 Y17.590 Z4.159 F2500.000
G1 X88.097 Y17.989 Z4.129 F2500.000
G1 X88.097 Y18.588 Z4.077 F2500.000
G1 X88.097 Y18.988 Z4.036 F2500.000
G1 X88.097 Y19.587 Z3.968 F2500.000
G1 X88.097 Y20.186 Z3.890 F2500.000
G1 X88.097 Y20.586 Z3.832 F2500.000
G1 X88.097 Y21.185 Z3.738 F2500.000
G1 X88.097 Y21.585 Z3.669 F2500.000
G1 X88.097 Y22.184 Z3.558 F2500.000
G1 X88.097 Y22.583 Z3.478 F2500.000
G1 X88.097 Y23.083 Z3.372 F2500.000
G1 X88.092 Y23.097 Z3.369 F2500.000
G1 X46.912 Y23.097 Z3.369 F2500.000
G1 X46.903 Y23.086 Z3.371 F2500.000
G1 X46.903 Y22.587 Z3.477 F2500.000
G1 X46.903 Y22.187 Z3.557 F2500.000
G1 X46.903 Y21.588 Z3.668 F2500.000
G1 X46.903 Y20.989 Z3.769 F2500.000
G1 X46.903 Y20.489 Z3.846 F2500.000
G1 X46.903 Y19.890 Z3.930 F2500.000
G1 X46.903 Y19.591 Z3.968 F2500.000
G1 X46.903 Y18.991 Z4.036 F2500.000
G1 X46.903 Y18.592 Z4.076 F2500.000
G1 X46.903 Y17.993 Z4.129 F2500.000
G1 X46.903 Y17.593 Z4.158 F2500.000
G1 X46.903 Y16.994 Z4.195 F2500.000
G1 X46.903 Y16.594 Z4.214 F2500.000
G1 X46.903 Y15.995 Z4.234 F2500.000
G1 X46.903 Y15.596 Z4.243 F2500.000
G1 X46.903 Y14.996 Z4.248 F2500.000
G1 X46.903 Y14.397 Z4.243 F2500.000
G1 X46.903 Y13.997 Z4.234 F2500.000
G1 X46.903 Y13.398 Z4.213 F2500.000
G1 X46.903 Y12.999 Z4.194 F2500.000
G1 X46.903 Y12.399 Z4.158 F2500.000
G1 X46.903 Y12.000 Z4.128 F2500.000
G1 X46.903 Y11.401 Z4.076 F2500.000
G1 X46.903 Y11.001 Z4.035 F2500.000
G1 X46.903 Y10.402 Z3.967 F2500.000
G1 X46.903 Y9.803 Z3.888 F2500.000
G1 X46.903 Y9.403 Z3.830 F2500.000
G1 X46.903 Y8.804 Z3.736 F2500.000
G1 X46.903 Y8.404 Z3.667 F2500.000
G1 X46.903 Y7.805 Z3.556 F2500.000
G1 X46.903 Y7.406 Z3.476 F2500.000
G1 X46.903 Y6.906 Z3.370 F2500.000
G1 X46.919 Y6.903 Z3.369 F2500.000
G1 X88.097 Y6.903 Z3.369 F2500.000
(Break)
G1 X88.697 Y6.303 Z3.232 F2500.000
(part 29.)
G1 X88.697 Y6.303 Z3.232 F2500.000
G1 X88.697 Y6.403 Z3.256 F2500.000
G1 X88.697 Y6.902 Z3.369 F2500.000
G1 X88.697 Y7.501 Z3.496 F2500.000
G1 X88.697 Y8.101 Z3.612 F2500.000
G1 X88.697 Y8.500 Z3.684 F2500.000
G1 X88.697 Y9.100 Z3.784 F2500.000
G1 X88.697 Y9.699 Z3.873 F2500.000
G1 X88.697 Y10.098 Z3.928 F2500.000
G1 X88.697 Y10.698 Z4.002 F2500.000
G1 X88.697 Y11.097 Z4.045 F2500.000
G1 X88.697 Y11.697 Z4.103 F2500.000
G1 X88.697 Y12.096 Z4.136 F2500.000
G1 X88.697 Y12.695 Z4.177 F2500.000
G1 X88.697 Y13.295 Z4.209 F2500.000
G1 X88.697 Y13.694 Z4.225 F2500.000
G1 X88.697 Y14.294 Z4.241 F2500.000
G1 X88.697 Y14.993 Z4.248 F2500.000
G1 X88.697 Y15.392 Z4.245 F2500.000
G1 X88.697 Y15.992 Z4.235 F2500.000
G1 X88.697 Y16.691 Z4.210 F2500.000
G1 X88.697 Y17.290 Z4.178 F2500.000
G1 X88.697 Y17.690 Z4.151 F2500.000
G1 X88.697 Y18.289 Z4.104 F2500.000
G1 X88.697 Y18.888 Z4.047 F2500.000
G1 X88.697 Y19.288 Z4.003 F2500.000
G1 X88.697 Y19.887 Z3.930 F2500.000
G1 X88.697 Y20.287 Z3.876 F2500.000
G1 X88.697 Y20.886 Z3.786 F2500.000
G1 X88.697 Y21.485 Z3.686 F2500.000
G1 X88.697 Y22.184 Z3.558 F2500.000
G1 X88.697 Y22.584 Z3.478 F2500.000
G1 X88.697 Y23.183 Z3.350 F2500.000
G1 X88.697 Y23.683 Z3.236 F2500.000
G1 X88.692 Y23.697 Z3.232 F2500.000
G1 X46.312 Y23.697 Z3.232 F2500.000
G1 X46.303 Y23.686 Z3.235 F2500.000
G1 X46.303 Y23.087 Z3.371 F2500.000
G1 X46.303 Y22.488 Z3.498 F2500.000
G1 X46.303 Y21.888 Z3.614 F2500.000
G1 X46.303 Y21.489 Z3.686 F2500.000
G1 X46.303 Y20.889 Z3.785 F2500.000
G1 X46.303 Y20.290 Z3.875 F2500.000
G1 X46.303 Y19.891 Z3.929 F2500.000
G1 X46.303 Y19.291 Z4.003 F2500.000
G1 X46.303 Y18.892 Z4.046 F2500.000
G1 X46.303 Y18.292 Z4.104 F2500.000
G1 X46.303 Y17.893 Z4.136 F2500.000
G1 X46.303 Y17.294 Z4.178 F2500.000
G1 X46.303 Y16.594 Z4.214 F2500.000
G1 X46.303 Y15.995 Z4.234 F2500.000
G1 X46.303 Y15.596 Z4.243 F2500.000
G1 X46.303 Y14.996 Z4.248 F2500.000
G1 X46.303 Y14.297 Z4.241 F2500.000
G1 X46.303 Y13.698 Z4.225 F2500.000
G1 X46.303 Y13.298 Z4.209 F2500.000
G1 X46.303 Y12.699 Z4.177 F2500.000
G1 X46.303 Y12.100 Z4.136 F2500.000
G1 X46.303 Y11.700 Z4.103 F2500.000
G1 X46.303 Y11.101 Z4.046 F2500.000
G1 X46.303 Y10.701 Z4.002 F2500.000
G1 X46.303 Y10.102 Z3.929 F2500.000
G1 X46.303 Y9.702 Z3.874 F2500.000
G1 X46.303 Y9.103 Z3.784 F2500.000
G1 X46.303 Y8.504 Z3.684 F2500.000
G1 X46.303 Y8.104 Z3.613 F2500.000
G1 X46.303 Y7.505 Z3.496 F2500.000
G1 X46.303 Y6.906 Z3.370 F2500.000
G1 X46.303 Y6.306 Z3.233 F2500.000
G1 X46.319 Y6.303 Z3.232 F2500.000
G1 X88.697 Y6.303 Z3.232 F2500.000
(Break)
G1 X89.297 Y5.703 Z3.085 F2500.000
(part 31.)
G1 X89.297 Y5.703 Z3.085 F2500.000
G1 X89.297 Y5.803 Z3.110 F2500.000
G1 X89.297 Y6.202 Z3.208 F2500.000
G1 X89.297 Y6.901 Z3.369 F2500.000
G1 X89.297 Y7.501 Z3.495 F2500.000
G1 X89.297 Y8.100 Z3.612 F2500.000
G1 X89.297 Y8.700 Z3.718 F2500.000
G1 X89.297 Y9.199 Z3.799 F2500.000
G1 X89.297 Y9.798 Z3.887 F2500.000
G1 X89.297 Y10.398 Z3.966 F2500.000
G1 X89.297 Y10.797 Z4.013 F2500.000
G1 X89.297 Y11.397 Z4.075 F2500.000
G1 X89.297 Y11.996 Z4.128 F2500.000
G1 X89.297 Y12.695 Z4.177 F2500.000
G1 X89.297 Y13.295 Z4.209 F2500.000
G1 X89.297 Y13.694 Z4.225 F2500.000
G1 X89.297 Y14.294 Z4.241 F2500.000
G1 X89.297 Y14.993 Z4.248 F2500.000
G1 X89.297 Y15.392 Z4.245 F2500.000
G1 X89.297 Y15.992 Z4.235 F2500.000
G1 X89.297 Y16.691 Z4.210 F2500.000
G1 X89.297 Y17.290 Z4.178 F2500.000
G1 X89.297 Y17.690 Z4.151 F2500.000
G1 X89.297 Y18.289 Z4.104 F2500.000
G1 X89.297 Y18.889 Z4.047 F2500.000
G1 X89.297 Y19.588 Z3.968 F2500.000
G1 X89.297 Y20.287 Z3.875 F2500.000
G1 X89.297 Y20.886 Z3.786 F2500.000
G1 X89.297 Y21.486 Z3.686 F2500.000
G1 X89.297 Y21.885 Z3.615 F2500.000
G1 X89.297 Y22.485 Z3.498 F2500.000
G1 X89.297 Y23.184 Z3.350 F2500.000
G1 X89.297 Y23.783 Z3.212 F2500.000
G1 X89.297 Y24.283 Z3.089 F2500.000
G1 X89.292 Y24.297 Z3.085 F2500.000
G1 X45.712 Y24.297 Z3.085 F2500.000
G1 X45.703 Y24.286 Z3.088 F2500.000
G1 X45.703 Y23.787 Z3.211 F2500.000
G1 X45.703 Y23.088 Z3.371 F2500.000
G1 X45.703 Y22.488 Z3.498 F2500.000
G1 X45.703 Y21.889 Z3.614 F2500.000
G1 X45.703 Y21.489 Z3.686 F2500.000
G1 X45.703 Y20.890 Z3.785 F2500.000
G1 X45.703 Y20.291 Z3.875 F2500.000
G1 X45.703 Y19.591 Z3.967 F2500.000
G1 X45.703 Y18.892 Z4.046 F2500.000
G1 X45.703 Y18.293 Z4.104 F2500.000
G1 X45.703 Y17.893 Z4.136 F2500.000
G1 X45.703 Y17.294 Z4.178 F2500.000
G1 X45.703 Y16.595 Z4.214 F2500.000
G1 X45.703 Y15.995 Z4.234 F2500.000
G1 X45.703 Y15.596 Z4.243 F2500.000
G1 X45.703 Y14.996 Z4.248 F2500.000
G1 X45.703 Y14.297 Z4.241 F2500.000
G1 X45.703 Y13.698 Z4.225 F2500.000
G1 X45.703 Y13.298 Z4.209 F2500.000
G1 X45.703 Y12.699 Z4.177 F2500.000
G1 X45.703 Y11.999 Z4.128 F2500.000
G1 X45.703 Y11.400 Z4.076 F2500.000
G1 X45.703 Y11.001 Z4.035 F2500.000
G1 X45.703 Y10.401 Z3.966 F2500.000
G1 X45.703 Y9.802 Z3.888 F2500.000
G1 X45.703 Y9.103 Z3.784 F2500.000
G1 X45.703 Y8.503 Z3.684 F2500.000
G1 X45.703 Y8.104 Z3.612 F2500.000
G1 X45.703 Y7.504 Z3.496 F2500.000
G1 X45.703 Y6.905 Z3.370 F2500.000
G1 X45.703 Y6.206 Z3.209 F2500.000
G1 X45.703 Y5.706 Z3.086 F2500.000
G1 X45.719 Y5.703 Z3.085 F2500.000
G1 X89.297 Y5.703 Z3.085 F2500.000
(Break)
G1 X89.897 Y5.103 Z2.927 F2500.000
(part 33.)
G1 X89.897 Y5.103 Z2.927 F2500.000
G1 X89.897 Y5.203 Z2.954 F2500.000
G1 X89.897 Y5.602 Z3.059 F2500.000
G1 X89.897 Y6.202 Z3.208 F2500.000
G1 X89.897 Y6.801 Z3.347 F2500.000
G1 X89.897 Y7.500 Z3.495 F2500.000
G1 X89.897 Y8.100 Z3.612 F2500.000
G1 X89.897 Y8.799 Z3.735 F2500.000
G1 X89.897 Y9.398 Z3.830 F2500.000
G1 X89.897 Y10.098 Z3.928 F2500.000
G1 X89.897 Y10.697 Z4.001 F2500.000
G1 X89.897 Y11.396 Z4.075 F2500.000
G1 X89.897 Y11.996 Z4.128 F2500.000
G1 X89.897 Y12.695 Z4.177 F2500.000
G1 X89.897 Y13.294 Z4.209 F2500.000
G1 X89.897 Y13.694 Z4.225 F2500.000
G1 X89.897 Y14.293 Z4.241 F2500.000
G1 X89.897 Y14.993 Z4.248 F2500.000
G1 X89.897 Y15.692 Z4.241 F2500.000
G1 X89.897 Y16.291 Z4.225 F2500.000
G1 X89.897 Y16.991 Z4.195 F2500.000
G1 X89.897 Y17.590 Z4.159 F2500.000
G1 X89.897 Y18.289 Z4.104 F2500.000
G1 X89.897 Y18.889 Z4.047 F2500.000
G1 X89.897 Y19.588 Z3.968 F2500.000
G1 X89.897 Y19.988 Z3.917 F2500.000
G1 X89.897 Y20.587 Z3.832 F2500.000
G1 X89.897 Y21.186 Z3.737 F2500.000
G1 X89.897 Y21.886 Z3.614 F2500.000
G1 X89.897 Y22.485 Z3.498 F2500.000
G1 X89.897 Y23.184 Z3.350 F2500.000
G1 X89.897 Y23.784 Z3.212 F2500.000
G1 X89.897 Y24.383 Z3.063 F2500.000
G1 X89.897 Y24.883 Z2.931 F2500.000
G1 X89.892 Y24.897 Z2.927 F2500.000
G1 X45.112 Y24.897 Z2.927 F2500.000
G1 X45.103 Y24.886 Z2.930 F2500.000
G1 X45.103 Y24.387 Z3.062 F2500.000
G1 X45.103 Y23.787 Z3.211 F2500.000
G1 X45.103 Y23.188 Z3.349 F2500.000
G1 X45.103 Y22.489 Z3.498 F2500.000
G1 X45.103 Y21.889 Z3.614 F2500.000
G1 X45.103 Y21.190 Z3.737 F2500.000
G1 X45.103 Y20.591 Z3.831 F2500.000
G1 X45.103 Y19.891 Z3.929 F2500.000
G1 X45.103 Y19.292 Z4.003 F2500.000
G1 X45.103 Y18.593 Z4.076 F2500.000
G1 X45.103 Y17.993 Z4.129 F2500.000
G1 X45.103 Y17.394 Z4.171 F2500.000
G1 X45.103 Y16.894 Z4.200 F2500.000
G1 X45.103 Y16.295 Z4.225 F2500.000
G1 X45.103 Y15.696 Z4.241 F2500.000
G1 X45.103 Y14.996 Z4.248 F2500.000
G1 X45.103 Y14.297 Z4.241 F2500.000
G1 X45.103 Y13.698 Z4.225 F2500.000
G1 X45.103 Y13.298 Z4.209 F2500.000
G1 X45.103 Y12.699 Z4.177 F2500.000
G1 X45.103 Y11.999 Z4.128 F2500.000
G1 X45.103 Y11.400 Z4.076 F2500.000
G1 X45.103 Y10.701 Z4.002 F2500.000
G1 X45.103 Y10.101 Z3.928 F2500.000
G1 X45.103 Y9.402 Z3.830 F2500.000
G1 X45.103 Y8.803 Z3.736 F2500.000
G1 X45.103 Y8.103 Z3.612 F2500.000
G1 X45.103 Y7.504 Z3.496 F2500.000
G1 X45.103 Y6.805 Z3.347 F2500.000
G1 X45.103 Y6.205 Z3.209 F2500.000
G1 X45.103 Y5.606 Z3.060 F2500.000
G1 X45.103 Y5.106 Z2.928 F2500.000
G1 X45.119 Y5.103 Z2.927 F2500.000
G1 X89.897 Y5.103 Z2.927 F2500.000
(Break)
G1 X90.497 Y4.503 Z2.759 F2500.000
(part 35.)
G1 X90.497 Y4.503 Z2.759 F2500.000
G1 X90.497 Y4.603 Z2.788 F2500.000
G1 X90.497 Y5.202 Z2.954 F2500.000
G1 X90.497 Y5.901 Z3.135 F2500.000
G1 X90.497 Y6.501 Z3.279 F2500.000
G1 X90.497 Y7.200 Z3.433 F2500.000
G1 X90.497 Y7.800 Z3.555 F2500.000
G1 X90.497 Y8.499 Z3.684 F2500.000
G1 X90.497 Y9.098 Z3.784 F2500.000
G1 X90.497 Y9.798 Z3.887 F2500.000
G1 X90.497 Y10.397 Z3.966 F2500.000
G1 X90.497 Y11.096 Z4.045 F2500.000
G1 X90.497 Y11.696 Z4.103 F2500.000
G1 X90.497 Y12.395 Z4.158 F2500.000
G1 X90.497 Y12.995 Z4.194 F2500.000
G1 X90.497 Y13.694 Z4.225 F2500.000
G1 X90.497 Y14.293 Z4.241 F2500.000
G1 X90.497 Y14.993 Z4.248 F2500.000
G1 X90.497 Y15.692 Z4.241 F2500.000
G1 X90.497 Y16.292 Z4.225 F2500.000
G1 X90.497 Y16.991 Z4.195 F2500.000
G1 X90.497 Y17.590 Z4.158 F2500.000
G1 X90.497 Y18.290 Z4.104 F2500.000
G1 X90.497 Y18.889 Z4.047 F2500.000
G1 X90.497 Y19.588 Z3.968 F2500.000
G1 X90.497 Y20.288 Z3.875 F2500.000
G1 X90.497 Y20.887 Z3.786 F2500.000
G1 X90.497 Y21.586 Z3.669 F2500.000
G1 X90.497 Y22.186 Z3.558 F2500.000
G1 X90.497 Y22.885 Z3.415 F2500.000
G1 X90.497 Y23.485 Z3.282 F2500.000
G1 X90.497 Y24.184 Z3.114 F2500.000
G1 X90.497 Y24.983 Z2.904 F2500.000
G1 X90.497 Y25.483 Z2.763 F2500.000
G1 X90.492 Y25.497 Z2.759 F2500.000
G1 X44.512 Y25.497 Z2.759 F2500.000
G1 X44.503 Y25.486 Z2.762 F2500.000
G1 X44.503 Y24.787 Z2.957 F2500.000
G1 X44.503 Y24.187 Z3.113 F2500.000
G1 X44.503 Y23.488 Z3.281 F2500.000
G1 X44.503 Y22.889 Z3.414 F2500.000
G1 X44.503 Y22.189 Z3.557 F2500.000
G1 X44.503 Y21.590 Z3.668 F2500.000
G1 X44.503 Y20.891 Z3.785 F2500.000
G1 X44.503 Y20.291 Z3.875 F2500.000
G1 X44.503 Y19.592 Z3.967 F2500.000
G1 X44.503 Y18.893 Z4.046 F2500.000
G1 X44.503 Y18.293 Z4.104 F2500.000
G1 X44.503 Y17.594 Z4.158 F2500.000
G1 X44.503 Y16.994 Z4.195 F2500.000
G1 X44.503 Y16.295 Z4.225 F2500.000
G1 X44.503 Y15.696 Z4.241 F2500.000
G1 X44.503 Y14.996 Z4.248 F2500.000
G1 X44.503 Y14.297 Z4.241 F2500.000
G1 X44.503 Y13.697 Z4.225 F2500.000
G1 X44.503 Y12.998 Z4.194 F2500.000
G1 X44.503 Y12.399 Z4.158 F2500.000
G1 X44.503 Y11.699 Z4.103 F2500.000
G1 X44.503 Y11.100 Z4.046 F2500.000
G1 X44.503 Y10.401 Z3.966 F2500.000
G1 X44.503 Y9.701 Z3.874 F2500.000
G1 X44.503 Y9.102 Z3.784 F2500.000
G1 X44.503 Y8.403 Z3.667 F2500.000
G1 X44.503 Y7.803 Z3.555 F2500.000
G1 X44.503 Y7.104 Z3.413 F2500.000
G1 X44.503 Y6.504 Z3.279 F2500.000
G1 X44.503 Y5.905 Z3.136 F2500.000
G1 X44.503 Y5.206 Z2.955 F2500.000
G1 X44.503 Y4.506 Z2.760 F2500.000
G1 X44.519 Y4.503 Z2.759 F2500.000
G1 X90.497 Y4.503 Z2.759 F2500.000
(Break)
G1 X91.097 Y3.903 Z2.580 F2500.000
(part 37.)
G1 X91.097 Y3.903 Z2.580 F2500.000
G1 X91.097 Y4.003 Z2.611 F2500.000
G1 X91.097 Y4.602 Z2.788 F2500.000
G1 X91.097 Y5.301 Z2.981 F2500.000
G1 X91.097 Y5.901 Z3.135 F2500.000
G1 X91.097 Y6.600 Z3.301 F2500.000
G1 X91.097 Y7.400 Z3.475 F2500.000
G1 X91.097 Y8.099 Z3.612 F2500.000
G1 X91.097 Y8.798 Z3.735 F2500.000
G1 X91.097 Y9.398 Z3.830 F2500.000
G1 X91.097 Y10.097 Z3.928 F2500.000
G1 X91.097 Y10.697 Z4.001 F2500.000
G1 X91.097 Y11.396 Z4.075 F2500.000
G1 X91.097 Y12.095 Z4.136 F2500.000
G1 X91.097 Y12.795 Z4.183 F2500.000
G1 X91.097 Y13.594 Z4.221 F2500.000
G1 X91.097 Y14.293 Z4.241 F2500.000
G1 X91.097 Y14.993 Z4.248 F2500.000
G1 X91.097 Y15.692 Z4.241 F2500.000
G1 X91.097 Y16.391 Z4.222 F2500.000
G1 X91.097 Y16.891 Z4.200 F2500.000
G1 X91.097 Y17.291 Z4.178 F2500.000
G1 X91.097 Y17.890 Z4.137 F2500.000
G1 X91.097 Y18.590 Z4.077 F2500.000
G1 X91.097 Y19.289 Z4.003 F2500.000
G1 X91.097 Y19.888 Z3.930 F2500.000
G1 X91.097 Y20.588 Z3.832 F2500.000
G1 X91.097 Y20.987 Z3.770 F2500.000
G1 X91.097 Y21.487 Z3.686 F2500.000
G1 X91.097 Y22.186 Z3.558 F2500.000
G1 X91.097 Y22.786 Z3.436 F2500.000
G1 X91.097 Y23.485 Z3.282 F2500.000
G1 X91.097 Y24.085 Z3.139 F2500.000
G1 X91.097 Y24.784 Z2.958 F2500.000
G1 X91.097 Y25.383 Z2.792 F2500.000
G1 X91.097 Y26.083 Z2.585 F2500.000
G1 X91.092 Y26.097 Z2.580 F2500.000
G1 X43.912 Y26.097 Z2.580 F2500.000
G1 X43.903 Y26.086 Z2.583 F2500.000
G1 X43.903 Y25.387 Z2.791 F2500.000
G1 X43.903 Y24.787 Z2.957 F2500.000
G1 X43.903 Y24.088 Z3.138 F2500.000
G1 X43.903 Y23.389 Z3.304 F2500.000
G1 X43.903 Y22.589 Z3.477 F2500.000
G1 X43.903 Y21.890 Z3.614 F2500.000
G1 X43.903 Y21.191 Z3.737 F2500.000
G1 X43.903 Y20.591 Z3.831 F2500.000
G1 X43.903 Y19.892 Z3.929 F2500.000
G1 X43.903 Y19.292 Z4.003 F2500.000
G1 X43.903 Y18.593 Z4.076 F2500.000
G1 X43.903 Y17.894 Z4.136 F2500.000
G1 X43.903 Y17.294 Z4.178 F2500.000
G1 X43.903 Y16.895 Z4.200 F2500.000
G1 X43.903 Y16.395 Z4.222 F2500.000
G1 X43.903 Y15.696 Z4.241 F2500.000
G1 X43.903 Y14.996 Z4.248 F2500.000
G1 X43.903 Y14.297 Z4.241 F2500.000
G1 X43.903 Y13.598 Z4.221 F2500.000
G1 X43.903 Y13.098 Z4.199 F2500.000
G1 X43.903 Y12.698 Z4.177 F2500.000
G1 X43.903 Y12.099 Z4.136 F2500.000
G1 X43.903 Y11.399 Z4.076 F2500.000
G1 X43.903 Y10.700 Z4.002 F2500.000
G1 X43.903 Y10.101 Z3.928 F2500.000
G1 X43.903 Y9.401 Z3.830 F2500.000
G1 X43.903 Y8.802 Z3.735 F2500.000
G1 X43.903 Y8.102 Z3.612 F2500.000
G1 X43.903 Y7.403 Z3.475 F2500.000
G1 X43.903 Y6.604 Z3.302 F2500.000
G1 X43.903 Y5.904 Z3.136 F2500.000
G1 X43.903 Y5.205 Z2.955 F2500.000
G1 X43.903 Y4.606 Z2.789 F2500.000
G1 X43.903 Y3.906 Z2.581 F2500.000
G1 X43.919 Y3.903 Z2.580 F2500.000
G1 X91.097 Y3.903 Z2.580 F2500.000
(Break)
G1 X91.697 Y3.303 Z2.390 F2500.000
(part 39.)
G1 X91.697 Y3.303 Z2.390 F2500.000
G1 X91.697 Y3.403 Z2.423 F2500.000
G1 X91.697 Y3.902 Z2.580 F2500.000
G1 X91.697 Y4.302 Z2.701 F2500.000
G1 X91.697 Y4.901 Z2.872 F2500.000
G1 X91.697 Y5.601 Z3.059 F2500.000
G1 X91.697 Y6.200 Z3.208 F2500.000
G1 X91.697 Y6.800 Z3.346 F2500.000
G1 X91.697 Y7.499 Z3.495 F2500.000
G1 X91.697 Y8.199 Z3.630 F2500.000
G1 X91.697 Y8.698 Z3.718 F2500.000
G1 X91.697 Y9.098 Z3.783 F2500.000
G1 X91.697 Y9.797 Z3.887 F2500.000
G1 X91.697 Y10.497 Z3.978 F2500.000
G1 X91.697 Y11.296 Z4.065 F2500.000
G1 X91.697 Y11.995 Z4.128 F2500.000
G1 X91.697 Y12.695 Z4.177 F2500.000
G1 X91.697 Y13.394 Z4.213 F2500.000
G1 X91.697 Y13.694 Z4.225 F2500.000
G1 X91.697 Y14.293 Z4.241 F2500.000
G1 X91.697 Y14.993 Z4.248 F2500.000
G1 X91.697 Y15.692 Z4.241 F2500.000
G1 X91.697 Y15.992 Z4.235 F2500.000
G1 X91.697 Y16.591 Z4.214 F2500.000
G1 X91.697 Y17.291 Z4.178 F2500.000
G1 X91.697 Y17.990 Z4.129 F2500.000
G1 X91.697 Y18.290 Z4.104 F2500.000
G1 X91.697 Y18.889 Z4.047 F2500.000
G1 X91.697 Y19.589 Z3.968 F2500.000
G1 X91.697 Y20.288 Z3.875 F2500.000
G1 X91.697 Y20.888 Z3.786 F2500.000
G1 X91.697 Y21.587 Z3.668 F2500.000
G1 X91.697 Y22.187 Z3.557 F2500.000
G1 X91.697 Y22.886 Z3.415 F2500.000
G1 X91.697 Y23.386 Z3.305 F2500.000
G1 X91.697 Y23.785 Z3.211 F2500.000
G1 X91.697 Y24.485 Z3.037 F2500.000
G1 X91.697 Y24.984 Z2.904 F2500.000
G1 X91.697 Y25.384 Z2.792 F2500.000
G1 X91.697 Y26.083 Z2.584 F2500.000
G1 X91.697 Y26.683 Z2.395 F2500.000
G1 X91.692 Y26.697 Z2.390 F2500.000
G1 X43.312 Y26.697 Z2.390 F2500.000
G1 X43.303 Y26.686 Z2.394 F2500.000
G1 X43.303 Y25.987 Z2.614 F2500.000
G1 X43.303 Y25.387 Z2.791 F2500.000
G1 X43.303 Y24.688 Z2.984 F2500.000
G1 X43.303 Y24.188 Z3.112 F2500.000
G1 X43.303 Y23.789 Z3.211 F2500.000
G1 X43.303 Y23.089 Z3.371 F2500.000
G1 X43.303 Y22.590 Z3.477 F2500.000
G1 X43.303 Y22.190 Z3.557 F2500.000
G1 X43.303 Y21.491 Z3.685 F2500.000
G1 X43.303 Y20.891 Z3.785 F2500.000
G1 X43.303 Y20.292 Z3.875 F2500.000
G1 X43.303 Y19.592 Z3.967 F2500.000
G1 X43.303 Y18.893 Z4.046 F2500.000
G1 X43.303 Y18.293 Z4.104 F2500.000
G1 X43.303 Y17.994 Z4.129 F2500.000
G1 X43.303 Y17.294 Z4.178 F2500.000
G1 X43.303 Y16.595 Z4.214 F2500.000
G1 X43.303 Y15.696 Z4.241 F2500.000
G1 X43.303 Y14.996 Z4.248 F2500.000
G1 X43.303 Y14.297 Z4.241 F2500.000
G1 X43.303 Y13.398 Z4.213 F2500.000
G1 X43.303 Y12.698 Z4.177 F2500.000
G1 X43.303 Y11.999 Z4.128 F2500.000
G1 X43.303 Y11.299 Z4.066 F2500.000
G1 X43.303 Y10.500 Z3.978 F2500.000
G1 X43.303 Y9.801 Z3.888 F2500.000
G1 X43.303 Y9.101 Z3.784 F2500.000
G1 X43.303 Y8.402 Z3.666 F2500.000
G1 X43.303 Y7.902 Z3.574 F2500.000
G1 X43.303 Y7.503 Z3.496 F2500.000
G1 X43.303 Y6.803 Z3.347 F2500.000
G1 X43.303 Y6.204 Z3.209 F2500.000
G1 X43.303 Y5.504 Z3.034 F2500.000
G1 X43.303 Y4.705 Z2.817 F2500.000
G1 X43.303 Y4.006 Z2.612 F2500.000
G1 X43.303 Y3.306 Z2.391 F2500.000
G1 X43.319 Y3.303 Z2.390 F2500.000
G1 X91.697 Y3.303 Z2.390 F2500.000
(Break)
G1 X92.297 Y2.703 Z2.189 F2500.000
(part 41.)
G1 X92.297 Y2.703 Z2.189 F2500.000
G1 X92.297 Y2.803 Z2.223 F2500.000
G1 X92.297 Y3.602 Z2.486 F2500.000
G1 X92.297 Y4.301 Z2.700 F2500.000
G1 X92.297 Y4.701 Z2.816 F2500.000
G1 X92.297 Y5.201 Z2.954 F2500.000
G1 X92.297 Y5.900 Z3.135 F2500.000
G1 X92.297 Y6.600 Z3.301 F2500.000
G1 X92.297 Y7.399 Z3.474 F2500.000
G1 X92.297 Y8.098 Z3.611 F2500.000
G1 X92.297 Y8.798 Z3.735 F2500.000
G1 X92.297 Y9.197 Z3.799 F2500.000
G1 X92.297 Y9.697 Z3.873 F2500.000
G1 X92.297 Y10.396 Z3.966 F2500.000
G1 X92.297 Y11.096 Z4.045 F2500.000
G1 X92.297 Y11.396 Z4.075 F2500.000
G1 X92.297 Y11.995 Z4.128 F2500.000
G1 X92.297 Y12.695 Z4.177 F2500.000
G1 X92.297 Y13.394 Z4.213 F2500.000
G1 X92.297 Y13.694 Z4.225 F2500.000
G1 X92.297 Y14.293 Z4.241 F2500.000
G1 X92.297 Y14.993 Z4.248 F2500.000
G1 X92.297 Y15.692 Z4.241 F2500.000
G1 X92.297 Y15.992 Z4.235 F2500.000
G1 X92.297 Y16.591 Z4.214 F2500.000
G1 X92.297 Y17.291 Z4.178 F2500.000
G1 X92.297 Y17.990 Z4.129 F2500.000
G1 X92.297 Y18.290 Z4.104 F2500.000
G1 X92.297 Y18.890 Z4.047 F2500.000
G1 X92.297 Y19.589 Z3.968 F2500.000
G1 X92.297 Y20.288 Z3.875 F2500.000
G1 X92.297 Y20.888 Z3.786 F2500.000
G1 X92.297 Y21.188 Z3.737 F2500.000
G1 X92.297 Y21.887 Z3.614 F2500.000
G1 X92.297 Y22.187 Z3.557 F2500.000
G1 X92.297 Y22.786 Z3.436 F2500.000
G1 X92.297 Y23.486 Z3.282 F2500.000
G1 X92.297 Y23.886 Z3.187 F2500.000
G1 X92.297 Y24.385 Z3.063 F2500.000
G1 X92.297 Y25.085 Z2.876 F2500.000
G1 X92.297 Y25.384 Z2.792 F2500.000
G1 X92.297 Y25.984 Z2.615 F2500.000
G1 X92.297 Y26.683 Z2.395 F2500.000
G1 X92.297 Y27.283 Z2.194 F2500.000
G1 X92.292 Y27.297 Z2.189 F2500.000
G1 X42.712 Y27.297 Z2.189 F2500.000
G1 X42.703 Y27.286 Z2.193 F2500.000
G1 X42.703 Y26.587 Z2.426 F2500.000
G1 X42.703 Y25.787 Z2.674 F2500.000
G1 X42.703 Y25.088 Z2.875 F2500.000
G1 X42.703 Y24.389 Z3.062 F2500.000
G1 X42.703 Y23.889 Z3.186 F2500.000
G1 X42.703 Y23.489 Z3.281 F2500.000
G1 X42.703 Y22.790 Z3.435 F2500.000
G1 X42.703 Y22.190 Z3.557 F2500.000
G1 X42.703 Y21.891 Z3.614 F2500.000
G1 X42.703 Y21.191 Z3.737 F2500.000
G1 X42.703 Y20.891 Z3.785 F2500.000
G1 X42.703 Y20.292 Z3.875 F2500.000
G1 X42.703 Y19.593 Z3.967 F2500.000
G1 X42.703 Y18.893 Z4.046 F2500.000
G1 X42.703 Y18.294 Z4.104 F2500.000
G1 X42.703 Y17.994 Z4.129 F2500.000
G1 X42.703 Y17.294 Z4.178 F2500.000
G1 X42.703 Y16.595 Z4.214 F2500.000
G1 X42.703 Y15.696 Z4.241 F2500.000
G1 X42.703 Y14.996 Z4.248 F2500.000
G1 X42.703 Y14.297 Z4.241 F2500.000
G1 X42.703 Y13.398 Z4.213 F2500.000
G1 X42.703 Y12.698 Z4.177 F2500.000
G1 X42.703 Y11.999 Z4.128 F2500.000
G1 X42.703 Y11.399 Z4.075 F2500.000
G1 X42.703 Y11.099 Z4.045 F2500.000
G1 X42.703 Y10.400 Z3.966 F2500.000
G1 X42.703 Y9.701 Z3.874 F2500.000
G1 X42.703 Y9.201 Z3.799 F2500.000
G1 X42.703 Y8.801 Z3.735 F2500.000
G1 X42.703 Y8.102 Z3.612 F2500.000
G1 X42.703 Y7.502 Z3.496 F2500.000
G1 X42.703 Y7.203 Z3.434 F2500.000
G1 X42.703 Y6.503 Z3.279 F2500.000
G1 X42.703 Y6.203 Z3.209 F2500.000
G1 X42.703 Y5.604 Z3.060 F2500.000
G1 X42.703 Y4.904 Z2.873 F2500.000
G1 X42.703 Y4.205 Z2.672 F2500.000
G1 X42.703 Y3.406 Z2.424 F2500.000
G1 X42.703 Y2.706 Z2.190 F2500.000
G1 X42.719 Y2.703 Z2.189 F2500.000
G1 X92.297 Y2.703 Z2.189 F2500.000
(Break)
G1 X92.897 Y2.103 Z1.977 F2500.000
(part 43.)
G1 X92.897 Y2.103 Z1.977 F2500.000
G1 X92.897 Y2.203 Z2.013 F2500.000
G1 X92.897 Y3.002 Z2.291 F2500.000
G1 X92.897 Y3.702 Z2.518 F2500.000
G1 X92.897 Y4.301 Z2.700 F2500.000
G1 X92.897 Y4.601 Z2.787 F2500.000
G1 X92.897 Y5.300 Z2.980 F2500.000
G1 X92.897 Y5.800 Z3.109 F2500.000
G1 X92.897 Y6.200 Z3.208 F2500.000
G1 X92.897 Y6.899 Z3.368 F2500.000
G1 X92.897 Y7.399 Z3.474 F2500.000
G1 X92.897 Y7.798 Z3.554 F2500.000
G1 X92.897 Y8.498 Z3.683 F2500.000
G1 X92.897 Y9.097 Z3.783 F2500.000
G1 X92.897 Y9.397 Z3.829 F2500.000
G1 X92.897 Y10.097 Z3.928 F2500.000
G1 X92.897 Y10.796 Z4.013 F2500.000
G1 X92.897 Y11.296 Z4.065 F2500.000
G1 X92.897 Y11.695 Z4.103 F2500.000
G1 X92.897 Y12.095 Z4.135 F2500.000
G1 X92.897 Y12.695 Z4.177 F2500.000
G1 X92.897 Y13.394 Z4.213 F2500.000
G1 X92.897 Y13.694 Z4.225 F2500.000
G1 X92.897 Y14.293 Z4.241 F2500.000
G1 X92.897 Y14.993 Z4.248 F2500.000
G1 X92.897 Y15.392 Z4.245 F2500.000
G1 X92.897 Y15.992 Z4.235 F2500.000
G1 X92.897 Y16.691 Z4.209 F2500.000
G1 X92.897 Y17.291 Z4.178 F2500.000
G1 X92.897 Y17.591 Z4.158 F2500.000
G1 X92.897 Y18.290 Z4.104 F2500.000
G1 X92.897 Y18.990 Z4.036 F2500.000
G1 X92.897 Y19.589 Z3.968 F2500.000
G1 X92.897 Y19.889 Z3.930 F2500.000
G1 X92.897 Y20.289 Z3.875 F2500.000
G1 X92.897 Y20.888 Z3.786 F2500.000
G1 X92.897 Y21.588 Z3.668 F2500.000
G1 X92.897 Y22.187 Z3.557 F2500.000
G1 X92.897 Y22.487 Z3.498 F2500.000
G1 X92.897 Y23.186 Z3.349 F2500.000
G1 X92.897 Y23.786 Z3.211 F2500.000
G1 X92.897 Y24.086 Z3.138 F2500.000
G1 X92.897 Y24.785 Z2.958 F2500.000
G1 X92.897 Y25.285 Z2.820 F2500.000
G1 X92.897 Y25.684 Z2.705 F2500.000
G1 X92.897 Y26.384 Z2.491 F2500.000
G1 X92.897 Y26.884 Z2.329 F2500.000
G1 X92.897 Y27.283 Z2.194 F2500.000
G1 X92.897 Y27.883 Z1.982 F2500.000
G1 X92.892 Y27.897 Z1.977 F2500.000
G1 X42.112 Y27.897 Z1.977 F2500.000
G1 X42.103 Y27.886 Z1.981 F2500.000
G1 X42.103 Y27.487 Z2.123 F2500.000
G1 X42.103 Y26.987 Z2.295 F2500.000
G1 X42.103 Y26.287 Z2.521 F2500.000
G1 X42.103 Y25.688 Z2.704 F2500.000
G1 X42.103 Y25.288 Z2.819 F2500.000
G1 X42.103 Y24.789 Z2.957 F2500.000
G1 X42.103 Y24.089 Z3.137 F2500.000
G1 X42.103 Y23.789 Z3.210 F2500.000
G1 X42.103 Y23.190 Z3.349 F2500.000
G1 X42.103 Y22.790 Z3.435 F2500.000
G1 X42.103 Y22.191 Z3.557 F2500.000
G1 X42.103 Y21.491 Z3.685 F2500.000
G1 X42.103 Y20.892 Z3.785 F2500.000
G1 X42.103 Y20.592 Z3.831 F2500.000
G1 X42.103 Y19.892 Z3.929 F2500.000
G1 X42.103 Y19.593 Z3.967 F2500.000
G1 X42.103 Y18.993 Z4.036 F2500.000
G1 X42.103 Y18.294 Z4.104 F2500.000
G1 X42.103 Y17.894 Z4.136 F2500.000
G1 X42.103 Y17.294 Z4.178 F2500.000
G1 X42.103 Y16.595 Z4.214 F2500.000
G1 X42.103 Y15.696 Z4.241 F2500.000
G1 X42.103 Y14.996 Z4.248 F2500.000
G1 X42.103 Y14.297 Z4.241 F2500.000
G1 X42.103 Y13.397 Z4.213 F2500.000
G1 X42.103 Y12.698 Z4.177 F2500.000
G1 X42.103 Y12.098 Z4.136 F2500.000
G1 X42.103 Y11.699 Z4.103 F2500.000
G1 X42.103 Y11.299 Z4.066 F2500.000
G1 X42.103 Y10.800 Z4.013 F2500.000
G1 X42.103 Y10.100 Z3.928 F2500.000
G1 X42.103 Y9.401 Z3.830 F2500.000
G1 X42.103 Y9.101 Z3.784 F2500.000
G1 X42.103 Y8.501 Z3.684 F2500.000
G1 X42.103 Y7.802 Z3.555 F2500.000
G1 X42.103 Y7.402 Z3.475 F2500.000
G1 X42.103 Y6.903 Z3.369 F2500.000
G1 X42.103 Y6.203 Z3.209 F2500.000
G1 X42.103 Y5.803 Z3.110 F2500.000
G1 X42.103 Y5.304 Z2.981 F2500.000
G1 X42.103 Y4.604 Z2.789 F2500.000
G1 X42.103 Y4.205 Z2.671 F2500.000
G1 X42.103 Y3.705 Z2.519 F2500.000
G1 X42.103 Y3.006 Z2.292 F2500.000
G1 X42.103 Y2.506 Z2.121 F2500.000
G1 X42.103 Y2.106 Z1.978 F2500.000
G1 X42.119 Y2.103 Z1.977 F2500.000
G1 X92.897 Y2.103 Z1.977 F2500.000
(Break)
G0 Z15.300
G0 X41.503 Y1.503
G0 Z6.753
(part 45.)
G1 X41.503 Y1.503 Z1.753 F2500.000
G1 X93.483 Y1.503 Z1.753 F2500.000
G1 X93.497 Y1.508 Z1.755 F2500.000
G1 X93.497 Y1.908 Z1.905 F2500.000
G1 X93.497 Y2.408 Z2.086 F2500.000
G1 X93.497 Y3.107 Z2.326 F2500.000
G1 X93.497 Y3.607 Z2.488 F2500.000
G1 X93.497 Y4.006 Z2.612 F2500.000
G1 X93.497 Y4.706 Z2.817 F2500.000
G1 X93.497 Y5.206 Z2.955 F2500.000
G1 X93.497 Y5.605 Z3.060 F2500.000
G1 X93.497 Y6.205 Z3.209 F2500.000
G1 X93.497 Y6.505 Z3.280 F2500.000
G1 X93.497 Y7.204 Z3.434 F2500.000
G1 X93.497 Y7.804 Z3.556 F2500.000
G1 X93.497 Y8.103 Z3.612 F2500.000
G1 X93.497 Y8.503 Z3.684 F2500.000
G1 X93.497 Y9.103 Z3.784 F2500.000
G1 X93.497 Y9.802 Z3.888 F2500.000
G1 X93.497 Y10.402 Z3.967 F2500.000
G1 X93.497 Y10.701 Z4.002 F2500.000
G1 X93.497 Y11.401 Z4.076 F2500.000
G1 X93.497 Y12.000 Z4.128 F2500.000
G1 X93.497 Y12.400 Z4.158 F2500.000
G1 X93.497 Y12.700 Z4.177 F2500.000
G1 X93.497 Y13.300 Z4.209 F2500.000
G1 X93.497 Y14.099 Z4.237 F2500.000
G1 X93.497 Y14.599 Z4.245 F2500.000
G1 X93.497 Y14.998 Z4.248 F2500.000
G1 X93.497 Y15.398 Z4.245 F2500.000
G1 X93.497 Y15.898 Z4.237 F2500.000
G1 X93.497 Y16.697 Z4.209 F2500.000
G1 X93.497 Y17.297 Z4.178 F2500.000
G1 X93.497 Y17.596 Z4.158 F2500.000
G1 X93.497 Y17.996 Z4.128 F2500.000
G1 X93.497 Y18.596 Z4.076 F2500.000
G1 X93.497 Y19.295 Z4.002 F2500.000
G1 X93.497 Y19.595 Z3.967 F2500.000
G1 X93.497 Y20.194 Z3.888 F2500.000
G1 X93.497 Y20.894 Z3.785 F2500.000
G1 X93.497 Y21.493 Z3.685 F2500.000
G1 X93.497 Y21.893 Z3.613 F2500.000
G1 X93.497 Y22.193 Z3.556 F2500.000
G1 X93.497 Y22.792 Z3.435 F2500.000
G1 X93.497 Y23.492 Z3.280 F2500.000
G1 X93.497 Y23.792 Z3.210 F2500.000
G1 X93.497 Y24.391 Z3.061 F2500.000
G1 X93.497 Y24.791 Z2.956 F2500.000
G1 X93.497 Y25.291 Z2.818 F2500.000
G1 X93.497 Y25.990 Z2.613 F2500.000
G1 X93.497 Y26.390 Z2.489 F2500.000
G1 X93.497 Y26.889 Z2.327 F2500.000
G1 X93.497 Y27.589 Z2.087 F2500.000
G1 X93.497 Y28.188 Z1.870 F2500.000
G1 X93.497 Y28.488 Z1.757 F2500.000
G1 X93.486 Y28.497 Z1.753 F2500.000
G1 X41.506 Y28.497 Z1.753 F2500.000
G1 X41.503 Y28.481 Z1.759 F2500.000
G1 X41.503 Y27.881 Z1.983 F2500.000
G1 X41.503 Y27.482 Z2.125 F2500.000
G1 X41.503 Y26.982 Z2.296 F2500.000
G1 X41.503 Y26.283 Z2.523 F2500.000
G1 X41.503 Y25.783 Z2.675 F2500.000
G1 X41.503 Y25.383 Z2.792 F2500.000
G1 X41.503 Y24.984 Z2.904 F2500.000
G1 X41.503 Y24.484 Z3.037 F2500.000
G1 X41.503 Y23.785 Z3.212 F2500.000
G1 X41.503 Y23.185 Z3.350 F2500.000
G1 X41.503 Y22.785 Z3.436 F2500.000
G1 X41.503 Y22.186 Z3.558 F2500.000
G1 X41.503 Y21.886 Z3.614 F2500.000
G1 X41.503 Y21.187 Z3.737 F2500.000
G1 X41.503 Y20.887 Z3.786 F2500.000
G1 X41.503 Y20.287 Z3.875 F2500.000
G1 X41.503 Y19.588 Z3.968 F2500.000
G1 X41.503 Y18.988 Z4.036 F2500.000
G1 X41.503 Y18.589 Z4.077 F2500.000
G1 X41.503 Y17.989 Z4.129 F2500.000
G1 X41.503 Y17.590 Z4.159 F2500.000
G1 X41.503 Y17.290 Z4.178 F2500.000
G1 X41.503 Y16.690 Z4.210 F2500.000
G1 X41.503 Y15.991 Z4.235 F2500.000
G1 X41.503 Y15.391 Z4.245 F2500.000
G1 X41.503 Y14.992 Z4.248 F2500.000
G1 X41.503 Y14.392 Z4.242 F2500.000
G1 X41.503 Y13.993 Z4.234 F2500.000
G1 X41.503 Y13.593 Z4.221 F2500.000
G1 X41.503 Y13.093 Z4.199 F2500.000
G1 X41.503 Y12.294 Z4.150 F2500.000
G1 X41.503 Y11.794 Z4.111 F2500.000
G1 X41.503 Y11.395 Z4.075 F2500.000
G1 X41.503 Y10.695 Z4.001 F2500.000
G1 X41.503 Y10.096 Z3.928 F2500.000
G1 X41.503 Y9.796 Z3.887 F2500.000
G1 X41.503 Y9.396 Z3.829 F2500.000
G1 X41.503 Y8.797 Z3.735 F2500.000
G1 X41.503 Y8.097 Z3.611 F2500.000
G1 X41.503 Y7.498 Z3.495 F2500.000
G1 X41.503 Y7.198 Z3.433 F2500.000
G1 X41.503 Y6.499 Z3.278 F2500.000
G1 X41.503 Y6.199 Z3.208 F2500.000
G1 X41.503 Y5.599 Z3.059 F2500.000
G1 X41.503 Y5.200 Z2.954 F2500.000
G1 X41.503 Y4.700 Z2.816 F2500.000
G1 X41.503 Y4.001 Z2.610 F2500.000
G1 X41.503 Y3.601 Z2.486 F2500.000
G1 X41.503 Y3.101 Z2.324 F2500.000
G1 X41.503 Y2.402 Z2.084 F2500.000
G1 X41.503 Y1.902 Z1.903 F2500.000
G1 X41.503 Y1.503 Z1.753 F2500.000
(End of step 0.)
G0 Z17.300
(Finish operation: Surface001)
(Begin operation: Surface002)
(Path: Surface002)
(Surface002)
(Surface002)
(Tool type: ballend)
(Compensated Tool Path. Diameter: 3.0)
(Sample interval: 0.1)
(Step over %: 20.0)
()
G0 Z17.300
(Beginning of Single-pass layer.)
G0 X-54.703 Y14.703
(Begin step 0.)
(part 1.)
G1 X-54.703 Y14.703 Z4.246 F2500.000
G1 X-54.703 Y14.799 Z4.247 F2500.000
G1 X-54.703 Y15.283 Z4.246 F2500.000
G1 X-54.708 Y15.297 Z4.246 F2500.000
G1 X-80.288 Y15.297 Z4.246 F2500.000
G1 X-80.297 Y15.286 Z4.246 F2500.000
G1 X-80.297 Y14.706 Z4.246 F2500.000
G1 X-80.281 Y14.703 Z4.246 F2500.000
G1 X-54.703 Y14.703 Z4.246 F2500.000
(Break)
G1 X-54.103 Y14.103 Z4.237 F2500.000
(part 3.)
G1 X-54.103 Y14.103 Z4.237 F2500.000
G1 X-54.103 Y14.202 Z4.239 F2500.000
G1 X-54.103 Y14.993 Z4.248 F2500.000
G1 X-54.103 Y15.388 Z4.245 F2500.000
G1 X-54.103 Y15.883 Z4.237 F2500.000
G1 X-54.108 Y15.897 Z4.237 F2500.000
G1 X-80.888 Y15.897 Z4.237 F2500.000
G1 X-80.897 Y15.886 Z4.237 F2500.000
G1 X-80.897 Y15.392 Z4.245 F2500.000
G1 X-80.897 Y14.996 Z4.248 F2500.000
G1 X-80.897 Y14.106 Z4.237 F2500.000
G1 X-80.881 Y14.103 Z4.237 F2500.000
G1 X-54.103 Y14.103 Z4.237 F2500.000
(Break)
G1 X-53.503 Y13.503 Z4.218 F2500.000
(part 5.)
G1 X-53.503 Y13.503 Z4.218 F2500.000
G1 X-53.503 Y13.602 Z4.221 F2500.000
G1 X-53.503 Y14.297 Z4.241 F2500.000
G1 X-53.503 Y14.993 Z4.248 F2500.000
G1 X-53.503 Y15.688 Z4.241 F2500.000
G1 X-53.503 Y16.483 Z4.218 F2500.000
G1 X-53.508 Y16.497 Z4.218 F2500.000
G1 X-81.488 Y16.497 Z4.218 F2500.000
G1 X-81.497 Y16.486 Z4.218 F2500.000
G1 X-81.497 Y15.692 Z4.241 F2500.000
G1 X-81.497 Y14.996 Z4.248 F2500.000
G1 X-81.497 Y14.301 Z4.241 F2500.000
G1 X-81.497 Y13.506 Z4.218 F2500.000
G1 X-81.481 Y13.503 Z4.218 F2500.000
G1 X-53.503 Y13.503 Z4.218 F2500.000
(Break)
G1 X-52.903 Y12.903 Z4.189 F2500.000
(part 7.)
G1 X-52.903 Y12.903 Z4.189 F2500.000
G1 X-52.903 Y13.002 Z4.195 F2500.000
G1 X-52.903 Y13.400 Z4.214 F2500.000
G1 X-52.903 Y13.998 Z4.234 F2500.000
G1 X-52.903 Y14.396 Z4.243 F2500.000
G1 X-52.903 Y14.993 Z4.248 F2500.000
G1 X-52.903 Y15.391 Z4.245 F2500.000
G1 X-52.903 Y15.988 Z4.235 F2500.000
G1 X-52.903 Y16.585 Z4.214 F2500.000
G1 X-52.903 Y17.083 Z4.190 F2500.000
G1 X-52.908 Y17.097 Z4.189 F2500.000
G1 X-82.088 Y17.097 Z4.189 F2500.000
G1 X-82.097 Y17.086 Z4.190 F2500.000
G1 X-82.097 Y16.589 Z4.214 F2500.000
G1 X-82.097 Y15.991 Z4.235 F2500.000
G1 X-82.097 Y15.593 Z4.243 F2500.000
G1 X-82.097 Y14.996 Z4.248 F2500.000
G1 X-82.097 Y14.300 Z4.241 F2500.000
G1 X-82.097 Y13.702 Z4.225 F2500.000
G1 X-82.097 Y12.906 Z4.189 F2500.000
G1 X-82.081 Y12.903 Z4.189 F2500.000
G1 X-52.903 Y12.903 Z4.189 F2500.000
(Break)
G1 X-52.303 Y12.303 Z4.151 F2500.000
(part 9.)
G1 X-52.303 Y12.303 Z4.151 F2500.000
G1 X-52.303 Y12.402 Z4.158 F2500.000
G1 X-52.303 Y13.000 Z4.194 F2500.000
G1 X-52.303 Y13.698 Z4.225 F2500.000
G1 X-52.303 Y14.295 Z4.241 F2500.000
G1 X-52.303 Y14.993 Z4.248 F2500.000
G1 X-52.303 Y15.690 Z4.241 F2500.000
G1 X-52.303 Y16.288 Z4.225 F2500.000
G1 X-52.303 Y16.985 Z4.195 F2500.000
G1 X-52.303 Y17.683 Z4.152 F2500.000
G1 X-52.308 Y17.697 Z4.151 F2500.000
G1 X-82.688 Y17.697 Z4.151 F2500.000
G1 X-82.697 Y17.686 Z4.152 F2500.000
G1 X-82.697 Y16.989 Z4.195 F2500.000
G1 X-82.697 Y16.291 Z4.225 F2500.000
G1 X-82.697 Y15.694 Z4.241 F2500.000
G1 X-82.697 Y14.996 Z4.248 F2500.000
G1 X-82.697 Y14.299 Z4.241 F2500.000
G1 X-82.697 Y13.601 Z4.221 F2500.000
G1 X-82.697 Y13.004 Z4.195 F2500.000
G1 X-82.697 Y12.306 Z4.151 F2500.000
G1 X-82.681 Y12.303 Z4.151 F2500.000
G1 X-52.303 Y12.303 Z4.151 F2500.000
(Break)
G1 X-51.703 Y11.703 Z4.103 F2500.000
(part 11.)
G1 X-51.703 Y11.703 Z4.103 F2500.000
G1 X-51.703 Y11.802 Z4.112 F2500.000
G1 X-51.703 Y12.301 Z4.151 F2500.000
G1 X-51.703 Y12.700 Z4.177 F2500.000
G1 X-51.703 Y13.398 Z4.213 F2500.000
G1 X-51.703 Y14.295 Z4.241 F2500.000
G1 X-51.703 Y14.993 Z4.248 F2500.000
G1 X-51.703 Y15.392 Z4.245 F2500.000
G1 X-51.703 Y15.990 Z4.235 F2500.000
G1 X-51.703 Y16.688 Z4.210 F2500.000
G1 X-51.703 Y17.585 Z4.159 F2500.000
G1 X-51.703 Y18.283 Z4.105 F2500.000
G1 X-51.708 Y18.297 Z4.103 F2500.000
G1 X-83.288 Y18.297 Z4.103 F2500.000
G1 X-83.297 Y18.286 Z4.104 F2500.000
G1 X-83.297 Y17.588 Z4.159 F2500.000
G1 X-83.297 Y16.691 Z4.210 F2500.000
G1 X-83.297 Y15.993 Z4.234 F2500.000
G1 X-83.297 Y15.594 Z4.243 F2500.000
G1 X-83.297 Y14.996 Z4.248 F2500.000
G1 X-83.297 Y14.597 Z4.245 F2500.000
G1 X-83.297 Y14.099 Z4.237 F2500.000
G1 X-83.297 Y13.301 Z4.209 F2500.000
G1 X-83.297 Y12.703 Z4.178 F2500.000
G1 X-83.297 Y12.404 Z4.158 F2500.000
G1 X-83.297 Y11.706 Z4.104 F2500.000
G1 X-83.281 Y11.703 Z4.103 F2500.000
G1 X-51.703 Y11.703 Z4.103 F2500.000
(Break)
G1 X-51.103 Y11.103 Z4.046 F2500.000
(part 13.)
G1 X-51.103 Y11.103 Z4.046 F2500.000
G1 X-51.103 Y11.202 Z4.056 F2500.000
G1 X-51.103 Y11.701 Z4.103 F2500.000
G1 X-51.103 Y12.100 Z4.136 F2500.000
G1 X-51.103 Y12.699 Z4.177 F2500.000
G1 X-51.103 Y13.098 Z4.199 F2500.000
G1 X-51.103 Y13.596 Z4.221 F2500.000
G1 X-51.103 Y13.995 Z4.234 F2500.000
G1 X-51.103 Y14.394 Z4.243 F2500.000
G1 X-51.103 Y14.993 Z4.248 F2500.000
G1 X-51.103 Y15.392 Z4.245 F2500.000
G1 X-51.103 Y15.990 Z4.235 F2500.000
G1 X-51.103 Y16.589 Z4.214 F2500.000
G1 X-51.103 Y16.988 Z4.195 F2500.000
G1 X-51.103 Y17.586 Z4.159 F2500.000
G1 X-51.103 Y17.985 Z4.129 F2500.000
G1 X-51.103 Y18.284 Z4.104 F2500.000
G1 X-51.103 Y18.883 Z4.047 F2500.000
G1 X-51.108 Y18.897 Z4.046 F2500.000
G1 X-83.888 Y18.897 Z4.046 F2500.000
G1 X-83.897 Y18.886 Z4.047 F2500.000
G1 X-83.897 Y18.288 Z4.104 F2500.000
G1 X-83.897 Y17.989 Z4.129 F2500.000
G1 X-83.897 Y17.590 Z4.159 F2500.000
G1 X-83.897 Y16.991 Z4.195 F2500.000
G1 X-83.897 Y16.592 Z4.214 F2500.000
G1 X-83.897 Y15.994 Z4.234 F2500.000
G1 X-83.897 Y15.595 Z4.243 F2500.000
G1 X-83.897 Y14.996 Z4.248 F2500.000
G1 X-83.897 Y14.398 Z4.243 F2500.000
G1 X-83.897 Y13.999 Z4.234 F2500.000
G1 X-83.897 Y13.400 Z4.214 F2500.000
G1 X-83.897 Y13.001 Z4.195 F2500.000
G1 X-83.897 Y12.403 Z4.158 F2500.000
G1 X-83.897 Y12.004 Z4.128 F2500.000
G1 X-83.897 Y11.106 Z4.046 F2500.000
G1 X-83.881 Y11.103 Z4.046 F2500.000
G1 X-51.103 Y11.103 Z4.046 F2500.000
(Break)
G1 X-50.503 Y10.503 Z3.979 F2500.000
(part 15.)
G1 X-50.503 Y10.503 Z3.979 F2500.000
G1 X-50.503 Y10.603 Z3.990 F2500.000
G1 X-50.503 Y11.101 Z4.046 F2500.000
G1 X-50.503 Y11.700 Z4.103 F2500.000
G1 X-50.503 Y12.099 Z4.136 F2500.000
G1 X-50.503 Y12.698 Z4.177 F2500.000
G1 X-50.503 Y13.297 Z4.209 F2500.000
G1 X-50.503 Y13.696 Z4.225 F2500.000
G1 X-50.503 Y14.294 Z4.241 F2500.000
G1 X-50.503 Y14.993 Z4.248 F2500.000
G1 X-50.503 Y15.392 Z4.245 F2500.000
G1 X-50.503 Y15.991 Z4.235 F2500.000
G1 X-50.503 Y16.689 Z4.210 F2500.000
G1 X-50.503 Y17.288 Z4.178 F2500.000
G1 X-50.503 Y17.687 Z4.152 F2500.000
G1 X-50.503 Y18.285 Z4.104 F2500.000
G1 X-50.503 Y18.984 Z4.037 F2500.000
G1 X-50.503 Y19.483 Z3.980 F2500.000
G1 X-50.508 Y19.497 Z3.979 F2500.000
G1 X-84.488 Y19.497 Z3.979 F2500.000
G1 X-84.497 Y19.486 Z3.980 F2500.000
G1 X-84.497 Y18.888 Z4.047 F2500.000
G1 X-84.497 Y18.289 Z4.104 F2500.000
G1 X-84.497 Y17.690 Z4.151 F2500.000
G1 X-84.497 Y17.291 Z4.178 F2500.000
G1 X-84.497 Y16.692 Z4.209 F2500.000
G1 X-84.497 Y15.994 Z4.234 F2500.000
G1 X-84.497 Y15.595 Z4.243 F2500.000
G1 X-84.497 Y14.996 Z4.248 F2500.000
G1 X-84.497 Y14.298 Z4.241 F2500.000
G1 X-84.497 Y13.699 Z4.225 F2500.000
G1 X-84.497 Y13.300 Z4.209 F2500.000
G1 X-84.497 Y12.701 Z4.178 F2500.000
G1 X-84.497 Y12.103 Z4.136 F2500.000
G1 X-84.497 Y11.704 Z4.103 F2500.000
G1 X-84.497 Y11.105 Z4.046 F2500.000
G1 X-84.497 Y10.506 Z3.979 F2500.000
G1 X-84.481 Y10.503 Z3.979 F2500.000
G1 X-50.503 Y10.503 Z3.979 F2500.000
(Break)
G1 X-49.903 Y9.903 Z3.902 F2500.000
(part 17.)
G1 X-49.903 Y9.903 Z3.902 F2500.000
G1 X-49.903 Y10.003 Z3.915 F2500.000
G1 X-49.903 Y10.502 Z3.978 F2500.000
G1 X-49.903 Y11.100 Z4.046 F2500.000
G1 X-49.903 Y11.699 Z4.103 F2500.000
G1 X-49.903 Y12.398 Z4.158 F2500.000
G1 X-49.903 Y12.997 Z4.194 F2500.000
G1 X-49.903 Y13.695 Z4.225 F2500.000
G1 X-49.903 Y14.294 Z4.241 F2500.000
G1 X-49.903 Y14.993 Z4.248 F2500.000
G1 X-49.903 Y15.691 Z4.241 F2500.000
G1 X-49.903 Y16.290 Z4.225 F2500.000
G1 X-49.903 Y16.989 Z4.195 F2500.000
G1 X-49.903 Y17.588 Z4.159 F2500.000
G1 X-49.903 Y18.286 Z4.104 F2500.000
G1 X-49.903 Y18.885 Z4.047 F2500.000
G1 X-49.903 Y19.584 Z3.968 F2500.000
G1 X-49.903 Y20.083 Z3.904 F2500.000
G1 X-49.908 Y20.097 Z3.902 F2500.000
G1 X-85.088 Y20.097 Z3.902 F2500.000
G1 X-85.097 Y20.086 Z3.903 F2500.000
G1 X-85.097 Y19.587 Z3.968 F2500.000
G1 X-85.097 Y18.889 Z4.047 F2500.000
G1 X-85.097 Y18.290 Z4.104 F2500.000
G1 X-85.097 Y17.591 Z4.158 F2500.000
G1 X-85.097 Y16.992 Z4.195 F2500.000
G1 X-85.097 Y16.294 Z4.225 F2500.000
G1 X-85.097 Y15.695 Z4.241 F2500.000
G1 X-85.097 Y14.996 Z4.248 F2500.000
G1 X-85.097 Y14.298 Z4.241 F2500.000
G1 X-85.097 Y13.699 Z4.225 F2500.000
G1 X-85.097 Y13.000 Z4.194 F2500.000
G1 X-85.097 Y12.401 Z4.158 F2500.000
G1 X-85.097 Y11.703 Z4.103 F2500.000
G1 X-85.097 Y11.104 Z4.046 F2500.000
G1 X-85.097 Y10.405 Z3.967 F2500.000
G1 X-85.097 Y9.906 Z3.902 F2500.000
G1 X-85.081 Y9.903 Z3.902 F2500.000
G1 X-49.903 Y9.903 Z3.902 F2500.000
(Break)
G1 X-49.303 Y9.303 Z3.815 F2500.000
(part 19.)
G1 X-49.303 Y9.303 Z3.815 F2500.000
G1 X-49.303 Y9.403 Z3.830 F2500.000
G1 X-49.303 Y10.101 Z3.928 F2500.000
G1 X-49.303 Y10.700 Z4.002 F2500.000
G1 X-49.303 Y11.399 Z4.075 F2500.000
G1 X-49.303 Y12.098 Z4.136 F2500.000
G1 X-49.303 Y12.697 Z4.177 F2500.000
G1 X-49.303 Y13.096 Z4.199 F2500.000
G1 X-49.303 Y13.595 Z4.221 F2500.000
G1 X-49.303 Y14.294 Z4.241 F2500.000
G1 X-49.303 Y14.993 Z4.248 F2500.000
G1 X-49.303 Y15.692 Z4.241 F2500.000
G1 X-49.303 Y16.390 Z4.222 F2500.000
G1 X-49.303 Y16.889 Z4.200 F2500.000
G1 X-49.303 Y17.289 Z4.178 F2500.000
G1 X-49.303 Y17.888 Z4.137 F2500.000
G1 X-49.303 Y18.586 Z4.077 F2500.000
G1 X-49.303 Y19.285 Z4.004 F2500.000
G1 X-49.303 Y19.984 Z3.917 F2500.000
G1 X-49.303 Y20.683 Z3.817 F2500.000
G1 X-49.308 Y20.697 Z3.815 F2500.000
G1 X-85.688 Y20.697 Z3.815 F2500.000
G1 X-85.697 Y20.686 Z3.817 F2500.000
G1 X-85.697 Y19.987 Z3.917 F2500.000
G1 X-85.697 Y19.289 Z4.003 F2500.000
G1 X-85.697 Y18.590 Z4.076 F2500.000
G1 X-85.697 Y17.891 Z4.137 F2500.000
G1 X-85.697 Y17.292 Z4.178 F2500.000
G1 X-85.697 Y16.893 Z4.200 F2500.000
G1 X-85.697 Y16.394 Z4.222 F2500.000
G1 X-85.697 Y15.695 Z4.241 F2500.000
G1 X-85.697 Y14.996 Z4.248 F2500.000
G1 X-85.697 Y14.297 Z4.241 F2500.000
G1 X-85.697 Y13.599 Z4.221 F2500.000
G1 X-85.697 Y13.100 Z4.199 F2500.000
G1 X-85.697 Y12.700 Z4.177 F2500.000
G1 X-85.697 Y12.101 Z4.136 F2500.000
G1 X-85.697 Y11.403 Z4.076 F2500.000
G1 X-85.697 Y10.704 Z4.002 F2500.000
G1 X-85.697 Y10.105 Z3.929 F2500.000
G1 X-85.697 Y9.306 Z3.816 F2500.000
G1 X-85.681 Y9.303 Z3.815 F2500.000
G1 X-49.303 Y9.303 Z3.815 F2500.000
(Break)
G1 X-48.703 Y8.703 Z3.719 F2500.000
(part 21.)
G1 X-48.703 Y8.703 Z3.719 F2500.000
G1 X-48.703 Y8.803 Z3.736 F2500.000
G1 X-48.703 Y9.202 Z3.800 F2500.000
G1 X-48.703 Y9.701 Z3.874 F2500.000
G1 X-48.703 Y10.400 Z3.966 F2500.000
G1 X-48.703 Y11.099 Z4.045 F2500.000
G1 X-48.703 Y11.398 Z4.075 F2500.000
G1 X-48.703 Y11.998 Z4.128 F2500.000
G1 X-48.703 Y12.696 Z4.177 F2500.000
G1 X-48.703 Y13.395 Z4.213 F2500.000
G1 X-48.703 Y14.294 Z4.241 F2500.000
G1 X-48.703 Y14.993 Z4.248 F2500.000
G1 X-48.703 Y15.392 Z4.245 F2500.000
G1 X-48.703 Y15.991 Z4.235 F2500.000
G1 X-48.703 Y16.690 Z4.210 F2500.000
G1 X-48.703 Y17.589 Z4.159 F2500.000
G1 X-48.703 Y18.288 Z4.104 F2500.000
G1 X-48.703 Y18.986 Z4.036 F2500.000
G1 X-48.703 Y19.585 Z3.968 F2500.000
G1 X-48.703 Y19.885 Z3.930 F2500.000
G1 X-48.703 Y20.584 Z3.832 F2500.000
G1 X-48.703 Y21.283 Z3.721 F2500.000
G1 X-48.708 Y21.297 Z3.719 F2500.000
G1 X-86.288 Y21.297 Z3.719 F2500.000
G1 X-86.297 Y21.286 Z3.720 F2500.000
G1 X-86.297 Y20.587 Z3.832 F2500.000
G1 X-86.297 Y19.888 Z3.930 F2500.000
G1 X-86.297 Y19.589 Z3.968 F2500.000
G1 X-86.297 Y18.990 Z4.036 F2500.000
G1 X-86.297 Y18.291 Z4.104 F2500.000
G1 X-86.297 Y17.892 Z4.136 F2500.000
G1 X-86.297 Y17.293 Z4.178 F2500.000
G1 X-86.297 Y16.594 Z4.214 F2500.000
G1 X-86.297 Y15.695 Z4.241 F2500.000
G1 X-86.297 Y14.996 Z4.248 F2500.000
G1 X-86.297 Y14.297 Z4.241 F2500.000
G1 X-86.297 Y13.399 Z4.213 F2500.000
G1 X-86.297 Y12.700 Z4.177 F2500.000
G1 X-86.297 Y12.301 Z4.151 F2500.000
G1 X-86.297 Y11.801 Z4.112 F2500.000
G1 X-86.297 Y11.102 Z4.046 F2500.000
G1 X-86.297 Y10.404 Z3.967 F2500.000
G1 X-86.297 Y10.004 Z3.915 F2500.000
G1 X-86.297 Y9.505 Z3.845 F2500.000
G1 X-86.297 Y8.706 Z3.719 F2500.000
G1 X-86.281 Y8.703 Z3.719 F2500.000
G1 X-48.703 Y8.703 Z3.719 F2500.000
(Break)
G1 X-48.103 Y8.103 Z3.612 F2500.000
(part 23.)
G1 X-48.103 Y8.103 Z3.612 F2500.000
G1 X-48.103 Y8.203 Z3.631 F2500.000
G1 X-48.103 Y8.702 Z3.718 F2500.000
G1 X-48.103 Y9.101 Z3.784 F2500.000
G1 X-48.103 Y9.501 Z3.845 F2500.000
G1 X-48.103 Y10.000 Z3.915 F2500.000
G1 X-48.103 Y10.799 Z4.013 F2500.000
G1 X-48.103 Y11.298 Z4.065 F2500.000
G1 X-48.103 Y11.698 Z4.103 F2500.000
G1 X-48.103 Y12.097 Z4.136 F2500.000
G1 X-48.103 Y12.696 Z4.177 F2500.000
G1 X-48.103 Y13.395 Z4.213 F2500.000
G1 X-48.103 Y14.294 Z4.241 F2500.000
G1 X-48.103 Y14.993 Z4.248 F2500.000
G1 X-48.103 Y15.392 Z4.245 F2500.000
G1 X-48.103 Y15.991 Z4.235 F2500.000
G1 X-48.103 Y16.690 Z4.210 F2500.000
G1 X-48.103 Y17.289 Z4.178 F2500.000
G1 X-48.103 Y17.589 Z4.159 F2500.000
G1 X-48.103 Y17.988 Z4.129 F2500.000
G1 X-48.103 Y18.588 Z4.077 F2500.000
G1 X-48.103 Y18.987 Z4.036 F2500.000
G1 X-48.103 Y19.586 Z3.968 F2500.000
G1 X-48.103 Y20.285 Z3.876 F2500.000
G1 X-48.103 Y20.884 Z3.786 F2500.000
G1 X-48.103 Y21.184 Z3.738 F2500.000
G1 X-48.103 Y21.883 Z3.615 F2500.000
G1 X-48.108 Y21.897 Z3.612 F2500.000
G1 X-86.888 Y21.897 Z3.612 F2500.000
G1 X-86.897 Y21.886 Z3.614 F2500.000
G1 X-86.897 Y21.187 Z3.737 F2500.000
G1 X-86.897 Y20.888 Z3.786 F2500.000
G1 X-86.897 Y20.289 Z3.875 F2500.000
G1 X-86.897 Y19.590 Z3.968 F2500.000
G1 X-86.897 Y18.990 Z4.036 F2500.000
G1 X-86.897 Y18.591 Z4.076 F2500.000
G1 X-86.897 Y17.992 Z4.129 F2500.000
G1 X-86.897 Y17.592 Z4.158 F2500.000
G1 X-86.897 Y17.293 Z4.178 F2500.000
G1 X-86.897 Y16.694 Z4.209 F2500.000
G1 X-86.897 Y15.895 Z4.237 F2500.000
G1 X-86.897 Y15.396 Z4.245 F2500.000
G1 X-86.897 Y14.996 Z4.248 F2500.000
G1 X-86.897 Y14.597 Z4.245 F2500.000
G1 X-86.897 Y14.098 Z4.237 F2500.000
G1 X-86.897 Y13.299 Z4.209 F2500.000
G1 X-86.897 Y12.700 Z4.177 F2500.000
G1 X-86.897 Y12.400 Z4.158 F2500.000
G1 X-86.897 Y12.001 Z4.128 F2500.000
G1 X-86.897 Y11.401 Z4.076 F2500.000
G1 X-86.897 Y10.702 Z4.002 F2500.000
G1 X-86.897 Y10.403 Z3.967 F2500.000
G1 X-86.897 Y9.804 Z3.888 F2500.000
G1 X-86.897 Y9.105 Z3.785 F2500.000
G1 X-86.897 Y8.506 Z3.685 F2500.000
G1 X-86.897 Y8.106 Z3.613 F2500.000
G1 X-86.881 Y8.103 Z3.612 F2500.000
G1 X-48.103 Y8.103 Z3.612 F2500.000
(Break)
G1 X-47.503 Y7.503 Z3.496 F2500.000
(part 25.)
G1 X-47.503 Y7.503 Z3.496 F2500.000
G1 X-47.503 Y7.603 Z3.516 F2500.000
G1 X-47.503 Y8.102 Z3.612 F2500.000
G1 X-47.503 Y8.501 Z3.684 F2500.000
G1 X-47.503 Y9.101 Z3.784 F2500.000
G1 X-47.503 Y9.500 Z3.845 F2500.000
G1 X-47.503 Y9.999 Z3.915 F2500.000
G1 X-47.503 Y10.399 Z3.966 F2500.000
G1 X-47.503 Y10.798 Z4.013 F2500.000
G1 X-47.503 Y11.398 Z4.075 F2500.000
G1 X-47.503 Y11.997 Z4.128 F2500.000
G1 X-47.503 Y12.396 Z4.158 F2500.000
G1 X-47.503 Y12.796 Z4.183 F2500.000
G1 X-47.503 Y13.295 Z4.209 F2500.000
G1 X-47.503 Y14.094 Z4.236 F2500.000
G1 X-47.503 Y14.593 Z4.245 F2500.000
G1 X-47.503 Y14.993 Z4.248 F2500.000
G1 X-47.503 Y15.392 Z4.245 F2500.000
G1 X-47.503 Y15.991 Z4.235 F2500.000
G1 X-47.503 Y16.391 Z4.222 F2500.000
G1 X-47.503 Y16.890 Z4.200 F2500.000
G1 X-47.503 Y17.689 Z4.151 F2500.000
G1 X-47.503 Y18.288 Z4.104 F2500.000
G1 X-47.503 Y18.688 Z4.067 F2500.000
G1 X-47.503 Y19.187 Z4.014 F2500.000
G1 X-47.503 Y19.587 Z3.968 F2500.000
G1 X-47.503 Y20.186 Z3.890 F2500.000
G1 X-47.503 Y20.585 Z3.832 F2500.000
G1 X-47.503 Y21.184 Z3.738 F2500.000
G1 X-47.503 Y21.584 Z3.669 F2500.000
G1 X-47.503 Y22.183 Z3.558 F2500.000
G1 X-47.503 Y22.483 Z3.499 F2500.000
G1 X-47.508 Y22.497 Z3.496 F2500.000
G1 X-87.488 Y22.497 Z3.496 F2500.000
G1 X-87.497 Y22.486 Z3.498 F2500.000
G1 X-87.497 Y22.187 Z3.557 F2500.000
G1 X-87.497 Y21.587 Z3.668 F2500.000
G1 X-87.497 Y21.188 Z3.737 F2500.000
G1 X-87.497 Y20.589 Z3.832 F2500.000
G1 X-87.497 Y20.189 Z3.889 F2500.000
G1 X-87.497 Y19.590 Z3.968 F2500.000
G1 X-87.497 Y19.191 Z4.014 F2500.000
G1 X-87.497 Y18.691 Z4.066 F2500.000
G1 X-87.497 Y17.892 Z4.136 F2500.000
G1 X-87.497 Y17.293 Z4.178 F2500.000
G1 X-87.497 Y16.894 Z4.200 F2500.000
G1 X-87.497 Y16.394 Z4.222 F2500.000
G1 X-87.497 Y15.995 Z4.234 F2500.000
G1 X-87.497 Y15.595 Z4.243 F2500.000
G1 X-87.497 Y14.996 Z4.248 F2500.000
G1 X-87.497 Y14.397 Z4.243 F2500.000
G1 X-87.497 Y13.998 Z4.234 F2500.000
G1 X-87.497 Y13.598 Z4.221 F2500.000
G1 X-87.497 Y13.099 Z4.199 F2500.000
G1 X-87.497 Y12.699 Z4.177 F2500.000
G1 X-87.497 Y12.100 Z4.136 F2500.000
G1 X-87.497 Y11.301 Z4.066 F2500.000
G1 X-87.497 Y10.802 Z4.013 F2500.000
G1 X-87.497 Y10.402 Z3.967 F2500.000
G1 X-87.497 Y9.803 Z3.888 F2500.000
G1 X-87.497 Y9.404 Z3.831 F2500.000
G1 X-87.497 Y9.104 Z3.784 F2500.000
G1 X-87.497 Y8.505 Z3.685 F2500.000
G1 X-87.497 Y8.105 Z3.613 F2500.000
G1 X-87.497 Y7.506 Z3.497 F2500.000
G1 X-87.481 Y7.503 Z3.496 F2500.000
G1 X-47.503 Y7.503 Z3.496 F2500.000
(Break)
G1 X-46.903 Y6.903 Z3.369 F2500.000
(part 27.)
G1 X-46.903 Y6.903 Z3.369 F2500.000
G1 X-46.903 Y7.003 Z3.391 F2500.000
G1 X-46.903 Y7.502 Z3.496 F2500.000
G1 X-46.903 Y8.101 Z3.612 F2500.000
G1 X-46.903 Y8.501 Z3.684 F2500.000
G1 X-46.903 Y9.100 Z3.784 F2500.000
G1 X-46.903 Y9.699 Z3.874 F2500.000
G1 X-46.903 Y10.099 Z3.928 F2500.000
G1 X-46.903 Y10.498 Z3.978 F2500.000
G1 X-46.903 Y10.998 Z4.035 F2500.000
G1 X-46.903 Y11.397 Z4.075 F2500.000
G1 X-46.903 Y11.996 Z4.128 F2500.000
G1 X-46.903 Y12.396 Z4.158 F2500.000
G1 X-46.903 Y12.995 Z4.194 F2500.000
G1 X-46.903 Y13.395 Z4.213 F2500.000
G1 X-46.903 Y13.994 Z4.234 F2500.000
G1 X-46.903 Y14.393 Z4.243 F2500.000
G1 X-46.903 Y14.993 Z4.248 F2500.000
G1 X-46.903 Y15.392 Z4.245 F2500.000
G1 X-46.903 Y15.992 Z4.235 F2500.000
G1 X-46.903 Y16.591 Z4.214 F2500.000
G1 X-46.903 Y16.990 Z4.195 F2500.000
G1 X-46.903 Y17.590 Z4.159 F2500.000
G1 X-46.903 Y17.989 Z4.129 F2500.000
G1 X-46.903 Y18.588 Z4.077 F2500.000
G1 X-46.903 Y18.988 Z4.036 F2500.000
G1 X-46.903 Y19.587 Z3.968 F2500.000
G1 X-46.903 Y20.186 Z3.890 F2500.000
G1 X-46.903 Y20.586 Z3.832 F2500.000
G1 X-46.903 Y21.185 Z3.738 F2500.000
G1 X-46.903 Y21.585 Z3.669 F2500.000
G1 X-46.903 Y22.184 Z3.558 F2500.000
G1 X-46.903 Y22.583 Z3.478 F2500.000
G1 X-46.903 Y23.083 Z3.372 F2500.000
G1 X-46.908 Y23.097 Z3.369 F2500.000
G1 X-88.088 Y23.097 Z3.369 F2500.000
G1 X-88.097 Y23.086 Z3.371 F2500.000
G1 X-88.097 Y22.587 Z3.477 F2500.000
G1 X-88.097 Y22.187 Z3.557 F2500.000
G1 X-88.097 Y21.588 Z3.668 F2500.000
G1 X-88.097 Y20.989 Z3.769 F2500.000
G1 X-88.097 Y20.489 Z3.846 F2500.000
G1 X-88.097 Y19.890 Z3.930 F2500.000
G1 X-88.097 Y19.591 Z3.968 F2500.000
G1 X-88.097 Y18.991 Z4.036 F2500.000
G1 X-88.097 Y18.592 Z4.076 F2500.000
G1 X-88.097 Y17.993 Z4.129 F2500.000
G1 X-88.097 Y17.593 Z4.158 F2500.000
G1 X-88.097 Y16.994 Z4.195 F2500.000
G1 X-88.097 Y16.594 Z4.214 F2500.000
G1 X-88.097 Y15.995 Z4.234 F2500.000
G1 X-88.097 Y15.596 Z4.243 F2500.000
G1 X-88.097 Y14.996 Z4.248 F2500.000
G1 X-88.097 Y14.397 Z4.243 F2500.000
G1 X-88.097 Y13.997 Z4.234 F2500.000
G1 X-88.097 Y13.398 Z4.213 F2500.000
G1 X-88.097 Y12.999 Z4.194 F2500.000
G1 X-88.097 Y12.399 Z4.158 F2500.000
G1 X-88.097 Y12.000 Z4.128 F2500.000
G1 X-88.097 Y11.401 Z4.076 F2500.000
G1 X-88.097 Y11.001 Z4.035 F2500.000
G1 X-88.097 Y10.402 Z3.967 F2500.000
G1 X-88.097 Y9.803 Z3.888 F2500.000
G1 X-88.097 Y9.403 Z3.830 F2500.000
G1 X-88.097 Y8.804 Z3.736 F2500.000
G1 X-88.097 Y8.404 Z3.667 F2500.000
G1 X-88.097 Y7.805 Z3.556 F2500.000
G1 X-88.097 Y7.406 Z3.476 F2500.000
G1 X-88.097 Y6.906 Z3.370 F2500.000
G1 X-88.081 Y6.903 Z3.369 F2500.000
G1 X-46.903 Y6.903 Z3.369 F2500.000
(Break)
G1 X-46.303 Y6.303 Z3.232 F2500.000
(part 29.)
G1 X-46.303 Y6.303 Z3.232 F2500.000
G1 X-46.303 Y6.403 Z3.256 F2500.000
G1 X-46.303 Y6.902 Z3.369 F2500.000
G1 X-46.303 Y7.501 Z3.496 F2500.000
G1 X-46.303 Y8.101 Z3.612 F2500.000
G1 X-46.303 Y8.500 Z3.684 F2500.000
G1 X-46.303 Y9.100 Z3.784 F2500.000
G1 X-46.303 Y9.699 Z3.873 F2500.000
G1 X-46.303 Y10.098 Z3.928 F2500.000
G1 X-46.303 Y10.698 Z4.002 F2500.000
G1 X-46.303 Y11.097 Z4.045 F2500.000
G1 X-46.303 Y11.697 Z4.103 F2500.000
G1 X-46.303 Y12.096 Z4.136 F2500.000
G1 X-46.303 Y12.695 Z4.177 F2500.000
G1 X-46.303 Y13.295 Z4.209 F2500.000
G1 X-46.303 Y13.694 Z4.225 F2500.000
G1 X-46.303 Y14.294 Z4.241 F2500.000
G1 X-46.303 Y14.993 Z4.248 F2500.000
G1 X-46.303 Y15.392 Z4.245 F2500.000
G1 X-46.303 Y15.992 Z4.235 F2500.000
G1 X-46.303 Y16.691 Z4.210 F2500.000
G1 X-46.303 Y17.290 Z4.178 F2500.000
G1 X-46.303 Y17.690 Z4.151 F2500.000
G1 X-46.303 Y18.289 Z4.104 F2500.000
G1 X-46.303 Y18.888 Z4.047 F2500.000
G1 X-46.303 Y19.288 Z4.003 F2500.000
G1 X-46.303 Y19.887 Z3.930 F2500.000
G1 X-46.303 Y20.287 Z3.876 F2500.000
G1 X-46.303 Y20.886 Z3.786 F2500.000
G1 X-46.303 Y21.485 Z3.686 F2500.000
G1 X-46.303 Y22.184 Z3.558 F2500.000
G1 X-46.303 Y22.584 Z3.478 F2500.000
G1 X-46.303 Y23.183 Z3.350 F2500.000
G1 X-46.303 Y23.683 Z3.236 F2500.000
G1 X-46.308 Y23.697 Z3.232 F2500.000
G1 X-88.688 Y23.697 Z3.232 F2500.000
G1 X-88.697 Y23.686 Z3.235 F2500.000
G1 X-88.697 Y23.087 Z3.371 F2500.000
G1 X-88.697 Y22.488 Z3.498 F2500.000
G1 X-88.697 Y21.888 Z3.614 F2500.000
G1 X-88.697 Y21.489 Z3.686 F2500.000
G1 X-88.697 Y20.889 Z3.785 F2500.000
G1 X-88.697 Y20.290 Z3.875 F2500.000
G1 X-88.697 Y19.891 Z3.929 F2500.000
G1 X-88.697 Y19.291 Z4.003 F2500.000
G1 X-88.697 Y18.892 Z4.046 F2500.000
G1 X-88.697 Y18.292 Z4.104 F2500.000
G1 X-88.697 Y17.893 Z4.136 F2500.000
G1 X-88.697 Y17.294 Z4.178 F2500.000
G1 X-88.697 Y16.594 Z4.214 F2500.000
G1 X-88.697 Y15.995 Z4.234 F2500.000
G1 X-88.697 Y15.596 Z4.243 F2500.000
G1 X-88.697 Y14.996 Z4.248 F2500.000
G1 X-88.697 Y14.297 Z4.241 F2500.000
G1 X-88.697 Y13.698 Z4.225 F2500.000
G1 X-88.697 Y13.298 Z4.209 F2500.000
G1 X-88.697 Y12.699 Z4.177 F2500.000
G1 X-88.697 Y12.100 Z4.136 F2500.000
G1 X-88.697 Y11.700 Z4.103 F2500.000
G1 X-88.697 Y11.101 Z4.046 F2500.000
G1 X-88.697 Y10.701 Z4.002 F2500.000
G1 X-88.697 Y10.102 Z3.929 F2500.000
G1 X-88.697 Y9.702 Z3.874 F2500.000
G1 X-88.697 Y9.103 Z3.784 F2500.000
G1 X-88.697 Y8.504 Z3.684 F2500.000
G1 X-88.697 Y8.104 Z3.613 F2500.000
G1 X-88.697 Y7.505 Z3.496 F2500.000
G1 X-88.697 Y6.906 Z3.370 F2500.000
G1 X-88.697 Y6.306 Z3.233 F2500.000
G1 X-88.681 Y6.303 Z3.232 F2500.000
G1 X-46.303 Y6.303 Z3.232 F2500.000
(Break)
G1 X-45.703 Y5.703 Z3.085 F2500.000
(part 31.)
G1 X-45.703 Y5.703 Z3.085 F2500.000
G1 X-45.703 Y5.803 Z3.110 F2500.000
G1 X-45.703 Y6.202 Z3.208 F2500.000
G1 X-45.703 Y6.901 Z3.369 F2500.000
G1 X-45.703 Y7.501 Z3.495 F2500.000
G1 X-45.703 Y8.100 Z3.612 F2500.000
G1 X-45.703 Y8.700 Z3.718 F2500.000
G1 X-45.703 Y9.199 Z3.799 F2500.000
G1 X-45.703 Y9.798 Z3.887 F2500.000
G1 X-45.703 Y10.398 Z3.966 F2500.000
G1 X-45.703 Y10.797 Z4.013 F2500.000
G1 X-45.703 Y11.397 Z4.075 F2500.000
G1 X-45.703 Y11.996 Z4.128 F2500.000
G1 X-45.703 Y12.695 Z4.177 F2500.000
G1 X-45.703 Y13.295 Z4.209 F2500.000
G1 X-45.703 Y13.694 Z4.225 F2500.000
G1 X-45.703 Y14.294 Z4.241 F2500.000
G1 X-45.703 Y14.993 Z4.248 F2500.000
G1 X-45.703 Y15.392 Z4.245 F2500.000
G1 X-45.703 Y15.992 Z4.235 F2500.000
G1 X-45.703 Y16.691 Z4.210 F2500.000
G1 X-45.703 Y17.290 Z4.178 F2500.000
G1 X-45.703 Y17.690 Z4.151 F2500.000
G1 X-45.703 Y18.289 Z4.104 F2500.000
G1 X-45.703 Y18.889 Z4.047 F2500.000
G1 X-45.703 Y19.588 Z3.968 F2500.000
G1 X-45.703 Y20.287 Z3.875 F2500.000
G1 X-45.703 Y20.886 Z3.786 F2500.000
G1 X-45.703 Y21.486 Z3.686 F2500.000
G1 X-45.703 Y21.885 Z3.615 F2500.000
G1 X-45.703 Y22.485 Z3.498 F2500.000
G1 X-45.703 Y23.184 Z3.350 F2500.000
G1 X-45.703 Y23.783 Z3.212 F2500.000
G1 X-45.703 Y24.283 Z3.089 F2500.000
G1 X-45.708 Y24.297 Z3.085 F2500.000
G1 X-89.288 Y24.297 Z3.085 F2500.000
G1 X-89.297 Y24.286 Z3.088 F2500.000
G1 X-89.297 Y23.787 Z3.211 F2500.000
G1 X-89.297 Y23.088 Z3.371 F2500.000
G1 X-89.297 Y22.488 Z3.498 F2500.000
G1 X-89.297 Y21.889 Z3.614 F2500.000
G1 X-89.297 Y21.489 Z3.686 F2500.000
G1 X-89.297 Y20.890 Z3.785 F2500.000
G1 X-89.297 Y20.291 Z3.875 F2500.000
G1 X-89.297 Y19.591 Z3.967 F2500.000
G1 X-89.297 Y18.892 Z4.046 F2500.000
G1 X-89.297 Y18.293 Z4.104 F2500.000
G1 X-89.297 Y17.893 Z4.136 F2500.000
G1 X-89.297 Y17.294 Z4.178 F2500.000
G1 X-89.297 Y16.595 Z4.214 F2500.000
G1 X-89.297 Y15.995 Z4.234 F2500.000
G1 X-89.297 Y15.596 Z4.243 F2500.000
G1 X-89.297 Y14.996 Z4.248 F2500.000
G1 X-89.297 Y14.297 Z4.241 F2500.000
G1 X-89.297 Y13.698 Z4.225 F2500.000
G1 X-89.297 Y13.298 Z4.209 F2500.000
G1 X-89.297 Y12.699 Z4.177 F2500.000
G1 X-89.297 Y11.999 Z4.128 F2500.000
G1 X-89.297 Y11.400 Z4.076 F2500.000
G1 X-89.297 Y11.001 Z4.035 F2500.000
G1 X-89.297 Y10.401 Z3.966 F2500.000
G1 X-89.297 Y9.802 Z3.888 F2500.000
G1 X-89.297 Y9.103 Z3.784 F2500.000
G1 X-89.297 Y8.503 Z3.684 F2500.000
G1 X-89.297 Y8.104 Z3.612 F2500.000
G1 X-89.297 Y7.504 Z3.496 F2500.000
G1 X-89.297 Y6.905 Z3.370 F2500.000
G1 X-89.297 Y6.206 Z3.209 F2500.000
G1 X-89.297 Y5.706 Z3.086 F2500.000
G1 X-89.281 Y5.703 Z3.085 F2500.000
G1 X-45.703 Y5.703 Z3.085 F2500.000
(Break)
G1 X-45.103 Y5.103 Z2.927 F2500.000
(part 33.)
G1 X-45.103 Y5.103 Z2.927 F2500.000
G1 X-45.103 Y5.203 Z2.954 F2500.000
G1 X-45.103 Y5.602 Z3.059 F2500.000
G1 X-45.103 Y6.202 Z3.208 F2500.000
G1 X-45.103 Y6.801 Z3.347 F2500.000
G1 X-45.103 Y7.500 Z3.495 F2500.000
G1 X-45.103 Y8.100 Z3.612 F2500.000
G1 X-45.103 Y8.799 Z3.735 F2500.000
G1 X-45.103 Y9.398 Z3.830 F2500.000
G1 X-45.103 Y10.098 Z3.928 F2500.000
G1 X-45.103 Y10.697 Z4.001 F2500.000
G1 X-45.103 Y11.396 Z4.075 F2500.000
G1 X-45.103 Y11.996 Z4.128 F2500.000
G1 X-45.103 Y12.695 Z4.177 F2500.000
G1 X-45.103 Y13.294 Z4.209 F2500.000
G1 X-45.103 Y13.694 Z4.225 F2500.000
G1 X-45.103 Y14.293 Z4.241 F2500.000
G1 X-45.103 Y14.993 Z4.248 F2500.000
G1 X-45.103 Y15.692 Z4.241 F2500.000
G1 X-45.103 Y16.291 Z4.225 F2500.000
G1 X-45.103 Y16.991 Z4.195 F2500.000
G1 X-45.103 Y17.590 Z4.159 F2500.000
G1 X-45.103 Y18.289 Z4.104 F2500.000
G1 X-45.103 Y18.889 Z4.047 F2500.000
G1 X-45.103 Y19.588 Z3.968 F2500.000
G1 X-45.103 Y19.988 Z3.917 F2500.000
G1 X-45.103 Y20.587 Z3.832 F2500.000
G1 X-45.103 Y21.186 Z3.737 F2500.000
G1 X-45.103 Y21.886 Z3.614 F2500.000
G1 X-45.103 Y22.485 Z3.498 F2500.000
G1 X-45.103 Y23.184 Z3.350 F2500.000
G1 X-45.103 Y23.784 Z3.212 F2500.000
G1 X-45.103 Y24.383 Z3.063 F2500.000
G1 X-45.103 Y24.883 Z2.931 F2500.000
G1 X-45.108 Y24.897 Z2.927 F2500.000
G1 X-89.888 Y24.897 Z2.927 F2500.000
G1 X-89.897 Y24.886 Z2.930 F2500.000
G1 X-89.897 Y24.387 Z3.062 F2500.000
G1 X-89.897 Y23.787 Z3.211 F2500.000
G1 X-89.897 Y23.188 Z3.349 F2500.000
G1 X-89.897 Y22.489 Z3.498 F2500.000
G1 X-89.897 Y21.889 Z3.614 F2500.000
G1 X-89.897 Y21.190 Z3.737 F2500.000
G1 X-89.897 Y20.591 Z3.831 F2500.000
G1 X-89.897 Y19.891 Z3.929 F2500.000
G1 X-89.897 Y19.292 Z4.003 F2500.000
G1 X-89.897 Y18.593 Z4.076 F2500.000
G1 X-89.897 Y17.993 Z4.129 F2500.000
G1 X-89.897 Y17.394 Z4.171 F2500.000
G1 X-89.897 Y16.894 Z4.200 F2500.000
G1 X-89.897 Y16.295 Z4.225 F2500.000
G1 X-89.897 Y15.696 Z4.241 F2500.000
G1 X-89.897 Y14.996 Z4.248 F2500.000
G1 X-89.897 Y14.297 Z4.241 F2500.000
G1 X-89.897 Y13.698 Z4.225 F2500.000
G1 X-89.897 Y13.298 Z4.209 F2500.000
G1 X-89.897 Y12.699 Z4.177 F2500.000
G1 X-89.897 Y11.999 Z4.128 F2500.000
G1 X-89.897 Y11.400 Z4.076 F2500.000
G1 X-89.897 Y10.701 Z4.002 F2500.000
G1 X-89.897 Y10.101 Z3.928 F2500.000
G1 X-89.897 Y9.402 Z3.830 F2500.000
G1 X-89.897 Y8.803 Z3.736 F2500.000
G1 X-89.897 Y8.103 Z3.612 F2500.000
G1 X-89.897 Y7.504 Z3.496 F2500.000
G1 X-89.897 Y6.805 Z3.347 F2500.000
G1 X-89.897 Y6.205 Z3.209 F2500.000
G1 X-89.897 Y5.606 Z3.060 F2500.000
G1 X-89.897 Y5.106 Z2.928 F2500.000
G1 X-89.881 Y5.103 Z2.927 F2500.000
G1 X-45.103 Y5.103 Z2.927 F2500.000
(Break)
G1 X-44.503 Y4.503 Z2.759 F2500.000
(part 35.)
G1 X-44.503 Y4.503 Z2.759 F2500.000
G1 X-44.503 Y4.603 Z2.788 F2500.000
G1 X-44.503 Y5.202 Z2.954 F2500.000
G1 X-44.503 Y5.901 Z3.135 F2500.000
G1 X-44.503 Y6.501 Z3.279 F2500.000
G1 X-44.503 Y7.200 Z3.433 F2500.000
G1 X-44.503 Y7.800 Z3.555 F2500.000
G1 X-44.503 Y8.499 Z3.684 F2500.000
G1 X-44.503 Y9.098 Z3.784 F2500.000
G1 X-44.503 Y9.798 Z3.887 F2500.000
G1 X-44.503 Y10.397 Z3.966 F2500.000
G1 X-44.503 Y11.096 Z4.045 F2500.000
G1 X-44.503 Y11.696 Z4.103 F2500.000
G1 X-44.503 Y12.395 Z4.158 F2500.000
G1 X-44.503 Y12.995 Z4.194 F2500.000
G1 X-44.503 Y13.694 Z4.225 F2500.000
G1 X-44.503 Y14.293 Z4.241 F2500.000
G1 X-44.503 Y14.993 Z4.248 F2500.000
G1 X-44.503 Y15.692 Z4.241 F2500.000
G1 X-44.503 Y16.292 Z4.225 F2500.000
G1 X-44.503 Y16.991 Z4.195 F2500.000
G1 X-44.503 Y17.590 Z4.158 F2500.000
G1 X-44.503 Y18.290 Z4.104 F2500.000
G1 X-44.503 Y18.889 Z4.047 F2500.000
G1 X-44.503 Y19.588 Z3.968 F2500.000
G1 X-44.503 Y20.288 Z3.875 F2500.000
G1 X-44.503 Y20.887 Z3.786 F2500.000
G1 X-44.503 Y21.586 Z3.669 F2500.000
G1 X-44.503 Y22.186 Z3.558 F2500.000
G1 X-44.503 Y22.885 Z3.415 F2500.000
G1 X-44.503 Y23.485 Z3.282 F2500.000
G1 X-44.503 Y24.184 Z3.114 F2500.000
G1 X-44.503 Y24.983 Z2.904 F2500.000
G1 X-44.503 Y25.483 Z2.763 F2500.000
G1 X-44.508 Y25.497 Z2.759 F2500.000
G1 X-90.488 Y25.497 Z2.759 F2500.000
G1 X-90.497 Y25.486 Z2.762 F2500.000
G1 X-90.497 Y24.787 Z2.957 F2500.000
G1 X-90.497 Y24.187 Z3.113 F2500.000
G1 X-90.497 Y23.488 Z3.281 F2500.000
G1 X-90.497 Y22.889 Z3.414 F2500.000
G1 X-90.497 Y22.189 Z3.557 F2500.000
G1 X-90.497 Y21.590 Z3.668 F2500.000
G1 X-90.497 Y20.891 Z3.785 F2500.000
G1 X-90.497 Y20.291 Z3.875 F2500.000
G1 X-90.497 Y19.592 Z3.967 F2500.000
G1 X-90.497 Y18.893 Z4.046 F2500.000
G1 X-90.497 Y18.293 Z4.104 F2500.000
G1 X-90.497 Y17.594 Z4.158 F2500.000
G1 X-90.497 Y16.994 Z4.195 F2500.000
G1 X-90.497 Y16.295 Z4.225 F2500.000
G1 X-90.497 Y15.696 Z4.241 F2500.000
G1 X-90.497 Y14.996 Z4.248 F2500.000
G1 X-90.497 Y14.297 Z4.241 F2500.000
G1 X-90.497 Y13.697 Z4.225 F2500.000
G1 X-90.497 Y12.998 Z4.194 F2500.000
G1 X-90.497 Y12.399 Z4.158 F2500.000
G1 X-90.497 Y11.699 Z4.103 F2500.000
G1 X-90.497 Y11.100 Z4.046 F2500.000
G1 X-90.497 Y10.401 Z3.966 F2500.000
G1 X-90.497 Y9.701 Z3.874 F2500.000
G1 X-90.497 Y9.102 Z3.784 F2500.000
G1 X-90.497 Y8.403 Z3.667 F2500.000
G1 X-90.497 Y7.803 Z3.555 F2500.000
G1 X-90.497 Y7.104 Z3.413 F2500.000
G1 X-90.497 Y6.504 Z3.279 F2500.000
G1 X-90.497 Y5.905 Z3.136 F2500.000
G1 X-90.497 Y5.206 Z2.955 F2500.000
G1 X-90.497 Y4.506 Z2.760 F2500.000
G1 X-90.481 Y4.503 Z2.759 F2500.000
G1 X-44.503 Y4.503 Z2.759 F2500.000
(Break)
G1 X-43.903 Y3.903 Z2.580 F2500.000
(part 37.)
G1 X-43.903 Y3.903 Z2.580 F2500.000
G1 X-43.903 Y4.003 Z2.611 F2500.000
G1 X-43.903 Y4.602 Z2.788 F2500.000
G1 X-43.903 Y5.301 Z2.981 F2500.000
G1 X-43.903 Y5.901 Z3.135 F2500.000
G1 X-43.903 Y6.600 Z3.301 F2500.000
G1 X-43.903 Y7.400 Z3.475 F2500.000
G1 X-43.903 Y8.099 Z3.612 F2500.000
G1 X-43.903 Y8.798 Z3.735 F2500.000
G1 X-43.903 Y9.398 Z3.830 F2500.000
G1 X-43.903 Y10.097 Z3.928 F2500.000
G1 X-43.903 Y10.697 Z4.001 F2500.000
G1 X-43.903 Y11.396 Z4.075 F2500.000
G1 X-43.903 Y12.095 Z4.136 F2500.000
G1 X-43.903 Y12.795 Z4.183 F2500.000
G1 X-43.903 Y13.594 Z4.221 F2500.000
G1 X-43.903 Y14.293 Z4.241 F2500.000
G1 X-43.903 Y14.993 Z4.248 F2500.000
G1 X-43.903 Y15.692 Z4.241 F2500.000
G1 X-43.903 Y16.391 Z4.222 F2500.000
G1 X-43.903 Y16.891 Z4.200 F2500.000
G1 X-43.903 Y17.291 Z4.178 F2500.000
G1 X-43.903 Y17.890 Z4.137 F2500.000
G1 X-43.903 Y18.590 Z4.077 F2500.000
G1 X-43.903 Y19.289 Z4.003 F2500.000
G1 X-43.903 Y19.888 Z3.930 F2500.000
G1 X-43.903 Y20.588 Z3.832 F2500.000
G1 X-43.903 Y20.987 Z3.770 F2500.000
G1 X-43.903 Y21.487 Z3.686 F2500.000
G1 X-43.903 Y22.186 Z3.558 F2500.000
G1 X-43.903 Y22.786 Z3.436 F2500.000
G1 X-43.903 Y23.485 Z3.282 F2500.000
G1 X-43.903 Y24.085 Z3.139 F2500.000
G1 X-43.903 Y24.784 Z2.958 F2500.000
G1 X-43.903 Y25.383 Z2.792 F2500.000
G1 X-43.903 Y26.083 Z2.585 F2500.000
G1 X-43.908 Y26.097 Z2.580 F2500.000
G1 X-91.088 Y26.097 Z2.580 F2500.000
G1 X-91.097 Y26.086 Z2.583 F2500.000
G1 X-91.097 Y25.387 Z2.791 F2500.000
G1 X-91.097 Y24.787 Z2.957 F2500.000
G1 X-91.097 Y24.088 Z3.138 F2500.000
G1 X-91.097 Y23.389 Z3.304 F2500.000
G1 X-91.097 Y22.589 Z3.477 F2500.000
G1 X-91.097 Y21.890 Z3.614 F2500.000
G1 X-91.097 Y21.191 Z3.737 F2500.000
G1 X-91.097 Y20.591 Z3.831 F2500.000
G1 X-91.097 Y19.892 Z3.929 F2500.000
G1 X-91.097 Y19.292 Z4.003 F2500.000
G1 X-91.097 Y18.593 Z4.076 F2500.000
G1 X-91.097 Y17.894 Z4.136 F2500.000
G1 X-91.097 Y17.294 Z4.178 F2500.000
G1 X-91.097 Y16.895 Z4.200 F2500.000
G1 X-91.097 Y16.395 Z4.222 F2500.000
G1 X-91.097 Y15.696 Z4.241 F2500.000
G1 X-91.097 Y14.996 Z4.248 F2500.000
G1 X-91.097 Y14.297 Z4.241 F2500.000
G1 X-91.097 Y13.598 Z4.221 F2500.000
G1 X-91.097 Y13.098 Z4.199 F2500.000
G1 X-91.097 Y12.698 Z4.177 F2500.000
G1 X-91.097 Y12.099 Z4.136 F2500.000
G1 X-91.097 Y11.399 Z4.076 F2500.000
G1 X-91.097 Y10.700 Z4.002 F2500.000
G1 X-91.097 Y10.101 Z3.928 F2500.000
G1 X-91.097 Y9.401 Z3.830 F2500.000
G1 X-91.097 Y8.802 Z3.735 F2500.000
G1 X-91.097 Y8.102 Z3.612 F2500.000
G1 X-91.097 Y7.403 Z3.475 F2500.000
G1 X-91.097 Y6.604 Z3.302 F2500.000
G1 X-91.097 Y5.904 Z3.136 F2500.000
G1 X-91.097 Y5.205 Z2.955 F2500.000
G1 X-91.097 Y4.606 Z2.789 F2500.000
G1 X-91.097 Y3.906 Z2.581 F2500.000
G1 X-91.081 Y3.903 Z2.580 F2500.000
G1 X-43.903 Y3.903 Z2.580 F2500.000
(Break)
G1 X-43.303 Y3.303 Z2.390 F2500.000
(part 39.)
G1 X-43.303 Y3.303 Z2.390 F2500.000
G1 X-43.303 Y3.403 Z2.423 F2500.000
G1 X-43.303 Y3.902 Z2.580 F2500.000
G1 X-43.303 Y4.302 Z2.701 F2500.000
G1 X-43.303 Y4.901 Z2.872 F2500.000
G1 X-43.303 Y5.601 Z3.059 F2500.000
G1 X-43.303 Y6.200 Z3.208 F2500.000
G1 X-43.303 Y6.800 Z3.346 F2500.000
G1 X-43.303 Y7.499 Z3.495 F2500.000
G1 X-43.303 Y8.199 Z3.630 F2500.000
G1 X-43.303 Y8.698 Z3.718 F2500.000
G1 X-43.303 Y9.098 Z3.783 F2500.000
G1 X-43.303 Y9.797 Z3.887 F2500.000
G1 X-43.303 Y10.497 Z3.978 F2500.000
G1 X-43.303 Y11.296 Z4.065 F2500.000
G1 X-43.303 Y11.995 Z4.128 F2500.000
G1 X-43.303 Y12.695 Z4.177 F2500.000
G1 X-43.303 Y13.394 Z4.213 F2500.000
G1 X-43.303 Y13.694 Z4.225 F2500.000
G1 X-43.303 Y14.293 Z4.241 F2500.000
G1 X-43.303 Y14.993 Z4.248 F2500.000
G1 X-43.303 Y15.692 Z4.241 F2500.000
G1 X-43.303 Y15.992 Z4.235 F2500.000
G1 X-43.303 Y16.591 Z4.214 F2500.000
G1 X-43.303 Y17.291 Z4.178 F2500.000
G1 X-43.303 Y17.990 Z4.129 F2500.000
G1 X-43.303 Y18.290 Z4.104 F2500.000
G1 X-43.303 Y18.889 Z4.047 F2500.000
G1 X-43.303 Y19.589 Z3.968 F2500.000
G1 X-43.303 Y20.288 Z3.875 F2500.000
G1 X-43.303 Y20.888 Z3.786 F2500.000
G1 X-43.303 Y21.587 Z3.668 F2500.000
G1 X-43.303 Y22.187 Z3.557 F2500.000
G1 X-43.303 Y22.886 Z3.415 F2500.000
G1 X-43.303 Y23.386 Z3.305 F2500.000
G1 X-43.303 Y23.785 Z3.211 F2500.000
G1 X-43.303 Y24.485 Z3.037 F2500.000
G1 X-43.303 Y24.984 Z2.904 F2500.000
G1 X-43.303 Y25.384 Z2.792 F2500.000
G1 X-43.303 Y26.083 Z2.584 F2500.000
G1 X-43.303 Y26.683 Z2.395 F2500.000
G1 X-43.308 Y26.697 Z2.390 F2500.000
G1 X-91.688 Y26.697 Z2.390 F2500.000
G1 X-91.697 Y26.686 Z2.394 F2500.000
G1 X-91.697 Y25.987 Z2.614 F2500.000
G1 X-91.697 Y25.387 Z2.791 F2500.000
G1 X-91.697 Y24.688 Z2.984 F2500.000
G1 X-91.697 Y24.188 Z3.112 F2500.000
G1 X-91.697 Y23.789 Z3.211 F2500.000
G1 X-91.697 Y23.089 Z3.371 F2500.000
G1 X-91.697 Y22.590 Z3.477 F2500.000
G1 X-91.697 Y22.190 Z3.557 F2500.000
G1 X-91.697 Y21.491 Z3.685 F2500.000
G1 X-91.697 Y20.891 Z3.785 F2500.000
G1 X-91.697 Y20.292 Z3.875 F2500.000
G1 X-91.697 Y19.592 Z3.967 F2500.000
G1 X-91.697 Y18.893 Z4.046 F2500.000
G1 X-91.697 Y18.293 Z4.104 F2500.000
G1 X-91.697 Y17.994 Z4.129 F2500.000
G1 X-91.697 Y17.294 Z4.178 F2500.000
G1 X-91.697 Y16.595 Z4.214 F2500.000
G1 X-91.697 Y15.696 Z4.241 F2500.000
G1 X-91.697 Y14.996 Z4.248 F2500.000
G1 X-91.697 Y14.297 Z4.241 F2500.000
G1 X-91.697 Y13.398 Z4.213 F2500.000
G1 X-91.697 Y12.698 Z4.177 F2500.000
G1 X-91.697 Y11.999 Z4.128 F2500.000
G1 X-91.697 Y11.299 Z4.066 F2500.000
G1 X-91.697 Y10.500 Z3.978 F2500.000
G1 X-91.697 Y9.801 Z3.888 F2500.000
G1 X-91.697 Y9.101 Z3.784 F2500.000
G1 X-91.697 Y8.402 Z3.666 F2500.000
G1 X-91.697 Y7.902 Z3.574 F2500.000
G1 X-91.697 Y7.503 Z3.496 F2500.000
G1 X-91.697 Y6.803 Z3.347 F2500.000
G1 X-91.697 Y6.204 Z3.209 F2500.000
G1 X-91.697 Y5.504 Z3.034 F2500.000
G1 X-91.697 Y4.705 Z2.817 F2500.000
G1 X-91.697 Y4.006 Z2.612 F2500.000
G1 X-91.697 Y3.306 Z2.391 F2500.000
G1 X-91.681 Y3.303 Z2.390 F2500.000
G1 X-43.303 Y3.303 Z2.390 F2500.000
(Break)
G1 X-42.703 Y2.703 Z2.189 F2500.000
(part 41.)
G1 X-42.703 Y2.703 Z2.189 F2500.000
G1 X-42.703 Y2.803 Z2.223 F2500.000
G1 X-42.703 Y3.602 Z2.486 F2500.000
G1 X-42.703 Y4.301 Z2.700 F2500.000
G1 X-42.703 Y4.701 Z2.816 F2500.000
G1 X-42.703 Y5.201 Z2.954 F2500.000
G1 X-42.703 Y5.900 Z3.135 F2500.000
G1 X-42.703 Y6.600 Z3.301 F2500.000
G1 X-42.703 Y7.399 Z3.474 F2500.000
G1 X-42.703 Y8.098 Z3.611 F2500.000
G1 X-42.703 Y8.798 Z3.735 F2500.000
G1 X-42.703 Y9.197 Z3.799 F2500.000
G1 X-42.703 Y9.697 Z3.873 F2500.000
G1 X-42.703 Y10.396 Z3.966 F2500.000
G1 X-42.703 Y11.096 Z4.045 F2500.000
G1 X-42.703 Y11.396 Z4.075 F2500.000
G1 X-42.703 Y11.995 Z4.128 F2500.000
G1 X-42.703 Y12.695 Z4.177 F2500.000
G1 X-42.703 Y13.394 Z4.213 F2500.000
G1 X-42.703 Y13.694 Z4.225 F2500.000
G1 X-42.703 Y14.293 Z4.241 F2500.000
G1 X-42.703 Y14.993 Z4.248 F2500.000
G1 X-42.703 Y15.692 Z4.241 F2500.000
G1 X-42.703 Y15.992 Z4.235 F2500.000
G1 X-42.703 Y16.591 Z4.214 F2500.000
G1 X-42.703 Y17.291 Z4.178 F2500.000
G1 X-42.703 Y17.990 Z4.129 F2500.000
G1 X-42.703 Y18.290 Z4.104 F2500.000
G1 X-42.703 Y18.890 Z4.047 F2500.000
G1 X-42.703 Y19.589 Z3.968 F2500.000
G1 X-42.703 Y20.288 Z3.875 F2500.000
G1 X-42.703 Y20.888 Z3.786 F2500.000
G1 X-42.703 Y21.188 Z3.737 F2500.000
G1 X-42.703 Y21.887 Z3.614 F2500.000
G1 X-42.703 Y22.187 Z3.557 F2500.000
G1 X-42.703 Y22.786 Z3.436 F2500.000
G1 X-42.703 Y23.486 Z3.282 F2500.000
G1 X-42.703 Y23.886 Z3.187 F2500.000
G1 X-42.703 Y24.385 Z3.063 F2500.000
G1 X-42.703 Y25.085 Z2.876 F2500.000
G1 X-42.703 Y25.384 Z2.792 F2500.000
G1 X-42.703 Y25.984 Z2.615 F2500.000
G1 X-42.703 Y26.683 Z2.395 F2500.000
G1 X-42.703 Y27.283 Z2.194 F2500.000
G1 X-42.708 Y27.297 Z2.189 F2500.000
G1 X-92.288 Y27.297 Z2.189 F2500.000
G1 X-92.297 Y27.286 Z2.193 F2500.000
G1 X-92.297 Y26.587 Z2.426 F2500.000
G1 X-92.297 Y25.787 Z2.674 F2500.000
G1 X-92.297 Y25.088 Z2.875 F2500.000
G1 X-92.297 Y24.389 Z3.062 F2500.000
G1 X-92.297 Y23.889 Z3.186 F2500.000
G1 X-92.297 Y23.489 Z3.281 F2500.000
G1 X-92.297 Y22.790 Z3.435 F2500.000
G1 X-92.297 Y22.190 Z3.557 F2500.000
G1 X-92.297 Y21.891 Z3.614 F2500.000
G1 X-92.297 Y21.191 Z3.737 F2500.000
G1 X-92.297 Y20.891 Z3.785 F2500.000
G1 X-92.297 Y20.292 Z3.875 F2500.000
G1 X-92.297 Y19.593 Z3.967 F2500.000
G1 X-92.297 Y18.893 Z4.046 F2500.000
G1 X-92.297 Y18.294 Z4.104 F2500.000
G1 X-92.297 Y17.994 Z4.129 F2500.000
G1 X-92.297 Y17.294 Z4.178 F2500.000
G1 X-92.297 Y16.595 Z4.214 F2500.000
G1 X-92.297 Y15.696 Z4.241 F2500.000
G1 X-92.297 Y14.996 Z4.248 F2500.000
G1 X-92.297 Y14.297 Z4.241 F2500.000
G1 X-92.297 Y13.398 Z4.213 F2500.000
G1 X-92.297 Y12.698 Z4.177 F2500.000
G1 X-92.297 Y11.999 Z4.128 F2500.000
G1 X-92.297 Y11.399 Z4.075 F2500.000
G1 X-92.297 Y11.099 Z4.045 F2500.000
G1 X-92.297 Y10.400 Z3.966 F2500.000
G1 X-92.297 Y9.701 Z3.874 F2500.000
G1 X-92.297 Y9.201 Z3.799 F2500.000
G1 X-92.297 Y8.801 Z3.735 F2500.000
G1 X-92.297 Y8.102 Z3.612 F2500.000
G1 X-92.297 Y7.502 Z3.496 F2500.000
G1 X-92.297 Y7.203 Z3.434 F2500.000
G1 X-92.297 Y6.503 Z3.279 F2500.000
G1 X-92.297 Y6.203 Z3.209 F2500.000
G1 X-92.297 Y5.604 Z3.060 F2500.000
G1 X-92.297 Y4.904 Z2.873 F2500.000
G1 X-92.297 Y4.205 Z2.672 F2500.000
G1 X-92.297 Y3.406 Z2.424 F2500.000
G1 X-92.297 Y2.706 Z2.190 F2500.000
G1 X-92.281 Y2.703 Z2.189 F2500.000
G1 X-42.703 Y2.703 Z2.189 F2500.000
(Break)
G1 X-42.103 Y2.103 Z1.977 F2500.000
(part 43.)
G1 X-42.103 Y2.103 Z1.977 F2500.000
G1 X-42.103 Y2.203 Z2.013 F2500.000
G1 X-42.103 Y3.002 Z2.291 F2500.000
G1 X-42.103 Y3.702 Z2.518 F2500.000
G1 X-42.103 Y4.301 Z2.700 F2500.000
G1 X-42.103 Y4.601 Z2.787 F2500.000
G1 X-42.103 Y5.300 Z2.980 F2500.000
G1 X-42.103 Y5.800 Z3.109 F2500.000
G1 X-42.103 Y6.200 Z3.208 F2500.000
G1 X-42.103 Y6.899 Z3.368 F2500.000
G1 X-42.103 Y7.399 Z3.474 F2500.000
G1 X-42.103 Y7.798 Z3.554 F2500.000
G1 X-42.103 Y8.498 Z3.683 F2500.000
G1 X-42.103 Y9.097 Z3.783 F2500.000
G1 X-42.103 Y9.397 Z3.829 F2500.000
G1 X-42.103 Y10.097 Z3.928 F2500.000
G1 X-42.103 Y10.796 Z4.013 F2500.000
G1 X-42.103 Y11.296 Z4.065 F2500.000
G1 X-42.103 Y11.695 Z4.103 F2500.000
G1 X-42.103 Y12.095 Z4.135 F2500.000
G1 X-42.103 Y12.695 Z4.177 F2500.000
G1 X-42.103 Y13.394 Z4.213 F2500.000
G1 X-42.103 Y13.694 Z4.225 F2500.000
