(Exported by FreeCAD)
(Post Processor: grbl_post)
(Output Time:2024-03-03 20:46:21.673562)
(Begin preamble)
G17 G90
G21
(Begin operation: TC: 0.5mm_droite)
(Path: TC: 0.5mm_droite)
(TC: 0.5mm_droite)
(Begin toolchange)
( M6 T2 )
M3 S24000
(Finish operation: TC: 0.5mm_droite)
(Begin operation: Fixture)
(Path: Fixture)
G54
(Finish operation: Fixture)
(Begin operation: Pocket_Shape001)
(Path: Pocket_Shape001)
(Pocket_Shape001)
G0 Z12.000
G0 X13.479 Y341.849
G0 Z10.000
G1 X13.479 Y341.849 Z6.750 F60.000
G3 X13.475 Y341.911 Z6.750 I-1.586 J-0.059 K0.000 F200.000
G3 X13.289 Y342.138 Z6.750 I-0.277 J-0.038 K0.000 F200.000
G3 X13.074 Y342.162 Z6.750 I-0.281 J-1.529 K0.000 F200.000
G2 X13.392 Y341.879 Z6.750 I-0.138 J-0.474 K0.000 F200.000
G3 X13.478 Y341.728 Z6.750 I0.370 J0.112 K0.000 F200.000
G3 X13.479 Y341.849 Z6.750 I-1.586 J0.063 K0.000 F200.000
G0 Z12.000
G0 X13.067 Y333.938 Z12.000
G0 X13.067 Y333.938 Z10.000
G1 X13.067 Y333.938 Z6.750 F60.000
G3 X13.029 Y333.940 Z6.750 I-0.102 J-1.972 K0.000 F200.000
G2 X13.478 Y333.521 Z6.750 I-0.130 J-0.589 K0.000 F200.000
G3 X13.475 Y333.699 Z6.750 I-1.555 J0.061 K0.000 F200.000
G3 X13.301 Y333.912 Z6.750 I-0.260 J-0.035 K0.000 F200.000
G3 X13.067 Y333.938 Z6.750 I-0.336 J-1.946 K0.000 F200.000
G0 Z12.000
G0 X17.514 Y330.011 Z12.000
G0 X17.514 Y330.011 Z10.000
G1 X17.514 Y330.011 Z6.750 F60.000
G2 X17.795 Y329.737 Z6.750 I-0.221 J-0.508 K0.000 F200.000
G3 X17.871 Y329.617 Z6.750 I0.286 J0.097 K0.000 F200.000
G3 X17.514 Y330.011 Z6.750 I-0.358 J0.035 K0.000 F200.000
G0 Z12.000
G0 X21.539 Y325.866 Z12.000
G0 X21.539 Y325.866 Z10.000
G1 X21.539 Y325.866 Z6.750 F60.000
G2 X21.945 Y325.464 Z6.750 I-0.201 J-0.609 K0.000 F200.000
G3 X21.918 Y325.673 Z6.750 I-0.435 J0.052 K0.000 F200.000
G3 X21.735 Y325.843 Z6.750 I-0.283 J-0.122 K0.000 F200.000
G3 X21.539 Y325.866 Z6.750 I-0.264 J-1.376 K0.000 F200.000
G0 Z12.000
G0 X21.941 Y314.426 Z12.000
G0 X21.941 Y314.426 Z10.000
G1 X21.941 Y314.426 Z6.750 F60.000
G3 X21.884 Y314.315 Z6.750 I0.228 J-0.189 K0.000 F200.000
G2 X21.771 Y314.185 Z6.750 I-0.233 J0.089 K0.000 F200.000
G3 X21.582 Y314.043 Z6.750 I0.208 J-0.473 K0.000 F200.000
G3 X21.941 Y314.426 Z6.750 I-0.018 J0.377 K0.000 F200.000
G0 Z12.000
G0 X18.650 Y314.037 Z12.000
G0 X18.650 Y314.037 Z10.000
G1 X18.650 Y314.037 Z6.750 F60.000
G2 X18.327 Y314.383 Z6.750 I0.198 J0.509 K0.000 F200.000
G3 X18.271 Y314.460 Z6.750 I-0.286 J-0.147 K0.000 F200.000
G3 X18.282 Y314.264 Z6.750 I0.556 J-0.067 K0.000 F200.000
G3 X18.474 Y314.059 Z6.750 I0.289 J0.078 K0.000 F200.000
G3 X18.650 Y314.037 Z6.750 I0.243 J1.237 K0.000 F200.000
G0 Z12.000
G0 X2.719 Y313.641 Z12.000
G0 X2.719 Y313.641 Z10.000
G1 X2.719 Y313.641 Z6.750 F60.000
G3 X2.554 Y313.638 Z6.750 I-0.056 J-1.625 K0.000 F200.000
G1 X2.513 Y313.630 Z6.750 F200.000
G3 X2.315 Y313.445 Z6.750 I0.075 J-0.280 K0.000 F200.000
G3 X2.290 Y313.221 Z6.750 I1.585 J-0.292 K0.000 F200.000
G3 X2.390 Y313.404 Z6.750 I-0.370 J0.320 K0.000 F200.000
G2 X2.614 Y313.575 Z6.750 I0.266 J-0.118 K0.000 F200.000
G3 X2.719 Y313.641 Z6.750 I-0.100 J0.277 K0.000 F200.000
G0 Z12.000
G0 X2.298 Y310.416 Z12.000
G0 X2.298 Y310.416 Z10.000
G1 X2.298 Y310.416 Z6.750 F60.000
G3 X2.647 Y310.053 Z6.750 I0.364 J0.001 K0.000 F200.000
G2 X2.382 Y310.306 Z6.750 I0.232 J0.507 K0.000 F200.000
G3 X2.298 Y310.416 Z6.750 I-0.288 J-0.132 K0.000 F200.000
G0 Z12.000
G0 X-2.487 Y310.440 Z12.000
G0 X-2.487 Y310.440 Z10.000
G1 X-2.487 Y310.440 Z6.750 F60.000
G3 X-2.545 Y310.325 Z6.750 I0.232 J-0.189 K0.000 F200.000
G2 X-2.662 Y310.191 Z6.750 I-0.235 J0.086 K0.000 F200.000
G3 X-2.855 Y310.049 Z6.750 I0.207 J-0.482 K0.000 F200.000
G3 X-2.490 Y310.402 Z6.750 I-0.000 J0.365 K0.000 F200.000
G1 X-2.487 Y310.440 Z6.750 F200.000
G0 Z12.000
G0 X-2.486 Y313.218 Z12.000
G0 X-2.486 Y313.218 Z10.000
G1 X-2.486 Y313.218 Z6.750 F60.000
G3 X-2.488 Y313.384 Z6.750 I-1.632 J0.056 K0.000 F200.000
G3 X-2.682 Y313.623 Z6.750 I-0.288 J-0.035 K0.000 F200.000
G3 X-2.882 Y313.647 Z6.750 I-0.267 J-1.414 K0.000 F200.000
G2 X-2.573 Y313.367 Z6.750 I-0.157 J-0.484 K0.000 F200.000
G3 X-2.486 Y313.218 Z6.750 I0.367 J0.115 K0.000 F200.000
G0 Z12.000
G0 X-18.457 Y314.399 Z12.000
G0 X-18.457 Y314.399 Z10.000
G1 X-18.457 Y314.399 Z6.750 F60.000
G3 X-18.455 Y314.432 Z6.750 I-1.348 J0.100 K0.000 F200.000
G2 X-18.734 Y314.127 Z6.750 I-0.481 J0.158 K0.000 F200.000
G3 X-18.879 Y314.041 Z6.750 I0.107 J-0.349 K0.000 F200.000
G3 X-18.683 Y314.052 Z6.750 I0.066 J0.555 K0.000 F200.000
G3 X-18.478 Y314.244 Z6.750 I-0.078 J0.289 K0.000 F200.000
G3 X-18.457 Y314.399 Z6.750 I-1.327 J0.255 K0.000 F200.000
G0 Z12.000
G0 X-21.793 Y314.050 Z12.000
G0 X-21.793 Y314.050 Z10.000
G1 X-21.793 Y314.050 Z6.750 F60.000
G2 X-22.047 Y314.296 Z6.750 I0.250 J0.513 K0.000 F200.000
G3 X-22.131 Y314.404 Z6.750 I-0.283 J-0.133 K0.000 F200.000
G3 X-21.793 Y314.050 Z6.750 I0.371 J0.016 K0.000 F200.000
G0 Z12.000
G0 X-22.139 Y325.449 Z12.000
G0 X-22.139 Y325.449 Z10.000
G1 X-22.139 Y325.449 Z6.750 F60.000
G3 X-22.040 Y325.627 Z6.750 I-0.346 J0.308 K0.000 F200.000
G2 X-21.821 Y325.795 Z6.750 I0.266 J-0.121 K0.000 F200.000
G3 X-21.718 Y325.861 Z6.750 I-0.099 J0.265 K0.000 F200.000
G3 X-21.903 Y325.850 Z6.750 I-0.060 J-0.531 K0.000 F200.000
G3 X-22.115 Y325.652 Z6.750 I0.080 J-0.298 K0.000 F200.000
G3 X-22.139 Y325.449 Z6.750 I1.420 J-0.271 K0.000 F200.000
G0 Z12.000
G0 X-18.058 Y329.637 Z12.000
G0 X-18.058 Y329.637 Z10.000
G1 X-18.058 Y329.637 Z6.750 F60.000
G3 X-17.959 Y329.798 Z6.750 I-0.415 J0.366 K0.000 F200.000
G2 X-17.814 Y329.926 Z6.750 I0.225 J-0.109 K0.000 F200.000
G3 X-17.654 Y330.014 Z6.750 I-0.064 J0.306 K0.000 F200.000
G3 X-17.795 Y330.001 Z6.750 I-0.029 J-0.445 K0.000 F200.000
G3 X-18.056 Y329.664 Z6.750 I0.091 J-0.341 K0.000 F200.000
G1 X-18.058 Y329.637 Z6.750 F200.000
G0 Z12.000
G0 X-13.677 Y333.493 Z12.000
G0 X-13.677 Y333.493 Z10.000
G1 X-13.677 Y333.493 Z6.750 F60.000
G3 X-13.606 Y333.647 Z6.750 I-0.317 J0.240 K0.000 F200.000
G2 X-13.443 Y333.816 Z6.750 I0.265 J-0.092 K0.000 F200.000
G2 X-13.261 Y333.928 Z6.750 I0.999 J-1.423 K0.000 F200.000
G3 X-13.438 Y333.925 Z6.750 I-0.061 J-1.541 K0.000 F200.000
G1 X-13.480 Y333.916 Z6.750 F200.000
G3 X-13.651 Y333.751 Z6.750 I0.077 J-0.250 K0.000 F200.000
G3 X-13.677 Y333.493 Z6.750 I1.850 J-0.323 K0.000 F200.000
G0 Z12.000
G0 X-13.676 Y341.725 Z12.000
G0 X-13.676 Y341.725 Z10.000
G1 X-13.676 Y341.725 Z6.750 F60.000
G3 X-13.577 Y341.909 Z6.750 I-0.307 J0.282 K0.000 F200.000
G2 X-13.415 Y342.067 Z6.750 I0.237 J-0.081 K0.000 F200.000
G3 X-13.240 Y342.155 Z6.750 I-0.072 J0.362 K0.000 F200.000
G3 X-13.424 Y342.152 Z6.750 I-0.063 J-1.578 K0.000 F200.000
G1 X-13.468 Y342.142 Z6.750 F200.000
G3 X-13.650 Y341.965 Z6.750 I0.082 J-0.266 K0.000 F200.000
G3 X-13.676 Y341.725 Z6.750 I1.717 J-0.307 K0.000 F200.000
G1 X-13.676 Y341.725 Z6.500 F60.000
G3 X-13.577 Y341.909 Z6.500 I-0.307 J0.282 K0.000 F200.000
G2 X-13.415 Y342.067 Z6.500 I0.237 J-0.081 K0.000 F200.000
G3 X-13.240 Y342.155 Z6.500 I-0.072 J0.362 K0.000 F200.000
G3 X-13.424 Y342.152 Z6.500 I-0.063 J-1.578 K0.000 F200.000
G1 X-13.468 Y342.142 Z6.500 F200.000
G3 X-13.650 Y341.965 Z6.500 I0.082 J-0.266 K0.000 F200.000
G3 X-13.676 Y341.725 Z6.500 I1.717 J-0.307 K0.000 F200.000
G0 Z12.000
G0 X-13.380 Y333.928 Z12.000
G0 X-13.380 Y333.928 Z10.000
G1 X-13.380 Y333.928 Z6.500 F60.000
G3 X-13.438 Y333.925 Z6.500 I0.058 J-1.541 K0.000 F200.000
G1 X-13.480 Y333.916 Z6.500 F200.000
G3 X-13.651 Y333.751 Z6.500 I0.077 J-0.250 K0.000 F200.000
G3 X-13.677 Y333.493 Z6.500 I1.850 J-0.323 K0.000 F200.000
G3 X-13.606 Y333.647 Z6.500 I-0.317 J0.240 K0.000 F200.000
G2 X-13.443 Y333.816 Z6.500 I0.265 J-0.092 K0.000 F200.000
G2 X-13.261 Y333.928 Z6.500 I0.999 J-1.423 K0.000 F200.000
G3 X-13.380 Y333.928 Z6.500 I-0.061 J-1.541 K0.000 F200.000
G0 Z12.000
G0 X-17.654 Y330.014 Z12.000
G0 X-17.654 Y330.014 Z10.000
G1 X-17.654 Y330.014 Z6.500 F60.000
G3 X-17.795 Y330.001 Z6.500 I-0.029 J-0.445 K0.000 F200.000
G3 X-18.056 Y329.664 Z6.500 I0.091 J-0.341 K0.000 F200.000
G1 X-18.058 Y329.637 Z6.500 F200.000
G3 X-17.959 Y329.798 Z6.500 I-0.415 J0.366 K0.000 F200.000
G2 X-17.814 Y329.926 Z6.500 I0.225 J-0.109 K0.000 F200.000
G3 X-17.654 Y330.014 Z6.500 I-0.064 J0.306 K0.000 F200.000
G0 Z12.000
G0 X-21.718 Y325.861 Z12.000
G0 X-21.718 Y325.861 Z10.000
G1 X-21.718 Y325.861 Z6.500 F60.000
G3 X-21.903 Y325.850 Z6.500 I-0.060 J-0.531 K0.000 F200.000
G3 X-22.115 Y325.652 Z6.500 I0.080 J-0.298 K0.000 F200.000
G3 X-22.139 Y325.449 Z6.500 I1.420 J-0.271 K0.000 F200.000
G3 X-22.040 Y325.627 Z6.500 I-0.346 J0.308 K0.000 F200.000
G2 X-21.821 Y325.795 Z6.500 I0.266 J-0.121 K0.000 F200.000
G3 X-21.718 Y325.861 Z6.500 I-0.099 J0.265 K0.000 F200.000
G0 Z12.000
G0 X-22.131 Y314.404 Z12.000
G0 X-22.131 Y314.404 Z10.000
G1 X-22.131 Y314.404 Z6.500 F60.000
G3 X-21.793 Y314.050 Z6.500 I0.371 J0.016 K0.000 F200.000
G2 X-22.047 Y314.296 Z6.500 I0.250 J0.513 K0.000 F200.000
G3 X-22.131 Y314.404 Z6.500 I-0.283 J-0.133 K0.000 F200.000
G0 Z12.000
G0 X-18.879 Y314.041 Z12.000
G0 X-18.879 Y314.041 Z10.000
G1 X-18.879 Y314.041 Z6.500 F60.000
G3 X-18.683 Y314.052 Z6.500 I0.066 J0.555 K0.000 F200.000
G3 X-18.478 Y314.244 Z6.500 I-0.078 J0.289 K0.000 F200.000
G3 X-18.455 Y314.432 Z6.500 I-1.327 J0.255 K0.000 F200.000
G2 X-18.734 Y314.127 Z6.500 I-0.481 J0.158 K0.000 F200.000
G3 X-18.879 Y314.041 Z6.500 I0.107 J-0.349 K0.000 F200.000
G0 Z12.000
G0 X-2.882 Y313.647 Z12.000
G0 X-2.882 Y313.647 Z10.000
G1 X-2.882 Y313.647 Z6.500 F60.000
G2 X-2.573 Y313.367 Z6.500 I-0.157 J-0.484 K0.000 F200.000
G3 X-2.486 Y313.218 Z6.500 I0.367 J0.115 K0.000 F200.000
G3 X-2.488 Y313.384 Z6.500 I-1.632 J0.056 K0.000 F200.000
G3 X-2.682 Y313.623 Z6.500 I-0.288 J-0.035 K0.000 F200.000
G3 X-2.882 Y313.647 Z6.500 I-0.267 J-1.414 K0.000 F200.000
G0 Z12.000
G0 X-2.487 Y310.440 Z12.000
G0 X-2.487 Y310.440 Z10.000
G1 X-2.487 Y310.440 Z6.500 F60.000
G3 X-2.545 Y310.325 Z6.500 I0.232 J-0.189 K0.000 F200.000
G2 X-2.662 Y310.191 Z6.500 I-0.235 J0.086 K0.000 F200.000
G3 X-2.855 Y310.049 Z6.500 I0.207 J-0.482 K0.000 F200.000
G3 X-2.490 Y310.402 Z6.500 I-0.000 J0.365 K0.000 F200.000
G1 X-2.487 Y310.440 Z6.500 F200.000
G0 Z12.000
G0 X2.298 Y310.416 Z12.000
G0 X2.298 Y310.416 Z10.000
G1 X2.298 Y310.416 Z6.500 F60.000
G3 X2.647 Y310.053 Z6.500 I0.364 J0.001 K0.000 F200.000
G2 X2.382 Y310.306 Z6.500 I0.232 J0.507 K0.000 F200.000
G3 X2.298 Y310.416 Z6.500 I-0.288 J-0.132 K0.000 F200.000
G0 Z12.000
G0 X2.290 Y313.221 Z12.000
G0 X2.290 Y313.221 Z10.000
G1 X2.290 Y313.221 Z6.500 F60.000
G3 X2.390 Y313.404 Z6.500 I-0.370 J0.320 K0.000 F200.000
G2 X2.614 Y313.575 Z6.500 I0.266 J-0.118 K0.000 F200.000
G3 X2.719 Y313.641 Z6.500 I-0.100 J0.277 K0.000 F200.000
G3 X2.554 Y313.638 Z6.500 I-0.056 J-1.625 K0.000 F200.000
G1 X2.513 Y313.630 Z6.500 F200.000
G3 X2.315 Y313.445 Z6.500 I0.075 J-0.280 K0.000 F200.000
G3 X2.290 Y313.221 Z6.500 I1.585 J-0.292 K0.000 F200.000
G0 Z12.000
G0 X18.269 Y314.354 Z12.000
G0 X18.269 Y314.354 Z10.000
G1 X18.269 Y314.354 Z6.500 F60.000
G3 X18.282 Y314.264 Z6.500 I0.558 J0.040 K0.000 F200.000
G3 X18.474 Y314.059 Z6.500 I0.289 J0.078 K0.000 F200.000
G3 X18.650 Y314.037 Z6.500 I0.243 J1.237 K0.000 F200.000
G2 X18.327 Y314.383 Z6.500 I0.198 J0.509 K0.000 F200.000
G3 X18.271 Y314.460 Z6.500 I-0.286 J-0.147 K0.000 F200.000
G3 X18.269 Y314.354 Z6.500 I0.556 J-0.067 K0.000 F200.000
G0 Z12.000
G0 X21.582 Y314.043 Z12.000
G0 X21.582 Y314.043 Z10.000
G1 X21.582 Y314.043 Z6.500 F60.000
G3 X21.941 Y314.426 Z6.500 I-0.018 J0.377 K0.000 F200.000
G3 X21.884 Y314.315 Z6.500 I0.228 J-0.189 K0.000 F200.000
G2 X21.771 Y314.185 Z6.500 I-0.233 J0.089 K0.000 F200.000
G3 X21.582 Y314.043 Z6.500 I0.208 J-0.473 K0.000 F200.000
G0 Z12.000
G0 X21.945 Y325.464 Z12.000
G0 X21.945 Y325.464 Z10.000
G1 X21.945 Y325.464 Z6.500 F60.000
G3 X21.918 Y325.673 Z6.500 I-0.435 J0.052 K0.000 F200.000
G3 X21.735 Y325.843 Z6.500 I-0.283 J-0.122 K0.000 F200.000
G3 X21.539 Y325.866 Z6.500 I-0.264 J-1.376 K0.000 F200.000
G2 X21.945 Y325.464 Z6.500 I-0.201 J-0.609 K0.000 F200.000
G0 Z12.000
G0 X17.871 Y329.617 Z12.000
G0 X17.871 Y329.617 Z10.000
G1 X17.871 Y329.617 Z6.500 F60.000
G3 X17.514 Y330.011 Z6.500 I-0.358 J0.035 K0.000 F200.000
G2 X17.795 Y329.737 Z6.500 I-0.221 J-0.508 K0.000 F200.000
G3 X17.871 Y329.617 Z6.500 I0.286 J0.097 K0.000 F200.000
G0 Z12.000
G0 X13.478 Y333.521 Z12.000
G0 X13.478 Y333.521 Z10.000
G1 X13.478 Y333.521 Z6.500 F60.000
G3 X13.475 Y333.699 Z6.500 I-1.555 J0.061 K0.000 F200.000
G3 X13.301 Y333.912 Z6.500 I-0.260 J-0.035 K0.000 F200.000
G3 X13.029 Y333.940 Z6.500 I-0.336 J-1.946 K0.000 F200.000
G2 X13.478 Y333.521 Z6.500 I-0.130 J-0.589 K0.000 F200.000
G0 Z12.000
G0 Y341.728 Z12.000
G0 Y341.728 Z10.000
G1 X13.478 Y341.728 Z6.500 F60.000
G3 X13.475 Y341.911 Z6.500 I-1.586 J0.063 K0.000 F200.000
G3 X13.289 Y342.138 Z6.500 I-0.277 J-0.038 K0.000 F200.000
G3 X13.074 Y342.162 Z6.500 I-0.281 J-1.529 K0.000 F200.000
G2 X13.392 Y341.879 Z6.500 I-0.138 J-0.474 K0.000 F200.000
G3 X13.478 Y341.728 Z6.500 I0.370 J0.112 K0.000 F200.000
G1 X13.478 Y341.728 Z6.250 F60.000
G3 X13.475 Y341.911 Z6.250 I-1.586 J0.063 K0.000 F200.000
G3 X13.289 Y342.138 Z6.250 I-0.277 J-0.038 K0.000 F200.000
G3 X13.074 Y342.162 Z6.250 I-0.281 J-1.529 K0.000 F200.000
G2 X13.392 Y341.879 Z6.250 I-0.138 J-0.474 K0.000 F200.000
G3 X13.478 Y341.728 Z6.250 I0.370 J0.112 K0.000 F200.000
G0 Z12.000
G0 X13.069 Y333.938 Z12.000
G0 X13.069 Y333.938 Z10.000
G1 X13.069 Y333.938 Z6.250 F60.000
G3 X13.029 Y333.940 Z6.250 I-0.104 J-1.972 K0.000 F200.000
G2 X13.478 Y333.521 Z6.250 I-0.130 J-0.589 K0.000 F200.000
G3 X13.475 Y333.699 Z6.250 I-1.555 J0.061 K0.000 F200.000
G3 X13.301 Y333.912 Z6.250 I-0.260 J-0.035 K0.000 F200.000
G3 X13.069 Y333.938 Z6.250 I-0.336 J-1.946 K0.000 F200.000
G0 Z12.000
G0 X17.514 Y330.011 Z12.000
G0 X17.514 Y330.011 Z10.000
G1 X17.514 Y330.011 Z6.250 F60.000
G2 X17.795 Y329.737 Z6.250 I-0.221 J-0.508 K0.000 F200.000
G3 X17.871 Y329.617 Z6.250 I0.286 J0.097 K0.000 F200.000
G3 X17.514 Y330.011 Z6.250 I-0.358 J0.035 K0.000 F200.000
G0 Z12.000
G0 X21.539 Y325.866 Z12.000
G0 X21.539 Y325.866 Z10.000
G1 X21.539 Y325.866 Z6.250 F60.000
G2 X21.945 Y325.464 Z6.250 I-0.201 J-0.609 K0.000 F200.000
G3 X21.918 Y325.673 Z6.250 I-0.435 J0.052 K0.000 F200.000
G3 X21.735 Y325.843 Z6.250 I-0.283 J-0.122 K0.000 F200.000
G3 X21.539 Y325.866 Z6.250 I-0.264 J-1.376 K0.000 F200.000
G0 Z12.000
G0 X21.941 Y314.426 Z12.000
G0 X21.941 Y314.426 Z10.000
G1 X21.941 Y314.426 Z6.250 F60.000
G3 X21.884 Y314.315 Z6.250 I0.228 J-0.189 K0.000 F200.000
G2 X21.771 Y314.185 Z6.250 I-0.233 J0.089 K0.000 F200.000
G3 X21.582 Y314.043 Z6.250 I0.208 J-0.473 K0.000 F200.000
G3 X21.941 Y314.426 Z6.250 I-0.018 J0.377 K0.000 F200.000
G0 Z12.000
G0 X18.650 Y314.037 Z12.000
G0 X18.650 Y314.037 Z10.000
G1 X18.650 Y314.037 Z6.250 F60.000
G2 X18.327 Y314.383 Z6.250 I0.198 J0.509 K0.000 F200.000
G3 X18.271 Y314.460 Z6.250 I-0.286 J-0.147 K0.000 F200.000
G3 X18.282 Y314.264 Z6.250 I0.556 J-0.067 K0.000 F200.000
G3 X18.474 Y314.059 Z6.250 I0.289 J0.078 K0.000 F200.000
G3 X18.650 Y314.037 Z6.250 I0.243 J1.237 K0.000 F200.000
G0 Z12.000
G0 X2.719 Y313.641 Z12.000
G0 X2.719 Y313.641 Z10.000
G1 X2.719 Y313.641 Z6.250 F60.000
G3 X2.554 Y313.638 Z6.250 I-0.056 J-1.625 K0.000 F200.000
G1 X2.513 Y313.630 Z6.250 F200.000
G3 X2.315 Y313.445 Z6.250 I0.075 J-0.280 K0.000 F200.000
G3 X2.290 Y313.221 Z6.250 I1.585 J-0.292 K0.000 F200.000
G3 X2.390 Y313.404 Z6.250 I-0.370 J0.320 K0.000 F200.000
G2 X2.614 Y313.575 Z6.250 I0.266 J-0.118 K0.000 F200.000
G3 X2.719 Y313.641 Z6.250 I-0.100 J0.277 K0.000 F200.000
G0 Z12.000
G0 X2.298 Y310.416 Z12.000
G0 X2.298 Y310.416 Z10.000
G1 X2.298 Y310.416 Z6.250 F60.000
G3 X2.647 Y310.053 Z6.250 I0.364 J0.001 K0.000 F200.000
G2 X2.382 Y310.306 Z6.250 I0.232 J0.507 K0.000 F200.000
G3 X2.298 Y310.416 Z6.250 I-0.288 J-0.132 K0.000 F200.000
G0 Z12.000
G0 X-2.487 Y310.440 Z12.000
G0 X-2.487 Y310.440 Z10.000
G1 X-2.487 Y310.440 Z6.250 F60.000
G3 X-2.545 Y310.325 Z6.250 I0.232 J-0.189 K0.000 F200.000
G2 X-2.662 Y310.191 Z6.250 I-0.235 J0.086 K0.000 F200.000
G3 X-2.855 Y310.049 Z6.250 I0.207 J-0.482 K0.000 F200.000
G3 X-2.490 Y310.402 Z6.250 I-0.000 J0.365 K0.000 F200.000
G1 X-2.487 Y310.440 Z6.250 F200.000
G0 Z12.000
G0 X-2.486 Y313.218 Z12.000
G0 X-2.486 Y313.218 Z10.000
G1 X-2.486 Y313.218 Z6.250 F60.000
G3 X-2.488 Y313.384 Z6.250 I-1.632 J0.056 K0.000 F200.000
G3 X-2.682 Y313.623 Z6.250 I-0.288 J-0.035 K0.000 F200.000
G3 X-2.882 Y313.647 Z6.250 I-0.267 J-1.414 K0.000 F200.000
G2 X-2.573 Y313.367 Z6.250 I-0.157 J-0.484 K0.000 F200.000
G3 X-2.486 Y313.218 Z6.250 I0.367 J0.115 K0.000 F200.000
G0 Z12.000
G0 X-18.457 Y314.399 Z12.000
G0 X-18.457 Y314.399 Z10.000
G1 X-18.457 Y314.399 Z6.250 F60.000
G3 X-18.455 Y314.432 Z6.250 I-1.348 J0.100 K0.000 F200.000
G2 X-18.734 Y314.127 Z6.250 I-0.481 J0.158 K0.000 F200.000
G3 X-18.879 Y314.041 Z6.250 I0.107 J-0.349 K0.000 F200.000
G3 X-18.683 Y314.052 Z6.250 I0.066 J0.555 K0.000 F200.000
G3 X-18.478 Y314.244 Z6.250 I-0.078 J0.289 K0.000 F200.000
G3 X-18.457 Y314.399 Z6.250 I-1.327 J0.255 K0.000 F200.000
G0 Z12.000
G0 X-21.793 Y314.050 Z12.000
G0 X-21.793 Y314.050 Z10.000
G1 X-21.793 Y314.050 Z6.250 F60.000
G2 X-22.047 Y314.296 Z6.250 I0.250 J0.513 K0.000 F200.000
G3 X-22.131 Y314.404 Z6.250 I-0.283 J-0.133 K0.000 F200.000
G3 X-21.793 Y314.050 Z6.250 I0.371 J0.016 K0.000 F200.000
G0 Z12.000
G0 X-22.139 Y325.449 Z12.000
G0 X-22.139 Y325.449 Z10.000
G1 X-22.139 Y325.449 Z6.250 F60.000
G3 X-22.040 Y325.627 Z6.250 I-0.346 J0.308 K0.000 F200.000
G2 X-21.821 Y325.795 Z6.250 I0.266 J-0.121 K0.000 F200.000
G3 X-21.718 Y325.861 Z6.250 I-0.099 J0.265 K0.000 F200.000
G3 X-21.903 Y325.850 Z6.250 I-0.060 J-0.531 K0.000 F200.000
G3 X-22.115 Y325.652 Z6.250 I0.080 J-0.298 K0.000 F200.000
G3 X-22.139 Y325.449 Z6.250 I1.420 J-0.271 K0.000 F200.000
G0 Z12.000
G0 X-18.058 Y329.637 Z12.000
G0 X-18.058 Y329.637 Z10.000
G1 X-18.058 Y329.637 Z6.250 F60.000
G3 X-17.959 Y329.798 Z6.250 I-0.415 J0.366 K0.000 F200.000
G2 X-17.814 Y329.926 Z6.250 I0.225 J-0.109 K0.000 F200.000
G3 X-17.654 Y330.014 Z6.250 I-0.064 J0.306 K0.000 F200.000
G3 X-17.795 Y330.001 Z6.250 I-0.029 J-0.445 K0.000 F200.000
G3 X-18.056 Y329.664 Z6.250 I0.091 J-0.341 K0.000 F200.000
G1 X-18.058 Y329.637 Z6.250 F200.000
G0 Z12.000
G0 X-13.677 Y333.493 Z12.000
G0 X-13.677 Y333.493 Z10.000
G1 X-13.677 Y333.493 Z6.250 F60.000
G3 X-13.606 Y333.647 Z6.250 I-0.317 J0.240 K0.000 F200.000
G2 X-13.443 Y333.816 Z6.250 I0.265 J-0.092 K0.000 F200.000
G2 X-13.261 Y333.928 Z6.250 I0.999 J-1.423 K0.000 F200.000
G3 X-13.438 Y333.925 Z6.250 I-0.061 J-1.541 K0.000 F200.000
G1 X-13.480 Y333.916 Z6.250 F200.000
G3 X-13.651 Y333.751 Z6.250 I0.077 J-0.250 K0.000 F200.000
G3 X-13.677 Y333.493 Z6.250 I1.850 J-0.323 K0.000 F200.000
G0 Z12.000
G0 X-13.676 Y341.725 Z12.000
G0 X-13.676 Y341.725 Z10.000
G1 X-13.676 Y341.725 Z6.250 F60.000
G3 X-13.577 Y341.909 Z6.250 I-0.307 J0.282 K0.000 F200.000
G2 X-13.415 Y342.067 Z6.250 I0.237 J-0.081 K0.000 F200.000
G3 X-13.240 Y342.155 Z6.250 I-0.072 J0.362 K0.000 F200.000
G3 X-13.424 Y342.152 Z6.250 I-0.063 J-1.578 K0.000 F200.000
G1 X-13.468 Y342.142 Z6.250 F200.000
G3 X-13.650 Y341.965 Z6.250 I0.082 J-0.266 K0.000 F200.000
G3 X-13.676 Y341.725 Z6.250 I1.717 J-0.307 K0.000 F200.000
G1 X-13.676 Y341.725 Z6.000 F60.000
G3 X-13.577 Y341.909 Z6.000 I-0.307 J0.282 K0.000 F200.000
G2 X-13.415 Y342.067 Z6.000 I0.237 J-0.081 K0.000 F200.000
G3 X-13.240 Y342.155 Z6.000 I-0.072 J0.362 K0.000 F200.000
G3 X-13.424 Y342.152 Z6.000 I-0.063 J-1.578 K0.000 F200.000
G1 X-13.468 Y342.142 Z6.000 F200.000
G3 X-13.650 Y341.965 Z6.000 I0.082 J-0.266 K0.000 F200.000
G3 X-13.676 Y341.725 Z6.000 I1.717 J-0.307 K0.000 F200.000
G0 Z12.000
G0 X-13.380 Y333.928 Z12.000
G0 X-13.380 Y333.928 Z10.000
G1 X-13.380 Y333.928 Z6.000 F60.000
G3 X-13.438 Y333.925 Z6.000 I0.058 J-1.541 K0.000 F200.000
G1 X-13.480 Y333.916 Z6.000 F200.000
G3 X-13.651 Y333.751 Z6.000 I0.077 J-0.250 K0.000 F200.000
G3 X-13.677 Y333.493 Z6.000 I1.850 J-0.323 K0.000 F200.000
G3 X-13.606 Y333.647 Z6.000 I-0.317 J0.240 K0.000 F200.000
G2 X-13.443 Y333.816 Z6.000 I0.265 J-0.092 K0.000 F200.000
G2 X-13.261 Y333.928 Z6.000 I0.999 J-1.423 K0.000 F200.000
G3 X-13.380 Y333.928 Z6.000 I-0.061 J-1.541 K0.000 F200.000
G0 Z12.000
G0 X-17.654 Y330.014 Z12.000
G0 X-17.654 Y330.014 Z10.000
G1 X-17.654 Y330.014 Z6.000 F60.000
G3 X-17.795 Y330.001 Z6.000 I-0.029 J-0.445 K0.000 F200.000
G3 X-18.056 Y329.664 Z6.000 I0.091 J-0.341 K0.000 F200.000
G1 X-18.058 Y329.637 Z6.000 F200.000
G3 X-17.960 Y329.797 Z6.000 I-0.414 J0.365 K0.000 F200.000
G2 X-17.814 Y329.926 Z6.000 I0.225 J-0.108 K0.000 F200.000
G3 X-17.654 Y330.014 Z6.000 I-0.064 J0.306 K0.000 F200.000
G0 Z12.000
G0 X-21.718 Y325.861 Z12.000
G0 X-21.718 Y325.861 Z10.000
G1 X-21.718 Y325.861 Z6.000 F60.000
G3 X-21.903 Y325.850 Z6.000 I-0.060 J-0.531 K0.000 F200.000
G3 X-22.115 Y325.652 Z6.000 I0.080 J-0.298 K0.000 F200.000
G3 X-22.139 Y325.449 Z6.000 I1.421 J-0.271 K0.000 F200.000
G3 X-22.040 Y325.627 Z6.000 I-0.345 J0.308 K0.000 F200.000
G2 X-21.821 Y325.795 Z6.000 I0.266 J-0.121 K0.000 F200.000
G3 X-21.718 Y325.861 Z6.000 I-0.099 J0.265 K0.000 F200.000
G0 Z12.000
G0 X-22.131 Y314.404 Z12.000
G0 X-22.131 Y314.404 Z10.000
G1 X-22.131 Y314.404 Z6.000 F60.000
G3 X-21.793 Y314.050 Z6.000 I0.371 J0.016 K0.000 F200.000
G2 X-22.047 Y314.296 Z6.000 I0.250 J0.513 K0.000 F200.000
G3 X-22.131 Y314.404 Z6.000 I-0.283 J-0.133 K0.000 F200.000
G0 Z12.000
G0 X-18.879 Y314.041 Z12.000
G0 X-18.879 Y314.041 Z10.000
G1 X-18.879 Y314.041 Z6.000 F60.000
G3 X-18.683 Y314.052 Z6.000 I0.066 J0.555 K0.000 F200.000
G3 X-18.478 Y314.244 Z6.000 I-0.078 J0.289 K0.000 F200.000
G3 X-18.455 Y314.432 Z6.000 I-1.327 J0.255 K0.000 F200.000
G2 X-18.734 Y314.127 Z6.000 I-0.481 J0.158 K0.000 F200.000
G3 X-18.879 Y314.041 Z6.000 I0.107 J-0.349 K0.000 F200.000
G0 Z12.000
G0 X-2.882 Y313.647 Z12.000
G0 X-2.882 Y313.647 Z10.000
G1 X-2.882 Y313.647 Z6.000 F60.000
G2 X-2.573 Y313.367 Z6.000 I-0.157 J-0.484 K0.000 F200.000
G3 X-2.486 Y313.218 Z6.000 I0.367 J0.115 K0.000 F200.000
G3 X-2.488 Y313.384 Z6.000 I-1.632 J0.056 K0.000 F200.000
G3 X-2.682 Y313.623 Z6.000 I-0.288 J-0.035 K0.000 F200.000
G3 X-2.882 Y313.647 Z6.000 I-0.267 J-1.414 K0.000 F200.000
G0 Z12.000
G0 X-2.487 Y310.440 Z12.000
G0 X-2.487 Y310.440 Z10.000
G1 X-2.487 Y310.440 Z6.000 F60.000
G3 X-2.545 Y310.325 Z6.000 I0.232 J-0.189 K0.000 F200.000
G2 X-2.662 Y310.191 Z6.000 I-0.235 J0.086 K0.000 F200.000
G3 X-2.855 Y310.049 Z6.000 I0.207 J-0.482 K0.000 F200.000
G3 X-2.490 Y310.402 Z6.000 I-0.000 J0.365 K0.000 F200.000
G1 X-2.487 Y310.440 Z6.000 F200.000
G0 Z12.000
G0 X2.298 Y310.416 Z12.000
G0 X2.298 Y310.416 Z10.000
G1 X2.298 Y310.416 Z6.000 F60.000
G3 X2.647 Y310.053 Z6.000 I0.364 J0.001 K0.000 F200.000
G2 X2.382 Y310.306 Z6.000 I0.232 J0.507 K0.000 F200.000
G3 X2.298 Y310.416 Z6.000 I-0.288 J-0.132 K0.000 F200.000
G0 Z12.000
G0 X2.290 Y313.221 Z12.000
G0 X2.290 Y313.221 Z10.000
G1 X2.290 Y313.221 Z6.000 F60.000
G3 X2.390 Y313.404 Z6.000 I-0.370 J0.320 K0.000 F200.000
G2 X2.614 Y313.575 Z6.000 I0.266 J-0.118 K0.000 F200.000
G3 X2.719 Y313.641 Z6.000 I-0.100 J0.277 K0.000 F200.000
G3 X2.554 Y313.638 Z6.000 I-0.056 J-1.625 K0.000 F200.000
G1 X2.513 Y313.630 Z6.000 F200.000
G3 X2.315 Y313.445 Z6.000 I0.075 J-0.280 K0.000 F200.000
G3 X2.290 Y313.221 Z6.000 I1.585 J-0.292 K0.000 F200.000
G0 Z12.000
G0 X18.269 Y314.354 Z12.000
G0 X18.269 Y314.354 Z10.000
G1 X18.269 Y314.354 Z6.000 F60.000
G3 X18.282 Y314.264 Z6.000 I0.558 J0.040 K0.000 F200.000
G3 X18.474 Y314.059 Z6.000 I0.289 J0.078 K0.000 F200.000
G3 X18.650 Y314.037 Z6.000 I0.243 J1.237 K0.000 F200.000
G2 X18.327 Y314.383 Z6.000 I0.198 J0.509 K0.000 F200.000
G3 X18.271 Y314.460 Z6.000 I-0.286 J-0.147 K0.000 F200.000
G3 X18.269 Y314.354 Z6.000 I0.556 J-0.067 K0.000 F200.000
G0 Z12.000
G0 X21.582 Y314.043 Z12.000
G0 X21.582 Y314.043 Z10.000
G1 X21.582 Y314.043 Z6.000 F60.000
G3 X21.942 Y314.426 Z6.000 I-0.018 J0.377 K0.000 F200.000
G3 X21.884 Y314.315 Z6.000 I0.228 J-0.189 K0.000 F200.000
G2 X21.770 Y314.185 Z6.000 I-0.234 J0.089 K0.000 F200.000
G3 X21.582 Y314.043 Z6.000 I0.208 J-0.473 K0.000 F200.000
G0 Z12.000
G0 X21.945 Y325.464 Z12.000
G0 X21.945 Y325.464 Z10.000
G1 X21.945 Y325.464 Z6.000 F60.000
G3 X21.918 Y325.673 Z6.000 I-0.435 J0.052 K0.000 F200.000
G3 X21.735 Y325.843 Z6.000 I-0.283 J-0.122 K0.000 F200.000
G3 X21.539 Y325.866 Z6.000 I-0.264 J-1.376 K0.000 F200.000
G2 X21.945 Y325.464 Z6.000 I-0.201 J-0.609 K0.000 F200.000
G0 Z12.000
G0 X17.871 Y329.617 Z12.000
G0 X17.871 Y329.617 Z10.000
G1 X17.871 Y329.617 Z6.000 F60.000
G3 X17.514 Y330.011 Z6.000 I-0.358 J0.035 K0.000 F200.000
G2 X17.795 Y329.737 Z6.000 I-0.221 J-0.508 K0.000 F200.000
G3 X17.871 Y329.617 Z6.000 I0.286 J0.097 K0.000 F200.000
G0 Z12.000
G0 X13.478 Y333.521 Z12.000
G0 X13.478 Y333.521 Z10.000
G1 X13.478 Y333.521 Z6.000 F60.000
G3 X13.475 Y333.699 Z6.000 I-1.555 J0.061 K0.000 F200.000
G3 X13.301 Y333.912 Z6.000 I-0.260 J-0.035 K0.000 F200.000
G3 X13.029 Y333.940 Z6.000 I-0.336 J-1.946 K0.000 F200.000
G2 X13.478 Y333.521 Z6.000 I-0.130 J-0.589 K0.000 F200.000
G0 Z12.000
G0 Y341.728 Z12.000
G0 Y341.728 Z10.000
G1 X13.478 Y341.728 Z6.000 F60.000
G3 X13.475 Y341.911 Z6.000 I-1.586 J0.063 K0.000 F200.000
G3 X13.289 Y342.138 Z6.000 I-0.277 J-0.038 K0.000 F200.000
G3 X13.074 Y342.162 Z6.000 I-0.281 J-1.529 K0.000 F200.000
G2 X13.392 Y341.879 Z6.000 I-0.138 J-0.474 K0.000 F200.000
G3 X13.478 Y341.728 Z6.000 I0.370 J0.112 K0.000 F200.000
G1 X13.478 Y341.728 Z5.750 F60.000
G3 X13.475 Y341.911 Z5.750 I-1.586 J0.063 K0.000 F200.000
G3 X13.289 Y342.138 Z5.750 I-0.277 J-0.038 K0.000 F200.000
G3 X13.074 Y342.162 Z5.750 I-0.281 J-1.529 K0.000 F200.000
G2 X13.392 Y341.879 Z5.750 I-0.138 J-0.474 K0.000 F200.000
G3 X13.478 Y341.728 Z5.750 I0.370 J0.112 K0.000 F200.000
G0 Z12.000
G0 X13.069 Y333.938 Z12.000
G0 X13.069 Y333.938 Z10.000
G1 X13.069 Y333.938 Z5.750 F60.000
G3 X13.029 Y333.940 Z5.750 I-0.104 J-1.972 K0.000 F200.000
G2 X13.478 Y333.521 Z5.750 I-0.130 J-0.589 K0.000 F200.000
G3 X13.475 Y333.699 Z5.750 I-1.555 J0.061 K0.000 F200.000
G3 X13.301 Y333.912 Z5.750 I-0.260 J-0.035 K0.000 F200.000
G3 X13.069 Y333.938 Z5.750 I-0.336 J-1.946 K0.000 F200.000
G0 Z12.000
G0 X17.514 Y330.011 Z12.000
G0 X17.514 Y330.011 Z10.000
G1 X17.514 Y330.011 Z5.750 F60.000
G2 X17.795 Y329.737 Z5.750 I-0.221 J-0.508 K0.000 F200.000
G3 X17.871 Y329.617 Z5.750 I0.286 J0.097 K0.000 F200.000
G3 X17.514 Y330.011 Z5.750 I-0.358 J0.035 K0.000 F200.000
G0 Z12.000
G0 X21.539 Y325.866 Z12.000
G0 X21.539 Y325.866 Z10.000
G1 X21.539 Y325.866 Z5.750 F60.000
G2 X21.945 Y325.464 Z5.750 I-0.201 J-0.609 K0.000 F200.000
G3 X21.918 Y325.673 Z5.750 I-0.435 J0.052 K0.000 F200.000
G3 X21.735 Y325.843 Z5.750 I-0.283 J-0.122 K0.000 F200.000
G3 X21.539 Y325.866 Z5.750 I-0.264 J-1.376 K0.000 F200.000
G0 Z12.000
G0 X21.942 Y314.426 Z12.000
G0 X21.942 Y314.426 Z10.000
G1 X21.942 Y314.426 Z5.750 F60.000
G3 X21.884 Y314.315 Z5.750 I0.228 J-0.189 K0.000 F200.000
G2 X21.770 Y314.185 Z5.750 I-0.234 J0.089 K0.000 F200.000
G3 X21.582 Y314.043 Z5.750 I0.208 J-0.473 K0.000 F200.000
G3 X21.942 Y314.426 Z5.750 I-0.018 J0.377 K0.000 F200.000
G0 Z12.000
G0 X18.650 Y314.037 Z12.000
G0 X18.650 Y314.037 Z10.000
G1 X18.650 Y314.037 Z5.750 F60.000
G2 X18.327 Y314.383 Z5.750 I0.198 J0.509 K0.000 F200.000
G3 X18.271 Y314.460 Z5.750 I-0.286 J-0.147 K0.000 F200.000
G3 X18.282 Y314.264 Z5.750 I0.556 J-0.067 K0.000 F200.000
G3 X18.474 Y314.059 Z5.750 I0.289 J0.078 K0.000 F200.000
G3 X18.650 Y314.037 Z5.750 I0.243 J1.237 K0.000 F200.000
G0 Z12.000
G0 X2.719 Y313.641 Z12.000
G0 X2.719 Y313.641 Z10.000
G1 X2.719 Y313.641 Z5.750 F60.000
G3 X2.554 Y313.638 Z5.750 I-0.056 J-1.625 K0.000 F200.000
G1 X2.513 Y313.630 Z5.750 F200.000
G3 X2.315 Y313.445 Z5.750 I0.075 J-0.280 K0.000 F200.000
G3 X2.290 Y313.221 Z5.750 I1.585 J-0.292 K0.000 F200.000
G3 X2.390 Y313.404 Z5.750 I-0.370 J0.320 K0.000 F200.000
G2 X2.614 Y313.575 Z5.750 I0.266 J-0.118 K0.000 F200.000
G3 X2.719 Y313.641 Z5.750 I-0.100 J0.277 K0.000 F200.000
G0 Z12.000
G0 X2.298 Y310.416 Z12.000
G0 X2.298 Y310.416 Z10.000
G1 X2.298 Y310.416 Z5.750 F60.000
G3 X2.647 Y310.053 Z5.750 I0.364 J0.001 K0.000 F200.000
G2 X2.382 Y310.306 Z5.750 I0.232 J0.507 K0.000 F200.000
G3 X2.298 Y310.416 Z5.750 I-0.288 J-0.132 K0.000 F200.000
G0 Z12.000
G0 X-2.487 Y310.440 Z12.000
G0 X-2.487 Y310.440 Z10.000
G1 X-2.487 Y310.440 Z5.750 F60.000
G3 X-2.545 Y310.325 Z5.750 I0.232 J-0.189 K0.000 F200.000
G2 X-2.662 Y310.191 Z5.750 I-0.235 J0.086 K0.000 F200.000
G3 X-2.855 Y310.049 Z5.750 I0.207 J-0.482 K0.000 F200.000
G3 X-2.490 Y310.402 Z5.750 I-0.000 J0.365 K0.000 F200.000
G1 X-2.487 Y310.440 Z5.750 F200.000
G0 Z12.000
G0 X-2.486 Y313.218 Z12.000
G0 X-2.486 Y313.218 Z10.000
G1 X-2.486 Y313.218 Z5.750 F60.000
G3 X-2.488 Y313.384 Z5.750 I-1.632 J0.056 K0.000 F200.000
G3 X-2.682 Y313.623 Z5.750 I-0.288 J-0.035 K0.000 F200.000
G3 X-2.882 Y313.647 Z5.750 I-0.267 J-1.414 K0.000 F200.000
G2 X-2.573 Y313.367 Z5.750 I-0.157 J-0.484 K0.000 F200.000
G3 X-2.486 Y313.218 Z5.750 I0.367 J0.115 K0.000 F200.000
G0 Z12.000
G0 X-18.457 Y314.399 Z12.000
G0 X-18.457 Y314.399 Z10.000
G1 X-18.457 Y314.399 Z5.750 F60.000
G3 X-18.455 Y314.432 Z5.750 I-1.348 J0.100 K0.000 F200.000
G2 X-18.734 Y314.127 Z5.750 I-0.481 J0.158 K0.000 F200.000
G3 X-18.879 Y314.041 Z5.750 I0.107 J-0.349 K0.000 F200.000
G3 X-18.683 Y314.052 Z5.750 I0.066 J0.555 K0.000 F200.000
G3 X-18.478 Y314.244 Z5.750 I-0.078 J0.289 K0.000 F200.000
G3 X-18.457 Y314.399 Z5.750 I-1.327 J0.255 K0.000 F200.000
G0 Z12.000
G0 X-21.793 Y314.050 Z12.000
G0 X-21.793 Y314.050 Z10.000
G1 X-21.793 Y314.050 Z5.750 F60.000
G2 X-22.047 Y314.296 Z5.750 I0.250 J0.513 K0.000 F200.000
G3 X-22.131 Y314.404 Z5.750 I-0.283 J-0.133 K0.000 F200.000
G3 X-21.793 Y314.050 Z5.750 I0.371 J0.016 K0.000 F200.000
G0 Z12.000
G0 X-22.139 Y325.449 Z12.000
G0 X-22.139 Y325.449 Z10.000
G1 X-22.139 Y325.449 Z5.750 F60.000
G3 X-22.040 Y325.627 Z5.750 I-0.345 J0.308 K0.000 F200.000
G2 X-21.821 Y325.795 Z5.750 I0.266 J-0.121 K0.000 F200.000
G3 X-21.718 Y325.861 Z5.750 I-0.099 J0.265 K0.000 F200.000
G3 X-21.903 Y325.850 Z5.750 I-0.060 J-0.531 K0.000 F200.000
G3 X-22.115 Y325.652 Z5.750 I0.080 J-0.298 K0.000 F200.000
G3 X-22.139 Y325.449 Z5.750 I1.421 J-0.271 K0.000 F200.000
G0 Z12.000
G0 X-18.058 Y329.637 Z12.000
G0 X-18.058 Y329.637 Z10.000
G1 X-18.058 Y329.637 Z5.750 F60.000
G3 X-17.960 Y329.797 Z5.750 I-0.414 J0.365 K0.000 F200.000
G2 X-17.814 Y329.926 Z5.750 I0.225 J-0.108 K0.000 F200.000
G3 X-17.654 Y330.014 Z5.750 I-0.064 J0.306 K0.000 F200.000
G3 X-17.795 Y330.001 Z5.750 I-0.029 J-0.445 K0.000 F200.000
G3 X-18.056 Y329.664 Z5.750 I0.091 J-0.341 K0.000 F200.000
G1 X-18.058 Y329.637 Z5.750 F200.000
G0 Z12.000
G0 X-13.677 Y333.493 Z12.000
G0 X-13.677 Y333.493 Z10.000
G1 X-13.677 Y333.493 Z5.750 F60.000
G3 X-13.606 Y333.647 Z5.750 I-0.317 J0.240 K0.000 F200.000
G2 X-13.443 Y333.816 Z5.750 I0.265 J-0.092 K0.000 F200.000
G2 X-13.261 Y333.928 Z5.750 I0.999 J-1.423 K0.000 F200.000
G3 X-13.438 Y333.925 Z5.750 I-0.061 J-1.541 K0.000 F200.000
G1 X-13.480 Y333.916 Z5.750 F200.000
G3 X-13.651 Y333.751 Z5.750 I0.077 J-0.250 K0.000 F200.000
G3 X-13.677 Y333.493 Z5.750 I1.850 J-0.323 K0.000 F200.000
G0 Z12.000
G0 X-13.676 Y341.725 Z12.000
G0 X-13.676 Y341.725 Z10.000
G1 X-13.676 Y341.725 Z5.750 F60.000
G3 X-13.577 Y341.909 Z5.750 I-0.307 J0.282 K0.000 F200.000
G2 X-13.415 Y342.067 Z5.750 I0.237 J-0.081 K0.000 F200.000
G3 X-13.240 Y342.155 Z5.750 I-0.072 J0.362 K0.000 F200.000
G3 X-13.424 Y342.152 Z5.750 I-0.063 J-1.578 K0.000 F200.000
G1 X-13.468 Y342.142 Z5.750 F200.000
G3 X-13.650 Y341.965 Z5.750 I0.082 J-0.266 K0.000 F200.000
G3 X-13.676 Y341.725 Z5.750 I1.717 J-0.307 K0.000 F200.000
G1 X-13.676 Y341.725 Z5.500 F60.000
G3 X-13.577 Y341.909 Z5.500 I-0.307 J0.282 K0.000 F200.000
G2 X-13.415 Y342.067 Z5.500 I0.237 J-0.081 K0.000 F200.000
G3 X-13.240 Y342.155 Z5.500 I-0.072 J0.362 K0.000 F200.000
G3 X-13.424 Y342.152 Z5.500 I-0.063 J-1.578 K0.000 F200.000
G1 X-13.468 Y342.142 Z5.500 F200.000
G3 X-13.650 Y341.965 Z5.500 I0.082 J-0.266 K0.000 F200.000
G3 X-13.676 Y341.725 Z5.500 I1.717 J-0.307 K0.000 F200.000
G0 Z12.000
G0 X-13.380 Y333.928 Z12.000
G0 X-13.380 Y333.928 Z10.000
G1 X-13.380 Y333.928 Z5.500 F60.000
G3 X-13.438 Y333.925 Z5.500 I0.058 J-1.541 K0.000 F200.000
G1 X-13.480 Y333.916 Z5.500 F200.000
G3 X-13.651 Y333.751 Z5.500 I0.077 J-0.250 K0.000 F200.000
G3 X-13.677 Y333.493 Z5.500 I1.850 J-0.323 K0.000 F200.000
G3 X-13.606 Y333.647 Z5.500 I-0.317 J0.240 K0.000 F200.000
G2 X-13.443 Y333.816 Z5.500 I0.265 J-0.092 K0.000 F200.000
G2 X-13.261 Y333.928 Z5.500 I0.999 J-1.423 K0.000 F200.000
G3 X-13.380 Y333.928 Z5.500 I-0.061 J-1.541 K0.000 F200.000
G0 Z12.000
G0 X-17.654 Y330.014 Z12.000
G0 X-17.654 Y330.014 Z10.000
G1 X-17.654 Y330.014 Z5.500 F60.000
G3 X-17.795 Y330.001 Z5.500 I-0.029 J-0.445 K0.000 F200.000
G3 X-18.056 Y329.664 Z5.500 I0.091 J-0.341 K0.000 F200.000
G1 X-18.058 Y329.637 Z5.500 F200.000
G3 X-17.960 Y329.797 Z5.500 I-0.414 J0.365 K0.000 F200.000
G2 X-17.814 Y329.926 Z5.500 I0.225 J-0.108 K0.000 F200.000
G3 X-17.654 Y330.014 Z5.500 I-0.064 J0.306 K0.000 F200.000
G0 Z12.000
G0 X-21.718 Y325.861 Z12.000
G0 X-21.718 Y325.861 Z10.000
G1 X-21.718 Y325.861 Z5.500 F60.000
G3 X-21.903 Y325.850 Z5.500 I-0.060 J-0.531 K0.000 F200.000
G3 X-22.115 Y325.652 Z5.500 I0.080 J-0.298 K0.000 F200.000
G3 X-22.139 Y325.449 Z5.500 I1.421 J-0.271 K0.000 F200.000
G3 X-22.040 Y325.627 Z5.500 I-0.345 J0.308 K0.000 F200.000
G2 X-21.821 Y325.795 Z5.500 I0.266 J-0.121 K0.000 F200.000
G3 X-21.718 Y325.861 Z5.500 I-0.099 J0.265 K0.000 F200.000
G0 Z12.000
G0 X-22.131 Y314.404 Z12.000
G0 X-22.131 Y314.404 Z10.000
G1 X-22.131 Y314.404 Z5.500 F60.000
G3 X-21.793 Y314.050 Z5.500 I0.371 J0.016 K0.000 F200.000
G2 X-22.047 Y314.296 Z5.500 I0.250 J0.513 K0.000 F200.000
G3 X-22.131 Y314.404 Z5.500 I-0.283 J-0.133 K0.000 F200.000
G0 Z12.000
G0 X-18.879 Y314.041 Z12.000
G0 X-18.879 Y314.041 Z10.000
G1 X-18.879 Y314.041 Z5.500 F60.000
G3 X-18.683 Y314.052 Z5.500 I0.066 J0.555 K0.000 F200.000
G3 X-18.478 Y314.244 Z5.500 I-0.078 J0.289 K0.000 F200.000
G3 X-18.455 Y314.432 Z5.500 I-1.327 J0.255 K0.000 F200.000
G2 X-18.734 Y314.127 Z5.500 I-0.481 J0.158 K0.000 F200.000
G3 X-18.879 Y314.041 Z5.500 I0.107 J-0.349 K0.000 F200.000
G0 Z12.000
G0 X-2.882 Y313.647 Z12.000
G0 X-2.882 Y313.647 Z10.000
G1 X-2.882 Y313.647 Z5.500 F60.000
G2 X-2.573 Y313.367 Z5.500 I-0.157 J-0.484 K0.000 F200.000
G3 X-2.486 Y313.218 Z5.500 I0.367 J0.115 K0.000 F200.000
G3 X-2.488 Y313.384 Z5.500 I-1.632 J0.056 K0.000 F200.000
G3 X-2.682 Y313.623 Z5.500 I-0.288 J-0.035 K0.000 F200.000
G3 X-2.882 Y313.647 Z5.500 I-0.267 J-1.414 K0.000 F200.000
G0 Z12.000
G0 X-2.487 Y310.440 Z12.000
G0 X-2.487 Y310.440 Z10.000
G1 X-2.487 Y310.440 Z5.500 F60.000
G3 X-2.545 Y310.325 Z5.500 I0.232 J-0.189 K0.000 F200.000
G2 X-2.662 Y310.191 Z5.500 I-0.235 J0.086 K0.000 F200.000
G3 X-2.855 Y310.049 Z5.500 I0.207 J-0.482 K0.000 F200.000
G3 X-2.490 Y310.402 Z5.500 I-0.000 J0.365 K0.000 F200.000
G1 X-2.487 Y310.440 Z5.500 F200.000
G0 Z12.000
G0 X2.298 Y310.416 Z12.000
G0 X2.298 Y310.416 Z10.000
G1 X2.298 Y310.416 Z5.500 F60.000
G3 X2.647 Y310.053 Z5.500 I0.364 J0.001 K0.000 F200.000
G2 X2.382 Y310.306 Z5.500 I0.232 J0.507 K0.000 F200.000
G3 X2.298 Y310.416 Z5.500 I-0.288 J-0.132 K0.000 F200.000
G0 Z12.000
G0 X2.290 Y313.221 Z12.000
G0 X2.290 Y313.221 Z10.000
G1 X2.290 Y313.221 Z5.500 F60.000
G3 X2.390 Y313.404 Z5.500 I-0.370 J0.320 K0.000 F200.000
G2 X2.614 Y313.575 Z5.500 I0.266 J-0.118 K0.000 F200.000
G3 X2.719 Y313.641 Z5.500 I-0.100 J0.277 K0.000 F200.000
G3 X2.554 Y313.638 Z5.500 I-0.056 J-1.625 K0.000 F200.000
G1 X2.513 Y313.630 Z5.500 F200.000
G3 X2.315 Y313.445 Z5.500 I0.075 J-0.280 K0.000 F200.000
G3 X2.290 Y313.221 Z5.500 I1.585 J-0.292 K0.000 F200.000
G0 Z12.000
G0 X18.269 Y314.354 Z12.000
G0 X18.269 Y314.354 Z10.000
G1 X18.269 Y314.354 Z5.500 F60.000
G3 X18.282 Y314.264 Z5.500 I0.558 J0.040 K0.000 F200.000
G3 X18.474 Y314.059 Z5.500 I0.289 J0.078 K0.000 F200.000
G3 X18.650 Y314.037 Z5.500 I0.243 J1.237 K0.000 F200.000
G2 X18.327 Y314.383 Z5.500 I0.198 J0.509 K0.000 F200.000
G3 X18.271 Y314.460 Z5.500 I-0.286 J-0.147 K0.000 F200.000
G3 X18.269 Y314.354 Z5.500 I0.556 J-0.067 K0.000 F200.000
G0 Z12.000
G0 X21.582 Y314.043 Z12.000
G0 X21.582 Y314.043 Z10.000
G1 X21.582 Y314.043 Z5.500 F60.000
G3 X21.942 Y314.426 Z5.500 I-0.018 J0.377 K0.000 F200.000
G3 X21.884 Y314.315 Z5.500 I0.228 J-0.189 K0.000 F200.000
G2 X21.770 Y314.185 Z5.500 I-0.234 J0.089 K0.000 F200.000
G3 X21.582 Y314.043 Z5.500 I0.208 J-0.473 K0.000 F200.000
G0 Z12.000
G0 X21.945 Y325.464 Z12.000
G0 X21.945 Y325.464 Z10.000
G1 X21.945 Y325.464 Z5.500 F60.000
G3 X21.918 Y325.673 Z5.500 I-0.435 J0.052 K0.000 F200.000
G3 X21.735 Y325.843 Z5.500 I-0.283 J-0.122 K0.000 F200.000
G3 X21.539 Y325.866 Z5.500 I-0.264 J-1.376 K0.000 F200.000
G2 X21.945 Y325.464 Z5.500 I-0.201 J-0.609 K0.000 F200.000
G0 Z12.000
G0 X17.871 Y329.617 Z12.000
G0 X17.871 Y329.617 Z10.000
G1 X17.871 Y329.617 Z5.500 F60.000
G3 X17.514 Y330.011 Z5.500 I-0.358 J0.035 K0.000 F200.000
G2 X17.795 Y329.737 Z5.500 I-0.221 J-0.508 K0.000 F200.000
G3 X17.871 Y329.617 Z5.500 I0.286 J0.097 K0.000 F200.000
G0 Z12.000
G0 X13.478 Y333.521 Z12.000
G0 X13.478 Y333.521 Z10.000
G1 X13.478 Y333.521 Z5.500 F60.000
G3 X13.475 Y333.699 Z5.500 I-1.555 J0.061 K0.000 F200.000
G3 X13.301 Y333.912 Z5.500 I-0.260 J-0.035 K0.000 F200.000
G3 X13.029 Y333.940 Z5.500 I-0.336 J-1.946 K0.000 F200.000
G2 X13.478 Y333.521 Z5.500 I-0.130 J-0.589 K0.000 F200.000
G0 Z12.000
G0 Y341.728 Z12.000
G0 Y341.728 Z10.000
G1 X13.478 Y341.728 Z5.500 F60.000
G3 X13.475 Y341.911 Z5.500 I-1.586 J0.063 K0.000 F200.000
G3 X13.289 Y342.138 Z5.500 I-0.277 J-0.038 K0.000 F200.000
G3 X13.074 Y342.162 Z5.500 I-0.281 J-1.529 K0.000 F200.000
G2 X13.392 Y341.879 Z5.500 I-0.138 J-0.474 K0.000 F200.000
G3 X13.478 Y341.728 Z5.500 I0.370 J0.112 K0.000 F200.000
G0 Z12.000
G0 Z12.000
(Finish operation: Pocket_Shape001)
(Begin postamble)
M5
G17 G90
M2
