(Exported by FreeCAD)
(Post Processor: script_module)
(Output Time:2024-12-31 18:25:42.275353)
(Begin preamble)
G17 G90
G21
(Begin operation: TC: 3.175 Z2 droite011)
(Path: TC: 3.175 Z2 droite011)
(TC: 3.175 Z2 droite011)
(Begin toolchange)
( M6 T1 )
M3 S24000
(Finish operation: TC: 3.175 Z2 droite011)
(Begin operation: Fixture)
(Path: Fixture)
G54
(Finish operation: Fixture)
(Begin operation: MillFace)
(Path: MillFace)
(MillFace)
G0 Z17.500
G0 X38.414 Y17.013
G0 X38.414 Y17.013
G0 X38.414 Y17.013 Z15.500
G1 X38.414 Y17.013 Z10.475 F100.000
G1 X38.378 Y17.015 Z10.475 F2000.000
G1 X-38.379 Y17.015 Z10.475 F2000.000
G1 X-38.399 Y17.014 Z10.475 F2000.000
G3 X-38.414 Y15.186 Z10.475 I12.490 J-1.015 K0.000 F2000.000
G1 X-38.378 Y15.185 Z10.475 F2000.000
G1 X38.379 Y15.185 Z10.475 F2000.000
G1 X38.399 Y15.186 Z10.475 F2000.000
G3 X38.414 Y17.013 Z10.475 I-12.490 J1.015 K0.000 F2000.000
G0 Z17.500
G0 X37.646 Y16.222 Z17.500
G0 X37.646 Y16.222 Z15.500
G1 X37.646 Y16.222 Z10.475 F100.000
G1 X-37.645 Y16.222 Z10.475 F2000.000
G3 X-37.646 Y15.977 Z10.475 I4.562 J-0.152 K0.000 F2000.000
G1 X37.645 Y15.977 Z10.475 F2000.000
G3 X37.646 Y16.222 Z10.475 I-4.562 J0.152 K0.000 F2000.000
G1 X37.646 Y16.222 Z8.890 F100.000
G1 X-37.645 Y16.222 Z8.890 F2000.000
G3 X-37.646 Y15.977 Z8.890 I4.562 J-0.152 K0.000 F2000.000
G1 X37.645 Y15.977 Z8.890 F2000.000
G3 X37.646 Y16.222 Z8.890 I-4.562 J0.152 K0.000 F2000.000
G0 Z17.500
G0 Y17.015 Z17.500
G0 Y17.015 Z15.500
G1 X37.646 Y17.015 Z8.890 F100.000
G1 X-38.379 Y17.015 Z8.890 F2000.000
G1 X-38.399 Y17.014 Z8.890 F2000.000
G3 X-38.414 Y15.186 Z8.890 I12.490 J-1.015 K0.000 F2000.000
G1 X-38.378 Y15.185 Z8.890 F2000.000
G1 X38.379 Y15.185 Z8.890 F2000.000
G1 X38.399 Y15.186 Z8.890 F2000.000
G3 X38.414 Y17.013 Z8.890 I-12.490 J1.015 K0.000 F2000.000
G1 X38.378 Y17.015 Z8.890 F2000.000
G1 X37.646 Y17.015 Z8.890 F2000.000
G1 X37.646 Y17.015 Z7.305 F100.000
G1 X-38.379 Y17.015 Z7.305 F2000.000
G1 X-38.399 Y17.014 Z7.305 F2000.000
G3 X-38.414 Y15.186 Z7.305 I12.490 J-1.015 K0.000 F2000.000
G1 X-38.378 Y15.185 Z7.305 F2000.000
G1 X38.379 Y15.185 Z7.305 F2000.000
G1 X38.399 Y15.186 Z7.305 F2000.000
G3 X38.414 Y17.013 Z7.305 I-12.490 J1.015 K0.000 F2000.000
G1 X38.378 Y17.015 Z7.305 F2000.000
G1 X37.646 Y17.015 Z7.305 F2000.000
G0 Z17.500
G0 Y16.222 Z17.500
G0 Y16.222 Z15.500
G1 X37.646 Y16.222 Z7.305 F100.000
G1 X-37.645 Y16.222 Z7.305 F2000.000
G3 X-37.646 Y15.977 Z7.305 I4.562 J-0.152 K0.000 F2000.000
G1 X37.645 Y15.977 Z7.305 F2000.000
G3 X37.646 Y16.222 Z7.305 I-4.562 J0.152 K0.000 F2000.000
G1 X37.646 Y16.222 Z5.720 F100.000
G1 X-37.645 Y16.222 Z5.720 F2000.000
G3 X-37.646 Y15.977 Z5.720 I4.562 J-0.152 K0.000 F2000.000
G1 X37.645 Y15.977 Z5.720 F2000.000
G3 X37.646 Y16.222 Z5.720 I-4.562 J0.152 K0.000 F2000.000
G0 Z17.500
G0 Y17.015 Z17.500
G0 Y17.015 Z15.500
G1 X37.646 Y17.015 Z5.720 F100.000
G1 X-38.379 Y17.015 Z5.720 F2000.000
G1 X-38.399 Y17.014 Z5.720 F2000.000
G3 X-38.414 Y15.186 Z5.720 I12.490 J-1.015 K0.000 F2000.000
G1 X-38.378 Y15.185 Z5.720 F2000.000
G1 X38.379 Y15.185 Z5.720 F2000.000
G1 X38.399 Y15.186 Z5.720 F2000.000
G3 X38.414 Y17.013 Z5.720 I-12.490 J1.015 K0.000 F2000.000
G1 X38.378 Y17.015 Z5.720 F2000.000
G1 X37.646 Y17.015 Z5.720 F2000.000
G0 Z17.500
G0 Z17.500
(Finish operation: MillFace)
(Begin postamble)
M5
G17 G90
M2
