(Exported by FreeCAD)
(Post Processor: grbl_post)
(Output Time:2024-01-26 15:46:53.453253)
(Begin preamble)
G17 G90
G21
(Begin operation: TC: 0.5mm_droite)
(Path: TC: 0.5mm_droite)
(TC: 0.5mm_droite)
(Begin toolchange)
( M6 T2 )
M3 S24000
(Finish operation: TC: 0.5mm_droite)
(Begin operation: Fixture)
(Path: Fixture)
G54
(Finish operation: Fixture)
(Begin operation: Frettes002)
(Path: Frettes002)
(Frettes002)
(Frettes002)
(Tool type: endmill)
(Compensated Tool Path. Diameter: 0.5)
(Sample interval: 1.0)
(Step over %: 100.0)
()
G0 Z12.000
(Beginning of Multi-pass layers.)
(Layer 0 begins)
(Begin step 0.)
G0 X30.003 Y445.231
(part 1)
G1 X30.003 Y445.231 Z6.853 F200.000
G1 X29.868 Y445.295 Z6.853 F200.000
G1 X24.268 Y445.295 Z6.853 F200.000
G1 X24.093 Y445.237 Z6.853 F200.000
G1 X24.279 Y445.231 Z6.853 F200.000
G1 X30.003 Y445.231 Z6.853 F200.000
(--Break)
G0 Z10.000
G0 X-8.084 Y445.231
(part 3)
G1 X-8.084 Y445.231 Z6.853 F200.000
G1 X-8.257 Y445.295 Z6.853 F200.000
G1 X-30.057 Y445.295 Z6.853 F200.000
G1 X-30.191 Y445.231 Z6.853 F200.000
G1 X-8.084 Y445.231 Z6.853 F200.000
(--Break)
G0 Z10.000
G0 X23.714 Y36.450
(part 5)
G1 X23.714 Y36.450 Z6.853 F200.000
G1 X23.579 Y36.514 Z6.853 F200.000
G1 X-23.821 Y36.514 Z6.853 F200.000
G1 X-23.849 Y36.450 Z6.853 F200.000
G1 X23.714 Y36.450 Z6.853 F200.000
(--Break)
G0 Z10.000
G0 X24.243 Y70.884
(part 7)
G1 X24.243 Y70.884 Z6.853 F200.000
G1 X24.109 Y70.948 Z6.853 F200.000
G1 X-24.291 Y70.948 Z6.853 F200.000
G1 X-24.432 Y70.890 Z6.853 F200.000
G1 X-24.239 Y70.884 Z6.853 F200.000
G1 X24.243 Y70.884 Z6.853 F200.000
(--Break)
G0 Z10.000
G0 X24.743 Y103.385
(part 9)
G1 X24.743 Y103.385 Z6.853 F200.000
G1 X24.609 Y103.449 Z6.853 F200.000
G1 X-24.791 Y103.449 Z6.853 F200.000
G1 X-24.932 Y103.391 Z6.853 F200.000
G1 X-24.739 Y103.385 Z6.853 F200.000
G1 X24.743 Y103.385 Z6.853 F200.000
(--Break)
G0 Z10.000
G0 X25.215 Y134.062
(part 11)
G1 X25.215 Y134.062 Z6.853 F200.000
G1 X25.081 Y134.126 Z6.853 F200.000
G1 X-25.319 Y134.126 Z6.853 F200.000
G1 X-25.354 Y134.062 Z6.853 F200.000
G1 X25.215 Y134.062 Z6.853 F200.000
(--Break)
G0 Z10.000
G0 X25.661 Y163.018
(part 13)
G1 X25.661 Y163.018 Z6.853 F200.000
G1 X25.526 Y163.082 Z6.853 F200.000
G1 X-25.674 Y163.082 Z6.853 F200.000
G1 X-25.850 Y163.059 Z6.853 F200.000
G1 X-25.691 Y163.018 Z6.853 F200.000
G1 X25.661 Y163.018 Z6.853 F200.000
(--Break)
G0 Z10.000
G0 X26.081 Y190.348
(part 15)
G1 X26.081 Y190.348 Z6.853 F200.000
G1 X25.947 Y190.412 Z6.853 F200.000
G1 X-26.253 Y190.412 Z6.853 F200.000
G1 X-26.152 Y190.348 Z6.853 F200.000
G1 X26.081 Y190.348 Z6.853 F200.000
(--Break)
G0 Z10.000
G0 X26.478 Y216.144
(part 17)
G1 X26.478 Y216.144 Z6.853 F200.000
G1 X26.344 Y216.208 Z6.853 F200.000
G1 X-26.656 Y216.208 Z6.853 F200.000
G1 X-26.543 Y216.144 Z6.853 F200.000
G1 X26.478 Y216.144 Z6.853 F200.000
(--Break)
G0 Z10.000
G0 X26.853 Y240.493
(part 19)
G1 X26.853 Y240.493 Z6.853 F200.000
G1 X26.718 Y240.557 Z6.853 F200.000
G1 X-26.882 Y240.557 Z6.853 F200.000
G1 X-27.042 Y240.518 Z6.853 F200.000
G1 X-26.867 Y240.493 Z6.853 F200.000
G1 X26.853 Y240.493 Z6.853 F200.000
(--Break)
G0 Z10.000
G0 X27.206 Y263.475
(part 21)
G1 X27.206 Y263.475 Z6.853 F200.000
G1 X27.072 Y263.539 Z6.853 F200.000
G1 X-27.328 Y263.539 Z6.853 F200.000
G1 X-27.327 Y263.475 Z6.853 F200.000
G1 X27.206 Y263.475 Z6.853 F200.000
(--Break)
G0 Z10.000
G0 X27.540 Y285.167
(part 23)
G1 X27.540 Y285.167 Z6.853 F200.000
G1 X27.406 Y285.231 Z6.853 F200.000
G1 X-27.594 Y285.231 Z6.853 F200.000
G1 X-27.729 Y285.167 Z6.853 F200.000
G1 X27.540 Y285.167 Z6.853 F200.000
(--Break)
G0 Z10.000
G0 X27.855 Y305.642
(part 25)
G1 X27.855 Y305.642 Z6.853 F200.000
G1 X27.721 Y305.706 Z6.853 F200.000
G1 X-27.879 Y305.706 Z6.853 F200.000
G1 X-28.044 Y305.672 Z6.853 F200.000
G1 X-27.874 Y305.642 Z6.853 F200.000
G1 X27.855 Y305.642 Z6.853 F200.000
(--Break)
G0 Z10.000
G0 X28.152 Y324.968
(part 27)
G1 X28.152 Y324.968 Z6.853 F200.000
G1 X28.018 Y325.032 Z6.853 F200.000
G1 X-28.182 Y325.032 Z6.853 F200.000
G1 X-28.337 Y324.987 Z6.853 F200.000
G1 X-28.157 Y324.968 Z6.853 F200.000
G1 X28.152 Y324.968 Z6.853 F200.000
(--Break)
G0 Z10.000
G0 X-28.622 Y343.209
(part 29)
G1 X-28.622 Y343.209 Z6.853 F200.000
G1 X-28.422 Y343.209 Z6.853 F200.000
G1 X28.378 Y343.209 Z6.853 F200.000
G1 X28.353 Y343.273 Z6.853 F200.000
G1 X-28.447 Y343.273 Z6.853 F200.000
G1 X-28.622 Y343.249 Z6.853 F200.000
G1 X-28.622 Y343.209 Z6.853 F200.000
(--Break)
G0 Z10.000
G0 X28.698 Y360.426
(part 31)
G1 X28.698 Y360.426 Z6.853 F200.000
G1 X28.563 Y360.490 Z6.853 F200.000
G1 X-28.837 Y360.490 Z6.853 F200.000
G1 X-28.802 Y360.426 Z6.853 F200.000
G1 X28.698 Y360.426 Z6.853 F200.000
(--Break)
G0 Z10.000
G0 X28.948 Y376.677
(part 33)
G1 X28.948 Y376.677 Z6.853 F200.000
G1 X28.813 Y376.741 Z6.853 F200.000
G1 X-28.987 Y376.741 Z6.853 F200.000
G1 X-29.137 Y376.692 Z6.853 F200.000
G1 X-28.952 Y376.677 Z6.853 F200.000
G1 X28.948 Y376.677 Z6.853 F200.000
(--Break)
G0 Z10.000
G0 X29.184 Y392.016
(part 35)
G1 X29.184 Y392.016 Z6.853 F200.000
G1 X29.049 Y392.080 Z6.853 F200.000
G1 X-29.351 Y392.080 Z6.853 F200.000
G1 X-29.260 Y392.016 Z6.853 F200.000
G1 X29.184 Y392.016 Z6.853 F200.000
(--Break)
G0 Z10.000
G0 X29.407 Y406.494
(part 37)
G1 X29.407 Y406.494 Z6.853 F200.000
G1 X29.272 Y406.558 Z6.853 F200.000
G1 X-29.528 Y406.558 Z6.853 F200.000
G1 X-29.528 Y406.494 Z6.853 F200.000
G1 X29.407 Y406.494 Z6.853 F200.000
(--Break)
G0 Z10.000
G0 X29.617 Y420.159
(part 39)
G1 X29.617 Y420.159 Z6.853 F200.000
G1 X29.482 Y420.223 Z6.853 F200.000
G1 X-29.718 Y420.223 Z6.853 F200.000
G1 X-29.759 Y420.159 Z6.853 F200.000
G1 X29.617 Y420.159 Z6.853 F200.000
(--Break)
G0 Z10.000
G0 X29.815 Y433.057
(part 41)
G1 X29.815 Y433.057 Z6.853 F200.000
G1 X29.681 Y433.121 Z6.853 F200.000
G1 X-29.919 Y433.121 Z6.853 F200.000
G1 X-29.954 Y433.057 Z6.853 F200.000
G1 X29.815 Y433.057 Z6.853 F200.000
(End of step 0.)
(End of layer 0)
(Layer 1 begins)
(Layer transition)
G0 Z10.000
G0 X30.003 Y445.231
(Begin step 0.)
G0 X30.003 Y445.231
(part 1)
G1 X30.003 Y445.231 Z6.706 F200.000
G1 X29.868 Y445.295 Z6.706 F200.000
G1 X24.268 Y445.295 Z6.706 F200.000
G1 X24.093 Y445.237 Z6.706 F200.000
G1 X24.279 Y445.231 Z6.706 F200.000
G1 X30.003 Y445.231 Z6.706 F200.000
(--Break)
G0 Z10.000
G0 X-8.084 Y445.231
(part 3)
G1 X-8.084 Y445.231 Z6.706 F200.000
G1 X-8.257 Y445.295 Z6.706 F200.000
G1 X-30.057 Y445.295 Z6.706 F200.000
G1 X-30.191 Y445.231 Z6.706 F200.000
G1 X-8.084 Y445.231 Z6.706 F200.000
(--Break)
G0 Z10.000
G0 X23.714 Y36.450
(part 5)
G1 X23.714 Y36.450 Z6.706 F200.000
G1 X23.579 Y36.514 Z6.706 F200.000
G1 X-23.821 Y36.514 Z6.706 F200.000
G1 X-23.849 Y36.450 Z6.706 F200.000
G1 X23.714 Y36.450 Z6.706 F200.000
(--Break)
G0 Z10.000
G0 X24.243 Y70.884
(part 7)
G1 X24.243 Y70.884 Z6.706 F200.000
G1 X24.109 Y70.948 Z6.706 F200.000
G1 X-24.291 Y70.948 Z6.706 F200.000
G1 X-24.432 Y70.890 Z6.706 F200.000
G1 X-24.239 Y70.884 Z6.706 F200.000
G1 X24.243 Y70.884 Z6.706 F200.000
(--Break)
G0 Z10.000
G0 X24.743 Y103.385
(part 9)
G1 X24.743 Y103.385 Z6.706 F200.000
G1 X24.609 Y103.449 Z6.706 F200.000
G1 X-24.791 Y103.449 Z6.706 F200.000
G1 X-24.932 Y103.391 Z6.706 F200.000
G1 X-24.739 Y103.385 Z6.706 F200.000
G1 X24.743 Y103.385 Z6.706 F200.000
(--Break)
G0 Z10.000
G0 X25.215 Y134.062
(part 11)
G1 X25.215 Y134.062 Z6.706 F200.000
G1 X25.081 Y134.126 Z6.706 F200.000
G1 X-25.319 Y134.126 Z6.706 F200.000
G1 X-25.354 Y134.062 Z6.706 F200.000
G1 X25.215 Y134.062 Z6.706 F200.000
(--Break)
G0 Z10.000
G0 X25.661 Y163.018
(part 13)
G1 X25.661 Y163.018 Z6.706 F200.000
G1 X25.526 Y163.082 Z6.706 F200.000
G1 X-25.674 Y163.082 Z6.706 F200.000
G1 X-25.850 Y163.059 Z6.706 F200.000
G1 X-25.691 Y163.018 Z6.706 F200.000
G1 X25.661 Y163.018 Z6.706 F200.000
(--Break)
G0 Z10.000
G0 X26.081 Y190.348
(part 15)
G1 X26.081 Y190.348 Z6.706 F200.000
G1 X25.947 Y190.412 Z6.706 F200.000
G1 X-26.253 Y190.412 Z6.706 F200.000
G1 X-26.152 Y190.348 Z6.706 F200.000
G1 X26.081 Y190.348 Z6.706 F200.000
(--Break)
G0 Z10.000
G0 X26.478 Y216.144
(part 17)
G1 X26.478 Y216.144 Z6.706 F200.000
G1 X26.344 Y216.208 Z6.706 F200.000
G1 X-26.656 Y216.208 Z6.706 F200.000
G1 X-26.543 Y216.144 Z6.706 F200.000
G1 X26.478 Y216.144 Z6.706 F200.000
(--Break)
G0 Z10.000
G0 X26.853 Y240.493
(part 19)
G1 X26.853 Y240.493 Z6.706 F200.000
G1 X26.718 Y240.557 Z6.706 F200.000
G1 X-26.882 Y240.557 Z6.706 F200.000
G1 X-27.042 Y240.518 Z6.706 F200.000
G1 X-26.867 Y240.493 Z6.706 F200.000
G1 X26.853 Y240.493 Z6.706 F200.000
(--Break)
G0 Z10.000
G0 X27.206 Y263.475
(part 21)
G1 X27.206 Y263.475 Z6.706 F200.000
G1 X27.072 Y263.539 Z6.706 F200.000
G1 X-27.328 Y263.539 Z6.706 F200.000
G1 X-27.327 Y263.475 Z6.706 F200.000
G1 X27.206 Y263.475 Z6.706 F200.000
(--Break)
G0 Z10.000
G0 X27.540 Y285.167
(part 23)
G1 X27.540 Y285.167 Z6.706 F200.000
G1 X27.406 Y285.231 Z6.706 F200.000
G1 X-27.594 Y285.231 Z6.706 F200.000
G1 X-27.729 Y285.167 Z6.706 F200.000
G1 X27.540 Y285.167 Z6.706 F200.000
(--Break)
G0 Z10.000
G0 X27.855 Y305.642
(part 25)
G1 X27.855 Y305.642 Z6.706 F200.000
G1 X27.721 Y305.706 Z6.706 F200.000
G1 X-27.879 Y305.706 Z6.706 F200.000
G1 X-28.044 Y305.672 Z6.706 F200.000
G1 X-27.874 Y305.642 Z6.706 F200.000
G1 X27.855 Y305.642 Z6.706 F200.000
(--Break)
G0 Z10.000
G0 X28.152 Y324.968
(part 27)
G1 X28.152 Y324.968 Z6.706 F200.000
G1 X28.018 Y325.032 Z6.706 F200.000
G1 X-28.182 Y325.032 Z6.706 F200.000
G1 X-28.337 Y324.987 Z6.706 F200.000
G1 X-28.157 Y324.968 Z6.706 F200.000
G1 X28.152 Y324.968 Z6.706 F200.000
(--Break)
G0 Z10.000
G0 X-28.622 Y343.209
(part 29)
G1 X-28.622 Y343.209 Z6.706 F200.000
G1 X-28.422 Y343.209 Z6.706 F200.000
G1 X28.378 Y343.209 Z6.706 F200.000
G1 X28.353 Y343.273 Z6.706 F200.000
G1 X-28.447 Y343.273 Z6.706 F200.000
G1 X-28.622 Y343.249 Z6.706 F200.000
G1 X-28.622 Y343.209 Z6.706 F200.000
(--Break)
G0 Z10.000
G0 X28.698 Y360.426
(part 31)
G1 X28.698 Y360.426 Z6.706 F200.000
G1 X28.563 Y360.490 Z6.706 F200.000
G1 X-28.837 Y360.490 Z6.706 F200.000
G1 X-28.802 Y360.426 Z6.706 F200.000
G1 X28.698 Y360.426 Z6.706 F200.000
(--Break)
G0 Z10.000
G0 X28.948 Y376.677
(part 33)
G1 X28.948 Y376.677 Z6.706 F200.000
G1 X28.813 Y376.741 Z6.706 F200.000
G1 X-28.987 Y376.741 Z6.706 F200.000
G1 X-29.137 Y376.692 Z6.706 F200.000
G1 X-28.952 Y376.677 Z6.706 F200.000
G1 X28.948 Y376.677 Z6.706 F200.000
(--Break)
G0 Z10.000
G0 X29.184 Y392.016
(part 35)
G1 X29.184 Y392.016 Z6.706 F200.000
G1 X29.049 Y392.080 Z6.706 F200.000
G1 X-29.351 Y392.080 Z6.706 F200.000
G1 X-29.260 Y392.016 Z6.706 F200.000
G1 X29.184 Y392.016 Z6.706 F200.000
(--Break)
G0 Z10.000
G0 X29.407 Y406.494
(part 37)
G1 X29.407 Y406.494 Z6.706 F200.000
G1 X29.272 Y406.558 Z6.706 F200.000
G1 X-29.528 Y406.558 Z6.706 F200.000
G1 X-29.528 Y406.494 Z6.706 F200.000
G1 X29.407 Y406.494 Z6.706 F200.000
(--Break)
G0 Z10.000
G0 X29.617 Y420.159
(part 39)
G1 X29.617 Y420.159 Z6.706 F200.000
G1 X29.482 Y420.223 Z6.706 F200.000
G1 X-29.718 Y420.223 Z6.706 F200.000
G1 X-29.759 Y420.159 Z6.706 F200.000
G1 X29.617 Y420.159 Z6.706 F200.000
(--Break)
G0 Z10.000
G0 X29.815 Y433.057
(part 41)
G1 X29.815 Y433.057 Z6.706 F200.000
G1 X29.681 Y433.121 Z6.706 F200.000
G1 X-29.919 Y433.121 Z6.706 F200.000
G1 X-29.954 Y433.057 Z6.706 F200.000
G1 X29.815 Y433.057 Z6.706 F200.000
(End of step 0.)
(End of layer 1)
(Layer 2 begins)
(Layer transition)
G0 Z10.000
G0 X30.003 Y445.231
(Begin step 0.)
G0 X30.003 Y445.231
(part 1)
G1 X30.003 Y445.231 Z6.559 F200.000
G1 X29.868 Y445.295 Z6.559 F200.000
G1 X24.268 Y445.295 Z6.559 F200.000
G1 X24.093 Y445.237 Z6.559 F200.000
G1 X24.279 Y445.231 Z6.559 F200.000
G1 X30.003 Y445.231 Z6.559 F200.000
(--Break)
G0 Z10.000
G0 X-8.084 Y445.231
(part 3)
G1 X-8.084 Y445.231 Z6.559 F200.000
G1 X-8.257 Y445.295 Z6.559 F200.000
G1 X-30.057 Y445.295 Z6.559 F200.000
G1 X-30.191 Y445.231 Z6.559 F200.000
G1 X-8.084 Y445.231 Z6.559 F200.000
(--Break)
G0 Z10.000
G0 X23.714 Y36.450
(part 5)
G1 X23.714 Y36.450 Z6.559 F200.000
G1 X23.579 Y36.514 Z6.559 F200.000
G1 X-23.821 Y36.514 Z6.559 F200.000
G1 X-23.849 Y36.450 Z6.559 F200.000
G1 X23.714 Y36.450 Z6.559 F200.000
(--Break)
G0 Z10.000
G0 X24.243 Y70.884
(part 7)
G1 X24.243 Y70.884 Z6.559 F200.000
G1 X24.109 Y70.948 Z6.559 F200.000
G1 X-24.291 Y70.948 Z6.559 F200.000
G1 X-24.432 Y70.890 Z6.559 F200.000
G1 X-24.239 Y70.884 Z6.559 F200.000
G1 X24.243 Y70.884 Z6.559 F200.000
(--Break)
G0 Z10.000
G0 X24.743 Y103.385
(part 9)
G1 X24.743 Y103.385 Z6.559 F200.000
G1 X24.609 Y103.449 Z6.559 F200.000
G1 X-24.791 Y103.449 Z6.559 F200.000
G1 X-24.932 Y103.391 Z6.559 F200.000
G1 X-24.739 Y103.385 Z6.559 F200.000
G1 X24.743 Y103.385 Z6.559 F200.000
(--Break)
G0 Z10.000
G0 X25.215 Y134.062
(part 11)
G1 X25.215 Y134.062 Z6.559 F200.000
G1 X25.081 Y134.126 Z6.559 F200.000
G1 X-25.319 Y134.126 Z6.559 F200.000
G1 X-25.354 Y134.062 Z6.559 F200.000
G1 X25.215 Y134.062 Z6.559 F200.000
(--Break)
G0 Z10.000
G0 X25.661 Y163.018
(part 13)
G1 X25.661 Y163.018 Z6.559 F200.000
G1 X25.526 Y163.082 Z6.559 F200.000
G1 X-25.674 Y163.082 Z6.559 F200.000
G1 X-25.850 Y163.059 Z6.559 F200.000
G1 X-25.691 Y163.018 Z6.559 F200.000
G1 X25.661 Y163.018 Z6.559 F200.000
(--Break)
G0 Z10.000
G0 X26.081 Y190.348
(part 15)
G1 X26.081 Y190.348 Z6.559 F200.000
G1 X25.947 Y190.412 Z6.559 F200.000
G1 X-26.253 Y190.412 Z6.559 F200.000
G1 X-26.152 Y190.348 Z6.559 F200.000
G1 X26.081 Y190.348 Z6.559 F200.000
(--Break)
G0 Z10.000
G0 X26.478 Y216.144
(part 17)
G1 X26.478 Y216.144 Z6.559 F200.000
G1 X26.344 Y216.208 Z6.559 F200.000
G1 X-26.656 Y216.208 Z6.559 F200.000
G1 X-26.543 Y216.144 Z6.559 F200.000
G1 X26.478 Y216.144 Z6.559 F200.000
(--Break)
G0 Z10.000
G0 X26.853 Y240.493
(part 19)
G1 X26.853 Y240.493 Z6.559 F200.000
G1 X26.718 Y240.557 Z6.559 F200.000
G1 X-26.882 Y240.557 Z6.559 F200.000
G1 X-27.042 Y240.518 Z6.559 F200.000
G1 X-26.867 Y240.493 Z6.559 F200.000
G1 X26.853 Y240.493 Z6.559 F200.000
(--Break)
G0 Z10.000
G0 X27.206 Y263.475
(part 21)
G1 X27.206 Y263.475 Z6.559 F200.000
G1 X27.072 Y263.539 Z6.559 F200.000
G1 X-27.328 Y263.539 Z6.559 F200.000
G1 X-27.327 Y263.475 Z6.559 F200.000
G1 X27.206 Y263.475 Z6.559 F200.000
(--Break)
G0 Z10.000
G0 X27.540 Y285.167
(part 23)
G1 X27.540 Y285.167 Z6.559 F200.000
G1 X27.406 Y285.231 Z6.559 F200.000
G1 X-27.594 Y285.231 Z6.559 F200.000
G1 X-27.729 Y285.167 Z6.559 F200.000
G1 X27.540 Y285.167 Z6.559 F200.000
(--Break)
G0 Z10.000
G0 X27.855 Y305.642
(part 25)
G1 X27.855 Y305.642 Z6.559 F200.000
G1 X27.721 Y305.706 Z6.559 F200.000
G1 X-27.879 Y305.706 Z6.559 F200.000
G1 X-28.044 Y305.672 Z6.559 F200.000
G1 X-27.874 Y305.642 Z6.559 F200.000
G1 X27.855 Y305.642 Z6.559 F200.000
(--Break)
G0 Z10.000
G0 X28.152 Y324.968
(part 27)
G1 X28.152 Y324.968 Z6.559 F200.000
G1 X28.018 Y325.032 Z6.559 F200.000
G1 X-28.182 Y325.032 Z6.559 F200.000
G1 X-28.337 Y324.987 Z6.559 F200.000
G1 X-28.157 Y324.968 Z6.559 F200.000
G1 X28.152 Y324.968 Z6.559 F200.000
(--Break)
G0 Z10.000
G0 X-28.622 Y343.209
(part 29)
G1 X-28.622 Y343.209 Z6.559 F200.000
G1 X-28.422 Y343.209 Z6.559 F200.000
G1 X28.378 Y343.209 Z6.559 F200.000
G1 X28.353 Y343.273 Z6.559 F200.000
G1 X-28.447 Y343.273 Z6.559 F200.000
G1 X-28.622 Y343.249 Z6.559 F200.000
G1 X-28.622 Y343.209 Z6.559 F200.000
(--Break)
G0 Z10.000
G0 X28.698 Y360.426
(part 31)
G1 X28.698 Y360.426 Z6.559 F200.000
G1 X28.563 Y360.490 Z6.559 F200.000
G1 X-28.837 Y360.490 Z6.559 F200.000
G1 X-28.802 Y360.426 Z6.559 F200.000
G1 X28.698 Y360.426 Z6.559 F200.000
(--Break)
G0 Z10.000
G0 X28.948 Y376.677
(part 33)
G1 X28.948 Y376.677 Z6.559 F200.000
G1 X28.813 Y376.741 Z6.559 F200.000
G1 X-28.987 Y376.741 Z6.559 F200.000
G1 X-29.137 Y376.692 Z6.559 F200.000
G1 X-28.952 Y376.677 Z6.559 F200.000
G1 X28.948 Y376.677 Z6.559 F200.000
(--Break)
G0 Z10.000
G0 X29.184 Y392.016
(part 35)
G1 X29.184 Y392.016 Z6.559 F200.000
G1 X29.049 Y392.080 Z6.559 F200.000
G1 X-29.351 Y392.080 Z6.559 F200.000
G1 X-29.260 Y392.016 Z6.559 F200.000
G1 X29.184 Y392.016 Z6.559 F200.000
(--Break)
G0 Z10.000
G0 X29.407 Y406.494
(part 37)
G1 X29.407 Y406.494 Z6.559 F200.000
G1 X29.272 Y406.558 Z6.559 F200.000
G1 X-29.528 Y406.558 Z6.559 F200.000
G1 X-29.528 Y406.494 Z6.559 F200.000
G1 X29.407 Y406.494 Z6.559 F200.000
(--Break)
G0 Z10.000
G0 X29.617 Y420.159
(part 39)
G1 X29.617 Y420.159 Z6.559 F200.000
G1 X29.482 Y420.223 Z6.559 F200.000
G1 X-29.718 Y420.223 Z6.559 F200.000
G1 X-29.759 Y420.159 Z6.559 F200.000
G1 X29.617 Y420.159 Z6.559 F200.000
(--Break)
G0 Z10.000
G0 X29.815 Y433.057
(part 41)
G1 X29.815 Y433.057 Z6.559 F200.000
G1 X29.681 Y433.121 Z6.559 F200.000
G1 X-29.919 Y433.121 Z6.559 F200.000
G1 X-29.954 Y433.057 Z6.559 F200.000
G1 X29.815 Y433.057 Z6.559 F200.000
(End of step 0.)
(End of layer 2)
(Layer 3 begins)
(Layer transition)
G0 Z10.000
G0 X30.003 Y445.231
(Begin step 0.)
G0 X30.003 Y445.231
(part 1)
G1 X30.003 Y445.231 Z6.412 F200.000
G1 X29.868 Y445.295 Z6.412 F200.000
G1 X24.268 Y445.295 Z6.412 F200.000
G1 X24.093 Y445.237 Z6.412 F200.000
G1 X24.279 Y445.231 Z6.412 F200.000
G1 X30.003 Y445.231 Z6.412 F200.000
(--Break)
G0 Z10.000
G0 X-8.084 Y445.231
(part 3)
G1 X-8.084 Y445.231 Z6.412 F200.000
G1 X-8.257 Y445.295 Z6.412 F200.000
G1 X-30.057 Y445.295 Z6.412 F200.000
G1 X-30.191 Y445.231 Z6.412 F200.000
G1 X-8.084 Y445.231 Z6.412 F200.000
(--Break)
G0 Z10.000
G0 X23.714 Y36.450
(part 5)
G1 X23.714 Y36.450 Z6.412 F200.000
G1 X23.579 Y36.514 Z6.412 F200.000
G1 X-23.821 Y36.514 Z6.412 F200.000
G1 X-23.849 Y36.450 Z6.412 F200.000
G1 X23.714 Y36.450 Z6.412 F200.000
(--Break)
G0 Z10.000
G0 X24.243 Y70.884
(part 7)
G1 X24.243 Y70.884 Z6.412 F200.000
G1 X24.109 Y70.948 Z6.412 F200.000
G1 X-24.291 Y70.948 Z6.412 F200.000
G1 X-24.432 Y70.890 Z6.412 F200.000
G1 X-24.239 Y70.884 Z6.412 F200.000
G1 X24.243 Y70.884 Z6.412 F200.000
(--Break)
G0 Z10.000
G0 X24.743 Y103.385
(part 9)
G1 X24.743 Y103.385 Z6.412 F200.000
G1 X24.609 Y103.449 Z6.412 F200.000
G1 X-24.791 Y103.449 Z6.412 F200.000
G1 X-24.932 Y103.391 Z6.412 F200.000
G1 X-24.739 Y103.385 Z6.412 F200.000
G1 X24.743 Y103.385 Z6.412 F200.000
(--Break)
G0 Z10.000
G0 X25.215 Y134.062
(part 11)
G1 X25.215 Y134.062 Z6.412 F200.000
G1 X25.081 Y134.126 Z6.412 F200.000
G1 X-25.319 Y134.126 Z6.412 F200.000
G1 X-25.354 Y134.062 Z6.412 F200.000
G1 X25.215 Y134.062 Z6.412 F200.000
(--Break)
G0 Z10.000
G0 X25.661 Y163.018
(part 13)
G1 X25.661 Y163.018 Z6.412 F200.000
G1 X25.526 Y163.082 Z6.412 F200.000
G1 X-25.674 Y163.082 Z6.412 F200.000
G1 X-25.850 Y163.059 Z6.412 F200.000
G1 X-25.691 Y163.018 Z6.412 F200.000
G1 X25.661 Y163.018 Z6.412 F200.000
(--Break)
G0 Z10.000
G0 X26.081 Y190.348
(part 15)
G1 X26.081 Y190.348 Z6.412 F200.000
G1 X25.947 Y190.412 Z6.412 F200.000
G1 X-26.253 Y190.412 Z6.412 F200.000
G1 X-26.152 Y190.348 Z6.412 F200.000
G1 X26.081 Y190.348 Z6.412 F200.000
(--Break)
G0 Z10.000
G0 X26.478 Y216.144
(part 17)
G1 X26.478 Y216.144 Z6.412 F200.000
G1 X26.344 Y216.208 Z6.412 F200.000
G1 X-26.656 Y216.208 Z6.412 F200.000
G1 X-26.543 Y216.144 Z6.412 F200.000
G1 X26.478 Y216.144 Z6.412 F200.000
(--Break)
G0 Z10.000
G0 X26.853 Y240.493
(part 19)
G1 X26.853 Y240.493 Z6.412 F200.000
G1 X26.718 Y240.557 Z6.412 F200.000
G1 X-26.882 Y240.557 Z6.412 F200.000
G1 X-27.042 Y240.518 Z6.412 F200.000
G1 X-26.867 Y240.493 Z6.412 F200.000
G1 X26.853 Y240.493 Z6.412 F200.000
(--Break)
G0 Z10.000
G0 X27.206 Y263.475
(part 21)
G1 X27.206 Y263.475 Z6.412 F200.000
G1 X27.072 Y263.539 Z6.412 F200.000
G1 X-27.328 Y263.539 Z6.412 F200.000
G1 X-27.327 Y263.475 Z6.412 F200.000
G1 X27.206 Y263.475 Z6.412 F200.000
(--Break)
G0 Z10.000
G0 X27.540 Y285.167
(part 23)
G1 X27.540 Y285.167 Z6.412 F200.000
G1 X27.406 Y285.231 Z6.412 F200.000
G1 X-27.594 Y285.231 Z6.412 F200.000
G1 X-27.729 Y285.167 Z6.412 F200.000
G1 X27.540 Y285.167 Z6.412 F200.000
(--Break)
G0 Z10.000
G0 X27.855 Y305.642
(part 25)
G1 X27.855 Y305.642 Z6.412 F200.000
G1 X27.721 Y305.706 Z6.412 F200.000
G1 X-27.879 Y305.706 Z6.412 F200.000
G1 X-28.044 Y305.672 Z6.412 F200.000
G1 X-27.874 Y305.642 Z6.412 F200.000
G1 X27.855 Y305.642 Z6.412 F200.000
(--Break)
G0 Z10.000
G0 X28.152 Y324.968
(part 27)
G1 X28.152 Y324.968 Z6.412 F200.000
G1 X28.018 Y325.032 Z6.412 F200.000
G1 X-28.182 Y325.032 Z6.412 F200.000
G1 X-28.337 Y324.987 Z6.412 F200.000
G1 X-28.157 Y324.968 Z6.412 F200.000
G1 X28.152 Y324.968 Z6.412 F200.000
(--Break)
G0 Z10.000
G0 X-28.622 Y343.209
(part 29)
G1 X-28.622 Y343.209 Z6.412 F200.000
G1 X-28.422 Y343.209 Z6.412 F200.000
G1 X28.378 Y343.209 Z6.412 F200.000
G1 X28.353 Y343.273 Z6.412 F200.000
G1 X-28.447 Y343.273 Z6.412 F200.000
G1 X-28.622 Y343.249 Z6.412 F200.000
G1 X-28.622 Y343.209 Z6.412 F200.000
(--Break)
G0 Z10.000
G0 X28.698 Y360.426
(part 31)
G1 X28.698 Y360.426 Z6.412 F200.000
G1 X28.563 Y360.490 Z6.412 F200.000
G1 X-28.837 Y360.490 Z6.412 F200.000
G1 X-28.802 Y360.426 Z6.412 F200.000
G1 X28.698 Y360.426 Z6.412 F200.000
(--Break)
G0 Z10.000
G0 X28.948 Y376.677
(part 33)
G1 X28.948 Y376.677 Z6.412 F200.000
G1 X28.813 Y376.741 Z6.412 F200.000
G1 X-28.987 Y376.741 Z6.412 F200.000
G1 X-29.137 Y376.692 Z6.412 F200.000
G1 X-28.952 Y376.677 Z6.412 F200.000
G1 X28.948 Y376.677 Z6.412 F200.000
(--Break)
G0 Z10.000
G0 X29.184 Y392.016
(part 35)
G1 X29.184 Y392.016 Z6.412 F200.000
G1 X29.049 Y392.080 Z6.412 F200.000
G1 X-29.351 Y392.080 Z6.412 F200.000
G1 X-29.260 Y392.016 Z6.412 F200.000
G1 X29.184 Y392.016 Z6.412 F200.000
(--Break)
G0 Z10.000
G0 X29.407 Y406.494
(part 37)
G1 X29.407 Y406.494 Z6.412 F200.000
G1 X29.272 Y406.558 Z6.412 F200.000
G1 X-29.528 Y406.558 Z6.412 F200.000
G1 X-29.528 Y406.494 Z6.412 F200.000
G1 X29.407 Y406.494 Z6.412 F200.000
(--Break)
G0 Z10.000
G0 X29.617 Y420.159
(part 39)
G1 X29.617 Y420.159 Z6.412 F200.000
G1 X29.482 Y420.223 Z6.412 F200.000
G1 X-29.718 Y420.223 Z6.412 F200.000
G1 X-29.759 Y420.159 Z6.412 F200.000
G1 X29.617 Y420.159 Z6.412 F200.000
(--Break)
G0 Z10.000
G0 X29.815 Y433.057
(part 41)
G1 X29.815 Y433.057 Z6.412 F200.000
G1 X29.681 Y433.121 Z6.412 F200.000
G1 X-29.919 Y433.121 Z6.412 F200.000
G1 X-29.954 Y433.057 Z6.412 F200.000
G1 X29.815 Y433.057 Z6.412 F200.000
(End of step 0.)
(End of layer 3)
(Layer 4 begins)
(Layer transition)
G0 Z10.000
G0 X30.003 Y445.231
(Begin step 0.)
G0 X30.003 Y445.231
(part 1)
G1 X30.003 Y445.231 Z6.265 F200.000
G1 X29.868 Y445.295 Z6.265 F200.000
G1 X24.268 Y445.295 Z6.265 F200.000
G1 X24.093 Y445.237 Z6.265 F200.000
G1 X24.279 Y445.231 Z6.265 F200.000
G1 X30.003 Y445.231 Z6.265 F200.000
(--Break)
G0 Z10.000
G0 X-8.084 Y445.231
(part 3)
G1 X-8.084 Y445.231 Z6.265 F200.000
G1 X-8.257 Y445.295 Z6.265 F200.000
G1 X-30.057 Y445.295 Z6.265 F200.000
G1 X-30.191 Y445.231 Z6.265 F200.000
G1 X-8.084 Y445.231 Z6.265 F200.000
(--Break)
G0 Z10.000
G0 X23.714 Y36.450
(part 5)
G1 X23.714 Y36.450 Z6.265 F200.000
G1 X23.579 Y36.514 Z6.265 F200.000
G1 X-23.821 Y36.514 Z6.265 F200.000
G1 X-23.849 Y36.450 Z6.265 F200.000
G1 X23.714 Y36.450 Z6.265 F200.000
(--Break)
G0 Z10.000
G0 X24.243 Y70.884
(part 7)
G1 X24.243 Y70.884 Z6.265 F200.000
G1 X24.109 Y70.948 Z6.265 F200.000
G1 X-24.291 Y70.948 Z6.265 F200.000
G1 X-24.432 Y70.890 Z6.265 F200.000
G1 X-24.239 Y70.884 Z6.265 F200.000
G1 X24.243 Y70.884 Z6.265 F200.000
(--Break)
G0 Z10.000
G0 X24.743 Y103.385
(part 9)
G1 X24.743 Y103.385 Z6.265 F200.000
G1 X24.609 Y103.449 Z6.265 F200.000
G1 X-24.791 Y103.449 Z6.265 F200.000
G1 X-24.932 Y103.391 Z6.265 F200.000
G1 X-24.739 Y103.385 Z6.265 F200.000
G1 X24.743 Y103.385 Z6.265 F200.000
(--Break)
G0 Z10.000
G0 X25.215 Y134.062
(part 11)
G1 X25.215 Y134.062 Z6.265 F200.000
G1 X25.081 Y134.126 Z6.265 F200.000
G1 X-25.319 Y134.126 Z6.265 F200.000
G1 X-25.354 Y134.062 Z6.265 F200.000
G1 X25.215 Y134.062 Z6.265 F200.000
(--Break)
G0 Z10.000
G0 X25.661 Y163.018
(part 13)
G1 X25.661 Y163.018 Z6.265 F200.000
G1 X25.526 Y163.082 Z6.265 F200.000
G1 X-25.674 Y163.082 Z6.265 F200.000
G1 X-25.850 Y163.059 Z6.265 F200.000
G1 X-25.691 Y163.018 Z6.265 F200.000
G1 X25.661 Y163.018 Z6.265 F200.000
(--Break)
G0 Z10.000
G0 X26.081 Y190.348
(part 15)
G1 X26.081 Y190.348 Z6.265 F200.000
G1 X25.947 Y190.412 Z6.265 F200.000
G1 X-26.253 Y190.412 Z6.265 F200.000
G1 X-26.152 Y190.348 Z6.265 F200.000
G1 X26.081 Y190.348 Z6.265 F200.000
(--Break)
G0 Z10.000
G0 X26.478 Y216.144
(part 17)
G1 X26.478 Y216.144 Z6.265 F200.000
G1 X26.344 Y216.208 Z6.265 F200.000
G1 X-26.656 Y216.208 Z6.265 F200.000
G1 X-26.543 Y216.144 Z6.265 F200.000
G1 X26.478 Y216.144 Z6.265 F200.000
(--Break)
G0 Z10.000
G0 X26.853 Y240.493
(part 19)
G1 X26.853 Y240.493 Z6.265 F200.000
G1 X26.718 Y240.557 Z6.265 F200.000
G1 X-26.882 Y240.557 Z6.265 F200.000
G1 X-27.042 Y240.518 Z6.265 F200.000
G1 X-26.867 Y240.493 Z6.265 F200.000
G1 X26.853 Y240.493 Z6.265 F200.000
(--Break)
G0 Z10.000
G0 X27.206 Y263.475
(part 21)
G1 X27.206 Y263.475 Z6.265 F200.000
G1 X27.072 Y263.539 Z6.265 F200.000
G1 X-27.328 Y263.539 Z6.265 F200.000
G1 X-27.327 Y263.475 Z6.265 F200.000
G1 X27.206 Y263.475 Z6.265 F200.000
(--Break)
G0 Z10.000
G0 X27.540 Y285.167
(part 23)
G1 X27.540 Y285.167 Z6.265 F200.000
G1 X27.406 Y285.231 Z6.265 F200.000
G1 X-27.594 Y285.231 Z6.265 F200.000
G1 X-27.729 Y285.167 Z6.265 F200.000
G1 X27.540 Y285.167 Z6.265 F200.000
(--Break)
G0 Z10.000
G0 X27.855 Y305.642
(part 25)
G1 X27.855 Y305.642 Z6.265 F200.000
G1 X27.721 Y305.706 Z6.265 F200.000
G1 X-27.879 Y305.706 Z6.265 F200.000
G1 X-28.044 Y305.672 Z6.265 F200.000
G1 X-27.874 Y305.642 Z6.265 F200.000
G1 X27.855 Y305.642 Z6.265 F200.000
(--Break)
G0 Z10.000
G0 X28.152 Y324.968
(part 27)
G1 X28.152 Y324.968 Z6.265 F200.000
G1 X28.018 Y325.032 Z6.265 F200.000
G1 X-28.182 Y325.032 Z6.265 F200.000
G1 X-28.337 Y324.987 Z6.265 F200.000
G1 X-28.157 Y324.968 Z6.265 F200.000
G1 X28.152 Y324.968 Z6.265 F200.000
(--Break)
G0 Z10.000
G0 X-28.622 Y343.209
(part 29)
G1 X-28.622 Y343.209 Z6.265 F200.000
G1 X-28.422 Y343.209 Z6.265 F200.000
G1 X28.378 Y343.209 Z6.265 F200.000
G1 X28.353 Y343.273 Z6.265 F200.000
G1 X-28.447 Y343.273 Z6.265 F200.000
G1 X-28.622 Y343.249 Z6.265 F200.000
G1 X-28.622 Y343.209 Z6.265 F200.000
(--Break)
G0 Z10.000
G0 X28.698 Y360.426
(part 31)
G1 X28.698 Y360.426 Z6.265 F200.000
G1 X28.563 Y360.490 Z6.265 F200.000
G1 X-28.837 Y360.490 Z6.265 F200.000
G1 X-28.802 Y360.426 Z6.265 F200.000
G1 X28.698 Y360.426 Z6.265 F200.000
(--Break)
G0 Z10.000
G0 X28.948 Y376.677
(part 33)
G1 X28.948 Y376.677 Z6.265 F200.000
G1 X28.813 Y376.741 Z6.265 F200.000
G1 X-28.987 Y376.741 Z6.265 F200.000
G1 X-29.137 Y376.692 Z6.265 F200.000
G1 X-28.952 Y376.677 Z6.265 F200.000
G1 X28.948 Y376.677 Z6.265 F200.000
(--Break)
G0 Z10.000
G0 X29.184 Y392.016
(part 35)
G1 X29.184 Y392.016 Z6.265 F200.000
G1 X29.049 Y392.080 Z6.265 F200.000
G1 X-29.351 Y392.080 Z6.265 F200.000
G1 X-29.260 Y392.016 Z6.265 F200.000
G1 X29.184 Y392.016 Z6.265 F200.000
(--Break)
G0 Z10.000
G0 X29.407 Y406.494
(part 37)
G1 X29.407 Y406.494 Z6.265 F200.000
G1 X29.272 Y406.558 Z6.265 F200.000
G1 X-29.528 Y406.558 Z6.265 F200.000
G1 X-29.528 Y406.494 Z6.265 F200.000
G1 X29.407 Y406.494 Z6.265 F200.000
(--Break)
G0 Z10.000
G0 X29.617 Y420.159
(part 39)
G1 X29.617 Y420.159 Z6.265 F200.000
G1 X29.482 Y420.223 Z6.265 F200.000
G1 X-29.718 Y420.223 Z6.265 F200.000
G1 X-29.759 Y420.159 Z6.265 F200.000
G1 X29.617 Y420.159 Z6.265 F200.000
(--Break)
G0 Z10.000
G0 X29.815 Y433.057
(part 41)
G1 X29.815 Y433.057 Z6.265 F200.000
G1 X29.681 Y433.121 Z6.265 F200.000
G1 X-29.919 Y433.121 Z6.265 F200.000
G1 X-29.954 Y433.057 Z6.265 F200.000
G1 X29.815 Y433.057 Z6.265 F200.000
(End of step 0.)
(End of layer 4)
(Layer 5 begins)
(Layer transition)
G0 Z10.000
G0 X30.003 Y445.231
(Begin step 0.)
G0 X30.003 Y445.231
(part 1)
G1 X30.003 Y445.231 Z6.118 F200.000
G1 X29.868 Y445.295 Z6.118 F200.000
G1 X24.268 Y445.295 Z6.118 F200.000
G1 X24.093 Y445.237 Z6.118 F200.000
G1 X24.279 Y445.231 Z6.118 F200.000
G1 X30.003 Y445.231 Z6.118 F200.000
(--Break)
G0 Z10.000
G0 X-8.084 Y445.231
(part 3)
G1 X-8.084 Y445.231 Z6.118 F200.000
G1 X-8.257 Y445.295 Z6.118 F200.000
G1 X-30.057 Y445.295 Z6.118 F200.000
G1 X-30.191 Y445.231 Z6.118 F200.000
G1 X-8.084 Y445.231 Z6.118 F200.000
(--Break)
G0 Z10.000
G0 X23.714 Y36.450
(part 5)
G1 X23.714 Y36.450 Z6.118 F200.000
G1 X23.579 Y36.514 Z6.118 F200.000
G1 X-23.821 Y36.514 Z6.118 F200.000
G1 X-23.849 Y36.450 Z6.118 F200.000
G1 X23.714 Y36.450 Z6.118 F200.000
(--Break)
G0 Z10.000
G0 X24.243 Y70.884
(part 7)
G1 X24.243 Y70.884 Z6.118 F200.000
G1 X24.109 Y70.948 Z6.118 F200.000
G1 X-24.291 Y70.948 Z6.118 F200.000
G1 X-24.432 Y70.890 Z6.118 F200.000
G1 X-24.239 Y70.884 Z6.118 F200.000
G1 X24.243 Y70.884 Z6.118 F200.000
(--Break)
G0 Z10.000
G0 X24.743 Y103.385
(part 9)
G1 X24.743 Y103.385 Z6.118 F200.000
G1 X24.609 Y103.449 Z6.118 F200.000
G1 X-24.791 Y103.449 Z6.118 F200.000
G1 X-24.932 Y103.391 Z6.118 F200.000
G1 X-24.739 Y103.385 Z6.118 F200.000
G1 X24.743 Y103.385 Z6.118 F200.000
(--Break)
G0 Z10.000
G0 X25.215 Y134.062
(part 11)
G1 X25.215 Y134.062 Z6.118 F200.000
G1 X25.081 Y134.126 Z6.118 F200.000
G1 X-25.319 Y134.126 Z6.118 F200.000
G1 X-25.354 Y134.062 Z6.118 F200.000
G1 X25.215 Y134.062 Z6.118 F200.000
(--Break)
G0 Z10.000
G0 X25.661 Y163.018
(part 13)
G1 X25.661 Y163.018 Z6.118 F200.000
G1 X25.526 Y163.082 Z6.118 F200.000
G1 X-25.674 Y163.082 Z6.118 F200.000
G1 X-25.850 Y163.059 Z6.118 F200.000
G1 X-25.691 Y163.018 Z6.118 F200.000
G1 X25.661 Y163.018 Z6.118 F200.000
(--Break)
G0 Z10.000
G0 X26.081 Y190.348
(part 15)
G1 X26.081 Y190.348 Z6.118 F200.000
G1 X25.947 Y190.412 Z6.118 F200.000
G1 X-26.253 Y190.412 Z6.118 F200.000
G1 X-26.152 Y190.348 Z6.118 F200.000
G1 X26.081 Y190.348 Z6.118 F200.000
(--Break)
G0 Z10.000
G0 X26.478 Y216.144
(part 17)
G1 X26.478 Y216.144 Z6.118 F200.000
G1 X26.344 Y216.208 Z6.118 F200.000
G1 X-26.656 Y216.208 Z6.118 F200.000
G1 X-26.543 Y216.144 Z6.118 F200.000
G1 X26.478 Y216.144 Z6.118 F200.000
(--Break)
G0 Z10.000
G0 X26.853 Y240.493
(part 19)
G1 X26.853 Y240.493 Z6.118 F200.000
G1 X26.718 Y240.557 Z6.118 F200.000
G1 X-26.882 Y240.557 Z6.118 F200.000
G1 X-27.042 Y240.518 Z6.118 F200.000
G1 X-26.867 Y240.493 Z6.118 F200.000
G1 X26.853 Y240.493 Z6.118 F200.000
(--Break)
G0 Z10.000
G0 X27.206 Y263.475
(part 21)
G1 X27.206 Y263.475 Z6.118 F200.000
G1 X27.072 Y263.539 Z6.118 F200.000
G1 X-27.328 Y263.539 Z6.118 F200.000
G1 X-27.327 Y263.475 Z6.118 F200.000
G1 X27.206 Y263.475 Z6.118 F200.000
(--Break)
G0 Z10.000
G0 X27.540 Y285.167
(part 23)
G1 X27.540 Y285.167 Z6.118 F200.000
G1 X27.406 Y285.231 Z6.118 F200.000
G1 X-27.594 Y285.231 Z6.118 F200.000
G1 X-27.729 Y285.167 Z6.118 F200.000
G1 X27.540 Y285.167 Z6.118 F200.000
(--Break)
G0 Z10.000
G0 X27.855 Y305.642
(part 25)
G1 X27.855 Y305.642 Z6.118 F200.000
G1 X27.721 Y305.706 Z6.118 F200.000
G1 X-27.879 Y305.706 Z6.118 F200.000
G1 X-28.044 Y305.672 Z6.118 F200.000
G1 X-27.874 Y305.642 Z6.118 F200.000
G1 X27.855 Y305.642 Z6.118 F200.000
(--Break)
G0 Z10.000
G0 X28.152 Y324.968
(part 27)
G1 X28.152 Y324.968 Z6.118 F200.000
G1 X28.018 Y325.032 Z6.118 F200.000
G1 X-28.182 Y325.032 Z6.118 F200.000
G1 X-28.337 Y324.987 Z6.118 F200.000
G1 X-28.157 Y324.968 Z6.118 F200.000
G1 X28.152 Y324.968 Z6.118 F200.000
(--Break)
G0 Z10.000
G0 X-28.622 Y343.209
(part 29)
G1 X-28.622 Y343.209 Z6.118 F200.000
G1 X-28.422 Y343.209 Z6.118 F200.000
G1 X28.378 Y343.209 Z6.118 F200.000
G1 X28.353 Y343.273 Z6.118 F200.000
G1 X-28.447 Y343.273 Z6.118 F200.000
G1 X-28.622 Y343.249 Z6.118 F200.000
G1 X-28.622 Y343.209 Z6.118 F200.000
(--Break)
G0 Z10.000
G0 X28.698 Y360.426
(part 31)
G1 X28.698 Y360.426 Z6.118 F200.000
G1 X28.563 Y360.490 Z6.118 F200.000
G1 X-28.837 Y360.490 Z6.118 F200.000
G1 X-28.802 Y360.426 Z6.118 F200.000
G1 X28.698 Y360.426 Z6.118 F200.000
(--Break)
G0 Z10.000
G0 X28.948 Y376.677
(part 33)
G1 X28.948 Y376.677 Z6.118 F200.000
G1 X28.813 Y376.741 Z6.118 F200.000
G1 X-28.987 Y376.741 Z6.118 F200.000
G1 X-29.137 Y376.692 Z6.118 F200.000
G1 X-28.952 Y376.677 Z6.118 F200.000
G1 X28.948 Y376.677 Z6.118 F200.000
(--Break)
G0 Z10.000
G0 X29.184 Y392.016
(part 35)
G1 X29.184 Y392.016 Z6.118 F200.000
G1 X29.049 Y392.080 Z6.118 F200.000
G1 X-29.351 Y392.080 Z6.118 F200.000
G1 X-29.260 Y392.016 Z6.118 F200.000
G1 X29.184 Y392.016 Z6.118 F200.000
(--Break)
G0 Z10.000
G0 X29.407 Y406.494
(part 37)
G1 X29.407 Y406.494 Z6.118 F200.000
G1 X29.272 Y406.558 Z6.118 F200.000
G1 X-29.528 Y406.558 Z6.118 F200.000
G1 X-29.528 Y406.494 Z6.118 F200.000
G1 X29.407 Y406.494 Z6.118 F200.000
(--Break)
G0 Z10.000
G0 X29.617 Y420.159
(part 39)
G1 X29.617 Y420.159 Z6.118 F200.000
G1 X29.482 Y420.223 Z6.118 F200.000
G1 X-29.718 Y420.223 Z6.118 F200.000
G1 X-29.759 Y420.159 Z6.118 F200.000
G1 X29.617 Y420.159 Z6.118 F200.000
(--Break)
G0 Z10.000
G0 X29.815 Y433.057
(part 41)
G1 X29.815 Y433.057 Z6.118 F200.000
G1 X29.681 Y433.121 Z6.118 F200.000
G1 X-29.919 Y433.121 Z6.118 F200.000
G1 X-29.954 Y433.057 Z6.118 F200.000
G1 X29.815 Y433.057 Z6.118 F200.000
(End of step 0.)
(End of layer 5)
(Layer 6 begins)
(Layer transition)
G0 Z10.000
G0 X30.003 Y445.231
(Begin step 0.)
G0 X30.003 Y445.231
(part 1)
G1 X30.003 Y445.231 Z5.971 F200.000
G1 X29.868 Y445.295 Z5.971 F200.000
G1 X24.268 Y445.295 Z5.971 F200.000
G1 X24.093 Y445.237 Z5.971 F200.000
G1 X24.279 Y445.231 Z5.971 F200.000
G1 X30.003 Y445.231 Z5.971 F200.000
(--Break)
G0 Z10.000
G0 X-8.084 Y445.231
(part 3)
G1 X-8.084 Y445.231 Z5.971 F200.000
G1 X-8.257 Y445.295 Z5.971 F200.000
G1 X-30.057 Y445.295 Z5.971 F200.000
G1 X-30.191 Y445.231 Z5.971 F200.000
G1 X-8.084 Y445.231 Z5.971 F200.000
(--Break)
G0 Z10.000
G0 X23.714 Y36.450
(part 5)
G1 X23.714 Y36.450 Z5.971 F200.000
G1 X23.579 Y36.514 Z5.971 F200.000
G1 X-23.821 Y36.514 Z5.971 F200.000
G1 X-23.849 Y36.450 Z5.971 F200.000
G1 X23.714 Y36.450 Z5.971 F200.000
(--Break)
G0 Z10.000
G0 X24.243 Y70.884
(part 7)
G1 X24.243 Y70.884 Z5.971 F200.000
G1 X24.109 Y70.948 Z5.971 F200.000
G1 X-24.291 Y70.948 Z5.971 F200.000
G1 X-24.432 Y70.890 Z5.971 F200.000
G1 X-24.239 Y70.884 Z5.971 F200.000
G1 X24.243 Y70.884 Z5.971 F200.000
(--Break)
G0 Z10.000
G0 X24.743 Y103.385
(part 9)
G1 X24.743 Y103.385 Z5.971 F200.000
G1 X24.609 Y103.449 Z5.971 F200.000
G1 X-24.791 Y103.449 Z5.971 F200.000
G1 X-24.932 Y103.391 Z5.971 F200.000
G1 X-24.739 Y103.385 Z5.971 F200.000
G1 X24.743 Y103.385 Z5.971 F200.000
(--Break)
G0 Z10.000
G0 X25.215 Y134.062
(part 11)
G1 X25.215 Y134.062 Z5.971 F200.000
G1 X25.081 Y134.126 Z5.971 F200.000
G1 X-25.319 Y134.126 Z5.971 F200.000
G1 X-25.354 Y134.062 Z5.971 F200.000
G1 X25.215 Y134.062 Z5.971 F200.000
(--Break)
G0 Z10.000
G0 X25.661 Y163.018
(part 13)
G1 X25.661 Y163.018 Z5.971 F200.000
G1 X25.526 Y163.082 Z5.971 F200.000
G1 X-25.674 Y163.082 Z5.971 F200.000
G1 X-25.850 Y163.059 Z5.971 F200.000
G1 X-25.691 Y163.018 Z5.971 F200.000
G1 X25.661 Y163.018 Z5.971 F200.000
(--Break)
G0 Z10.000
G0 X26.081 Y190.348
(part 15)
G1 X26.081 Y190.348 Z5.971 F200.000
G1 X25.947 Y190.412 Z5.971 F200.000
G1 X-26.253 Y190.412 Z5.971 F200.000
G1 X-26.152 Y190.348 Z5.971 F200.000
G1 X26.081 Y190.348 Z5.971 F200.000
(--Break)
G0 Z10.000
G0 X26.478 Y216.144
(part 17)
G1 X26.478 Y216.144 Z5.971 F200.000
G1 X26.344 Y216.208 Z5.971 F200.000
G1 X-26.656 Y216.208 Z5.971 F200.000
G1 X-26.543 Y216.144 Z5.971 F200.000
G1 X26.478 Y216.144 Z5.971 F200.000
(--Break)
G0 Z10.000
G0 X26.853 Y240.493
(part 19)
G1 X26.853 Y240.493 Z5.971 F200.000
G1 X26.718 Y240.557 Z5.971 F200.000
G1 X-26.882 Y240.557 Z5.971 F200.000
G1 X-27.042 Y240.518 Z5.971 F200.000
G1 X-26.867 Y240.493 Z5.971 F200.000
G1 X26.853 Y240.493 Z5.971 F200.000
(--Break)
G0 Z10.000
G0 X27.206 Y263.475
(part 21)
G1 X27.206 Y263.475 Z5.971 F200.000
G1 X27.072 Y263.539 Z5.971 F200.000
G1 X-27.328 Y263.539 Z5.971 F200.000
G1 X-27.327 Y263.475 Z5.971 F200.000
G1 X27.206 Y263.475 Z5.971 F200.000
(--Break)
G0 Z10.000
G0 X27.540 Y285.167
(part 23)
G1 X27.540 Y285.167 Z5.971 F200.000
G1 X27.406 Y285.231 Z5.971 F200.000
G1 X-27.594 Y285.231 Z5.971 F200.000
G1 X-27.729 Y285.167 Z5.971 F200.000
G1 X27.540 Y285.167 Z5.971 F200.000
(--Break)
G0 Z10.000
G0 X27.855 Y305.642
(part 25)
G1 X27.855 Y305.642 Z5.971 F200.000
G1 X27.721 Y305.706 Z5.971 F200.000
G1 X-27.879 Y305.706 Z5.971 F200.000
G1 X-28.044 Y305.672 Z5.971 F200.000
G1 X-27.874 Y305.642 Z5.971 F200.000
G1 X27.855 Y305.642 Z5.971 F200.000
(--Break)
G0 Z10.000
G0 X28.152 Y324.968
(part 27)
G1 X28.152 Y324.968 Z5.971 F200.000
G1 X28.018 Y325.032 Z5.971 F200.000
G1 X-28.182 Y325.032 Z5.971 F200.000
G1 X-28.337 Y324.987 Z5.971 F200.000
G1 X-28.157 Y324.968 Z5.971 F200.000
G1 X28.152 Y324.968 Z5.971 F200.000
(--Break)
G0 Z10.000
G0 X-28.622 Y343.209
(part 29)
G1 X-28.622 Y343.209 Z5.971 F200.000
G1 X-28.422 Y343.209 Z5.971 F200.000
G1 X28.378 Y343.209 Z5.971 F200.000
G1 X28.353 Y343.273 Z5.971 F200.000
G1 X-28.447 Y343.273 Z5.971 F200.000
G1 X-28.622 Y343.249 Z5.971 F200.000
G1 X-28.622 Y343.209 Z5.971 F200.000
(--Break)
G0 Z10.000
G0 X28.698 Y360.426
(part 31)
G1 X28.698 Y360.426 Z5.971 F200.000
G1 X28.563 Y360.490 Z5.971 F200.000
G1 X-28.837 Y360.490 Z5.971 F200.000
G1 X-28.802 Y360.426 Z5.971 F200.000
G1 X28.698 Y360.426 Z5.971 F200.000
(--Break)
G0 Z10.000
G0 X28.948 Y376.677
(part 33)
G1 X28.948 Y376.677 Z5.971 F200.000
G1 X28.813 Y376.741 Z5.971 F200.000
G1 X-28.987 Y376.741 Z5.971 F200.000
G1 X-29.137 Y376.692 Z5.971 F200.000
G1 X-28.952 Y376.677 Z5.971 F200.000
G1 X28.948 Y376.677 Z5.971 F200.000
(--Break)
G0 Z10.000
G0 X29.184 Y392.016
(part 35)
G1 X29.184 Y392.016 Z5.971 F200.000
G1 X29.049 Y392.080 Z5.971 F200.000
G1 X-29.351 Y392.080 Z5.971 F200.000
G1 X-29.260 Y392.016 Z5.971 F200.000
G1 X29.184 Y392.016 Z5.971 F200.000
(--Break)
G0 Z10.000
G0 X29.407 Y406.494
(part 37)
G1 X29.407 Y406.494 Z5.971 F200.000
G1 X29.272 Y406.558 Z5.971 F200.000
G1 X-29.528 Y406.558 Z5.971 F200.000
G1 X-29.528 Y406.494 Z5.971 F200.000
G1 X29.407 Y406.494 Z5.971 F200.000
(--Break)
G0 Z10.000
G0 X29.617 Y420.159
(part 39)
G1 X29.617 Y420.159 Z5.971 F200.000
G1 X29.482 Y420.223 Z5.971 F200.000
G1 X-29.718 Y420.223 Z5.971 F200.000
G1 X-29.759 Y420.159 Z5.971 F200.000
G1 X29.617 Y420.159 Z5.971 F200.000
(--Break)
G0 Z10.000
G0 X29.815 Y433.057
(part 41)
G1 X29.815 Y433.057 Z5.971 F200.000
G1 X29.681 Y433.121 Z5.971 F200.000
G1 X-29.919 Y433.121 Z5.971 F200.000
G1 X-29.954 Y433.057 Z5.971 F200.000
G1 X29.815 Y433.057 Z5.971 F200.000
(End of step 0.)
(End of layer 6)
(Layer 7 begins)
(Layer transition)
G0 Z10.000
G0 X30.003 Y445.231
(Begin step 0.)
G0 X30.003 Y445.231
(part 1)
G1 X30.003 Y445.231 Z5.824 F200.000
G1 X29.868 Y445.295 Z5.824 F200.000
G1 X24.268 Y445.295 Z5.824 F200.000
G1 X24.093 Y445.237 Z5.824 F200.000
G1 X24.279 Y445.231 Z5.824 F200.000
G1 X30.003 Y445.231 Z5.824 F200.000
(--Break)
G0 Z10.000
G0 X-8.084 Y445.231
(part 3)
G1 X-8.084 Y445.231 Z5.824 F200.000
G1 X-8.257 Y445.295 Z5.824 F200.000
G1 X-30.057 Y445.295 Z5.824 F200.000
G1 X-30.191 Y445.231 Z5.824 F200.000
G1 X-8.084 Y445.231 Z5.824 F200.000
(--Break)
G0 Z10.000
G0 X23.714 Y36.450
(part 5)
G1 X23.714 Y36.450 Z5.824 F200.000
G1 X23.579 Y36.514 Z5.824 F200.000
G1 X-23.821 Y36.514 Z5.824 F200.000
G1 X-23.849 Y36.450 Z5.824 F200.000
G1 X23.714 Y36.450 Z5.824 F200.000
(--Break)
G0 Z10.000
G0 X24.243 Y70.884
(part 7)
G1 X24.243 Y70.884 Z5.824 F200.000
G1 X24.109 Y70.948 Z5.824 F200.000
G1 X-24.291 Y70.948 Z5.824 F200.000
G1 X-24.432 Y70.890 Z5.824 F200.000
G1 X-24.239 Y70.884 Z5.824 F200.000
G1 X24.243 Y70.884 Z5.824 F200.000
(--Break)
G0 Z10.000
G0 X24.743 Y103.385
(part 9)
G1 X24.743 Y103.385 Z5.824 F200.000
G1 X24.609 Y103.449 Z5.824 F200.000
G1 X-24.791 Y103.449 Z5.824 F200.000
G1 X-24.932 Y103.391 Z5.824 F200.000
G1 X-24.739 Y103.385 Z5.824 F200.000
G1 X24.743 Y103.385 Z5.824 F200.000
(--Break)
G0 Z10.000
G0 X25.215 Y134.062
(part 11)
G1 X25.215 Y134.062 Z5.824 F200.000
G1 X25.081 Y134.126 Z5.824 F200.000
G1 X-25.319 Y134.126 Z5.824 F200.000
G1 X-25.354 Y134.062 Z5.824 F200.000
G1 X25.215 Y134.062 Z5.824 F200.000
(--Break)
G0 Z10.000
G0 X25.661 Y163.018
(part 13)
G1 X25.661 Y163.018 Z5.824 F200.000
G1 X25.526 Y163.082 Z5.824 F200.000
G1 X-25.674 Y163.082 Z5.824 F200.000
G1 X-25.850 Y163.059 Z5.824 F200.000
G1 X-25.691 Y163.018 Z5.824 F200.000
G1 X25.661 Y163.018 Z5.824 F200.000
(--Break)
G0 Z10.000
G0 X26.081 Y190.348
(part 15)
G1 X26.081 Y190.348 Z5.824 F200.000
G1 X25.947 Y190.412 Z5.824 F200.000
G1 X-26.253 Y190.412 Z5.824 F200.000
G1 X-26.152 Y190.348 Z5.824 F200.000
G1 X26.081 Y190.348 Z5.824 F200.000
(--Break)
G0 Z10.000
G0 X26.478 Y216.144
(part 17)
G1 X26.478 Y216.144 Z5.824 F200.000
G1 X26.344 Y216.208 Z5.824 F200.000
G1 X-26.656 Y216.208 Z5.824 F200.000
G1 X-26.543 Y216.144 Z5.824 F200.000
G1 X26.478 Y216.144 Z5.824 F200.000
(--Break)
G0 Z10.000
G0 X26.853 Y240.493
(part 19)
G1 X26.853 Y240.493 Z5.824 F200.000
G1 X26.718 Y240.557 Z5.824 F200.000
G1 X-26.882 Y240.557 Z5.824 F200.000
G1 X-27.042 Y240.518 Z5.824 F200.000
G1 X-26.867 Y240.493 Z5.824 F200.000
G1 X26.853 Y240.493 Z5.824 F200.000
(--Break)
G0 Z10.000
G0 X27.206 Y263.475
(part 21)
G1 X27.206 Y263.475 Z5.824 F200.000
G1 X27.072 Y263.539 Z5.824 F200.000
G1 X-27.328 Y263.539 Z5.824 F200.000
G1 X-27.327 Y263.475 Z5.824 F200.000
G1 X27.206 Y263.475 Z5.824 F200.000
(--Break)
G0 Z10.000
G0 X27.540 Y285.167
(part 23)
G1 X27.540 Y285.167 Z5.824 F200.000
G1 X27.406 Y285.231 Z5.824 F200.000
G1 X-27.594 Y285.231 Z5.824 F200.000
G1 X-27.729 Y285.167 Z5.824 F200.000
G1 X27.540 Y285.167 Z5.824 F200.000
(--Break)
G0 Z10.000
G0 X27.855 Y305.642
(part 25)
G1 X27.855 Y305.642 Z5.824 F200.000
G1 X27.721 Y305.706 Z5.824 F200.000
G1 X-27.879 Y305.706 Z5.824 F200.000
G1 X-28.044 Y305.672 Z5.824 F200.000
G1 X-27.874 Y305.642 Z5.824 F200.000
G1 X27.855 Y305.642 Z5.824 F200.000
(--Break)
G0 Z10.000
G0 X28.152 Y324.968
(part 27)
G1 X28.152 Y324.968 Z5.824 F200.000
G1 X28.018 Y325.032 Z5.824 F200.000
G1 X-28.182 Y325.032 Z5.824 F200.000
G1 X-28.337 Y324.987 Z5.824 F200.000
G1 X-28.157 Y324.968 Z5.824 F200.000
G1 X28.152 Y324.968 Z5.824 F200.000
(--Break)
G0 Z10.000
G0 X-28.622 Y343.209
(part 29)
G1 X-28.622 Y343.209 Z5.824 F200.000
G1 X-28.422 Y343.209 Z5.824 F200.000
G1 X28.378 Y343.209 Z5.824 F200.000
G1 X28.353 Y343.273 Z5.824 F200.000
G1 X-28.447 Y343.273 Z5.824 F200.000
G1 X-28.622 Y343.249 Z5.824 F200.000
G1 X-28.622 Y343.209 Z5.824 F200.000
(--Break)
G0 Z10.000
G0 X28.698 Y360.426
(part 31)
G1 X28.698 Y360.426 Z5.824 F200.000
G1 X28.563 Y360.490 Z5.824 F200.000
G1 X-28.837 Y360.490 Z5.824 F200.000
G1 X-28.802 Y360.426 Z5.824 F200.000
G1 X28.698 Y360.426 Z5.824 F200.000
(--Break)
G0 Z10.000
G0 X28.948 Y376.677
(part 33)
G1 X28.948 Y376.677 Z5.824 F200.000
G1 X28.813 Y376.741 Z5.824 F200.000
G1 X-28.987 Y376.741 Z5.824 F200.000
G1 X-29.137 Y376.692 Z5.824 F200.000
G1 X-28.952 Y376.677 Z5.824 F200.000
G1 X28.948 Y376.677 Z5.824 F200.000
(--Break)
G0 Z10.000
G0 X29.184 Y392.016
(part 35)
G1 X29.184 Y392.016 Z5.824 F200.000
G1 X29.049 Y392.080 Z5.824 F200.000
G1 X-29.351 Y392.080 Z5.824 F200.000
G1 X-29.260 Y392.016 Z5.824 F200.000
G1 X29.184 Y392.016 Z5.824 F200.000
(--Break)
G0 Z10.000
G0 X29.407 Y406.494
(part 37)
G1 X29.407 Y406.494 Z5.824 F200.000
G1 X29.272 Y406.558 Z5.824 F200.000
G1 X-29.528 Y406.558 Z5.824 F200.000
G1 X-29.528 Y406.494 Z5.824 F200.000
G1 X29.407 Y406.494 Z5.824 F200.000
(--Break)
G0 Z10.000
G0 X29.617 Y420.159
(part 39)
G1 X29.617 Y420.159 Z5.824 F200.000
G1 X29.482 Y420.223 Z5.824 F200.000
G1 X-29.718 Y420.223 Z5.824 F200.000
G1 X-29.759 Y420.159 Z5.824 F200.000
G1 X29.617 Y420.159 Z5.824 F200.000
(--Break)
G0 Z10.000
G0 X29.815 Y433.057
(part 41)
G1 X29.815 Y433.057 Z5.824 F200.000
G1 X29.681 Y433.121 Z5.824 F200.000
G1 X-29.919 Y433.121 Z5.824 F200.000
G1 X-29.954 Y433.057 Z5.824 F200.000
G1 X29.815 Y433.057 Z5.824 F200.000
(End of step 0.)
(End of layer 7)
(Layer 8 begins)
(Layer transition)
G0 Z10.000
G0 X30.003 Y445.231
(Begin step 0.)
G0 X30.003 Y445.231
(part 1)
G1 X30.003 Y445.231 Z5.676 F200.000
G1 X29.868 Y445.295 Z5.676 F200.000
G1 X24.268 Y445.295 Z5.676 F200.000
G1 X24.093 Y445.237 Z5.676 F200.000
G1 X24.279 Y445.231 Z5.676 F200.000
G1 X30.003 Y445.231 Z5.676 F200.000
(--Break)
G0 Z10.000
G0 X-8.084 Y445.231
(part 3)
G1 X-8.084 Y445.231 Z5.676 F200.000
G1 X-8.257 Y445.295 Z5.676 F200.000
G1 X-30.057 Y445.295 Z5.676 F200.000
G1 X-30.191 Y445.231 Z5.676 F200.000
G1 X-8.084 Y445.231 Z5.676 F200.000
(--Break)
G0 Z10.000
G0 X23.714 Y36.450
(part 5)
G1 X23.714 Y36.450 Z5.676 F200.000
G1 X23.579 Y36.514 Z5.676 F200.000
G1 X-23.821 Y36.514 Z5.676 F200.000
G1 X-23.849 Y36.450 Z5.676 F200.000
G1 X23.714 Y36.450 Z5.676 F200.000
(--Break)
G0 Z10.000
G0 X24.243 Y70.884
(part 7)
G1 X24.243 Y70.884 Z5.676 F200.000
G1 X24.109 Y70.948 Z5.676 F200.000
G1 X-24.291 Y70.948 Z5.676 F200.000
G1 X-24.432 Y70.890 Z5.676 F200.000
G1 X-24.239 Y70.884 Z5.676 F200.000
G1 X24.243 Y70.884 Z5.676 F200.000
(--Break)
G0 Z10.000
G0 X24.743 Y103.385
(part 9)
G1 X24.743 Y103.385 Z5.676 F200.000
G1 X24.609 Y103.449 Z5.676 F200.000
G1 X-24.791 Y103.449 Z5.676 F200.000
G1 X-24.932 Y103.391 Z5.676 F200.000
G1 X-24.739 Y103.385 Z5.676 F200.000
G1 X24.743 Y103.385 Z5.676 F200.000
(--Break)
G0 Z10.000
G0 X25.215 Y134.062
(part 11)
G1 X25.215 Y134.062 Z5.676 F200.000
G1 X25.081 Y134.126 Z5.676 F200.000
G1 X-25.319 Y134.126 Z5.676 F200.000
G1 X-25.354 Y134.062 Z5.676 F200.000
G1 X25.215 Y134.062 Z5.676 F200.000
(--Break)
G0 Z10.000
G0 X25.661 Y163.018
(part 13)
G1 X25.661 Y163.018 Z5.676 F200.000
G1 X25.526 Y163.082 Z5.676 F200.000
G1 X-25.674 Y163.082 Z5.676 F200.000
G1 X-25.850 Y163.059 Z5.676 F200.000
G1 X-25.691 Y163.018 Z5.676 F200.000
G1 X25.661 Y163.018 Z5.676 F200.000
(--Break)
G0 Z10.000
G0 X26.081 Y190.348
(part 15)
G1 X26.081 Y190.348 Z5.676 F200.000
G1 X25.947 Y190.412 Z5.676 F200.000
G1 X-26.253 Y190.412 Z5.676 F200.000
G1 X-26.152 Y190.348 Z5.676 F200.000
G1 X26.081 Y190.348 Z5.676 F200.000
(--Break)
G0 Z10.000
G0 X26.478 Y216.144
(part 17)
G1 X26.478 Y216.144 Z5.676 F200.000
G1 X26.344 Y216.208 Z5.676 F200.000
G1 X-26.656 Y216.208 Z5.676 F200.000
G1 X-26.543 Y216.144 Z5.676 F200.000
G1 X26.478 Y216.144 Z5.676 F200.000
(--Break)
G0 Z10.000
G0 X26.853 Y240.493
(part 19)
G1 X26.853 Y240.493 Z5.676 F200.000
G1 X26.718 Y240.557 Z5.676 F200.000
G1 X-26.882 Y240.557 Z5.676 F200.000
G1 X-27.042 Y240.518 Z5.676 F200.000
G1 X-26.867 Y240.493 Z5.676 F200.000
G1 X26.853 Y240.493 Z5.676 F200.000
(--Break)
G0 Z10.000
G0 X27.206 Y263.475
(part 21)
G1 X27.206 Y263.475 Z5.676 F200.000
G1 X27.072 Y263.539 Z5.676 F200.000
G1 X-27.328 Y263.539 Z5.676 F200.000
G1 X-27.327 Y263.475 Z5.676 F200.000
G1 X27.206 Y263.475 Z5.676 F200.000
(--Break)
G0 Z10.000
G0 X27.540 Y285.167
(part 23)
G1 X27.540 Y285.167 Z5.676 F200.000
G1 X27.406 Y285.231 Z5.676 F200.000
G1 X-27.594 Y285.231 Z5.676 F200.000
G1 X-27.729 Y285.167 Z5.676 F200.000
G1 X27.540 Y285.167 Z5.676 F200.000
(--Break)
G0 Z10.000
G0 X27.855 Y305.642
(part 25)
G1 X27.855 Y305.642 Z5.676 F200.000
G1 X27.721 Y305.706 Z5.676 F200.000
G1 X-27.879 Y305.706 Z5.676 F200.000
G1 X-28.044 Y305.672 Z5.676 F200.000
G1 X-27.874 Y305.642 Z5.676 F200.000
G1 X27.855 Y305.642 Z5.676 F200.000
(--Break)
G0 Z10.000
G0 X28.152 Y324.968
(part 27)
G1 X28.152 Y324.968 Z5.676 F200.000
G1 X28.018 Y325.032 Z5.676 F200.000
G1 X-28.182 Y325.032 Z5.676 F200.000
G1 X-28.337 Y324.987 Z5.676 F200.000
G1 X-28.157 Y324.968 Z5.676 F200.000
G1 X28.152 Y324.968 Z5.676 F200.000
(--Break)
G0 Z10.000
G0 X-28.622 Y343.209
(part 29)
G1 X-28.622 Y343.209 Z5.676 F200.000
G1 X-28.422 Y343.209 Z5.676 F200.000
G1 X28.378 Y343.209 Z5.676 F200.000
G1 X28.353 Y343.273 Z5.676 F200.000
G1 X-28.447 Y343.273 Z5.676 F200.000
G1 X-28.622 Y343.249 Z5.676 F200.000
G1 X-28.622 Y343.209 Z5.676 F200.000
(--Break)
G0 Z10.000
G0 X28.698 Y360.426
(part 31)
G1 X28.698 Y360.426 Z5.676 F200.000
G1 X28.563 Y360.490 Z5.676 F200.000
G1 X-28.837 Y360.490 Z5.676 F200.000
G1 X-28.802 Y360.426 Z5.676 F200.000
G1 X28.698 Y360.426 Z5.676 F200.000
(--Break)
G0 Z10.000
G0 X28.948 Y376.677
(part 33)
G1 X28.948 Y376.677 Z5.676 F200.000
G1 X28.813 Y376.741 Z5.676 F200.000
G1 X-28.987 Y376.741 Z5.676 F200.000
G1 X-29.137 Y376.692 Z5.676 F200.000
G1 X-28.952 Y376.677 Z5.676 F200.000
G1 X28.948 Y376.677 Z5.676 F200.000
(--Break)
G0 Z10.000
G0 X29.184 Y392.016
(part 35)
G1 X29.184 Y392.016 Z5.676 F200.000
G1 X29.049 Y392.080 Z5.676 F200.000
G1 X-29.351 Y392.080 Z5.676 F200.000
G1 X-29.260 Y392.016 Z5.676 F200.000
G1 X29.184 Y392.016 Z5.676 F200.000
(--Break)
G0 Z10.000
G0 X29.407 Y406.494
(part 37)
G1 X29.407 Y406.494 Z5.676 F200.000
G1 X29.272 Y406.558 Z5.676 F200.000
G1 X-29.528 Y406.558 Z5.676 F200.000
G1 X-29.528 Y406.494 Z5.676 F200.000
G1 X29.407 Y406.494 Z5.676 F200.000
(--Break)
G0 Z10.000
G0 X29.617 Y420.159
(part 39)
G1 X29.617 Y420.159 Z5.676 F200.000
G1 X29.482 Y420.223 Z5.676 F200.000
G1 X-29.718 Y420.223 Z5.676 F200.000
G1 X-29.759 Y420.159 Z5.676 F200.000
G1 X29.617 Y420.159 Z5.676 F200.000
(--Break)
G0 Z10.000
G0 X29.815 Y433.057
(part 41)
G1 X29.815 Y433.057 Z5.676 F200.000
G1 X29.681 Y433.121 Z5.676 F200.000
G1 X-29.919 Y433.121 Z5.676 F200.000
G1 X-29.954 Y433.057 Z5.676 F200.000
G1 X29.815 Y433.057 Z5.676 F200.000
(End of step 0.)
(End of layer 8)
(Layer 9 begins)
(Layer transition)
G0 Z10.000
G0 X30.003 Y445.231
(Begin step 0.)
G0 X30.003 Y445.231
(part 1)
G1 X30.003 Y445.231 Z5.529 F200.000
G1 X29.868 Y445.295 Z5.529 F200.000
G1 X24.268 Y445.295 Z5.529 F200.000
G1 X24.093 Y445.237 Z5.529 F200.000
G1 X24.279 Y445.231 Z5.529 F200.000
G1 X30.003 Y445.231 Z5.529 F200.000
(--Break)
G0 Z10.000
G0 X-8.084 Y445.231
(part 3)
G1 X-8.084 Y445.231 Z5.529 F200.000
G1 X-8.257 Y445.295 Z5.529 F200.000
G1 X-30.057 Y445.295 Z5.529 F200.000
G1 X-30.191 Y445.231 Z5.529 F200.000
G1 X-8.084 Y445.231 Z5.529 F200.000
(--Break)
G0 Z10.000
G0 X23.714 Y36.450
(part 5)
G1 X23.714 Y36.450 Z5.529 F200.000
G1 X23.579 Y36.514 Z5.529 F200.000
G1 X-23.821 Y36.514 Z5.529 F200.000
G1 X-23.849 Y36.450 Z5.529 F200.000
G1 X23.714 Y36.450 Z5.529 F200.000
(--Break)
G0 Z10.000
G0 X24.243 Y70.884
(part 7)
G1 X24.243 Y70.884 Z5.529 F200.000
G1 X24.109 Y70.948 Z5.529 F200.000
G1 X-24.291 Y70.948 Z5.529 F200.000
G1 X-24.432 Y70.890 Z5.529 F200.000
G1 X-24.239 Y70.884 Z5.529 F200.000
G1 X24.243 Y70.884 Z5.529 F200.000
(--Break)
G0 Z10.000
G0 X24.743 Y103.385
(part 9)
G1 X24.743 Y103.385 Z5.529 F200.000
G1 X24.609 Y103.449 Z5.529 F200.000
G1 X-24.791 Y103.449 Z5.529 F200.000
G1 X-24.932 Y103.391 Z5.529 F200.000
G1 X-24.739 Y103.385 Z5.529 F200.000
G1 X24.743 Y103.385 Z5.529 F200.000
(--Break)
G0 Z10.000
G0 X25.215 Y134.062
(part 11)
G1 X25.215 Y134.062 Z5.529 F200.000
G1 X25.081 Y134.126 Z5.529 F200.000
G1 X-25.319 Y134.126 Z5.529 F200.000
G1 X-25.354 Y134.062 Z5.529 F200.000
G1 X25.215 Y134.062 Z5.529 F200.000
(--Break)
G0 Z10.000
G0 X25.661 Y163.018
(part 13)
G1 X25.661 Y163.018 Z5.529 F200.000
G1 X25.526 Y163.082 Z5.529 F200.000
G1 X-25.674 Y163.082 Z5.529 F200.000
G1 X-25.850 Y163.059 Z5.529 F200.000
G1 X-25.691 Y163.018 Z5.529 F200.000
G1 X25.661 Y163.018 Z5.529 F200.000
(--Break)
G0 Z10.000
G0 X26.081 Y190.348
(part 15)
G1 X26.081 Y190.348 Z5.529 F200.000
G1 X25.947 Y190.412 Z5.529 F200.000
G1 X-26.253 Y190.412 Z5.529 F200.000
G1 X-26.152 Y190.348 Z5.529 F200.000
G1 X26.081 Y190.348 Z5.529 F200.000
(--Break)
G0 Z10.000
G0 X26.478 Y216.144
(part 17)
G1 X26.478 Y216.144 Z5.529 F200.000
G1 X26.344 Y216.208 Z5.529 F200.000
G1 X-26.656 Y216.208 Z5.529 F200.000
G1 X-26.543 Y216.144 Z5.529 F200.000
G1 X26.478 Y216.144 Z5.529 F200.000
(--Break)
G0 Z10.000
G0 X26.853 Y240.493
(part 19)
G1 X26.853 Y240.493 Z5.529 F200.000
G1 X26.718 Y240.557 Z5.529 F200.000
G1 X-26.882 Y240.557 Z5.529 F200.000
G1 X-27.042 Y240.518 Z5.529 F200.000
G1 X-26.867 Y240.493 Z5.529 F200.000
G1 X26.853 Y240.493 Z5.529 F200.000
(--Break)
G0 Z10.000
G0 X27.206 Y263.475
(part 21)
G1 X27.206 Y263.475 Z5.529 F200.000
G1 X27.072 Y263.539 Z5.529 F200.000
G1 X-27.328 Y263.539 Z5.529 F200.000
G1 X-27.327 Y263.475 Z5.529 F200.000
G1 X27.206 Y263.475 Z5.529 F200.000
(--Break)
G0 Z10.000
G0 X27.540 Y285.167
(part 23)
G1 X27.540 Y285.167 Z5.529 F200.000
G1 X27.406 Y285.231 Z5.529 F200.000
G1 X-27.594 Y285.231 Z5.529 F200.000
G1 X-27.729 Y285.167 Z5.529 F200.000
G1 X27.540 Y285.167 Z5.529 F200.000
(--Break)
G0 Z10.000
G0 X27.855 Y305.642
(part 25)
G1 X27.855 Y305.642 Z5.529 F200.000
G1 X27.721 Y305.706 Z5.529 F200.000
G1 X-27.879 Y305.706 Z5.529 F200.000
G1 X-28.044 Y305.672 Z5.529 F200.000
G1 X-27.874 Y305.642 Z5.529 F200.000
G1 X27.855 Y305.642 Z5.529 F200.000
(--Break)
G0 Z10.000
G0 X28.152 Y324.968
(part 27)
G1 X28.152 Y324.968 Z5.529 F200.000
G1 X28.018 Y325.032 Z5.529 F200.000
G1 X-28.182 Y325.032 Z5.529 F200.000
G1 X-28.337 Y324.987 Z5.529 F200.000
G1 X-28.157 Y324.968 Z5.529 F200.000
G1 X28.152 Y324.968 Z5.529 F200.000
(--Break)
G0 Z10.000
G0 X-28.622 Y343.209
(part 29)
G1 X-28.622 Y343.209 Z5.529 F200.000
G1 X-28.422 Y343.209 Z5.529 F200.000
G1 X28.378 Y343.209 Z5.529 F200.000
G1 X28.353 Y343.273 Z5.529 F200.000
G1 X-28.447 Y343.273 Z5.529 F200.000
G1 X-28.622 Y343.249 Z5.529 F200.000
G1 X-28.622 Y343.209 Z5.529 F200.000
(--Break)
G0 Z10.000
G0 X28.698 Y360.426
(part 31)
G1 X28.698 Y360.426 Z5.529 F200.000
G1 X28.563 Y360.490 Z5.529 F200.000
G1 X-28.837 Y360.490 Z5.529 F200.000
G1 X-28.802 Y360.426 Z5.529 F200.000
G1 X28.698 Y360.426 Z5.529 F200.000
(--Break)
G0 Z10.000
G0 X28.948 Y376.677
(part 33)
G1 X28.948 Y376.677 Z5.529 F200.000
G1 X28.813 Y376.741 Z5.529 F200.000
G1 X-28.987 Y376.741 Z5.529 F200.000
G1 X-29.137 Y376.692 Z5.529 F200.000
G1 X-28.952 Y376.677 Z5.529 F200.000
G1 X28.948 Y376.677 Z5.529 F200.000
(--Break)
G0 Z10.000
G0 X29.184 Y392.016
(part 35)
G1 X29.184 Y392.016 Z5.529 F200.000
G1 X29.049 Y392.080 Z5.529 F200.000
G1 X-29.351 Y392.080 Z5.529 F200.000
G1 X-29.260 Y392.016 Z5.529 F200.000
G1 X29.184 Y392.016 Z5.529 F200.000
(--Break)
G0 Z10.000
G0 X29.407 Y406.494
(part 37)
G1 X29.407 Y406.494 Z5.529 F200.000
G1 X29.272 Y406.558 Z5.529 F200.000
G1 X-29.528 Y406.558 Z5.529 F200.000
G1 X-29.528 Y406.494 Z5.529 F200.000
G1 X29.407 Y406.494 Z5.529 F200.000
(--Break)
G0 Z10.000
G0 X29.617 Y420.159
(part 39)
G1 X29.617 Y420.159 Z5.529 F200.000
G1 X29.482 Y420.223 Z5.529 F200.000
G1 X-29.718 Y420.223 Z5.529 F200.000
G1 X-29.759 Y420.159 Z5.529 F200.000
G1 X29.617 Y420.159 Z5.529 F200.000
(--Break)
G0 Z10.000
G0 X29.815 Y433.057
(part 41)
G1 X29.815 Y433.057 Z5.529 F200.000
G1 X29.681 Y433.121 Z5.529 F200.000
G1 X-29.919 Y433.121 Z5.529 F200.000
G1 X-29.954 Y433.057 Z5.529 F200.000
G1 X29.815 Y433.057 Z5.529 F200.000
(End of step 0.)
(End of layer 9)
(Layer 10 begins)
(Layer transition)
G0 Z10.000
G0 X30.003 Y445.231
(Begin step 0.)
G0 X30.003 Y445.231
(part 1)
G1 X30.003 Y445.231 Z5.382 F200.000
G1 X29.868 Y445.295 Z5.382 F200.000
G1 X24.268 Y445.295 Z5.382 F200.000
G1 X24.093 Y445.237 Z5.382 F200.000
G1 X24.279 Y445.231 Z5.382 F200.000
G1 X30.003 Y445.231 Z5.382 F200.000
(--Break)
G0 Z10.000
G0 X-8.084 Y445.231
(part 3)
G1 X-8.084 Y445.231 Z5.382 F200.000
G1 X-8.257 Y445.295 Z5.382 F200.000
G1 X-30.057 Y445.295 Z5.382 F200.000
G1 X-30.191 Y445.231 Z5.382 F200.000
G1 X-8.084 Y445.231 Z5.382 F200.000
(--Break)
G0 Z10.000
G0 X23.714 Y36.450
(part 5)
G1 X23.714 Y36.450 Z5.382 F200.000
G1 X23.579 Y36.514 Z5.382 F200.000
G1 X-23.821 Y36.514 Z5.382 F200.000
G1 X-23.849 Y36.450 Z5.382 F200.000
G1 X23.714 Y36.450 Z5.382 F200.000
(--Break)
G0 Z10.000
G0 X24.243 Y70.884
(part 7)
G1 X24.243 Y70.884 Z5.382 F200.000
G1 X24.109 Y70.948 Z5.382 F200.000
G1 X-24.291 Y70.948 Z5.382 F200.000
G1 X-24.432 Y70.890 Z5.382 F200.000
G1 X-24.239 Y70.884 Z5.382 F200.000
G1 X24.243 Y70.884 Z5.382 F200.000
(--Break)
G0 Z10.000
G0 X24.743 Y103.385
(part 9)
G1 X24.743 Y103.385 Z5.382 F200.000
G1 X24.609 Y103.449 Z5.382 F200.000
G1 X-24.791 Y103.449 Z5.382 F200.000
G1 X-24.932 Y103.391 Z5.382 F200.000
G1 X-24.739 Y103.385 Z5.382 F200.000
G1 X24.743 Y103.385 Z5.382 F200.000
(--Break)
G0 Z10.000
G0 X25.215 Y134.062
(part 11)
G1 X25.215 Y134.062 Z5.382 F200.000
G1 X25.081 Y134.126 Z5.382 F200.000
G1 X-25.319 Y134.126 Z5.382 F200.000
G1 X-25.354 Y134.062 Z5.382 F200.000
G1 X25.215 Y134.062 Z5.382 F200.000
(--Break)
G0 Z10.000
G0 X25.661 Y163.018
(part 13)
G1 X25.661 Y163.018 Z5.382 F200.000
G1 X25.526 Y163.082 Z5.382 F200.000
G1 X-25.674 Y163.082 Z5.382 F200.000
G1 X-25.850 Y163.059 Z5.382 F200.000
G1 X-25.691 Y163.018 Z5.382 F200.000
G1 X25.661 Y163.018 Z5.382 F200.000
(--Break)
G0 Z10.000
G0 X26.081 Y190.348
(part 15)
G1 X26.081 Y190.348 Z5.382 F200.000
G1 X25.947 Y190.412 Z5.382 F200.000
G1 X-26.253 Y190.412 Z5.382 F200.000
G1 X-26.152 Y190.348 Z5.382 F200.000
G1 X26.081 Y190.348 Z5.382 F200.000
(--Break)
G0 Z10.000
G0 X26.478 Y216.144
(part 17)
G1 X26.478 Y216.144 Z5.382 F200.000
G1 X26.344 Y216.208 Z5.382 F200.000
G1 X-26.656 Y216.208 Z5.382 F200.000
G1 X-26.543 Y216.144 Z5.382 F200.000
G1 X26.478 Y216.144 Z5.382 F200.000
(--Break)
G0 Z10.000
G0 X26.853 Y240.493
(part 19)
G1 X26.853 Y240.493 Z5.382 F200.000
G1 X26.718 Y240.557 Z5.382 F200.000
G1 X-26.882 Y240.557 Z5.382 F200.000
G1 X-27.042 Y240.518 Z5.382 F200.000
G1 X-26.867 Y240.493 Z5.382 F200.000
G1 X26.853 Y240.493 Z5.382 F200.000
(--Break)
G0 Z10.000
G0 X27.206 Y263.475
(part 21)
G1 X27.206 Y263.475 Z5.382 F200.000
G1 X27.072 Y263.539 Z5.382 F200.000
G1 X-27.328 Y263.539 Z5.382 F200.000
G1 X-27.327 Y263.475 Z5.382 F200.000
G1 X27.206 Y263.475 Z5.382 F200.000
(--Break)
G0 Z10.000
G0 X27.540 Y285.167
(part 23)
G1 X27.540 Y285.167 Z5.382 F200.000
G1 X27.406 Y285.231 Z5.382 F200.000
G1 X-27.594 Y285.231 Z5.382 F200.000
G1 X-27.729 Y285.167 Z5.382 F200.000
G1 X27.540 Y285.167 Z5.382 F200.000
(--Break)
G0 Z10.000
G0 X27.855 Y305.642
(part 25)
G1 X27.855 Y305.642 Z5.382 F200.000
G1 X27.721 Y305.706 Z5.382 F200.000
G1 X-27.879 Y305.706 Z5.382 F200.000
G1 X-28.044 Y305.672 Z5.382 F200.000
G1 X-27.874 Y305.642 Z5.382 F200.000
G1 X27.855 Y305.642 Z5.382 F200.000
(--Break)
G0 Z10.000
G0 X28.152 Y324.968
(part 27)
G1 X28.152 Y324.968 Z5.382 F200.000
G1 X28.018 Y325.032 Z5.382 F200.000
G1 X-28.182 Y325.032 Z5.382 F200.000
G1 X-28.337 Y324.987 Z5.382 F200.000
G1 X-28.157 Y324.968 Z5.382 F200.000
G1 X28.152 Y324.968 Z5.382 F200.000
(--Break)
G0 Z10.000
G0 X-28.622 Y343.209
(part 29)
G1 X-28.622 Y343.209 Z5.382 F200.000
G1 X-28.422 Y343.209 Z5.382 F200.000
G1 X28.378 Y343.209 Z5.382 F200.000
G1 X28.353 Y343.273 Z5.382 F200.000
G1 X-28.447 Y343.273 Z5.382 F200.000
G1 X-28.622 Y343.249 Z5.382 F200.000
G1 X-28.622 Y343.209 Z5.382 F200.000
(--Break)
G0 Z10.000
G0 X28.698 Y360.426
(part 31)
G1 X28.698 Y360.426 Z5.382 F200.000
G1 X28.563 Y360.490 Z5.382 F200.000
G1 X-28.837 Y360.490 Z5.382 F200.000
G1 X-28.802 Y360.426 Z5.382 F200.000
G1 X28.698 Y360.426 Z5.382 F200.000
(--Break)
G0 Z10.000
G0 X28.948 Y376.677
(part 33)
G1 X28.948 Y376.677 Z5.382 F200.000
G1 X28.813 Y376.741 Z5.382 F200.000
G1 X-28.987 Y376.741 Z5.382 F200.000
G1 X-29.137 Y376.692 Z5.382 F200.000
G1 X-28.952 Y376.677 Z5.382 F200.000
G1 X28.948 Y376.677 Z5.382 F200.000
(--Break)
G0 Z10.000
G0 X29.184 Y392.016
(part 35)
G1 X29.184 Y392.016 Z5.382 F200.000
G1 X29.049 Y392.080 Z5.382 F200.000
G1 X-29.351 Y392.080 Z5.382 F200.000
G1 X-29.260 Y392.016 Z5.382 F200.000
G1 X29.184 Y392.016 Z5.382 F200.000
(--Break)
G0 Z10.000
G0 X29.407 Y406.494
(part 37)
G1 X29.407 Y406.494 Z5.382 F200.000
G1 X29.272 Y406.558 Z5.382 F200.000
G1 X-29.528 Y406.558 Z5.382 F200.000
G1 X-29.528 Y406.494 Z5.382 F200.000
G1 X29.407 Y406.494 Z5.382 F200.000
(--Break)
G0 Z10.000
G0 X29.617 Y420.159
(part 39)
G1 X29.617 Y420.159 Z5.382 F200.000
G1 X29.482 Y420.223 Z5.382 F200.000
G1 X-29.718 Y420.223 Z5.382 F200.000
G1 X-29.759 Y420.159 Z5.382 F200.000
G1 X29.617 Y420.159 Z5.382 F200.000
(--Break)
G0 Z10.000
G0 X29.815 Y433.057
(part 41)
G1 X29.815 Y433.057 Z5.382 F200.000
G1 X29.681 Y433.121 Z5.382 F200.000
G1 X-29.919 Y433.121 Z5.382 F200.000
G1 X-29.954 Y433.057 Z5.382 F200.000
G1 X29.815 Y433.057 Z5.382 F200.000
(End of step 0.)
(End of layer 10)
(Layer 11 begins)
(Layer transition)
G0 Z10.000
G0 X30.003 Y445.231
(Begin step 0.)
G0 X30.003 Y445.231
(part 1)
G1 X30.003 Y445.231 Z5.235 F200.000
G1 X29.868 Y445.295 Z5.235 F200.000
G1 X24.268 Y445.295 Z5.235 F200.000
G1 X24.093 Y445.237 Z5.235 F200.000
G1 X24.279 Y445.231 Z5.235 F200.000
G1 X30.003 Y445.231 Z5.235 F200.000
(--Break)
G0 Z10.000
G0 X-8.084 Y445.231
(part 3)
G1 X-8.084 Y445.231 Z5.235 F200.000
G1 X-8.257 Y445.295 Z5.235 F200.000
G1 X-30.057 Y445.295 Z5.235 F200.000
G1 X-30.191 Y445.231 Z5.235 F200.000
G1 X-8.084 Y445.231 Z5.235 F200.000
(--Break)
G0 Z10.000
G0 X23.714 Y36.450
(part 5)
G1 X23.714 Y36.450 Z5.235 F200.000
G1 X23.579 Y36.514 Z5.235 F200.000
G1 X-23.821 Y36.514 Z5.235 F200.000
G1 X-23.849 Y36.450 Z5.235 F200.000
G1 X23.714 Y36.450 Z5.235 F200.000
(--Break)
G0 Z10.000
G0 X24.243 Y70.884
(part 7)
G1 X24.243 Y70.884 Z5.235 F200.000
G1 X24.109 Y70.948 Z5.235 F200.000
G1 X-24.291 Y70.948 Z5.235 F200.000
G1 X-24.432 Y70.890 Z5.235 F200.000
G1 X-24.239 Y70.884 Z5.235 F200.000
G1 X24.243 Y70.884 Z5.235 F200.000
(--Break)
G0 Z10.000
G0 X24.743 Y103.385
(part 9)
G1 X24.743 Y103.385 Z5.235 F200.000
G1 X24.609 Y103.449 Z5.235 F200.000
G1 X-24.791 Y103.449 Z5.235 F200.000
G1 X-24.932 Y103.391 Z5.235 F200.000
G1 X-24.739 Y103.385 Z5.235 F200.000
G1 X24.743 Y103.385 Z5.235 F200.000
(--Break)
G0 Z10.000
G0 X25.215 Y134.062
(part 11)
G1 X25.215 Y134.062 Z5.235 F200.000
G1 X25.081 Y134.126 Z5.235 F200.000
G1 X-25.319 Y134.126 Z5.235 F200.000
G1 X-25.354 Y134.062 Z5.235 F200.000
G1 X25.215 Y134.062 Z5.235 F200.000
(--Break)
G0 Z10.000
G0 X25.661 Y163.018
(part 13)
G1 X25.661 Y163.018 Z5.235 F200.000
G1 X25.526 Y163.082 Z5.235 F200.000
G1 X-25.674 Y163.082 Z5.235 F200.000
G1 X-25.850 Y163.059 Z5.235 F200.000
G1 X-25.691 Y163.018 Z5.235 F200.000
G1 X25.661 Y163.018 Z5.235 F200.000
(--Break)
G0 Z10.000
G0 X26.081 Y190.348
(part 15)
G1 X26.081 Y190.348 Z5.235 F200.000
G1 X25.947 Y190.412 Z5.235 F200.000
G1 X-26.253 Y190.412 Z5.235 F200.000
G1 X-26.152 Y190.348 Z5.235 F200.000
G1 X26.081 Y190.348 Z5.235 F200.000
(--Break)
G0 Z10.000
G0 X26.478 Y216.144
(part 17)
G1 X26.478 Y216.144 Z5.235 F200.000
G1 X26.344 Y216.208 Z5.235 F200.000
G1 X-26.656 Y216.208 Z5.235 F200.000
G1 X-26.543 Y216.144 Z5.235 F200.000
G1 X26.478 Y216.144 Z5.235 F200.000
(--Break)
G0 Z10.000
G0 X26.853 Y240.493
(part 19)
G1 X26.853 Y240.493 Z5.235 F200.000
G1 X26.718 Y240.557 Z5.235 F200.000
G1 X-26.882 Y240.557 Z5.235 F200.000
G1 X-27.042 Y240.518 Z5.235 F200.000
G1 X-26.867 Y240.493 Z5.235 F200.000
G1 X26.853 Y240.493 Z5.235 F200.000
(--Break)
G0 Z10.000
G0 X27.206 Y263.475
(part 21)
G1 X27.206 Y263.475 Z5.235 F200.000
G1 X27.072 Y263.539 Z5.235 F200.000
G1 X-27.328 Y263.539 Z5.235 F200.000
G1 X-27.327 Y263.475 Z5.235 F200.000
G1 X27.206 Y263.475 Z5.235 F200.000
(--Break)
G0 Z10.000
G0 X27.540 Y285.167
(part 23)
G1 X27.540 Y285.167 Z5.235 F200.000
G1 X27.406 Y285.231 Z5.235 F200.000
G1 X-27.594 Y285.231 Z5.235 F200.000
G1 X-27.729 Y285.167 Z5.235 F200.000
G1 X27.540 Y285.167 Z5.235 F200.000
(--Break)
G0 Z10.000
G0 X27.855 Y305.642
(part 25)
G1 X27.855 Y305.642 Z5.235 F200.000
G1 X27.721 Y305.706 Z5.235 F200.000
G1 X-27.879 Y305.706 Z5.235 F200.000
G1 X-28.044 Y305.672 Z5.235 F200.000
G1 X-27.874 Y305.642 Z5.235 F200.000
G1 X27.855 Y305.642 Z5.235 F200.000
(--Break)
G0 Z10.000
G0 X28.152 Y324.968
(part 27)
G1 X28.152 Y324.968 Z5.235 F200.000
G1 X28.018 Y325.032 Z5.235 F200.000
G1 X-28.182 Y325.032 Z5.235 F200.000
G1 X-28.337 Y324.987 Z5.235 F200.000
G1 X-28.157 Y324.968 Z5.235 F200.000
G1 X28.152 Y324.968 Z5.235 F200.000
(--Break)
G0 Z10.000
G0 X-28.622 Y343.209
(part 29)
G1 X-28.622 Y343.209 Z5.235 F200.000
G1 X-28.422 Y343.209 Z5.235 F200.000
G1 X28.378 Y343.209 Z5.235 F200.000
G1 X28.353 Y343.273 Z5.235 F200.000
G1 X-28.447 Y343.273 Z5.235 F200.000
G1 X-28.622 Y343.249 Z5.235 F200.000
G1 X-28.622 Y343.209 Z5.235 F200.000
(--Break)
G0 Z10.000
G0 X28.698 Y360.426
(part 31)
G1 X28.698 Y360.426 Z5.235 F200.000
G1 X28.563 Y360.490 Z5.235 F200.000
G1 X-28.837 Y360.490 Z5.235 F200.000
G1 X-28.802 Y360.426 Z5.235 F200.000
G1 X28.698 Y360.426 Z5.235 F200.000
(--Break)
G0 Z10.000
G0 X28.948 Y376.677
(part 33)
G1 X28.948 Y376.677 Z5.235 F200.000
G1 X28.813 Y376.741 Z5.235 F200.000
G1 X-28.987 Y376.741 Z5.235 F200.000
G1 X-29.137 Y376.692 Z5.235 F200.000
G1 X-28.952 Y376.677 Z5.235 F200.000
G1 X28.948 Y376.677 Z5.235 F200.000
(--Break)
G0 Z10.000
G0 X29.184 Y392.016
(part 35)
G1 X29.184 Y392.016 Z5.235 F200.000
G1 X29.049 Y392.080 Z5.235 F200.000
G1 X-29.351 Y392.080 Z5.235 F200.000
G1 X-29.260 Y392.016 Z5.235 F200.000
G1 X29.184 Y392.016 Z5.235 F200.000
(--Break)
G0 Z10.000
G0 X29.407 Y406.494
(part 37)
G1 X29.407 Y406.494 Z5.235 F200.000
G1 X29.272 Y406.558 Z5.235 F200.000
G1 X-29.528 Y406.558 Z5.235 F200.000
G1 X-29.528 Y406.494 Z5.235 F200.000
G1 X29.407 Y406.494 Z5.235 F200.000
(--Break)
G0 Z10.000
G0 X29.617 Y420.159
(part 39)
G1 X29.617 Y420.159 Z5.235 F200.000
G1 X29.482 Y420.223 Z5.235 F200.000
G1 X-29.718 Y420.223 Z5.235 F200.000
G1 X-29.759 Y420.159 Z5.235 F200.000
G1 X29.617 Y420.159 Z5.235 F200.000
(--Break)
G0 Z10.000
G0 X29.815 Y433.057
(part 41)
G1 X29.815 Y433.057 Z5.235 F200.000
G1 X29.681 Y433.121 Z5.235 F200.000
G1 X-29.919 Y433.121 Z5.235 F200.000
G1 X-29.954 Y433.057 Z5.235 F200.000
G1 X29.815 Y433.057 Z5.235 F200.000
(End of step 0.)
(End of layer 11)
(Layer 12 begins)
(Layer transition)
G0 Z10.000
G0 X30.003 Y445.231
(Begin step 0.)
G0 X30.003 Y445.231
(part 1)
G1 X30.003 Y445.231 Z5.088 F200.000
G1 X29.868 Y445.295 Z5.088 F200.000
G1 X24.268 Y445.295 Z5.088 F200.000
G1 X24.093 Y445.237 Z5.088 F200.000
G1 X24.279 Y445.231 Z5.088 F200.000
G1 X30.003 Y445.231 Z5.088 F200.000
(--Break)
G0 Z10.000
G0 X-8.084 Y445.231
(part 3)
G1 X-8.084 Y445.231 Z5.088 F200.000
G1 X-8.257 Y445.295 Z5.088 F200.000
G1 X-30.057 Y445.295 Z5.088 F200.000
G1 X-30.191 Y445.231 Z5.088 F200.000
G1 X-8.084 Y445.231 Z5.088 F200.000
(--Break)
G0 Z10.000
G0 X23.714 Y36.450
(part 5)
G1 X23.714 Y36.450 Z5.088 F200.000
G1 X23.579 Y36.514 Z5.088 F200.000
G1 X4.817 Y36.514 Z5.088 F200.000
G1 X-0.121 Y36.514 Z5.100 F200.000
G1 X-5.058 Y36.514 Z5.088 F200.000
G1 X-23.821 Y36.514 Z5.088 F200.000
G1 X-23.849 Y36.450 Z5.088 F200.000
G1 X-5.022 Y36.450 Z5.088 F200.000
G1 X-0.068 Y36.450 Z5.100 F200.000
G1 X4.887 Y36.450 Z5.088 F200.000
G1 X23.714 Y36.450 Z5.088 F200.000
(--Break)
G0 Z10.000
G0 X24.243 Y70.884
(part 7)
G1 X24.243 Y70.884 Z5.088 F200.000
G1 X24.109 Y70.948 Z5.088 F200.000
G1 X4.354 Y70.948 Z5.088 F200.000
G1 X2.378 Y70.948 Z5.096 F200.000
G1 X-0.585 Y70.948 Z5.100 F200.000
G1 X-4.536 Y70.948 Z5.088 F200.000
G1 X-24.291 Y70.948 Z5.088 F200.000
G1 X-24.432 Y70.890 Z5.088 F200.000
G1 X-24.239 Y70.884 Z5.088 F200.000
G1 X-4.450 Y70.884 Z5.088 F200.000
G1 X-0.492 Y70.884 Z5.100 F200.000
G1 X2.476 Y70.884 Z5.096 F200.000
G1 X4.455 Y70.884 Z5.088 F200.000
G1 X24.243 Y70.884 Z5.088 F200.000
(--Break)
G0 Z10.000
G0 X24.743 Y103.385
(part 9)
G1 X24.743 Y103.385 Z5.088 F200.000
G1 X24.609 Y103.449 Z5.088 F200.000
G1 X4.849 Y103.449 Z5.088 F200.000
G1 X0.897 Y103.449 Z5.099 F200.000
G1 X-2.067 Y103.449 Z5.097 F200.000
G1 X-5.031 Y103.449 Z5.088 F200.000
G1 X-24.791 Y103.449 Z5.088 F200.000
G1 X-24.932 Y103.391 Z5.088 F200.000
G1 X-24.739 Y103.385 Z5.088 F200.000
G1 X-4.946 Y103.385 Z5.088 F200.000
G1 X-0.987 Y103.385 Z5.099 F200.000
G1 X1.982 Y103.385 Z5.097 F200.000
G1 X4.951 Y103.385 Z5.088 F200.000
G1 X24.743 Y103.385 Z5.088 F200.000
(--Break)
G0 Z10.000
G0 X25.215 Y134.062
(part 11)
G1 X25.215 Y134.062 Z5.088 F200.000
G1 X25.081 Y134.126 Z5.088 F200.000
G1 X5.081 Y134.126 Z5.088 F200.000
G1 X1.081 Y134.126 Z5.099 F200.000
G1 X-0.919 Y134.126 Z5.099 F200.000
G1 X-4.919 Y134.126 Z5.088 F200.000
G1 X-25.319 Y134.126 Z5.088 F200.000
G1 X-25.354 Y134.062 Z5.088 F200.000
G1 X-4.532 Y134.062 Z5.088 F200.000
G1 X-1.557 Y134.062 Z5.099 F200.000
G1 X-0.565 Y134.062 Z5.099 F200.000
G1 X1.418 Y134.062 Z5.099 F200.000
G1 X4.392 Y134.062 Z5.088 F200.000
G1 X25.215 Y134.062 Z5.088 F200.000
(--Break)
G0 Z10.000
G0 X25.661 Y163.018
(part 13)
G1 X25.661 Y163.018 Z5.088 F200.000
G1 X25.526 Y163.082 Z5.088 F200.000
G1 X4.849 Y163.082 Z5.088 F200.000
G1 X0.911 Y163.082 Z5.099 F200.000
G1 X-2.043 Y163.082 Z5.098 F200.000
G1 X-4.997 Y163.082 Z5.088 F200.000
G1 X-25.674 Y163.082 Z5.088 F200.000
G1 X-25.850 Y163.059 Z5.088 F200.000
G1 X-25.691 Y163.018 Z5.088 F200.000
G1 X-4.953 Y163.018 Z5.088 F200.000
G1 X-1.003 Y163.018 Z5.099 F200.000
G1 X1.960 Y163.018 Z5.097 F200.000
G1 X4.923 Y163.018 Z5.088 F200.000
G1 X25.661 Y163.018 Z5.088 F200.000
(--Break)
G0 Z10.000
G0 X26.081 Y190.348
(part 15)
G1 X26.081 Y190.348 Z5.088 F200.000
G1 X25.947 Y190.412 Z5.088 F200.000
G1 X4.279 Y190.412 Z5.088 F200.000
G1 X0.339 Y190.412 Z5.100 F200.000
G1 X-2.615 Y190.412 Z5.096 F200.000
G1 X-4.585 Y190.412 Z5.088 F200.000
G1 X-26.253 Y190.412 Z5.088 F200.000
G1 X-26.152 Y190.348 Z5.088 F200.000
G1 X-4.470 Y190.348 Z5.088 F200.000
G1 X-0.528 Y190.348 Z5.100 F200.000
G1 X2.428 Y190.348 Z5.096 F200.000
G1 X4.399 Y190.348 Z5.088 F200.000
G1 X26.081 Y190.348 Z5.088 F200.000
(--Break)
G0 Z10.000
G0 X26.478 Y216.144
(part 17)
G1 X26.478 Y216.144 Z5.088 F200.000
G1 X26.344 Y216.208 Z5.088 F200.000
G1 X4.344 Y216.208 Z5.088 F200.000
G1 X0.344 Y216.208 Z5.100 F200.000
G1 X-2.656 Y216.208 Z5.096 F200.000
G1 X-4.656 Y216.208 Z5.088 F200.000
G1 X-26.656 Y216.208 Z5.088 F200.000
G1 X-26.543 Y216.144 Z5.088 F200.000
G1 X-4.807 Y216.144 Z5.088 F200.000
G1 X-2.831 Y216.144 Z5.096 F200.000
G1 X0.133 Y216.144 Z5.100 F200.000
G1 X5.073 Y216.144 Z5.088 F200.000
G1 X26.478 Y216.144 Z5.088 F200.000
(--Break)
G0 Z10.000
G0 X26.853 Y240.493
(part 19)
G1 X26.853 Y240.493 Z5.088 F200.000
G1 X26.718 Y240.557 Z5.088 F200.000
G1 X4.881 Y240.557 Z5.088 F200.000
G1 X-0.082 Y240.557 Z5.100 F200.000
G1 X-5.045 Y240.557 Z5.088 F200.000
G1 X-26.882 Y240.557 Z5.088 F200.000
G1 X-27.042 Y240.518 Z5.088 F200.000
G1 X-26.867 Y240.493 Z5.088 F200.000
G1 X-4.981 Y240.493 Z5.088 F200.000
G1 X-0.007 Y240.493 Z5.100 F200.000
G1 X4.967 Y240.493 Z5.088 F200.000
G1 X26.853 Y240.493 Z5.088 F200.000
(--Break)
G0 Z10.000
G0 X27.206 Y263.475
(part 21)
G1 X27.206 Y263.475 Z5.088 F200.000
G1 X27.072 Y263.539 Z5.088 F200.000
G1 X4.323 Y263.539 Z5.088 F200.000
G1 X0.366 Y263.539 Z5.100 F200.000
G1 X-2.601 Y263.539 Z5.096 F200.000
G1 X-4.579 Y263.539 Z5.088 F200.000
G1 X-27.328 Y263.539 Z5.088 F200.000
G1 X-27.327 Y263.475 Z5.088 F200.000
G1 X-4.522 Y263.475 Z5.088 F200.000
G1 X-0.556 Y263.475 Z5.100 F200.000
G1 X2.418 Y263.475 Z5.096 F200.000
G1 X4.401 Y263.475 Z5.088 F200.000
G1 X27.206 Y263.475 Z5.088 F200.000
(--Break)
G0 Z10.000
G0 X27.540 Y285.167
(part 23)
G1 X27.540 Y285.167 Z5.088 F200.000
G1 X27.406 Y285.231 Z5.088 F200.000
G1 X4.816 Y285.231 Z5.088 F200.000
G1 X0.888 Y285.231 Z5.099 F200.000
G1 X-2.059 Y285.231 Z5.097 F200.000
G1 X-5.005 Y285.231 Z5.088 F200.000
G1 X-27.594 Y285.231 Z5.088 F200.000
G1 X-27.729 Y285.167 Z5.088 F200.000
G1 X-5.029 Y285.167 Z5.088 F200.000
G1 X-1.081 Y285.167 Z5.099 F200.000
G1 X1.880 Y285.167 Z5.097 F200.000
G1 X4.840 Y285.167 Z5.088 F200.000
G1 X27.540 Y285.167 Z5.088 F200.000
(--Break)
G0 Z10.000
G0 X27.855 Y305.642
(part 25)
G1 X27.855 Y305.642 Z5.088 F200.000
G1 X27.721 Y305.706 Z5.088 F200.000
G1 X4.885 Y305.706 Z5.088 F200.000
G1 X0.913 Y305.706 Z5.099 F200.000
G1 X-2.065 Y305.706 Z5.097 F200.000
G1 X-5.044 Y305.706 Z5.088 F200.000
G1 X-27.879 Y305.706 Z5.088 F200.000
G1 X-28.044 Y305.672 Z5.088 F200.000
G1 X-27.874 Y305.642 Z5.088 F200.000
G1 X-4.962 Y305.642 Z5.088 F200.000
G1 X-1.974 Y305.642 Z5.098 F200.000
G1 X1.015 Y305.642 Z5.099 F200.000
G1 X5.000 Y305.642 Z5.088 F200.000
G1 X27.855 Y305.642 Z5.088 F200.000
(--Break)
G0 Z10.000
G0 X28.152 Y324.968
(part 27)
G1 X28.152 Y324.968 Z5.088 F200.000
G1 X28.018 Y325.032 Z5.088 F200.000
G1 X4.355 Y325.032 Z5.088 F200.000
G1 X1.397 Y325.032 Z5.099 F200.000
G1 X-1.561 Y325.032 Z5.099 F200.000
G1 X-4.519 Y325.032 Z5.088 F200.000
G1 X-28.182 Y325.032 Z5.088 F200.000
G1 X-28.337 Y324.987 Z5.088 F200.000
G1 X-28.157 Y324.968 Z5.088 F200.000
G1 X-5.436 Y324.968 Z5.088 F200.000
G1 X-1.484 Y324.968 Z5.099 F200.000
G1 X1.480 Y324.968 Z5.099 F200.000
G1 X4.443 Y324.968 Z5.088 F200.000
G1 X28.152 Y324.968 Z5.088 F200.000
(--Break)
G0 Z10.000
G0 X-28.622 Y343.209
(part 29)
G1 X-28.622 Y343.209 Z5.088 F200.000
G1 X-28.422 Y343.209 Z5.088 F200.000
G1 X-4.622 Y343.209 Z5.088 F200.000
G1 X-1.622 Y343.209 Z5.099 F200.000
G1 X-0.622 Y343.209 Z5.099 F200.000
G1 X1.378 Y343.209 Z5.099 F200.000
G1 X4.378 Y343.209 Z5.088 F200.000
G1 X28.378 Y343.209 Z5.088 F200.000
G1 X28.353 Y343.273 Z5.088 F200.000
G1 X4.553 Y343.273 Z5.088 F200.000
G1 X1.553 Y343.273 Z5.099 F200.000
G1 X-1.447 Y343.273 Z5.099 F200.000
G1 X-5.447 Y343.273 Z5.088 F200.000
G1 X-28.447 Y343.273 Z5.088 F200.000
G1 X-28.622 Y343.249 Z5.088 F200.000
G1 X-28.622 Y343.209 Z5.088 F200.000
(--Break)
G0 Z10.000
G0 X28.698 Y360.426
(part 31)
G1 X28.698 Y360.426 Z5.088 F200.000
G1 X28.563 Y360.490 Z5.088 F200.000
G1 X4.830 Y360.490 Z5.088 F200.000
G1 X-0.114 Y360.490 Z5.100 F200.000
G1 X-5.059 Y360.490 Z5.088 F200.000
G1 X-28.837 Y360.490 Z5.088 F200.000
G1 X-28.802 Y360.426 Z5.088 F200.000
G1 X-5.009 Y360.426 Z5.088 F200.000
G1 X-0.052 Y360.426 Z5.100 F200.000
G1 X4.905 Y360.426 Z5.088 F200.000
G1 X28.698 Y360.426 Z5.088 F200.000
(--Break)
G0 Z10.000
G0 X28.948 Y376.677
(part 33)
G1 X28.948 Y376.677 Z5.088 F200.000
G1 X28.813 Y376.741 Z5.088 F200.000
G1 X4.813 Y376.741 Z5.088 F200.000
G1 X-0.187 Y376.741 Z5.100 F200.000
G1 X-5.187 Y376.741 Z5.088 F200.000
G1 X-28.987 Y376.741 Z5.088 F200.000
G1 X-29.137 Y376.692 Z5.088 F200.000
G1 X-28.952 Y376.677 Z5.088 F200.000
G1 X-4.993 Y376.677 Z5.088 F200.000
G1 X-0.002 Y376.677 Z5.100 F200.000
G1 X4.989 Y376.677 Z5.088 F200.000
G1 X28.948 Y376.677 Z5.088 F200.000
(--Break)
G0 Z10.000
G0 X29.184 Y392.016
(part 35)
G1 X29.184 Y392.016 Z5.088 F200.000
G1 X29.049 Y392.080 Z5.088 F200.000
G1 X4.304 Y392.080 Z5.088 F200.000
G1 X0.344 Y392.080 Z5.100 F200.000
G1 X-2.625 Y392.080 Z5.096 F200.000
G1 X-4.605 Y392.080 Z5.088 F200.000
G1 X-29.351 Y392.080 Z5.088 F200.000
G1 X-29.260 Y392.016 Z5.088 F200.000
G1 X-4.496 Y392.016 Z5.088 F200.000
G1 X-0.533 Y392.016 Z5.100 F200.000
G1 X2.438 Y392.016 Z5.096 F200.000
G1 X4.420 Y392.016 Z5.088 F200.000
G1 X29.184 Y392.016 Z5.088 F200.000
(--Break)
G0 Z10.000
G0 X29.407 Y406.494
(part 37)
G1 X29.407 Y406.494 Z5.088 F200.000
G1 X29.272 Y406.558 Z5.088 F200.000
G1 X4.357 Y406.558 Z5.088 F200.000
G1 X0.370 Y406.558 Z5.100 F200.000
G1 X-2.619 Y406.558 Z5.096 F200.000
G1 X-4.613 Y406.558 Z5.088 F200.000
G1 X-29.528 Y406.558 Z5.088 F200.000
G1 X-29.528 Y406.494 Z5.088 F200.000
G1 X-4.556 Y406.494 Z5.088 F200.000
G1 X-0.560 Y406.494 Z5.100 F200.000
G1 X2.436 Y406.494 Z5.096 F200.000
G1 X4.434 Y406.494 Z5.088 F200.000
G1 X29.407 Y406.494 Z5.088 F200.000
(--Break)
G0 Z10.000
G0 X29.617 Y420.159
(part 39)
G1 X29.617 Y420.159 Z5.088 F200.000
G1 X29.482 Y420.223 Z5.088 F200.000
G1 X4.816 Y420.223 Z5.088 F200.000
G1 X-0.118 Y420.223 Z5.100 F200.000
G1 X-5.051 Y420.223 Z5.088 F200.000
G1 X-29.718 Y420.223 Z5.088 F200.000
G1 X-29.759 Y420.159 Z5.088 F200.000
G1 X-5.019 Y420.159 Z5.088 F200.000
G1 X-0.071 Y420.159 Z5.100 F200.000
G1 X4.877 Y420.159 Z5.088 F200.000
G1 X29.617 Y420.159 Z5.088 F200.000
(--Break)
G0 Z10.000
G0 X29.815 Y433.057
(part 41)
G1 X29.815 Y433.057 Z5.088 F200.000
G1 X29.681 Y433.121 Z5.088 F200.000
G1 X4.847 Y433.121 Z5.088 F200.000
G1 X-0.119 Y433.121 Z5.100 F200.000
G1 X-5.086 Y433.121 Z5.088 F200.000
G1 X-29.919 Y433.121 Z5.088 F200.000
G1 X-29.954 Y433.057 Z5.088 F200.000
G1 X-5.050 Y433.057 Z5.088 F200.000
G1 X-0.069 Y433.057 Z5.100 F200.000
G1 X4.911 Y433.057 Z5.088 F200.000
G1 X29.815 Y433.057 Z5.088 F200.000
(End of step 0.)
(End of layer 12)
(Layer 13 begins)
(Layer transition)
G0 Z10.000
G0 X30.003 Y445.231
(Begin step 0.)
G0 X30.003 Y445.231
(part 1)
G1 X30.003 Y445.231 Z4.941 F200.000
G1 X29.868 Y445.295 Z4.941 F200.000
G1 X24.268 Y445.295 Z4.941 F200.000
G1 X24.093 Y445.237 Z4.941 F200.000
G1 X24.279 Y445.231 Z4.941 F200.000
G1 X30.003 Y445.231 Z4.941 F200.000
(--Break)
G0 Z10.000
G0 X-8.084 Y445.231
(part 3)
G1 X-8.084 Y445.231 Z5.061 F200.000
G1 X-8.257 Y445.295 Z5.059 F200.000
G1 X-11.230 Y445.295 Z5.022 F200.000
G1 X-16.185 Y445.295 Z4.941 F200.000
G1 X-30.057 Y445.295 Z4.941 F200.000
G1 X-30.191 Y445.231 Z4.941 F200.000
G1 X-15.872 Y445.231 Z4.941 F200.000
G1 X-12.054 Y445.231 Z5.009 F200.000
G1 X-8.084 Y445.231 Z5.061 F200.000
(--Break)
G0 Z10.000
G0 X23.714 Y36.450
(part 5)
G1 X23.714 Y36.450 Z4.941 F200.000
G1 X23.579 Y36.514 Z4.941 F200.000
G1 X15.679 Y36.514 Z4.941 F200.000
G1 X13.704 Y36.514 Z4.979 F200.000
G1 X10.742 Y36.514 Z5.026 F200.000
G1 X7.779 Y36.514 Z5.061 F200.000
G1 X5.804 Y36.514 Z5.079 F200.000
G1 X2.842 Y36.514 Z5.095 F200.000
G1 X-0.121 Y36.514 Z5.100 F200.000
G1 X-3.083 Y36.514 Z5.095 F200.000
G1 X-6.046 Y36.514 Z5.078 F200.000
G1 X-8.021 Y36.514 Z5.061 F200.000
G1 X-10.983 Y36.514 Z5.026 F200.000
G1 X-13.946 Y36.514 Z4.978 F200.000
G1 X-15.921 Y36.514 Z4.941 F200.000
G1 X-23.821 Y36.514 Z4.941 F200.000
G1 X-23.849 Y36.450 Z4.941 F200.000
G1 X-15.922 Y36.450 Z4.941 F200.000
G1 X-13.940 Y36.450 Z4.978 F200.000
G1 X-10.968 Y36.450 Z5.026 F200.000
G1 X-7.995 Y36.450 Z5.061 F200.000
G1 X-6.013 Y36.450 Z5.078 F200.000
G1 X-3.041 Y36.450 Z5.095 F200.000
G1 X-0.068 Y36.450 Z5.100 F200.000
G1 X2.905 Y36.450 Z5.095 F200.000
G1 X5.878 Y36.450 Z5.078 F200.000
G1 X7.859 Y36.450 Z5.061 F200.000
G1 X10.832 Y36.450 Z5.025 F200.000
G1 X13.805 Y36.450 Z4.977 F200.000
G1 X15.786 Y36.450 Z4.941 F200.000
G1 X23.714 Y36.450 Z4.941 F200.000
(--Break)
G0 Z10.000
G0 X24.243 Y70.884
(part 7)
G1 X24.243 Y70.884 Z4.941 F200.000
G1 X24.109 Y70.948 Z4.941 F200.000
G1 X16.207 Y70.948 Z4.941 F200.000
G1 X15.219 Y70.948 Z4.950 F200.000
G1 X13.244 Y70.948 Z4.987 F200.000
G1 X11.268 Y70.948 Z5.019 F200.000
G1 X8.305 Y70.948 Z5.056 F200.000
G1 X5.342 Y70.948 Z5.082 F200.000
G1 X3.366 Y70.948 Z5.093 F200.000
G1 X-0.585 Y70.948 Z5.100 F200.000
G1 X-3.548 Y70.948 Z5.093 F200.000
G1 X-5.524 Y70.948 Z5.082 F200.000
G1 X-8.487 Y70.948 Z5.056 F200.000
G1 X-11.450 Y70.948 Z5.019 F200.000
G1 X-15.401 Y70.948 Z4.950 F200.000
G1 X-16.389 Y70.948 Z4.941 F200.000
G1 X-24.291 Y70.948 Z4.941 F200.000
G1 X-24.432 Y70.890 Z4.941 F200.000
G1 X-24.239 Y70.884 Z4.941 F200.000
G1 X-16.323 Y70.884 Z4.941 F200.000
G1 X-15.334 Y70.884 Z4.951 F200.000
G1 X-11.376 Y70.884 Z5.020 F200.000
G1 X-8.408 Y70.884 Z5.057 F200.000
G1 X-5.439 Y70.884 Z5.082 F200.000
G1 X-3.461 Y70.884 Z5.093 F200.000
G1 X-0.492 Y70.884 Z5.100 F200.000
G1 X3.465 Y70.884 Z5.092 F200.000
G1 X5.444 Y70.884 Z5.081 F200.000
G1 X8.413 Y70.884 Z5.055 F200.000
G1 X11.381 Y70.884 Z5.017 F200.000
G1 X13.360 Y70.884 Z4.985 F200.000
G1 X15.339 Y70.884 Z4.948 F200.000
G1 X16.328 Y70.884 Z4.941 F200.000
G1 X24.243 Y70.884 Z4.941 F200.000
(--Break)
G0 Z10.000
G0 X24.743 Y103.385
(part 9)
G1 X24.743 Y103.385 Z4.941 F200.000
G1 X24.609 Y103.449 Z4.941 F200.000
G1 X15.717 Y103.449 Z4.941 F200.000
G1 X11.765 Y103.449 Z5.011 F200.000
G1 X9.789 Y103.449 Z5.039 F200.000
G1 X6.825 Y103.449 Z5.071 F200.000
G1 X3.861 Y103.449 Z5.091 F200.000
G1 X1.885 Y103.449 Z5.097 F200.000
G1 X-1.079 Y103.449 Z5.099 F200.000
G1 X-5.031 Y103.449 Z5.085 F200.000
G1 X-7.007 Y103.449 Z5.071 F200.000
G1 X-8.983 Y103.449 Z5.050 F200.000
G1 X-11.947 Y103.449 Z5.011 F200.000
G1 X-15.899 Y103.449 Z4.941 F200.000
G1 X-24.791 Y103.449 Z4.941 F200.000
G1 X-24.932 Y103.391 Z4.941 F200.000
G1 X-24.739 Y103.385 Z4.941 F200.000
G1 X-15.832 Y103.385 Z4.942 F200.000
G1 X-14.842 Y103.385 Z4.962 F200.000
G1 X-11.873 Y103.385 Z5.012 F200.000
G1 X-8.904 Y103.385 Z5.051 F200.000
G1 X-6.925 Y103.385 Z5.072 F200.000
G1 X-4.946 Y103.385 Z5.085 F200.000
G1 X-0.987 Y103.385 Z5.099 F200.000
G1 X0.992 Y103.385 Z5.099 F200.000
G1 X3.961 Y103.385 Z5.090 F200.000
G1 X6.930 Y103.385 Z5.070 F200.000
G1 X8.909 Y103.385 Z5.049 F200.000
G1 X11.878 Y103.385 Z5.010 F200.000
G1 X15.837 Y103.385 Z4.941 F200.000
G1 X24.743 Y103.385 Z4.941 F200.000
(--Break)
G0 Z10.000
G0 X25.215 Y134.062
(part 11)
G1 X25.215 Y134.062 Z4.941 F200.000
G1 X25.081 Y134.126 Z4.941 F200.000
G1 X16.081 Y134.126 Z4.941 F200.000
G1 X15.081 Y134.126 Z4.954 F200.000
G1 X12.081 Y134.126 Z5.006 F200.000
G1 X10.081 Y134.126 Z5.035 F200.000
G1 X7.081 Y134.126 Z5.068 F200.000
G1 X4.081 Y134.126 Z5.090 F200.000
G1 X1.081 Y134.126 Z5.099 F200.000
G1 X-0.919 Y134.126 Z5.099 F200.000
G1 X-3.919 Y134.126 Z5.091 F200.000
G1 X-6.919 Y134.126 Z5.071 F200.000
G1 X-7.919 Y134.126 Z5.061 F200.000
G1 X-9.919 Y134.126 Z5.040 F200.000
G1 X-11.919 Y134.126 Z5.011 F200.000
G1 X-15.919 Y134.126 Z4.941 F200.000
G1 X-25.319 Y134.126 Z4.941 F200.000
G1 X-25.354 Y134.062 Z4.941 F200.000
G1 X-16.430 Y134.062 Z4.941 F200.000
G1 X-15.439 Y134.062 Z4.950 F200.000
G1 X-12.464 Y134.062 Z5.004 F200.000
G1 X-10.481 Y134.062 Z5.032 F200.000
G1 X-7.506 Y134.062 Z5.066 F200.000
G1 X-4.532 Y134.062 Z5.088 F200.000
G1 X-1.557 Y134.062 Z5.099 F200.000
G1 X-0.565 Y134.062 Z5.099 F200.000
G1 X1.418 Y134.062 Z5.099 F200.000
G1 X3.401 Y134.062 Z5.092 F200.000
G1 X4.392 Y134.062 Z5.088 F200.000
G1 X7.367 Y134.062 Z5.065 F200.000
G1 X10.342 Y134.062 Z5.031 F200.000
G1 X12.325 Y134.062 Z5.003 F200.000
G1 X15.300 Y134.062 Z4.949 F200.000
G1 X16.291 Y134.062 Z4.941 F200.000
G1 X25.215 Y134.062 Z4.941 F200.000
(--Break)
G0 Z10.000
G0 X25.661 Y163.018
(part 13)
G1 X25.661 Y163.018 Z4.941 F200.000
G1 X25.526 Y163.082 Z4.941 F200.000
G1 X15.680 Y163.082 Z4.941 F200.000
G1 X11.742 Y163.082 Z5.011 F200.000
G1 X9.772 Y163.082 Z5.039 F200.000
G1 X6.819 Y163.082 Z5.071 F200.000
G1 X3.865 Y163.082 Z5.090 F200.000
G1 X1.896 Y163.082 Z5.097 F200.000
G1 X-1.058 Y163.082 Z5.099 F200.000
G1 X-4.012 Y163.082 Z5.091 F200.000
G1 X-7.951 Y163.082 Z5.061 F200.000
G1 X-9.920 Y163.082 Z5.040 F200.000
G1 X-11.889 Y163.082 Z5.012 F200.000
G1 X-15.828 Y163.082 Z4.942 F200.000
G1 X-25.674 Y163.082 Z4.941 F200.000
G1 X-25.850 Y163.059 Z4.941 F200.000
G1 X-25.691 Y163.018 Z4.941 F200.000
G1 X-15.816 Y163.018 Z4.942 F200.000
G1 X-12.853 Y163.018 Z4.997 F200.000
G1 X-9.890 Y163.018 Z5.040 F200.000
G1 X-7.915 Y163.018 Z5.061 F200.000
G1 X-3.965 Y163.018 Z5.091 F200.000
G1 X-1.003 Y163.018 Z5.099 F200.000
G1 X1.960 Y163.018 Z5.097 F200.000
G1 X3.935 Y163.018 Z5.090 F200.000
G1 X6.898 Y163.018 Z5.070 F200.000
G1 X9.860 Y163.018 Z5.038 F200.000
G1 X11.835 Y163.018 Z5.010 F200.000
G1 X15.786 Y163.018 Z4.941 F200.000
G1 X25.661 Y163.018 Z4.941 F200.000
(--Break)
G0 Z10.000
G0 X26.081 Y190.348
(part 15)
G1 X26.081 Y190.348 Z4.941 F200.000
G1 X25.947 Y190.412 Z4.941 F200.000
G1 X16.098 Y190.412 Z4.941 F200.000
G1 X15.113 Y190.412 Z4.952 F200.000
G1 X13.143 Y190.412 Z4.989 F200.000
G1 X11.173 Y190.412 Z5.020 F200.000
G1 X8.219 Y190.412 Z5.057 F200.000
G1 X5.264 Y190.412 Z5.083 F200.000
G1 X2.309 Y190.412 Z5.096 F200.000
G1 X0.339 Y190.412 Z5.100 F200.000
G1 X-3.600 Y190.412 Z5.092 F200.000
G1 X-5.570 Y190.412 Z5.082 F200.000
G1 X-7.540 Y190.412 Z5.065 F200.000
G1 X-10.495 Y190.412 Z5.032 F200.000
G1 X-13.449 Y190.412 Z4.987 F200.000
G1 X-15.419 Y190.412 Z4.950 F200.000
G1 X-16.404 Y190.412 Z4.941 F200.000
G1 X-26.253 Y190.412 Z4.941 F200.000
G1 X-26.152 Y190.348 Z4.941 F200.000
G1 X-16.297 Y190.348 Z4.941 F200.000
G1 X-15.311 Y190.348 Z4.952 F200.000
G1 X-13.340 Y190.348 Z4.989 F200.000
G1 X-11.369 Y190.348 Z5.020 F200.000
G1 X-8.413 Y190.348 Z5.057 F200.000
G1 X-5.456 Y190.348 Z5.083 F200.000
G1 X-2.499 Y190.348 Z5.096 F200.000
G1 X-0.528 Y190.348 Z5.100 F200.000
G1 X3.414 Y190.348 Z5.092 F200.000
G1 X5.385 Y190.348 Z5.082 F200.000
G1 X7.356 Y190.348 Z5.065 F200.000
G1 X10.313 Y190.348 Z5.032 F200.000
G1 X13.269 Y190.348 Z4.987 F200.000
G1 X15.240 Y190.348 Z4.950 F200.000
G1 X16.226 Y190.348 Z4.941 F200.000
G1 X26.081 Y190.348 Z4.941 F200.000
(--Break)
G0 Z10.000
G0 X26.478 Y216.144
(part 17)
G1 X26.478 Y216.144 Z4.941 F200.000
G1 X26.344 Y216.208 Z4.941 F200.000
G1 X16.344 Y216.208 Z4.941 F200.000
G1 X15.344 Y216.208 Z4.948 F200.000
G1 X13.344 Y216.208 Z4.986 F200.000
G1 X11.344 Y216.208 Z5.017 F200.000
G1 X8.344 Y216.208 Z5.056 F200.000
G1 X5.344 Y216.208 Z5.082 F200.000
G1 X2.344 Y216.208 Z5.096 F200.000
G1 X0.344 Y216.208 Z5.100 F200.000
G1 X-3.656 Y216.208 Z5.092 F200.000
G1 X-5.656 Y216.208 Z5.081 F200.000
G1 X-7.656 Y216.208 Z5.064 F200.000
G1 X-11.656 Y216.208 Z5.015 F200.000
G1 X-13.656 Y216.208 Z4.984 F200.000
G1 X-15.656 Y216.208 Z4.945 F200.000
G1 X-16.656 Y216.208 Z4.941 F200.000
G1 X-26.656 Y216.208 Z4.941 F200.000
G1 X-26.543 Y216.144 Z4.941 F200.000
G1 X-16.663 Y216.144 Z4.941 F200.000
G1 X-15.675 Y216.144 Z4.945 F200.000
G1 X-13.699 Y216.144 Z4.983 F200.000
G1 X-11.723 Y216.144 Z5.014 F200.000
G1 X-7.771 Y216.144 Z5.063 F200.000
G1 X-5.795 Y216.144 Z5.080 F200.000
G1 X-3.819 Y216.144 Z5.091 F200.000
G1 X0.133 Y216.144 Z5.100 F200.000
G1 X3.097 Y216.144 Z5.094 F200.000
G1 X5.073 Y216.144 Z5.083 F200.000
G1 X8.037 Y216.144 Z5.059 F200.000
G1 X11.001 Y216.144 Z5.023 F200.000
G1 X15.941 Y216.144 Z4.941 F200.000
G1 X26.478 Y216.144 Z4.941 F200.000
(--Break)
G0 Z10.000
G0 X26.853 Y240.493
(part 19)
G1 X26.853 Y240.493 Z4.941 F200.000
G1 X26.718 Y240.557 Z4.941 F200.000
G1 X15.800 Y240.557 Z4.941 F200.000
G1 X13.815 Y240.557 Z4.977 F200.000
G1 X10.837 Y240.557 Z5.025 F200.000
G1 X7.859 Y240.557 Z5.060 F200.000
G1 X5.874 Y240.557 Z5.078 F200.000
G1 X2.896 Y240.557 Z5.095 F200.000
G1 X-0.082 Y240.557 Z5.100 F200.000
G1 X-3.060 Y240.557 Z5.095 F200.000
G1 X-6.037 Y240.557 Z5.078 F200.000
G1 X-8.022 Y240.557 Z5.061 F200.000
G1 X-11.000 Y240.557 Z5.025 F200.000
G1 X-13.978 Y240.557 Z4.978 F200.000
G1 X-15.963 Y240.557 Z4.941 F200.000
G1 X-26.882 Y240.557 Z4.941 F200.000
G1 X-27.042 Y240.518 Z4.941 F200.000
G1 X-26.867 Y240.493 Z4.941 F200.000
G1 X-15.924 Y240.493 Z4.941 F200.000
G1 X-13.934 Y240.493 Z4.979 F200.000
G1 X-10.950 Y240.493 Z5.026 F200.000
G1 X-7.965 Y240.493 Z5.061 F200.000
G1 X-5.976 Y240.493 Z5.079 F200.000
G1 X-2.991 Y240.493 Z5.095 F200.000
G1 X-0.007 Y240.493 Z5.100 F200.000
G1 X2.977 Y240.493 Z5.095 F200.000
G1 X5.962 Y240.493 Z5.077 F200.000
G1 X7.951 Y240.493 Z5.060 F200.000
G1 X10.936 Y240.493 Z5.024 F200.000
G1 X15.910 Y240.493 Z4.941 F200.000
G1 X26.853 Y240.493 Z4.941 F200.000
(--Break)
G0 Z10.000
G0 X27.206 Y263.475
(part 21)
G1 X27.206 Y263.475 Z4.941 F200.000
G1 X27.072 Y263.539 Z4.941 F200.000
G1 X16.192 Y263.539 Z4.941 F200.000
G1 X15.203 Y263.539 Z4.950 F200.000
G1 X11.246 Y263.539 Z5.019 F200.000
G1 X8.279 Y263.539 Z5.056 F200.000
G1 X5.312 Y263.539 Z5.082 F200.000
G1 X3.334 Y263.539 Z5.093 F200.000
G1 X0.366 Y263.539 Z5.100 F200.000
G1 X-3.590 Y263.539 Z5.092 F200.000
G1 X-5.568 Y263.539 Z5.082 F200.000
G1 X-8.535 Y263.539 Z5.056 F200.000
G1 X-11.503 Y263.539 Z5.018 F200.000
G1 X-15.459 Y263.539 Z4.949 F200.000
G1 X-16.448 Y263.539 Z4.941 F200.000
G1 X-27.328 Y263.539 Z4.941 F200.000
G1 X-27.327 Y263.475 Z4.941 F200.000
G1 X-16.421 Y263.475 Z4.941 F200.000
G1 X-15.429 Y263.475 Z4.949 F200.000
G1 X-11.463 Y263.475 Z5.019 F200.000
G1 X-8.488 Y263.475 Z5.056 F200.000
G1 X-5.514 Y263.475 Z5.082 F200.000
G1 X-3.531 Y263.475 Z5.093 F200.000
G1 X-0.556 Y263.475 Z5.100 F200.000
G1 X3.410 Y263.475 Z5.092 F200.000
G1 X5.393 Y263.475 Z5.082 F200.000
G1 X8.367 Y263.475 Z5.056 F200.000
G1 X11.342 Y263.475 Z5.018 F200.000
G1 X15.308 Y263.475 Z4.948 F200.000
G1 X16.300 Y263.475 Z4.941 F200.000
G1 X27.206 Y263.475 Z4.941 F200.000
(--Break)
G0 Z10.000
G0 X27.540 Y285.167
(part 23)
G1 X27.540 Y285.167 Z4.941 F200.000
G1 X27.406 Y285.231 Z4.941 F200.000
G1 X15.620 Y285.231 Z4.942 F200.000
G1 X14.638 Y285.231 Z4.962 F200.000
G1 X11.691 Y285.231 Z5.012 F200.000
G1 X9.727 Y285.231 Z5.039 F200.000
G1 X6.781 Y285.231 Z5.071 F200.000
G1 X3.834 Y285.231 Z5.091 F200.000
G1 X1.870 Y285.231 Z5.097 F200.000
G1 X-1.077 Y285.231 Z5.099 F200.000
G1 X-5.005 Y285.231 Z5.085 F200.000
G1 X-6.969 Y285.231 Z5.071 F200.000
G1 X-8.934 Y285.231 Z5.051 F200.000
G1 X-11.880 Y285.231 Z5.012 F200.000
G1 X-14.827 Y285.231 Z4.962 F200.000
G1 X-15.809 Y285.231 Z4.942 F200.000
G1 X-27.594 Y285.231 Z4.941 F200.000
G1 X-27.729 Y285.167 Z4.941 F200.000
G1 X-15.885 Y285.167 Z4.941 F200.000
G1 X-11.938 Y285.167 Z5.011 F200.000
G1 X-8.977 Y285.167 Z5.050 F200.000
G1 X-7.003 Y285.167 Z5.071 F200.000
G1 X-5.029 Y285.167 Z5.085 F200.000
G1 X-1.081 Y285.167 Z5.099 F200.000
G1 X1.880 Y285.167 Z5.097 F200.000
G1 X3.854 Y285.167 Z5.091 F200.000
G1 X6.814 Y285.167 Z5.071 F200.000
G1 X9.775 Y285.167 Z5.039 F200.000
G1 X11.749 Y285.167 Z5.011 F200.000
G1 X15.697 Y285.167 Z4.941 F200.000
G1 X27.540 Y285.167 Z4.941 F200.000
(--Break)
G0 Z10.000
G0 X27.855 Y305.642
(part 25)
G1 X27.855 Y305.642 Z4.941 F200.000
G1 X27.721 Y305.706 Z4.941 F200.000
G1 X15.806 Y305.706 Z4.941 F200.000
G1 X11.835 Y305.706 Z5.010 F200.000
G1 X9.849 Y305.706 Z5.038 F200.000
G1 X6.871 Y305.706 Z5.070 F200.000
G1 X3.892 Y305.706 Z5.090 F200.000
G1 X1.906 Y305.706 Z5.097 F200.000
G1 X-1.072 Y305.706 Z5.099 F200.000
G1 X-5.044 Y305.706 Z5.085 F200.000
G1 X-7.029 Y305.706 Z5.071 F200.000
G1 X-9.015 Y305.706 Z5.050 F200.000
G1 X-11.994 Y305.706 Z5.010 F200.000
G1 X-15.965 Y305.706 Z4.941 F200.000
G1 X-27.879 Y305.706 Z4.941 F200.000
G1 X-28.044 Y305.672 Z4.941 F200.000
G1 X-27.874 Y305.642 Z4.941 F200.000
G1 X-15.920 Y305.642 Z4.941 F200.000
G1 X-11.935 Y305.642 Z5.011 F200.000
G1 X-9.943 Y305.642 Z5.039 F200.000
G1 X-7.950 Y305.642 Z5.061 F200.000
G1 X-6.954 Y305.642 Z5.071 F200.000
G1 X-3.966 Y305.642 Z5.091 F200.000
G1 X-0.977 Y305.642 Z5.099 F200.000
G1 X1.015 Y305.642 Z5.099 F200.000
G1 X4.003 Y305.642 Z5.090 F200.000
G1 X6.992 Y305.642 Z5.069 F200.000
G1 X9.980 Y305.642 Z5.036 F200.000
G1 X11.973 Y305.642 Z5.008 F200.000
G1 X15.957 Y305.642 Z4.941 F200.000
G1 X27.855 Y305.642 Z4.941 F200.000
(--Break)
G0 Z10.000
G0 X28.152 Y324.968
(part 27)
G1 X28.152 Y324.968 Z4.941 F200.000
G1 X28.018 Y325.032 Z4.941 F200.000
G1 X16.186 Y325.032 Z4.941 F200.000
G1 X15.200 Y325.032 Z4.951 F200.000
G1 X12.242 Y325.032 Z5.004 F200.000
G1 X10.271 Y325.032 Z5.032 F200.000
G1 X7.313 Y325.032 Z5.066 F200.000
G1 X4.355 Y325.032 Z5.088 F200.000
G1 X3.369 Y325.032 Z5.092 F200.000
G1 X1.397 Y325.032 Z5.099 F200.000
G1 X-1.561 Y325.032 Z5.099 F200.000
G1 X-4.519 Y325.032 Z5.088 F200.000
G1 X-7.477 Y325.032 Z5.066 F200.000
G1 X-10.435 Y325.032 Z5.032 F200.000
G1 X-12.407 Y325.032 Z5.004 F200.000
G1 X-15.365 Y325.032 Z4.952 F200.000
G1 X-16.351 Y325.032 Z4.941 F200.000
G1 X-28.182 Y325.032 Z4.941 F200.000
G1 X-28.337 Y324.987 Z4.941 F200.000
G1 X-28.157 Y324.968 Z4.941 F200.000
G1 X-16.302 Y324.968 Z4.941 F200.000
G1 X-15.314 Y324.968 Z4.953 F200.000
G1 X-12.351 Y324.968 Z5.005 F200.000
G1 X-10.375 Y324.968 Z5.033 F200.000
G1 X-7.411 Y324.968 Z5.067 F200.000
G1 X-4.448 Y324.968 Z5.089 F200.000
G1 X-1.484 Y324.968 Z5.099 F200.000
G1 X1.480 Y324.968 Z5.099 F200.000
G1 X3.455 Y324.968 Z5.092 F200.000
G1 X7.407 Y324.968 Z5.065 F200.000
G1 X10.371 Y324.968 Z5.031 F200.000
G1 X12.346 Y324.968 Z5.002 F200.000
G1 X15.310 Y324.968 Z4.949 F200.000
G1 X16.298 Y324.968 Z4.941 F200.000
G1 X28.152 Y324.968 Z4.941 F200.000
(--Break)
G0 Z10.000
G0 X-28.622 Y343.209
(part 29)
G1 X-28.622 Y343.209 Z4.941 F200.000
G1 X-28.422 Y343.209 Z4.941 F200.000
G1 X-16.622 Y343.209 Z4.941 F200.000
G1 X-15.622 Y343.209 Z4.947 F200.000
G1 X-12.622 Y343.209 Z5.001 F200.000
G1 X-9.622 Y343.209 Z5.043 F200.000
G1 X-7.622 Y343.209 Z5.065 F200.000
G1 X-4.622 Y343.209 Z5.088 F200.000
G1 X-1.622 Y343.209 Z5.099 F200.000
G1 X-0.622 Y343.209 Z5.099 F200.000
G1 X1.378 Y343.209 Z5.099 F200.000
G1 X4.378 Y343.209 Z5.088 F200.000
G1 X7.378 Y343.209 Z5.065 F200.000
G1 X9.378 Y343.209 Z5.044 F200.000
G1 X12.378 Y343.209 Z5.002 F200.000
G1 X15.378 Y343.209 Z4.948 F200.000
G1 X16.378 Y343.209 Z4.941 F200.000
G1 X28.378 Y343.209 Z4.941 F200.000
G1 X28.353 Y343.273 Z4.941 F200.000
G1 X16.553 Y343.273 Z4.941 F200.000
G1 X15.553 Y343.273 Z4.944 F200.000
G1 X12.553 Y343.273 Z4.999 F200.000
G1 X10.553 Y343.273 Z5.028 F200.000
G1 X9.553 Y343.273 Z5.042 F200.000
G1 X6.553 Y343.273 Z5.072 F200.000
G1 X4.553 Y343.273 Z5.087 F200.000
G1 X1.553 Y343.273 Z5.099 F200.000
G1 X-1.447 Y343.273 Z5.099 F200.000
G1 X-4.447 Y343.273 Z5.089 F200.000
G1 X-7.447 Y343.273 Z5.066 F200.000
G1 X-10.447 Y343.273 Z5.032 F200.000
G1 X-12.447 Y343.273 Z5.003 F200.000
G1 X-15.447 Y343.273 Z4.950 F200.000
G1 X-16.447 Y343.273 Z4.941 F200.000
G1 X-28.447 Y343.273 Z4.941 F200.000
G1 X-28.622 Y343.249 Z4.941 F200.000
G1 X-28.622 Y343.209 Z4.941 F200.000
(--Break)
G0 Z10.000
G0 X28.698 Y360.426
(part 31)
G1 X28.698 Y360.426 Z4.941 F200.000
G1 X28.563 Y360.490 Z4.941 F200.000
G1 X15.708 Y360.490 Z4.941 F200.000
G1 X13.730 Y360.490 Z4.979 F200.000
G1 X10.763 Y360.490 Z5.026 F200.000
G1 X7.797 Y360.490 Z5.061 F200.000
G1 X5.819 Y360.490 Z5.078 F200.000
G1 X2.852 Y360.490 Z5.095 F200.000
G1 X-0.114 Y360.490 Z5.100 F200.000
G1 X-3.081 Y360.490 Z5.095 F200.000
G1 X-6.048 Y360.490 Z5.078 F200.000
G1 X-8.025 Y360.490 Z5.061 F200.000
G1 X-10.992 Y360.490 Z5.025 F200.000
G1 X-13.959 Y360.490 Z4.978 F200.000
G1 X-15.937 Y360.490 Z4.941 F200.000
G1 X-28.837 Y360.490 Z4.941 F200.000
G1 X-28.802 Y360.426 Z4.941 F200.000
G1 X-15.914 Y360.426 Z4.941 F200.000
G1 X-13.931 Y360.426 Z4.978 F200.000
G1 X-10.957 Y360.426 Z5.026 F200.000
G1 X-7.983 Y360.426 Z5.061 F200.000
G1 X-6.000 Y360.426 Z5.078 F200.000
G1 X-3.026 Y360.426 Z5.095 F200.000
G1 X-0.052 Y360.426 Z5.100 F200.000
G1 X2.922 Y360.426 Z5.095 F200.000
G1 X5.896 Y360.426 Z5.078 F200.000
G1 X7.879 Y360.426 Z5.061 F200.000
G1 X10.853 Y360.426 Z5.025 F200.000
G1 X15.810 Y360.426 Z4.941 F200.000
G1 X28.698 Y360.426 Z4.941 F200.000
(--Break)
G0 Z10.000
G0 X28.948 Y376.677
(part 33)
G1 X28.948 Y376.677 Z4.941 F200.000
G1 X28.813 Y376.741 Z4.941 F200.000
G1 X15.813 Y376.741 Z4.941 F200.000
G1 X10.813 Y376.741 Z5.025 F200.000
G1 X7.813 Y376.741 Z5.061 F200.000
G1 X5.813 Y376.741 Z5.078 F200.000
G1 X2.813 Y376.741 Z5.095 F200.000
G1 X-0.187 Y376.741 Z5.100 F200.000
G1 X-3.187 Y376.741 Z5.094 F200.000
G1 X-5.187 Y376.741 Z5.084 F200.000
G1 X-8.187 Y376.741 Z5.059 F200.000
G1 X-11.187 Y376.741 Z5.023 F200.000
G1 X-13.187 Y376.741 Z4.991 F200.000
G1 X-15.187 Y376.741 Z4.954 F200.000
G1 X-16.187 Y376.741 Z4.941 F200.000
G1 X-28.987 Y376.741 Z4.941 F200.000
G1 X-29.137 Y376.692 Z4.941 F200.000
G1 X-28.952 Y376.677 Z4.941 F200.000
G1 X-15.974 Y376.677 Z4.941 F200.000
G1 X-13.978 Y376.677 Z4.978 F200.000
G1 X-10.983 Y376.677 Z5.026 F200.000
G1 X-7.988 Y376.677 Z5.061 F200.000
G1 X-5.992 Y376.677 Z5.079 F200.000
G1 X-2.997 Y376.677 Z5.095 F200.000
G1 X-0.002 Y376.677 Z5.100 F200.000
G1 X2.993 Y376.677 Z5.094 F200.000
G1 X4.989 Y376.677 Z5.084 F200.000
G1 X7.984 Y376.677 Z5.060 F200.000
G1 X10.979 Y376.677 Z5.023 F200.000
G1 X12.975 Y376.677 Z4.991 F200.000
G1 X14.972 Y376.677 Z4.955 F200.000
G1 X15.970 Y376.677 Z4.941 F200.000
G1 X28.948 Y376.677 Z4.941 F200.000
(--Break)
G0 Z10.000
G0 X29.184 Y392.016
(part 35)
G1 X29.184 Y392.016 Z4.941 F200.000
G1 X29.049 Y392.080 Z4.941 F200.000
G1 X16.182 Y392.080 Z4.941 F200.000
G1 X15.192 Y392.080 Z4.951 F200.000
G1 X13.212 Y392.080 Z4.988 F200.000
G1 X11.232 Y392.080 Z5.019 F200.000
G1 X8.263 Y392.080 Z5.057 F200.000
G1 X5.293 Y392.080 Z5.082 F200.000
G1 X3.314 Y392.080 Z5.093 F200.000
G1 X0.344 Y392.080 Z5.100 F200.000
G1 X-3.615 Y392.080 Z5.092 F200.000
G1 X-5.595 Y392.080 Z5.082 F200.000
G1 X-8.564 Y392.080 Z5.055 F200.000
G1 X-11.534 Y392.080 Z5.017 F200.000
G1 X-13.513 Y392.080 Z4.986 F200.000
G1 X-15.493 Y392.080 Z4.948 F200.000
G1 X-16.483 Y392.080 Z4.941 F200.000
G1 X-29.351 Y392.080 Z4.941 F200.000
G1 X-29.260 Y392.016 Z4.941 F200.000
G1 X-16.383 Y392.016 Z4.941 F200.000
G1 X-15.392 Y392.016 Z4.950 F200.000
G1 X-13.411 Y392.016 Z4.987 F200.000
G1 X-11.430 Y392.016 Z5.019 F200.000
G1 X-8.458 Y392.016 Z5.057 F200.000
G1 X-5.486 Y392.016 Z5.082 F200.000
G1 X-3.505 Y392.016 Z5.093 F200.000
G1 X-0.533 Y392.016 Z5.100 F200.000
G1 X3.429 Y392.016 Z5.092 F200.000
G1 X5.410 Y392.016 Z5.082 F200.000
G1 X7.391 Y392.016 Z5.065 F200.000
G1 X10.363 Y392.016 Z5.031 F200.000
G1 X13.335 Y392.016 Z4.986 F200.000
G1 X15.316 Y392.016 Z4.948 F200.000
G1 X16.306 Y392.016 Z4.941 F200.000
G1 X29.184 Y392.016 Z4.941 F200.000
(--Break)
G0 Z10.000
G0 X29.407 Y406.494
(part 37)
G1 X29.407 Y406.494 Z4.941 F200.000
G1 X29.272 Y406.558 Z4.941 F200.000
G1 X16.316 Y406.558 Z4.941 F200.000
G1 X15.320 Y406.558 Z4.948 F200.000
G1 X13.326 Y406.558 Z4.986 F200.000
G1 X11.333 Y406.558 Z5.017 F200.000
G1 X8.343 Y406.558 Z5.056 F200.000
G1 X5.353 Y406.558 Z5.082 F200.000
G1 X3.360 Y406.558 Z5.093 F200.000
G1 X-0.626 Y406.558 Z5.099 F200.000
G1 X-2.619 Y406.558 Z5.096 F200.000
G1 X-5.609 Y406.558 Z5.082 F200.000
G1 X-8.599 Y406.558 Z5.055 F200.000
G1 X-11.589 Y406.558 Z5.016 F200.000
G1 X-13.582 Y406.558 Z4.985 F200.000
G1 X-15.575 Y406.558 Z4.947 F200.000
G1 X-16.572 Y406.558 Z4.941 F200.000
G1 X-29.528 Y406.558 Z4.941 F200.000
G1 X-29.528 Y406.494 Z4.941 F200.000
G1 X-16.543 Y406.494 Z4.941 F200.000
G1 X-15.544 Y406.494 Z4.947 F200.000
G1 X-13.546 Y406.494 Z4.985 F200.000
G1 X-11.548 Y406.494 Z5.017 F200.000
G1 X-8.551 Y406.494 Z5.056 F200.000
G1 X-5.555 Y406.494 Z5.082 F200.000
G1 X-2.558 Y406.494 Z5.096 F200.000
G1 X-0.560 Y406.494 Z5.100 F200.000
G1 X3.435 Y406.494 Z5.092 F200.000
G1 X5.433 Y406.494 Z5.081 F200.000
G1 X8.430 Y406.494 Z5.055 F200.000
G1 X11.426 Y406.494 Z5.016 F200.000
G1 X13.424 Y406.494 Z4.984 F200.000
G1 X15.422 Y406.494 Z4.946 F200.000
G1 X16.421 Y406.494 Z4.941 F200.000
G1 X29.407 Y406.494 Z4.941 F200.000
(--Break)
G0 Z10.000
G0 X29.617 Y420.159
(part 39)
G1 X29.617 Y420.159 Z4.941 F200.000
G1 X29.482 Y420.223 Z4.941 F200.000
G1 X15.669 Y420.223 Z4.941 F200.000
G1 X13.696 Y420.223 Z4.980 F200.000
G1 X11.722 Y420.223 Z5.011 F200.000
G1 X7.776 Y420.223 Z5.061 F200.000
G1 X5.802 Y420.223 Z5.079 F200.000
G1 X2.842 Y420.223 Z5.095 F200.000
G1 X-0.118 Y420.223 Z5.100 F200.000
G1 X-3.078 Y420.223 Z5.095 F200.000
G1 X-6.038 Y420.223 Z5.078 F200.000
G1 X-8.011 Y420.223 Z5.061 F200.000
G1 X-11.958 Y420.223 Z5.011 F200.000
G1 X-13.931 Y420.223 Z4.979 F200.000
G1 X-15.904 Y420.223 Z4.941 F200.000
G1 X-29.718 Y420.223 Z4.941 F200.000
G1 X-29.759 Y420.159 Z4.941 F200.000
G1 X-15.905 Y420.159 Z4.941 F200.000
G1 X-13.925 Y420.159 Z4.979 F200.000
G1 X-11.946 Y420.159 Z5.011 F200.000
G1 X-7.988 Y420.159 Z5.061 F200.000
G1 X-6.009 Y420.159 Z5.079 F200.000
G1 X-3.040 Y420.159 Z5.095 F200.000
G1 X-0.071 Y420.159 Z5.100 F200.000
G1 X2.898 Y420.159 Z5.095 F200.000
G1 X5.867 Y420.159 Z5.078 F200.000
G1 X7.846 Y420.159 Z5.060 F200.000
G1 X10.815 Y420.159 Z5.025 F200.000
G1 X13.783 Y420.159 Z4.978 F200.000
G1 X15.763 Y420.159 Z4.941 F200.000
G1 X29.617 Y420.159 Z4.941 F200.000
(--Break)
G0 Z10.000
G0 X29.815 Y433.057
(part 41)
G1 X29.815 Y433.057 Z4.941 F200.000
G1 X29.681 Y433.121 Z4.941 F200.000
G1 X15.774 Y433.121 Z4.941 F200.000
G1 X13.787 Y433.121 Z4.978 F200.000
G1 X10.807 Y433.121 Z5.025 F200.000
G1 X7.827 Y433.121 Z5.061 F200.000
G1 X5.841 Y433.121 Z5.078 F200.000
G1 X2.861 Y433.121 Z5.095 F200.000
G1 X-0.119 Y433.121 Z5.100 F200.000
G1 X-3.099 Y433.121 Z5.095 F200.000
G1 X-6.079 Y433.121 Z5.078 F200.000
G1 X-8.066 Y433.121 Z5.060 F200.000
G1 X-11.046 Y433.121 Z5.024 F200.000
G1 X-14.026 Y433.121 Z4.977 F200.000
G1 X-16.013 Y433.121 Z4.941 F200.000
G1 X-29.919 Y433.121 Z4.941 F200.000
G1 X-29.954 Y433.057 Z4.941 F200.000
G1 X-16.008 Y433.057 Z4.941 F200.000
G1 X-14.016 Y433.057 Z4.977 F200.000
G1 X-11.027 Y433.057 Z5.025 F200.000
G1 X-8.039 Y433.057 Z5.060 F200.000
G1 X-6.046 Y433.057 Z5.078 F200.000
G1 X-3.058 Y433.057 Z5.095 F200.000
G1 X-0.069 Y433.057 Z5.100 F200.000
G1 X2.919 Y433.057 Z5.095 F200.000
G1 X5.907 Y433.057 Z5.078 F200.000
G1 X7.900 Y433.057 Z5.060 F200.000
G1 X10.888 Y433.057 Z5.024 F200.000
G1 X15.869 Y433.057 Z4.941 F200.000
G1 X29.815 Y433.057 Z4.941 F200.000
(End of step 0.)
(End of layer 13)
(Layer 14 begins)
(Layer transition)
G0 Z10.000
G0 X30.003 Y445.231
(Begin step 0.)
G0 X30.003 Y445.231
(part 1)
G1 X30.003 Y445.231 Z4.794 F200.000
G1 X29.868 Y445.295 Z4.794 F200.000
G1 X24.268 Y445.295 Z4.794 F200.000
G1 X24.093 Y445.237 Z4.794 F200.000
G1 X24.279 Y445.231 Z4.794 F200.000
G1 X30.003 Y445.231 Z4.794 F200.000
(--Break)
G0 Z10.000
G0 X-8.084 Y445.231
(part 3)
G1 X-8.084 Y445.231 Z5.061 F200.000
G1 X-8.257 Y445.295 Z5.059 F200.000
G1 X-11.230 Y445.295 Z5.022 F200.000
G1 X-13.212 Y445.295 Z4.991 F200.000
G1 X-15.194 Y445.295 Z4.955 F200.000
G1 X-18.166 Y445.295 Z4.891 F200.000
G1 X-21.139 Y445.295 Z4.816 F200.000
G1 X-22.130 Y445.295 Z4.794 F200.000
G1 X-30.057 Y445.295 Z4.794 F200.000
G1 X-30.191 Y445.231 Z4.794 F200.000
G1 X-22.554 Y445.231 Z4.794 F200.000
G1 X-21.600 Y445.231 Z4.803 F200.000
G1 X-17.782 Y445.231 Z4.900 F200.000
G1 X-14.918 Y445.231 Z4.960 F200.000
G1 X-13.009 Y445.231 Z4.995 F200.000
G1 X-11.100 Y445.231 Z5.023 F200.000
G1 X-8.084 Y445.231 Z5.061 F200.000
(--Break)
G0 Z10.000
G0 X23.714 Y36.450
