(Exported by FreeCAD)
(Post Processor: grbl_post)
(Output Time:2024-03-09 20:30:28.249714)
(Begin preamble)
G17 G90
G21
(Begin operation: TC: 0.5mm_droite)
(Path: TC: 0.5mm_droite)
(TC: 0.5mm_droite)
(Begin toolchange)
( M6 T2 )
M3 S24000
(Finish operation: TC: 0.5mm_droite)
(Begin operation: Fixture)
(Path: Fixture)
G54
(Finish operation: Fixture)
(Begin operation: Pocket_Shape001)
(Path: Pocket_Shape001)
(Pocket_Shape001)
G0 Z12.000
G0 X13.577 Y341.895
G0 Z10.000
G1 X13.577 Y341.895 Z6.750 F60.000
G3 X13.226 Y342.249 Z6.750 I-0.370 J-0.016 K0.000 F200.000
G1 X13.189 Y342.253 Z6.750 F200.000
G3 X13.338 Y342.169 Z6.750 I0.209 J0.198 K0.000 F200.000
G2 X13.513 Y341.962 Z6.750 I-0.109 J-0.269 K0.000 F200.000
G3 X13.578 Y341.873 Z6.750 I0.232 J0.099 K0.000 F200.000
G3 X13.577 Y341.895 Z6.750 I-0.371 J0.006 K0.000 F200.000
G0 Z12.000
G0 X13.236 Y334.023 Z12.000
G0 X13.236 Y334.023 Z10.000
G1 X13.236 Y334.023 Z6.750 F60.000
G2 X13.506 Y333.757 Z6.750 I-0.238 J-0.510 K0.000 F200.000
G3 X13.578 Y333.643 Z6.750 I0.272 J0.094 K0.000 F200.000
G3 X13.236 Y334.023 Z6.750 I-0.356 J0.024 K0.000 F200.000
G0 Z12.000
G0 X21.772 Y325.938 Z12.000
G0 X21.772 Y325.938 Z10.000
G1 X21.772 Y325.938 Z6.750 F60.000
G3 X21.898 Y325.818 Z6.750 I0.255 J0.141 K0.000 F200.000
G2 X21.991 Y325.724 Z6.750 I-0.258 J-0.348 K0.000 F200.000
G1 X22.017 Y325.701 Z6.750 F200.000
G3 X21.772 Y325.938 Z6.750 I-0.402 J-0.170 K0.000 F200.000
G0 Z12.000
G0 X18.184 Y314.230 Z12.000
G0 X18.184 Y314.230 Z10.000
G1 X18.184 Y314.230 Z6.750 F60.000
G3 X18.463 Y313.954 Z6.750 I0.415 J0.141 K0.000 F200.000
G3 X18.338 Y314.073 Z6.750 I-0.251 J-0.139 K0.000 F200.000
G2 X18.236 Y314.185 Z6.750 I0.246 J0.330 K0.000 F200.000
G3 X18.184 Y314.230 Z6.750 I-0.170 J-0.142 K0.000 F200.000
G0 Z12.000
G0 X2.505 Y313.739 Z12.000
G0 X2.505 Y313.739 Z10.000
G1 X2.505 Y313.739 Z6.750 F60.000
G3 X2.209 Y313.461 Z6.750 I0.128 J-0.432 K0.000 F200.000
G2 X2.414 Y313.631 Z6.750 I1.052 J-1.068 K0.000 F200.000
G3 X2.505 Y313.739 Z6.750 I-0.208 J0.264 K0.000 F200.000
G0 Z12.000
G0 X-2.388 Y313.424 Z12.000
G0 X-2.388 Y313.424 Z10.000
G1 X-2.388 Y313.424 Z6.750 F60.000
G3 X-2.710 Y313.744 Z6.750 I-0.435 J-0.116 K0.000 F200.000
G3 X-2.568 Y313.617 Z6.750 I0.268 J0.158 K0.000 F200.000
G2 X-2.449 Y313.482 Z6.750 I-0.215 J-0.310 K0.000 F200.000
G3 X-2.388 Y313.424 Z6.750 I0.150 J0.096 K0.000 F200.000
G0 Z12.000
G0 X-18.373 Y314.236 Z12.000
G0 X-18.373 Y314.236 Z10.000
G1 X-18.373 Y314.236 Z6.750 F60.000
G3 X-18.497 Y314.107 Z6.750 I0.137 J-0.256 K0.000 F200.000
G2 X-18.608 Y314.005 Z6.750 I-0.330 J0.245 K0.000 F200.000
G3 X-18.645 Y313.964 Z6.750 I0.110 J-0.137 K0.000 F200.000
G3 X-18.373 Y314.236 Z6.750 I-0.129 J0.401 K0.000 F200.000
G0 Z12.000
G0 X-22.200 Y325.719 Z12.000
G0 X-22.200 Y325.719 Z10.000
G1 X-22.200 Y325.719 Z6.750 F60.000
G2 X-22.052 Y325.834 Z6.750 I0.986 J-1.125 K0.000 F200.000
G3 X-21.972 Y325.930 Z6.750 I-0.175 J0.227 K0.000 F200.000
G3 X-22.200 Y325.719 Z6.750 I0.144 J-0.385 K0.000 F200.000
G0 Z12.000
G0 X-13.764 Y333.663 Z12.000
G0 X-13.764 Y333.663 Z10.000
G1 X-13.764 Y333.663 Z6.750 F60.000
G3 X-13.669 Y333.816 Z6.750 I-0.384 J0.344 K0.000 F200.000
G2 X-13.524 Y333.943 Z6.750 I0.225 J-0.110 K0.000 F200.000
G3 X-13.368 Y334.028 Z6.750 I-0.059 J0.294 K0.000 F200.000
G3 X-13.501 Y334.015 Z6.750 I-0.024 J-0.431 K0.000 F200.000
G3 X-13.763 Y333.681 Z6.750 I0.091 J-0.341 K0.000 F200.000
G1 X-13.764 Y333.663 Z6.750 F200.000
G0 Z12.000
G0 X-13.763 Y341.890 Z12.000
G0 X-13.763 Y341.890 Z10.000
G1 X-13.763 Y341.890 Z6.750 F60.000
G3 X-13.672 Y342.037 Z6.750 I-0.293 J0.282 K0.000 F200.000
G2 X-13.527 Y342.169 Z6.750 I0.227 J-0.104 K0.000 F200.000
G3 X-13.374 Y342.255 Z6.750 I-0.064 J0.294 K0.000 F200.000
G3 X-13.763 Y341.890 Z6.750 I-0.017 J-0.372 K0.000 F200.000
G1 X-13.763 Y341.890 Z6.500 F60.000
G3 X-13.672 Y342.037 Z6.500 I-0.293 J0.282 K0.000 F200.000
G2 X-13.527 Y342.169 Z6.500 I0.227 J-0.104 K0.000 F200.000
G3 X-13.374 Y342.255 Z6.500 I-0.064 J0.294 K0.000 F200.000
G3 X-13.763 Y341.890 Z6.500 I-0.017 J-0.372 K0.000 F200.000
G0 Z12.000
G0 X-13.411 Y334.028 Z12.000
G0 X-13.411 Y334.028 Z10.000
G1 X-13.411 Y334.028 Z6.500 F60.000
G3 X-13.501 Y334.015 Z6.500 I0.019 J-0.431 K0.000 F200.000
G3 X-13.763 Y333.681 Z6.500 I0.091 J-0.341 K0.000 F200.000
G1 X-13.764 Y333.663 Z6.500 F200.000
G3 X-13.669 Y333.816 Z6.500 I-0.384 J0.344 K0.000 F200.000
G2 X-13.524 Y333.943 Z6.500 I0.225 J-0.110 K0.000 F200.000
G3 X-13.368 Y334.028 Z6.500 I-0.059 J0.294 K0.000 F200.000
G3 X-13.411 Y334.028 Z6.500 I-0.024 J-0.431 K0.000 F200.000
G0 Z12.000
G0 X-21.972 Y325.930 Z12.000
G0 X-21.972 Y325.930 Z10.000
G1 X-21.972 Y325.930 Z6.500 F60.000
G3 X-22.200 Y325.719 Z6.500 I0.144 J-0.385 K0.000 F200.000
G2 X-22.052 Y325.834 Z6.500 I0.986 J-1.125 K0.000 F200.000
G3 X-21.972 Y325.930 Z6.500 I-0.175 J0.227 K0.000 F200.000
G0 Z12.000
G0 X-18.373 Y314.236 Z12.000
G0 X-18.373 Y314.236 Z10.000
G1 X-18.373 Y314.236 Z6.500 F60.000
G3 X-18.497 Y314.107 Z6.500 I0.137 J-0.256 K0.000 F200.000
G2 X-18.608 Y314.005 Z6.500 I-0.330 J0.245 K0.000 F200.000
G3 X-18.645 Y313.964 Z6.500 I0.110 J-0.137 K0.000 F200.000
G3 X-18.373 Y314.236 Z6.500 I-0.129 J0.401 K0.000 F200.000
G0 Z12.000
G0 X-2.710 Y313.744 Z12.000
G0 X-2.710 Y313.744 Z10.000
G1 X-2.710 Y313.744 Z6.500 F60.000
G3 X-2.568 Y313.617 Z6.500 I0.268 J0.158 K0.000 F200.000
G2 X-2.449 Y313.482 Z6.500 I-0.215 J-0.310 K0.000 F200.000
G3 X-2.388 Y313.424 Z6.500 I0.150 J0.096 K0.000 F200.000
G3 X-2.710 Y313.744 Z6.500 I-0.435 J-0.116 K0.000 F200.000
G0 Z12.000
G0 X2.209 Y313.461 Z12.000
G0 X2.209 Y313.461 Z10.000
G1 X2.209 Y313.461 Z6.500 F60.000
G2 X2.414 Y313.631 Z6.500 I1.052 J-1.068 K0.000 F200.000
G3 X2.505 Y313.739 Z6.500 I-0.208 J0.264 K0.000 F200.000
G3 X2.209 Y313.461 Z6.500 I0.128 J-0.432 K0.000 F200.000
G0 Z12.000
G0 X18.184 Y314.230 Z12.000
G0 X18.184 Y314.230 Z10.000
G1 X18.184 Y314.230 Z6.500 F60.000
G3 X18.463 Y313.954 Z6.500 I0.415 J0.141 K0.000 F200.000
G3 X18.338 Y314.073 Z6.500 I-0.251 J-0.139 K0.000 F200.000
G2 X18.236 Y314.185 Z6.500 I0.246 J0.330 K0.000 F200.000
G3 X18.184 Y314.230 Z6.500 I-0.170 J-0.142 K0.000 F200.000
G0 Z12.000
G0 X22.017 Y325.701 Z12.000
G0 X22.017 Y325.701 Z10.000
G1 X22.017 Y325.701 Z6.500 F60.000
G3 X21.772 Y325.938 Z6.500 I-0.402 J-0.170 K0.000 F200.000
G3 X21.898 Y325.818 Z6.500 I0.255 J0.141 K0.000 F200.000
G2 X21.991 Y325.724 Z6.500 I-0.258 J-0.348 K0.000 F200.000
G1 X22.017 Y325.701 Z6.500 F200.000
G0 Z12.000
G0 X13.578 Y333.643 Z12.000
G0 X13.578 Y333.643 Z10.000
G1 X13.578 Y333.643 Z6.500 F60.000
G3 X13.236 Y334.023 Z6.500 I-0.356 J0.024 K0.000 F200.000
G2 X13.506 Y333.757 Z6.500 I-0.238 J-0.510 K0.000 F200.000
G3 X13.578 Y333.643 Z6.500 I0.272 J0.094 K0.000 F200.000
G0 Z12.000
G0 X13.578 Y341.873 Z12.000
G0 X13.578 Y341.873 Z10.000
G1 X13.578 Y341.873 Z6.500 F60.000
G3 X13.226 Y342.249 Z6.500 I-0.371 J0.006 K0.000 F200.000
G1 X13.189 Y342.253 Z6.500 F200.000
G3 X13.338 Y342.169 Z6.500 I0.209 J0.198 K0.000 F200.000
G2 X13.513 Y341.962 Z6.500 I-0.109 J-0.269 K0.000 F200.000
G3 X13.578 Y341.873 Z6.500 I0.232 J0.099 K0.000 F200.000
G1 X13.578 Y341.873 Z6.250 F60.000
G3 X13.226 Y342.249 Z6.250 I-0.371 J0.006 K0.000 F200.000
G1 X13.189 Y342.253 Z6.250 F200.000
G3 X13.338 Y342.169 Z6.250 I0.209 J0.198 K0.000 F200.000
G2 X13.513 Y341.962 Z6.250 I-0.109 J-0.269 K0.000 F200.000
G3 X13.578 Y341.873 Z6.250 I0.232 J0.099 K0.000 F200.000
G0 Z12.000
G0 X13.236 Y334.023 Z12.000
G0 X13.236 Y334.023 Z10.000
G1 X13.236 Y334.023 Z6.250 F60.000
G2 X13.506 Y333.757 Z6.250 I-0.238 J-0.510 K0.000 F200.000
G3 X13.578 Y333.643 Z6.250 I0.272 J0.094 K0.000 F200.000
G3 X13.236 Y334.023 Z6.250 I-0.356 J0.024 K0.000 F200.000
G0 Z12.000
G0 X21.772 Y325.938 Z12.000
G0 X21.772 Y325.938 Z10.000
G1 X21.772 Y325.938 Z6.250 F60.000
G3 X21.898 Y325.818 Z6.250 I0.255 J0.141 K0.000 F200.000
G2 X21.991 Y325.724 Z6.250 I-0.258 J-0.348 K0.000 F200.000
G1 X22.017 Y325.701 Z6.250 F200.000
G3 X21.772 Y325.938 Z6.250 I-0.402 J-0.170 K0.000 F200.000
G0 Z12.000
G0 X18.184 Y314.230 Z12.000
G0 X18.184 Y314.230 Z10.000
G1 X18.184 Y314.230 Z6.250 F60.000
G3 X18.463 Y313.954 Z6.250 I0.415 J0.141 K0.000 F200.000
G3 X18.338 Y314.073 Z6.250 I-0.251 J-0.139 K0.000 F200.000
G2 X18.236 Y314.185 Z6.250 I0.246 J0.330 K0.000 F200.000
G3 X18.184 Y314.230 Z6.250 I-0.170 J-0.142 K0.000 F200.000
G0 Z12.000
G0 X2.505 Y313.739 Z12.000
G0 X2.505 Y313.739 Z10.000
G1 X2.505 Y313.739 Z6.250 F60.000
G3 X2.209 Y313.461 Z6.250 I0.128 J-0.432 K0.000 F200.000
G2 X2.414 Y313.631 Z6.250 I1.052 J-1.068 K0.000 F200.000
G3 X2.505 Y313.739 Z6.250 I-0.208 J0.264 K0.000 F200.000
G0 Z12.000
G0 X-2.388 Y313.424 Z12.000
G0 X-2.388 Y313.424 Z10.000
G1 X-2.388 Y313.424 Z6.250 F60.000
G3 X-2.710 Y313.744 Z6.250 I-0.435 J-0.116 K0.000 F200.000
G3 X-2.568 Y313.617 Z6.250 I0.268 J0.158 K0.000 F200.000
G2 X-2.449 Y313.482 Z6.250 I-0.215 J-0.310 K0.000 F200.000
G3 X-2.388 Y313.424 Z6.250 I0.150 J0.096 K0.000 F200.000
G0 Z12.000
G0 X-18.373 Y314.236 Z12.000
G0 X-18.373 Y314.236 Z10.000
G1 X-18.373 Y314.236 Z6.250 F60.000
G3 X-18.497 Y314.107 Z6.250 I0.137 J-0.256 K0.000 F200.000
G2 X-18.608 Y314.005 Z6.250 I-0.330 J0.245 K0.000 F200.000
G3 X-18.645 Y313.964 Z6.250 I0.110 J-0.137 K0.000 F200.000
G3 X-18.373 Y314.236 Z6.250 I-0.129 J0.401 K0.000 F200.000
G0 Z12.000
G0 X-22.200 Y325.719 Z12.000
G0 X-22.200 Y325.719 Z10.000
G1 X-22.200 Y325.719 Z6.250 F60.000
G2 X-22.052 Y325.834 Z6.250 I0.986 J-1.125 K0.000 F200.000
G3 X-21.972 Y325.930 Z6.250 I-0.175 J0.227 K0.000 F200.000
G3 X-22.200 Y325.719 Z6.250 I0.144 J-0.385 K0.000 F200.000
G0 Z12.000
G0 X-13.764 Y333.663 Z12.000
G0 X-13.764 Y333.663 Z10.000
G1 X-13.764 Y333.663 Z6.250 F60.000
G3 X-13.669 Y333.816 Z6.250 I-0.384 J0.344 K0.000 F200.000
G2 X-13.524 Y333.943 Z6.250 I0.225 J-0.110 K0.000 F200.000
G3 X-13.368 Y334.028 Z6.250 I-0.059 J0.294 K0.000 F200.000
G3 X-13.501 Y334.015 Z6.250 I-0.024 J-0.431 K0.000 F200.000
G3 X-13.763 Y333.681 Z6.250 I0.091 J-0.341 K0.000 F200.000
G1 X-13.764 Y333.663 Z6.250 F200.000
G0 Z12.000
G0 X-13.763 Y341.890 Z12.000
G0 X-13.763 Y341.890 Z10.000
G1 X-13.763 Y341.890 Z6.250 F60.000
G3 X-13.672 Y342.037 Z6.250 I-0.293 J0.282 K0.000 F200.000
G2 X-13.527 Y342.169 Z6.250 I0.227 J-0.104 K0.000 F200.000
G3 X-13.374 Y342.255 Z6.250 I-0.064 J0.294 K0.000 F200.000
G3 X-13.763 Y341.890 Z6.250 I-0.017 J-0.372 K0.000 F200.000
G1 X-13.763 Y341.890 Z6.000 F60.000
G3 X-13.672 Y342.037 Z6.000 I-0.293 J0.282 K0.000 F200.000
G2 X-13.527 Y342.169 Z6.000 I0.227 J-0.104 K0.000 F200.000
G3 X-13.374 Y342.255 Z6.000 I-0.064 J0.294 K0.000 F200.000
G3 X-13.763 Y341.890 Z6.000 I-0.017 J-0.372 K0.000 F200.000
G0 Z12.000
G0 X-13.411 Y334.028 Z12.000
G0 X-13.411 Y334.028 Z10.000
G1 X-13.411 Y334.028 Z6.000 F60.000
G3 X-13.501 Y334.015 Z6.000 I0.019 J-0.431 K0.000 F200.000
G3 X-13.763 Y333.681 Z6.000 I0.091 J-0.341 K0.000 F200.000
G1 X-13.764 Y333.663 Z6.000 F200.000
G3 X-13.669 Y333.816 Z6.000 I-0.384 J0.344 K0.000 F200.000
G2 X-13.524 Y333.943 Z6.000 I0.225 J-0.110 K0.000 F200.000
G3 X-13.368 Y334.028 Z6.000 I-0.059 J0.294 K0.000 F200.000
G3 X-13.411 Y334.028 Z6.000 I-0.024 J-0.431 K0.000 F200.000
G0 Z12.000
G0 X-21.972 Y325.930 Z12.000
G0 X-21.972 Y325.930 Z10.000
G1 X-21.972 Y325.930 Z6.000 F60.000
G3 X-22.200 Y325.719 Z6.000 I0.144 J-0.385 K0.000 F200.000
G2 X-22.052 Y325.834 Z6.000 I0.986 J-1.125 K0.000 F200.000
G3 X-21.972 Y325.930 Z6.000 I-0.175 J0.227 K0.000 F200.000
G0 Z12.000
G0 X-18.373 Y314.236 Z12.000
G0 X-18.373 Y314.236 Z10.000
G1 X-18.373 Y314.236 Z6.000 F60.000
G3 X-18.497 Y314.107 Z6.000 I0.137 J-0.256 K0.000 F200.000
G2 X-18.608 Y314.005 Z6.000 I-0.330 J0.245 K0.000 F200.000
G3 X-18.645 Y313.964 Z6.000 I0.110 J-0.137 K0.000 F200.000
G3 X-18.373 Y314.236 Z6.000 I-0.129 J0.401 K0.000 F200.000
G0 Z12.000
G0 X-2.710 Y313.744 Z12.000
G0 X-2.710 Y313.744 Z10.000
G1 X-2.710 Y313.744 Z6.000 F60.000
G3 X-2.568 Y313.617 Z6.000 I0.268 J0.158 K0.000 F200.000
G2 X-2.449 Y313.482 Z6.000 I-0.215 J-0.310 K0.000 F200.000
G3 X-2.388 Y313.424 Z6.000 I0.150 J0.096 K0.000 F200.000
G3 X-2.710 Y313.744 Z6.000 I-0.435 J-0.116 K0.000 F200.000
G0 Z12.000
G0 X2.209 Y313.461 Z12.000
G0 X2.209 Y313.461 Z10.000
G1 X2.209 Y313.461 Z6.000 F60.000
G2 X2.414 Y313.631 Z6.000 I1.052 J-1.068 K0.000 F200.000
G3 X2.505 Y313.739 Z6.000 I-0.208 J0.264 K0.000 F200.000
G3 X2.209 Y313.461 Z6.000 I0.128 J-0.432 K0.000 F200.000
G0 Z12.000
G0 X18.184 Y314.230 Z12.000
G0 X18.184 Y314.230 Z10.000
G1 X18.184 Y314.230 Z6.000 F60.000
G3 X18.463 Y313.954 Z6.000 I0.415 J0.141 K0.000 F200.000
G3 X18.338 Y314.073 Z6.000 I-0.251 J-0.139 K0.000 F200.000
G2 X18.236 Y314.185 Z6.000 I0.246 J0.330 K0.000 F200.000
G3 X18.184 Y314.230 Z6.000 I-0.170 J-0.142 K0.000 F200.000
G0 Z12.000
G0 X22.017 Y325.701 Z12.000
G0 X22.017 Y325.701 Z10.000
G1 X22.017 Y325.701 Z6.000 F60.000
G3 X21.772 Y325.938 Z6.000 I-0.402 J-0.170 K0.000 F200.000
G3 X21.898 Y325.818 Z6.000 I0.255 J0.141 K0.000 F200.000
G2 X21.991 Y325.724 Z6.000 I-0.258 J-0.348 K0.000 F200.000
G1 X22.017 Y325.701 Z6.000 F200.000
G0 Z12.000
G0 X13.578 Y333.643 Z12.000
G0 X13.578 Y333.643 Z10.000
G1 X13.578 Y333.643 Z6.000 F60.000
G3 X13.236 Y334.023 Z6.000 I-0.356 J0.024 K0.000 F200.000
G2 X13.506 Y333.757 Z6.000 I-0.238 J-0.510 K0.000 F200.000
G3 X13.578 Y333.643 Z6.000 I0.272 J0.094 K0.000 F200.000
G0 Z12.000
G0 X13.578 Y341.873 Z12.000
G0 X13.578 Y341.873 Z10.000
G1 X13.578 Y341.873 Z6.000 F60.000
G3 X13.226 Y342.249 Z6.000 I-0.371 J0.006 K0.000 F200.000
G1 X13.189 Y342.253 Z6.000 F200.000
G3 X13.338 Y342.169 Z6.000 I0.209 J0.198 K0.000 F200.000
G2 X13.513 Y341.962 Z6.000 I-0.109 J-0.269 K0.000 F200.000
G3 X13.578 Y341.873 Z6.000 I0.232 J0.099 K0.000 F200.000
G1 X13.578 Y341.873 Z5.750 F60.000
G3 X13.226 Y342.249 Z5.750 I-0.371 J0.006 K0.000 F200.000
G1 X13.189 Y342.253 Z5.750 F200.000
G3 X13.338 Y342.169 Z5.750 I0.209 J0.198 K0.000 F200.000
G2 X13.513 Y341.962 Z5.750 I-0.109 J-0.269 K0.000 F200.000
G3 X13.578 Y341.873 Z5.750 I0.232 J0.099 K0.000 F200.000
G0 Z12.000
G0 X13.236 Y334.023 Z12.000
G0 X13.236 Y334.023 Z10.000
G1 X13.236 Y334.023 Z5.750 F60.000
G2 X13.506 Y333.757 Z5.750 I-0.238 J-0.510 K0.000 F200.000
G3 X13.578 Y333.643 Z5.750 I0.272 J0.094 K0.000 F200.000
G3 X13.236 Y334.023 Z5.750 I-0.356 J0.024 K0.000 F200.000
G0 Z12.000
G0 X21.772 Y325.938 Z12.000
G0 X21.772 Y325.938 Z10.000
G1 X21.772 Y325.938 Z5.750 F60.000
G3 X21.898 Y325.818 Z5.750 I0.255 J0.141 K0.000 F200.000
G2 X21.991 Y325.724 Z5.750 I-0.258 J-0.348 K0.000 F200.000
G1 X22.017 Y325.701 Z5.750 F200.000
G3 X21.772 Y325.938 Z5.750 I-0.402 J-0.170 K0.000 F200.000
G0 Z12.000
G0 X18.184 Y314.230 Z12.000
G0 X18.184 Y314.230 Z10.000
G1 X18.184 Y314.230 Z5.750 F60.000
G3 X18.463 Y313.954 Z5.750 I0.415 J0.141 K0.000 F200.000
G3 X18.338 Y314.073 Z5.750 I-0.251 J-0.139 K0.000 F200.000
G2 X18.236 Y314.185 Z5.750 I0.246 J0.330 K0.000 F200.000
G3 X18.184 Y314.230 Z5.750 I-0.170 J-0.142 K0.000 F200.000
G0 Z12.000
G0 X2.505 Y313.739 Z12.000
G0 X2.505 Y313.739 Z10.000
G1 X2.505 Y313.739 Z5.750 F60.000
G3 X2.209 Y313.461 Z5.750 I0.128 J-0.432 K0.000 F200.000
G2 X2.414 Y313.631 Z5.750 I1.052 J-1.068 K0.000 F200.000
G3 X2.505 Y313.739 Z5.750 I-0.208 J0.264 K0.000 F200.000
G0 Z12.000
G0 X-2.388 Y313.424 Z12.000
G0 X-2.388 Y313.424 Z10.000
G1 X-2.388 Y313.424 Z5.750 F60.000
G3 X-2.710 Y313.744 Z5.750 I-0.435 J-0.116 K0.000 F200.000
G3 X-2.568 Y313.617 Z5.750 I0.268 J0.158 K0.000 F200.000
G2 X-2.449 Y313.482 Z5.750 I-0.215 J-0.310 K0.000 F200.000
G3 X-2.388 Y313.424 Z5.750 I0.150 J0.096 K0.000 F200.000
G0 Z12.000
G0 X-18.373 Y314.236 Z12.000
G0 X-18.373 Y314.236 Z10.000
G1 X-18.373 Y314.236 Z5.750 F60.000
G3 X-18.497 Y314.107 Z5.750 I0.137 J-0.256 K0.000 F200.000
G2 X-18.608 Y314.005 Z5.750 I-0.330 J0.245 K0.000 F200.000
G3 X-18.645 Y313.964 Z5.750 I0.110 J-0.137 K0.000 F200.000
G3 X-18.373 Y314.236 Z5.750 I-0.129 J0.401 K0.000 F200.000
G0 Z12.000
G0 X-22.200 Y325.719 Z12.000
G0 X-22.200 Y325.719 Z10.000
G1 X-22.200 Y325.719 Z5.750 F60.000
G2 X-22.052 Y325.834 Z5.750 I0.986 J-1.125 K0.000 F200.000
G3 X-21.972 Y325.930 Z5.750 I-0.175 J0.227 K0.000 F200.000
G3 X-22.200 Y325.719 Z5.750 I0.144 J-0.385 K0.000 F200.000
G0 Z12.000
G0 X-13.764 Y333.663 Z12.000
G0 X-13.764 Y333.663 Z10.000
G1 X-13.764 Y333.663 Z5.750 F60.000
G3 X-13.669 Y333.816 Z5.750 I-0.384 J0.344 K0.000 F200.000
G2 X-13.524 Y333.943 Z5.750 I0.225 J-0.110 K0.000 F200.000
G3 X-13.368 Y334.028 Z5.750 I-0.059 J0.294 K0.000 F200.000
G3 X-13.501 Y334.015 Z5.750 I-0.024 J-0.431 K0.000 F200.000
G3 X-13.763 Y333.681 Z5.750 I0.091 J-0.341 K0.000 F200.000
G1 X-13.764 Y333.663 Z5.750 F200.000
G0 Z12.000
G0 X-13.763 Y341.890 Z12.000
G0 X-13.763 Y341.890 Z10.000
G1 X-13.763 Y341.890 Z5.750 F60.000
G3 X-13.672 Y342.037 Z5.750 I-0.293 J0.282 K0.000 F200.000
G2 X-13.527 Y342.169 Z5.750 I0.227 J-0.104 K0.000 F200.000
G3 X-13.374 Y342.255 Z5.750 I-0.064 J0.294 K0.000 F200.000
G3 X-13.763 Y341.890 Z5.750 I-0.017 J-0.372 K0.000 F200.000
G1 X-13.763 Y341.890 Z5.500 F60.000
G3 X-13.672 Y342.037 Z5.500 I-0.293 J0.282 K0.000 F200.000
G2 X-13.527 Y342.169 Z5.500 I0.227 J-0.104 K0.000 F200.000
G3 X-13.374 Y342.255 Z5.500 I-0.064 J0.294 K0.000 F200.000
G3 X-13.763 Y341.890 Z5.500 I-0.017 J-0.372 K0.000 F200.000
G0 Z12.000
G0 X-13.411 Y334.028 Z12.000
G0 X-13.411 Y334.028 Z10.000
G1 X-13.411 Y334.028 Z5.500 F60.000
G3 X-13.501 Y334.015 Z5.500 I0.019 J-0.431 K0.000 F200.000
G3 X-13.763 Y333.681 Z5.500 I0.091 J-0.341 K0.000 F200.000
G1 X-13.764 Y333.663 Z5.500 F200.000
G3 X-13.669 Y333.816 Z5.500 I-0.384 J0.344 K0.000 F200.000
G2 X-13.524 Y333.943 Z5.500 I0.225 J-0.110 K0.000 F200.000
G3 X-13.368 Y334.028 Z5.500 I-0.059 J0.294 K0.000 F200.000
G3 X-13.411 Y334.028 Z5.500 I-0.024 J-0.431 K0.000 F200.000
G0 Z12.000
G0 X-21.972 Y325.930 Z12.000
G0 X-21.972 Y325.930 Z10.000
G1 X-21.972 Y325.930 Z5.500 F60.000
G3 X-22.200 Y325.719 Z5.500 I0.144 J-0.385 K0.000 F200.000
G2 X-22.052 Y325.834 Z5.500 I0.986 J-1.125 K0.000 F200.000
G3 X-21.972 Y325.930 Z5.500 I-0.175 J0.227 K0.000 F200.000
G0 Z12.000
G0 X-18.373 Y314.236 Z12.000
G0 X-18.373 Y314.236 Z10.000
G1 X-18.373 Y314.236 Z5.500 F60.000
G3 X-18.497 Y314.107 Z5.500 I0.137 J-0.256 K0.000 F200.000
G2 X-18.608 Y314.005 Z5.500 I-0.330 J0.245 K0.000 F200.000
G3 X-18.645 Y313.964 Z5.500 I0.110 J-0.137 K0.000 F200.000
G3 X-18.373 Y314.236 Z5.500 I-0.129 J0.401 K0.000 F200.000
G0 Z12.000
G0 X-2.710 Y313.744 Z12.000
G0 X-2.710 Y313.744 Z10.000
G1 X-2.710 Y313.744 Z5.500 F60.000
G3 X-2.568 Y313.617 Z5.500 I0.268 J0.158 K0.000 F200.000
G2 X-2.449 Y313.482 Z5.500 I-0.215 J-0.310 K0.000 F200.000
G3 X-2.388 Y313.424 Z5.500 I0.150 J0.096 K0.000 F200.000
G3 X-2.710 Y313.744 Z5.500 I-0.435 J-0.116 K0.000 F200.000
G0 Z12.000
G0 X2.209 Y313.461 Z12.000
G0 X2.209 Y313.461 Z10.000
G1 X2.209 Y313.461 Z5.500 F60.000
G2 X2.414 Y313.631 Z5.500 I1.052 J-1.068 K0.000 F200.000
G3 X2.505 Y313.739 Z5.500 I-0.208 J0.264 K0.000 F200.000
G3 X2.209 Y313.461 Z5.500 I0.128 J-0.432 K0.000 F200.000
G0 Z12.000
G0 X18.184 Y314.230 Z12.000
G0 X18.184 Y314.230 Z10.000
G1 X18.184 Y314.230 Z5.500 F60.000
G3 X18.463 Y313.954 Z5.500 I0.415 J0.141 K0.000 F200.000
G3 X18.338 Y314.073 Z5.500 I-0.251 J-0.139 K0.000 F200.000
G2 X18.236 Y314.185 Z5.500 I0.246 J0.330 K0.000 F200.000
G3 X18.184 Y314.230 Z5.500 I-0.170 J-0.142 K0.000 F200.000
G0 Z12.000
G0 X22.017 Y325.701 Z12.000
G0 X22.017 Y325.701 Z10.000
G1 X22.017 Y325.701 Z5.500 F60.000
G3 X21.772 Y325.938 Z5.500 I-0.402 J-0.170 K0.000 F200.000
G3 X21.898 Y325.818 Z5.500 I0.255 J0.141 K0.000 F200.000
G2 X21.991 Y325.724 Z5.500 I-0.258 J-0.348 K0.000 F200.000
G1 X22.017 Y325.701 Z5.500 F200.000
G0 Z12.000
G0 X13.578 Y333.643 Z12.000
G0 X13.578 Y333.643 Z10.000
G1 X13.578 Y333.643 Z5.500 F60.000
G3 X13.236 Y334.023 Z5.500 I-0.356 J0.024 K0.000 F200.000
G2 X13.506 Y333.757 Z5.500 I-0.238 J-0.510 K0.000 F200.000
G3 X13.578 Y333.643 Z5.500 I0.272 J0.094 K0.000 F200.000
G0 Z12.000
G0 X13.578 Y341.873 Z12.000
G0 X13.578 Y341.873 Z10.000
G1 X13.578 Y341.873 Z5.500 F60.000
G3 X13.226 Y342.249 Z5.500 I-0.371 J0.006 K0.000 F200.000
G1 X13.189 Y342.253 Z5.500 F200.000
G3 X13.338 Y342.169 Z5.500 I0.209 J0.198 K0.000 F200.000
G2 X13.513 Y341.962 Z5.500 I-0.109 J-0.269 K0.000 F200.000
G3 X13.578 Y341.873 Z5.500 I0.232 J0.099 K0.000 F200.000
G1 X13.578 Y341.873 Z5.250 F60.000
G3 X13.226 Y342.249 Z5.250 I-0.371 J0.006 K0.000 F200.000
G1 X13.189 Y342.253 Z5.250 F200.000
G3 X13.338 Y342.169 Z5.250 I0.209 J0.198 K0.000 F200.000
G2 X13.513 Y341.962 Z5.250 I-0.109 J-0.269 K0.000 F200.000
G3 X13.578 Y341.873 Z5.250 I0.232 J0.099 K0.000 F200.000
G0 Z12.000
G0 X13.236 Y334.023 Z12.000
G0 X13.236 Y334.023 Z10.000
G1 X13.236 Y334.023 Z5.250 F60.000
G2 X13.506 Y333.757 Z5.250 I-0.238 J-0.510 K0.000 F200.000
G3 X13.578 Y333.643 Z5.250 I0.272 J0.094 K0.000 F200.000
G3 X13.236 Y334.023 Z5.250 I-0.356 J0.024 K0.000 F200.000
G0 Z12.000
G0 X21.772 Y325.938 Z12.000
G0 X21.772 Y325.938 Z10.000
G1 X21.772 Y325.938 Z5.250 F60.000
G3 X21.898 Y325.818 Z5.250 I0.255 J0.141 K0.000 F200.000
G2 X21.991 Y325.724 Z5.250 I-0.258 J-0.348 K0.000 F200.000
G1 X22.017 Y325.701 Z5.250 F200.000
G3 X21.772 Y325.938 Z5.250 I-0.402 J-0.170 K0.000 F200.000
G0 Z12.000
G0 X18.184 Y314.230 Z12.000
G0 X18.184 Y314.230 Z10.000
G1 X18.184 Y314.230 Z5.250 F60.000
G3 X18.463 Y313.954 Z5.250 I0.415 J0.141 K0.000 F200.000
G3 X18.338 Y314.073 Z5.250 I-0.251 J-0.139 K0.000 F200.000
G2 X18.236 Y314.185 Z5.250 I0.246 J0.330 K0.000 F200.000
G3 X18.184 Y314.230 Z5.250 I-0.170 J-0.142 K0.000 F200.000
G0 Z12.000
G0 X2.505 Y313.739 Z12.000
G0 X2.505 Y313.739 Z10.000
G1 X2.505 Y313.739 Z5.250 F60.000
G3 X2.209 Y313.461 Z5.250 I0.128 J-0.432 K0.000 F200.000
G2 X2.414 Y313.631 Z5.250 I1.052 J-1.068 K0.000 F200.000
G3 X2.505 Y313.739 Z5.250 I-0.208 J0.264 K0.000 F200.000
G0 Z12.000
G0 X-2.388 Y313.424 Z12.000
G0 X-2.388 Y313.424 Z10.000
G1 X-2.388 Y313.424 Z5.250 F60.000
G3 X-2.710 Y313.744 Z5.250 I-0.435 J-0.116 K0.000 F200.000
G3 X-2.568 Y313.617 Z5.250 I0.268 J0.158 K0.000 F200.000
G2 X-2.449 Y313.482 Z5.250 I-0.215 J-0.310 K0.000 F200.000
G3 X-2.388 Y313.424 Z5.250 I0.150 J0.096 K0.000 F200.000
G0 Z12.000
G0 X-18.373 Y314.236 Z12.000
G0 X-18.373 Y314.236 Z10.000
G1 X-18.373 Y314.236 Z5.250 F60.000
G3 X-18.497 Y314.107 Z5.250 I0.137 J-0.256 K0.000 F200.000
G2 X-18.608 Y314.005 Z5.250 I-0.330 J0.245 K0.000 F200.000
G3 X-18.645 Y313.964 Z5.250 I0.110 J-0.137 K0.000 F200.000
G3 X-18.373 Y314.236 Z5.250 I-0.129 J0.401 K0.000 F200.000
G0 Z12.000
G0 X-22.200 Y325.719 Z12.000
G0 X-22.200 Y325.719 Z10.000
G1 X-22.200 Y325.719 Z5.250 F60.000
G2 X-22.052 Y325.834 Z5.250 I0.986 J-1.125 K0.000 F200.000
G3 X-21.972 Y325.930 Z5.250 I-0.175 J0.227 K0.000 F200.000
G3 X-22.200 Y325.719 Z5.250 I0.144 J-0.385 K0.000 F200.000
G0 Z12.000
G0 X-13.764 Y333.663 Z12.000
G0 X-13.764 Y333.663 Z10.000
G1 X-13.764 Y333.663 Z5.250 F60.000
G3 X-13.669 Y333.816 Z5.250 I-0.384 J0.344 K0.000 F200.000
G2 X-13.524 Y333.943 Z5.250 I0.225 J-0.110 K0.000 F200.000
G3 X-13.368 Y334.028 Z5.250 I-0.059 J0.294 K0.000 F200.000
G3 X-13.501 Y334.015 Z5.250 I-0.024 J-0.431 K0.000 F200.000
G3 X-13.763 Y333.681 Z5.250 I0.091 J-0.341 K0.000 F200.000
G1 X-13.764 Y333.663 Z5.250 F200.000
G0 Z12.000
G0 X-13.763 Y341.890 Z12.000
G0 X-13.763 Y341.890 Z10.000
G1 X-13.763 Y341.890 Z5.250 F60.000
G3 X-13.672 Y342.037 Z5.250 I-0.293 J0.282 K0.000 F200.000
G2 X-13.527 Y342.169 Z5.250 I0.227 J-0.104 K0.000 F200.000
G3 X-13.374 Y342.255 Z5.250 I-0.064 J0.294 K0.000 F200.000
G3 X-13.763 Y341.890 Z5.250 I-0.017 J-0.372 K0.000 F200.000
G1 X-13.763 Y341.890 Z5.000 F60.000
G3 X-13.672 Y342.037 Z5.000 I-0.293 J0.282 K0.000 F200.000
G2 X-13.527 Y342.169 Z5.000 I0.227 J-0.104 K0.000 F200.000
G3 X-13.374 Y342.255 Z5.000 I-0.064 J0.294 K0.000 F200.000
G3 X-13.763 Y341.890 Z5.000 I-0.017 J-0.372 K0.000 F200.000
G0 Z12.000
G0 X-13.411 Y334.028 Z12.000
G0 X-13.411 Y334.028 Z10.000
G1 X-13.411 Y334.028 Z5.000 F60.000
G3 X-13.501 Y334.015 Z5.000 I0.019 J-0.431 K0.000 F200.000
G3 X-13.763 Y333.681 Z5.000 I0.091 J-0.341 K0.000 F200.000
G1 X-13.764 Y333.663 Z5.000 F200.000
G3 X-13.669 Y333.816 Z5.000 I-0.384 J0.344 K0.000 F200.000
G2 X-13.524 Y333.943 Z5.000 I0.225 J-0.110 K0.000 F200.000
G3 X-13.368 Y334.028 Z5.000 I-0.059 J0.294 K0.000 F200.000
G3 X-13.411 Y334.028 Z5.000 I-0.024 J-0.431 K0.000 F200.000
G0 Z12.000
G0 X-21.972 Y325.930 Z12.000
G0 X-21.972 Y325.930 Z10.000
G1 X-21.972 Y325.930 Z5.000 F60.000
G3 X-22.200 Y325.719 Z5.000 I0.144 J-0.385 K0.000 F200.000
G2 X-22.052 Y325.834 Z5.000 I0.986 J-1.125 K0.000 F200.000
G3 X-21.972 Y325.930 Z5.000 I-0.175 J0.227 K0.000 F200.000
G0 Z12.000
G0 X-18.373 Y314.236 Z12.000
G0 X-18.373 Y314.236 Z10.000
G1 X-18.373 Y314.236 Z5.000 F60.000
G3 X-18.497 Y314.107 Z5.000 I0.137 J-0.256 K0.000 F200.000
G2 X-18.608 Y314.005 Z5.000 I-0.330 J0.245 K0.000 F200.000
G3 X-18.645 Y313.964 Z5.000 I0.110 J-0.137 K0.000 F200.000
G3 X-18.373 Y314.236 Z5.000 I-0.129 J0.401 K0.000 F200.000
G0 Z12.000
G0 X-2.710 Y313.744 Z12.000
G0 X-2.710 Y313.744 Z10.000
G1 X-2.710 Y313.744 Z5.000 F60.000
G3 X-2.568 Y313.617 Z5.000 I0.268 J0.158 K0.000 F200.000
G2 X-2.449 Y313.482 Z5.000 I-0.215 J-0.310 K0.000 F200.000
G3 X-2.388 Y313.424 Z5.000 I0.150 J0.096 K0.000 F200.000
G3 X-2.710 Y313.744 Z5.000 I-0.435 J-0.116 K0.000 F200.000
G0 Z12.000
G0 X2.209 Y313.461 Z12.000
G0 X2.209 Y313.461 Z10.000
G1 X2.209 Y313.461 Z5.000 F60.000
G2 X2.414 Y313.631 Z5.000 I1.052 J-1.068 K0.000 F200.000
G3 X2.505 Y313.739 Z5.000 I-0.208 J0.264 K0.000 F200.000
G3 X2.209 Y313.461 Z5.000 I0.128 J-0.432 K0.000 F200.000
G0 Z12.000
G0 X18.184 Y314.230 Z12.000
G0 X18.184 Y314.230 Z10.000
G1 X18.184 Y314.230 Z5.000 F60.000
G3 X18.463 Y313.954 Z5.000 I0.415 J0.141 K0.000 F200.000
G3 X18.338 Y314.073 Z5.000 I-0.251 J-0.139 K0.000 F200.000
G2 X18.236 Y314.185 Z5.000 I0.246 J0.330 K0.000 F200.000
G3 X18.184 Y314.230 Z5.000 I-0.170 J-0.142 K0.000 F200.000
G0 Z12.000
G0 X22.017 Y325.701 Z12.000
G0 X22.017 Y325.701 Z10.000
G1 X22.017 Y325.701 Z5.000 F60.000
G3 X21.772 Y325.938 Z5.000 I-0.402 J-0.170 K0.000 F200.000
G3 X21.898 Y325.818 Z5.000 I0.255 J0.141 K0.000 F200.000
G2 X21.991 Y325.724 Z5.000 I-0.258 J-0.348 K0.000 F200.000
G1 X22.017 Y325.701 Z5.000 F200.000
G0 Z12.000
G0 X13.578 Y333.643 Z12.000
G0 X13.578 Y333.643 Z10.000
G1 X13.578 Y333.643 Z5.000 F60.000
G3 X13.236 Y334.023 Z5.000 I-0.356 J0.024 K0.000 F200.000
G2 X13.506 Y333.757 Z5.000 I-0.238 J-0.510 K0.000 F200.000
G3 X13.578 Y333.643 Z5.000 I0.272 J0.094 K0.000 F200.000
G0 Z12.000
G0 X13.578 Y341.873 Z12.000
G0 X13.578 Y341.873 Z10.000
G1 X13.578 Y341.873 Z5.000 F60.000
G3 X13.226 Y342.249 Z5.000 I-0.371 J0.006 K0.000 F200.000
G1 X13.189 Y342.253 Z5.000 F200.000
G3 X13.338 Y342.169 Z5.000 I0.209 J0.198 K0.000 F200.000
G2 X13.513 Y341.962 Z5.000 I-0.109 J-0.269 K0.000 F200.000
G3 X13.578 Y341.873 Z5.000 I0.232 J0.099 K0.000 F200.000
G1 X13.578 Y341.873 Z4.750 F60.000
G3 X13.226 Y342.249 Z4.750 I-0.371 J0.006 K0.000 F200.000
G1 X13.189 Y342.253 Z4.750 F200.000
G3 X13.338 Y342.169 Z4.750 I0.209 J0.198 K0.000 F200.000
G2 X13.513 Y341.962 Z4.750 I-0.109 J-0.269 K0.000 F200.000
G3 X13.578 Y341.873 Z4.750 I0.232 J0.099 K0.000 F200.000
G0 Z12.000
G0 X13.236 Y334.023 Z12.000
G0 X13.236 Y334.023 Z10.000
G1 X13.236 Y334.023 Z4.750 F60.000
G2 X13.506 Y333.757 Z4.750 I-0.238 J-0.510 K0.000 F200.000
G3 X13.578 Y333.643 Z4.750 I0.272 J0.094 K0.000 F200.000
G3 X13.236 Y334.023 Z4.750 I-0.356 J0.024 K0.000 F200.000
G0 Z12.000
G0 X21.772 Y325.938 Z12.000
G0 X21.772 Y325.938 Z10.000
G1 X21.772 Y325.938 Z4.750 F60.000
G3 X21.898 Y325.818 Z4.750 I0.255 J0.141 K0.000 F200.000
G2 X21.991 Y325.724 Z4.750 I-0.258 J-0.348 K0.000 F200.000
G1 X22.017 Y325.701 Z4.750 F200.000
G3 X21.772 Y325.938 Z4.750 I-0.402 J-0.170 K0.000 F200.000
G0 Z12.000
G0 X18.184 Y314.230 Z12.000
G0 X18.184 Y314.230 Z10.000
G1 X18.184 Y314.230 Z4.750 F60.000
G3 X18.463 Y313.954 Z4.750 I0.415 J0.141 K0.000 F200.000
G3 X18.338 Y314.073 Z4.750 I-0.251 J-0.139 K0.000 F200.000
G2 X18.236 Y314.185 Z4.750 I0.246 J0.330 K0.000 F200.000
G3 X18.184 Y314.230 Z4.750 I-0.170 J-0.142 K0.000 F200.000
G0 Z12.000
G0 X2.505 Y313.739 Z12.000
G0 X2.505 Y313.739 Z10.000
G1 X2.505 Y313.739 Z4.750 F60.000
G3 X2.209 Y313.461 Z4.750 I0.128 J-0.432 K0.000 F200.000
G2 X2.414 Y313.631 Z4.750 I1.052 J-1.068 K0.000 F200.000
G3 X2.505 Y313.739 Z4.750 I-0.208 J0.264 K0.000 F200.000
G0 Z12.000
G0 X-2.388 Y313.424 Z12.000
G0 X-2.388 Y313.424 Z10.000
G1 X-2.388 Y313.424 Z4.750 F60.000
G3 X-2.710 Y313.744 Z4.750 I-0.435 J-0.116 K0.000 F200.000
G3 X-2.568 Y313.617 Z4.750 I0.268 J0.158 K0.000 F200.000
G2 X-2.449 Y313.482 Z4.750 I-0.215 J-0.310 K0.000 F200.000
G3 X-2.388 Y313.424 Z4.750 I0.150 J0.096 K0.000 F200.000
G0 Z12.000
G0 X-18.373 Y314.236 Z12.000
G0 X-18.373 Y314.236 Z10.000
G1 X-18.373 Y314.236 Z4.750 F60.000
G3 X-18.497 Y314.107 Z4.750 I0.137 J-0.256 K0.000 F200.000
G2 X-18.608 Y314.005 Z4.750 I-0.330 J0.245 K0.000 F200.000
G3 X-18.645 Y313.964 Z4.750 I0.110 J-0.137 K0.000 F200.000
G3 X-18.373 Y314.236 Z4.750 I-0.129 J0.401 K0.000 F200.000
G0 Z12.000
G0 X-22.200 Y325.719 Z12.000
G0 X-22.200 Y325.719 Z10.000
G1 X-22.200 Y325.719 Z4.750 F60.000
G2 X-22.052 Y325.834 Z4.750 I0.986 J-1.125 K0.000 F200.000
G3 X-21.972 Y325.930 Z4.750 I-0.175 J0.227 K0.000 F200.000
G3 X-22.200 Y325.719 Z4.750 I0.144 J-0.385 K0.000 F200.000
G0 Z12.000
G0 X-13.764 Y333.663 Z12.000
G0 X-13.764 Y333.663 Z10.000
G1 X-13.764 Y333.663 Z4.750 F60.000
G3 X-13.669 Y333.816 Z4.750 I-0.384 J0.344 K0.000 F200.000
G2 X-13.524 Y333.943 Z4.750 I0.225 J-0.110 K0.000 F200.000
G3 X-13.368 Y334.028 Z4.750 I-0.059 J0.294 K0.000 F200.000
G3 X-13.501 Y334.015 Z4.750 I-0.024 J-0.431 K0.000 F200.000
G3 X-13.763 Y333.681 Z4.750 I0.091 J-0.341 K0.000 F200.000
G1 X-13.764 Y333.663 Z4.750 F200.000
G0 Z12.000
G0 X-13.763 Y341.890 Z12.000
G0 X-13.763 Y341.890 Z10.000
G1 X-13.763 Y341.890 Z4.750 F60.000
G3 X-13.672 Y342.037 Z4.750 I-0.293 J0.282 K0.000 F200.000
G2 X-13.527 Y342.169 Z4.750 I0.227 J-0.104 K0.000 F200.000
G3 X-13.374 Y342.255 Z4.750 I-0.064 J0.294 K0.000 F200.000
G3 X-13.763 Y341.890 Z4.750 I-0.017 J-0.372 K0.000 F200.000
G1 X-13.763 Y341.890 Z4.500 F60.000
G3 X-13.672 Y342.037 Z4.500 I-0.293 J0.282 K0.000 F200.000
G2 X-13.527 Y342.169 Z4.500 I0.227 J-0.104 K0.000 F200.000
G3 X-13.374 Y342.255 Z4.500 I-0.064 J0.294 K0.000 F200.000
G3 X-13.763 Y341.890 Z4.500 I-0.017 J-0.372 K0.000 F200.000
G0 Z12.000
G0 X-13.411 Y334.028 Z12.000
G0 X-13.411 Y334.028 Z10.000
G1 X-13.411 Y334.028 Z4.500 F60.000
G3 X-13.501 Y334.015 Z4.500 I0.019 J-0.431 K0.000 F200.000
G3 X-13.763 Y333.681 Z4.500 I0.091 J-0.341 K0.000 F200.000
G1 X-13.764 Y333.663 Z4.500 F200.000
G3 X-13.669 Y333.816 Z4.500 I-0.384 J0.344 K0.000 F200.000
G2 X-13.524 Y333.943 Z4.500 I0.225 J-0.110 K0.000 F200.000
G3 X-13.368 Y334.028 Z4.500 I-0.059 J0.294 K0.000 F200.000
G3 X-13.411 Y334.028 Z4.500 I-0.024 J-0.431 K0.000 F200.000
G0 Z12.000
G0 X-21.972 Y325.930 Z12.000
G0 X-21.972 Y325.930 Z10.000
G1 X-21.972 Y325.930 Z4.500 F60.000
G3 X-22.200 Y325.719 Z4.500 I0.144 J-0.385 K0.000 F200.000
G2 X-22.052 Y325.834 Z4.500 I0.986 J-1.125 K0.000 F200.000
G3 X-21.972 Y325.930 Z4.500 I-0.175 J0.227 K0.000 F200.000
G0 Z12.000
G0 X-18.373 Y314.236 Z12.000
G0 X-18.373 Y314.236 Z10.000
G1 X-18.373 Y314.236 Z4.500 F60.000
G3 X-18.497 Y314.107 Z4.500 I0.137 J-0.256 K0.000 F200.000
G2 X-18.608 Y314.005 Z4.500 I-0.330 J0.245 K0.000 F200.000
G3 X-18.645 Y313.964 Z4.500 I0.110 J-0.137 K0.000 F200.000
G3 X-18.373 Y314.236 Z4.500 I-0.129 J0.401 K0.000 F200.000
G0 Z12.000
G0 X-2.710 Y313.744 Z12.000
G0 X-2.710 Y313.744 Z10.000
G1 X-2.710 Y313.744 Z4.500 F60.000
G3 X-2.568 Y313.617 Z4.500 I0.268 J0.158 K0.000 F200.000
G2 X-2.449 Y313.482 Z4.500 I-0.215 J-0.310 K0.000 F200.000
G3 X-2.388 Y313.424 Z4.500 I0.150 J0.096 K0.000 F200.000
G3 X-2.710 Y313.744 Z4.500 I-0.435 J-0.116 K0.000 F200.000
G0 Z12.000
G0 X2.209 Y313.461 Z12.000
G0 X2.209 Y313.461 Z10.000
G1 X2.209 Y313.461 Z4.500 F60.000
G2 X2.414 Y313.631 Z4.500 I1.052 J-1.068 K0.000 F200.000
G3 X2.505 Y313.739 Z4.500 I-0.208 J0.264 K0.000 F200.000
G3 X2.209 Y313.461 Z4.500 I0.128 J-0.432 K0.000 F200.000
G0 Z12.000
G0 X18.184 Y314.230 Z12.000
G0 X18.184 Y314.230 Z10.000
G1 X18.184 Y314.230 Z4.500 F60.000
G3 X18.463 Y313.954 Z4.500 I0.415 J0.141 K0.000 F200.000
G3 X18.338 Y314.073 Z4.500 I-0.251 J-0.139 K0.000 F200.000
G2 X18.236 Y314.185 Z4.500 I0.246 J0.330 K0.000 F200.000
G3 X18.184 Y314.230 Z4.500 I-0.170 J-0.142 K0.000 F200.000
G0 Z12.000
G0 X22.017 Y325.701 Z12.000
G0 X22.017 Y325.701 Z10.000
G1 X22.017 Y325.701 Z4.500 F60.000
G3 X21.772 Y325.938 Z4.500 I-0.402 J-0.170 K0.000 F200.000
G3 X21.898 Y325.818 Z4.500 I0.255 J0.141 K0.000 F200.000
G2 X21.991 Y325.724 Z4.500 I-0.258 J-0.348 K0.000 F200.000
G1 X22.017 Y325.701 Z4.500 F200.000
G0 Z12.000
G0 X13.578 Y333.643 Z12.000
G0 X13.578 Y333.643 Z10.000
G1 X13.578 Y333.643 Z4.500 F60.000
G3 X13.236 Y334.023 Z4.500 I-0.356 J0.024 K0.000 F200.000
G2 X13.506 Y333.757 Z4.500 I-0.238 J-0.510 K0.000 F200.000
G3 X13.578 Y333.643 Z4.500 I0.272 J0.094 K0.000 F200.000
G0 Z12.000
G0 X13.578 Y341.873 Z12.000
G0 X13.578 Y341.873 Z10.000
G1 X13.578 Y341.873 Z4.500 F60.000
G3 X13.226 Y342.249 Z4.500 I-0.371 J0.006 K0.000 F200.000
G1 X13.189 Y342.253 Z4.500 F200.000
G3 X13.338 Y342.169 Z4.500 I0.209 J0.198 K0.000 F200.000
G2 X13.513 Y341.962 Z4.500 I-0.109 J-0.269 K0.000 F200.000
G3 X13.578 Y341.873 Z4.500 I0.232 J0.099 K0.000 F200.000
G1 X13.578 Y341.873 Z4.250 F60.000
G3 X13.226 Y342.249 Z4.250 I-0.371 J0.006 K0.000 F200.000
G1 X13.189 Y342.253 Z4.250 F200.000
G3 X13.338 Y342.169 Z4.250 I0.209 J0.198 K0.000 F200.000
G2 X13.513 Y341.962 Z4.250 I-0.109 J-0.269 K0.000 F200.000
G3 X13.578 Y341.873 Z4.250 I0.232 J0.099 K0.000 F200.000
G0 Z12.000
G0 X13.236 Y334.023 Z12.000
G0 X13.236 Y334.023 Z10.000
G1 X13.236 Y334.023 Z4.250 F60.000
G2 X13.506 Y333.757 Z4.250 I-0.238 J-0.510 K0.000 F200.000
G3 X13.578 Y333.643 Z4.250 I0.272 J0.094 K0.000 F200.000
G3 X13.236 Y334.023 Z4.250 I-0.356 J0.024 K0.000 F200.000
G0 Z12.000
G0 X21.772 Y325.938 Z12.000
G0 X21.772 Y325.938 Z10.000
G1 X21.772 Y325.938 Z4.250 F60.000
G3 X21.898 Y325.818 Z4.250 I0.255 J0.141 K0.000 F200.000
G2 X21.991 Y325.724 Z4.250 I-0.258 J-0.348 K0.000 F200.000
G1 X22.017 Y325.701 Z4.250 F200.000
G3 X21.772 Y325.938 Z4.250 I-0.402 J-0.170 K0.000 F200.000
G0 Z12.000
G0 X18.184 Y314.230 Z12.000
G0 X18.184 Y314.230 Z10.000
G1 X18.184 Y314.230 Z4.250 F60.000
G3 X18.463 Y313.954 Z4.250 I0.415 J0.141 K0.000 F200.000
G3 X18.338 Y314.073 Z4.250 I-0.251 J-0.139 K0.000 F200.000
G2 X18.236 Y314.185 Z4.250 I0.246 J0.330 K0.000 F200.000
G3 X18.184 Y314.230 Z4.250 I-0.170 J-0.142 K0.000 F200.000
G0 Z12.000
G0 X2.505 Y313.739 Z12.000
G0 X2.505 Y313.739 Z10.000
G1 X2.505 Y313.739 Z4.250 F60.000
G3 X2.209 Y313.461 Z4.250 I0.128 J-0.432 K0.000 F200.000
G2 X2.414 Y313.631 Z4.250 I1.052 J-1.068 K0.000 F200.000
G3 X2.505 Y313.739 Z4.250 I-0.208 J0.264 K0.000 F200.000
G0 Z12.000
G0 X-2.388 Y313.424 Z12.000
G0 X-2.388 Y313.424 Z10.000
G1 X-2.388 Y313.424 Z4.250 F60.000
G3 X-2.710 Y313.744 Z4.250 I-0.435 J-0.116 K0.000 F200.000
G3 X-2.568 Y313.617 Z4.250 I0.268 J0.158 K0.000 F200.000
G2 X-2.449 Y313.482 Z4.250 I-0.215 J-0.310 K0.000 F200.000
G3 X-2.388 Y313.424 Z4.250 I0.150 J0.096 K0.000 F200.000
G0 Z12.000
G0 X-18.373 Y314.236 Z12.000
G0 X-18.373 Y314.236 Z10.000
G1 X-18.373 Y314.236 Z4.250 F60.000
G3 X-18.497 Y314.107 Z4.250 I0.137 J-0.256 K0.000 F200.000
G2 X-18.608 Y314.005 Z4.250 I-0.330 J0.245 K0.000 F200.000
G3 X-18.645 Y313.964 Z4.250 I0.110 J-0.137 K0.000 F200.000
G3 X-18.373 Y314.236 Z4.250 I-0.129 J0.401 K0.000 F200.000
G0 Z12.000
G0 X-22.200 Y325.719 Z12.000
G0 X-22.200 Y325.719 Z10.000
G1 X-22.200 Y325.719 Z4.250 F60.000
G2 X-22.052 Y325.834 Z4.250 I0.986 J-1.125 K0.000 F200.000
G3 X-21.972 Y325.930 Z4.250 I-0.175 J0.227 K0.000 F200.000
G3 X-22.200 Y325.719 Z4.250 I0.144 J-0.385 K0.000 F200.000
G0 Z12.000
G0 X-13.764 Y333.663 Z12.000
G0 X-13.764 Y333.663 Z10.000
G1 X-13.764 Y333.663 Z4.250 F60.000
G3 X-13.669 Y333.816 Z4.250 I-0.384 J0.344 K0.000 F200.000
G2 X-13.524 Y333.943 Z4.250 I0.225 J-0.110 K0.000 F200.000
G3 X-13.368 Y334.028 Z4.250 I-0.059 J0.294 K0.000 F200.000
G3 X-13.501 Y334.015 Z4.250 I-0.024 J-0.431 K0.000 F200.000
G3 X-13.763 Y333.681 Z4.250 I0.091 J-0.341 K0.000 F200.000
G1 X-13.764 Y333.663 Z4.250 F200.000
G0 Z12.000
G0 X-13.763 Y341.890 Z12.000
G0 X-13.763 Y341.890 Z10.000
G1 X-13.763 Y341.890 Z4.250 F60.000
G3 X-13.672 Y342.037 Z4.250 I-0.293 J0.282 K0.000 F200.000
G2 X-13.527 Y342.169 Z4.250 I0.227 J-0.104 K0.000 F200.000
G3 X-13.374 Y342.255 Z4.250 I-0.064 J0.294 K0.000 F200.000
G3 X-13.763 Y341.890 Z4.250 I-0.017 J-0.372 K0.000 F200.000
G1 X-13.763 Y341.890 Z4.000 F60.000
G3 X-13.672 Y342.037 Z4.000 I-0.293 J0.282 K0.000 F200.000
G2 X-13.527 Y342.169 Z4.000 I0.227 J-0.104 K0.000 F200.000
G3 X-13.374 Y342.255 Z4.000 I-0.064 J0.294 K0.000 F200.000
G3 X-13.763 Y341.890 Z4.000 I-0.017 J-0.372 K0.000 F200.000
G0 Z12.000
G0 X-13.411 Y334.028 Z12.000
G0 X-13.411 Y334.028 Z10.000
G1 X-13.411 Y334.028 Z4.000 F60.000
G3 X-13.501 Y334.015 Z4.000 I0.019 J-0.431 K0.000 F200.000
G3 X-13.763 Y333.681 Z4.000 I0.091 J-0.341 K0.000 F200.000
G1 X-13.764 Y333.663 Z4.000 F200.000
G3 X-13.669 Y333.816 Z4.000 I-0.384 J0.344 K0.000 F200.000
G2 X-13.524 Y333.943 Z4.000 I0.225 J-0.110 K0.000 F200.000
G3 X-13.368 Y334.028 Z4.000 I-0.059 J0.294 K0.000 F200.000
G3 X-13.411 Y334.028 Z4.000 I-0.024 J-0.431 K0.000 F200.000
G0 Z12.000
G0 X-21.972 Y325.930 Z12.000
G0 X-21.972 Y325.930 Z10.000
G1 X-21.972 Y325.930 Z4.000 F60.000
G3 X-22.200 Y325.719 Z4.000 I0.144 J-0.385 K0.000 F200.000
G2 X-22.052 Y325.834 Z4.000 I0.986 J-1.125 K0.000 F200.000
G3 X-21.972 Y325.930 Z4.000 I-0.175 J0.227 K0.000 F200.000
G0 Z12.000
G0 X-18.373 Y314.236 Z12.000
G0 X-18.373 Y314.236 Z10.000
G1 X-18.373 Y314.236 Z4.000 F60.000
G3 X-18.497 Y314.107 Z4.000 I0.137 J-0.256 K0.000 F200.000
G2 X-18.608 Y314.005 Z4.000 I-0.330 J0.245 K0.000 F200.000
G3 X-18.645 Y313.964 Z4.000 I0.110 J-0.137 K0.000 F200.000
G3 X-18.373 Y314.236 Z4.000 I-0.129 J0.401 K0.000 F200.000
G0 Z12.000
G0 X-2.710 Y313.744 Z12.000
G0 X-2.710 Y313.744 Z10.000
G1 X-2.710 Y313.744 Z4.000 F60.000
G3 X-2.568 Y313.617 Z4.000 I0.268 J0.158 K0.000 F200.000
G2 X-2.449 Y313.482 Z4.000 I-0.215 J-0.310 K0.000 F200.000
G3 X-2.388 Y313.424 Z4.000 I0.150 J0.096 K0.000 F200.000
G3 X-2.710 Y313.744 Z4.000 I-0.435 J-0.116 K0.000 F200.000
G0 Z12.000
G0 X2.209 Y313.461 Z12.000
G0 X2.209 Y313.461 Z10.000
G1 X2.209 Y313.461 Z4.000 F60.000
G2 X2.414 Y313.631 Z4.000 I1.052 J-1.068 K0.000 F200.000
G3 X2.505 Y313.739 Z4.000 I-0.208 J0.264 K0.000 F200.000
G3 X2.209 Y313.461 Z4.000 I0.128 J-0.432 K0.000 F200.000
G0 Z12.000
G0 X18.184 Y314.230 Z12.000
G0 X18.184 Y314.230 Z10.000
G1 X18.184 Y314.230 Z4.000 F60.000
G3 X18.463 Y313.954 Z4.000 I0.415 J0.141 K0.000 F200.000
G3 X18.338 Y314.073 Z4.000 I-0.251 J-0.139 K0.000 F200.000
G2 X18.236 Y314.185 Z4.000 I0.246 J0.330 K0.000 F200.000
G3 X18.184 Y314.230 Z4.000 I-0.170 J-0.142 K0.000 F200.000
G0 Z12.000
G0 X22.017 Y325.701 Z12.000
G0 X22.017 Y325.701 Z10.000
G1 X22.017 Y325.701 Z4.000 F60.000
G3 X21.772 Y325.938 Z4.000 I-0.402 J-0.170 K0.000 F200.000
G3 X21.898 Y325.818 Z4.000 I0.255 J0.141 K0.000 F200.000
G2 X21.991 Y325.724 Z4.000 I-0.258 J-0.348 K0.000 F200.000
G1 X22.017 Y325.701 Z4.000 F200.000
G0 Z12.000
G0 X13.578 Y333.643 Z12.000
G0 X13.578 Y333.643 Z10.000
G1 X13.578 Y333.643 Z4.000 F60.000
G3 X13.236 Y334.023 Z4.000 I-0.356 J0.024 K0.000 F200.000
G2 X13.506 Y333.757 Z4.000 I-0.238 J-0.510 K0.000 F200.000
G3 X13.578 Y333.643 Z4.000 I0.272 J0.094 K0.000 F200.000
G0 Z12.000
G0 X13.578 Y341.873 Z12.000
G0 X13.578 Y341.873 Z10.000
G1 X13.578 Y341.873 Z4.000 F60.000
G3 X13.226 Y342.249 Z4.000 I-0.371 J0.006 K0.000 F200.000
G1 X13.189 Y342.253 Z4.000 F200.000
G3 X13.338 Y342.169 Z4.000 I0.209 J0.198 K0.000 F200.000
G2 X13.513 Y341.962 Z4.000 I-0.109 J-0.269 K0.000 F200.000
G3 X13.578 Y341.873 Z4.000 I0.232 J0.099 K0.000 F200.000
G0 Z12.000
G0 Z12.000
(Finish operation: Pocket_Shape001)
(Begin postamble)
M5
G17 G90
M2
