(Exported by FreeCAD)
(Post Processor: grbl_post)
(Output Time:2024-01-02 19:10:51.153329)
(Begin preamble)
G17 G90
G21
(Begin operation: TC: 0.5mm_droite)
(Path: TC: 0.5mm_droite)
(TC: 0.5mm_droite)
(Begin toolchange)
( M6 T2 )
M3 S24000
(Finish operation: TC: 0.5mm_droite)
(Begin operation: Fixture)
(Path: Fixture)
G54
(Finish operation: Fixture)
(Begin operation: Pocket_Shape)
(Path: Pocket_Shape)
(Pocket_Shape)
G0 Z12.300
G0 X23.812 Y36.517
G0 Z10.300
G1 X23.812 Y36.517 Z7.153 F60.000
G1 X23.811 Y36.447 Z7.153 F200.000
G1 X-23.811 Y36.447 Z7.153 F200.000
G1 X-23.812 Y36.517 Z7.153 F200.000
G1 X23.812 Y36.517 Z7.153 F200.000
G1 X23.812 Y36.517 Z7.006 F60.000
G1 X23.811 Y36.447 Z7.006 F200.000
G1 X-23.811 Y36.447 Z7.006 F200.000
G1 X-23.812 Y36.517 Z7.006 F200.000
G1 X23.812 Y36.517 Z7.006 F200.000
G1 X23.812 Y36.517 Z6.859 F60.000
G1 X23.811 Y36.447 Z6.859 F200.000
G1 X-23.811 Y36.447 Z6.859 F200.000
G1 X-23.812 Y36.517 Z6.859 F200.000
G1 X23.812 Y36.517 Z6.859 F200.000
G1 X23.812 Y36.517 Z6.712 F60.000
G1 X23.811 Y36.447 Z6.712 F200.000
G1 X-23.811 Y36.447 Z6.712 F200.000
G1 X-23.812 Y36.517 Z6.712 F200.000
G1 X23.812 Y36.517 Z6.712 F200.000
G1 X23.812 Y36.517 Z6.565 F60.000
G1 X23.811 Y36.447 Z6.565 F200.000
G1 X-23.811 Y36.447 Z6.565 F200.000
G1 X-23.812 Y36.517 Z6.565 F200.000
G1 X23.812 Y36.517 Z6.565 F200.000
G1 X23.812 Y36.517 Z6.418 F60.000
G1 X23.811 Y36.447 Z6.418 F200.000
G1 X-23.811 Y36.447 Z6.418 F200.000
G1 X-23.812 Y36.517 Z6.418 F200.000
G1 X23.812 Y36.517 Z6.418 F200.000
G1 X23.812 Y36.517 Z6.271 F60.000
G1 X23.811 Y36.447 Z6.271 F200.000
G1 X-23.811 Y36.447 Z6.271 F200.000
G1 X-23.812 Y36.517 Z6.271 F200.000
G1 X23.812 Y36.517 Z6.271 F200.000
G1 X23.812 Y36.517 Z6.124 F60.000
G1 X23.811 Y36.447 Z6.124 F200.000
G1 X-23.811 Y36.447 Z6.124 F200.000
G1 X-23.812 Y36.517 Z6.124 F200.000
G1 X23.812 Y36.517 Z6.124 F200.000
G1 X23.812 Y36.517 Z5.976 F60.000
G1 X23.811 Y36.447 Z5.976 F200.000
G1 X-23.811 Y36.447 Z5.976 F200.000
G1 X-23.812 Y36.517 Z5.976 F200.000
G1 X23.812 Y36.517 Z5.976 F200.000
G1 X23.812 Y36.517 Z5.829 F60.000
G1 X23.811 Y36.447 Z5.829 F200.000
G1 X-23.811 Y36.447 Z5.829 F200.000
G1 X-23.812 Y36.517 Z5.829 F200.000
G1 X23.812 Y36.517 Z5.829 F200.000
G1 X23.812 Y36.517 Z5.682 F60.000
G1 X23.811 Y36.447 Z5.682 F200.000
G1 X-23.811 Y36.447 Z5.682 F200.000
G1 X-23.812 Y36.517 Z5.682 F200.000
G1 X23.812 Y36.517 Z5.682 F200.000
G1 X23.812 Y36.517 Z5.535 F60.000
G1 X23.811 Y36.447 Z5.535 F200.000
G1 X-23.811 Y36.447 Z5.535 F200.000
G1 X-23.812 Y36.517 Z5.535 F200.000
G1 X23.812 Y36.517 Z5.535 F200.000
G1 X23.812 Y36.517 Z5.388 F60.000
G1 X23.811 Y36.447 Z5.388 F200.000
G1 X-23.811 Y36.447 Z5.388 F200.000
G1 X-23.812 Y36.517 Z5.388 F200.000
G1 X23.812 Y36.517 Z5.388 F200.000
G1 X23.812 Y36.517 Z5.241 F60.000
G1 X23.811 Y36.447 Z5.241 F200.000
G1 X-23.811 Y36.447 Z5.241 F200.000
G1 X-23.812 Y36.517 Z5.241 F200.000
G1 X23.812 Y36.517 Z5.241 F200.000
G1 X23.812 Y36.517 Z5.100 F60.000
G1 X23.811 Y36.447 Z5.100 F200.000
G1 X-23.811 Y36.447 Z5.100 F200.000
G1 X-23.812 Y36.517 Z5.100 F200.000
G1 X23.812 Y36.517 Z5.100 F200.000
G0 Z12.300
G0 Z12.300
G0 X23.812 Y36.517
G0 Y70.881
G0 Y70.881 Z10.300
G1 X23.812 Y70.881 Z7.153 F60.000
G1 X-24.340 Y70.881 Z7.153 F200.000
G1 X-24.342 Y70.951 Z7.153 F200.000
G1 X24.342 Y70.951 Z7.153 F200.000
G1 X24.340 Y70.881 Z7.153 F200.000
G1 X23.812 Y70.881 Z7.153 F200.000
G1 X23.812 Y70.881 Z7.006 F60.000
G1 X-24.340 Y70.881 Z7.006 F200.000
G1 X-24.342 Y70.951 Z7.006 F200.000
G1 X24.342 Y70.951 Z7.006 F200.000
G1 X24.340 Y70.881 Z7.006 F200.000
G1 X23.812 Y70.881 Z7.006 F200.000
G1 X23.812 Y70.881 Z6.859 F60.000
G1 X-24.340 Y70.881 Z6.859 F200.000
G1 X-24.342 Y70.951 Z6.859 F200.000
G1 X24.342 Y70.951 Z6.859 F200.000
G1 X24.340 Y70.881 Z6.859 F200.000
G1 X23.812 Y70.881 Z6.859 F200.000
G1 X23.812 Y70.881 Z6.712 F60.000
G1 X-24.340 Y70.881 Z6.712 F200.000
G1 X-24.342 Y70.951 Z6.712 F200.000
G1 X24.342 Y70.951 Z6.712 F200.000
G1 X24.340 Y70.881 Z6.712 F200.000
G1 X23.812 Y70.881 Z6.712 F200.000
G1 X23.812 Y70.881 Z6.565 F60.000
G1 X-24.340 Y70.881 Z6.565 F200.000
G1 X-24.342 Y70.951 Z6.565 F200.000
G1 X24.342 Y70.951 Z6.565 F200.000
G1 X24.340 Y70.881 Z6.565 F200.000
G1 X23.812 Y70.881 Z6.565 F200.000
G1 X23.812 Y70.881 Z6.418 F60.000
G1 X-24.340 Y70.881 Z6.418 F200.000
G1 X-24.342 Y70.951 Z6.418 F200.000
G1 X24.342 Y70.951 Z6.418 F200.000
G1 X24.340 Y70.881 Z6.418 F200.000
G1 X23.812 Y70.881 Z6.418 F200.000
G1 X23.812 Y70.881 Z6.271 F60.000
G1 X-24.340 Y70.881 Z6.271 F200.000
G1 X-24.342 Y70.951 Z6.271 F200.000
G1 X24.342 Y70.951 Z6.271 F200.000
G1 X24.340 Y70.881 Z6.271 F200.000
G1 X23.812 Y70.881 Z6.271 F200.000
G1 X23.812 Y70.881 Z6.124 F60.000
G1 X-24.340 Y70.881 Z6.124 F200.000
G1 X-24.342 Y70.951 Z6.124 F200.000
G1 X24.342 Y70.951 Z6.124 F200.000
G1 X24.340 Y70.881 Z6.124 F200.000
G1 X23.812 Y70.881 Z6.124 F200.000
G1 X23.812 Y70.881 Z5.976 F60.000
G1 X-24.340 Y70.881 Z5.976 F200.000
G1 X-24.342 Y70.951 Z5.976 F200.000
G1 X24.342 Y70.951 Z5.976 F200.000
G1 X24.340 Y70.881 Z5.976 F200.000
G1 X23.812 Y70.881 Z5.976 F200.000
G1 X23.812 Y70.881 Z5.829 F60.000
G1 X-24.340 Y70.881 Z5.829 F200.000
G1 X-24.342 Y70.951 Z5.829 F200.000
G1 X24.342 Y70.951 Z5.829 F200.000
G1 X24.340 Y70.881 Z5.829 F200.000
G1 X23.812 Y70.881 Z5.829 F200.000
G1 X23.812 Y70.881 Z5.682 F60.000
G1 X-24.340 Y70.881 Z5.682 F200.000
G1 X-24.342 Y70.951 Z5.682 F200.000
G1 X24.342 Y70.951 Z5.682 F200.000
G1 X24.340 Y70.881 Z5.682 F200.000
G1 X23.812 Y70.881 Z5.682 F200.000
G1 X23.812 Y70.881 Z5.535 F60.000
G1 X-24.340 Y70.881 Z5.535 F200.000
G1 X-24.342 Y70.951 Z5.535 F200.000
G1 X24.342 Y70.951 Z5.535 F200.000
G1 X24.340 Y70.881 Z5.535 F200.000
G1 X23.812 Y70.881 Z5.535 F200.000
G1 X23.812 Y70.881 Z5.388 F60.000
G1 X-24.340 Y70.881 Z5.388 F200.000
G1 X-24.342 Y70.951 Z5.388 F200.000
G1 X24.342 Y70.951 Z5.388 F200.000
G1 X24.340 Y70.881 Z5.388 F200.000
G1 X23.812 Y70.881 Z5.388 F200.000
G1 X23.812 Y70.881 Z5.241 F60.000
G1 X-24.340 Y70.881 Z5.241 F200.000
G1 X-24.342 Y70.951 Z5.241 F200.000
G1 X24.342 Y70.951 Z5.241 F200.000
G1 X24.340 Y70.881 Z5.241 F200.000
G1 X23.812 Y70.881 Z5.241 F200.000
G1 X23.812 Y70.881 Z5.100 F60.000
G1 X-24.340 Y70.881 Z5.100 F200.000
G1 X-24.342 Y70.951 Z5.100 F200.000
G1 X24.342 Y70.951 Z5.100 F200.000
G1 X24.340 Y70.881 Z5.100 F200.000
G1 X23.812 Y70.881 Z5.100 F200.000
G0 Z12.300
G0 Z12.300
G0 X23.812 Y70.881
G0 Y103.382
G0 Y103.382 Z10.300
G1 X23.812 Y103.382 Z7.153 F60.000
G1 X-24.840 Y103.382 Z7.153 F200.000
G1 X-24.842 Y103.452 Z7.153 F200.000
G1 X24.842 Y103.452 Z7.153 F200.000
G1 X24.840 Y103.382 Z7.153 F200.000
G1 X23.812 Y103.382 Z7.153 F200.000
G1 X23.812 Y103.382 Z7.006 F60.000
G1 X-24.840 Y103.382 Z7.006 F200.000
G1 X-24.842 Y103.452 Z7.006 F200.000
G1 X24.842 Y103.452 Z7.006 F200.000
G1 X24.840 Y103.382 Z7.006 F200.000
G1 X23.812 Y103.382 Z7.006 F200.000
G1 X23.812 Y103.382 Z6.859 F60.000
G1 X-24.840 Y103.382 Z6.859 F200.000
G1 X-24.842 Y103.452 Z6.859 F200.000
G1 X24.842 Y103.452 Z6.859 F200.000
G1 X24.840 Y103.382 Z6.859 F200.000
G1 X23.812 Y103.382 Z6.859 F200.000
G1 X23.812 Y103.382 Z6.712 F60.000
G1 X-24.840 Y103.382 Z6.712 F200.000
G1 X-24.842 Y103.452 Z6.712 F200.000
G1 X24.842 Y103.452 Z6.712 F200.000
G1 X24.840 Y103.382 Z6.712 F200.000
G1 X23.812 Y103.382 Z6.712 F200.000
G1 X23.812 Y103.382 Z6.565 F60.000
G1 X-24.840 Y103.382 Z6.565 F200.000
G1 X-24.842 Y103.452 Z6.565 F200.000
G1 X24.842 Y103.452 Z6.565 F200.000
G1 X24.840 Y103.382 Z6.565 F200.000
G1 X23.812 Y103.382 Z6.565 F200.000
G1 X23.812 Y103.382 Z6.418 F60.000
G1 X-24.840 Y103.382 Z6.418 F200.000
G1 X-24.842 Y103.452 Z6.418 F200.000
G1 X24.842 Y103.452 Z6.418 F200.000
G1 X24.840 Y103.382 Z6.418 F200.000
G1 X23.812 Y103.382 Z6.418 F200.000
G1 X23.812 Y103.382 Z6.271 F60.000
G1 X-24.840 Y103.382 Z6.271 F200.000
G1 X-24.842 Y103.452 Z6.271 F200.000
G1 X24.842 Y103.452 Z6.271 F200.000
G1 X24.840 Y103.382 Z6.271 F200.000
G1 X23.812 Y103.382 Z6.271 F200.000
G1 X23.812 Y103.382 Z6.124 F60.000
G1 X-24.840 Y103.382 Z6.124 F200.000
G1 X-24.842 Y103.452 Z6.124 F200.000
G1 X24.842 Y103.452 Z6.124 F200.000
G1 X24.840 Y103.382 Z6.124 F200.000
G1 X23.812 Y103.382 Z6.124 F200.000
G1 X23.812 Y103.382 Z5.976 F60.000
G1 X-24.840 Y103.382 Z5.976 F200.000
G1 X-24.842 Y103.452 Z5.976 F200.000
G1 X24.842 Y103.452 Z5.976 F200.000
G1 X24.840 Y103.382 Z5.976 F200.000
G1 X23.812 Y103.382 Z5.976 F200.000
G1 X23.812 Y103.382 Z5.829 F60.000
G1 X-24.840 Y103.382 Z5.829 F200.000
G1 X-24.842 Y103.452 Z5.829 F200.000
G1 X24.842 Y103.452 Z5.829 F200.000
G1 X24.840 Y103.382 Z5.829 F200.000
G1 X23.812 Y103.382 Z5.829 F200.000
G1 X23.812 Y103.382 Z5.682 F60.000
G1 X-24.840 Y103.382 Z5.682 F200.000
G1 X-24.842 Y103.452 Z5.682 F200.000
G1 X24.842 Y103.452 Z5.682 F200.000
G1 X24.840 Y103.382 Z5.682 F200.000
G1 X23.812 Y103.382 Z5.682 F200.000
G1 X23.812 Y103.382 Z5.535 F60.000
G1 X-24.840 Y103.382 Z5.535 F200.000
G1 X-24.842 Y103.452 Z5.535 F200.000
G1 X24.842 Y103.452 Z5.535 F200.000
G1 X24.840 Y103.382 Z5.535 F200.000
G1 X23.812 Y103.382 Z5.535 F200.000
G1 X23.812 Y103.382 Z5.388 F60.000
G1 X-24.840 Y103.382 Z5.388 F200.000
G1 X-24.842 Y103.452 Z5.388 F200.000
G1 X24.842 Y103.452 Z5.388 F200.000
G1 X24.840 Y103.382 Z5.388 F200.000
G1 X23.812 Y103.382 Z5.388 F200.000
G1 X23.812 Y103.382 Z5.241 F60.000
G1 X-24.840 Y103.382 Z5.241 F200.000
G1 X-24.842 Y103.452 Z5.241 F200.000
G1 X24.842 Y103.452 Z5.241 F200.000
G1 X24.840 Y103.382 Z5.241 F200.000
G1 X23.812 Y103.382 Z5.241 F200.000
G1 X23.812 Y103.382 Z5.100 F60.000
G1 X-24.840 Y103.382 Z5.100 F200.000
G1 X-24.842 Y103.452 Z5.100 F200.000
G1 X24.842 Y103.452 Z5.100 F200.000
G1 X24.840 Y103.382 Z5.100 F200.000
G1 X23.812 Y103.382 Z5.100 F200.000
G0 Z12.300
G0 Z12.300
G0 X23.812 Y103.382
G0 Y134.059
G0 Y134.059 Z10.300
G1 X23.812 Y134.059 Z7.153 F60.000
G1 X-25.312 Y134.059 Z7.153 F200.000
G1 X-25.313 Y134.129 Z7.153 F200.000
G1 X25.313 Y134.129 Z7.153 F200.000
G1 X25.312 Y134.059 Z7.153 F200.000
G1 X23.812 Y134.059 Z7.153 F200.000
G1 X23.812 Y134.059 Z7.006 F60.000
G1 X-25.312 Y134.059 Z7.006 F200.000
G1 X-25.313 Y134.129 Z7.006 F200.000
G1 X25.313 Y134.129 Z7.006 F200.000
G1 X25.312 Y134.059 Z7.006 F200.000
G1 X23.812 Y134.059 Z7.006 F200.000
G1 X23.812 Y134.059 Z6.859 F60.000
G1 X-25.312 Y134.059 Z6.859 F200.000
G1 X-25.313 Y134.129 Z6.859 F200.000
G1 X25.313 Y134.129 Z6.859 F200.000
G1 X25.312 Y134.059 Z6.859 F200.000
G1 X23.812 Y134.059 Z6.859 F200.000
G1 X23.812 Y134.059 Z6.712 F60.000
G1 X-25.312 Y134.059 Z6.712 F200.000
G1 X-25.313 Y134.129 Z6.712 F200.000
G1 X25.313 Y134.129 Z6.712 F200.000
G1 X25.312 Y134.059 Z6.712 F200.000
G1 X23.812 Y134.059 Z6.712 F200.000
G1 X23.812 Y134.059 Z6.565 F60.000
G1 X-25.312 Y134.059 Z6.565 F200.000
G1 X-25.313 Y134.129 Z6.565 F200.000
G1 X25.313 Y134.129 Z6.565 F200.000
G1 X25.312 Y134.059 Z6.565 F200.000
G1 X23.812 Y134.059 Z6.565 F200.000
G1 X23.812 Y134.059 Z6.418 F60.000
G1 X-25.312 Y134.059 Z6.418 F200.000
G1 X-25.313 Y134.129 Z6.418 F200.000
G1 X25.313 Y134.129 Z6.418 F200.000
G1 X25.312 Y134.059 Z6.418 F200.000
G1 X23.812 Y134.059 Z6.418 F200.000
G1 X23.812 Y134.059 Z6.271 F60.000
G1 X-25.312 Y134.059 Z6.271 F200.000
G1 X-25.313 Y134.129 Z6.271 F200.000
G1 X25.313 Y134.129 Z6.271 F200.000
G1 X25.312 Y134.059 Z6.271 F200.000
G1 X23.812 Y134.059 Z6.271 F200.000
G1 X23.812 Y134.059 Z6.124 F60.000
G1 X-25.312 Y134.059 Z6.124 F200.000
G1 X-25.313 Y134.129 Z6.124 F200.000
G1 X25.313 Y134.129 Z6.124 F200.000
G1 X25.312 Y134.059 Z6.124 F200.000
G1 X23.812 Y134.059 Z6.124 F200.000
G1 X23.812 Y134.059 Z5.976 F60.000
G1 X-25.312 Y134.059 Z5.976 F200.000
G1 X-25.313 Y134.129 Z5.976 F200.000
G1 X25.313 Y134.129 Z5.976 F200.000
G1 X25.312 Y134.059 Z5.976 F200.000
G1 X23.812 Y134.059 Z5.976 F200.000
G1 X23.812 Y134.059 Z5.829 F60.000
G1 X-25.312 Y134.059 Z5.829 F200.000
G1 X-25.313 Y134.129 Z5.829 F200.000
G1 X25.313 Y134.129 Z5.829 F200.000
G1 X25.312 Y134.059 Z5.829 F200.000
G1 X23.812 Y134.059 Z5.829 F200.000
G1 X23.812 Y134.059 Z5.682 F60.000
G1 X-25.312 Y134.059 Z5.682 F200.000
G1 X-25.313 Y134.129 Z5.682 F200.000
G1 X25.313 Y134.129 Z5.682 F200.000
G1 X25.312 Y134.059 Z5.682 F200.000
G1 X23.812 Y134.059 Z5.682 F200.000
G1 X23.812 Y134.059 Z5.535 F60.000
G1 X-25.312 Y134.059 Z5.535 F200.000
G1 X-25.313 Y134.129 Z5.535 F200.000
G1 X25.313 Y134.129 Z5.535 F200.000
G1 X25.312 Y134.059 Z5.535 F200.000
G1 X23.812 Y134.059 Z5.535 F200.000
G1 X23.812 Y134.059 Z5.388 F60.000
G1 X-25.312 Y134.059 Z5.388 F200.000
G1 X-25.313 Y134.129 Z5.388 F200.000
G1 X25.313 Y134.129 Z5.388 F200.000
G1 X25.312 Y134.059 Z5.388 F200.000
G1 X23.812 Y134.059 Z5.388 F200.000
G1 X23.812 Y134.059 Z5.241 F60.000
G1 X-25.312 Y134.059 Z5.241 F200.000
G1 X-25.313 Y134.129 Z5.241 F200.000
G1 X25.313 Y134.129 Z5.241 F200.000
G1 X25.312 Y134.059 Z5.241 F200.000
G1 X23.812 Y134.059 Z5.241 F200.000
G1 X23.812 Y134.059 Z5.100 F60.000
G1 X-25.312 Y134.059 Z5.100 F200.000
G1 X-25.313 Y134.129 Z5.100 F200.000
G1 X25.313 Y134.129 Z5.100 F200.000
G1 X25.312 Y134.059 Z5.100 F200.000
G1 X23.812 Y134.059 Z5.100 F200.000
G0 Z12.300
G0 Z12.300
G0 X23.812 Y134.059
G0 Y163.015
G0 Y163.015 Z10.300
G1 X23.812 Y163.015 Z7.153 F60.000
G1 X-25.758 Y163.015 Z7.153 F200.000
G1 X-25.759 Y163.085 Z7.153 F200.000
G1 X25.759 Y163.085 Z7.153 F200.000
G1 X25.758 Y163.015 Z7.153 F200.000
G1 X23.812 Y163.015 Z7.153 F200.000
G1 X23.812 Y163.015 Z7.006 F60.000
G1 X-25.758 Y163.015 Z7.006 F200.000
G1 X-25.759 Y163.085 Z7.006 F200.000
G1 X25.759 Y163.085 Z7.006 F200.000
G1 X25.758 Y163.015 Z7.006 F200.000
G1 X23.812 Y163.015 Z7.006 F200.000
G1 X23.812 Y163.015 Z6.859 F60.000
G1 X-25.758 Y163.015 Z6.859 F200.000
G1 X-25.759 Y163.085 Z6.859 F200.000
G1 X25.759 Y163.085 Z6.859 F200.000
G1 X25.758 Y163.015 Z6.859 F200.000
G1 X23.812 Y163.015 Z6.859 F200.000
G1 X23.812 Y163.015 Z6.712 F60.000
G1 X-25.758 Y163.015 Z6.712 F200.000
G1 X-25.759 Y163.085 Z6.712 F200.000
G1 X25.759 Y163.085 Z6.712 F200.000
G1 X25.758 Y163.015 Z6.712 F200.000
G1 X23.812 Y163.015 Z6.712 F200.000
G1 X23.812 Y163.015 Z6.565 F60.000
G1 X-25.758 Y163.015 Z6.565 F200.000
G1 X-25.759 Y163.085 Z6.565 F200.000
G1 X25.759 Y163.085 Z6.565 F200.000
G1 X25.758 Y163.015 Z6.565 F200.000
G1 X23.812 Y163.015 Z6.565 F200.000
G1 X23.812 Y163.015 Z6.418 F60.000
G1 X-25.758 Y163.015 Z6.418 F200.000
G1 X-25.759 Y163.085 Z6.418 F200.000
G1 X25.759 Y163.085 Z6.418 F200.000
G1 X25.758 Y163.015 Z6.418 F200.000
G1 X23.812 Y163.015 Z6.418 F200.000
G1 X23.812 Y163.015 Z6.271 F60.000
G1 X-25.758 Y163.015 Z6.271 F200.000
G1 X-25.759 Y163.085 Z6.271 F200.000
G1 X25.759 Y163.085 Z6.271 F200.000
G1 X25.758 Y163.015 Z6.271 F200.000
G1 X23.812 Y163.015 Z6.271 F200.000
G1 X23.812 Y163.015 Z6.124 F60.000
G1 X-25.758 Y163.015 Z6.124 F200.000
G1 X-25.759 Y163.085 Z6.124 F200.000
G1 X25.759 Y163.085 Z6.124 F200.000
G1 X25.758 Y163.015 Z6.124 F200.000
G1 X23.812 Y163.015 Z6.124 F200.000
G1 X23.812 Y163.015 Z5.976 F60.000
G1 X-25.758 Y163.015 Z5.976 F200.000
G1 X-25.759 Y163.085 Z5.976 F200.000
G1 X25.759 Y163.085 Z5.976 F200.000
G1 X25.758 Y163.015 Z5.976 F200.000
G1 X23.812 Y163.015 Z5.976 F200.000
G1 X23.812 Y163.015 Z5.829 F60.000
G1 X-25.758 Y163.015 Z5.829 F200.000
G1 X-25.759 Y163.085 Z5.829 F200.000
G1 X25.759 Y163.085 Z5.829 F200.000
G1 X25.758 Y163.015 Z5.829 F200.000
G1 X23.812 Y163.015 Z5.829 F200.000
G1 X23.812 Y163.015 Z5.682 F60.000
G1 X-25.758 Y163.015 Z5.682 F200.000
G1 X-25.759 Y163.085 Z5.682 F200.000
G1 X25.759 Y163.085 Z5.682 F200.000
G1 X25.758 Y163.015 Z5.682 F200.000
G1 X23.812 Y163.015 Z5.682 F200.000
G1 X23.812 Y163.015 Z5.535 F60.000
G1 X-25.758 Y163.015 Z5.535 F200.000
G1 X-25.759 Y163.085 Z5.535 F200.000
G1 X25.759 Y163.085 Z5.535 F200.000
G1 X25.758 Y163.015 Z5.535 F200.000
G1 X23.812 Y163.015 Z5.535 F200.000
G1 X23.812 Y163.015 Z5.388 F60.000
G1 X-25.758 Y163.015 Z5.388 F200.000
G1 X-25.759 Y163.085 Z5.388 F200.000
G1 X25.759 Y163.085 Z5.388 F200.000
G1 X25.758 Y163.015 Z5.388 F200.000
G1 X23.812 Y163.015 Z5.388 F200.000
G1 X23.812 Y163.015 Z5.241 F60.000
G1 X-25.758 Y163.015 Z5.241 F200.000
G1 X-25.759 Y163.085 Z5.241 F200.000
G1 X25.759 Y163.085 Z5.241 F200.000
G1 X25.758 Y163.015 Z5.241 F200.000
G1 X23.812 Y163.015 Z5.241 F200.000
G1 X23.812 Y163.015 Z5.100 F60.000
G1 X-25.758 Y163.015 Z5.100 F200.000
G1 X-25.759 Y163.085 Z5.100 F200.000
G1 X25.759 Y163.085 Z5.100 F200.000
G1 X25.758 Y163.015 Z5.100 F200.000
G1 X23.812 Y163.015 Z5.100 F200.000
G0 Z12.300
G0 Z12.300
G0 X23.812 Y163.015
G0 Y190.345
G0 Y190.345 Z10.300
G1 X23.812 Y190.345 Z7.153 F60.000
G1 X-26.178 Y190.345 Z7.153 F200.000
G1 X-26.179 Y190.415 Z7.153 F200.000
G1 X26.179 Y190.415 Z7.153 F200.000
G1 X26.178 Y190.345 Z7.153 F200.000
G1 X23.812 Y190.345 Z7.153 F200.000
G1 X23.812 Y190.345 Z7.006 F60.000
G1 X-26.178 Y190.345 Z7.006 F200.000
G1 X-26.179 Y190.415 Z7.006 F200.000
G1 X26.179 Y190.415 Z7.006 F200.000
G1 X26.178 Y190.345 Z7.006 F200.000
G1 X23.812 Y190.345 Z7.006 F200.000
G1 X23.812 Y190.345 Z6.859 F60.000
G1 X-26.178 Y190.345 Z6.859 F200.000
G1 X-26.179 Y190.415 Z6.859 F200.000
G1 X26.179 Y190.415 Z6.859 F200.000
G1 X26.178 Y190.345 Z6.859 F200.000
G1 X23.812 Y190.345 Z6.859 F200.000
G1 X23.812 Y190.345 Z6.712 F60.000
G1 X-26.178 Y190.345 Z6.712 F200.000
G1 X-26.179 Y190.415 Z6.712 F200.000
G1 X26.179 Y190.415 Z6.712 F200.000
G1 X26.178 Y190.345 Z6.712 F200.000
G1 X23.812 Y190.345 Z6.712 F200.000
G1 X23.812 Y190.345 Z6.565 F60.000
G1 X-26.178 Y190.345 Z6.565 F200.000
G1 X-26.179 Y190.415 Z6.565 F200.000
G1 X26.179 Y190.415 Z6.565 F200.000
G1 X26.178 Y190.345 Z6.565 F200.000
G1 X23.812 Y190.345 Z6.565 F200.000
G1 X23.812 Y190.345 Z6.418 F60.000
G1 X-26.178 Y190.345 Z6.418 F200.000
G1 X-26.179 Y190.415 Z6.418 F200.000
G1 X26.179 Y190.415 Z6.418 F200.000
G1 X26.178 Y190.345 Z6.418 F200.000
G1 X23.812 Y190.345 Z6.418 F200.000
G1 X23.812 Y190.345 Z6.271 F60.000
G1 X-26.178 Y190.345 Z6.271 F200.000
G1 X-26.179 Y190.415 Z6.271 F200.000
G1 X26.179 Y190.415 Z6.271 F200.000
G1 X26.178 Y190.345 Z6.271 F200.000
G1 X23.812 Y190.345 Z6.271 F200.000
G1 X23.812 Y190.345 Z6.124 F60.000
G1 X-26.178 Y190.345 Z6.124 F200.000
G1 X-26.179 Y190.415 Z6.124 F200.000
G1 X26.179 Y190.415 Z6.124 F200.000
G1 X26.178 Y190.345 Z6.124 F200.000
G1 X23.812 Y190.345 Z6.124 F200.000
G1 X23.812 Y190.345 Z5.976 F60.000
G1 X-26.178 Y190.345 Z5.976 F200.000
G1 X-26.179 Y190.415 Z5.976 F200.000
G1 X26.179 Y190.415 Z5.976 F200.000
G1 X26.178 Y190.345 Z5.976 F200.000
G1 X23.812 Y190.345 Z5.976 F200.000
G1 X23.812 Y190.345 Z5.829 F60.000
G1 X-26.178 Y190.345 Z5.829 F200.000
G1 X-26.179 Y190.415 Z5.829 F200.000
G1 X26.179 Y190.415 Z5.829 F200.000
G1 X26.178 Y190.345 Z5.829 F200.000
G1 X23.812 Y190.345 Z5.829 F200.000
G1 X23.812 Y190.345 Z5.682 F60.000
G1 X-26.178 Y190.345 Z5.682 F200.000
G1 X-26.179 Y190.415 Z5.682 F200.000
G1 X26.179 Y190.415 Z5.682 F200.000
G1 X26.178 Y190.345 Z5.682 F200.000
G1 X23.812 Y190.345 Z5.682 F200.000
G1 X23.812 Y190.345 Z5.535 F60.000
G1 X-26.178 Y190.345 Z5.535 F200.000
G1 X-26.179 Y190.415 Z5.535 F200.000
G1 X26.179 Y190.415 Z5.535 F200.000
G1 X26.178 Y190.345 Z5.535 F200.000
G1 X23.812 Y190.345 Z5.535 F200.000
G1 X23.812 Y190.345 Z5.388 F60.000
G1 X-26.178 Y190.345 Z5.388 F200.000
G1 X-26.179 Y190.415 Z5.388 F200.000
G1 X26.179 Y190.415 Z5.388 F200.000
G1 X26.178 Y190.345 Z5.388 F200.000
G1 X23.812 Y190.345 Z5.388 F200.000
G1 X23.812 Y190.345 Z5.241 F60.000
G1 X-26.178 Y190.345 Z5.241 F200.000
G1 X-26.179 Y190.415 Z5.241 F200.000
G1 X26.179 Y190.415 Z5.241 F200.000
G1 X26.178 Y190.345 Z5.241 F200.000
G1 X23.812 Y190.345 Z5.241 F200.000
G1 X23.812 Y190.345 Z5.100 F60.000
G1 X-26.178 Y190.345 Z5.100 F200.000
G1 X-26.179 Y190.415 Z5.100 F200.000
G1 X26.179 Y190.415 Z5.100 F200.000
G1 X26.178 Y190.345 Z5.100 F200.000
G1 X23.812 Y190.345 Z5.100 F200.000
G0 Z12.300
G0 Z12.300
G0 X23.812 Y190.345
G0 Y216.141
G0 Y216.141 Z10.300
G1 X23.812 Y216.141 Z7.153 F60.000
G1 X-26.575 Y216.141 Z7.153 F200.000
G1 X-26.576 Y216.211 Z7.153 F200.000
G1 X26.576 Y216.211 Z7.153 F200.000
G1 X26.575 Y216.141 Z7.153 F200.000
G1 X23.812 Y216.141 Z7.153 F200.000
G1 X23.812 Y216.141 Z7.006 F60.000
G1 X-26.575 Y216.141 Z7.006 F200.000
G1 X-26.576 Y216.211 Z7.006 F200.000
G1 X26.576 Y216.211 Z7.006 F200.000
G1 X26.575 Y216.141 Z7.006 F200.000
G1 X23.812 Y216.141 Z7.006 F200.000
G1 X23.812 Y216.141 Z6.859 F60.000
G1 X-26.575 Y216.141 Z6.859 F200.000
G1 X-26.576 Y216.211 Z6.859 F200.000
G1 X26.576 Y216.211 Z6.859 F200.000
G1 X26.575 Y216.141 Z6.859 F200.000
G1 X23.812 Y216.141 Z6.859 F200.000
G1 X23.812 Y216.141 Z6.712 F60.000
G1 X-26.575 Y216.141 Z6.712 F200.000
G1 X-26.576 Y216.211 Z6.712 F200.000
G1 X26.576 Y216.211 Z6.712 F200.000
G1 X26.575 Y216.141 Z6.712 F200.000
G1 X23.812 Y216.141 Z6.712 F200.000
G1 X23.812 Y216.141 Z6.565 F60.000
G1 X-26.575 Y216.141 Z6.565 F200.000
G1 X-26.576 Y216.211 Z6.565 F200.000
G1 X26.576 Y216.211 Z6.565 F200.000
G1 X26.575 Y216.141 Z6.565 F200.000
G1 X23.812 Y216.141 Z6.565 F200.000
G1 X23.812 Y216.141 Z6.418 F60.000
G1 X-26.575 Y216.141 Z6.418 F200.000
G1 X-26.576 Y216.211 Z6.418 F200.000
G1 X26.576 Y216.211 Z6.418 F200.000
G1 X26.575 Y216.141 Z6.418 F200.000
G1 X23.812 Y216.141 Z6.418 F200.000
G1 X23.812 Y216.141 Z6.271 F60.000
G1 X-26.575 Y216.141 Z6.271 F200.000
G1 X-26.576 Y216.211 Z6.271 F200.000
G1 X26.576 Y216.211 Z6.271 F200.000
G1 X26.575 Y216.141 Z6.271 F200.000
G1 X23.812 Y216.141 Z6.271 F200.000
G1 X23.812 Y216.141 Z6.124 F60.000
G1 X-26.575 Y216.141 Z6.124 F200.000
G1 X-26.576 Y216.211 Z6.124 F200.000
G1 X26.576 Y216.211 Z6.124 F200.000
G1 X26.575 Y216.141 Z6.124 F200.000
G1 X23.812 Y216.141 Z6.124 F200.000
G1 X23.812 Y216.141 Z5.976 F60.000
G1 X-26.575 Y216.141 Z5.976 F200.000
G1 X-26.576 Y216.211 Z5.976 F200.000
G1 X26.576 Y216.211 Z5.976 F200.000
G1 X26.575 Y216.141 Z5.976 F200.000
G1 X23.812 Y216.141 Z5.976 F200.000
G1 X23.812 Y216.141 Z5.829 F60.000
G1 X-26.575 Y216.141 Z5.829 F200.000
G1 X-26.576 Y216.211 Z5.829 F200.000
G1 X26.576 Y216.211 Z5.829 F200.000
G1 X26.575 Y216.141 Z5.829 F200.000
G1 X23.812 Y216.141 Z5.829 F200.000
G1 X23.812 Y216.141 Z5.682 F60.000
G1 X-26.575 Y216.141 Z5.682 F200.000
G1 X-26.576 Y216.211 Z5.682 F200.000
G1 X26.576 Y216.211 Z5.682 F200.000
G1 X26.575 Y216.141 Z5.682 F200.000
G1 X23.812 Y216.141 Z5.682 F200.000
G1 X23.812 Y216.141 Z5.535 F60.000
G1 X-26.575 Y216.141 Z5.535 F200.000
G1 X-26.576 Y216.211 Z5.535 F200.000
G1 X26.576 Y216.211 Z5.535 F200.000
G1 X26.575 Y216.141 Z5.535 F200.000
G1 X23.812 Y216.141 Z5.535 F200.000
G1 X23.812 Y216.141 Z5.388 F60.000
G1 X-26.575 Y216.141 Z5.388 F200.000
G1 X-26.576 Y216.211 Z5.388 F200.000
G1 X26.576 Y216.211 Z5.388 F200.000
G1 X26.575 Y216.141 Z5.388 F200.000
G1 X23.812 Y216.141 Z5.388 F200.000
G1 X23.812 Y216.141 Z5.241 F60.000
G1 X-26.575 Y216.141 Z5.241 F200.000
G1 X-26.576 Y216.211 Z5.241 F200.000
G1 X26.576 Y216.211 Z5.241 F200.000
G1 X26.575 Y216.141 Z5.241 F200.000
G1 X23.812 Y216.141 Z5.241 F200.000
G1 X23.812 Y216.141 Z5.100 F60.000
G1 X-26.575 Y216.141 Z5.100 F200.000
G1 X-26.576 Y216.211 Z5.100 F200.000
G1 X26.576 Y216.211 Z5.100 F200.000
G1 X26.575 Y216.141 Z5.100 F200.000
G1 X23.812 Y216.141 Z5.100 F200.000
G0 Z12.300
G0 Z12.300
G0 X23.812 Y216.141
G0 Y240.490
G0 Y240.490 Z10.300
G1 X23.812 Y240.490 Z7.153 F60.000
G1 X-26.950 Y240.490 Z7.153 F200.000
G1 X-26.951 Y240.560 Z7.153 F200.000
G1 X26.951 Y240.560 Z7.153 F200.000
G1 X26.950 Y240.490 Z7.153 F200.000
G1 X23.812 Y240.490 Z7.153 F200.000
G1 X23.812 Y240.490 Z7.006 F60.000
G1 X-26.950 Y240.490 Z7.006 F200.000
G1 X-26.951 Y240.560 Z7.006 F200.000
G1 X26.951 Y240.560 Z7.006 F200.000
G1 X26.950 Y240.490 Z7.006 F200.000
G1 X23.812 Y240.490 Z7.006 F200.000
G1 X23.812 Y240.490 Z6.859 F60.000
G1 X-26.950 Y240.490 Z6.859 F200.000
G1 X-26.951 Y240.560 Z6.859 F200.000
G1 X26.951 Y240.560 Z6.859 F200.000
G1 X26.950 Y240.490 Z6.859 F200.000
G1 X23.812 Y240.490 Z6.859 F200.000
G1 X23.812 Y240.490 Z6.712 F60.000
G1 X-26.950 Y240.490 Z6.712 F200.000
G1 X-26.951 Y240.560 Z6.712 F200.000
G1 X26.951 Y240.560 Z6.712 F200.000
G1 X26.950 Y240.490 Z6.712 F200.000
G1 X23.812 Y240.490 Z6.712 F200.000
G1 X23.812 Y240.490 Z6.565 F60.000
G1 X-26.950 Y240.490 Z6.565 F200.000
G1 X-26.951 Y240.560 Z6.565 F200.000
G1 X26.951 Y240.560 Z6.565 F200.000
G1 X26.950 Y240.490 Z6.565 F200.000
G1 X23.812 Y240.490 Z6.565 F200.000
G1 X23.812 Y240.490 Z6.418 F60.000
G1 X-26.950 Y240.490 Z6.418 F200.000
G1 X-26.951 Y240.560 Z6.418 F200.000
G1 X26.951 Y240.560 Z6.418 F200.000
G1 X26.950 Y240.490 Z6.418 F200.000
G1 X23.812 Y240.490 Z6.418 F200.000
G1 X23.812 Y240.490 Z6.271 F60.000
G1 X-26.950 Y240.490 Z6.271 F200.000
G1 X-26.951 Y240.560 Z6.271 F200.000
G1 X26.951 Y240.560 Z6.271 F200.000
G1 X26.950 Y240.490 Z6.271 F200.000
G1 X23.812 Y240.490 Z6.271 F200.000
G1 X23.812 Y240.490 Z6.124 F60.000
G1 X-26.950 Y240.490 Z6.124 F200.000
G1 X-26.951 Y240.560 Z6.124 F200.000
G1 X26.951 Y240.560 Z6.124 F200.000
G1 X26.950 Y240.490 Z6.124 F200.000
G1 X23.812 Y240.490 Z6.124 F200.000
G1 X23.812 Y240.490 Z5.976 F60.000
G1 X-26.950 Y240.490 Z5.976 F200.000
G1 X-26.951 Y240.560 Z5.976 F200.000
G1 X26.951 Y240.560 Z5.976 F200.000
G1 X26.950 Y240.490 Z5.976 F200.000
G1 X23.812 Y240.490 Z5.976 F200.000
G1 X23.812 Y240.490 Z5.829 F60.000
G1 X-26.950 Y240.490 Z5.829 F200.000
G1 X-26.951 Y240.560 Z5.829 F200.000
G1 X26.951 Y240.560 Z5.829 F200.000
G1 X26.950 Y240.490 Z5.829 F200.000
G1 X23.812 Y240.490 Z5.829 F200.000
G1 X23.812 Y240.490 Z5.682 F60.000
G1 X-26.950 Y240.490 Z5.682 F200.000
G1 X-26.951 Y240.560 Z5.682 F200.000
G1 X26.951 Y240.560 Z5.682 F200.000
G1 X26.950 Y240.490 Z5.682 F200.000
G1 X23.812 Y240.490 Z5.682 F200.000
G1 X23.812 Y240.490 Z5.535 F60.000
G1 X-26.950 Y240.490 Z5.535 F200.000
G1 X-26.951 Y240.560 Z5.535 F200.000
G1 X26.951 Y240.560 Z5.535 F200.000
G1 X26.950 Y240.490 Z5.535 F200.000
G1 X23.812 Y240.490 Z5.535 F200.000
G1 X23.812 Y240.490 Z5.388 F60.000
G1 X-26.950 Y240.490 Z5.388 F200.000
G1 X-26.951 Y240.560 Z5.388 F200.000
G1 X26.951 Y240.560 Z5.388 F200.000
G1 X26.950 Y240.490 Z5.388 F200.000
G1 X23.812 Y240.490 Z5.388 F200.000
G1 X23.812 Y240.490 Z5.241 F60.000
G1 X-26.950 Y240.490 Z5.241 F200.000
G1 X-26.951 Y240.560 Z5.241 F200.000
G1 X26.951 Y240.560 Z5.241 F200.000
G1 X26.950 Y240.490 Z5.241 F200.000
G1 X23.812 Y240.490 Z5.241 F200.000
G1 X23.812 Y240.490 Z5.100 F60.000
G1 X-26.950 Y240.490 Z5.100 F200.000
G1 X-26.951 Y240.560 Z5.100 F200.000
G1 X26.951 Y240.560 Z5.100 F200.000
G1 X26.950 Y240.490 Z5.100 F200.000
G1 X23.812 Y240.490 Z5.100 F200.000
G0 Z12.300
G0 Z12.300
G0 X23.812 Y240.490
G0 Y263.472
G0 Y263.472 Z10.300
G1 X23.812 Y263.472 Z7.153 F60.000
G1 X-27.303 Y263.472 Z7.153 F200.000
G1 X-27.304 Y263.542 Z7.153 F200.000
G1 X27.304 Y263.542 Z7.153 F200.000
G1 X27.303 Y263.472 Z7.153 F200.000
G1 X23.812 Y263.472 Z7.153 F200.000
G1 X23.812 Y263.472 Z7.006 F60.000
G1 X-27.303 Y263.472 Z7.006 F200.000
G1 X-27.304 Y263.542 Z7.006 F200.000
G1 X27.304 Y263.542 Z7.006 F200.000
G1 X27.303 Y263.472 Z7.006 F200.000
G1 X23.812 Y263.472 Z7.006 F200.000
G1 X23.812 Y263.472 Z6.859 F60.000
G1 X-27.303 Y263.472 Z6.859 F200.000
G1 X-27.304 Y263.542 Z6.859 F200.000
G1 X27.304 Y263.542 Z6.859 F200.000
G1 X27.303 Y263.472 Z6.859 F200.000
G1 X23.812 Y263.472 Z6.859 F200.000
G1 X23.812 Y263.472 Z6.712 F60.000
G1 X-27.303 Y263.472 Z6.712 F200.000
G1 X-27.304 Y263.542 Z6.712 F200.000
G1 X27.304 Y263.542 Z6.712 F200.000
G1 X27.303 Y263.472 Z6.712 F200.000
G1 X23.812 Y263.472 Z6.712 F200.000
G1 X23.812 Y263.472 Z6.565 F60.000
G1 X-27.303 Y263.472 Z6.565 F200.000
G1 X-27.304 Y263.542 Z6.565 F200.000
G1 X27.304 Y263.542 Z6.565 F200.000
G1 X27.303 Y263.472 Z6.565 F200.000
G1 X23.812 Y263.472 Z6.565 F200.000
G1 X23.812 Y263.472 Z6.418 F60.000
G1 X-27.303 Y263.472 Z6.418 F200.000
G1 X-27.304 Y263.542 Z6.418 F200.000
G1 X27.304 Y263.542 Z6.418 F200.000
G1 X27.303 Y263.472 Z6.418 F200.000
G1 X23.812 Y263.472 Z6.418 F200.000
G1 X23.812 Y263.472 Z6.271 F60.000
G1 X-27.303 Y263.472 Z6.271 F200.000
G1 X-27.304 Y263.542 Z6.271 F200.000
G1 X27.304 Y263.542 Z6.271 F200.000
G1 X27.303 Y263.472 Z6.271 F200.000
G1 X23.812 Y263.472 Z6.271 F200.000
G1 X23.812 Y263.472 Z6.124 F60.000
G1 X-27.303 Y263.472 Z6.124 F200.000
G1 X-27.304 Y263.542 Z6.124 F200.000
G1 X27.304 Y263.542 Z6.124 F200.000
G1 X27.303 Y263.472 Z6.124 F200.000
G1 X23.812 Y263.472 Z6.124 F200.000
G1 X23.812 Y263.472 Z5.976 F60.000
G1 X-27.303 Y263.472 Z5.976 F200.000
G1 X-27.304 Y263.542 Z5.976 F200.000
G1 X27.304 Y263.542 Z5.976 F200.000
G1 X27.303 Y263.472 Z5.976 F200.000
G1 X23.812 Y263.472 Z5.976 F200.000
G1 X23.812 Y263.472 Z5.829 F60.000
G1 X-27.303 Y263.472 Z5.829 F200.000
G1 X-27.304 Y263.542 Z5.829 F200.000
G1 X27.304 Y263.542 Z5.829 F200.000
G1 X27.303 Y263.472 Z5.829 F200.000
G1 X23.812 Y263.472 Z5.829 F200.000
G1 X23.812 Y263.472 Z5.682 F60.000
G1 X-27.303 Y263.472 Z5.682 F200.000
G1 X-27.304 Y263.542 Z5.682 F200.000
G1 X27.304 Y263.542 Z5.682 F200.000
G1 X27.303 Y263.472 Z5.682 F200.000
G1 X23.812 Y263.472 Z5.682 F200.000
G1 X23.812 Y263.472 Z5.535 F60.000
G1 X-27.303 Y263.472 Z5.535 F200.000
G1 X-27.304 Y263.542 Z5.535 F200.000
G1 X27.304 Y263.542 Z5.535 F200.000
G1 X27.303 Y263.472 Z5.535 F200.000
G1 X23.812 Y263.472 Z5.535 F200.000
G1 X23.812 Y263.472 Z5.388 F60.000
G1 X-27.303 Y263.472 Z5.388 F200.000
G1 X-27.304 Y263.542 Z5.388 F200.000
G1 X27.304 Y263.542 Z5.388 F200.000
G1 X27.303 Y263.472 Z5.388 F200.000
G1 X23.812 Y263.472 Z5.388 F200.000
G1 X23.812 Y263.472 Z5.241 F60.000
G1 X-27.303 Y263.472 Z5.241 F200.000
G1 X-27.304 Y263.542 Z5.241 F200.000
G1 X27.304 Y263.542 Z5.241 F200.000
G1 X27.303 Y263.472 Z5.241 F200.000
G1 X23.812 Y263.472 Z5.241 F200.000
G1 X23.812 Y263.472 Z5.100 F60.000
G1 X-27.303 Y263.472 Z5.100 F200.000
G1 X-27.304 Y263.542 Z5.100 F200.000
G1 X27.304 Y263.542 Z5.100 F200.000
G1 X27.303 Y263.472 Z5.100 F200.000
G1 X23.812 Y263.472 Z5.100 F200.000
G0 Z12.300
G0 Z12.300
G0 X23.812 Y263.472
G0 Y285.164
G0 Y285.164 Z10.300
G1 X23.812 Y285.164 Z7.153 F60.000
G1 X-27.637 Y285.164 Z7.153 F200.000
G1 X-27.638 Y285.234 Z7.153 F200.000
G1 X27.638 Y285.234 Z7.153 F200.000
G1 X27.637 Y285.164 Z7.153 F200.000
G1 X23.812 Y285.164 Z7.153 F200.000
G1 X23.812 Y285.164 Z7.006 F60.000
G1 X-27.637 Y285.164 Z7.006 F200.000
G1 X-27.638 Y285.234 Z7.006 F200.000
G1 X27.638 Y285.234 Z7.006 F200.000
G1 X27.637 Y285.164 Z7.006 F200.000
G1 X23.812 Y285.164 Z7.006 F200.000
G1 X23.812 Y285.164 Z6.859 F60.000
G1 X-27.637 Y285.164 Z6.859 F200.000
G1 X-27.638 Y285.234 Z6.859 F200.000
G1 X27.638 Y285.234 Z6.859 F200.000
G1 X27.637 Y285.164 Z6.859 F200.000
G1 X23.812 Y285.164 Z6.859 F200.000
G1 X23.812 Y285.164 Z6.712 F60.000
G1 X-27.637 Y285.164 Z6.712 F200.000
G1 X-27.638 Y285.234 Z6.712 F200.000
G1 X27.638 Y285.234 Z6.712 F200.000
G1 X27.637 Y285.164 Z6.712 F200.000
G1 X23.812 Y285.164 Z6.712 F200.000
G1 X23.812 Y285.164 Z6.565 F60.000
G1 X-27.637 Y285.164 Z6.565 F200.000
G1 X-27.638 Y285.234 Z6.565 F200.000
G1 X27.638 Y285.234 Z6.565 F200.000
G1 X27.637 Y285.164 Z6.565 F200.000
G1 X23.812 Y285.164 Z6.565 F200.000
G1 X23.812 Y285.164 Z6.418 F60.000
G1 X-27.637 Y285.164 Z6.418 F200.000
G1 X-27.638 Y285.234 Z6.418 F200.000
G1 X27.638 Y285.234 Z6.418 F200.000
G1 X27.637 Y285.164 Z6.418 F200.000
G1 X23.812 Y285.164 Z6.418 F200.000
G1 X23.812 Y285.164 Z6.271 F60.000
G1 X-27.637 Y285.164 Z6.271 F200.000
G1 X-27.638 Y285.234 Z6.271 F200.000
G1 X27.638 Y285.234 Z6.271 F200.000
G1 X27.637 Y285.164 Z6.271 F200.000
G1 X23.812 Y285.164 Z6.271 F200.000
G1 X23.812 Y285.164 Z6.124 F60.000
G1 X-27.637 Y285.164 Z6.124 F200.000
G1 X-27.638 Y285.234 Z6.124 F200.000
G1 X27.638 Y285.234 Z6.124 F200.000
G1 X27.637 Y285.164 Z6.124 F200.000
G1 X23.812 Y285.164 Z6.124 F200.000
G1 X23.812 Y285.164 Z5.976 F60.000
G1 X-27.637 Y285.164 Z5.976 F200.000
G1 X-27.638 Y285.234 Z5.976 F200.000
G1 X27.638 Y285.234 Z5.976 F200.000
G1 X27.637 Y285.164 Z5.976 F200.000
G1 X23.812 Y285.164 Z5.976 F200.000
G1 X23.812 Y285.164 Z5.829 F60.000
G1 X-27.637 Y285.164 Z5.829 F200.000
G1 X-27.638 Y285.234 Z5.829 F200.000
G1 X27.638 Y285.234 Z5.829 F200.000
G1 X27.637 Y285.164 Z5.829 F200.000
G1 X23.812 Y285.164 Z5.829 F200.000
G1 X23.812 Y285.164 Z5.682 F60.000
G1 X-27.637 Y285.164 Z5.682 F200.000
G1 X-27.638 Y285.234 Z5.682 F200.000
G1 X27.638 Y285.234 Z5.682 F200.000
G1 X27.637 Y285.164 Z5.682 F200.000
G1 X23.812 Y285.164 Z5.682 F200.000
G1 X23.812 Y285.164 Z5.535 F60.000
G1 X-27.637 Y285.164 Z5.535 F200.000
G1 X-27.638 Y285.234 Z5.535 F200.000
G1 X27.638 Y285.234 Z5.535 F200.000
G1 X27.637 Y285.164 Z5.535 F200.000
G1 X23.812 Y285.164 Z5.535 F200.000
G1 X23.812 Y285.164 Z5.388 F60.000
G1 X-27.637 Y285.164 Z5.388 F200.000
G1 X-27.638 Y285.234 Z5.388 F200.000
G1 X27.638 Y285.234 Z5.388 F200.000
G1 X27.637 Y285.164 Z5.388 F200.000
G1 X23.812 Y285.164 Z5.388 F200.000
G1 X23.812 Y285.164 Z5.241 F60.000
G1 X-27.637 Y285.164 Z5.241 F200.000
G1 X-27.638 Y285.234 Z5.241 F200.000
G1 X27.638 Y285.234 Z5.241 F200.000
G1 X27.637 Y285.164 Z5.241 F200.000
G1 X23.812 Y285.164 Z5.241 F200.000
G1 X23.812 Y285.164 Z5.100 F60.000
G1 X-27.637 Y285.164 Z5.100 F200.000
G1 X-27.638 Y285.234 Z5.100 F200.000
G1 X27.638 Y285.234 Z5.100 F200.000
G1 X27.637 Y285.164 Z5.100 F200.000
G1 X23.812 Y285.164 Z5.100 F200.000
G0 Z12.300
G0 Z12.300
G0 X23.812 Y285.164
G0 Y305.639
G0 Y305.639 Z10.300
G1 X23.812 Y305.639 Z7.153 F60.000
G1 X-27.952 Y305.639 Z7.153 F200.000
G1 X-27.953 Y305.709 Z7.153 F200.000
G1 X27.953 Y305.709 Z7.153 F200.000
G1 X27.952 Y305.639 Z7.153 F200.000
G1 X23.812 Y305.639 Z7.153 F200.000
G1 X23.812 Y305.639 Z7.006 F60.000
G1 X-27.952 Y305.639 Z7.006 F200.000
G1 X-27.953 Y305.709 Z7.006 F200.000
G1 X27.953 Y305.709 Z7.006 F200.000
G1 X27.952 Y305.639 Z7.006 F200.000
G1 X23.812 Y305.639 Z7.006 F200.000
G1 X23.812 Y305.639 Z6.859 F60.000
G1 X-27.952 Y305.639 Z6.859 F200.000
G1 X-27.953 Y305.709 Z6.859 F200.000
G1 X27.953 Y305.709 Z6.859 F200.000
G1 X27.952 Y305.639 Z6.859 F200.000
G1 X23.812 Y305.639 Z6.859 F200.000
G1 X23.812 Y305.639 Z6.712 F60.000
G1 X-27.952 Y305.639 Z6.712 F200.000
G1 X-27.953 Y305.709 Z6.712 F200.000
G1 X27.953 Y305.709 Z6.712 F200.000
G1 X27.952 Y305.639 Z6.712 F200.000
G1 X23.812 Y305.639 Z6.712 F200.000
G1 X23.812 Y305.639 Z6.565 F60.000
G1 X-27.952 Y305.639 Z6.565 F200.000
G1 X-27.953 Y305.709 Z6.565 F200.000
G1 X27.953 Y305.709 Z6.565 F200.000
G1 X27.952 Y305.639 Z6.565 F200.000
G1 X23.812 Y305.639 Z6.565 F200.000
G1 X23.812 Y305.639 Z6.418 F60.000
G1 X-27.952 Y305.639 Z6.418 F200.000
G1 X-27.953 Y305.709 Z6.418 F200.000
G1 X27.953 Y305.709 Z6.418 F200.000
G1 X27.952 Y305.639 Z6.418 F200.000
G1 X23.812 Y305.639 Z6.418 F200.000
G1 X23.812 Y305.639 Z6.271 F60.000
G1 X-27.952 Y305.639 Z6.271 F200.000
G1 X-27.953 Y305.709 Z6.271 F200.000
G1 X27.953 Y305.709 Z6.271 F200.000
G1 X27.952 Y305.639 Z6.271 F200.000
G1 X23.812 Y305.639 Z6.271 F200.000
G1 X23.812 Y305.639 Z6.124 F60.000
G1 X-27.952 Y305.639 Z6.124 F200.000
G1 X-27.953 Y305.709 Z6.124 F200.000
G1 X27.953 Y305.709 Z6.124 F200.000
G1 X27.952 Y305.639 Z6.124 F200.000
G1 X23.812 Y305.639 Z6.124 F200.000
G1 X23.812 Y305.639 Z5.976 F60.000
G1 X-27.952 Y305.639 Z5.976 F200.000
G1 X-27.953 Y305.709 Z5.976 F200.000
G1 X27.953 Y305.709 Z5.976 F200.000
G1 X27.952 Y305.639 Z5.976 F200.000
G1 X23.812 Y305.639 Z5.976 F200.000
G1 X23.812 Y305.639 Z5.829 F60.000
G1 X-27.952 Y305.639 Z5.829 F200.000
G1 X-27.953 Y305.709 Z5.829 F200.000
G1 X27.953 Y305.709 Z5.829 F200.000
G1 X27.952 Y305.639 Z5.829 F200.000
G1 X23.812 Y305.639 Z5.829 F200.000
G1 X23.812 Y305.639 Z5.682 F60.000
G1 X-27.952 Y305.639 Z5.682 F200.000
G1 X-27.953 Y305.709 Z5.682 F200.000
G1 X27.953 Y305.709 Z5.682 F200.000
G1 X27.952 Y305.639 Z5.682 F200.000
G1 X23.812 Y305.639 Z5.682 F200.000
G1 X23.812 Y305.639 Z5.535 F60.000
G1 X-27.952 Y305.639 Z5.535 F200.000
G1 X-27.953 Y305.709 Z5.535 F200.000
G1 X27.953 Y305.709 Z5.535 F200.000
G1 X27.952 Y305.639 Z5.535 F200.000
G1 X23.812 Y305.639 Z5.535 F200.000
G1 X23.812 Y305.639 Z5.388 F60.000
G1 X-27.952 Y305.639 Z5.388 F200.000
G1 X-27.953 Y305.709 Z5.388 F200.000
G1 X27.953 Y305.709 Z5.388 F200.000
G1 X27.952 Y305.639 Z5.388 F200.000
G1 X23.812 Y305.639 Z5.388 F200.000
G1 X23.812 Y305.639 Z5.241 F60.000
G1 X-27.952 Y305.639 Z5.241 F200.000
G1 X-27.953 Y305.709 Z5.241 F200.000
G1 X27.953 Y305.709 Z5.241 F200.000
G1 X27.952 Y305.639 Z5.241 F200.000
G1 X23.812 Y305.639 Z5.241 F200.000
G1 X23.812 Y305.639 Z5.100 F60.000
G1 X-27.952 Y305.639 Z5.100 F200.000
G1 X-27.953 Y305.709 Z5.100 F200.000
G1 X27.953 Y305.709 Z5.100 F200.000
G1 X27.952 Y305.639 Z5.100 F200.000
G1 X23.812 Y305.639 Z5.100 F200.000
G0 Z12.300
G0 Z12.300
G0 X23.812 Y305.639
G0 Y324.965
G0 Y324.965 Z10.300
G1 X23.812 Y324.965 Z7.153 F60.000
G1 X-28.246 Y324.965 Z7.153 F200.000
G1 X-28.246 Y325.035 Z7.153 F200.000
G1 X28.251 Y325.035 Z7.153 F200.000
G1 X28.249 Y324.965 Z7.153 F200.000
G1 X23.812 Y324.965 Z7.153 F200.000
G1 X23.812 Y324.965 Z7.006 F60.000
G1 X-28.246 Y324.965 Z7.006 F200.000
G1 X-28.246 Y325.035 Z7.006 F200.000
G1 X28.251 Y325.035 Z7.006 F200.000
G1 X28.249 Y324.965 Z7.006 F200.000
G1 X23.812 Y324.965 Z7.006 F200.000
G1 X23.812 Y324.965 Z6.859 F60.000
G1 X-28.246 Y324.965 Z6.859 F200.000
G1 X-28.246 Y325.035 Z6.859 F200.000
G1 X28.251 Y325.035 Z6.859 F200.000
G1 X28.249 Y324.965 Z6.859 F200.000
G1 X23.812 Y324.965 Z6.859 F200.000
G1 X23.812 Y324.965 Z6.712 F60.000
G1 X-28.246 Y324.965 Z6.712 F200.000
G1 X-28.246 Y325.035 Z6.712 F200.000
G1 X28.251 Y325.035 Z6.712 F200.000
G1 X28.249 Y324.965 Z6.712 F200.000
G1 X23.812 Y324.965 Z6.712 F200.000
G1 X23.812 Y324.965 Z6.565 F60.000
G1 X-28.246 Y324.965 Z6.565 F200.000
G1 X-28.246 Y325.035 Z6.565 F200.000
G1 X28.251 Y325.035 Z6.565 F200.000
G1 X28.249 Y324.965 Z6.565 F200.000
G1 X23.812 Y324.965 Z6.565 F200.000
G1 X23.812 Y324.965 Z6.418 F60.000
G1 X-28.246 Y324.965 Z6.418 F200.000
G1 X-28.246 Y325.035 Z6.418 F200.000
G1 X28.251 Y325.035 Z6.418 F200.000
G1 X28.249 Y324.965 Z6.418 F200.000
G1 X23.812 Y324.965 Z6.418 F200.000
G1 X23.812 Y324.965 Z6.271 F60.000
G1 X-28.246 Y324.965 Z6.271 F200.000
G1 X-28.246 Y325.035 Z6.271 F200.000
G1 X28.251 Y325.035 Z6.271 F200.000
G1 X28.249 Y324.965 Z6.271 F200.000
G1 X23.812 Y324.965 Z6.271 F200.000
G1 X23.812 Y324.965 Z6.124 F60.000
G1 X-28.246 Y324.965 Z6.124 F200.000
G1 X-28.246 Y325.035 Z6.124 F200.000
G1 X28.251 Y325.035 Z6.124 F200.000
G1 X28.249 Y324.965 Z6.124 F200.000
G1 X23.812 Y324.965 Z6.124 F200.000
G1 X23.812 Y324.965 Z5.976 F60.000
G1 X-28.246 Y324.965 Z5.976 F200.000
G1 X-28.246 Y325.035 Z5.976 F200.000
G1 X28.251 Y325.035 Z5.976 F200.000
G1 X28.249 Y324.965 Z5.976 F200.000
G1 X23.812 Y324.965 Z5.976 F200.000
G1 X23.812 Y324.965 Z5.829 F60.000
G1 X-28.246 Y324.965 Z5.829 F200.000
G1 X-28.246 Y325.035 Z5.829 F200.000
G1 X28.251 Y325.035 Z5.829 F200.000
G1 X28.249 Y324.965 Z5.829 F200.000
G1 X23.812 Y324.965 Z5.829 F200.000
G1 X23.812 Y324.965 Z5.682 F60.000
G1 X-28.246 Y324.965 Z5.682 F200.000
G1 X-28.246 Y325.035 Z5.682 F200.000
G1 X28.251 Y325.035 Z5.682 F200.000
G1 X28.249 Y324.965 Z5.682 F200.000
G1 X23.812 Y324.965 Z5.682 F200.000
G1 X23.812 Y324.965 Z5.535 F60.000
G1 X-28.246 Y324.965 Z5.535 F200.000
G1 X-28.246 Y325.035 Z5.535 F200.000
G1 X28.251 Y325.035 Z5.535 F200.000
G1 X28.249 Y324.965 Z5.535 F200.000
G1 X23.812 Y324.965 Z5.535 F200.000
G1 X23.812 Y324.965 Z5.388 F60.000
G1 X-28.246 Y324.965 Z5.388 F200.000
G1 X-28.246 Y325.035 Z5.388 F200.000
G1 X28.251 Y325.035 Z5.388 F200.000
G1 X28.249 Y324.965 Z5.388 F200.000
G1 X23.812 Y324.965 Z5.388 F200.000
G1 X23.812 Y324.965 Z5.241 F60.000
G1 X-28.246 Y324.965 Z5.241 F200.000
G1 X-28.246 Y325.035 Z5.241 F200.000
G1 X28.251 Y325.035 Z5.241 F200.000
G1 X28.249 Y324.965 Z5.241 F200.000
G1 X23.812 Y324.965 Z5.241 F200.000
G1 X23.812 Y324.965 Z5.100 F60.000
G1 X-28.246 Y324.965 Z5.100 F200.000
G1 X-28.246 Y325.035 Z5.100 F200.000
G1 X28.251 Y325.035 Z5.100 F200.000
G1 X28.249 Y324.965 Z5.100 F200.000
G1 X23.812 Y324.965 Z5.100 F200.000
G0 Z12.300
G0 Z12.300
G0 X23.812 Y324.965
G0 Y343.206
G0 Y343.206 Z10.300
G1 X23.812 Y343.206 Z7.153 F60.000
G1 X-28.530 Y343.206 Z7.153 F200.000
G1 X-28.531 Y343.276 Z7.153 F200.000
G1 X28.531 Y343.276 Z7.153 F200.000
G1 X28.530 Y343.206 Z7.153 F200.000
G1 X23.812 Y343.206 Z7.153 F200.000
G1 X23.812 Y343.206 Z7.006 F60.000
G1 X-28.530 Y343.206 Z7.006 F200.000
G1 X-28.531 Y343.276 Z7.006 F200.000
G1 X28.531 Y343.276 Z7.006 F200.000
G1 X28.530 Y343.206 Z7.006 F200.000
G1 X23.812 Y343.206 Z7.006 F200.000
G1 X23.812 Y343.206 Z6.859 F60.000
G1 X-28.530 Y343.206 Z6.859 F200.000
G1 X-28.531 Y343.276 Z6.859 F200.000
G1 X28.531 Y343.276 Z6.859 F200.000
G1 X28.530 Y343.206 Z6.859 F200.000
G1 X23.812 Y343.206 Z6.859 F200.000
G1 X23.812 Y343.206 Z6.712 F60.000
G1 X-28.530 Y343.206 Z6.712 F200.000
G1 X-28.531 Y343.276 Z6.712 F200.000
G1 X28.531 Y343.276 Z6.712 F200.000
G1 X28.530 Y343.206 Z6.712 F200.000
G1 X23.812 Y343.206 Z6.712 F200.000
G1 X23.812 Y343.206 Z6.565 F60.000
G1 X-28.530 Y343.206 Z6.565 F200.000
G1 X-28.531 Y343.276 Z6.565 F200.000
G1 X28.531 Y343.276 Z6.565 F200.000
G1 X28.530 Y343.206 Z6.565 F200.000
G1 X23.812 Y343.206 Z6.565 F200.000
G1 X23.812 Y343.206 Z6.418 F60.000
G1 X-28.530 Y343.206 Z6.418 F200.000
G1 X-28.531 Y343.276 Z6.418 F200.000
G1 X28.531 Y343.276 Z6.418 F200.000
G1 X28.530 Y343.206 Z6.418 F200.000
G1 X23.812 Y343.206 Z6.418 F200.000
G1 X23.812 Y343.206 Z6.271 F60.000
G1 X-28.530 Y343.206 Z6.271 F200.000
G1 X-28.531 Y343.276 Z6.271 F200.000
G1 X28.531 Y343.276 Z6.271 F200.000
G1 X28.530 Y343.206 Z6.271 F200.000
G1 X23.812 Y343.206 Z6.271 F200.000
G1 X23.812 Y343.206 Z6.124 F60.000
G1 X-28.530 Y343.206 Z6.124 F200.000
G1 X-28.531 Y343.276 Z6.124 F200.000
G1 X28.531 Y343.276 Z6.124 F200.000
G1 X28.530 Y343.206 Z6.124 F200.000
G1 X23.812 Y343.206 Z6.124 F200.000
G1 X23.812 Y343.206 Z5.976 F60.000
G1 X-28.530 Y343.206 Z5.976 F200.000
G1 X-28.531 Y343.276 Z5.976 F200.000
G1 X28.531 Y343.276 Z5.976 F200.000
G1 X28.530 Y343.206 Z5.976 F200.000
G1 X23.812 Y343.206 Z5.976 F200.000
G1 X23.812 Y343.206 Z5.829 F60.000
G1 X-28.530 Y343.206 Z5.829 F200.000
G1 X-28.531 Y343.276 Z5.829 F200.000
G1 X28.531 Y343.276 Z5.829 F200.000
G1 X28.530 Y343.206 Z5.829 F200.000
G1 X23.812 Y343.206 Z5.829 F200.000
G1 X23.812 Y343.206 Z5.682 F60.000
G1 X-28.530 Y343.206 Z5.682 F200.000
G1 X-28.531 Y343.276 Z5.682 F200.000
G1 X28.531 Y343.276 Z5.682 F200.000
G1 X28.530 Y343.206 Z5.682 F200.000
G1 X23.812 Y343.206 Z5.682 F200.000
G1 X23.812 Y343.206 Z5.535 F60.000
G1 X-28.530 Y343.206 Z5.535 F200.000
G1 X-28.531 Y343.276 Z5.535 F200.000
G1 X28.531 Y343.276 Z5.535 F200.000
G1 X28.530 Y343.206 Z5.535 F200.000
G1 X23.812 Y343.206 Z5.535 F200.000
G1 X23.812 Y343.206 Z5.388 F60.000
G1 X-28.530 Y343.206 Z5.388 F200.000
G1 X-28.531 Y343.276 Z5.388 F200.000
G1 X28.531 Y343.276 Z5.388 F200.000
G1 X28.530 Y343.206 Z5.388 F200.000
G1 X23.812 Y343.206 Z5.388 F200.000
G1 X23.812 Y343.206 Z5.241 F60.000
G1 X-28.530 Y343.206 Z5.241 F200.000
G1 X-28.531 Y343.276 Z5.241 F200.000
G1 X28.531 Y343.276 Z5.241 F200.000
G1 X28.530 Y343.206 Z5.241 F200.000
G1 X23.812 Y343.206 Z5.241 F200.000
G1 X23.812 Y343.206 Z5.100 F60.000
G1 X-28.530 Y343.206 Z5.100 F200.000
G1 X-28.531 Y343.276 Z5.100 F200.000
G1 X28.531 Y343.276 Z5.100 F200.000
G1 X28.530 Y343.206 Z5.100 F200.000
G1 X23.812 Y343.206 Z5.100 F200.000
G0 Z12.300
G0 Z12.300
G0 X23.812 Y343.206
G0 Y360.423
G0 Y360.423 Z10.300
G1 X23.812 Y360.423 Z7.153 F60.000
G1 X-28.795 Y360.423 Z7.153 F200.000
G1 X-28.796 Y360.493 Z7.153 F200.000
G1 X28.796 Y360.493 Z7.153 F200.000
G1 X28.795 Y360.423 Z7.153 F200.000
G1 X23.812 Y360.423 Z7.153 F200.000
G1 X23.812 Y360.423 Z7.006 F60.000
G1 X-28.795 Y360.423 Z7.006 F200.000
G1 X-28.796 Y360.493 Z7.006 F200.000
G1 X28.796 Y360.493 Z7.006 F200.000
G1 X28.795 Y360.423 Z7.006 F200.000
G1 X23.812 Y360.423 Z7.006 F200.000
G1 X23.812 Y360.423 Z6.859 F60.000
G1 X-28.795 Y360.423 Z6.859 F200.000
G1 X-28.796 Y360.493 Z6.859 F200.000
G1 X28.796 Y360.493 Z6.859 F200.000
G1 X28.795 Y360.423 Z6.859 F200.000
G1 X23.812 Y360.423 Z6.859 F200.000
G1 X23.812 Y360.423 Z6.712 F60.000
G1 X-28.795 Y360.423 Z6.712 F200.000
G1 X-28.796 Y360.493 Z6.712 F200.000
G1 X28.796 Y360.493 Z6.712 F200.000
G1 X28.795 Y360.423 Z6.712 F200.000
G1 X23.812 Y360.423 Z6.712 F200.000
G1 X23.812 Y360.423 Z6.565 F60.000
G1 X-28.795 Y360.423 Z6.565 F200.000
G1 X-28.796 Y360.493 Z6.565 F200.000
G1 X28.796 Y360.493 Z6.565 F200.000
G1 X28.795 Y360.423 Z6.565 F200.000
G1 X23.812 Y360.423 Z6.565 F200.000
G1 X23.812 Y360.423 Z6.418 F60.000
G1 X-28.795 Y360.423 Z6.418 F200.000
G1 X-28.796 Y360.493 Z6.418 F200.000
G1 X28.796 Y360.493 Z6.418 F200.000
G1 X28.795 Y360.423 Z6.418 F200.000
G1 X23.812 Y360.423 Z6.418 F200.000
G1 X23.812 Y360.423 Z6.271 F60.000
G1 X-28.795 Y360.423 Z6.271 F200.000
G1 X-28.796 Y360.493 Z6.271 F200.000
G1 X28.796 Y360.493 Z6.271 F200.000
G1 X28.795 Y360.423 Z6.271 F200.000
G1 X23.812 Y360.423 Z6.271 F200.000
G1 X23.812 Y360.423 Z6.124 F60.000
G1 X-28.795 Y360.423 Z6.124 F200.000
G1 X-28.796 Y360.493 Z6.124 F200.000
G1 X28.796 Y360.493 Z6.124 F200.000
G1 X28.795 Y360.423 Z6.124 F200.000
G1 X23.812 Y360.423 Z6.124 F200.000
G1 X23.812 Y360.423 Z5.976 F60.000
G1 X-28.795 Y360.423 Z5.976 F200.000
G1 X-28.796 Y360.493 Z5.976 F200.000
G1 X28.796 Y360.493 Z5.976 F200.000
G1 X28.795 Y360.423 Z5.976 F200.000
G1 X23.812 Y360.423 Z5.976 F200.000
G1 X23.812 Y360.423 Z5.829 F60.000
G1 X-28.795 Y360.423 Z5.829 F200.000
G1 X-28.796 Y360.493 Z5.829 F200.000
G1 X28.796 Y360.493 Z5.829 F200.000
G1 X28.795 Y360.423 Z5.829 F200.000
G1 X23.812 Y360.423 Z5.829 F200.000
G1 X23.812 Y360.423 Z5.682 F60.000
G1 X-28.795 Y360.423 Z5.682 F200.000
G1 X-28.796 Y360.493 Z5.682 F200.000
G1 X28.796 Y360.493 Z5.682 F200.000
G1 X28.795 Y360.423 Z5.682 F200.000
G1 X23.812 Y360.423 Z5.682 F200.000
G1 X23.812 Y360.423 Z5.535 F60.000
G1 X-28.795 Y360.423 Z5.535 F200.000
G1 X-28.796 Y360.493 Z5.535 F200.000
G1 X28.796 Y360.493 Z5.535 F200.000
G1 X28.795 Y360.423 Z5.535 F200.000
G1 X23.812 Y360.423 Z5.535 F200.000
G1 X23.812 Y360.423 Z5.388 F60.000
G1 X-28.795 Y360.423 Z5.388 F200.000
G1 X-28.796 Y360.493 Z5.388 F200.000
G1 X28.796 Y360.493 Z5.388 F200.000
G1 X28.795 Y360.423 Z5.388 F200.000
G1 X23.812 Y360.423 Z5.388 F200.000
G1 X23.812 Y360.423 Z5.241 F60.000
G1 X-28.795 Y360.423 Z5.241 F200.000
G1 X-28.796 Y360.493 Z5.241 F200.000
G1 X28.796 Y360.493 Z5.241 F200.000
G1 X28.795 Y360.423 Z5.241 F200.000
G1 X23.812 Y360.423 Z5.241 F200.000
G1 X23.812 Y360.423 Z5.100 F60.000
G1 X-28.795 Y360.423 Z5.100 F200.000
G1 X-28.796 Y360.493 Z5.100 F200.000
G1 X28.796 Y360.493 Z5.100 F200.000
G1 X28.795 Y360.423 Z5.100 F200.000
G1 X23.812 Y360.423 Z5.100 F200.000
G0 Z12.300
G0 Z12.300
G0 X23.812 Y360.423
G0 Y376.674
G0 Y376.674 Z10.300
G1 X23.812 Y376.674 Z7.153 F60.000
G1 X-29.045 Y376.674 Z7.153 F200.000
G1 X-29.046 Y376.744 Z7.153 F200.000
G1 X29.046 Y376.744 Z7.153 F200.000
G1 X29.045 Y376.674 Z7.153 F200.000
G1 X23.812 Y376.674 Z7.153 F200.000
G1 X23.812 Y376.674 Z7.006 F60.000
G1 X-29.045 Y376.674 Z7.006 F200.000
G1 X-29.046 Y376.744 Z7.006 F200.000
G1 X29.046 Y376.744 Z7.006 F200.000
G1 X29.045 Y376.674 Z7.006 F200.000
G1 X23.812 Y376.674 Z7.006 F200.000
G1 X23.812 Y376.674 Z6.859 F60.000
G1 X-29.045 Y376.674 Z6.859 F200.000
G1 X-29.046 Y376.744 Z6.859 F200.000
G1 X29.046 Y376.744 Z6.859 F200.000
G1 X29.045 Y376.674 Z6.859 F200.000
G1 X23.812 Y376.674 Z6.859 F200.000
G1 X23.812 Y376.674 Z6.712 F60.000
G1 X-29.045 Y376.674 Z6.712 F200.000
G1 X-29.046 Y376.744 Z6.712 F200.000
G1 X29.046 Y376.744 Z6.712 F200.000
G1 X29.045 Y376.674 Z6.712 F200.000
G1 X23.812 Y376.674 Z6.712 F200.000
G1 X23.812 Y376.674 Z6.565 F60.000
G1 X-29.045 Y376.674 Z6.565 F200.000
G1 X-29.046 Y376.744 Z6.565 F200.000
G1 X29.046 Y376.744 Z6.565 F200.000
G1 X29.045 Y376.674 Z6.565 F200.000
G1 X23.812 Y376.674 Z6.565 F200.000
G1 X23.812 Y376.674 Z6.418 F60.000
G1 X-29.045 Y376.674 Z6.418 F200.000
G1 X-29.046 Y376.744 Z6.418 F200.000
G1 X29.046 Y376.744 Z6.418 F200.000
G1 X29.045 Y376.674 Z6.418 F200.000
G1 X23.812 Y376.674 Z6.418 F200.000
G1 X23.812 Y376.674 Z6.271 F60.000
G1 X-29.045 Y376.674 Z6.271 F200.000
G1 X-29.046 Y376.744 Z6.271 F200.000
G1 X29.046 Y376.744 Z6.271 F200.000
G1 X29.045 Y376.674 Z6.271 F200.000
G1 X23.812 Y376.674 Z6.271 F200.000
G1 X23.812 Y376.674 Z6.124 F60.000
G1 X-29.045 Y376.674 Z6.124 F200.000
G1 X-29.046 Y376.744 Z6.124 F200.000
G1 X29.046 Y376.744 Z6.124 F200.000
G1 X29.045 Y376.674 Z6.124 F200.000
G1 X23.812 Y376.674 Z6.124 F200.000
G1 X23.812 Y376.674 Z5.976 F60.000
G1 X-29.045 Y376.674 Z5.976 F200.000
G1 X-29.046 Y376.744 Z5.976 F200.000
G1 X29.046 Y376.744 Z5.976 F200.000
G1 X29.045 Y376.674 Z5.976 F200.000
G1 X23.812 Y376.674 Z5.976 F200.000
G1 X23.812 Y376.674 Z5.829 F60.000
G1 X-29.045 Y376.674 Z5.829 F200.000
G1 X-29.046 Y376.744 Z5.829 F200.000
G1 X29.046 Y376.744 Z5.829 F200.000
G1 X29.045 Y376.674 Z5.829 F200.000
G1 X23.812 Y376.674 Z5.829 F200.000
G1 X23.812 Y376.674 Z5.682 F60.000
G1 X-29.045 Y376.674 Z5.682 F200.000
G1 X-29.046 Y376.744 Z5.682 F200.000
G1 X29.046 Y376.744 Z5.682 F200.000
G1 X29.045 Y376.674 Z5.682 F200.000
G1 X23.812 Y376.674 Z5.682 F200.000
G1 X23.812 Y376.674 Z5.535 F60.000
G1 X-29.045 Y376.674 Z5.535 F200.000
G1 X-29.046 Y376.744 Z5.535 F200.000
G1 X29.046 Y376.744 Z5.535 F200.000
G1 X29.045 Y376.674 Z5.535 F200.000
G1 X23.812 Y376.674 Z5.535 F200.000
G1 X23.812 Y376.674 Z5.388 F60.000
G1 X-29.045 Y376.674 Z5.388 F200.000
G1 X-29.046 Y376.744 Z5.388 F200.000
G1 X29.046 Y376.744 Z5.388 F200.000
G1 X29.045 Y376.674 Z5.388 F200.000
G1 X23.812 Y376.674 Z5.388 F200.000
G1 X23.812 Y376.674 Z5.241 F60.000
G1 X-29.045 Y376.674 Z5.241 F200.000
G1 X-29.046 Y376.744 Z5.241 F200.000
G1 X29.046 Y376.744 Z5.241 F200.000
G1 X29.045 Y376.674 Z5.241 F200.000
G1 X23.812 Y376.674 Z5.241 F200.000
G1 X23.812 Y376.674 Z5.100 F60.000
G1 X-29.045 Y376.674 Z5.100 F200.000
G1 X-29.046 Y376.744 Z5.100 F200.000
G1 X29.046 Y376.744 Z5.100 F200.000
G1 X29.045 Y376.674 Z5.100 F200.000
G1 X23.812 Y376.674 Z5.100 F200.000
G0 Z12.300
G0 Z12.300
G0 X23.812 Y376.674
G0 Y392.013
G0 Y392.013 Z10.300
G1 X23.812 Y392.013 Z7.153 F60.000
G1 X-29.281 Y392.013 Z7.153 F200.000
G1 X-29.282 Y392.083 Z7.153 F200.000
G1 X29.282 Y392.083 Z7.153 F200.000
G1 X29.281 Y392.013 Z7.153 F200.000
G1 X23.812 Y392.013 Z7.153 F200.000
G1 X23.812 Y392.013 Z7.006 F60.000
G1 X-29.281 Y392.013 Z7.006 F200.000
G1 X-29.282 Y392.083 Z7.006 F200.000
G1 X29.282 Y392.083 Z7.006 F200.000
G1 X29.281 Y392.013 Z7.006 F200.000
G1 X23.812 Y392.013 Z7.006 F200.000
G1 X23.812 Y392.013 Z6.859 F60.000
G1 X-29.281 Y392.013 Z6.859 F200.000
G1 X-29.282 Y392.083 Z6.859 F200.000
G1 X29.282 Y392.083 Z6.859 F200.000
G1 X29.281 Y392.013 Z6.859 F200.000
G1 X23.812 Y392.013 Z6.859 F200.000
G1 X23.812 Y392.013 Z6.712 F60.000
G1 X-29.281 Y392.013 Z6.712 F200.000
G1 X-29.282 Y392.083 Z6.712 F200.000
G1 X29.282 Y392.083 Z6.712 F200.000
G1 X29.281 Y392.013 Z6.712 F200.000
G1 X23.812 Y392.013 Z6.712 F200.000
G1 X23.812 Y392.013 Z6.565 F60.000
G1 X-29.281 Y392.013 Z6.565 F200.000
G1 X-29.282 Y392.083 Z6.565 F200.000
G1 X29.282 Y392.083 Z6.565 F200.000
G1 X29.281 Y392.013 Z6.565 F200.000
G1 X23.812 Y392.013 Z6.565 F200.000
G1 X23.812 Y392.013 Z6.418 F60.000
G1 X-29.281 Y392.013 Z6.418 F200.000
G1 X-29.282 Y392.083 Z6.418 F200.000
G1 X29.282 Y392.083 Z6.418 F200.000
G1 X29.281 Y392.013 Z6.418 F200.000
G1 X23.812 Y392.013 Z6.418 F200.000
G1 X23.812 Y392.013 Z6.271 F60.000
G1 X-29.281 Y392.013 Z6.271 F200.000
G1 X-29.282 Y392.083 Z6.271 F200.000
G1 X29.282 Y392.083 Z6.271 F200.000
G1 X29.281 Y392.013 Z6.271 F200.000
G1 X23.812 Y392.013 Z6.271 F200.000
G1 X23.812 Y392.013 Z6.124 F60.000
G1 X-29.281 Y392.013 Z6.124 F200.000
G1 X-29.282 Y392.083 Z6.124 F200.000
G1 X29.282 Y392.083 Z6.124 F200.000
G1 X29.281 Y392.013 Z6.124 F200.000
G1 X23.812 Y392.013 Z6.124 F200.000
G1 X23.812 Y392.013 Z5.976 F60.000
G1 X-29.281 Y392.013 Z5.976 F200.000
G1 X-29.282 Y392.083 Z5.976 F200.000
G1 X29.282 Y392.083 Z5.976 F200.000
G1 X29.281 Y392.013 Z5.976 F200.000
G1 X23.812 Y392.013 Z5.976 F200.000
G1 X23.812 Y392.013 Z5.829 F60.000
G1 X-29.281 Y392.013 Z5.829 F200.000
G1 X-29.282 Y392.083 Z5.829 F200.000
G1 X29.282 Y392.083 Z5.829 F200.000
G1 X29.281 Y392.013 Z5.829 F200.000
G1 X23.812 Y392.013 Z5.829 F200.000
G1 X23.812 Y392.013 Z5.682 F60.000
G1 X-29.281 Y392.013 Z5.682 F200.000
G1 X-29.282 Y392.083 Z5.682 F200.000
G1 X29.282 Y392.083 Z5.682 F200.000
G1 X29.281 Y392.013 Z5.682 F200.000
G1 X23.812 Y392.013 Z5.682 F200.000
G1 X23.812 Y392.013 Z5.535 F60.000
G1 X-29.281 Y392.013 Z5.535 F200.000
G1 X-29.282 Y392.083 Z5.535 F200.000
G1 X29.282 Y392.083 Z5.535 F200.000
G1 X29.281 Y392.013 Z5.535 F200.000
G1 X23.812 Y392.013 Z5.535 F200.000
G1 X23.812 Y392.013 Z5.388 F60.000
G1 X-29.281 Y392.013 Z5.388 F200.000
G1 X-29.282 Y392.083 Z5.388 F200.000
G1 X29.282 Y392.083 Z5.388 F200.000
G1 X29.281 Y392.013 Z5.388 F200.000
G1 X23.812 Y392.013 Z5.388 F200.000
G1 X23.812 Y392.013 Z5.241 F60.000
G1 X-29.281 Y392.013 Z5.241 F200.000
G1 X-29.282 Y392.083 Z5.241 F200.000
G1 X29.282 Y392.083 Z5.241 F200.000
G1 X29.281 Y392.013 Z5.241 F200.000
G1 X23.812 Y392.013 Z5.241 F200.000
G1 X23.812 Y392.013 Z5.100 F60.000
G1 X-29.281 Y392.013 Z5.100 F200.000
G1 X-29.282 Y392.083 Z5.100 F200.000
G1 X29.282 Y392.083 Z5.100 F200.000
G1 X29.281 Y392.013 Z5.100 F200.000
G1 X23.812 Y392.013 Z5.100 F200.000
G0 Z12.300
G0 Z12.300
G0 X23.812 Y392.013
G0 Y406.491
G0 Y406.491 Z10.300
G1 X23.812 Y406.491 Z7.153 F60.000
G1 X-29.504 Y406.491 Z7.153 F200.000
G1 X-29.505 Y406.561 Z7.153 F200.000
G1 X29.505 Y406.561 Z7.153 F200.000
G1 X29.504 Y406.491 Z7.153 F200.000
G1 X23.812 Y406.491 Z7.153 F200.000
G1 X23.812 Y406.491 Z7.006 F60.000
G1 X-29.504 Y406.491 Z7.006 F200.000
G1 X-29.505 Y406.561 Z7.006 F200.000
G1 X29.505 Y406.561 Z7.006 F200.000
G1 X29.504 Y406.491 Z7.006 F200.000
G1 X23.812 Y406.491 Z7.006 F200.000
G1 X23.812 Y406.491 Z6.859 F60.000
G1 X-29.504 Y406.491 Z6.859 F200.000
G1 X-29.505 Y406.561 Z6.859 F200.000
G1 X29.505 Y406.561 Z6.859 F200.000
G1 X29.504 Y406.491 Z6.859 F200.000
G1 X23.812 Y406.491 Z6.859 F200.000
G1 X23.812 Y406.491 Z6.712 F60.000
G1 X-29.504 Y406.491 Z6.712 F200.000
G1 X-29.505 Y406.561 Z6.712 F200.000
G1 X29.505 Y406.561 Z6.712 F200.000
G1 X29.504 Y406.491 Z6.712 F200.000
G1 X23.812 Y406.491 Z6.712 F200.000
G1 X23.812 Y406.491 Z6.565 F60.000
G1 X-29.504 Y406.491 Z6.565 F200.000
G1 X-29.505 Y406.561 Z6.565 F200.000
G1 X29.505 Y406.561 Z6.565 F200.000
G1 X29.504 Y406.491 Z6.565 F200.000
G1 X23.812 Y406.491 Z6.565 F200.000
G1 X23.812 Y406.491 Z6.418 F60.000
G1 X-29.504 Y406.491 Z6.418 F200.000
G1 X-29.505 Y406.561 Z6.418 F200.000
G1 X29.505 Y406.561 Z6.418 F200.000
G1 X29.504 Y406.491 Z6.418 F200.000
G1 X23.812 Y406.491 Z6.418 F200.000
G1 X23.812 Y406.491 Z6.271 F60.000
G1 X-29.504 Y406.491 Z6.271 F200.000
G1 X-29.505 Y406.561 Z6.271 F200.000
G1 X29.505 Y406.561 Z6.271 F200.000
G1 X29.504 Y406.491 Z6.271 F200.000
G1 X23.812 Y406.491 Z6.271 F200.000
G1 X23.812 Y406.491 Z6.124 F60.000
G1 X-29.504 Y406.491 Z6.124 F200.000
G1 X-29.505 Y406.561 Z6.124 F200.000
G1 X29.505 Y406.561 Z6.124 F200.000
G1 X29.504 Y406.491 Z6.124 F200.000
G1 X23.812 Y406.491 Z6.124 F200.000
G1 X23.812 Y406.491 Z5.976 F60.000
G1 X-29.504 Y406.491 Z5.976 F200.000
G1 X-29.505 Y406.561 Z5.976 F200.000
G1 X29.505 Y406.561 Z5.976 F200.000
G1 X29.504 Y406.491 Z5.976 F200.000
G1 X23.812 Y406.491 Z5.976 F200.000
G1 X23.812 Y406.491 Z5.829 F60.000
G1 X-29.504 Y406.491 Z5.829 F200.000
G1 X-29.505 Y406.561 Z5.829 F200.000
G1 X29.505 Y406.561 Z5.829 F200.000
G1 X29.504 Y406.491 Z5.829 F200.000
G1 X23.812 Y406.491 Z5.829 F200.000
G1 X23.812 Y406.491 Z5.682 F60.000
G1 X-29.504 Y406.491 Z5.682 F200.000
G1 X-29.505 Y406.561 Z5.682 F200.000
G1 X29.505 Y406.561 Z5.682 F200.000
G1 X29.504 Y406.491 Z5.682 F200.000
G1 X23.812 Y406.491 Z5.682 F200.000
G1 X23.812 Y406.491 Z5.535 F60.000
G1 X-29.504 Y406.491 Z5.535 F200.000
G1 X-29.505 Y406.561 Z5.535 F200.000
G1 X29.505 Y406.561 Z5.535 F200.000
G1 X29.504 Y406.491 Z5.535 F200.000
G1 X23.812 Y406.491 Z5.535 F200.000
G1 X23.812 Y406.491 Z5.388 F60.000
G1 X-29.504 Y406.491 Z5.388 F200.000
G1 X-29.505 Y406.561 Z5.388 F200.000
G1 X29.505 Y406.561 Z5.388 F200.000
G1 X29.504 Y406.491 Z5.388 F200.000
G1 X23.812 Y406.491 Z5.388 F200.000
G1 X23.812 Y406.491 Z5.241 F60.000
G1 X-29.504 Y406.491 Z5.241 F200.000
G1 X-29.505 Y406.561 Z5.241 F200.000
G1 X29.505 Y406.561 Z5.241 F200.000
G1 X29.504 Y406.491 Z5.241 F200.000
G1 X23.812 Y406.491 Z5.241 F200.000
G1 X23.812 Y406.491 Z5.100 F60.000
G1 X-29.504 Y406.491 Z5.100 F200.000
G1 X-29.505 Y406.561 Z5.100 F200.000
G1 X29.505 Y406.561 Z5.100 F200.000
G1 X29.504 Y406.491 Z5.100 F200.000
G1 X23.812 Y406.491 Z5.100 F200.000
G0 Z12.300
G0 Z12.300
G0 X23.812 Y406.491
G0 Y420.156
G0 Y420.156 Z10.300
G1 X23.812 Y420.156 Z7.153 F60.000
G1 X-29.714 Y420.156 Z7.153 F200.000
G1 X-29.715 Y420.226 Z7.153 F200.000
G1 X29.715 Y420.226 Z7.153 F200.000
G1 X29.714 Y420.156 Z7.153 F200.000
G1 X23.812 Y420.156 Z7.153 F200.000
G1 X23.812 Y420.156 Z7.006 F60.000
G1 X-29.714 Y420.156 Z7.006 F200.000
G1 X-29.715 Y420.226 Z7.006 F200.000
G1 X29.715 Y420.226 Z7.006 F200.000
G1 X29.714 Y420.156 Z7.006 F200.000
G1 X23.812 Y420.156 Z7.006 F200.000
G1 X23.812 Y420.156 Z6.859 F60.000
G1 X-29.714 Y420.156 Z6.859 F200.000
G1 X-29.715 Y420.226 Z6.859 F200.000
G1 X29.715 Y420.226 Z6.859 F200.000
G1 X29.714 Y420.156 Z6.859 F200.000
G1 X23.812 Y420.156 Z6.859 F200.000
G1 X23.812 Y420.156 Z6.712 F60.000
G1 X-29.714 Y420.156 Z6.712 F200.000
G1 X-29.715 Y420.226 Z6.712 F200.000
G1 X29.715 Y420.226 Z6.712 F200.000
G1 X29.714 Y420.156 Z6.712 F200.000
G1 X23.812 Y420.156 Z6.712 F200.000
G1 X23.812 Y420.156 Z6.565 F60.000
G1 X-29.714 Y420.156 Z6.565 F200.000
G1 X-29.715 Y420.226 Z6.565 F200.000
G1 X29.715 Y420.226 Z6.565 F200.000
G1 X29.714 Y420.156 Z6.565 F200.000
G1 X23.812 Y420.156 Z6.565 F200.000
G1 X23.812 Y420.156 Z6.418 F60.000
G1 X-29.714 Y420.156 Z6.418 F200.000
G1 X-29.715 Y420.226 Z6.418 F200.000
G1 X29.715 Y420.226 Z6.418 F200.000
G1 X29.714 Y420.156 Z6.418 F200.000
G1 X23.812 Y420.156 Z6.418 F200.000
G1 X23.812 Y420.156 Z6.271 F60.000
G1 X-29.714 Y420.156 Z6.271 F200.000
G1 X-29.715 Y420.226 Z6.271 F200.000
G1 X29.715 Y420.226 Z6.271 F200.000
G1 X29.714 Y420.156 Z6.271 F200.000
G1 X23.812 Y420.156 Z6.271 F200.000
G1 X23.812 Y420.156 Z6.124 F60.000
G1 X-29.714 Y420.156 Z6.124 F200.000
G1 X-29.715 Y420.226 Z6.124 F200.000
G1 X29.715 Y420.226 Z6.124 F200.000
G1 X29.714 Y420.156 Z6.124 F200.000
G1 X23.812 Y420.156 Z6.124 F200.000
G1 X23.812 Y420.156 Z5.976 F60.000
G1 X-29.714 Y420.156 Z5.976 F200.000
G1 X-29.715 Y420.226 Z5.976 F200.000
G1 X29.715 Y420.226 Z5.976 F200.000
G1 X29.714 Y420.156 Z5.976 F200.000
G1 X23.812 Y420.156 Z5.976 F200.000
G1 X23.812 Y420.156 Z5.829 F60.000
G1 X-29.714 Y420.156 Z5.829 F200.000
G1 X-29.715 Y420.226 Z5.829 F200.000
G1 X29.715 Y420.226 Z5.829 F200.000
G1 X29.714 Y420.156 Z5.829 F200.000
G1 X23.812 Y420.156 Z5.829 F200.000
G1 X23.812 Y420.156 Z5.682 F60.000
G1 X-29.714 Y420.156 Z5.682 F200.000
G1 X-29.715 Y420.226 Z5.682 F200.000
G1 X29.715 Y420.226 Z5.682 F200.000
G1 X29.714 Y420.156 Z5.682 F200.000
G1 X23.812 Y420.156 Z5.682 F200.000
G1 X23.812 Y420.156 Z5.535 F60.000
G1 X-29.714 Y420.156 Z5.535 F200.000
G1 X-29.715 Y420.226 Z5.535 F200.000
G1 X29.715 Y420.226 Z5.535 F200.000
G1 X29.714 Y420.156 Z5.535 F200.000
G1 X23.812 Y420.156 Z5.535 F200.000
G1 X23.812 Y420.156 Z5.388 F60.000
G1 X-29.714 Y420.156 Z5.388 F200.000
G1 X-29.715 Y420.226 Z5.388 F200.000
G1 X29.715 Y420.226 Z5.388 F200.000
G1 X29.714 Y420.156 Z5.388 F200.000
G1 X23.812 Y420.156 Z5.388 F200.000
G1 X23.812 Y420.156 Z5.241 F60.000
G1 X-29.714 Y420.156 Z5.241 F200.000
G1 X-29.715 Y420.226 Z5.241 F200.000
G1 X29.715 Y420.226 Z5.241 F200.000
G1 X29.714 Y420.156 Z5.241 F200.000
G1 X23.812 Y420.156 Z5.241 F200.000
G1 X23.812 Y420.156 Z5.100 F60.000
G1 X-29.714 Y420.156 Z5.100 F200.000
G1 X-29.715 Y420.226 Z5.100 F200.000
G1 X29.715 Y420.226 Z5.100 F200.000
G1 X29.714 Y420.156 Z5.100 F200.000
G1 X23.812 Y420.156 Z5.100 F200.000
G0 Z12.300
G0 Z12.300
G0 X23.812 Y420.156
G0 Y433.054
G0 Y433.054 Z10.300
G1 X23.812 Y433.054 Z7.153 F60.000
G1 X-29.912 Y433.054 Z7.153 F200.000
G1 X-29.913 Y433.124 Z7.153 F200.000
G1 X29.913 Y433.124 Z7.153 F200.000
G1 X29.912 Y433.054 Z7.153 F200.000
G1 X23.812 Y433.054 Z7.153 F200.000
G1 X23.812 Y433.054 Z7.006 F60.000
G1 X-29.912 Y433.054 Z7.006 F200.000
G1 X-29.913 Y433.124 Z7.006 F200.000
G1 X29.913 Y433.124 Z7.006 F200.000
G1 X29.912 Y433.054 Z7.006 F200.000
G1 X23.812 Y433.054 Z7.006 F200.000
G1 X23.812 Y433.054 Z6.859 F60.000
G1 X-29.912 Y433.054 Z6.859 F200.000
G1 X-29.913 Y433.124 Z6.859 F200.000
G1 X29.913 Y433.124 Z6.859 F200.000
G1 X29.912 Y433.054 Z6.859 F200.000
G1 X23.812 Y433.054 Z6.859 F200.000
G1 X23.812 Y433.054 Z6.712 F60.000
G1 X-29.912 Y433.054 Z6.712 F200.000
G1 X-29.913 Y433.124 Z6.712 F200.000
G1 X29.913 Y433.124 Z6.712 F200.000
G1 X29.912 Y433.054 Z6.712 F200.000
G1 X23.812 Y433.054 Z6.712 F200.000
G1 X23.812 Y433.054 Z6.565 F60.000
G1 X-29.912 Y433.054 Z6.565 F200.000
G1 X-29.913 Y433.124 Z6.565 F200.000
G1 X29.913 Y433.124 Z6.565 F200.000
G1 X29.912 Y433.054 Z6.565 F200.000
G1 X23.812 Y433.054 Z6.565 F200.000
G1 X23.812 Y433.054 Z6.418 F60.000
G1 X-29.912 Y433.054 Z6.418 F200.000
G1 X-29.913 Y433.124 Z6.418 F200.000
G1 X29.913 Y433.124 Z6.418 F200.000
G1 X29.912 Y433.054 Z6.418 F200.000
G1 X23.812 Y433.054 Z6.418 F200.000
G1 X23.812 Y433.054 Z6.271 F60.000
G1 X-29.912 Y433.054 Z6.271 F200.000
G1 X-29.913 Y433.124 Z6.271 F200.000
G1 X29.913 Y433.124 Z6.271 F200.000
G1 X29.912 Y433.054 Z6.271 F200.000
G1 X23.812 Y433.054 Z6.271 F200.000
G1 X23.812 Y433.054 Z6.124 F60.000
G1 X-29.912 Y433.054 Z6.124 F200.000
G1 X-29.913 Y433.124 Z6.124 F200.000
G1 X29.913 Y433.124 Z6.124 F200.000
G1 X29.912 Y433.054 Z6.124 F200.000
G1 X23.812 Y433.054 Z6.124 F200.000
G1 X23.812 Y433.054 Z5.976 F60.000
G1 X-29.912 Y433.054 Z5.976 F200.000
G1 X-29.913 Y433.124 Z5.976 F200.000
G1 X29.913 Y433.124 Z5.976 F200.000
G1 X29.912 Y433.054 Z5.976 F200.000
G1 X23.812 Y433.054 Z5.976 F200.000
G1 X23.812 Y433.054 Z5.829 F60.000
G1 X-29.912 Y433.054 Z5.829 F200.000
G1 X-29.913 Y433.124 Z5.829 F200.000
G1 X29.913 Y433.124 Z5.829 F200.000
G1 X29.912 Y433.054 Z5.829 F200.000
G1 X23.812 Y433.054 Z5.829 F200.000
G1 X23.812 Y433.054 Z5.682 F60.000
G1 X-29.912 Y433.054 Z5.682 F200.000
G1 X-29.913 Y433.124 Z5.682 F200.000
G1 X29.913 Y433.124 Z5.682 F200.000
G1 X29.912 Y433.054 Z5.682 F200.000
G1 X23.812 Y433.054 Z5.682 F200.000
G1 X23.812 Y433.054 Z5.535 F60.000
G1 X-29.912 Y433.054 Z5.535 F200.000
G1 X-29.913 Y433.124 Z5.535 F200.000
G1 X29.913 Y433.124 Z5.535 F200.000
G1 X29.912 Y433.054 Z5.535 F200.000
G1 X23.812 Y433.054 Z5.535 F200.000
G1 X23.812 Y433.054 Z5.388 F60.000
G1 X-29.912 Y433.054 Z5.388 F200.000
G1 X-29.913 Y433.124 Z5.388 F200.000
G1 X29.913 Y433.124 Z5.388 F200.000
G1 X29.912 Y433.054 Z5.388 F200.000
G1 X23.812 Y433.054 Z5.388 F200.000
G1 X23.812 Y433.054 Z5.241 F60.000
G1 X-29.912 Y433.054 Z5.241 F200.000
G1 X-29.913 Y433.124 Z5.241 F200.000
G1 X29.913 Y433.124 Z5.241 F200.000
G1 X29.912 Y433.054 Z5.241 F200.000
G1 X23.812 Y433.054 Z5.241 F200.000
G1 X23.812 Y433.054 Z5.100 F60.000
G1 X-29.912 Y433.054 Z5.100 F200.000
G1 X-29.913 Y433.124 Z5.100 F200.000
G1 X29.913 Y433.124 Z5.100 F200.000
G1 X29.912 Y433.054 Z5.100 F200.000
G1 X23.812 Y433.054 Z5.100 F200.000
G0 Z12.300
G0 Z12.300
G0 X23.812 Y433.054
G0 X24.175 Y445.228
G0 X24.175 Y445.228 Z10.300
G1 X24.175 Y445.228 Z7.153 F60.000
G1 X24.243 Y445.298 Z7.153 F200.000
G1 X30.101 Y445.298 Z7.153 F200.000
G1 X30.100 Y445.228 Z7.153 F200.000
G1 X24.175 Y445.228 Z7.153 F200.000
G1 X24.175 Y445.228 Z7.006 F60.000
G1 X24.243 Y445.298 Z7.006 F200.000
G1 X30.101 Y445.298 Z7.006 F200.000
G1 X30.100 Y445.228 Z7.006 F200.000
G1 X24.175 Y445.228 Z7.006 F200.000
G1 X24.175 Y445.228 Z6.859 F60.000
G1 X24.243 Y445.298 Z6.859 F200.000
G1 X30.101 Y445.298 Z6.859 F200.000
G1 X30.100 Y445.228 Z6.859 F200.000
G1 X24.175 Y445.228 Z6.859 F200.000
G1 X24.175 Y445.228 Z6.712 F60.000
G1 X24.243 Y445.298 Z6.712 F200.000
G1 X30.101 Y445.298 Z6.712 F200.000
G1 X30.100 Y445.228 Z6.712 F200.000
G1 X24.175 Y445.228 Z6.712 F200.000
G1 X24.175 Y445.228 Z6.565 F60.000
G1 X24.243 Y445.298 Z6.565 F200.000
G1 X30.101 Y445.298 Z6.565 F200.000
G1 X30.100 Y445.228 Z6.565 F200.000
G1 X24.175 Y445.228 Z6.565 F200.000
G1 X24.175 Y445.228 Z6.418 F60.000
G1 X24.243 Y445.298 Z6.418 F200.000
G1 X30.101 Y445.298 Z6.418 F200.000
G1 X30.100 Y445.228 Z6.418 F200.000
G1 X24.175 Y445.228 Z6.418 F200.000
G1 X24.175 Y445.228 Z6.271 F60.000
G1 X24.243 Y445.298 Z6.271 F200.000
G1 X30.101 Y445.298 Z6.271 F200.000
G1 X30.100 Y445.228 Z6.271 F200.000
G1 X24.175 Y445.228 Z6.271 F200.000
G1 X24.175 Y445.228 Z6.124 F60.000
G1 X24.243 Y445.298 Z6.124 F200.000
G1 X30.101 Y445.298 Z6.124 F200.000
G1 X30.100 Y445.228 Z6.124 F200.000
G1 X24.175 Y445.228 Z6.124 F200.000
G1 X24.175 Y445.228 Z5.976 F60.000
G1 X24.243 Y445.298 Z5.976 F200.000
G1 X30.101 Y445.298 Z5.976 F200.000
G1 X30.100 Y445.228 Z5.976 F200.000
G1 X24.175 Y445.228 Z5.976 F200.000
G1 X24.175 Y445.228 Z5.829 F60.000
G1 X24.243 Y445.298 Z5.829 F200.000
G1 X30.101 Y445.298 Z5.829 F200.000
G1 X30.100 Y445.228 Z5.829 F200.000
G1 X24.175 Y445.228 Z5.829 F200.000
G1 X24.175 Y445.228 Z5.682 F60.000
G1 X24.243 Y445.298 Z5.682 F200.000
G1 X30.101 Y445.298 Z5.682 F200.000
G1 X30.100 Y445.228 Z5.682 F200.000
G1 X24.175 Y445.228 Z5.682 F200.000
G1 X24.175 Y445.228 Z5.535 F60.000
G1 X24.243 Y445.298 Z5.535 F200.000
G1 X30.101 Y445.298 Z5.535 F200.000
G1 X30.100 Y445.228 Z5.535 F200.000
G1 X24.175 Y445.228 Z5.535 F200.000
G1 X24.175 Y445.228 Z5.388 F60.000
G1 X24.243 Y445.298 Z5.388 F200.000
G1 X30.101 Y445.298 Z5.388 F200.000
G1 X30.100 Y445.228 Z5.388 F200.000
G1 X24.175 Y445.228 Z5.388 F200.000
G1 X24.175 Y445.228 Z5.241 F60.000
G1 X24.243 Y445.298 Z5.241 F200.000
G1 X30.101 Y445.298 Z5.241 F200.000
G1 X30.100 Y445.228 Z5.241 F200.000
G1 X24.175 Y445.228 Z5.241 F200.000
G1 X24.175 Y445.228 Z5.100 F60.000
G1 X24.243 Y445.298 Z5.100 F200.000
G1 X30.101 Y445.298 Z5.100 F200.000
G1 X30.100 Y445.228 Z5.100 F200.000
G1 X24.175 Y445.228 Z5.100 F200.000
G0 Z12.300
G0 Z12.300
G0 X24.175 Y445.228
G0 X-7.983
G0 X-7.983 Z10.300
G1 X-7.983 Y445.228 Z7.153 F60.000
G1 X-30.100 Y445.228 Z7.153 F200.000
G1 X-30.101 Y445.298 Z7.153 F200.000
G1 X-8.054 Y445.298 Z7.153 F200.000
G1 X-7.983 Y445.228 Z7.153 F200.000
G1 X-7.983 Y445.228 Z7.006 F60.000
G1 X-30.100 Y445.228 Z7.006 F200.000
G1 X-30.101 Y445.298 Z7.006 F200.000
G1 X-8.054 Y445.298 Z7.006 F200.000
G1 X-7.983 Y445.228 Z7.006 F200.000
G1 X-7.983 Y445.228 Z6.859 F60.000
G1 X-30.100 Y445.228 Z6.859 F200.000
G1 X-30.101 Y445.298 Z6.859 F200.000
G1 X-8.054 Y445.298 Z6.859 F200.000
G1 X-7.983 Y445.228 Z6.859 F200.000
G1 X-7.983 Y445.228 Z6.712 F60.000
G1 X-30.100 Y445.228 Z6.712 F200.000
G1 X-30.101 Y445.298 Z6.712 F200.000
G1 X-8.054 Y445.298 Z6.712 F200.000
G1 X-7.983 Y445.228 Z6.712 F200.000
G1 X-7.983 Y445.228 Z6.565 F60.000
G1 X-30.100 Y445.228 Z6.565 F200.000
G1 X-30.101 Y445.298 Z6.565 F200.000
G1 X-8.054 Y445.298 Z6.565 F200.000
G1 X-7.983 Y445.228 Z6.565 F200.000
G1 X-7.983 Y445.228 Z6.418 F60.000
G1 X-30.100 Y445.228 Z6.418 F200.000
G1 X-30.101 Y445.298 Z6.418 F200.000
G1 X-8.054 Y445.298 Z6.418 F200.000
G1 X-7.983 Y445.228 Z6.418 F200.000
G1 X-7.983 Y445.228 Z6.271 F60.000
G1 X-30.100 Y445.228 Z6.271 F200.000
G1 X-30.101 Y445.298 Z6.271 F200.000
G1 X-8.054 Y445.298 Z6.271 F200.000
G1 X-7.983 Y445.228 Z6.271 F200.000
G1 X-7.983 Y445.228 Z6.124 F60.000
G1 X-30.100 Y445.228 Z6.124 F200.000
G1 X-30.101 Y445.298 Z6.124 F200.000
G1 X-8.054 Y445.298 Z6.124 F200.000
G1 X-7.983 Y445.228 Z6.124 F200.000
G1 X-7.983 Y445.228 Z5.976 F60.000
G1 X-30.100 Y445.228 Z5.976 F200.000
G1 X-30.101 Y445.298 Z5.976 F200.000
G1 X-8.054 Y445.298 Z5.976 F200.000
G1 X-7.983 Y445.228 Z5.976 F200.000
G1 X-7.983 Y445.228 Z5.829 F60.000
G1 X-30.100 Y445.228 Z5.829 F200.000
G1 X-30.101 Y445.298 Z5.829 F200.000
G1 X-8.054 Y445.298 Z5.829 F200.000
G1 X-7.983 Y445.228 Z5.829 F200.000
G1 X-7.983 Y445.228 Z5.682 F60.000
G1 X-30.100 Y445.228 Z5.682 F200.000
G1 X-30.101 Y445.298 Z5.682 F200.000
G1 X-8.054 Y445.298 Z5.682 F200.000
G1 X-7.983 Y445.228 Z5.682 F200.000
G1 X-7.983 Y445.228 Z5.535 F60.000
G1 X-30.100 Y445.228 Z5.535 F200.000
G1 X-30.101 Y445.298 Z5.535 F200.000
G1 X-8.054 Y445.298 Z5.535 F200.000
G1 X-7.983 Y445.228 Z5.535 F200.000
G1 X-7.983 Y445.228 Z5.388 F60.000
G1 X-30.100 Y445.228 Z5.388 F200.000
G1 X-30.101 Y445.298 Z5.388 F200.000
G1 X-8.054 Y445.298 Z5.388 F200.000
G1 X-7.983 Y445.228 Z5.388 F200.000
G1 X-7.983 Y445.228 Z5.241 F60.000
G1 X-30.100 Y445.228 Z5.241 F200.000
G1 X-30.101 Y445.298 Z5.241 F200.000
G1 X-8.054 Y445.298 Z5.241 F200.000
G1 X-7.983 Y445.228 Z5.241 F200.000
G1 X-7.983 Y445.228 Z5.100 F60.000
G1 X-30.100 Y445.228 Z5.100 F200.000
G1 X-30.101 Y445.298 Z5.100 F200.000
G1 X-8.054 Y445.298 Z5.100 F200.000
G1 X-7.983 Y445.228 Z5.100 F200.000
G0 Z12.300
G0 Z12.300
(Finish operation: Pocket_Shape)
(Begin postamble)
M5
G17 G90
M2
