(Exported by FreeCAD)
(Post Processor: grbl_post)
(Output Time:2024-02-26 19:10:30.037607)
(Begin preamble)
G17 G90
G21
(Begin operation: 6 ball L24 Q007)
(Path: 6 ball L24 Q007)
(6 ball L24 Q007)
(Begin toolchange)
( M6 T4 )
M3 S24000
(Finish operation: 6 ball L24 Q007)
(Begin operation: Fixture)
(Path: Fixture)
G54
(Finish operation: Fixture)
(Begin operation: DressupPathBoundary)
(Path: DressupPathBoundary)
(Surface001)
(Surface001)
(Tool type: ballend)
(Compensated Tool Path. Diameter: 6.0)
(Sample interval: 1.0)
(Step over %: 5.0)
()
(Beginning of Single-pass layer.)
(Begin step 0.)
(part 1.)
G0 Z19.770
G0 Z21.770
G0 X-0.000 Y32.438
G0 Z19.770
G1 Z16.800 F1000.000
G1 X-0.000 Y32.438 Z16.529 F1000.000
G1 X-0.040 Y29.838 Z16.550 F2500.000
G1 X0.017 Y29.698 Z16.552 F2500.000
G1 X0.039 Y29.872 Z16.550 F2500.000
G1 X-0.000 Y32.438 Z16.529 F2500.000
(Break)
G1 X-0.000 Y32.438 Z16.800 F1000.000
(part 3.)
G0 Z19.770
G0 Z21.770
G0 X-0.000 Y51.943
G0 Z19.770
G1 Z16.800 F1000.000
G1 X-0.000 Y51.943 Z16.368 F1000.000
G1 X-0.345 Y29.546 Z16.552 F2500.000
G1 X-0.295 Y29.398 Z16.554 F2500.000
G1 X0.305 Y29.398 Z16.554 F2500.000
G1 X0.344 Y29.556 Z16.553 F2500.000
G1 X-0.000 Y51.943 Z16.368 F2500.000
(Break)
G1 X-0.000 Y51.943 Z16.800 F1000.000
(part 5.)
G0 Z19.770
G0 Z21.770
G0 X-0.000 Y71.448
G0 Z19.770
G1 Z16.800 F1000.000
G1 X-0.000 Y71.448 Z16.206 F1000.000
G1 X-0.649 Y29.253 Z16.551 F2500.000
G1 X-0.607 Y29.098 Z16.554 F2500.000
G1 X-0.007 Y29.098 Z16.557 F2500.000
G1 X0.593 Y29.098 Z16.553 F2500.000
G1 X0.649 Y29.239 Z16.551 F2500.000
G1 X-0.000 Y71.448 Z16.206 F2500.000
(Break)
G1 X-0.000 Y71.448 Z16.800 F1000.000
(part 7.)
G0 Z19.770
G0 Z21.770
G0 X-0.000 Y90.952
G0 Z19.770
G1 Z16.800 F1000.000
G1 X-0.000 Y90.952 Z16.043 F1000.000
G1 X-0.539 Y55.917 Z16.332 F2500.000
G1 X-0.954 Y28.960 Z16.548 F2500.000
G1 X-0.918 Y28.798 Z16.550 F2500.000
G1 X-0.018 Y28.798 Z16.560 F2500.000
G1 X0.882 Y28.798 Z16.552 F2500.000
G1 X0.954 Y28.923 Z16.549 F2500.000
G1 X0.466 Y60.639 Z16.293 F2500.000
G1 X-0.000 Y90.952 Z16.043 F2500.000
(Break)
G1 X-0.000 Y90.952 Z16.800 F1000.000
(part 9.)
G0 Z19.770
G0 Z21.770
G0 X-0.000 Y110.457
G0 Z19.770
G1 Z16.800 F1000.000
G1 X-0.000 Y110.457 Z15.881 F1000.000
G1 X-0.607 Y70.995 Z16.205 F2500.000
G1 X-1.258 Y28.667 Z16.544 F2500.000
G1 X-1.230 Y28.498 Z16.546 F2500.000
G1 X-0.430 Y28.498 Z16.560 F2500.000
G1 X0.370 Y28.498 Z16.561 F2500.000
G1 X1.170 Y28.498 Z16.547 F2500.000
G1 X1.259 Y28.607 Z16.544 F2500.000
G1 X0.567 Y73.601 Z16.184 F2500.000
G1 X-0.000 Y110.457 Z15.881 F2500.000
(Break)
G1 X-0.000 Y110.457 Z16.800 F1000.000
(part 11.)
G0 Z19.770
G0 Z21.770
G0 X-0.000 Y129.962
G0 Z19.770
G1 Z16.800 F1000.000
G1 X-0.000 Y129.962 Z15.719 F1000.000
G1 X-0.781 Y79.168 Z16.134 F2500.000
G1 X-1.563 Y28.374 Z16.535 F2500.000
G1 X-1.542 Y28.198 Z16.537 F2500.000
G1 X-0.792 Y28.198 Z16.558 F2500.000
G1 X-0.042 Y28.198 Z16.565 F2500.000
G1 X0.708 Y28.198 Z16.560 F2500.000
G1 X1.458 Y28.198 Z16.542 F2500.000
G1 X1.564 Y28.290 Z16.537 F2500.000
G1 X0.727 Y82.684 Z16.106 F2500.000
G1 X-0.000 Y129.962 Z15.719 F2500.000
(Break)
G1 X-0.000 Y129.962 Z16.800 F1000.000
(part 13.)
G0 Z19.770
G0 Z21.770
G0 X-0.000 Y149.467
G0 Z19.770
G1 Z16.800 F1000.000
G1 X-0.000 Y149.467 Z15.557 F1000.000
G1 X-0.871 Y92.873 Z16.018 F2500.000
G1 X-1.867 Y28.081 Z16.527 F2500.000
G1 X-1.854 Y27.898 Z16.529 F2500.000
G1 X-0.954 Y27.898 Z16.557 F2500.000
G1 X-0.054 Y27.898 Z16.568 F2500.000
G1 X0.846 Y27.898 Z16.559 F2500.000
G1 X1.746 Y27.898 Z16.533 F2500.000
G1 X1.869 Y27.974 Z16.527 F2500.000
G1 X0.863 Y93.366 Z16.014 F2500.000
G1 X-0.000 Y149.467 Z15.557 F2500.000
(Break)
G1 X-0.000 Y149.467 Z16.800 F1000.000
(part 15.)
G0 Z19.770
G0 Z21.770
G0 X-0.000 Y168.971
G0 Z19.770
G1 Z16.800 F1000.000
G1 X-0.000 Y168.971 Z15.394 F1000.000
G1 X-0.455 Y139.375 Z15.638 F2500.000
G1 X-1.034 Y101.779 Z15.940 F2500.000
G1 X-2.172 Y27.788 Z16.516 F2500.000
G1 X-2.165 Y27.598 Z16.517 F2500.000
G1 X-1.325 Y27.598 Z16.551 F2500.000
G1 X-0.485 Y27.598 Z16.567 F2500.000
G1 X0.355 Y27.598 Z16.568 F2500.000
G1 X1.195 Y27.598 Z16.554 F2500.000
G1 X2.035 Y27.598 Z16.524 F2500.000
G1 X2.174 Y27.657 Z16.517 F2500.000
G1 X1.557 Y67.786 Z16.207 F2500.000
G1 X0.971 Y105.848 Z15.907 F2500.000
G1 X0.451 Y139.644 Z15.636 F2500.000
G1 X-0.000 Y168.971 Z15.394 F2500.000
(Break)
G1 X-0.000 Y168.971 Z16.800 F1000.000
(part 17.)
G0 Z19.770
G0 Z21.770
G0 X-0.000 Y188.476
G0 Z19.770
G1 Z16.800 F1000.000
G1 X-0.000 Y188.476 Z15.233 F1000.000
G1 X-0.517 Y154.880 Z15.508 F2500.000
G1 X-1.058 Y119.684 Z15.789 F2500.000
G1 X-1.739 Y75.423 Z16.135 F2500.000
G1 X-2.477 Y27.298 Z16.503 F2500.000
G1 X-1.517 Y27.298 Z16.547 F2500.000
G1 X-0.557 Y27.298 Z16.569 F2500.000
G1 X0.403 Y27.298 Z16.571 F2500.000
G1 X1.363 Y27.298 Z16.551 F2500.000
G1 X2.323 Y27.298 Z16.512 F2500.000
G1 X2.479 Y27.341 Z16.503 F2500.000
G1 X1.907 Y64.537 Z16.219 F2500.000
G1 X1.224 Y108.931 Z15.874 F2500.000
G1 X0.587 Y150.327 Z15.545 F2500.000
G1 X-0.000 Y188.476 Z15.233 F2500.000
(Break)
G1 X-0.000 Y188.476 Z16.800 F1000.000
(part 19.)
G0 Z19.770
G0 Z21.770
G0 X-0.000 Y207.981
G0 Z19.770
G1 Z16.800 F1000.000
G1 X-0.000 Y207.981 Z15.071 F1000.000
G1 X-0.554 Y171.985 Z15.365 F2500.000
G1 X-1.301 Y123.391 Z15.751 F2500.000
G1 X-2.011 Y77.263 Z16.107 F2500.000
G1 X-2.784 Y27.002 Z16.488 F2500.000
G1 X-2.589 Y26.998 Z16.500 F2500.000
G1 X-1.722 Y26.998 Z16.542 F2500.000
G1 X-0.855 Y26.998 Z16.567 F2500.000
G1 X0.011 Y26.998 Z16.575 F2500.000
G1 X0.878 Y26.998 Z16.567 F2500.000
G1 X1.745 Y26.998 Z16.541 F2500.000
G1 X2.611 Y26.998 Z16.499 F2500.000
G1 X2.784 Y27.025 Z16.487 F2500.000
G1 X1.861 Y87.018 Z16.032 F2500.000
G1 X1.173 Y131.712 Z15.686 F2500.000
G1 X0.535 Y173.207 Z15.356 F2500.000
G1 X-0.000 Y207.981 Z15.071 F2500.000
(Break)
G1 X0.210 Y213.833 Z15.020 F2500.000
(part 21.)
G1 X-0.190 Y213.833 Z15.020 F2500.000
G1 X-0.213 Y213.653 Z15.022 F2500.000
G1 X-0.763 Y177.857 Z15.312 F2500.000
G1 X-1.471 Y131.862 Z15.673 F2500.000
G1 X-2.160 Y87.068 Z16.016 F2500.000
G1 X-3.086 Y26.875 Z16.468 F2500.000
G1 X-3.066 Y26.698 Z16.471 F2500.000
G1 X-2.066 Y26.698 Z16.530 F2500.000
G1 X-1.066 Y26.698 Z16.565 F2500.000
G1 X-0.066 Y26.698 Z16.578 F2500.000
G1 X0.934 Y26.698 Z16.568 F2500.000
G1 X1.934 Y26.698 Z16.536 F2500.000
G1 X2.934 Y26.698 Z16.480 F2500.000
G1 X3.088 Y26.743 Z16.470 F2500.000
G1 X2.162 Y86.936 Z16.017 F2500.000
G1 X1.467 Y132.131 Z15.671 F2500.000
G1 X0.805 Y175.125 Z15.334 F2500.000
G1 X0.210 Y213.833 Z15.020 F2500.000
(Break)
G1 X0.505 Y214.132 Z15.015 F2500.000
(part 23.)
G1 X0.005 Y214.132 Z15.020 F2500.000
G1 X-0.495 Y214.132 Z15.016 F2500.000
G1 X-0.508 Y213.943 Z15.017 F2500.000
G1 X-1.124 Y173.948 Z15.335 F2500.000
G1 X-1.727 Y134.753 Z15.637 F2500.000
G1 X-2.459 Y87.158 Z15.998 F2500.000
G1 X-3.391 Y26.566 Z16.449 F2500.000
G1 X-3.361 Y26.398 Z16.453 F2500.000
G1 X-2.419 Y26.398 Z16.514 F2500.000
G1 X-1.476 Y26.398 Z16.556 F2500.000
G1 X-0.533 Y26.398 Z16.577 F2500.000
G1 X0.410 Y26.398 Z16.579 F2500.000
G1 X1.353 Y26.398 Z16.560 F2500.000
G1 X2.296 Y26.398 Z16.521 F2500.000
G1 X3.239 Y26.398 Z16.462 F2500.000
G1 X3.393 Y26.443 Z16.450 F2500.000
G1 X2.442 Y88.235 Z15.989 F2500.000
G1 X1.768 Y132.030 Z15.658 F2500.000
G1 X1.125 Y173.825 Z15.336 F2500.000
G1 X0.505 Y214.132 Z15.015 F2500.000
(Break)
G1 X0.801 Y214.433 Z15.007 F2500.000
(part 25.)
G1 X0.001 Y214.433 Z15.017 F2500.000
G1 X-0.799 Y214.433 Z15.007 F2500.000
G1 X-0.804 Y214.234 Z15.008 F2500.000
G1 X-1.419 Y174.239 Z15.321 F2500.000
G1 X-2.022 Y135.044 Z15.619 F2500.000
G1 X-2.714 Y90.049 Z15.956 F2500.000
G1 X-3.696 Y26.256 Z16.427 F2500.000
G1 X-3.657 Y26.098 Z16.431 F2500.000
G1 X-2.757 Y26.098 Z16.496 F2500.000
G1 X-1.857 Y26.098 Z16.544 F2500.000
G1 X-0.957 Y26.098 Z16.573 F2500.000
G1 X-0.057 Y26.098 Z16.583 F2500.000
G1 X0.843 Y26.098 Z16.575 F2500.000
G1 X1.743 Y26.098 Z16.548 F2500.000
G1 X2.643 Y26.098 Z16.504 F2500.000
G1 X3.543 Y26.098 Z16.440 F2500.000
G1 X3.697 Y26.143 Z16.428 F2500.000
G1 X2.710 Y90.335 Z15.954 F2500.000
G1 X1.973 Y138.229 Z15.595 F2500.000
G1 X1.332 Y179.924 Z15.277 F2500.000
G1 X0.801 Y214.433 Z15.007 F2500.000
(Break)
G1 X1.096 Y214.732 Z14.995 F2500.000
(part 27.)
G1 X0.430 Y214.732 Z15.011 F2500.000
G1 X-0.237 Y214.732 Z15.013 F2500.000
G1 X-0.904 Y214.732 Z15.001 F2500.000
G1 X-1.096 Y214.725 Z14.995 F2500.000
G1 X-1.739 Y172.930 Z15.316 F2500.000
G1 X-2.342 Y133.735 Z15.611 F2500.000
G1 X-4.000 Y25.947 Z16.402 F2500.000
G1 X-3.953 Y25.798 Z16.407 F2500.000
G1 X-2.978 Y25.798 Z16.486 F2500.000
G1 X-2.003 Y25.798 Z16.540 F2500.000
G1 X-1.028 Y25.798 Z16.574 F2500.000
G1 X-0.053 Y25.798 Z16.585 F2500.000
G1 X0.922 Y25.798 Z16.576 F2500.000
G1 X1.897 Y25.798 Z16.545 F2500.000
G1 X2.872 Y25.798 Z16.492 F2500.000
G1 X3.847 Y25.798 Z16.417 F2500.000
G1 X4.002 Y25.842 Z16.403 F2500.000
G1 X2.252 Y139.629 Z15.567 F2500.000
G1 X1.624 Y180.424 Z15.259 F2500.000
G1 X1.096 Y214.732 Z14.995 F2500.000
(Break)
G1 X1.392 Y215.032 Z14.981 F2500.000
(part 29.)
G1 X0.525 Y215.032 Z15.007 F2500.000
G1 X-0.342 Y215.032 Z15.009 F2500.000
G1 X-1.208 Y215.032 Z14.988 F2500.000
G1 X-1.392 Y215.016 Z14.981 F2500.000
G1 X-1.921 Y180.620 Z15.242 F2500.000
G1 X-2.539 Y140.425 Z15.540 F2500.000
G1 X-4.305 Y25.638 Z16.376 F2500.000
G1 X-4.248 Y25.498 Z16.383 F2500.000
G1 X-3.315 Y25.498 Z16.464 F2500.000
G1 X-2.381 Y25.498 Z16.524 F2500.000
G1 X-1.448 Y25.498 Z16.565 F2500.000
G1 X-0.515 Y25.498 Z16.584 F2500.000
G1 X0.419 Y25.498 Z16.585 F2500.000
G1 X1.352 Y25.498 Z16.568 F2500.000
G1 X2.285 Y25.498 Z16.529 F2500.000
G1 X3.219 Y25.498 Z16.471 F2500.000
G1 X4.152 Y25.498 Z16.392 F2500.000
G1 X4.307 Y25.542 Z16.376 F2500.000
G1 X2.544 Y140.129 Z15.543 F2500.000
G1 X1.924 Y180.424 Z15.243 F2500.000
G1 X1.392 Y215.032 Z14.981 F2500.000
(Break)
G1 X1.687 Y215.333 Z14.963 F2500.000
(part 31.)
G1 X0.887 Y215.333 Z14.997 F2500.000
G1 X0.087 Y215.333 Z15.009 F2500.000
G1 X-0.713 Y215.333 Z15.001 F2500.000
G1 X-1.513 Y215.333 Z14.972 F2500.000
G1 X-1.688 Y215.307 Z14.963 F2500.000
G1 X-2.198 Y182.111 Z15.212 F2500.000
G1 X-2.881 Y137.716 Z15.537 F2500.000
G1 X-4.610 Y25.329 Z16.346 F2500.000
G1 X-4.544 Y25.198 Z16.355 F2500.000
G1 X-3.544 Y25.198 Z16.448 F2500.000
G1 X-2.544 Y25.198 Z16.518 F2500.000
G1 X-1.544 Y25.198 Z16.564 F2500.000
G1 X-0.544 Y25.198 Z16.586 F2500.000
G1 X0.456 Y25.198 Z16.588 F2500.000
G1 X1.456 Y25.198 Z16.567 F2500.000
G1 X2.456 Y25.198 Z16.523 F2500.000
G1 X3.456 Y25.198 Z16.455 F2500.000
G1 X4.456 Y25.198 Z16.364 F2500.000
G1 X4.611 Y25.242 Z16.347 F2500.000
G1 X2.738 Y147.028 Z15.469 F2500.000
G1 X1.687 Y215.333 Z14.963 F2500.000
(Break)
G1 X1.983 Y215.632 Z14.944 F2500.000
(part 33.)
G1 X1.033 Y215.632 Z14.990 F2500.000
G1 X0.083 Y215.632 Z15.007 F2500.000
G1 X-0.867 Y215.632 Z14.995 F2500.000
G1 X-1.817 Y215.632 Z14.954 F2500.000
G1 X-1.983 Y215.598 Z14.944 F2500.000
G1 X-3.029 Y147.606 Z15.440 F2500.000
G1 X-4.915 Y25.020 Z16.316 F2500.000
G1 X-4.839 Y24.898 Z16.325 F2500.000
G1 X-3.879 Y24.898 Z16.421 F2500.000
G1 X-2.919 Y24.898 Z16.497 F2500.000
G1 X-1.959 Y24.898 Z16.550 F2500.000
G1 X-0.999 Y24.898 Z16.582 F2500.000
G1 X-0.039 Y24.898 Z16.593 F2500.000
G1 X0.921 Y24.898 Z16.584 F2500.000
G1 X1.881 Y24.898 Z16.554 F2500.000
G1 X2.841 Y24.898 Z16.502 F2500.000
G1 X3.801 Y24.898 Z16.429 F2500.000
G1 X4.761 Y24.898 Z16.334 F2500.000
G1 X4.916 Y24.942 Z16.315 F2500.000
G1 X3.146 Y139.995 Z15.495 F2500.000
G1 X1.983 Y215.632 Z14.944 F2500.000
(Break)
G1 X2.278 Y215.933 Z14.921 F2500.000
(part 35.)
G1 X1.398 Y215.933 Z14.973 F2500.000
G1 X0.518 Y215.933 Z14.999 F2500.000
G1 X-0.362 Y215.933 Z15.001 F2500.000
G1 X-1.242 Y215.933 Z14.980 F2500.000
G1 X-2.122 Y215.933 Z14.932 F2500.000
G1 X-2.279 Y215.888 Z14.921 F2500.000
G1 X-3.337 Y147.097 Z15.416 F2500.000
G1 X-5.219 Y24.711 Z16.282 F2500.000
G1 X-5.135 Y24.598 Z16.294 F2500.000
G1 X-4.208 Y24.598 Z16.394 F2500.000
G1 X-3.280 Y24.598 Z16.474 F2500.000
G1 X-2.353 Y24.598 Z16.534 F2500.000
G1 X-1.426 Y24.598 Z16.573 F2500.000
G1 X-0.498 Y24.598 Z16.591 F2500.000
G1 X0.429 Y24.598 Z16.592 F2500.000
G1 X1.356 Y24.598 Z16.575 F2500.000
G1 X2.283 Y24.598 Z16.537 F2500.000
G1 X3.211 Y24.598 Z16.480 F2500.000
G1 X4.138 Y24.598 Z16.401 F2500.000
G1 X5.065 Y24.598 Z16.302 F2500.000
G1 X5.221 Y24.641 Z16.283 F2500.000
G1 X3.335 Y147.227 Z15.416 F2500.000
G1 X2.278 Y215.933 Z14.921 F2500.000
(Break)
G1 X2.573 Y216.232 Z14.895 F2500.000
(part 37.)
G1 X1.740 Y216.232 Z14.953 F2500.000
G1 X0.907 Y216.232 Z14.989 F2500.000
G1 X0.073 Y216.232 Z15.002 F2500.000
G1 X-0.760 Y216.232 Z14.993 F2500.000
G1 X-1.593 Y216.232 Z14.961 F2500.000
G1 X-2.427 Y216.232 Z14.907 F2500.000
G1 X-2.574 Y216.179 Z14.896 F2500.000
G1 X-3.571 Y151.387 Z15.356 F2500.000
G1 X-4.731 Y75.996 Z15.882 F2500.000
G1 X-5.524 Y24.402 Z16.246 F2500.000
G1 X-5.430 Y24.298 Z16.260 F2500.000
G1 X-4.449 Y24.298 Z16.372 F2500.000
G1 X-3.467 Y24.298 Z16.463 F2500.000
G1 X-2.485 Y24.298 Z16.529 F2500.000
G1 X-1.503 Y24.298 Z16.573 F2500.000
G1 X-0.521 Y24.298 Z16.594 F2500.000
G1 X0.461 Y24.298 Z16.594 F2500.000
G1 X1.442 Y24.298 Z16.575 F2500.000
G1 X2.424 Y24.298 Z16.532 F2500.000
G1 X3.406 Y24.298 Z16.467 F2500.000
G1 X4.388 Y24.298 Z16.377 F2500.000
G1 X5.370 Y24.298 Z16.267 F2500.000
G1 X5.525 Y24.341 Z16.247 F2500.000
G1 X3.573 Y151.226 Z15.357 F2500.000
G1 X2.573 Y216.232 Z14.895 F2500.000
(Break)
G1 X2.869 Y216.532 Z14.867 F2500.000
(part 39.)
G1 X1.935 Y216.532 Z14.939 F2500.000
G1 X1.002 Y216.532 Z14.983 F2500.000
G1 X0.069 Y216.532 Z14.999 F2500.000
G1 X-0.865 Y216.532 Z14.987 F2500.000
G1 X-1.798 Y216.532 Z14.947 F2500.000
G1 X-2.731 Y216.532 Z14.879 F2500.000
G1 X-2.870 Y216.470 Z14.867 F2500.000
G1 X-3.651 Y165.676 Z15.224 F2500.000
G1 X-4.989 Y78.686 Z15.826 F2500.000
G1 X-5.829 Y24.093 Z16.208 F2500.000
G1 X-5.726 Y23.998 Z16.223 F2500.000
G1 X-4.776 Y23.998 Z16.340 F2500.000
G1 X-3.826 Y23.998 Z16.434 F2500.000
G1 X-2.876 Y23.998 Z16.508 F2500.000
G1 X-1.926 Y23.998 Z16.559 F2500.000
G1 X-0.976 Y23.998 Z16.589 F2500.000
G1 X-0.026 Y23.998 Z16.600 F2500.000
G1 X0.924 Y23.998 Z16.590 F2500.000
G1 X1.874 Y23.998 Z16.562 F2500.000
G1 X2.824 Y23.998 Z16.511 F2500.000
G1 X3.774 Y23.998 Z16.440 F2500.000
G1 X4.724 Y23.998 Z16.346 F2500.000
G1 X5.674 Y23.998 Z16.231 F2500.000
G1 X5.830 Y24.041 Z16.209 F2500.000
G1 X5.224 Y63.436 Z15.932 F2500.000
G1 X3.655 Y165.424 Z15.226 F2500.000
G1 X2.869 Y216.532 Z14.867 F2500.000
(Break)
G1 X3.164 Y216.833 Z14.836 F2500.000
(part 41.)
G1 X2.279 Y216.833 Z14.913 F2500.000
G1 X1.393 Y216.833 Z14.966 F2500.000
G1 X0.507 Y216.833 Z14.993 F2500.000
G1 X-0.379 Y216.833 Z14.994 F2500.000
G1 X-1.264 Y216.833 Z14.971 F2500.000
G1 X-2.150 Y216.833 Z14.922 F2500.000
G1 X-3.036 Y216.833 Z14.849 F2500.000
G1 X-3.165 Y216.761 Z14.836 F2500.000
G1 X-4.104 Y155.768 Z15.259 F2500.000
G1 X-5.599 Y58.580 Z15.925 F2500.000
G1 X-6.134 Y23.784 Z16.168 F2500.000
G1 X-6.021 Y23.698 Z16.185 F2500.000
G1 X-5.021 Y23.698 Z16.315 F2500.000
G1 X-4.021 Y23.698 Z16.420 F2500.000
G1 X-3.021 Y23.698 Z16.501 F2500.000
G1 X-2.021 Y23.698 Z16.558 F2500.000
G1 X-1.021 Y23.698 Z16.591 F2500.000
G1 X-0.021 Y23.698 Z16.603 F2500.000
G1 X0.979 Y23.698 Z16.592 F2500.000
G1 X1.979 Y23.698 Z16.560 F2500.000
G1 X2.979 Y23.698 Z16.504 F2500.000
G1 X3.979 Y23.698 Z16.424 F2500.000
G1 X4.979 Y23.698 Z16.320 F2500.000
G1 X5.979 Y23.698 Z16.191 F2500.000
G1 X6.134 Y23.741 Z16.168 F2500.000
G1 X3.164 Y216.833 Z14.836 F2500.000
(Break)
G1 X3.460 Y217.132 Z14.802 F2500.000
(part 43.)
G1 X2.488 Y217.132 Z14.895 F2500.000
G1 X1.517 Y217.132 Z14.957 F2500.000
G1 X0.545 Y217.132 Z14.990 F2500.000
G1 X-0.426 Y217.132 Z14.991 F2500.000
G1 X-1.397 Y217.132 Z14.963 F2500.000
G1 X-2.369 Y217.132 Z14.904 F2500.000
G1 X-3.340 Y217.132 Z14.815 F2500.000
G1 X-3.461 Y217.052 Z14.802 F2500.000
G1 X-5.633 Y75.869 Z15.763 F2500.000
G1 X-6.439 Y23.475 Z16.126 F2500.000
G1 X-6.317 Y23.398 Z16.145 F2500.000
G1 X-5.348 Y23.398 Z16.278 F2500.000
G1 X-4.379 Y23.398 Z16.388 F2500.000
G1 X-3.409 Y23.398 Z16.475 F2500.000
G1 X-2.440 Y23.398 Z16.539 F2500.000
G1 X-1.471 Y23.398 Z16.582 F2500.000
G1 X-0.502 Y23.398 Z16.602 F2500.000
G1 X0.468 Y23.398 Z16.603 F2500.000
G1 X1.437 Y23.398 Z16.583 F2500.000
G1 X2.406 Y23.398 Z16.541 F2500.000
G1 X3.375 Y23.398 Z16.478 F2500.000
G1 X4.345 Y23.398 Z16.392 F2500.000
G1 X5.314 Y23.398 Z16.282 F2500.000
G1 X6.283 Y23.398 Z16.150 F2500.000
G1 X6.439 Y23.441 Z16.125 F2500.000
G1 X5.596 Y78.234 Z15.747 F2500.000
G1 X3.460 Y217.132 Z14.802 F2500.000
(Break)
G1 X3.755 Y217.433 Z14.765 F2500.000
(part 45.)
G1 X2.830 Y217.433 Z14.863 F2500.000
G1 X1.905 Y217.433 Z14.933 F2500.000
G1 X0.980 Y217.433 Z14.975 F2500.000
G1 X0.055 Y217.433 Z14.992 F2500.000
G1 X-0.870 Y217.433 Z14.979 F2500.000
G1 X-1.795 Y217.433 Z14.940 F2500.000
G1 X-2.720 Y217.433 Z14.873 F2500.000
G1 X-3.645 Y217.433 Z14.778 F2500.000
G1 X-3.756 Y217.343 Z14.766 F2500.000
G1 X-5.959 Y74.160 Z15.730 F2500.000
G1 X-6.743 Y23.166 Z16.080 F2500.000
G1 X-6.613 Y23.098 Z16.101 F2500.000
G1 X-5.670 Y23.098 Z16.239 F2500.000
G1 X-4.727 Y23.098 Z16.354 F2500.000
G1 X-3.784 Y23.098 Z16.447 F2500.000
G1 X-2.841 Y23.098 Z16.518 F2500.000
G1 X-1.898 Y23.098 Z16.568 F2500.000
G1 X-0.955 Y23.098 Z16.598 F2500.000
G1 X-0.013 Y23.098 Z16.608 F2500.000
G1 X0.930 Y23.098 Z16.598 F2500.000
G1 X1.873 Y23.098 Z16.569 F2500.000
G1 X2.816 Y23.098 Z16.519 F2500.000
G1 X3.759 Y23.098 Z16.449 F2500.000
G1 X4.702 Y23.098 Z16.357 F2500.000
G1 X5.645 Y23.098 Z16.243 F2500.000
G1 X6.587 Y23.098 Z16.106 F2500.000
G1 X6.744 Y23.140 Z16.081 F2500.000
G1 X5.741 Y88.333 Z15.634 F2500.000
G1 X3.755 Y217.433 Z14.765 F2500.000
(Break)
G1 X4.050 Y217.732 Z14.726 F2500.000
(part 47.)
G1 X3.162 Y217.732 Z14.828 F2500.000
G1 X2.273 Y217.732 Z14.906 F2500.000
G1 X1.384 Y217.732 Z14.958 F2500.000
G1 X0.495 Y217.732 Z14.985 F2500.000
G1 X-0.394 Y217.732 Z14.986 F2500.000
G1 X-1.283 Y217.732 Z14.963 F2500.000
G1 X-2.172 Y217.732 Z14.913 F2500.000
G1 X-3.061 Y217.732 Z14.838 F2500.000
G1 X-3.950 Y217.732 Z14.739 F2500.000
G1 X-4.052 Y217.633 Z14.727 F2500.000
G1 X-5.958 Y93.748 Z15.551 F2500.000
G1 X-6.756 Y41.854 Z15.901 F2500.000
G1 X-7.048 Y22.857 Z16.033 F2500.000
G1 X-6.908 Y22.798 Z16.056 F2500.000
G1 X-5.922 Y22.798 Z16.208 F2500.000
G1 X-4.937 Y22.798 Z16.333 F2500.000
G1 X-3.951 Y22.798 Z16.435 F2500.000
G1 X-2.965 Y22.798 Z16.512 F2500.000
G1 X-1.980 Y22.798 Z16.567 F2500.000
G1 X-0.994 Y22.798 Z16.599 F2500.000
G1 X-0.008 Y22.798 Z16.610 F2500.000
G1 X0.978 Y22.798 Z16.600 F2500.000
G1 X1.963 Y22.798 Z16.568 F2500.000
G1 X2.949 Y22.798 Z16.513 F2500.000
G1 X3.935 Y22.798 Z16.436 F2500.000
G1 X4.920 Y22.798 Z16.335 F2500.000
G1 X5.906 Y22.798 Z16.210 F2500.000
G1 X6.892 Y22.798 Z16.060 F2500.000
G1 X7.048 Y22.840 Z16.033 F2500.000
G1 X6.079 Y85.833 Z15.604 F2500.000
G1 X4.050 Y217.732 Z14.726 F2500.000
(Break)
G1 X4.346 Y218.032 Z14.684 F2500.000
(part 49.)
G1 X3.390 Y218.032 Z14.802 F2500.000
G1 X2.435 Y218.032 Z14.891 F2500.000
G1 X1.479 Y218.032 Z14.952 F2500.000
G1 X0.524 Y218.032 Z14.982 F2500.000
G1 X-0.432 Y218.032 Z14.983 F2500.000
G1 X-1.387 Y218.032 Z14.956 F2500.000
G1 X-2.343 Y218.032 Z14.898 F2500.000
G1 X-3.299 Y218.032 Z14.812 F2500.000
G1 X-4.254 Y218.032 Z14.697 F2500.000
G1 X-4.348 Y217.924 Z14.685 F2500.000
G1 X-6.381 Y85.740 Z15.556 F2500.000
G1 X-7.353 Y22.547 Z15.983 F2500.000
G1 X-7.204 Y22.498 Z16.010 F2500.000
G1 X-6.244 Y22.498 Z16.164 F2500.000
G1 X-5.284 Y22.498 Z16.295 F2500.000
G1 X-4.324 Y22.498 Z16.402 F2500.000
G1 X-3.364 Y22.498 Z16.486 F2500.000
G1 X-2.404 Y22.498 Z16.549 F2500.000
G1 X-1.444 Y22.498 Z16.590 F2500.000
G1 X-0.484 Y22.498 Z16.609 F2500.000
G1 X0.476 Y22.498 Z16.610 F2500.000
G1 X1.436 Y22.498 Z16.589 F2500.000
G1 X2.396 Y22.498 Z16.549 F2500.000
G1 X3.356 Y22.498 Z16.487 F2500.000
G1 X4.316 Y22.498 Z16.402 F2500.000
G1 X5.276 Y22.498 Z16.295 F2500.000
G1 X6.236 Y22.498 Z16.165 F2500.000
G1 X7.196 Y22.498 Z16.011 F2500.000
G1 X7.353 Y22.540 Z15.983 F2500.000
G1 X6.535 Y75.734 Z15.623 F2500.000
G1 X4.346 Y218.032 Z14.684 F2500.000
(Break)
G1 X4.641 Y218.333 Z14.639 F2500.000
(part 51.)
G1 X3.721 Y218.333 Z14.762 F2500.000
G1 X2.801 Y218.333 Z14.858 F2500.000
G1 X1.881 Y218.333 Z14.927 F2500.000
G1 X0.961 Y218.333 Z14.969 F2500.000
G1 X0.041 Y218.333 Z14.985 F2500.000
G1 X-0.879 Y218.333 Z14.971 F2500.000
G1 X-1.799 Y218.333 Z14.932 F2500.000
G1 X-2.719 Y218.333 Z14.865 F2500.000
G1 X-3.639 Y218.333 Z14.771 F2500.000
G1 X-4.559 Y218.333 Z14.651 F2500.000
G1 X-4.643 Y218.215 Z14.640 F2500.000
G1 X-6.192 Y117.527 Z15.295 F2500.000
G1 X-7.030 Y63.034 Z15.655 F2500.000
G1 X-7.658 Y22.238 Z15.931 F2500.000
G1 X-7.499 Y22.198 Z15.959 F2500.000
G1 X-6.499 Y22.198 Z16.128 F2500.000
G1 X-5.499 Y22.198 Z16.270 F2500.000
G1 X-4.499 Y22.198 Z16.386 F2500.000
G1 X-3.499 Y22.198 Z16.478 F2500.000
G1 X-2.499 Y22.198 Z16.546 F2500.000
G1 X-1.499 Y22.198 Z16.590 F2500.000
G1 X-0.499 Y22.198 Z16.611 F2500.000
G1 X0.501 Y22.198 Z16.611 F2500.000
G1 X1.501 Y22.198 Z16.590 F2500.000
G1 X2.501 Y22.198 Z16.546 F2500.000
G1 X3.501 Y22.198 Z16.478 F2500.000
G1 X4.501 Y22.198 Z16.386 F2500.000
G1 X5.501 Y22.198 Z16.270 F2500.000
G1 X6.501 Y22.198 Z16.128 F2500.000
G1 X7.501 Y22.198 Z15.960 F2500.000
G1 X7.658 Y22.240 Z15.930 F2500.000
G1 X7.249 Y48.837 Z15.750 F2500.000
G1 X6.212 Y116.229 Z15.303 F2500.000
G1 X4.641 Y218.333 Z14.639 F2500.000
(Break)
G1 X4.937 Y218.632 Z14.591 F2500.000
(part 53.)
G1 X3.957 Y218.632 Z14.730 F2500.000
G1 X2.977 Y218.632 Z14.838 F2500.000
G1 X1.997 Y218.632 Z14.917 F2500.000
G1 X1.017 Y218.632 Z14.964 F2500.000
G1 X0.037 Y218.632 Z14.982 F2500.000
G1 X-0.943 Y218.632 Z14.966 F2500.000
G1 X-1.923 Y218.632 Z14.922 F2500.000
G1 X-2.903 Y218.632 Z14.846 F2500.000
G1 X-3.883 Y218.632 Z14.739 F2500.000
G1 X-4.863 Y218.632 Z14.602 F2500.000
G1 X-4.939 Y218.506 Z14.592 F2500.000
G1 X-6.440 Y120.918 Z15.220 F2500.000
G1 X-7.492 Y52.526 Z15.669 F2500.000
G1 X-7.963 Y21.929 Z15.875 F2500.000
G1 X-7.795 Y21.898 Z15.908 F2500.000
G1 X-6.820 Y21.898 Z16.080 F2500.000
G1 X-5.845 Y21.898 Z16.226 F2500.000
G1 X-4.870 Y21.898 Z16.348 F2500.000
G1 X-3.895 Y21.898 Z16.447 F2500.000
G1 X-2.920 Y21.898 Z16.523 F2500.000
G1 X-1.945 Y21.898 Z16.576 F2500.000
G1 X-0.970 Y21.898 Z16.607 F2500.000
G1 X0.005 Y21.898 Z16.618 F2500.000
G1 X0.980 Y21.898 Z16.607 F2500.000
G1 X1.955 Y21.898 Z16.575 F2500.000
G1 X2.930 Y21.898 Z16.522 F2500.000
G1 X3.905 Y21.898 Z16.444 F2500.000
G1 X4.880 Y21.898 Z16.347 F2500.000
G1 X5.855 Y21.898 Z16.225 F2500.000
G1 X6.830 Y21.898 Z16.078 F2500.000
G1 X7.805 Y21.898 Z15.906 F2500.000
G1 X7.962 Y21.940 Z15.875 F2500.000
G1 X6.978 Y85.932 Z15.449 F2500.000
G1 X4.937 Y218.632 Z14.591 F2500.000
(Break)
G1 X5.232 Y218.933 Z14.541 F2500.000
(part 55.)
G1 X4.287 Y218.933 Z14.683 F2500.000
G1 X3.341 Y218.933 Z14.798 F2500.000
G1 X2.396 Y218.933 Z14.886 F2500.000
G1 X1.450 Y218.933 Z14.945 F2500.000
G1 X0.505 Y218.933 Z14.975 F2500.000
G1 X-0.441 Y218.933 Z14.976 F2500.000
G1 X-1.386 Y218.933 Z14.948 F2500.000
G1 X-2.331 Y218.933 Z14.891 F2500.000
G1 X-3.277 Y218.933 Z14.805 F2500.000
G1 X-4.222 Y218.933 Z14.692 F2500.000
G1 X-5.168 Y218.933 Z14.551 F2500.000
G1 X-5.234 Y218.797 Z14.542 F2500.000
G1 X-6.886 Y111.410 Z15.227 F2500.000
G1 X-7.440 Y75.414 Z15.461 F2500.000
G1 X-8.267 Y21.620 Z15.817 F2500.000
G1 X-8.090 Y21.598 Z15.853 F2500.000
G1 X-7.137 Y21.598 Z16.029 F2500.000
G1 X-6.185 Y21.598 Z16.181 F2500.000
G1 X-5.232 Y21.598 Z16.308 F2500.000
G1 X-4.279 Y21.598 Z16.413 F2500.000
G1 X-3.326 Y21.598 Z16.496 F2500.000
G1 X-2.373 Y21.598 Z16.558 F2500.000
G1 X-1.420 Y21.598 Z16.598 F2500.000
G1 X-0.467 Y21.598 Z16.617 F2500.000
G1 X0.486 Y21.598 Z16.616 F2500.000
G1 X1.439 Y21.598 Z16.597 F2500.000
G1 X2.392 Y21.598 Z16.557 F2500.000
G1 X3.345 Y21.598 Z16.495 F2500.000
G1 X4.298 Y21.598 Z16.412 F2500.000
G1 X5.251 Y21.598 Z16.307 F2500.000
G1 X6.204 Y21.598 Z16.178 F2500.000
G1 X7.157 Y21.598 Z16.026 F2500.000
G1 X8.110 Y21.598 Z15.849 F2500.000
G1 X8.267 Y21.639 Z15.817 F2500.000
G1 X7.110 Y96.830 Z15.321 F2500.000
G1 X5.232 Y218.933 Z14.541 F2500.000
(Break)
G1 X5.528 Y219.232 Z14.487 F2500.000
(part 57.)
G1 X4.528 Y219.232 Z14.648 F2500.000
G1 X3.528 Y219.232 Z14.776 F2500.000
G1 X2.528 Y219.232 Z14.873 F2500.000
G1 X1.528 Y219.232 Z14.939 F2500.000
G1 X0.528 Y219.232 Z14.972 F2500.000
G1 X-0.472 Y219.232 Z14.973 F2500.000
G1 X-1.472 Y219.232 Z14.941 F2500.000
G1 X-2.472 Y219.232 Z14.878 F2500.000
G1 X-3.472 Y219.232 Z14.782 F2500.000
G1 X-4.472 Y219.232 Z14.656 F2500.000
G1 X-5.472 Y219.232 Z14.497 F2500.000
G1 X-5.530 Y219.088 Z14.488 F2500.000
G1 X-6.520 Y154.695 Z14.893 F2500.000
G1 X-7.437 Y95.102 Z15.273 F2500.000
G1 X-8.283 Y40.109 Z15.632 F2500.000
G1 X-8.572 Y21.311 Z15.759 F2500.000
G1 X-8.386 Y21.298 Z15.797 F2500.000
G1 X-7.398 Y21.298 Z15.986 F2500.000
G1 X-6.410 Y21.298 Z16.149 F2500.000
G1 X-5.421 Y21.298 Z16.287 F2500.000
G1 X-4.433 Y21.298 Z16.401 F2500.000
G1 X-3.445 Y21.298 Z16.490 F2500.000
G1 X-2.457 Y21.298 Z16.556 F2500.000
G1 X-1.468 Y21.298 Z16.599 F2500.000
G1 X-0.480 Y21.298 Z16.619 F2500.000
G1 X0.508 Y21.298 Z16.618 F2500.000
G1 X1.496 Y21.298 Z16.597 F2500.000
G1 X2.485 Y21.298 Z16.554 F2500.000
G1 X3.473 Y21.298 Z16.488 F2500.000
G1 X4.461 Y21.298 Z16.398 F2500.000
G1 X5.449 Y21.298 Z16.283 F2500.000
G1 X6.438 Y21.298 Z16.145 F2500.000
G1 X7.426 Y21.298 Z15.982 F2500.000
G1 X8.414 Y21.298 Z15.792 F2500.000
G1 X8.572 Y21.339 Z15.758 F2500.000
G1 X8.162 Y47.986 Z15.581 F2500.000
G1 X7.286 Y104.929 Z15.211 F2500.000
G1 X5.528 Y219.232 Z14.487 F2500.000
(Break)
G1 X5.823 Y219.532 Z14.432 F2500.000
(part 59.)
G1 X4.856 Y219.532 Z14.595 F2500.000
G1 X3.890 Y219.532 Z14.731 F2500.000
G1 X2.923 Y219.532 Z14.835 F2500.000
G1 X1.956 Y219.532 Z14.911 F2500.000
G1 X0.990 Y219.532 Z14.957 F2500.000
G1 X0.023 Y219.532 Z14.975 F2500.000
G1 X-0.944 Y219.532 Z14.959 F2500.000
G1 X-1.910 Y219.532 Z14.914 F2500.000
G1 X-2.877 Y219.532 Z14.839 F2500.000
G1 X-3.844 Y219.532 Z14.736 F2500.000
G1 X-4.810 Y219.532 Z14.602 F2500.000
G1 X-5.777 Y219.532 Z14.440 F2500.000
G1 X-5.825 Y219.379 Z14.432 F2500.000
G1 X-7.327 Y121.790 Z15.043 F2500.000
G1 X-8.154 Y67.996 Z15.387 F2500.000
G1 X-8.877 Y21.002 Z15.696 F2500.000
G1 X-8.682 Y20.998 Z15.739 F2500.000
G1 X-7.715 Y20.998 Z15.932 F2500.000
G1 X-6.748 Y20.998 Z16.100 F2500.000
G1 X-5.782 Y20.998 Z16.243 F2500.000
G1 X-4.815 Y20.998 Z16.363 F2500.000
G1 X-3.848 Y20.998 Z16.458 F2500.000
G1 X-2.882 Y20.998 Z16.532 F2500.000
G1 X-1.915 Y20.998 Z16.584 F2500.000
G1 X-0.948 Y20.998 Z16.615 F2500.000
G1 X0.018 Y20.998 Z16.625 F2500.000
G1 X0.985 Y20.998 Z16.615 F2500.000
G1 X1.952 Y20.998 Z16.583 F2500.000
G1 X2.918 Y20.998 Z16.530 F2500.000
G1 X3.885 Y20.998 Z16.455 F2500.000
G1 X4.852 Y20.998 Z16.358 F2500.000
G1 X5.818 Y20.998 Z16.238 F2500.000
G1 X6.785 Y20.998 Z16.094 F2500.000
G1 X7.752 Y20.998 Z15.925 F2500.000
G1 X8.718 Y20.998 Z15.730 F2500.000
G1 X8.876 Y21.039 Z15.695 F2500.000
G1 X8.240 Y62.434 Z15.423 F2500.000
G1 X7.504 Y110.228 Z15.115 F2500.000
G1 X5.823 Y219.532 Z14.432 F2500.000
(Break)
G1 X6.118 Y219.833 Z14.374 F2500.000
(part 61.)
G1 X5.180 Y219.833 Z14.541 F2500.000
G1 X4.242 Y219.833 Z14.682 F2500.000
G1 X3.303 Y219.833 Z14.795 F2500.000
G1 X2.365 Y219.833 Z14.881 F2500.000
G1 X1.426 Y219.833 Z14.939 F2500.000
G1 X0.488 Y219.833 Z14.968 F2500.000
G1 X-0.451 Y219.833 Z14.968 F2500.000
G1 X-1.389 Y219.833 Z14.941 F2500.000
G1 X-2.328 Y219.833 Z14.884 F2500.000
G1 X-3.266 Y219.833 Z14.799 F2500.000
G1 X-4.205 Y219.833 Z14.687 F2500.000
G1 X-5.143 Y219.833 Z14.547 F2500.000
G1 X-6.082 Y219.833 Z14.381 F2500.000
G1 X-6.121 Y219.669 Z14.375 F2500.000
G1 X-6.785 Y176.474 Z14.639 F2500.000
G1 X-8.013 Y96.684 Z15.138 F2500.000
G1 X-9.139 Y23.493 Z15.611 F2500.000
G1 X-9.179 Y20.893 Z15.630 F2500.000
G1 X-9.177 Y20.698 Z15.632 F2500.000
G1 X-8.219 Y20.698 Z15.837 F2500.000
G1 X-7.261 Y20.698 Z16.016 F2500.000
G1 X-6.303 Y20.698 Z16.172 F2500.000
G1 X-5.346 Y20.698 Z16.303 F2500.000
G1 X-4.388 Y20.698 Z16.410 F2500.000
G1 X-3.430 Y20.698 Z16.496 F2500.000
G1 X-2.472 Y20.698 Z16.560 F2500.000
G1 X-1.514 Y20.698 Z16.602 F2500.000
G1 X-0.556 Y20.698 Z16.624 F2500.000
G1 X0.402 Y20.698 Z16.626 F2500.000
G1 X1.360 Y20.698 Z16.607 F2500.000
G1 X2.318 Y20.698 Z16.568 F2500.000
G1 X3.276 Y20.698 Z16.508 F2500.000
G1 X4.233 Y20.698 Z16.426 F2500.000
G1 X5.191 Y20.698 Z16.322 F2500.000
G1 X6.149 Y20.698 Z16.194 F2500.000
G1 X7.107 Y20.698 Z16.042 F2500.000
G1 X8.065 Y20.698 Z15.868 F2500.000
G1 X9.023 Y20.698 Z15.667 F2500.000
G1 X9.181 Y20.739 Z15.630 F2500.000
G1 X8.627 Y56.734 Z15.394 F2500.000
G1 X8.015 Y96.530 Z15.139 F2500.000
G1 X7.120 Y154.723 Z14.774 F2500.000
G1 X6.118 Y219.833 Z14.374 F2500.000
(Break)
G1 X6.414 Y220.132 Z14.313 F2500.000
(part 63.)
G1 X5.429 Y220.132 Z14.497 F2500.000
G1 X4.445 Y220.132 Z14.652 F2500.000
G1 X3.460 Y220.132 Z14.775 F2500.000
G1 X2.475 Y220.132 Z14.870 F2500.000
G1 X1.491 Y220.132 Z14.933 F2500.000
G1 X0.506 Y220.132 Z14.965 F2500.000
G1 X-0.478 Y220.132 Z14.966 F2500.000
G1 X-1.463 Y220.132 Z14.934 F2500.000
G1 X-2.448 Y220.132 Z14.872 F2500.000
G1 X-3.432 Y220.132 Z14.778 F2500.000
G1 X-4.417 Y220.132 Z14.656 F2500.000
G1 X-5.402 Y220.132 Z14.502 F2500.000
G1 X-6.386 Y220.132 Z14.318 F2500.000
G1 X-6.417 Y219.960 Z14.313 F2500.000
G1 X-7.324 Y160.967 Z14.672 F2500.000
G1 X-8.342 Y94.775 Z15.084 F2500.000
G1 X-8.997 Y52.180 Z15.355 F2500.000
G1 X-9.483 Y20.584 Z15.562 F2500.000
G1 X-9.473 Y20.398 Z15.566 F2500.000
G1 X-8.483 Y20.398 Z15.786 F2500.000
G1 X-7.494 Y20.398 Z15.978 F2500.000
G1 X-6.504 Y20.398 Z16.144 F2500.000
G1 X-5.515 Y20.398 Z16.284 F2500.000
G1 X-4.525 Y20.398 Z16.399 F2500.000
G1 X-3.536 Y20.398 Z16.490 F2500.000
G1 X-2.546 Y20.398 Z16.558 F2500.000
G1 X-1.557 Y20.398 Z16.603 F2500.000
G1 X-0.567 Y20.398 Z16.626 F2500.000
G1 X0.422 Y20.398 Z16.628 F2500.000
G1 X1.412 Y20.398 Z16.608 F2500.000
G1 X2.401 Y20.398 Z16.567 F2500.000
G1 X3.390 Y20.398 Z16.502 F2500.000
G1 X4.380 Y20.398 Z16.414 F2500.000
G1 X5.369 Y20.398 Z16.303 F2500.000
G1 X6.359 Y20.398 Z16.166 F2500.000
G1 X7.348 Y20.398 Z16.004 F2500.000
G1 X8.338 Y20.398 Z15.816 F2500.000
G1 X9.327 Y20.398 Z15.600 F2500.000
G1 X9.486 Y20.439 Z15.563 F2500.000
G1 X9.110 Y44.836 Z15.403 F2500.000
G1 X8.326 Y95.830 Z15.077 F2500.000
G1 X7.323 Y161.022 Z14.672 F2500.000
G1 X6.414 Y220.132 Z14.313 F2500.000
(Break)
G1 X6.709 Y220.433 Z14.249 F2500.000
(part 65.)
G1 X5.752 Y220.433 Z14.437 F2500.000
G1 X4.795 Y220.433 Z14.598 F2500.000
G1 X3.838 Y220.433 Z14.729 F2500.000
G1 X2.881 Y220.433 Z14.832 F2500.000
G1 X1.924 Y220.433 Z14.907 F2500.000
G1 X0.966 Y220.433 Z14.950 F2500.000
G1 X0.009 Y220.433 Z14.967 F2500.000
G1 X-0.948 Y220.433 Z14.951 F2500.000
G1 X-1.905 Y220.433 Z14.908 F2500.000
G1 X-2.862 Y220.433 Z14.834 F2500.000
G1 X-3.819 Y220.433 Z14.732 F2500.000
G1 X-4.776 Y220.433 Z14.600 F2500.000
G1 X-5.734 Y220.433 Z14.441 F2500.000
G1 X-6.691 Y220.433 Z14.253 F2500.000
G1 X-6.712 Y220.251 Z14.250 F2500.000
G1 X-7.669 Y158.058 Z14.625 F2500.000
G1 X-8.321 Y115.663 Z14.886 F2500.000
G1 X-8.915 Y77.068 Z15.126 F2500.000
G1 X-9.736 Y23.674 Z15.469 F2500.000
G1 X-9.788 Y20.275 Z15.492 F2500.000
G1 X-9.768 Y20.098 Z15.499 F2500.000
G1 X-8.798 Y20.098 Z15.723 F2500.000
G1 X-7.828 Y20.098 Z15.920 F2500.000
G1 X-6.858 Y20.098 Z16.091 F2500.000
G1 X-5.888 Y20.098 Z16.237 F2500.000
G1 X-4.918 Y20.098 Z16.359 F2500.000
G1 X-3.948 Y20.098 Z16.458 F2500.000
G1 X-2.978 Y20.098 Z16.534 F2500.000
G1 X-2.008 Y20.098 Z16.588 F2500.000
G1 X-1.038 Y20.098 Z16.621 F2500.000
G1 X-0.068 Y20.098 Z16.632 F2500.000
G1 X0.902 Y20.098 Z16.624 F2500.000
G1 X1.872 Y20.098 Z16.594 F2500.000
G1 X2.842 Y20.098 Z16.543 F2500.000
G1 X3.812 Y20.098 Z16.470 F2500.000
G1 X4.782 Y20.098 Z16.375 F2500.000
G1 X5.752 Y20.098 Z16.256 F2500.000
G1 X6.722 Y20.098 Z16.113 F2500.000
G1 X7.692 Y20.098 Z15.945 F2500.000
G1 X8.662 Y20.098 Z15.752 F2500.000
G1 X9.632 Y20.098 Z15.532 F2500.000
G1 X9.790 Y20.138 Z15.493 F2500.000
G1 X9.361 Y48.035 Z15.311 F2500.000
G1 X8.420 Y109.228 Z14.925 F2500.000
G1 X7.569 Y164.521 Z14.585 F2500.000
G1 X6.709 Y220.433 Z14.249 F2500.000
(Break)
G1 X7.005 Y220.732 Z14.182 F2500.000
(part 67.)
G1 X6.005 Y220.732 Z14.388 F2500.000
G1 X5.005 Y220.732 Z14.562 F2500.000
G1 X4.005 Y220.732 Z14.705 F2500.000
G1 X3.005 Y220.732 Z14.818 F2500.000
G1 X2.005 Y220.732 Z14.899 F2500.000
G1 X1.005 Y220.732 Z14.947 F2500.000
G1 X0.005 Y220.732 Z14.965 F2500.000
G1 X-0.995 Y220.732 Z14.948 F2500.000
G1 X-1.995 Y220.732 Z14.900 F2500.000
G1 X-2.995 Y220.732 Z14.819 F2500.000
G1 X-3.995 Y220.732 Z14.707 F2500.000
G1 X-4.995 Y220.732 Z14.563 F2500.000
G1 X-5.995 Y220.732 Z14.390 F2500.000
G1 X-6.995 Y220.732 Z14.184 F2500.000
G1 X-7.008 Y220.542 Z14.183 F2500.000
G1 X-7.020 Y219.742 Z14.188 F2500.000
G1 X-8.023 Y154.550 Z14.577 F2500.000
G1 X-8.961 Y93.557 Z14.951 F2500.000
G1 X-9.813 Y38.163 Z15.300 F2500.000
G1 X-10.093 Y19.966 Z15.419 F2500.000
G1 X-10.064 Y19.798 Z15.428 F2500.000
G1 X-9.064 Y19.798 Z15.667 F2500.000
G1 X-8.064 Y19.798 Z15.877 F2500.000
G1 X-7.064 Y19.798 Z16.059 F2500.000
G1 X-6.064 Y19.798 Z16.215 F2500.000
G1 X-5.064 Y19.798 Z16.345 F2500.000
G1 X-4.064 Y19.798 Z16.450 F2500.000
G1 X-3.064 Y19.798 Z16.531 F2500.000
G1 X-2.064 Y19.798 Z16.588 F2500.000
G1 X-1.064 Y19.798 Z16.623 F2500.000
G1 X-0.064 Y19.798 Z16.635 F2500.000
G1 X0.936 Y19.798 Z16.626 F2500.000
G1 X1.936 Y19.798 Z16.594 F2500.000
G1 X2.936 Y19.798 Z16.540 F2500.000
G1 X3.936 Y19.798 Z16.462 F2500.000
G1 X4.936 Y19.798 Z16.360 F2500.000
G1 X5.936 Y19.798 Z16.233 F2500.000
G1 X6.936 Y19.798 Z16.081 F2500.000
G1 X7.936 Y19.798 Z15.901 F2500.000
G1 X8.936 Y19.798 Z15.695 F2500.000
G1 X9.936 Y19.798 Z15.461 F2500.000
G1 X10.095 Y19.838 Z15.420 F2500.000
G1 X9.505 Y58.167 Z15.173 F2500.000
G1 X8.562 Y119.526 Z14.790 F2500.000
G1 X7.696 Y175.820 Z14.449 F2500.000
G1 X7.005 Y220.732 Z14.182 F2500.000
(Break)
G1 X7.300 Y221.032 Z14.113 F2500.000
(part 69.)
G1 X6.327 Y221.032 Z14.321 F2500.000
G1 X5.353 Y221.032 Z14.502 F2500.000
G1 X4.380 Y221.032 Z14.653 F2500.000
G1 X3.407 Y221.032 Z14.774 F2500.000
G1 X2.433 Y221.032 Z14.866 F2500.000
G1 X1.460 Y221.032 Z14.927 F2500.000
G1 X0.487 Y221.032 Z14.958 F2500.000
G1 X-0.487 Y221.032 Z14.958 F2500.000
G1 X-1.460 Y221.032 Z14.926 F2500.000
G1 X-2.433 Y221.032 Z14.866 F2500.000
G1 X-3.407 Y221.032 Z14.774 F2500.000
G1 X-4.380 Y221.032 Z14.653 F2500.000
G1 X-5.353 Y221.032 Z14.502 F2500.000
G1 X-6.327 Y221.032 Z14.321 F2500.000
G1 X-7.300 Y221.032 Z14.113 F2500.000
G1 X-7.891 Y182.637 Z14.338 F2500.000
G1 X-8.961 Y113.046 Z14.757 F2500.000
G1 X-9.764 Y60.852 Z15.080 F2500.000
G1 X-10.398 Y19.657 Z15.343 F2500.000
G1 X-10.359 Y19.498 Z15.355 F2500.000
G1 X-9.378 Y19.498 Z15.598 F2500.000
G1 X-8.397 Y19.498 Z15.812 F2500.000
G1 X-7.416 Y19.498 Z16.001 F2500.000
G1 X-6.436 Y19.498 Z16.163 F2500.000
G1 X-5.455 Y19.498 Z16.300 F2500.000
G1 X-4.474 Y19.498 Z16.413 F2500.000
G1 X-3.493 Y19.498 Z16.502 F2500.000
G1 X-2.512 Y19.498 Z16.568 F2500.000
G1 X-1.531 Y19.498 Z16.611 F2500.000
G1 X-0.550 Y19.498 Z16.634 F2500.000
G1 X0.431 Y19.498 Z16.636 F2500.000
G1 X1.412 Y19.498 Z16.615 F2500.000
G1 X2.393 Y19.498 Z16.574 F2500.000
G1 X3.374 Y19.498 Z16.511 F2500.000
G1 X4.355 Y19.498 Z16.424 F2500.000
G1 X5.336 Y19.498 Z16.315 F2500.000
G1 X6.317 Y19.498 Z16.181 F2500.000
G1 X7.298 Y19.498 Z16.022 F2500.000
G1 X8.279 Y19.498 Z15.837 F2500.000
G1 X9.260 Y19.498 Z15.625 F2500.000
G1 X10.241 Y19.498 Z15.385 F2500.000
G1 X10.400 Y19.538 Z15.344 F2500.000
G1 X9.751 Y61.733 Z15.075 F2500.000
G1 X8.958 Y113.227 Z14.756 F2500.000
G1 X7.957 Y178.319 Z14.363 F2500.000
G1 X7.300 Y221.032 Z14.113 F2500.000
(Break)
G1 X7.596 Y221.333 Z14.040 F2500.000
(part 71.)
G1 X6.658 Y221.333 Z14.251 F2500.000
G1 X5.721 Y221.333 Z14.435 F2500.000
G1 X4.783 Y221.333 Z14.591 F2500.000
G1 X3.846 Y221.333 Z14.720 F2500.000
G1 X2.908 Y221.333 Z14.822 F2500.000
G1 X1.971 Y221.333 Z14.896 F2500.000
G1 X1.033 Y221.333 Z14.942 F2500.000
G1 X0.096 Y221.333 Z14.959 F2500.000
G1 X-0.842 Y221.333 Z14.947 F2500.000
G1 X-1.779 Y221.333 Z14.907 F2500.000
G1 X-2.717 Y221.333 Z14.840 F2500.000
G1 X-3.654 Y221.333 Z14.744 F2500.000
G1 X-4.592 Y221.333 Z14.619 F2500.000
G1 X-5.529 Y221.333 Z14.469 F2500.000
G1 X-6.467 Y221.333 Z14.290 F2500.000
G1 X-7.404 Y221.333 Z14.086 F2500.000
G1 X-7.596 Y221.324 Z14.040 F2500.000
G1 X-8.279 Y176.929 Z14.299 F2500.000
G1 X-9.291 Y111.137 Z14.692 F2500.000
G1 X-9.998 Y65.142 Z14.975 F2500.000
G1 X-10.703 Y19.347 Z15.265 F2500.000
G1 X-10.655 Y19.198 Z15.280 F2500.000
G1 X-9.691 Y19.198 Z15.526 F2500.000
G1 X-8.728 Y19.198 Z15.747 F2500.000
G1 X-7.764 Y19.198 Z15.940 F2500.000
G1 X-6.800 Y19.198 Z16.109 F2500.000
G1 X-5.837 Y19.198 Z16.252 F2500.000
G1 X-4.873 Y19.198 Z16.372 F2500.000
G1 X-3.909 Y19.198 Z16.469 F2500.000
G1 X-2.946 Y19.198 Z16.544 F2500.000
G1 X-1.982 Y19.198 Z16.597 F2500.000
G1 X-1.019 Y19.198 Z16.629 F2500.000
G1 X-0.055 Y19.198 Z16.639 F2500.000
G1 X0.909 Y19.198 Z16.631 F2500.000
G1 X1.872 Y19.198 Z16.602 F2500.000
G1 X2.836 Y19.198 Z16.551 F2500.000
G1 X3.800 Y19.198 Z16.479 F2500.000
G1 X4.763 Y19.198 Z16.384 F2500.000
G1 X5.727 Y19.198 Z16.267 F2500.000
G1 X6.691 Y19.198 Z16.126 F2500.000
G1 X7.654 Y19.198 Z15.961 F2500.000
G1 X8.618 Y19.198 Z15.769 F2500.000
G1 X9.581 Y19.198 Z15.552 F2500.000
G1 X10.545 Y19.198 Z15.310 F2500.000
G1 X10.704 Y19.238 Z15.265 F2500.000
G1 X10.018 Y63.832 Z14.984 F2500.000
G1 X9.305 Y110.227 Z14.698 F2500.000
G1 X8.442 Y166.320 Z14.362 F2500.000
G1 X7.596 Y221.333 Z14.040 F2500.000
(Break)
G1 X7.891 Y221.632 Z13.966 F2500.000
(part 73.)
G1 X6.916 Y221.632 Z14.193 F2500.000
G1 X5.941 Y221.632 Z14.391 F2500.000
G1 X4.966 Y221.632 Z14.561 F2500.000
G1 X3.991 Y221.632 Z14.699 F2500.000
G1 X3.016 Y221.632 Z14.810 F2500.000
G1 X2.041 Y221.632 Z14.889 F2500.000
G1 X1.066 Y221.632 Z14.938 F2500.000
G1 X0.091 Y221.632 Z14.956 F2500.000
G1 X-0.884 Y221.632 Z14.944 F2500.000
G1 X-1.859 Y221.632 Z14.900 F2500.000
G1 X-2.834 Y221.632 Z14.827 F2500.000
G1 X-3.809 Y221.632 Z14.722 F2500.000
G1 X-4.784 Y221.632 Z14.588 F2500.000
G1 X-5.759 Y221.632 Z14.425 F2500.000
G1 X-6.734 Y221.632 Z14.233 F2500.000
G1 X-7.709 Y221.632 Z14.011 F2500.000
G1 X-7.891 Y221.614 Z13.966 F2500.000
G1 X-8.577 Y177.020 Z14.222 F2500.000
G1 X-9.466 Y119.227 Z14.564 F2500.000
G1 X-10.383 Y59.634 Z14.928 F2500.000
G1 X-10.998 Y19.638 Z15.180 F2500.000
G1 X-11.007 Y19.038 Z15.184 F2500.000
G1 X-10.950 Y18.898 Z15.202 F2500.000
G1 X-9.960 Y18.898 Z15.464 F2500.000
G1 X-8.969 Y18.898 Z15.696 F2500.000
G1 X-7.978 Y18.898 Z15.902 F2500.000
G1 X-6.987 Y18.898 Z16.080 F2500.000
G1 X-5.996 Y18.898 Z16.233 F2500.000
G1 X-5.005 Y18.898 Z16.360 F2500.000
G1 X-4.014 Y18.898 Z16.462 F2500.000
G1 X-3.023 Y18.898 Z16.542 F2500.000
G1 X-2.032 Y18.898 Z16.597 F2500.000
G1 X-1.041 Y18.898 Z16.630 F2500.000
G1 X-0.050 Y18.898 Z16.643 F2500.000
G1 X0.940 Y18.898 Z16.633 F2500.000
G1 X1.931 Y18.898 Z16.601 F2500.000
G1 X2.922 Y18.898 Z16.548 F2500.000
G1 X3.913 Y18.898 Z16.472 F2500.000
G1 X4.904 Y18.898 Z16.371 F2500.000
G1 X5.895 Y18.898 Z16.247 F2500.000
G1 X6.886 Y18.898 Z16.098 F2500.000
G1 X7.877 Y18.898 Z15.922 F2500.000
G1 X8.868 Y18.898 Z15.719 F2500.000
G1 X9.859 Y18.898 Z15.489 F2500.000
G1 X10.850 Y18.898 Z15.230 F2500.000
G1 X11.009 Y18.937 Z15.185 F2500.000
G1 X10.634 Y43.335 Z15.029 F2500.000
G1 X9.612 Y109.727 Z14.622 F2500.000
G1 X8.579 Y176.919 Z14.223 F2500.000
G1 X7.891 Y221.632 Z13.966 F2500.000
(Break)
G1 X8.186 Y221.933 Z13.887 F2500.000
(part 75.)
G1 X7.233 Y221.933 Z14.119 F2500.000
G1 X6.280 Y221.933 Z14.323 F2500.000
G1 X5.328 Y221.933 Z14.499 F2500.000
G1 X4.375 Y221.933 Z14.645 F2500.000
G1 X3.422 Y221.933 Z14.764 F2500.000
G1 X2.469 Y221.933 Z14.855 F2500.000
G1 X1.516 Y221.933 Z14.917 F2500.000
G1 X0.563 Y221.933 Z14.949 F2500.000
G1 X-0.390 Y221.933 Z14.951 F2500.000
G1 X-1.343 Y221.933 Z14.925 F2500.000
G1 X-2.296 Y221.933 Z14.869 F2500.000
G1 X-3.249 Y221.933 Z14.783 F2500.000
G1 X-4.202 Y221.933 Z14.669 F2500.000
G1 X-5.155 Y221.933 Z14.527 F2500.000
G1 X-6.108 Y221.933 Z14.357 F2500.000
G1 X-7.061 Y221.933 Z14.158 F2500.000
G1 X-8.014 Y221.933 Z13.931 F2500.000
G1 X-8.187 Y221.905 Z13.887 F2500.000
G1 X-8.756 Y184.910 Z14.098 F2500.000
G1 X-9.740 Y120.917 Z14.473 F2500.000
G1 X-10.294 Y84.921 Z14.689 F2500.000
G1 X-11.309 Y18.929 Z15.098 F2500.000
G1 X-11.312 Y18.729 Z15.100 F2500.000
G1 X-11.246 Y18.598 Z15.121 F2500.000
G1 X-10.272 Y18.598 Z15.388 F2500.000
G1 X-9.298 Y18.598 Z15.626 F2500.000
G1 X-8.324 Y18.598 Z15.836 F2500.000
G1 X-7.350 Y18.598 Z16.021 F2500.000
G1 X-6.376 Y18.598 Z16.180 F2500.000
G1 X-5.403 Y18.598 Z16.315 F2500.000
G1 X-4.429 Y18.598 Z16.425 F2500.000
G1 X-3.455 Y18.598 Z16.513 F2500.000
G1 X-2.481 Y18.598 Z16.578 F2500.000
G1 X-1.507 Y18.598 Z16.621 F2500.000
G1 X-0.533 Y18.598 Z16.642 F2500.000
G1 X0.441 Y18.598 Z16.643 F2500.000
G1 X1.415 Y18.598 Z16.622 F2500.000
G1 X2.389 Y18.598 Z16.583 F2500.000
G1 X3.363 Y18.598 Z16.520 F2500.000
G1 X4.337 Y18.598 Z16.435 F2500.000
G1 X5.310 Y18.598 Z16.326 F2500.000
G1 X6.284 Y18.598 Z16.194 F2500.000
G1 X7.258 Y18.598 Z16.037 F2500.000
G1 X8.232 Y18.598 Z15.854 F2500.000
G1 X9.206 Y18.598 Z15.646 F2500.000
G1 X10.180 Y18.598 Z15.411 F2500.000
G1 X11.154 Y18.598 Z15.148 F2500.000
G1 X11.314 Y18.637 Z15.100 F2500.000
G1 X10.443 Y75.231 Z14.749 F2500.000
G1 X9.740 Y120.925 Z14.473 F2500.000
G1 X8.960 Y171.619 Z14.175 F2500.000
G1 X8.186 Y221.933 Z13.887 F2500.000
(Break)
G1 X8.482 Y222.232 Z13.808 F2500.000
(part 77.)
G1 X7.494 Y222.232 Z14.056 F2500.000
G1 X6.505 Y222.232 Z14.275 F2500.000
G1 X5.517 Y222.232 Z14.463 F2500.000
G1 X4.529 Y222.232 Z14.621 F2500.000
G1 X3.541 Y222.232 Z14.749 F2500.000
G1 X2.552 Y222.232 Z14.845 F2500.000
G1 X1.564 Y222.232 Z14.912 F2500.000
G1 X0.576 Y222.232 Z14.946 F2500.000
G1 X-0.412 Y222.232 Z14.947 F2500.000
G1 X-1.401 Y222.232 Z14.920 F2500.000
G1 X-2.389 Y222.232 Z14.859 F2500.000
G1 X-3.377 Y222.232 Z14.767 F2500.000
G1 X-4.365 Y222.232 Z14.644 F2500.000
G1 X-5.353 Y222.232 Z14.492 F2500.000
G1 X-6.342 Y222.232 Z14.308 F2500.000
G1 X-7.330 Y222.232 Z14.095 F2500.000
G1 X-8.318 Y222.232 Z13.850 F2500.000
G1 X-8.482 Y222.196 Z13.808 F2500.000
G1 X-9.174 Y177.201 Z14.062 F2500.000
G1 X-10.076 Y118.608 Z14.403 F2500.000
G1 X-10.814 Y70.614 Z14.691 F2500.000
G1 X-11.617 Y18.420 Z15.013 F2500.000
G1 X-11.542 Y18.298 Z15.038 F2500.000
G1 X-10.583 Y18.298 Z15.307 F2500.000
G1 X-9.625 Y18.298 Z15.551 F2500.000
G1 X-8.667 Y18.298 Z15.769 F2500.000
G1 X-7.708 Y18.298 Z15.959 F2500.000
G1 X-6.750 Y18.298 Z16.124 F2500.000
G1 X-5.792 Y18.298 Z16.266 F2500.000
G1 X-4.833 Y18.298 Z16.385 F2500.000
G1 X-3.875 Y18.298 Z16.480 F2500.000
G1 X-2.917 Y18.298 Z16.554 F2500.000
G1 X-1.958 Y18.298 Z16.605 F2500.000
G1 X-1.000 Y18.298 Z16.636 F2500.000
G1 X-0.042 Y18.298 Z16.647 F2500.000
G1 X0.917 Y18.298 Z16.639 F2500.000
G1 X1.875 Y18.298 Z16.609 F2500.000
G1 X2.833 Y18.298 Z16.559 F2500.000
G1 X3.792 Y18.298 Z16.487 F2500.000
G1 X4.750 Y18.298 Z16.394 F2500.000
G1 X5.708 Y18.298 Z16.278 F2500.000
G1 X6.667 Y18.298 Z16.138 F2500.000
G1 X7.625 Y18.298 Z15.974 F2500.000
G1 X8.583 Y18.298 Z15.786 F2500.000
G1 X9.542 Y18.298 Z15.571 F2500.000
G1 X10.500 Y18.298 Z15.329 F2500.000
G1 X11.458 Y18.298 Z15.062 F2500.000
G1 X11.618 Y18.337 Z15.013 F2500.000
G1 X10.697 Y78.230 Z14.644 F2500.000
G1 X9.923 Y128.524 Z14.345 F2500.000
G1 X9.117 Y180.918 Z14.040 F2500.000
G1 X8.482 Y222.232 Z13.808 F2500.000
(Break)
G1 X8.777 Y222.532 Z13.724 F2500.000
(part 79.)
G1 X7.811 Y222.532 Z13.977 F2500.000
G1 X6.844 Y222.532 Z14.200 F2500.000
G1 X5.877 Y222.532 Z14.395 F2500.000
G1 X4.911 Y222.532 Z14.559 F2500.000
G1 X3.944 Y222.532 Z14.698 F2500.000
G1 X2.977 Y222.532 Z14.805 F2500.000
G1 X2.011 Y222.532 Z14.883 F2500.000
G1 X1.044 Y222.532 Z14.931 F2500.000
G1 X0.077 Y222.532 Z14.950 F2500.000
G1 X-0.889 Y222.532 Z14.936 F2500.000
G1 X-1.856 Y222.532 Z14.892 F2500.000
G1 X-2.823 Y222.532 Z14.819 F2500.000
G1 X-3.789 Y222.532 Z14.717 F2500.000
G1 X-4.756 Y222.532 Z14.584 F2500.000
G1 X-5.723 Y222.532 Z14.423 F2500.000
G1 X-6.689 Y222.532 Z14.233 F2500.000
G1 X-7.656 Y222.532 Z14.014 F2500.000
G1 X-8.623 Y222.532 Z13.767 F2500.000
G1 X-8.778 Y222.487 Z13.725 F2500.000
G1 X-9.682 Y163.694 Z14.055 F2500.000
G1 X-10.541 Y107.901 Z14.380 F2500.000
G1 X-11.113 Y70.705 Z14.601 F2500.000
G1 X-11.922 Y18.111 Z14.924 F2500.000
G1 X-11.837 Y17.998 Z14.951 F2500.000
G1 X-10.854 Y17.998 Z15.238 F2500.000
G1 X-9.870 Y17.998 Z15.495 F2500.000
G1 X-8.887 Y17.998 Z15.724 F2500.000
G1 X-7.904 Y17.998 Z15.924 F2500.000
G1 X-6.920 Y17.998 Z16.100 F2500.000
G1 X-5.937 Y17.998 Z16.249 F2500.000
G1 X-4.954 Y17.998 Z16.373 F2500.000
G1 X-3.970 Y17.998 Z16.474 F2500.000
G1 X-2.987 Y17.998 Z16.551 F2500.000
G1 X-2.004 Y17.998 Z16.606 F2500.000
G1 X-1.020 Y17.998 Z16.639 F2500.000
G1 X-0.037 Y17.998 Z16.650 F2500.000
G1 X0.946 Y17.998 Z16.641 F2500.000
G1 X1.930 Y17.998 Z16.609 F2500.000
G1 X2.913 Y17.998 Z16.557 F2500.000
G1 X3.896 Y17.998 Z16.480 F2500.000
G1 X4.880 Y17.998 Z16.382 F2500.000
G1 X5.863 Y17.998 Z16.259 F2500.000
G1 X6.846 Y17.998 Z16.112 F2500.000
G1 X7.830 Y17.998 Z15.940 F2500.000
G1 X8.813 Y17.998 Z15.740 F2500.000
G1 X9.796 Y17.998 Z15.512 F2500.000
G1 X10.780 Y17.998 Z15.258 F2500.000
G1 X11.763 Y17.998 Z14.974 F2500.000
G1 X11.923 Y18.037 Z14.925 F2500.000
G1 X11.197 Y65.231 Z14.634 F2500.000
G1 X10.496 Y110.826 Z14.362 F2500.000
G1 X9.477 Y177.018 Z13.979 F2500.000
G1 X8.777 Y222.532 Z13.724 F2500.000
(Break)
G1 X9.073 Y222.833 Z13.638 F2500.000
(part 81.)
G1 X8.073 Y222.833 Z13.907 F2500.000
G1 X7.073 Y222.833 Z14.148 F2500.000
G1 X6.073 Y222.833 Z14.355 F2500.000
G1 X5.073 Y222.833 Z14.532 F2500.000
G1 X4.073 Y222.833 Z14.678 F2500.000
G1 X3.073 Y222.833 Z14.793 F2500.000
G1 X2.073 Y222.833 Z14.877 F2500.000
G1 X1.073 Y222.833 Z14.927 F2500.000
G1 X0.073 Y222.833 Z14.947 F2500.000
G1 X-0.927 Y222.833 Z14.931 F2500.000
G1 X-1.927 Y222.833 Z14.886 F2500.000
G1 X-2.927 Y222.833 Z14.807 F2500.000
G1 X-3.927 Y222.833 Z14.697 F2500.000
G1 X-4.927 Y222.833 Z14.555 F2500.000
G1 X-5.927 Y222.833 Z14.382 F2500.000
G1 X-6.927 Y222.833 Z14.180 F2500.000
G1 X-7.927 Y222.833 Z13.944 F2500.000
G1 X-8.927 Y222.833 Z13.679 F2500.000
G1 X-9.073 Y222.778 Z13.638 F2500.000
G1 X-9.864 Y171.384 Z13.924 F2500.000
G1 X-10.685 Y117.990 Z14.230 F2500.000
G1 X-11.565 Y60.797 Z14.569 F2500.000
G1 X-12.214 Y18.602 Z14.826 F2500.000
G1 X-12.227 Y17.802 Z14.832 F2500.000
G1 X-12.133 Y17.698 Z14.863 F2500.000
G1 X-11.165 Y17.698 Z15.153 F2500.000
G1 X-10.197 Y17.698 Z15.416 F2500.000
G1 X-9.229 Y17.698 Z15.650 F2500.000
G1 X-8.261 Y17.698 Z15.857 F2500.000
G1 X-7.293 Y17.698 Z16.039 F2500.000
G1 X-6.325 Y17.698 Z16.196 F2500.000
G1 X-5.357 Y17.698 Z16.328 F2500.000
G1 X-4.389 Y17.698 Z16.437 F2500.000
G1 X-3.421 Y17.698 Z16.523 F2500.000
G1 X-2.453 Y17.698 Z16.587 F2500.000
G1 X-1.485 Y17.698 Z16.628 F2500.000
G1 X-0.517 Y17.698 Z16.650 F2500.000
G1 X0.451 Y17.698 Z16.649 F2500.000
G1 X1.419 Y17.698 Z16.630 F2500.000
G1 X2.387 Y17.698 Z16.590 F2500.000
G1 X3.355 Y17.698 Z16.528 F2500.000
G1 X4.323 Y17.698 Z16.443 F2500.000
G1 X5.291 Y17.698 Z16.336 F2500.000
G1 X6.259 Y17.698 Z16.205 F2500.000
G1 X7.227 Y17.698 Z16.051 F2500.000
G1 X8.195 Y17.698 Z15.870 F2500.000
G1 X9.163 Y17.698 Z15.665 F2500.000
G1 X10.131 Y17.698 Z15.433 F2500.000
G1 X11.099 Y17.698 Z15.172 F2500.000
G1 X12.067 Y17.698 Z14.883 F2500.000
G1 X12.228 Y17.737 Z14.832 F2500.000
G1 X11.446 Y68.531 Z14.523 F2500.000
G1 X10.625 Y121.924 Z14.207 F2500.000
G1 X9.680 Y183.317 Z13.856 F2500.000
G1 X9.073 Y222.833 Z13.638 F2500.000
(Break)
G1 X9.368 Y223.132 Z13.549 F2500.000
(part 83.)
G1 X8.389 Y223.132 Z13.822 F2500.000
G1 X7.410 Y223.132 Z14.065 F2500.000
G1 X6.431 Y223.132 Z14.281 F2500.000
G1 X5.452 Y223.132 Z14.466 F2500.000
G1 X4.473 Y223.132 Z14.621 F2500.000
G1 X3.494 Y223.132 Z14.745 F2500.000
G1 X2.515 Y223.132 Z14.841 F2500.000
G1 X1.536 Y223.132 Z14.906 F2500.000
G1 X0.558 Y223.132 Z14.939 F2500.000
G1 X-0.421 Y223.132 Z14.941 F2500.000
G1 X-1.400 Y223.132 Z14.912 F2500.000
G1 X-2.379 Y223.132 Z14.851 F2500.000
G1 X-3.358 Y223.132 Z14.761 F2500.000
G1 X-4.337 Y223.132 Z14.641 F2500.000
G1 X-5.316 Y223.132 Z14.489 F2500.000
G1 X-6.295 Y223.132 Z14.309 F2500.000
G1 X-7.274 Y223.132 Z14.097 F2500.000
G1 X-8.253 Y223.132 Z13.857 F2500.000
G1 X-9.232 Y223.132 Z13.589 F2500.000
G1 X-9.369 Y223.069 Z13.550 F2500.000
G1 X-10.090 Y176.208 Z13.807 F2500.000
G1 X-11.061 Y113.082 Z14.166 F2500.000
G1 X-11.888 Y59.288 Z14.483 F2500.000
G1 X-12.531 Y17.493 Z14.735 F2500.000
G1 X-12.428 Y17.398 Z14.771 F2500.000
G1 X-11.436 Y17.398 Z15.077 F2500.000
G1 X-10.444 Y17.398 Z15.353 F2500.000
G1 X-9.452 Y17.398 Z15.602 F2500.000
G1 X-8.460 Y17.398 Z15.820 F2500.000
G1 X-7.468 Y17.398 Z16.010 F2500.000
G1 X-6.476 Y17.398 Z16.176 F2500.000
G1 X-5.484 Y17.398 Z16.315 F2500.000
G1 X-4.492 Y17.398 Z16.430 F2500.000
G1 X-3.500 Y17.398 Z16.519 F2500.000
G1 X-2.508 Y17.398 Z16.586 F2500.000
G1 X-1.516 Y17.398 Z16.629 F2500.000
G1 X-0.524 Y17.398 Z16.652 F2500.000
G1 X0.468 Y17.398 Z16.652 F2500.000
G1 X1.460 Y17.398 Z16.631 F2500.000
G1 X2.452 Y17.398 Z16.589 F2500.000
G1 X3.444 Y17.398 Z16.524 F2500.000
G1 X4.436 Y17.398 Z16.435 F2500.000
G1 X5.428 Y17.398 Z16.322 F2500.000
G1 X6.420 Y17.398 Z16.185 F2500.000
G1 X7.412 Y17.398 Z16.020 F2500.000
G1 X8.404 Y17.398 Z15.831 F2500.000
G1 X9.396 Y17.398 Z15.615 F2500.000
G1 X10.388 Y17.398 Z15.368 F2500.000
G1 X11.380 Y17.398 Z15.094 F2500.000
G1 X12.372 Y17.398 Z14.789 F2500.000
G1 X12.532 Y17.436 Z14.736 F2500.000
G1 X11.656 Y74.430 Z14.393 F2500.000
G1 X10.803 Y129.823 Z14.070 F2500.000
G1 X9.890 Y189.216 Z13.734 F2500.000
G1 X9.368 Y223.132 Z13.549 F2500.000
(Break)
G1 X9.663 Y223.433 Z13.457 F2500.000
(part 85.)
G1 X8.703 Y223.433 Z13.735 F2500.000
G1 X7.743 Y223.433 Z13.985 F2500.000
G1 X6.783 Y223.433 Z14.204 F2500.000
G1 X5.823 Y223.433 Z14.396 F2500.000
G1 X4.863 Y223.433 Z14.560 F2500.000
G1 X3.903 Y223.433 Z14.695 F2500.000
G1 X2.943 Y223.433 Z14.801 F2500.000
G1 X1.983 Y223.433 Z14.878 F2500.000
G1 X1.023 Y223.433 Z14.924 F2500.000
G1 X0.063 Y223.433 Z14.942 F2500.000
G1 X-0.897 Y223.433 Z14.928 F2500.000
G1 X-1.857 Y223.433 Z14.885 F2500.000
G1 X-2.817 Y223.433 Z14.812 F2500.000
G1 X-3.777 Y223.433 Z14.711 F2500.000
G1 X-4.737 Y223.433 Z14.579 F2500.000
G1 X-5.697 Y223.433 Z14.420 F2500.000
G1 X-6.657 Y223.433 Z14.231 F2500.000
G1 X-7.617 Y223.433 Z14.015 F2500.000
G1 X-8.577 Y223.433 Z13.770 F2500.000
G1 X-9.537 Y223.433 Z13.495 F2500.000
G1 X-9.665 Y223.359 Z13.457 F2500.000
G1 X-10.714 Y155.168 Z13.833 F2500.000
G1 X-11.326 Y115.372 Z14.058 F2500.000
G1 X-11.963 Y73.977 Z14.298 F2500.000
G1 X-12.836 Y17.184 Z14.638 F2500.000
G1 X-12.724 Y17.098 Z14.676 F2500.000
G1 X-11.747 Y17.098 Z14.989 F2500.000
G1 X-10.770 Y17.098 Z15.270 F2500.000
G1 X-9.793 Y17.098 Z15.522 F2500.000
G1 X-8.816 Y17.098 Z15.747 F2500.000
G1 X-7.839 Y17.098 Z15.946 F2500.000
G1 X-6.862 Y17.098 Z16.117 F2500.000
G1 X-5.885 Y17.098 Z16.264 F2500.000
G1 X-4.908 Y17.098 Z16.387 F2500.000
G1 X-3.932 Y17.098 Z16.486 F2500.000
G1 X-2.955 Y17.098 Z16.561 F2500.000
G1 X-1.978 Y17.098 Z16.615 F2500.000
G1 X-1.001 Y17.098 Z16.646 F2500.000
G1 X-0.024 Y17.098 Z16.657 F2500.000
G1 X0.953 Y17.098 Z16.647 F2500.000
G1 X1.930 Y17.098 Z16.617 F2500.000
G1 X2.907 Y17.098 Z16.565 F2500.000
G1 X3.884 Y17.098 Z16.490 F2500.000
G1 X4.861 Y17.098 Z16.392 F2500.000
G1 X5.838 Y17.098 Z16.271 F2500.000
G1 X6.815 Y17.098 Z16.125 F2500.000
G1 X7.792 Y17.098 Z15.955 F2500.000
G1 X8.768 Y17.098 Z15.758 F2500.000
G1 X9.745 Y17.098 Z15.534 F2500.000
G1 X10.722 Y17.098 Z15.283 F2500.000
G1 X11.699 Y17.098 Z15.003 F2500.000
G1 X12.676 Y17.098 Z14.692 F2500.000
G1 X12.837 Y17.136 Z14.638 F2500.000
G1 X12.077 Y66.530 Z14.342 F2500.000
G1 X11.280 Y118.324 Z14.041 F2500.000
G1 X10.484 Y170.118 Z13.749 F2500.000
G1 X9.663 Y223.433 Z13.457 F2500.000
(Break)
G1 X9.959 Y223.732 Z13.363 F2500.000
(part 87.)
G1 X8.969 Y223.732 Z13.657 F2500.000
G1 X7.979 Y223.732 Z13.922 F2500.000
G1 X6.989 Y223.732 Z14.158 F2500.000
G1 X5.999 Y223.732 Z14.361 F2500.000
G1 X5.009 Y223.732 Z14.535 F2500.000
G1 X4.019 Y223.732 Z14.677 F2500.000
G1 X3.029 Y223.732 Z14.789 F2500.000
G1 X2.039 Y223.732 Z14.872 F2500.000
G1 X1.049 Y223.732 Z14.921 F2500.000
G1 X0.059 Y223.732 Z14.939 F2500.000
G1 X-0.931 Y223.732 Z14.925 F2500.000
G1 X-1.921 Y223.732 Z14.879 F2500.000
G1 X-2.911 Y223.732 Z14.801 F2500.000
G1 X-3.901 Y223.732 Z14.693 F2500.000
G1 X-4.891 Y223.732 Z14.553 F2500.000
G1 X-5.881 Y223.732 Z14.383 F2500.000
G1 X-6.871 Y223.732 Z14.183 F2500.000
G1 X-7.861 Y223.732 Z13.952 F2500.000
G1 X-8.851 Y223.732 Z13.690 F2500.000
G1 X-9.841 Y223.732 Z13.399 F2500.000
G1 X-9.960 Y223.650 Z13.364 F2500.000
G1 X-10.671 Y177.456 Z13.613 F2500.000
G1 X-11.532 Y121.462 Z13.925 F2500.000
G1 X-12.501 Y58.470 Z14.289 F2500.000
G1 X-13.141 Y16.875 Z14.536 F2500.000
G1 X-13.019 Y16.798 Z14.580 F2500.000
G1 X-12.056 Y16.798 Z14.895 F2500.000
G1 X-11.093 Y16.798 Z15.183 F2500.000
G1 X-10.131 Y16.798 Z15.443 F2500.000
G1 X-9.168 Y16.798 Z15.673 F2500.000
G1 X-8.205 Y16.798 Z15.877 F2500.000
G1 X-7.242 Y16.798 Z16.056 F2500.000
G1 X-6.279 Y16.798 Z16.211 F2500.000
G1 X-5.316 Y16.798 Z16.342 F2500.000
G1 X-4.353 Y16.798 Z16.448 F2500.000
G1 X-3.390 Y16.798 Z16.532 F2500.000
G1 X-2.427 Y16.798 Z16.595 F2500.000
G1 X-1.464 Y16.798 Z16.636 F2500.000
G1 X-0.501 Y16.798 Z16.658 F2500.000
G1 X0.462 Y16.798 Z16.657 F2500.000
G1 X1.425 Y16.798 Z16.638 F2500.000
G1 X2.388 Y16.798 Z16.596 F2500.000
G1 X3.351 Y16.798 Z16.536 F2500.000
G1 X4.314 Y16.798 Z16.452 F2500.000
G1 X5.277 Y16.798 Z16.346 F2500.000
G1 X6.240 Y16.798 Z16.217 F2500.000
G1 X7.203 Y16.798 Z16.063 F2500.000
G1 X8.166 Y16.798 Z15.884 F2500.000
G1 X9.129 Y16.798 Z15.681 F2500.000
G1 X10.092 Y16.798 Z15.453 F2500.000
G1 X11.055 Y16.798 Z15.194 F2500.000
G1 X12.018 Y16.798 Z14.907 F2500.000
G1 X12.981 Y16.798 Z14.593 F2500.000
G1 X13.142 Y16.836 Z14.536 F2500.000
G1 X12.489 Y59.231 Z14.284 F2500.000
G1 X11.520 Y122.223 Z13.921 F2500.000
G1 X10.567 Y184.216 Z13.575 F2500.000
G1 X9.959 Y223.732 Z13.363 F2500.000
(Break)
G1 X10.254 Y224.032 Z13.265 F2500.000
(part 89.)
G1 X9.283 Y224.032 Z13.566 F2500.000
G1 X8.311 Y224.032 Z13.834 F2500.000
G1 X7.340 Y224.032 Z14.073 F2500.000
G1 X6.369 Y224.032 Z14.286 F2500.000
G1 X5.397 Y224.032 Z14.467 F2500.000
G1 X4.426 Y224.032 Z14.620 F2500.000
G1 X3.454 Y224.032 Z14.742 F2500.000
G1 X2.483 Y224.032 Z14.835 F2500.000
G1 X1.511 Y224.032 Z14.898 F2500.000
G1 X0.540 Y224.032 Z14.931 F2500.000
G1 X-0.431 Y224.032 Z14.933 F2500.000
G1 X-1.403 Y224.032 Z14.904 F2500.000
G1 X-2.374 Y224.032 Z14.844 F2500.000
G1 X-3.346 Y224.032 Z14.754 F2500.000
G1 X-4.317 Y224.032 Z14.635 F2500.000
G1 X-5.289 Y224.032 Z14.486 F2500.000
G1 X-6.260 Y224.032 Z14.308 F2500.000
G1 X-7.231 Y224.032 Z14.099 F2500.000
G1 X-8.203 Y224.032 Z13.862 F2500.000
G1 X-9.174 Y224.032 Z13.597 F2500.000
G1 X-10.146 Y224.032 Z13.301 F2500.000
G1 X-10.256 Y223.941 Z13.265 F2500.000
G1 X-10.966 Y177.747 Z13.513 F2500.000
G1 X-11.532 Y140.951 Z13.716 F2500.000
G1 X-12.412 Y83.758 Z14.039 F2500.000
G1 X-13.446 Y16.566 Z14.432 F2500.000
G1 X-13.315 Y16.498 Z14.479 F2500.000
G1 X-12.330 Y16.498 Z14.813 F2500.000
G1 X-11.345 Y16.498 Z15.113 F2500.000
G1 X-10.359 Y16.498 Z15.385 F2500.000
G1 X-9.374 Y16.498 Z15.629 F2500.000
G1 X-8.389 Y16.498 Z15.843 F2500.000
G1 X-7.404 Y16.498 Z16.030 F2500.000
G1 X-6.419 Y16.498 Z16.193 F2500.000
G1 X-5.433 Y16.498 Z16.329 F2500.000
G1 X-4.448 Y16.498 Z16.442 F2500.000
G1 X-3.463 Y16.498 Z16.529 F2500.000
G1 X-2.478 Y16.498 Z16.595 F2500.000
G1 X-1.493 Y16.498 Z16.638 F2500.000
G1 X-0.508 Y16.498 Z16.660 F2500.000
G1 X0.478 Y16.498 Z16.659 F2500.000
G1 X1.463 Y16.498 Z16.640 F2500.000
G1 X2.448 Y16.498 Z16.596 F2500.000
G1 X3.433 Y16.498 Z16.532 F2500.000
G1 X4.418 Y16.498 Z16.444 F2500.000
G1 X5.404 Y16.498 Z16.333 F2500.000
G1 X6.389 Y16.498 Z16.198 F2500.000
G1 X7.374 Y16.498 Z16.036 F2500.000
G1 X8.359 Y16.498 Z15.849 F2500.000
G1 X9.344 Y16.498 Z15.637 F2500.000
G1 X10.329 Y16.498 Z15.393 F2500.000
G1 X11.315 Y16.498 Z15.122 F2500.000
G1 X12.300 Y16.498 Z14.823 F2500.000
G1 X13.285 Y16.498 Z14.489 F2500.000
G1 X13.446 Y16.536 Z14.432 F2500.000
G1 X12.545 Y75.129 Z14.088 F2500.000
G1 X11.880 Y118.324 Z13.843 F2500.000
G1 X11.136 Y166.718 Z13.573 F2500.000
G1 X10.254 Y224.032 Z13.265 F2500.000
(Break)
G1 X10.550 Y224.333 Z13.165 F2500.000
(part 91.)
G1 X9.550 Y224.333 Z13.483 F2500.000
G1 X8.550 Y224.333 Z13.769 F2500.000
G1 X7.550 Y224.333 Z14.022 F2500.000
G1 X6.550 Y224.333 Z14.245 F2500.000
G1 X5.550 Y224.333 Z14.438 F2500.000
G1 X4.550 Y224.333 Z14.599 F2500.000
G1 X3.550 Y224.333 Z14.728 F2500.000
G1 X2.550 Y224.333 Z14.828 F2500.000
G1 X1.550 Y224.333 Z14.893 F2500.000
G1 X0.550 Y224.333 Z14.929 F2500.000
G1 X-0.450 Y224.333 Z14.931 F2500.000
G1 X-1.450 Y224.333 Z14.899 F2500.000
G1 X-2.450 Y224.333 Z14.836 F2500.000
G1 X-3.450 Y224.333 Z14.739 F2500.000
G1 X-4.450 Y224.333 Z14.614 F2500.000
G1 X-5.450 Y224.333 Z14.455 F2500.000
G1 X-6.450 Y224.333 Z14.266 F2500.000
G1 X-7.450 Y224.333 Z14.045 F2500.000
G1 X-8.450 Y224.333 Z13.795 F2500.000
G1 X-9.450 Y224.333 Z13.512 F2500.000
G1 X-10.450 Y224.333 Z13.198 F2500.000
G1 X-10.551 Y224.232 Z13.165 F2500.000
G1 X-11.342 Y172.838 Z13.439 F2500.000
G1 X-12.283 Y111.645 Z13.776 F2500.000
G1 X-12.843 Y75.250 Z13.982 F2500.000
G1 X-13.751 Y16.257 Z14.324 F2500.000
G1 X-13.611 Y16.198 Z14.377 F2500.000
G1 X-12.639 Y16.198 Z14.714 F2500.000
G1 X-11.668 Y16.198 Z15.023 F2500.000
G1 X-10.696 Y16.198 Z15.299 F2500.000
G1 X-9.725 Y16.198 Z15.549 F2500.000
G1 X-8.753 Y16.198 Z15.771 F2500.000
G1 X-7.782 Y16.198 Z15.966 F2500.000
G1 X-6.811 Y16.198 Z16.135 F2500.000
G1 X-5.839 Y16.198 Z16.279 F2500.000
G1 X-4.868 Y16.198 Z16.399 F2500.000
G1 X-3.896 Y16.198 Z16.497 F2500.000
G1 X-2.925 Y16.198 Z16.570 F2500.000
G1 X-1.953 Y16.198 Z16.623 F2500.000
G1 X-0.982 Y16.198 Z16.654 F2500.000
G1 X-0.011 Y16.198 Z16.665 F2500.000
G1 X0.961 Y16.198 Z16.655 F2500.000
G1 X1.932 Y16.198 Z16.624 F2500.000
G1 X2.904 Y16.198 Z16.572 F2500.000
G1 X3.875 Y16.198 Z16.498 F2500.000
G1 X4.847 Y16.198 Z16.401 F2500.000
G1 X5.818 Y16.198 Z16.282 F2500.000
G1 X6.789 Y16.198 Z16.138 F2500.000
G1 X7.761 Y16.198 Z15.970 F2500.000
G1 X8.732 Y16.198 Z15.775 F2500.000
G1 X9.704 Y16.198 Z15.554 F2500.000
G1 X10.675 Y16.198 Z15.305 F2500.000
G1 X11.647 Y16.198 Z15.029 F2500.000
G1 X12.618 Y16.198 Z14.720 F2500.000
G1 X13.589 Y16.198 Z14.385 F2500.000
G1 X13.751 Y16.236 Z14.324 F2500.000
G1 X12.717 Y83.428 Z13.935 F2500.000
G1 X12.116 Y122.523 Z13.715 F2500.000
G1 X11.376 Y170.617 Z13.451 F2500.000
G1 X10.550 Y224.333 Z13.165 F2500.000
(Break)
G1 X10.845 Y224.632 Z13.064 F2500.000
(part 93.)
G1 X9.863 Y224.632 Z13.384 F2500.000
G1 X8.882 Y224.632 Z13.674 F2500.000
G1 X7.900 Y224.632 Z13.934 F2500.000
G1 X6.918 Y224.632 Z14.165 F2500.000
G1 X5.936 Y224.632 Z14.364 F2500.000
G1 X4.954 Y224.632 Z14.534 F2500.000
G1 X3.972 Y224.632 Z14.676 F2500.000
G1 X2.991 Y224.632 Z14.785 F2500.000
G1 X2.009 Y224.632 Z14.866 F2500.000
G1 X1.027 Y224.632 Z14.915 F2500.000
G1 X0.045 Y224.632 Z14.931 F2500.000
G1 X-0.937 Y224.632 Z14.918 F2500.000
G1 X-1.918 Y224.632 Z14.871 F2500.000
G1 X-2.900 Y224.632 Z14.794 F2500.000
G1 X-3.882 Y224.632 Z14.687 F2500.000
G1 X-4.864 Y224.632 Z14.548 F2500.000
G1 X-5.846 Y224.632 Z14.382 F2500.000
G1 X-6.828 Y224.632 Z14.185 F2500.000
G1 X-7.809 Y224.632 Z13.957 F2500.000
G1 X-8.791 Y224.632 Z13.700 F2500.000
G1 X-9.773 Y224.632 Z13.412 F2500.000
G1 X-10.755 Y224.632 Z13.094 F2500.000
G1 X-10.847 Y224.523 Z13.064 F2500.000
G1 X-11.574 Y177.228 Z13.312 F2500.000
G1 X-12.314 Y129.134 Z13.573 F2500.000
G1 X-13.019 Y83.340 Z13.827 F2500.000
G1 X-14.055 Y15.948 Z14.214 F2500.000
G1 X-13.906 Y15.898 Z14.271 F2500.000
G1 X-12.913 Y15.898 Z14.627 F2500.000
G1 X-11.920 Y15.898 Z14.949 F2500.000
G1 X-10.928 Y15.898 Z15.240 F2500.000
G1 X-9.935 Y15.898 Z15.501 F2500.000
G1 X-8.942 Y15.898 Z15.733 F2500.000
G1 X-7.949 Y15.898 Z15.936 F2500.000
G1 X-6.956 Y15.898 Z16.114 F2500.000
G1 X-5.963 Y15.898 Z16.264 F2500.000
G1 X-4.970 Y15.898 Z16.391 F2500.000
G1 X-3.978 Y15.898 Z16.492 F2500.000
G1 X-2.985 Y15.898 Z16.570 F2500.000
G1 X-1.992 Y15.898 Z16.624 F2500.000
G1 X-0.999 Y15.898 Z16.657 F2500.000
G1 X-0.006 Y15.898 Z16.667 F2500.000
G1 X0.987 Y15.898 Z16.657 F2500.000
G1 X1.980 Y15.898 Z16.625 F2500.000
G1 X2.972 Y15.898 Z16.570 F2500.000
G1 X3.965 Y15.898 Z16.493 F2500.000
G1 X4.958 Y15.898 Z16.391 F2500.000
G1 X5.951 Y15.898 Z16.267 F2500.000
G1 X6.944 Y15.898 Z16.116 F2500.000
G1 X7.937 Y15.898 Z15.939 F2500.000
G1 X8.930 Y15.898 Z15.736 F2500.000
G1 X9.922 Y15.898 Z15.504 F2500.000
G1 X10.915 Y15.898 Z15.243 F2500.000
G1 X11.908 Y15.898 Z14.953 F2500.000
G1 X12.901 Y15.898 Z14.631 F2500.000
G1 X13.894 Y15.898 Z14.275 F2500.000
G1 X14.055 Y15.935 Z14.214 F2500.000
G1 X13.354 Y61.530 Z13.951 F2500.000
G1 X12.317 Y128.922 Z13.573 F2500.000
G1 X11.475 Y183.715 Z13.277 F2500.000
G1 X10.845 Y224.632 Z13.064 F2500.000
(Break)
G1 X11.141 Y224.933 Z12.957 F2500.000
(part 95.)
G1 X10.175 Y224.933 Z13.282 F2500.000
G1 X9.210 Y224.933 Z13.578 F2500.000
G1 X8.245 Y224.933 Z13.842 F2500.000
G1 X7.280 Y224.933 Z14.081 F2500.000
G1 X6.314 Y224.933 Z14.289 F2500.000
G1 X5.349 Y224.933 Z14.468 F2500.000
G1 X4.384 Y224.933 Z14.618 F2500.000
G1 X3.419 Y224.933 Z14.739 F2500.000
G1 X2.454 Y224.933 Z14.830 F2500.000
G1 X1.488 Y224.933 Z14.892 F2500.000
G1 X0.523 Y224.933 Z14.924 F2500.000
G1 X-0.442 Y224.933 Z14.926 F2500.000
G1 X-1.407 Y224.933 Z14.895 F2500.000
G1 X-2.372 Y224.933 Z14.837 F2500.000
G1 X-3.338 Y224.933 Z14.748 F2500.000
G1 X-4.303 Y224.933 Z14.629 F2500.000
G1 X-5.268 Y224.933 Z14.482 F2500.000
G1 X-6.233 Y224.933 Z14.305 F2500.000
G1 X-7.199 Y224.933 Z14.100 F2500.000
G1 X-8.164 Y224.933 Z13.863 F2500.000
G1 X-9.129 Y224.933 Z13.600 F2500.000
G1 X-10.094 Y224.933 Z13.308 F2500.000
G1 X-11.059 Y224.933 Z12.986 F2500.000
G1 X-11.142 Y224.814 Z12.958 F2500.000
G1 X-12.019 Y167.820 Z13.256 F2500.000
G1 X-12.865 Y112.827 Z13.553 F2500.000
G1 X-13.668 Y60.633 Z13.843 F2500.000
G1 X-14.360 Y15.638 Z14.100 F2500.000
G1 X-14.202 Y15.598 Z14.162 F2500.000
G1 X-13.222 Y15.598 Z14.523 F2500.000
G1 X-12.243 Y15.598 Z14.851 F2500.000
G1 X-11.264 Y15.598 Z15.147 F2500.000
G1 X-10.284 Y15.598 Z15.414 F2500.000
G1 X-9.305 Y15.598 Z15.655 F2500.000
G1 X-8.326 Y15.598 Z15.864 F2500.000
G1 X-7.346 Y15.598 Z16.050 F2500.000
G1 X-6.367 Y15.598 Z16.210 F2500.000
G1 X-5.388 Y15.598 Z16.344 F2500.000
G1 X-4.409 Y15.598 Z16.453 F2500.000
G1 X-3.429 Y15.598 Z16.540 F2500.000
G1 X-2.450 Y15.598 Z16.605 F2500.000
G1 X-1.471 Y15.598 Z16.646 F2500.000
G1 X-0.491 Y15.598 Z16.667 F2500.000
G1 X0.488 Y15.598 Z16.667 F2500.000
G1 X1.467 Y15.598 Z16.647 F2500.000
G1 X2.447 Y15.598 Z16.604 F2500.000
G1 X3.426 Y15.598 Z16.541 F2500.000
G1 X4.405 Y15.598 Z16.453 F2500.000
G1 X5.385 Y15.598 Z16.344 F2500.000
G1 X6.364 Y15.598 Z16.210 F2500.000
G1 X7.343 Y15.598 Z16.051 F2500.000
G1 X8.322 Y15.598 Z15.865 F2500.000
G1 X9.302 Y15.598 Z15.655 F2500.000
G1 X10.281 Y15.598 Z15.415 F2500.000
G1 X11.260 Y15.598 Z15.149 F2500.000
G1 X12.240 Y15.598 Z14.852 F2500.000
G1 X13.219 Y15.598 Z14.524 F2500.000
G1 X14.198 Y15.598 Z14.163 F2500.000
G1 X14.360 Y15.635 Z14.101 F2500.000
G1 X13.991 Y39.632 Z13.962 F2500.000
G1 X12.773 Y118.823 Z13.519 F2500.000
G1 X11.690 Y189.215 Z13.142 F2500.000
G1 X11.141 Y224.933 Z12.957 F2500.000
(Break)
G1 X11.436 Y225.232 Z12.849 F2500.000
(part 97.)
G1 X10.445 Y225.232 Z13.190 F2500.000
G1 X9.453 Y225.232 Z13.503 F2500.000
G1 X8.462 Y225.232 Z13.784 F2500.000
G1 X7.471 Y225.232 Z14.033 F2500.000
G1 X6.479 Y225.232 Z14.252 F2500.000
G1 X5.488 Y225.232 Z14.441 F2500.000
G1 X4.497 Y225.232 Z14.598 F2500.000
G1 X3.506 Y225.232 Z14.727 F2500.000
G1 X2.514 Y225.232 Z14.824 F2500.000
G1 X1.523 Y225.232 Z14.888 F2500.000
G1 X0.532 Y225.232 Z14.922 F2500.000
G1 X-0.460 Y225.232 Z14.924 F2500.000
G1 X-1.451 Y225.232 Z14.891 F2500.000
G1 X-2.442 Y225.232 Z14.829 F2500.000
G1 X-3.434 Y225.232 Z14.735 F2500.000
G1 X-4.425 Y225.232 Z14.609 F2500.000
G1 X-5.416 Y225.232 Z14.454 F2500.000
G1 X-6.407 Y225.232 Z14.267 F2500.000
G1 X-7.399 Y225.232 Z14.050 F2500.000
G1 X-8.390 Y225.232 Z13.802 F2500.000
G1 X-9.381 Y225.232 Z13.524 F2500.000
G1 X-10.373 Y225.232 Z13.214 F2500.000
G1 X-11.364 Y225.232 Z12.875 F2500.000
G1 X-11.438 Y225.105 Z12.850 F2500.000
G1 X-12.244 Y172.711 Z13.119 F2500.000
G1 X-12.936 Y127.716 Z13.359 F2500.000
G1 X-13.748 Y74.922 Z13.648 F2500.000
G1 X-14.665 Y15.329 Z13.984 F2500.000
G1 X-14.497 Y15.298 Z14.051 F2500.000
G1 X-13.497 Y15.298 Z14.428 F2500.000
G1 X-12.497 Y15.298 Z14.772 F2500.000
G1 X-11.497 Y15.298 Z15.083 F2500.000
G1 X-10.497 Y15.298 Z15.361 F2500.000
G1 X-9.497 Y15.298 Z15.612 F2500.000
G1 X-8.497 Y15.298 Z15.834 F2500.000
G1 X-7.497 Y15.298 Z16.026 F2500.000
G1 X-6.497 Y15.298 Z16.193 F2500.000
G1 X-5.497 Y15.298 Z16.333 F2500.000
G1 X-4.497 Y15.298 Z16.447 F2500.000
G1 X-3.497 Y15.298 Z16.538 F2500.000
G1 X-2.497 Y15.298 Z16.605 F2500.000
G1 X-1.497 Y15.298 Z16.648 F2500.000
G1 X-0.497 Y15.298 Z16.670 F2500.000
G1 X0.503 Y15.298 Z16.669 F2500.000
G1 X1.503 Y15.298 Z16.648 F2500.000
G1 X2.503 Y15.298 Z16.604 F2500.000
G1 X3.503 Y15.298 Z16.537 F2500.000
G1 X4.503 Y15.298 Z16.446 F2500.000
G1 X5.503 Y15.298 Z16.332 F2500.000
G1 X6.503 Y15.298 Z16.192 F2500.000
G1 X7.503 Y15.298 Z16.026 F2500.000
G1 X8.503 Y15.298 Z15.832 F2500.000
G1 X9.503 Y15.298 Z15.611 F2500.000
G1 X10.503 Y15.298 Z15.360 F2500.000
G1 X11.503 Y15.298 Z15.082 F2500.000
G1 X12.503 Y15.298 Z14.770 F2500.000
G1 X13.503 Y15.298 Z14.427 F2500.000
G1 X14.503 Y15.298 Z14.049 F2500.000
G1 X14.665 Y15.335 Z13.984 F2500.000
G1 X13.997 Y58.730 Z13.738 F2500.000
G1 X13.084 Y118.123 Z13.411 F2500.000
G1 X12.164 Y177.916 Z13.092 F2500.000
G1 X11.436 Y225.232 Z12.849 F2500.000
(Break)
G1 X11.731 Y225.532 Z12.738 F2500.000
(part 99.)
G1 X10.756 Y225.532 Z13.085 F2500.000
G1 X9.781 Y225.532 Z13.401 F2500.000
G1 X8.806 Y225.532 Z13.687 F2500.000
G1 X7.831 Y225.532 Z13.943 F2500.000
G1 X6.856 Y225.532 Z14.170 F2500.000
G1 X5.881 Y225.532 Z14.366 F2500.000
G1 X4.906 Y225.532 Z14.535 F2500.000
G1 X3.931 Y225.532 Z14.673 F2500.000
G1 X2.956 Y225.532 Z14.782 F2500.000
G1 X1.981 Y225.532 Z14.860 F2500.000
G1 X1.006 Y225.532 Z14.908 F2500.000
G1 X0.031 Y225.532 Z14.924 F2500.000
G1 X-0.944 Y225.532 Z14.910 F2500.000
G1 X-1.919 Y225.532 Z14.864 F2500.000
G1 X-2.894 Y225.532 Z14.788 F2500.000
G1 X-3.869 Y225.532 Z14.681 F2500.000
G1 X-4.844 Y225.532 Z14.544 F2500.000
G1 X-5.819 Y225.532 Z14.378 F2500.000
G1 X-6.794 Y225.532 Z14.183 F2500.000
G1 X-7.769 Y225.532 Z13.959 F2500.000
G1 X-8.744 Y225.532 Z13.704 F2500.000
G1 X-9.719 Y225.532 Z13.420 F2500.000
G1 X-10.694 Y225.532 Z13.105 F2500.000
G1 X-11.669 Y225.532 Z12.761 F2500.000
G1 X-11.734 Y225.395 Z12.738 F2500.000
G1 X-12.758 Y158.803 Z13.079 F2500.000
G1 X-13.305 Y123.207 Z13.268 F2500.000
G1 X-14.133 Y69.414 Z13.560 F2500.000
G1 X-14.970 Y15.020 Z13.862 F2500.000
G1 X-14.793 Y14.998 Z13.936 F2500.000
G1 X-13.806 Y14.998 Z14.319 F2500.000
G1 X-12.819 Y14.998 Z14.667 F2500.000
G1 X-11.833 Y14.998 Z14.985 F2500.000
G1 X-10.846 Y14.998 Z15.272 F2500.000
G1 X-9.859 Y14.998 Z15.529 F2500.000
G1 X-8.873 Y14.998 Z15.757 F2500.000
G1 X-7.886 Y14.998 Z15.958 F2500.000
G1 X-6.899 Y14.998 Z16.132 F2500.000
G1 X-5.913 Y14.998 Z16.280 F2500.000
G1 X-4.926 Y14.998 Z16.402 F2500.000
G1 X-3.939 Y14.998 Z16.503 F2500.000
G1 X-2.953 Y14.998 Z16.579 F2500.000
G1 X-1.966 Y14.998 Z16.633 F2500.000
G1 X-0.979 Y14.998 Z16.664 F2500.000
G1 X0.007 Y14.998 Z16.675 F2500.000
G1 X0.994 Y14.998 Z16.664 F2500.000
G1 X1.981 Y14.998 Z16.632 F2500.000
G1 X2.967 Y14.998 Z16.579 F2500.000
G1 X3.954 Y14.998 Z16.502 F2500.000
G1 X4.941 Y14.998 Z16.401 F2500.000
G1 X5.927 Y14.998 Z16.278 F2500.000
G1 X6.914 Y14.998 Z16.130 F2500.000
G1 X7.901 Y14.998 Z15.955 F2500.000
G1 X8.887 Y14.998 Z15.754 F2500.000
G1 X9.874 Y14.998 Z15.525 F2500.000
G1 X10.861 Y14.998 Z15.268 F2500.000
G1 X11.847 Y14.998 Z14.981 F2500.000
G1 X12.834 Y14.998 Z14.663 F2500.000
G1 X13.821 Y14.998 Z14.313 F2500.000
G1 X14.807 Y14.998 Z13.929 F2500.000
G1 X14.969 Y15.035 Z13.862 F2500.000
G1 X14.105 Y71.228 Z13.550 F2500.000
G1 X13.188 Y130.821 Z13.227 F2500.000
G1 X12.290 Y189.214 Z12.921 F2500.000
G1 X11.731 Y225.532 Z12.738 F2500.000
(Break)
G1 X12.027 Y225.833 Z12.622 F2500.000
(part 101.)
G1 X11.067 Y225.833 Z12.974 F2500.000
G1 X10.107 Y225.833 Z13.295 F2500.000
G1 X9.147 Y225.833 Z13.587 F2500.000
G1 X8.187 Y225.833 Z13.850 F2500.000
G1 X7.227 Y225.833 Z14.083 F2500.000
G1 X6.267 Y225.833 Z14.290 F2500.000
G1 X5.307 Y225.833 Z14.467 F2500.000
G1 X4.347 Y225.833 Z14.615 F2500.000
G1 X3.387 Y225.833 Z14.735 F2500.000
G1 X2.427 Y225.833 Z14.826 F2500.000
G1 X1.467 Y225.833 Z14.886 F2500.000
G1 X0.507 Y225.833 Z14.917 F2500.000
G1 X-0.453 Y225.833 Z14.919 F2500.000
G1 X-1.413 Y225.833 Z14.889 F2500.000
G1 X-2.373 Y225.833 Z14.830 F2500.000
G1 X-3.333 Y225.833 Z14.741 F2500.000
G1 X-4.293 Y225.833 Z14.622 F2500.000
G1 X-5.253 Y225.833 Z14.476 F2500.000
G1 X-6.213 Y225.833 Z14.300 F2500.000
G1 X-7.173 Y225.833 Z14.095 F2500.000
G1 X-8.133 Y225.833 Z13.864 F2500.000
G1 X-9.093 Y225.833 Z13.602 F2500.000
G1 X-10.053 Y225.833 Z13.312 F2500.000
G1 X-11.013 Y225.833 Z12.993 F2500.000
G1 X-11.973 Y225.833 Z12.643 F2500.000
G1 X-12.029 Y225.686 Z12.623 F2500.000
G1 X-12.787 Y176.392 Z12.873 F2500.000
G1 X-13.573 Y125.298 Z13.139 F2500.000
G1 X-14.392 Y72.104 Z13.424 F2500.000
G1 X-15.274 Y14.711 Z13.740 F2500.000
G1 X-15.088 Y14.698 Z13.818 F2500.000
G1 X-14.114 Y14.698 Z14.207 F2500.000
G1 X-13.140 Y14.698 Z14.562 F2500.000
G1 X-12.166 Y14.698 Z14.884 F2500.000
G1 X-11.192 Y14.698 Z15.179 F2500.000
G1 X-10.217 Y14.698 Z15.442 F2500.000
G1 X-9.243 Y14.698 Z15.678 F2500.000
G1 X-8.269 Y14.698 Z15.886 F2500.000
G1 X-7.295 Y14.698 Z16.067 F2500.000
G1 X-6.321 Y14.698 Z16.224 F2500.000
G1 X-5.346 Y14.698 Z16.356 F2500.000
G1 X-4.372 Y14.698 Z16.465 F2500.000
G1 X-3.398 Y14.698 Z16.551 F2500.000
G1 X-2.424 Y14.698 Z16.614 F2500.000
G1 X-1.450 Y14.698 Z16.655 F2500.000
G1 X-0.475 Y14.698 Z16.675 F2500.000
G1 X0.499 Y14.698 Z16.674 F2500.000
G1 X1.473 Y14.698 Z16.654 F2500.000
G1 X2.447 Y14.698 Z16.613 F2500.000
G1 X3.421 Y14.698 Z16.549 F2500.000
G1 X4.396 Y14.698 Z16.462 F2500.000
G1 X5.370 Y14.698 Z16.353 F2500.000
G1 X6.344 Y14.698 Z16.221 F2500.000
G1 X7.318 Y14.698 Z16.063 F2500.000
G1 X8.292 Y14.698 Z15.881 F2500.000
G1 X9.266 Y14.698 Z15.672 F2500.000
G1 X10.241 Y14.698 Z15.436 F2500.000
G1 X11.215 Y14.698 Z15.171 F2500.000
G1 X12.189 Y14.698 Z14.877 F2500.000
G1 X13.163 Y14.698 Z14.554 F2500.000
G1 X14.137 Y14.698 Z14.197 F2500.000
G1 X15.112 Y14.698 Z13.809 F2500.000
G1 X15.274 Y14.734 Z13.740 F2500.000
G1 X14.410 Y70.928 Z13.430 F2500.000
G1 X13.545 Y127.121 Z13.129 F2500.000
G1 X12.758 Y178.315 Z12.863 F2500.000
G1 X12.027 Y225.833 Z12.622 F2500.000
(Break)
G1 X12.322 Y226.132 Z12.506 F2500.000
(part 103.)
G1 X11.338 Y226.132 Z12.874 F2500.000
G1 X10.354 Y226.132 Z13.212 F2500.000
G1 X9.370 Y226.132 Z13.518 F2500.000
G1 X8.386 Y226.132 Z13.794 F2500.000
G1 X7.402 Y226.132 Z14.040 F2500.000
G1 X6.418 Y226.132 Z14.256 F2500.000
G1 X5.434 Y226.132 Z14.442 F2500.000
G1 X4.450 Y226.132 Z14.598 F2500.000
G1 X3.466 Y226.132 Z14.724 F2500.000
G1 X2.482 Y226.132 Z14.819 F2500.000
G1 X1.498 Y226.132 Z14.881 F2500.000
G1 X0.514 Y226.132 Z14.914 F2500.000
G1 X-0.470 Y226.132 Z14.915 F2500.000
G1 X-1.454 Y226.132 Z14.885 F2500.000
G1 X-2.438 Y226.132 Z14.822 F2500.000
G1 X-3.422 Y226.132 Z14.729 F2500.000
G1 X-4.406 Y226.132 Z14.605 F2500.000
G1 X-5.390 Y226.132 Z14.450 F2500.000
G1 X-6.374 Y226.132 Z14.265 F2500.000
G1 X-7.358 Y226.132 Z14.050 F2500.000
G1 X-8.342 Y226.132 Z13.806 F2500.000
G1 X-9.326 Y226.132 Z13.532 F2500.000
G1 X-10.310 Y226.132 Z13.227 F2500.000
G1 X-11.294 Y226.132 Z12.890 F2500.000
G1 X-12.278 Y226.132 Z12.524 F2500.000
G1 X-12.325 Y225.977 Z12.507 F2500.000
G1 X-12.826 Y193.381 Z12.667 F2500.000
G1 X-13.924 Y121.989 Z13.035 F2500.000
G1 X-14.493 Y84.994 Z13.231 F2500.000
G1 X-15.579 Y14.402 Z13.613 F2500.000
G1 X-15.384 Y14.398 Z13.697 F2500.000
G1 X-14.390 Y14.398 Z14.102 F2500.000
G1 X-13.397 Y14.398 Z14.475 F2500.000
G1 X-12.403 Y14.398 Z14.812 F2500.000
G1 X-11.410 Y14.398 Z15.118 F2500.000
G1 X-10.416 Y14.398 Z15.393 F2500.000
G1 X-9.423 Y14.398 Z15.639 F2500.000
G1 X-8.429 Y14.398 Z15.856 F2500.000
G1 X-7.436 Y14.398 Z16.046 F2500.000
G1 X-6.442 Y14.398 Z16.209 F2500.000
G1 X-5.448 Y14.398 Z16.347 F2500.000
G1 X-4.455 Y14.398 Z16.460 F2500.000
G1 X-3.461 Y14.398 Z16.548 F2500.000
G1 X-2.468 Y14.398 Z16.614 F2500.000
G1 X-1.474 Y14.398 Z16.656 F2500.000
G1 X-0.481 Y14.398 Z16.677 F2500.000
G1 X0.513 Y14.398 Z16.676 F2500.000
G1 X1.506 Y14.398 Z16.656 F2500.000
G1 X2.500 Y14.398 Z16.612 F2500.000
G1 X3.494 Y14.398 Z16.546 F2500.000
G1 X4.487 Y14.398 Z16.456 F2500.000
G1 X5.481 Y14.398 Z16.343 F2500.000
G1 X6.474 Y14.398 Z16.204 F2500.000
G1 X7.468 Y14.398 Z16.040 F2500.000
G1 X8.461 Y14.398 Z15.850 F2500.000
G1 X9.455 Y14.398 Z15.632 F2500.000
G1 X10.448 Y14.398 Z15.385 F2500.000
G1 X11.442 Y14.398 Z15.108 F2500.000
G1 X12.435 Y14.398 Z14.802 F2500.000
G1 X13.429 Y14.398 Z14.463 F2500.000
G1 X14.423 Y14.398 Z14.090 F2500.000
G1 X15.416 Y14.398 Z13.683 F2500.000
G1 X15.579 Y14.434 Z13.612 F2500.000
G1 X15.130 Y43.631 Z13.452 F2500.000
G1 X13.905 Y123.221 Z13.029 F2500.000
G1 X12.699 Y201.612 Z12.626 F2500.000
G1 X12.322 Y226.132 Z12.506 F2500.000
(Break)
G1 X12.618 Y226.433 Z12.386 F2500.000
(part 105.)
G1 X11.648 Y226.433 Z12.759 F2500.000
G1 X10.679 Y226.433 Z13.101 F2500.000
G1 X9.710 Y226.433 Z13.413 F2500.000
G1 X8.741 Y226.433 Z13.696 F2500.000
G1 X7.772 Y226.433 Z13.949 F2500.000
G1 X6.802 Y226.433 Z14.173 F2500.000
G1 X5.833 Y226.433 Z14.368 F2500.000
G1 X4.864 Y226.433 Z14.533 F2500.000
G1 X3.895 Y226.433 Z14.669 F2500.000
G1 X2.925 Y226.433 Z14.777 F2500.000
G1 X1.956 Y226.433 Z14.854 F2500.000
G1 X0.987 Y226.433 Z14.900 F2500.000
G1 X0.018 Y226.433 Z14.917 F2500.000
G1 X-0.952 Y226.433 Z14.901 F2500.000
G1 X-1.921 Y226.433 Z14.856 F2500.000
G1 X-2.890 Y226.433 Z14.781 F2500.000
G1 X-3.859 Y226.433 Z14.674 F2500.000
G1 X-4.828 Y226.433 Z14.539 F2500.000
G1 X-5.798 Y226.433 Z14.375 F2500.000
G1 X-6.767 Y226.433 Z14.181 F2500.000
G1 X-7.736 Y226.433 Z13.958 F2500.000
G1 X-8.705 Y226.433 Z13.706 F2500.000
G1 X-9.675 Y226.433 Z13.424 F2500.000
G1 X-10.644 Y226.433 Z13.113 F2500.000
G1 X-11.613 Y226.433 Z12.772 F2500.000
G1 X-12.582 Y226.433 Z12.400 F2500.000
G1 X-12.620 Y226.268 Z12.387 F2500.000
G1 X-13.189 Y189.272 Z12.568 F2500.000
G1 X-13.857 Y145.877 Z12.787 F2500.000
G1 X-15.115 Y64.087 Z13.214 F2500.000
G1 X-15.773 Y21.292 Z13.442 F2500.000
G1 X-15.881 Y14.293 Z13.482 F2500.000
G1 X-15.879 Y14.098 Z13.485 F2500.000
G1 X-14.892 Y14.098 Z13.906 F2500.000
G1 X-13.904 Y14.098 Z14.293 F2500.000
G1 X-12.917 Y14.098 Z14.646 F2500.000
G1 X-11.929 Y14.098 Z14.966 F2500.000
G1 X-10.942 Y14.098 Z15.255 F2500.000
G1 X-9.954 Y14.098 Z15.515 F2500.000
G1 X-8.967 Y14.098 Z15.745 F2500.000
G1 X-7.979 Y14.098 Z15.948 F2500.000
G1 X-6.992 Y14.098 Z16.125 F2500.000
G1 X-6.004 Y14.098 Z16.276 F2500.000
G1 X-5.017 Y14.098 Z16.402 F2500.000
G1 X-4.029 Y14.098 Z16.503 F2500.000
G1 X-3.042 Y14.098 Z16.582 F2500.000
G1 X-2.054 Y14.098 Z16.637 F2500.000
G1 X-1.067 Y14.098 Z16.670 F2500.000
G1 X-0.079 Y14.098 Z16.682 F2500.000
G1 X0.908 Y14.098 Z16.674 F2500.000
G1 X1.896 Y14.098 Z16.644 F2500.000
G1 X2.883 Y14.098 Z16.592 F2500.000
G1 X3.871 Y14.098 Z16.516 F2500.000
G1 X4.858 Y14.098 Z16.420 F2500.000
G1 X5.846 Y14.098 Z16.297 F2500.000
G1 X6.833 Y14.098 Z16.151 F2500.000
G1 X7.821 Y14.098 Z15.978 F2500.000
G1 X8.808 Y14.098 Z15.780 F2500.000
G1 X9.796 Y14.098 Z15.553 F2500.000
G1 X10.783 Y14.098 Z15.299 F2500.000
G1 X11.771 Y14.098 Z15.015 F2500.000
G1 X12.758 Y14.098 Z14.699 F2500.000
G1 X13.746 Y14.098 Z14.351 F2500.000
G1 X14.733 Y14.098 Z13.970 F2500.000
G1 X15.721 Y14.098 Z13.555 F2500.000
G1 X15.883 Y14.134 Z13.483 F2500.000
G1 X15.164 Y60.929 Z13.231 F2500.000
G1 X13.976 Y138.119 Z12.827 F2500.000
G1 X13.189 Y189.313 Z12.567 F2500.000
G1 X12.618 Y226.433 Z12.386 F2500.000
(Break)
G1 X12.913 Y226.732 Z12.263 F2500.000
(part 107.)
G1 X11.921 Y226.732 Z12.654 F2500.000
G1 X10.928 Y226.732 Z13.012 F2500.000
G1 X9.936 Y226.732 Z13.340 F2500.000
G1 X8.944 Y226.732 Z13.636 F2500.000
G1 X7.952 Y226.732 Z13.901 F2500.000
G1 X6.959 Y226.732 Z14.136 F2500.000
G1 X5.967 Y226.732 Z14.340 F2500.000
G1 X4.975 Y226.732 Z14.514 F2500.000
G1 X3.982 Y226.732 Z14.656 F2500.000
G1 X2.990 Y226.732 Z14.769 F2500.000
G1 X1.998 Y226.732 Z14.848 F2500.000
G1 X1.005 Y226.732 Z14.897 F2500.000
G1 X0.013 Y226.732 Z14.915 F2500.000
G1 X-0.979 Y226.732 Z14.897 F2500.000
G1 X-1.972 Y226.732 Z14.850 F2500.000
G1 X-2.964 Y226.732 Z14.771 F2500.000
G1 X-3.956 Y226.732 Z14.659 F2500.000
G1 X-4.948 Y226.732 Z14.518 F2500.000
G1 X-5.941 Y226.732 Z14.345 F2500.000
G1 X-6.933 Y226.732 Z14.142 F2500.000
G1 X-7.925 Y226.732 Z13.907 F2500.000
G1 X-8.918 Y226.732 Z13.644 F2500.000
G1 X-9.910 Y226.732 Z13.349 F2500.000
G1 X-10.902 Y226.732 Z13.021 F2500.000
G1 X-11.895 Y226.732 Z12.664 F2500.000
G1 X-12.887 Y226.732 Z12.273 F2500.000
G1 X-12.916 Y226.559 Z12.263 F2500.000
G1 X-13.888 Y163.366 Z12.573 F2500.000
G1 X-14.791 Y104.640 Z12.872 F2500.000
G1 X-16.143 Y16.784 Z13.332 F2500.000
G1 X-16.186 Y13.984 Z13.348 F2500.000
G1 X-16.175 Y13.798 Z13.355 F2500.000
G1 X-15.199 Y13.798 Z13.782 F2500.000
G1 X-14.224 Y13.798 Z14.175 F2500.000
G1 X-13.248 Y13.798 Z14.534 F2500.000
G1 X-12.272 Y13.798 Z14.861 F2500.000
G1 X-11.296 Y13.798 Z15.158 F2500.000
G1 X-10.320 Y13.798 Z15.424 F2500.000
G1 X-9.345 Y13.798 Z15.664 F2500.000
G1 X-8.369 Y13.798 Z15.874 F2500.000
G1 X-7.393 Y13.798 Z16.060 F2500.000
G1 X-6.417 Y13.798 Z16.218 F2500.000
G1 X-5.442 Y13.798 Z16.353 F2500.000
G1 X-4.466 Y13.798 Z16.464 F2500.000
G1 X-3.490 Y13.798 Z16.551 F2500.000
G1 X-2.514 Y13.798 Z16.616 F2500.000
G1 X-1.539 Y13.798 Z16.659 F2500.000
G1 X-0.563 Y13.798 Z16.681 F2500.000
G1 X0.413 Y13.798 Z16.682 F2500.000
G1 X1.389 Y13.798 Z16.663 F2500.000
G1 X2.364 Y13.798 Z16.624 F2500.000
G1 X3.340 Y13.798 Z16.563 F2500.000
G1 X4.316 Y13.798 Z16.479 F2500.000
G1 X5.292 Y13.798 Z16.372 F2500.000
G1 X6.267 Y13.798 Z16.240 F2500.000
G1 X7.243 Y13.798 Z16.086 F2500.000
G1 X8.219 Y13.798 Z15.905 F2500.000
G1 X9.195 Y13.798 Z15.697 F2500.000
G1 X10.170 Y13.798 Z15.463 F2500.000
G1 X11.146 Y13.798 Z15.201 F2500.000
G1 X12.122 Y13.798 Z14.909 F2500.000
G1 X13.098 Y13.798 Z14.586 F2500.000
G1 X14.073 Y13.798 Z14.233 F2500.000
G1 X15.049 Y13.798 Z13.845 F2500.000
G1 X16.025 Y13.798 Z13.423 F2500.000
G1 X16.188 Y13.834 Z13.349 F2500.000
G1 X15.271 Y73.427 Z13.034 F2500.000
G1 X14.315 Y135.619 Z12.714 F2500.000
G1 X13.456 Y191.413 Z12.433 F2500.000
G1 X12.913 Y226.732 Z12.263 F2500.000
(Break)
G1 X13.209 Y227.032 Z12.136 F2500.000
(part 109.)
G1 X12.231 Y227.032 Z12.531 F2500.000
G1 X11.253 Y227.032 Z12.896 F2500.000
G1 X10.275 Y227.032 Z13.228 F2500.000
G1 X9.297 Y227.032 Z13.531 F2500.000
G1 X8.320 Y227.032 Z13.804 F2500.000
G1 X7.342 Y227.032 Z14.047 F2500.000
G1 X6.364 Y227.032 Z14.259 F2500.000
G1 X5.386 Y227.032 Z14.442 F2500.000
G1 X4.409 Y227.032 Z14.597 F2500.000
G1 X3.431 Y227.032 Z14.720 F2500.000
G1 X2.453 Y227.032 Z14.814 F2500.000
G1 X1.475 Y227.032 Z14.876 F2500.000
G1 X0.497 Y227.032 Z14.907 F2500.000
G1 X-0.480 Y227.032 Z14.908 F2500.000
G1 X-1.458 Y227.032 Z14.877 F2500.000
G1 X-2.436 Y227.032 Z14.815 F2500.000
G1 X-3.414 Y227.032 Z14.722 F2500.000
G1 X-4.391 Y227.032 Z14.599 F2500.000
G1 X-5.369 Y227.032 Z14.445 F2500.000
G1 X-6.347 Y227.032 Z14.263 F2500.000
G1 X-7.325 Y227.032 Z14.051 F2500.000
G1 X-8.303 Y227.032 Z13.808 F2500.000
G1 X-9.280 Y227.032 Z13.536 F2500.000
G1 X-10.258 Y227.032 Z13.234 F2500.000
G1 X-11.236 Y227.032 Z12.902 F2500.000
G1 X-12.214 Y227.032 Z12.538 F2500.000
G1 X-13.191 Y227.032 Z12.144 F2500.000
G1 X-13.211 Y226.850 Z12.137 F2500.000
G1 X-13.239 Y225.050 Z12.144 F2500.000
G1 X-13.940 Y179.455 Z12.365 F2500.000
G1 X-15.023 Y109.064 Z12.718 F2500.000
G1 X-15.897 Y52.270 Z13.009 F2500.000
G1 X-16.491 Y13.675 Z13.211 F2500.000
G1 X-16.471 Y13.498 Z13.222 F2500.000
G1 X-15.477 Y13.498 Z13.668 F2500.000
G1 X-14.483 Y13.498 Z14.078 F2500.000
G1 X-13.489 Y13.498 Z14.452 F2500.000
G1 X-12.495 Y13.498 Z14.793 F2500.000
G1 X-11.501 Y13.498 Z15.102 F2500.000
G1 X-10.507 Y13.498 Z15.379 F2500.000
G1 X-9.513 Y13.498 Z15.627 F2500.000
G1 X-8.519 Y13.498 Z15.847 F2500.000
G1 X-7.525 Y13.498 Z16.039 F2500.000
G1 X-6.531 Y13.498 Z16.204 F2500.000
G1 X-5.537 Y13.498 Z16.344 F2500.000
G1 X-4.543 Y13.498 Z16.459 F2500.000
G1 X-3.549 Y13.498 Z16.549 F2500.000
G1 X-2.555 Y13.498 Z16.616 F2500.000
G1 X-1.562 Y13.498 Z16.661 F2500.000
G1 X-0.568 Y13.498 Z16.683 F2500.000
G1 X0.426 Y13.498 Z16.685 F2500.000
G1 X1.420 Y13.498 Z16.666 F2500.000
G1 X2.414 Y13.498 Z16.624 F2500.000
G1 X3.408 Y13.498 Z16.560 F2500.000
G1 X4.402 Y13.498 Z16.473 F2500.000
G1 X5.396 Y13.498 Z16.362 F2500.000
G1 X6.390 Y13.498 Z16.225 F2500.000
G1 X7.384 Y13.498 Z16.064 F2500.000
G1 X8.378 Y13.498 Z15.876 F2500.000
G1 X9.372 Y13.498 Z15.661 F2500.000
G1 X10.366 Y13.498 Z15.416 F2500.000
G1 X11.360 Y13.498 Z15.143 F2500.000
G1 X12.354 Y13.498 Z14.839 F2500.000
G1 X13.348 Y13.498 Z14.503 F2500.000
G1 X14.342 Y13.498 Z14.133 F2500.000
G1 X15.335 Y13.498 Z13.729 F2500.000
G1 X16.329 Y13.498 Z13.288 F2500.000
G1 X16.493 Y13.534 Z13.211 F2500.000
G1 X15.567 Y73.726 Z12.898 F2500.000
G1 X14.607 Y136.119 Z12.581 F2500.000
G1 X13.564 Y203.911 Z12.245 F2500.000
G1 X13.209 Y227.032 Z12.136 F2500.000
(Break)
G1 X13.504 Y227.333 Z12.007 F2500.000
(part 111.)
G1 X12.540 Y227.333 Z12.407 F2500.000
G1 X11.575 Y227.333 Z12.776 F2500.000
G1 X10.611 Y227.333 Z13.115 F2500.000
G1 X9.647 Y227.333 Z13.424 F2500.000
G1 X8.683 Y227.333 Z13.703 F2500.000
G1 X7.718 Y227.333 Z13.954 F2500.000
G1 X6.754 Y227.333 Z14.175 F2500.000
G1 X5.790 Y227.333 Z14.368 F2500.000
G1 X4.825 Y227.333 Z14.532 F2500.000
G1 X3.861 Y227.333 Z14.667 F2500.000
G1 X2.897 Y227.333 Z14.772 F2500.000
G1 X1.933 Y227.333 Z14.847 F2500.000
G1 X0.968 Y227.333 Z14.894 F2500.000
G1 X0.004 Y227.333 Z14.910 F2500.000
G1 X-0.960 Y227.333 Z14.894 F2500.000
G1 X-1.925 Y227.333 Z14.848 F2500.000
G1 X-2.889 Y227.333 Z14.773 F2500.000
G1 X-3.853 Y227.333 Z14.668 F2500.000
G1 X-4.817 Y227.333 Z14.533 F2500.000
G1 X-5.782 Y227.333 Z14.370 F2500.000
G1 X-6.746 Y227.333 Z14.177 F2500.000
G1 X-7.710 Y227.333 Z13.956 F2500.000
G1 X-8.675 Y227.333 Z13.706 F2500.000
G1 X-9.639 Y227.333 Z13.426 F2500.000
G1 X-10.603 Y227.333 Z13.117 F2500.000
G1 X-11.567 Y227.333 Z12.779 F2500.000
G1 X-12.532 Y227.333 Z12.411 F2500.000
G1 X-13.496 Y227.333 Z12.010 F2500.000
G1 X-13.507 Y227.140 Z12.008 F2500.000
G1 X-13.519 Y226.341 Z12.011 F2500.000
G1 X-14.599 Y156.149 Z12.349 F2500.000
G1 X-15.642 Y88.357 Z12.687 F2500.000
G1 X-16.657 Y22.365 Z13.022 F2500.000
G1 X-16.795 Y13.366 Z13.070 F2500.000
G1 X-16.766 Y13.198 Z13.086 F2500.000
G1 X-15.784 Y13.198 Z13.538 F2500.000
G1 X-14.801 Y13.198 Z13.954 F2500.000
G1 X-13.819 Y13.198 Z14.335 F2500.000
G1 X-12.837 Y13.198 Z14.683 F2500.000
G1 X-11.854 Y13.198 Z14.998 F2500.000
G1 X-10.872 Y13.198 Z15.284 F2500.000
G1 X-9.890 Y13.198 Z15.540 F2500.000
G1 X-8.907 Y13.198 Z15.768 F2500.000
G1 X-7.925 Y13.198 Z15.968 F2500.000
G1 X-6.943 Y13.198 Z16.142 F2500.000
G1 X-5.960 Y13.198 Z16.290 F2500.000
G1 X-4.978 Y13.198 Z16.414 F2500.000
G1 X-3.996 Y13.198 Z16.514 F2500.000
G1 X-3.013 Y13.198 Z16.591 F2500.000
G1 X-2.031 Y13.198 Z16.645 F2500.000
G1 X-1.049 Y13.198 Z16.677 F2500.000
G1 X-0.066 Y13.198 Z16.690 F2500.000
G1 X0.916 Y13.198 Z16.680 F2500.000
G1 X1.899 Y13.198 Z16.651 F2500.000
G1 X2.881 Y13.198 Z16.600 F2500.000
G1 X3.863 Y13.198 Z16.525 F2500.000
G1 X4.846 Y13.198 Z16.429 F2500.000
G1 X5.828 Y13.198 Z16.309 F2500.000
G1 X6.810 Y13.198 Z16.163 F2500.000
G1 X7.793 Y13.198 Z15.993 F2500.000
G1 X8.775 Y13.198 Z15.796 F2500.000
G1 X9.757 Y13.198 Z15.572 F2500.000
G1 X10.740 Y13.198 Z15.320 F2500.000
G1 X11.722 Y13.198 Z15.039 F2500.000
G1 X12.704 Y13.198 Z14.727 F2500.000
G1 X13.687 Y13.198 Z14.384 F2500.000
G1 X14.669 Y13.198 Z14.007 F2500.000
G1 X15.651 Y13.198 Z13.596 F2500.000
G1 X16.634 Y13.198 Z13.149 F2500.000
G1 X16.797 Y13.233 Z13.070 F2500.000
G1 X15.118 Y122.420 Z12.516 F2500.000
G1 X14.152 Y185.213 Z12.207 F2500.000
G1 X13.504 Y227.333 Z12.007 F2500.000
(Break)
G1 X13.799 Y227.632 Z11.874 F2500.000
(part 113.)
G1 X12.821 Y227.632 Z12.291 F2500.000
G1 X11.842 Y227.632 Z12.674 F2500.000
G1 X10.864 Y227.632 Z13.026 F2500.000
G1 X9.885 Y227.632 Z13.346 F2500.000
G1 X8.907 Y227.632 Z13.638 F2500.000
G1 X7.928 Y227.632 Z13.899 F2500.000
G1 X6.949 Y227.632 Z14.130 F2500.000
G1 X5.971 Y227.632 Z14.331 F2500.000
G1 X4.992 Y227.632 Z14.503 F2500.000
G1 X4.014 Y227.632 Z14.645 F2500.000
G1 X3.035 Y227.632 Z14.755 F2500.000
G1 X2.057 Y227.632 Z14.836 F2500.000
G1 X1.078 Y227.632 Z14.888 F2500.000
G1 X0.099 Y227.632 Z14.907 F2500.000
G1 X-0.879 Y227.632 Z14.894 F2500.000
G1 X-1.858 Y227.632 Z14.849 F2500.000
G1 X-2.836 Y227.632 Z14.773 F2500.000
G1 X-3.815 Y227.632 Z14.670 F2500.000
G1 X-4.793 Y227.632 Z14.534 F2500.000
G1 X-5.772 Y227.632 Z14.368 F2500.000
G1 X-6.751 Y227.632 Z14.172 F2500.000
G1 X-7.729 Y227.632 Z13.948 F2500.000
G1 X-8.708 Y227.632 Z13.694 F2500.000
G1 X-9.686 Y227.632 Z13.408 F2500.000
G1 X-10.665 Y227.632 Z13.093 F2500.000
G1 X-11.643 Y227.632 Z12.748 F2500.000
G1 X-12.622 Y227.632 Z12.371 F2500.000
G1 X-13.601 Y227.632 Z11.961 F2500.000
G1 X-13.799 Y227.631 Z11.874 F2500.000
G1 X-14.295 Y195.435 Z12.024 F2500.000
G1 X-15.304 Y129.843 Z12.342 F2500.000
G1 X-17.076 Y14.656 Z12.916 F2500.000
G1 X-17.100 Y13.057 Z12.925 F2500.000
G1 X-17.062 Y12.898 Z12.946 F2500.000
G1 X-16.062 Y12.898 Z13.418 F2500.000
G1 X-15.062 Y12.898 Z13.851 F2500.000
G1 X-14.062 Y12.898 Z14.247 F2500.000
G1 X-13.062 Y12.898 Z14.610 F2500.000
G1 X-12.062 Y12.898 Z14.938 F2500.000
G1 X-11.062 Y12.898 Z15.235 F2500.000
G1 X-10.062 Y12.898 Z15.501 F2500.000
G1 X-9.062 Y12.898 Z15.737 F2500.000
G1 X-8.062 Y12.898 Z15.945 F2500.000
G1 X-7.062 Y12.898 Z16.124 F2500.000
G1 X-6.062 Y12.898 Z16.279 F2500.000
G1 X-5.062 Y12.898 Z16.407 F2500.000
G1 X-4.062 Y12.898 Z16.510 F2500.000
G1 X-3.062 Y12.898 Z16.590 F2500.000
G1 X-2.062 Y12.898 Z16.647 F2500.000
G1 X-1.062 Y12.898 Z16.680 F2500.000
G1 X-0.062 Y12.898 Z16.693 F2500.000
G1 X0.938 Y12.898 Z16.682 F2500.000
G1 X1.938 Y12.898 Z16.652 F2500.000
G1 X2.938 Y12.898 Z16.598 F2500.000
G1 X3.938 Y12.898 Z16.521 F2500.000
G1 X4.938 Y12.898 Z16.421 F2500.000
G1 X5.938 Y12.898 Z16.296 F2500.000
G1 X6.938 Y12.898 Z16.145 F2500.000
G1 X7.938 Y12.898 Z15.968 F2500.000
G1 X8.938 Y12.898 Z15.764 F2500.000
G1 X9.938 Y12.898 Z15.531 F2500.000
G1 X10.938 Y12.898 Z15.269 F2500.000
G1 X11.938 Y12.898 Z14.976 F2500.000
G1 X12.938 Y12.898 Z14.652 F2500.000
G1 X13.938 Y12.898 Z14.293 F2500.000
G1 X14.938 Y12.898 Z13.902 F2500.000
G1 X15.938 Y12.898 Z13.473 F2500.000
G1 X16.938 Y12.898 Z13.006 F2500.000
G1 X17.102 Y12.933 Z12.926 F2500.000
G1 X15.302 Y129.919 Z12.341 F2500.000
G1 X14.217 Y200.511 Z12.001 F2500.000
G1 X13.799 Y227.632 Z11.874 F2500.000
(Break)
G1 X14.095 Y227.933 Z11.739 F2500.000
(part 115.)
G1 X13.095 Y227.933 Z12.174 F2500.000
G1 X12.095 Y227.933 Z12.573 F2500.000
G1 X11.095 Y227.933 Z12.943 F2500.000
G1 X10.095 Y227.933 Z13.277 F2500.000
G1 X9.095 Y227.933 Z13.582 F2500.000
G1 X8.095 Y227.933 Z13.854 F2500.000
G1 X7.095 Y227.933 Z14.095 F2500.000
G1 X6.095 Y227.933 Z14.304 F2500.000
G1 X5.095 Y227.933 Z14.484 F2500.000
G1 X4.095 Y227.933 Z14.631 F2500.000
G1 X3.095 Y227.933 Z14.748 F2500.000
G1 X2.095 Y227.933 Z14.831 F2500.000
G1 X1.095 Y227.933 Z14.885 F2500.000
G1 X0.095 Y227.933 Z14.904 F2500.000
G1 X-0.905 Y227.933 Z14.890 F2500.000
G1 X-1.905 Y227.933 Z14.843 F2500.000
G1 X-2.905 Y227.933 Z14.765 F2500.000
G1 X-3.905 Y227.933 Z14.656 F2500.000
G1 X-4.905 Y227.933 Z14.513 F2500.000
G1 X-5.905 Y227.933 Z14.340 F2500.000
G1 X-6.905 Y227.933 Z14.136 F2500.000
G1 X-7.905 Y227.933 Z13.902 F2500.000
G1 X-8.905 Y227.933 Z13.636 F2500.000
G1 X-9.905 Y227.933 Z13.337 F2500.000
G1 X-10.905 Y227.933 Z13.008 F2500.000
G1 X-11.905 Y227.933 Z12.645 F2500.000
G1 X-12.905 Y227.933 Z12.251 F2500.000
G1 X-13.905 Y227.933 Z11.824 F2500.000
G1 X-14.095 Y227.922 Z11.739 F2500.000
G1 X-14.842 Y179.328 Z11.965 F2500.000
G1 X-15.381 Y144.332 Z12.132 F2500.000
G1 X-16.894 Y45.944 Z12.612 F2500.000
G1 X-17.405 Y12.748 Z12.777 F2500.000
G1 X-17.357 Y12.598 Z12.803 F2500.000
G1 X-16.369 Y12.598 Z13.281 F2500.000
G1 X-15.380 Y12.598 Z13.721 F2500.000
G1 X-14.392 Y12.598 Z14.123 F2500.000
G1 X-13.403 Y12.598 Z14.493 F2500.000
G1 X-12.414 Y12.598 Z14.828 F2500.000
G1 X-11.426 Y12.598 Z15.134 F2500.000
G1 X-10.437 Y12.598 Z15.407 F2500.000
G1 X-9.449 Y12.598 Z15.652 F2500.000
G1 X-8.460 Y12.598 Z15.868 F2500.000
G1 X-7.472 Y12.598 Z16.057 F2500.000
G1 X-6.483 Y12.598 Z16.219 F2500.000
G1 X-5.494 Y12.598 Z16.356 F2500.000
G1 X-4.506 Y12.598 Z16.470 F2500.000
G1 X-3.517 Y12.598 Z16.559 F2500.000
G1 X-2.529 Y12.598 Z16.625 F2500.000
G1 X-1.540 Y12.598 Z16.670 F2500.000
G1 X-0.552 Y12.598 Z16.691 F2500.000
G1 X0.437 Y12.598 Z16.692 F2500.000
G1 X1.426 Y12.598 Z16.673 F2500.000
G1 X2.414 Y12.598 Z16.632 F2500.000
G1 X3.403 Y12.598 Z16.568 F2500.000
G1 X4.391 Y12.598 Z16.481 F2500.000
G1 X5.380 Y12.598 Z16.370 F2500.000
G1 X6.368 Y12.598 Z16.236 F2500.000
G1 X7.357 Y12.598 Z16.077 F2500.000
G1 X8.346 Y12.598 Z15.891 F2500.000
G1 X9.334 Y12.598 Z15.678 F2500.000
G1 X10.323 Y12.598 Z15.437 F2500.000
G1 X11.311 Y12.598 Z15.167 F2500.000
G1 X12.300 Y12.598 Z14.865 F2500.000
G1 X13.288 Y12.598 Z14.534 F2500.000
G1 X14.277 Y12.598 Z14.168 F2500.000
G1 X15.266 Y12.598 Z13.769 F2500.000
G1 X16.254 Y12.598 Z13.334 F2500.000
G1 X17.243 Y12.598 Z12.860 F2500.000
G1 X17.407 Y12.633 Z12.778 F2500.000
G1 X15.592 Y130.619 Z12.198 F2500.000
G1 X14.454 Y204.610 Z11.846 F2500.000
G1 X14.095 Y227.933 Z11.739 F2500.000
(Break)
G1 X14.390 Y228.232 Z11.601 F2500.000
(part 117.)
G1 X13.404 Y228.232 Z12.039 F2500.000
G1 X12.418 Y228.232 Z12.445 F2500.000
G1 X11.432 Y228.232 Z12.818 F2500.000
G1 X10.445 Y228.232 Z13.161 F2500.000
G1 X9.459 Y228.232 Z13.470 F2500.000
G1 X8.473 Y228.232 Z13.752 F2500.000
G1 X7.487 Y228.232 Z14.001 F2500.000
G1 X6.501 Y228.232 Z14.219 F2500.000
G1 X5.514 Y228.232 Z14.409 F2500.000
G1 X4.528 Y228.232 Z14.568 F2500.000
G1 X3.542 Y228.232 Z14.696 F2500.000
G1 X2.556 Y228.232 Z14.794 F2500.000
G1 X1.570 Y228.232 Z14.861 F2500.000
G1 X0.583 Y228.232 Z14.897 F2500.000
G1 X-0.403 Y228.232 Z14.899 F2500.000
G1 X-1.389 Y228.232 Z14.870 F2500.000
G1 X-2.375 Y228.232 Z14.809 F2500.000
G1 X-3.362 Y228.232 Z14.717 F2500.000
G1 X-4.348 Y228.232 Z14.594 F2500.000
G1 X-5.334 Y228.232 Z14.440 F2500.000
G1 X-6.320 Y228.232 Z14.256 F2500.000
G1 X-7.306 Y228.232 Z14.044 F2500.000
G1 X-8.293 Y228.232 Z13.800 F2500.000
G1 X-9.279 Y228.232 Z13.525 F2500.000
G1 X-10.265 Y228.232 Z13.219 F2500.000
G1 X-11.251 Y228.232 Z12.882 F2500.000
G1 X-12.237 Y228.232 Z12.515 F2500.000
G1 X-13.224 Y228.232 Z12.117 F2500.000
G1 X-14.210 Y228.232 Z11.683 F2500.000
G1 X-14.391 Y228.213 Z11.601 F2500.000
G1 X-14.870 Y197.017 Z11.743 F2500.000
G1 X-15.566 Y151.822 Z11.955 F2500.000
G1 X-16.731 Y76.031 Z12.316 F2500.000
G1 X-16.771 Y73.431 Z12.331 F2500.000
G1 X-17.710 Y12.438 Z12.625 F2500.000
G1 X-17.653 Y12.298 Z12.656 F2500.000
G1 X-16.675 Y12.298 Z13.141 F2500.000
G1 X-15.697 Y12.298 Z13.587 F2500.000
G1 X-14.720 Y12.298 Z13.998 F2500.000
G1 X-13.742 Y12.298 Z14.374 F2500.000
G1 X-12.764 Y12.298 Z14.717 F2500.000
G1 X-11.786 Y12.298 Z15.029 F2500.000
G1 X-10.808 Y12.298 Z15.311 F2500.000
G1 X-9.831 Y12.298 Z15.563 F2500.000
G1 X-8.853 Y12.298 Z15.789 F2500.000
G1 X-7.875 Y12.298 Z15.986 F2500.000
G1 X-6.897 Y12.298 Z16.156 F2500.000
G1 X-5.920 Y12.298 Z16.304 F2500.000
G1 X-4.942 Y12.298 Z16.425 F2500.000
G1 X-3.964 Y12.298 Z16.524 F2500.000
G1 X-2.986 Y12.298 Z16.601 F2500.000
G1 X-2.008 Y12.298 Z16.654 F2500.000
G1 X-1.031 Y12.298 Z16.686 F2500.000
G1 X-0.053 Y12.298 Z16.698 F2500.000
G1 X0.925 Y12.298 Z16.688 F2500.000
G1 X1.903 Y12.298 Z16.659 F2500.000
G1 X2.880 Y12.298 Z16.607 F2500.000
G1 X3.858 Y12.298 Z16.533 F2500.000
G1 X4.836 Y12.298 Z16.437 F2500.000
G1 X5.814 Y12.298 Z16.319 F2500.000
G1 X6.792 Y12.298 Z16.173 F2500.000
G1 X7.769 Y12.298 Z16.006 F2500.000
G1 X8.747 Y12.298 Z15.811 F2500.000
G1 X9.725 Y12.298 Z15.589 F2500.000
G1 X10.703 Y12.298 Z15.340 F2500.000
G1 X11.680 Y12.298 Z15.061 F2500.000
G1 X12.658 Y12.298 Z14.752 F2500.000
G1 X13.636 Y12.298 Z14.412 F2500.000
G1 X14.614 Y12.298 Z14.040 F2500.000
G1 X15.592 Y12.298 Z13.633 F2500.000
G1 X16.569 Y12.298 Z13.191 F2500.000
G1 X17.547 Y12.298 Z12.710 F2500.000
G1 X17.711 Y12.333 Z12.624 F2500.000
G1 X15.560 Y152.216 Z11.952 F2500.000
G1 X14.390 Y228.232 Z11.601 F2500.000
(Break)
G1 X14.686 Y228.532 Z11.459 F2500.000
(part 119.)
G1 X13.712 Y228.532 Z11.902 F2500.000
G1 X12.739 Y228.532 Z12.314 F2500.000
G1 X11.766 Y228.532 Z12.693 F2500.000
G1 X10.792 Y228.532 Z13.041 F2500.000
G1 X9.819 Y228.532 Z13.358 F2500.000
G1 X8.846 Y228.532 Z13.646 F2500.000
G1 X7.872 Y228.532 Z13.904 F2500.000
G1 X6.899 Y228.532 Z14.133 F2500.000
G1 X5.926 Y228.532 Z14.331 F2500.000
G1 X4.952 Y228.532 Z14.501 F2500.000
G1 X3.979 Y228.532 Z14.641 F2500.000
G1 X3.006 Y228.532 Z14.750 F2500.000
G1 X2.032 Y228.532 Z14.831 F2500.000
G1 X1.059 Y228.532 Z14.880 F2500.000
G1 X0.086 Y228.532 Z14.899 F2500.000
G1 X-0.888 Y228.532 Z14.886 F2500.000
G1 X-1.861 Y228.532 Z14.842 F2500.000
G1 X-2.834 Y228.532 Z14.766 F2500.000
G1 X-3.808 Y228.532 Z14.662 F2500.000
G1 X-4.781 Y228.532 Z14.528 F2500.000
G1 X-5.754 Y228.532 Z14.363 F2500.000
G1 X-6.728 Y228.532 Z14.169 F2500.000
G1 X-7.701 Y228.532 Z13.947 F2500.000
G1 X-8.674 Y228.532 Z13.694 F2500.000
G1 X-9.648 Y228.532 Z13.410 F2500.000
G1 X-10.621 Y228.532 Z13.099 F2500.000
G1 X-11.594 Y228.532 Z12.756 F2500.000
G1 X-12.568 Y228.532 Z12.383 F2500.000
G1 X-13.541 Y228.532 Z11.977 F2500.000
G1 X-14.514 Y228.532 Z11.539 F2500.000
G1 X-14.686 Y228.504 Z11.460 F2500.000
G1 X-15.474 Y177.310 Z11.691 F2500.000
G1 X-18.011 Y12.329 Z12.467 F2500.000
G1 X-18.014 Y12.129 Z12.469 F2500.000
G1 X-17.948 Y11.998 Z12.505 F2500.000
G1 X-16.954 Y11.998 Z13.010 F2500.000
G1 X-15.960 Y11.998 Z13.475 F2500.000
G1 X-14.965 Y11.998 Z13.901 F2500.000
G1 X-13.971 Y11.998 Z14.292 F2500.000
G1 X-12.976 Y11.998 Z14.649 F2500.000
G1 X-11.982 Y11.998 Z14.972 F2500.000
G1 X-10.987 Y11.998 Z15.265 F2500.000
G1 X-9.993 Y11.998 Z15.526 F2500.000
G1 X-8.998 Y11.998 Z15.760 F2500.000
G1 X-8.004 Y11.998 Z15.964 F2500.000
G1 X-7.010 Y11.998 Z16.141 F2500.000
G1 X-6.015 Y11.998 Z16.294 F2500.000
G1 X-5.021 Y11.998 Z16.419 F2500.000
G1 X-4.026 Y11.998 Z16.521 F2500.000
G1 X-3.032 Y11.998 Z16.600 F2500.000
G1 X-2.037 Y11.998 Z16.656 F2500.000
G1 X-1.043 Y11.998 Z16.688 F2500.000
G1 X-0.048 Y11.998 Z16.700 F2500.000
G1 X0.946 Y11.998 Z16.690 F2500.000
G1 X1.940 Y11.998 Z16.660 F2500.000
G1 X2.935 Y11.998 Z16.606 F2500.000
G1 X3.929 Y11.998 Z16.530 F2500.000
G1 X4.924 Y11.998 Z16.430 F2500.000
G1 X5.918 Y11.998 Z16.307 F2500.000
G1 X6.913 Y11.998 Z16.157 F2500.000
G1 X7.907 Y11.998 Z15.982 F2500.000
G1 X8.902 Y11.998 Z15.781 F2500.000
G1 X9.896 Y11.998 Z15.550 F2500.000
G1 X10.890 Y11.998 Z15.292 F2500.000
G1 X11.885 Y11.998 Z15.002 F2500.000
G1 X12.879 Y11.998 Z14.682 F2500.000
G1 X13.874 Y11.998 Z14.328 F2500.000
G1 X14.868 Y11.998 Z13.940 F2500.000
G1 X15.863 Y11.998 Z13.518 F2500.000
G1 X16.857 Y11.998 Z13.057 F2500.000
G1 X17.852 Y11.998 Z12.556 F2500.000
G1 X18.016 Y12.033 Z12.470 F2500.000
G1 X15.995 Y143.417 Z11.849 F2500.000
G1 X15.038 Y205.610 Z11.562 F2500.000
G1 X14.686 Y228.532 Z11.459 F2500.000
(Break)
G1 X14.981 Y228.833 Z11.315 F2500.000
(part 121.)
G1 X13.988 Y228.833 Z11.778 F2500.000
G1 X12.994 Y228.833 Z12.206 F2500.000
G1 X12.001 Y228.833 Z12.600 F2500.000
G1 X11.008 Y228.833 Z12.963 F2500.000
G1 X10.014 Y228.833 Z13.294 F2500.000
G1 X9.021 Y228.833 Z13.592 F2500.000
G1 X8.028 Y228.833 Z13.861 F2500.000
G1 X7.034 Y228.833 Z14.100 F2500.000
G1 X6.041 Y228.833 Z14.306 F2500.000
G1 X5.048 Y228.833 Z14.483 F2500.000
G1 X4.054 Y228.833 Z14.629 F2500.000
G1 X3.061 Y228.833 Z14.743 F2500.000
G1 X2.068 Y228.833 Z14.827 F2500.000
G1 X1.074 Y228.833 Z14.877 F2500.000
G1 X0.081 Y228.833 Z14.897 F2500.000
G1 X-0.912 Y228.833 Z14.882 F2500.000
G1 X-1.906 Y228.833 Z14.837 F2500.000
G1 X-2.899 Y228.833 Z14.758 F2500.000
G1 X-3.892 Y228.833 Z14.650 F2500.000
G1 X-4.886 Y228.833 Z14.509 F2500.000
G1 X-5.879 Y228.833 Z14.337 F2500.000
G1 X-6.872 Y228.833 Z14.136 F2500.000
G1 X-7.866 Y228.833 Z13.903 F2500.000
G1 X-8.859 Y228.833 Z13.638 F2500.000
G1 X-9.852 Y228.833 Z13.345 F2500.000
G1 X-10.846 Y228.833 Z13.019 F2500.000
G1 X-11.839 Y228.833 Z12.660 F2500.000
G1 X-12.832 Y228.833 Z12.272 F2500.000
G1 X-13.826 Y228.833 Z11.850 F2500.000
G1 X-14.819 Y228.833 Z11.393 F2500.000
G1 X-14.982 Y228.795 Z11.314 F2500.000
G1 X-16.326 Y141.405 Z11.708 F2500.000
G1 X-18.319 Y11.820 Z12.309 F2500.000
G1 X-18.244 Y11.698 Z12.352 F2500.000
G1 X-17.260 Y11.698 Z12.863 F2500.000
G1 X-16.276 Y11.698 Z13.333 F2500.000
G1 X-15.293 Y11.698 Z13.769 F2500.000
G1 X-14.309 Y11.698 Z14.167 F2500.000
G1 X-13.325 Y11.698 Z14.531 F2500.000
G1 X-12.341 Y11.698 Z14.862 F2500.000
G1 X-11.357 Y11.698 Z15.163 F2500.000
G1 X-10.374 Y11.698 Z15.433 F2500.000
G1 X-9.390 Y11.698 Z15.674 F2500.000
G1 X-8.406 Y11.698 Z15.887 F2500.000
G1 X-7.422 Y11.698 Z16.075 F2500.000
G1 X-6.439 Y11.698 Z16.234 F2500.000
G1 X-5.455 Y11.698 Z16.370 F2500.000
G1 X-4.471 Y11.698 Z16.482 F2500.000
G1 X-3.487 Y11.698 Z16.570 F2500.000
G1 X-2.503 Y11.698 Z16.635 F2500.000
G1 X-1.520 Y11.698 Z16.678 F2500.000
G1 X-0.536 Y11.698 Z16.698 F2500.000
G1 X0.448 Y11.698 Z16.700 F2500.000
G1 X1.432 Y11.698 Z16.681 F2500.000
G1 X2.415 Y11.698 Z16.639 F2500.000
G1 X3.399 Y11.698 Z16.577 F2500.000
G1 X4.383 Y11.698 Z16.490 F2500.000
G1 X5.367 Y11.698 Z16.380 F2500.000
G1 X6.351 Y11.698 Z16.247 F2500.000
G1 X7.334 Y11.698 Z16.090 F2500.000
G1 X8.318 Y11.698 Z15.905 F2500.000
G1 X9.302 Y11.698 Z15.694 F2500.000
G1 X10.286 Y11.698 Z15.456 F2500.000
G1 X11.270 Y11.698 Z15.188 F2500.000
G1 X12.253 Y11.698 Z14.890 F2500.000
G1 X13.237 Y11.698 Z14.562 F2500.000
G1 X14.221 Y11.698 Z14.201 F2500.000
G1 X15.205 Y11.698 Z13.806 F2500.000
G1 X16.188 Y11.698 Z13.373 F2500.000
G1 X17.172 Y11.698 Z12.907 F2500.000
G1 X18.156 Y11.698 Z12.399 F2500.000
G1 X18.321 Y11.732 Z12.309 F2500.000
G1 X16.324 Y141.517 Z11.708 F2500.000
G1 X15.263 Y210.509 Z11.395 F2500.000
G1 X14.981 Y228.833 Z11.315 F2500.000
(Break)
G1 X15.276 Y229.132 Z11.166 F2500.000
(part 123.)
G1 X14.296 Y229.132 Z11.634 F2500.000
G1 X13.315 Y229.132 Z12.067 F2500.000
G1 X12.335 Y229.132 Z12.468 F2500.000
G1 X11.354 Y229.132 Z12.838 F2500.000
G1 X10.373 Y229.132 Z13.175 F2500.000
G1 X9.393 Y229.132 Z13.482 F2500.000
G1 X8.412 Y229.132 Z13.759 F2500.000
G1 X7.431 Y229.132 Z14.005 F2500.000
G1 X6.451 Y229.132 Z14.223 F2500.000
G1 X5.470 Y229.132 Z14.410 F2500.000
G1 X4.489 Y229.132 Z14.566 F2500.000
G1 X3.509 Y229.132 Z14.693 F2500.000
G1 X2.528 Y229.132 Z14.789 F2500.000
G1 X1.547 Y229.132 Z14.855 F2500.000
G1 X0.567 Y229.132 Z14.889 F2500.000
G1 X-0.414 Y229.132 Z14.892 F2500.000
G1 X-1.394 Y229.132 Z14.863 F2500.000
G1 X-2.375 Y229.132 Z14.801 F2500.000
G1 X-3.356 Y229.132 Z14.710 F2500.000
G1 X-4.336 Y229.132 Z14.588 F2500.000
G1 X-5.317 Y229.132 Z14.436 F2500.000
G1 X-6.298 Y229.132 Z14.254 F2500.000
G1 X-7.278 Y229.132 Z14.041 F2500.000
G1 X-8.259 Y229.132 Z13.799 F2500.000
G1 X-9.240 Y229.132 Z13.527 F2500.000
G1 X-10.220 Y229.132 Z13.225 F2500.000
G1 X-11.201 Y229.132 Z12.891 F2500.000
G1 X-12.182 Y229.132 Z12.528 F2500.000
G1 X-13.162 Y229.132 Z12.133 F2500.000
G1 X-14.143 Y229.132 Z11.704 F2500.000
G1 X-15.124 Y229.132 Z11.241 F2500.000
G1 X-15.277 Y229.085 Z11.166 F2500.000
G1 X-16.409 Y155.494 Z11.492 F2500.000
G1 X-18.615 Y12.111 Z12.143 F2500.000
G1 X-18.624 Y11.511 Z12.147 F2500.000
G1 X-18.540 Y11.398 Z12.195 F2500.000
G1 X-17.566 Y11.398 Z12.713 F2500.000
G1 X-16.592 Y11.398 Z13.191 F2500.000
G1 X-15.618 Y11.398 Z13.631 F2500.000
G1 X-14.645 Y11.398 Z14.038 F2500.000
G1 X-13.671 Y11.398 Z14.410 F2500.000
G1 X-12.697 Y11.398 Z14.749 F2500.000
G1 X-11.724 Y11.398 Z15.058 F2500.000
G1 X-10.750 Y11.398 Z15.336 F2500.000
G1 X-9.776 Y11.398 Z15.586 F2500.000
G1 X-8.803 Y11.398 Z15.808 F2500.000
G1 X-7.829 Y11.398 Z16.003 F2500.000
