(Exported by FreeCAD)
(Post Processor: script_module)
(Output Time:2024-08-11 19:39:39.803951)
(Begin preamble)
G17 G90
G21
(Begin operation: TC: 1.5 z2 Q010)
(Path: TC: 1.5 z2 Q010)
(TC: 1.5 z2 Q010)
(Begin toolchange)
( M6 T4 )
M3 S24000
(Finish operation: TC: 1.5 z2 Q010)
(Begin operation: Fixture)
(Path: Fixture)
G54
(Finish operation: Fixture)
(Begin operation: Pocket_Shape001)
(Path: Pocket_Shape001)
(Pocket_Shape001)
G0 Z5.000
G0 X0.000 Y0.000
G0 X-39.891 Y-31.280
G0 X-39.891 Y-31.280 Z3.000
G1 X-39.891 Y-31.280 Z-0.370 F300.000
G1 X-40.378 Y-30.793 Z-0.370 F500.000
G1 X-41.064 Y-31.478 Z-0.370 F500.000
G1 X-41.064 Y-33.394 Z-0.370 F500.000
G2 X-42.583 Y-34.023 Z-0.370 I-0.893 J0.008 K0.000 F500.000
G1 X-43.112 Y-33.495 Z-0.370 F500.000
G2 X-43.837 Y-34.202 Z-0.370 I-3.956 J3.327 K0.000 F500.000
G2 X-44.999 Y-34.123 Z-0.370 I-0.534 J0.717 K0.000 F500.000
G1 X-46.013 Y-33.108 Z-0.370 F500.000
G2 X-46.013 Y-31.850 Z-0.370 I0.642 J0.629 K0.000 F500.000
G1 X-43.993 Y-29.829 Z-0.370 F500.000
G1 X-44.414 Y-29.409 Z-0.370 F500.000
G1 X-48.790 Y-33.785 Z-0.370 F500.000
G2 X-48.013 Y-34.578 Z-0.370 I-3.640 J-4.337 K0.000 F500.000
G2 X-48.093 Y-35.740 Z-0.370 I-0.717 J-0.534 K0.000 F500.000
G1 X-48.738 Y-36.385 Z-0.370 F500.000
G2 X-48.156 Y-36.992 Z-0.370 I-2.272 J-2.761 K0.000 F500.000
G2 X-48.879 Y-38.393 Z-0.370 I-0.728 J-0.512 K0.000 F500.000
G1 X-50.874 Y-38.393 Z-0.370 F500.000
G1 X-51.528 Y-39.046 Z-0.370 F500.000
G1 X-51.001 Y-39.573 Z-0.370 F500.000
G2 X-50.240 Y-38.830 Z-0.370 I4.154 J-3.490 K0.000 F500.000
G2 X-49.078 Y-38.909 Z-0.370 I0.534 J-0.717 K0.000 F500.000
G1 X-48.299 Y-39.688 Z-0.370 F500.000
G1 X-47.497 Y-38.885 Z-0.370 F500.000
G2 X-46.238 Y-38.885 Z-0.370 I0.629 J-0.642 K0.000 F500.000
G1 X-38.885 Y-46.238 Z-0.370 F500.000
G2 X-38.885 Y-47.497 Z-0.370 I-0.642 J-0.629 K0.000 F500.000
G1 X-39.688 Y-48.299 Z-0.370 F500.000
G1 X-38.909 Y-49.078 Z-0.370 F500.000
G2 X-38.909 Y-50.337 Z-0.370 I-0.642 J-0.629 K0.000 F500.000
G1 X-39.573 Y-51.001 Z-0.370 F500.000
G1 X-39.046 Y-51.528 Z-0.370 F500.000
G1 X-38.393 Y-50.874 Z-0.370 F500.000
G1 X-38.393 Y-48.879 Z-0.370 F500.000
G2 X-36.874 Y-48.250 Z-0.370 I0.893 J-0.008 K0.000 F500.000
G1 X-36.385 Y-48.738 Z-0.370 F500.000
G2 X-35.643 Y-48.013 Z-0.370 I4.050 J-3.405 K0.000 F500.000
G2 X-34.481 Y-48.093 Z-0.370 I0.534 J-0.717 K0.000 F500.000
G1 X-33.785 Y-48.790 Z-0.370 F500.000
G1 X-29.409 Y-44.414 Z-0.370 F500.000
G1 X-29.807 Y-44.015 Z-0.370 F500.000
G1 X-31.827 Y-46.035 Z-0.370 F500.000
G2 X-33.086 Y-46.035 Z-0.370 I-0.629 J0.642 K0.000 F500.000
G1 X-34.080 Y-45.040 Z-0.370 F500.000
G2 X-34.080 Y-43.782 Z-0.370 I0.642 J0.629 K0.000 F500.000
G1 X-33.452 Y-43.154 Z-0.370 F500.000
G2 X-34.120 Y-42.461 Z-0.370 I2.602 J3.177 K0.000 F500.000
G2 X-33.404 Y-41.060 Z-0.370 I0.728 J0.512 K0.000 F500.000
G1 X-31.461 Y-41.046 Z-0.370 F500.000
G1 X-30.793 Y-40.378 Z-0.370 F500.000
G1 X-31.118 Y-40.053 Z-0.370 F500.000
G2 X-31.906 Y-40.824 Z-0.370 I-4.310 J3.618 K0.000 F500.000
G2 X-33.068 Y-40.745 Z-0.370 I-0.534 J0.717 K0.000 F500.000
G1 X-33.793 Y-40.019 Z-0.370 F500.000
G1 X-34.561 Y-40.787 Z-0.370 F500.000
G2 X-35.820 Y-40.787 Z-0.370 I-0.629 J0.642 K0.000 F500.000
G1 X-40.787 Y-35.820 Z-0.370 F500.000
G2 X-40.787 Y-34.561 Z-0.370 I0.642 J0.629 K0.000 F500.000
G1 X-40.024 Y-33.798 Z-0.370 F500.000
G2 X-40.667 Y-33.138 Z-0.370 I3.031 J3.594 K0.000 F500.000
G2 X-40.587 Y-31.976 Z-0.370 I0.717 J0.534 K0.000 F500.000
G1 X-39.891 Y-31.280 Z-0.370 F500.000
G1 X-39.891 Y-31.280 Z-0.740 F300.000
G1 X-40.378 Y-30.793 Z-0.740 F500.000
G1 X-41.064 Y-31.478 Z-0.740 F500.000
G1 X-41.064 Y-33.394 Z-0.740 F500.000
G2 X-42.583 Y-34.023 Z-0.740 I-0.893 J0.008 K0.000 F500.000
G1 X-43.112 Y-33.495 Z-0.740 F500.000
G2 X-43.837 Y-34.202 Z-0.740 I-3.956 J3.327 K0.000 F500.000
G2 X-44.999 Y-34.123 Z-0.740 I-0.534 J0.717 K0.000 F500.000
G1 X-46.013 Y-33.108 Z-0.740 F500.000
G2 X-46.013 Y-31.850 Z-0.740 I0.642 J0.629 K0.000 F500.000
G1 X-43.993 Y-29.829 Z-0.740 F500.000
G1 X-44.414 Y-29.409 Z-0.740 F500.000
G1 X-48.790 Y-33.785 Z-0.740 F500.000
G2 X-48.013 Y-34.578 Z-0.740 I-3.640 J-4.337 K0.000 F500.000
G2 X-48.093 Y-35.740 Z-0.740 I-0.717 J-0.534 K0.000 F500.000
G1 X-48.738 Y-36.385 Z-0.740 F500.000
G2 X-48.156 Y-36.992 Z-0.740 I-2.272 J-2.761 K0.000 F500.000
G2 X-48.879 Y-38.393 Z-0.740 I-0.728 J-0.512 K0.000 F500.000
G1 X-50.874 Y-38.393 Z-0.740 F500.000
G1 X-51.528 Y-39.046 Z-0.740 F500.000
G1 X-51.001 Y-39.573 Z-0.740 F500.000
G2 X-50.240 Y-38.830 Z-0.740 I4.154 J-3.490 K0.000 F500.000
G2 X-49.078 Y-38.909 Z-0.740 I0.534 J-0.717 K0.000 F500.000
G1 X-48.299 Y-39.688 Z-0.740 F500.000
G1 X-47.497 Y-38.885 Z-0.740 F500.000
G2 X-46.238 Y-38.885 Z-0.740 I0.629 J-0.642 K0.000 F500.000
G1 X-38.885 Y-46.238 Z-0.740 F500.000
G2 X-38.885 Y-47.497 Z-0.740 I-0.642 J-0.629 K0.000 F500.000
G1 X-39.688 Y-48.299 Z-0.740 F500.000
G1 X-38.909 Y-49.078 Z-0.740 F500.000
G2 X-38.909 Y-50.337 Z-0.740 I-0.642 J-0.629 K0.000 F500.000
G1 X-39.573 Y-51.001 Z-0.740 F500.000
G1 X-39.046 Y-51.528 Z-0.740 F500.000
G1 X-38.393 Y-50.874 Z-0.740 F500.000
G1 X-38.393 Y-48.879 Z-0.740 F500.000
G2 X-36.874 Y-48.250 Z-0.740 I0.893 J-0.008 K0.000 F500.000
G1 X-36.385 Y-48.738 Z-0.740 F500.000
G2 X-35.643 Y-48.013 Z-0.740 I4.050 J-3.405 K0.000 F500.000
G2 X-34.481 Y-48.093 Z-0.740 I0.534 J-0.717 K0.000 F500.000
G1 X-33.785 Y-48.790 Z-0.740 F500.000
G1 X-29.409 Y-44.414 Z-0.740 F500.000
G1 X-29.807 Y-44.015 Z-0.740 F500.000
G1 X-31.827 Y-46.035 Z-0.740 F500.000
G2 X-33.086 Y-46.035 Z-0.740 I-0.629 J0.642 K0.000 F500.000
G1 X-34.080 Y-45.040 Z-0.740 F500.000
G2 X-34.080 Y-43.782 Z-0.740 I0.642 J0.629 K0.000 F500.000
G1 X-33.452 Y-43.154 Z-0.740 F500.000
G2 X-34.120 Y-42.461 Z-0.740 I2.602 J3.177 K0.000 F500.000
G2 X-33.404 Y-41.060 Z-0.740 I0.728 J0.512 K0.000 F500.000
G1 X-31.461 Y-41.046 Z-0.740 F500.000
G1 X-30.793 Y-40.378 Z-0.740 F500.000
G1 X-31.118 Y-40.053 Z-0.740 F500.000
G2 X-31.906 Y-40.824 Z-0.740 I-4.310 J3.618 K0.000 F500.000
G2 X-33.068 Y-40.745 Z-0.740 I-0.534 J0.717 K0.000 F500.000
G1 X-33.793 Y-40.019 Z-0.740 F500.000
G1 X-34.561 Y-40.787 Z-0.740 F500.000
G2 X-35.820 Y-40.787 Z-0.740 I-0.629 J0.642 K0.000 F500.000
G1 X-40.787 Y-35.820 Z-0.740 F500.000
G2 X-40.787 Y-34.561 Z-0.740 I0.642 J0.629 K0.000 F500.000
G1 X-40.024 Y-33.798 Z-0.740 F500.000
G2 X-40.667 Y-33.138 Z-0.740 I3.031 J3.594 K0.000 F500.000
G2 X-40.587 Y-31.976 Z-0.740 I0.717 J0.534 K0.000 F500.000
G1 X-39.891 Y-31.280 Z-0.740 F500.000
G1 X-39.891 Y-31.280 Z-1.110 F300.000
G1 X-40.378 Y-30.793 Z-1.110 F500.000
G1 X-41.064 Y-31.478 Z-1.110 F500.000
G1 X-41.064 Y-33.394 Z-1.110 F500.000
G2 X-42.583 Y-34.023 Z-1.110 I-0.893 J0.008 K0.000 F500.000
G1 X-43.112 Y-33.495 Z-1.110 F500.000
G2 X-43.837 Y-34.202 Z-1.110 I-3.956 J3.327 K0.000 F500.000
G2 X-44.999 Y-34.123 Z-1.110 I-0.534 J0.717 K0.000 F500.000
G1 X-46.013 Y-33.108 Z-1.110 F500.000
G2 X-46.013 Y-31.850 Z-1.110 I0.642 J0.629 K0.000 F500.000
G1 X-43.993 Y-29.829 Z-1.110 F500.000
G1 X-44.414 Y-29.409 Z-1.110 F500.000
G1 X-48.790 Y-33.785 Z-1.110 F500.000
G2 X-48.013 Y-34.578 Z-1.110 I-3.640 J-4.337 K0.000 F500.000
G2 X-48.093 Y-35.740 Z-1.110 I-0.717 J-0.534 K0.000 F500.000
G1 X-48.738 Y-36.385 Z-1.110 F500.000
G2 X-48.156 Y-36.992 Z-1.110 I-2.272 J-2.761 K0.000 F500.000
G2 X-48.879 Y-38.393 Z-1.110 I-0.728 J-0.512 K0.000 F500.000
G1 X-50.874 Y-38.393 Z-1.110 F500.000
G1 X-51.528 Y-39.046 Z-1.110 F500.000
G1 X-51.001 Y-39.573 Z-1.110 F500.000
G2 X-50.240 Y-38.830 Z-1.110 I4.154 J-3.490 K0.000 F500.000
G2 X-49.078 Y-38.909 Z-1.110 I0.534 J-0.717 K0.000 F500.000
G1 X-48.299 Y-39.688 Z-1.110 F500.000
G1 X-47.497 Y-38.885 Z-1.110 F500.000
G2 X-46.238 Y-38.885 Z-1.110 I0.629 J-0.642 K0.000 F500.000
G1 X-38.885 Y-46.238 Z-1.110 F500.000
G2 X-38.885 Y-47.497 Z-1.110 I-0.642 J-0.629 K0.000 F500.000
G1 X-39.688 Y-48.299 Z-1.110 F500.000
G1 X-38.909 Y-49.078 Z-1.110 F500.000
G2 X-38.909 Y-50.337 Z-1.110 I-0.642 J-0.629 K0.000 F500.000
G1 X-39.573 Y-51.001 Z-1.110 F500.000
G1 X-39.046 Y-51.528 Z-1.110 F500.000
G1 X-38.393 Y-50.874 Z-1.110 F500.000
G1 X-38.393 Y-48.879 Z-1.110 F500.000
G2 X-36.874 Y-48.250 Z-1.110 I0.893 J-0.008 K0.000 F500.000
G1 X-36.385 Y-48.738 Z-1.110 F500.000
G2 X-35.643 Y-48.013 Z-1.110 I4.050 J-3.405 K0.000 F500.000
G2 X-34.481 Y-48.093 Z-1.110 I0.534 J-0.717 K0.000 F500.000
G1 X-33.785 Y-48.790 Z-1.110 F500.000
G1 X-29.409 Y-44.414 Z-1.110 F500.000
G1 X-29.807 Y-44.015 Z-1.110 F500.000
G1 X-31.827 Y-46.035 Z-1.110 F500.000
G2 X-33.086 Y-46.035 Z-1.110 I-0.629 J0.642 K0.000 F500.000
G1 X-34.080 Y-45.040 Z-1.110 F500.000
G2 X-34.080 Y-43.782 Z-1.110 I0.642 J0.629 K0.000 F500.000
G1 X-33.452 Y-43.154 Z-1.110 F500.000
G2 X-34.120 Y-42.461 Z-1.110 I2.602 J3.177 K0.000 F500.000
G2 X-33.404 Y-41.060 Z-1.110 I0.728 J0.512 K0.000 F500.000
G1 X-31.461 Y-41.046 Z-1.110 F500.000
G1 X-30.793 Y-40.378 Z-1.110 F500.000
G1 X-31.118 Y-40.053 Z-1.110 F500.000
G2 X-31.906 Y-40.824 Z-1.110 I-4.310 J3.618 K0.000 F500.000
G2 X-33.068 Y-40.745 Z-1.110 I-0.534 J0.717 K0.000 F500.000
G1 X-33.793 Y-40.019 Z-1.110 F500.000
G1 X-34.561 Y-40.787 Z-1.110 F500.000
G2 X-35.820 Y-40.787 Z-1.110 I-0.629 J0.642 K0.000 F500.000
G1 X-40.787 Y-35.820 Z-1.110 F500.000
G2 X-40.787 Y-34.561 Z-1.110 I0.642 J0.629 K0.000 F500.000
G1 X-40.024 Y-33.798 Z-1.110 F500.000
G2 X-40.667 Y-33.138 Z-1.110 I3.031 J3.594 K0.000 F500.000
G2 X-40.587 Y-31.976 Z-1.110 I0.717 J0.534 K0.000 F500.000
G1 X-39.891 Y-31.280 Z-1.110 F500.000
G1 X-39.891 Y-31.280 Z-1.480 F300.000
G1 X-40.378 Y-30.793 Z-1.480 F500.000
G1 X-41.064 Y-31.478 Z-1.480 F500.000
G1 X-41.064 Y-33.394 Z-1.480 F500.000
G2 X-42.583 Y-34.023 Z-1.480 I-0.893 J0.008 K0.000 F500.000
G1 X-43.112 Y-33.495 Z-1.480 F500.000
G2 X-43.837 Y-34.202 Z-1.480 I-3.956 J3.327 K0.000 F500.000
G2 X-44.999 Y-34.123 Z-1.480 I-0.534 J0.717 K0.000 F500.000
G1 X-46.013 Y-33.108 Z-1.480 F500.000
G2 X-46.013 Y-31.850 Z-1.480 I0.642 J0.629 K0.000 F500.000
G1 X-43.993 Y-29.829 Z-1.480 F500.000
G1 X-44.414 Y-29.409 Z-1.480 F500.000
G1 X-48.790 Y-33.785 Z-1.480 F500.000
G2 X-48.013 Y-34.578 Z-1.480 I-3.640 J-4.337 K0.000 F500.000
G2 X-48.093 Y-35.740 Z-1.480 I-0.717 J-0.534 K0.000 F500.000
G1 X-48.738 Y-36.385 Z-1.480 F500.000
G2 X-48.156 Y-36.992 Z-1.480 I-2.272 J-2.761 K0.000 F500.000
G2 X-48.879 Y-38.393 Z-1.480 I-0.728 J-0.512 K0.000 F500.000
G1 X-50.874 Y-38.393 Z-1.480 F500.000
G1 X-51.528 Y-39.046 Z-1.480 F500.000
G1 X-51.001 Y-39.573 Z-1.480 F500.000
G2 X-50.240 Y-38.830 Z-1.480 I4.154 J-3.490 K0.000 F500.000
G2 X-49.078 Y-38.909 Z-1.480 I0.534 J-0.717 K0.000 F500.000
G1 X-48.299 Y-39.688 Z-1.480 F500.000
G1 X-47.497 Y-38.885 Z-1.480 F500.000
G2 X-46.238 Y-38.885 Z-1.480 I0.629 J-0.642 K0.000 F500.000
G1 X-38.885 Y-46.238 Z-1.480 F500.000
G2 X-38.885 Y-47.497 Z-1.480 I-0.642 J-0.629 K0.000 F500.000
G1 X-39.688 Y-48.299 Z-1.480 F500.000
G1 X-38.909 Y-49.078 Z-1.480 F500.000
G2 X-38.909 Y-50.337 Z-1.480 I-0.642 J-0.629 K0.000 F500.000
G1 X-39.573 Y-51.001 Z-1.480 F500.000
G1 X-39.046 Y-51.528 Z-1.480 F500.000
G1 X-38.393 Y-50.874 Z-1.480 F500.000
G1 X-38.393 Y-48.879 Z-1.480 F500.000
G2 X-36.874 Y-48.250 Z-1.480 I0.893 J-0.008 K0.000 F500.000
G1 X-36.385 Y-48.738 Z-1.480 F500.000
G2 X-35.643 Y-48.013 Z-1.480 I4.050 J-3.405 K0.000 F500.000
G2 X-34.481 Y-48.093 Z-1.480 I0.534 J-0.717 K0.000 F500.000
G1 X-33.785 Y-48.790 Z-1.480 F500.000
G1 X-29.409 Y-44.414 Z-1.480 F500.000
G1 X-29.807 Y-44.015 Z-1.480 F500.000
G1 X-31.827 Y-46.035 Z-1.480 F500.000
G2 X-33.086 Y-46.035 Z-1.480 I-0.629 J0.642 K0.000 F500.000
G1 X-34.080 Y-45.040 Z-1.480 F500.000
G2 X-34.080 Y-43.782 Z-1.480 I0.642 J0.629 K0.000 F500.000
G1 X-33.452 Y-43.154 Z-1.480 F500.000
G2 X-34.120 Y-42.461 Z-1.480 I2.602 J3.177 K0.000 F500.000
G2 X-33.404 Y-41.060 Z-1.480 I0.728 J0.512 K0.000 F500.000
G1 X-31.461 Y-41.046 Z-1.480 F500.000
G1 X-30.793 Y-40.378 Z-1.480 F500.000
G1 X-31.118 Y-40.053 Z-1.480 F500.000
G2 X-31.906 Y-40.824 Z-1.480 I-4.310 J3.618 K0.000 F500.000
G2 X-33.068 Y-40.745 Z-1.480 I-0.534 J0.717 K0.000 F500.000
G1 X-33.793 Y-40.019 Z-1.480 F500.000
G1 X-34.561 Y-40.787 Z-1.480 F500.000
G2 X-35.820 Y-40.787 Z-1.480 I-0.629 J0.642 K0.000 F500.000
G1 X-40.787 Y-35.820 Z-1.480 F500.000
G2 X-40.787 Y-34.561 Z-1.480 I0.642 J0.629 K0.000 F500.000
G1 X-40.024 Y-33.798 Z-1.480 F500.000
G2 X-40.667 Y-33.138 Z-1.480 I3.031 J3.594 K0.000 F500.000
G2 X-40.587 Y-31.976 Z-1.480 I0.717 J0.534 K0.000 F500.000
G1 X-39.891 Y-31.280 Z-1.480 F500.000
G1 X-39.891 Y-31.280 Z-1.850 F300.000
G1 X-40.378 Y-30.793 Z-1.850 F500.000
G1 X-41.064 Y-31.478 Z-1.850 F500.000
G1 X-41.064 Y-33.394 Z-1.850 F500.000
G2 X-42.583 Y-34.023 Z-1.850 I-0.893 J0.008 K0.000 F500.000
G1 X-43.112 Y-33.495 Z-1.850 F500.000
G2 X-43.837 Y-34.202 Z-1.850 I-3.956 J3.327 K0.000 F500.000
G2 X-44.999 Y-34.123 Z-1.850 I-0.534 J0.717 K0.000 F500.000
G1 X-46.013 Y-33.108 Z-1.850 F500.000
G2 X-46.013 Y-31.850 Z-1.850 I0.642 J0.629 K0.000 F500.000
G1 X-43.993 Y-29.829 Z-1.850 F500.000
G1 X-44.414 Y-29.409 Z-1.850 F500.000
G1 X-48.790 Y-33.785 Z-1.850 F500.000
G2 X-48.013 Y-34.578 Z-1.850 I-3.640 J-4.337 K0.000 F500.000
G2 X-48.093 Y-35.740 Z-1.850 I-0.717 J-0.534 K0.000 F500.000
G1 X-48.738 Y-36.385 Z-1.850 F500.000
G2 X-48.156 Y-36.992 Z-1.850 I-2.272 J-2.761 K0.000 F500.000
G2 X-48.879 Y-38.393 Z-1.850 I-0.728 J-0.512 K0.000 F500.000
G1 X-50.874 Y-38.393 Z-1.850 F500.000
G1 X-51.528 Y-39.046 Z-1.850 F500.000
G1 X-51.001 Y-39.573 Z-1.850 F500.000
G2 X-50.240 Y-38.830 Z-1.850 I4.154 J-3.490 K0.000 F500.000
G2 X-49.078 Y-38.909 Z-1.850 I0.534 J-0.717 K0.000 F500.000
G1 X-48.299 Y-39.688 Z-1.850 F500.000
G1 X-47.497 Y-38.885 Z-1.850 F500.000
G2 X-46.238 Y-38.885 Z-1.850 I0.629 J-0.642 K0.000 F500.000
G1 X-38.885 Y-46.238 Z-1.850 F500.000
G2 X-38.885 Y-47.497 Z-1.850 I-0.642 J-0.629 K0.000 F500.000
G1 X-39.688 Y-48.299 Z-1.850 F500.000
G1 X-38.909 Y-49.078 Z-1.850 F500.000
G2 X-38.909 Y-50.337 Z-1.850 I-0.642 J-0.629 K0.000 F500.000
G1 X-39.573 Y-51.001 Z-1.850 F500.000
G1 X-39.046 Y-51.528 Z-1.850 F500.000
G1 X-38.393 Y-50.874 Z-1.850 F500.000
G1 X-38.393 Y-48.879 Z-1.850 F500.000
G2 X-36.874 Y-48.250 Z-1.850 I0.893 J-0.008 K0.000 F500.000
G1 X-36.385 Y-48.738 Z-1.850 F500.000
G2 X-35.643 Y-48.013 Z-1.850 I4.050 J-3.405 K0.000 F500.000
G2 X-34.481 Y-48.093 Z-1.850 I0.534 J-0.717 K0.000 F500.000
G1 X-33.785 Y-48.790 Z-1.850 F500.000
G1 X-29.409 Y-44.414 Z-1.850 F500.000
G1 X-29.807 Y-44.015 Z-1.850 F500.000
G1 X-31.827 Y-46.035 Z-1.850 F500.000
G2 X-33.086 Y-46.035 Z-1.850 I-0.629 J0.642 K0.000 F500.000
G1 X-34.080 Y-45.040 Z-1.850 F500.000
G2 X-34.080 Y-43.782 Z-1.850 I0.642 J0.629 K0.000 F500.000
G1 X-33.452 Y-43.154 Z-1.850 F500.000
G2 X-34.120 Y-42.461 Z-1.850 I2.602 J3.177 K0.000 F500.000
G2 X-33.404 Y-41.060 Z-1.850 I0.728 J0.512 K0.000 F500.000
G1 X-31.461 Y-41.046 Z-1.850 F500.000
G1 X-30.793 Y-40.378 Z-1.850 F500.000
G1 X-31.118 Y-40.053 Z-1.850 F500.000
G2 X-31.906 Y-40.824 Z-1.850 I-4.310 J3.618 K0.000 F500.000
G2 X-33.068 Y-40.745 Z-1.850 I-0.534 J0.717 K0.000 F500.000
G1 X-33.793 Y-40.019 Z-1.850 F500.000
G1 X-34.561 Y-40.787 Z-1.850 F500.000
G2 X-35.820 Y-40.787 Z-1.850 I-0.629 J0.642 K0.000 F500.000
G1 X-40.787 Y-35.820 Z-1.850 F500.000
G2 X-40.787 Y-34.561 Z-1.850 I0.642 J0.629 K0.000 F500.000
G1 X-40.024 Y-33.798 Z-1.850 F500.000
G2 X-40.667 Y-33.138 Z-1.850 I3.031 J3.594 K0.000 F500.000
G2 X-40.587 Y-31.976 Z-1.850 I0.717 J0.534 K0.000 F500.000
G1 X-39.891 Y-31.280 Z-1.850 F500.000
G1 X-39.891 Y-31.280 Z-2.000 F300.000
G1 X-40.378 Y-30.793 Z-2.000 F500.000
G1 X-41.064 Y-31.478 Z-2.000 F500.000
G1 X-41.064 Y-33.394 Z-2.000 F500.000
G2 X-42.583 Y-34.023 Z-2.000 I-0.893 J0.008 K0.000 F500.000
G1 X-43.112 Y-33.495 Z-2.000 F500.000
G2 X-43.837 Y-34.202 Z-2.000 I-3.956 J3.327 K0.000 F500.000
G2 X-44.999 Y-34.123 Z-2.000 I-0.534 J0.717 K0.000 F500.000
G1 X-46.013 Y-33.108 Z-2.000 F500.000
G2 X-46.013 Y-31.850 Z-2.000 I0.642 J0.629 K0.000 F500.000
G1 X-43.993 Y-29.829 Z-2.000 F500.000
G1 X-44.414 Y-29.409 Z-2.000 F500.000
G1 X-48.790 Y-33.785 Z-2.000 F500.000
G2 X-48.013 Y-34.578 Z-2.000 I-3.640 J-4.337 K0.000 F500.000
G2 X-48.093 Y-35.740 Z-2.000 I-0.717 J-0.534 K0.000 F500.000
G1 X-48.738 Y-36.385 Z-2.000 F500.000
G2 X-48.156 Y-36.992 Z-2.000 I-2.272 J-2.761 K0.000 F500.000
G2 X-48.879 Y-38.393 Z-2.000 I-0.728 J-0.512 K0.000 F500.000
G1 X-50.874 Y-38.393 Z-2.000 F500.000
G1 X-51.528 Y-39.046 Z-2.000 F500.000
G1 X-51.001 Y-39.573 Z-2.000 F500.000
G2 X-50.240 Y-38.830 Z-2.000 I4.154 J-3.490 K0.000 F500.000
G2 X-49.078 Y-38.909 Z-2.000 I0.534 J-0.717 K0.000 F500.000
G1 X-48.299 Y-39.688 Z-2.000 F500.000
G1 X-47.497 Y-38.885 Z-2.000 F500.000
G2 X-46.238 Y-38.885 Z-2.000 I0.629 J-0.642 K0.000 F500.000
G1 X-38.885 Y-46.238 Z-2.000 F500.000
G2 X-38.885 Y-47.497 Z-2.000 I-0.642 J-0.629 K0.000 F500.000
G1 X-39.688 Y-48.299 Z-2.000 F500.000
G1 X-38.909 Y-49.078 Z-2.000 F500.000
G2 X-38.909 Y-50.337 Z-2.000 I-0.642 J-0.629 K0.000 F500.000
G1 X-39.573 Y-51.001 Z-2.000 F500.000
G1 X-39.046 Y-51.528 Z-2.000 F500.000
G1 X-38.393 Y-50.874 Z-2.000 F500.000
G1 X-38.393 Y-48.879 Z-2.000 F500.000
G2 X-36.874 Y-48.250 Z-2.000 I0.893 J-0.008 K0.000 F500.000
G1 X-36.385 Y-48.738 Z-2.000 F500.000
G2 X-35.643 Y-48.013 Z-2.000 I4.050 J-3.405 K0.000 F500.000
G2 X-34.481 Y-48.093 Z-2.000 I0.534 J-0.717 K0.000 F500.000
G1 X-33.785 Y-48.790 Z-2.000 F500.000
G1 X-29.409 Y-44.414 Z-2.000 F500.000
G1 X-29.807 Y-44.015 Z-2.000 F500.000
G1 X-31.827 Y-46.035 Z-2.000 F500.000
G2 X-33.086 Y-46.035 Z-2.000 I-0.629 J0.642 K0.000 F500.000
G1 X-34.080 Y-45.040 Z-2.000 F500.000
G2 X-34.080 Y-43.782 Z-2.000 I0.642 J0.629 K0.000 F500.000
G1 X-33.452 Y-43.154 Z-2.000 F500.000
G2 X-34.120 Y-42.461 Z-2.000 I2.602 J3.177 K0.000 F500.000
G2 X-33.404 Y-41.060 Z-2.000 I0.728 J0.512 K0.000 F500.000
G1 X-31.461 Y-41.046 Z-2.000 F500.000
G1 X-30.793 Y-40.378 Z-2.000 F500.000
G1 X-31.118 Y-40.053 Z-2.000 F500.000
G2 X-31.906 Y-40.824 Z-2.000 I-4.310 J3.618 K0.000 F500.000
G2 X-33.068 Y-40.745 Z-2.000 I-0.534 J0.717 K0.000 F500.000
G1 X-33.793 Y-40.019 Z-2.000 F500.000
G1 X-34.561 Y-40.787 Z-2.000 F500.000
G2 X-35.820 Y-40.787 Z-2.000 I-0.629 J0.642 K0.000 F500.000
G1 X-40.787 Y-35.820 Z-2.000 F500.000
G2 X-40.787 Y-34.561 Z-2.000 I0.642 J0.629 K0.000 F500.000
G1 X-40.024 Y-33.798 Z-2.000 F500.000
G2 X-40.667 Y-33.138 Z-2.000 I3.031 J3.594 K0.000 F500.000
G2 X-40.587 Y-31.976 Z-2.000 I0.717 J0.534 K0.000 F500.000
G1 X-39.891 Y-31.280 Z-2.000 F500.000
G0 Z5.000
G0 X-42.442 Y-34.887 Z5.000
G0 X-42.442 Y-34.887 Z3.000
G1 X-42.442 Y-34.887 Z-0.370 F300.000
G3 X-43.591 Y-34.979 Z-0.370 I-0.519 J-0.734 K0.000 F500.000
G1 X-44.561 Y-35.950 Z-0.370 F500.000
G3 X-44.561 Y-37.209 Z-0.370 I0.642 J-0.629 K0.000 F500.000
G1 X-43.722 Y-38.048 Z-0.370 F500.000
G3 X-43.313 Y-38.277 Z-0.370 I0.674 J0.722 K0.000 F500.000
G3 X-42.463 Y-38.048 Z-0.370 I0.221 J0.872 K0.000 F500.000
G1 X-41.493 Y-37.077 Z-0.370 F500.000
G3 X-41.493 Y-35.818 Z-0.370 I-0.642 J0.629 K0.000 F500.000
G1 X-42.332 Y-34.979 Z-0.370 F500.000
G3 X-42.442 Y-34.887 Z-0.370 I-0.629 J-0.642 K0.000 F500.000
G1 X-42.442 Y-34.887 Z-0.740 F300.000
G3 X-43.591 Y-34.979 Z-0.740 I-0.519 J-0.734 K0.000 F500.000
G1 X-44.561 Y-35.950 Z-0.740 F500.000
G3 X-44.561 Y-37.209 Z-0.740 I0.642 J-0.629 K0.000 F500.000
G1 X-43.722 Y-38.048 Z-0.740 F500.000
G3 X-43.313 Y-38.277 Z-0.740 I0.674 J0.722 K0.000 F500.000
G3 X-42.463 Y-38.048 Z-0.740 I0.221 J0.872 K0.000 F500.000
G1 X-41.493 Y-37.077 Z-0.740 F500.000
G3 X-41.493 Y-35.818 Z-0.740 I-0.642 J0.629 K0.000 F500.000
G1 X-42.332 Y-34.979 Z-0.740 F500.000
G3 X-42.442 Y-34.887 Z-0.740 I-0.629 J-0.642 K0.000 F500.000
G1 X-42.442 Y-34.887 Z-1.110 F300.000
G3 X-43.591 Y-34.979 Z-1.110 I-0.519 J-0.734 K0.000 F500.000
G1 X-44.561 Y-35.950 Z-1.110 F500.000
G3 X-44.561 Y-37.209 Z-1.110 I0.642 J-0.629 K0.000 F500.000
G1 X-43.722 Y-38.048 Z-1.110 F500.000
G3 X-43.313 Y-38.277 Z-1.110 I0.674 J0.722 K0.000 F500.000
G3 X-42.463 Y-38.048 Z-1.110 I0.221 J0.872 K0.000 F500.000
G1 X-41.493 Y-37.077 Z-1.110 F500.000
G3 X-41.493 Y-35.818 Z-1.110 I-0.642 J0.629 K0.000 F500.000
G1 X-42.332 Y-34.979 Z-1.110 F500.000
G3 X-42.442 Y-34.887 Z-1.110 I-0.629 J-0.642 K0.000 F500.000
G1 X-42.442 Y-34.887 Z-1.480 F300.000
G3 X-43.591 Y-34.979 Z-1.480 I-0.519 J-0.734 K0.000 F500.000
G1 X-44.561 Y-35.950 Z-1.480 F500.000
G3 X-44.561 Y-37.209 Z-1.480 I0.642 J-0.629 K0.000 F500.000
G1 X-43.722 Y-38.048 Z-1.480 F500.000
G3 X-43.313 Y-38.277 Z-1.480 I0.674 J0.722 K0.000 F500.000
G3 X-42.463 Y-38.048 Z-1.480 I0.221 J0.872 K0.000 F500.000
G1 X-41.493 Y-37.077 Z-1.480 F500.000
G3 X-41.493 Y-35.818 Z-1.480 I-0.642 J0.629 K0.000 F500.000
G1 X-42.332 Y-34.979 Z-1.480 F500.000
G3 X-42.442 Y-34.887 Z-1.480 I-0.629 J-0.642 K0.000 F500.000
G1 X-42.442 Y-34.887 Z-1.850 F300.000
G3 X-43.591 Y-34.979 Z-1.850 I-0.519 J-0.734 K0.000 F500.000
G1 X-44.561 Y-35.950 Z-1.850 F500.000
G3 X-44.561 Y-37.209 Z-1.850 I0.642 J-0.629 K0.000 F500.000
G1 X-43.722 Y-38.048 Z-1.850 F500.000
G3 X-43.313 Y-38.277 Z-1.850 I0.674 J0.722 K0.000 F500.000
G3 X-42.463 Y-38.048 Z-1.850 I0.221 J0.872 K0.000 F500.000
G1 X-41.493 Y-37.077 Z-1.850 F500.000
G3 X-41.493 Y-35.818 Z-1.850 I-0.642 J0.629 K0.000 F500.000
G1 X-42.332 Y-34.979 Z-1.850 F500.000
G3 X-42.442 Y-34.887 Z-1.850 I-0.629 J-0.642 K0.000 F500.000
G1 X-42.442 Y-34.887 Z-2.000 F300.000
G3 X-43.591 Y-34.979 Z-2.000 I-0.519 J-0.734 K0.000 F500.000
G1 X-44.561 Y-35.950 Z-2.000 F500.000
G3 X-44.561 Y-37.209 Z-2.000 I0.642 J-0.629 K0.000 F500.000
G1 X-43.722 Y-38.048 Z-2.000 F500.000
G3 X-43.313 Y-38.277 Z-2.000 I0.674 J0.722 K0.000 F500.000
G3 X-42.463 Y-38.048 Z-2.000 I0.221 J0.872 K0.000 F500.000
G1 X-41.493 Y-37.077 Z-2.000 F500.000
G3 X-41.493 Y-35.818 Z-2.000 I-0.642 J0.629 K0.000 F500.000
G1 X-42.332 Y-34.979 Z-2.000 F500.000
G3 X-42.442 Y-34.887 Z-2.000 I-0.629 J-0.642 K0.000 F500.000
G0 Z5.000
G0 X-45.266 Y-35.189 Z5.000
G0 X-45.266 Y-35.189 Z3.000
G1 X-45.266 Y-35.189 Z-0.370 F300.000
G2 X-45.731 Y-34.855 Z-0.370 I0.862 J1.693 K0.000 F500.000
G1 X-46.746 Y-33.841 Z-0.370 F500.000
G2 X-47.021 Y-33.481 Z-0.370 I0.828 J0.920 K0.000 F500.000
G1 X-47.328 Y-33.788 Z-0.370 F500.000
G2 X-47.307 Y-36.407 Z-0.370 I-1.375 J-1.321 K0.000 F500.000
G2 X-46.967 Y-37.601 Z-0.370 I-1.397 J-1.043 K0.000 F500.000
G2 X-45.505 Y-38.153 Z-0.370 I0.128 J-1.873 K0.000 F500.000
G1 X-38.153 Y-45.505 Z-0.370 F500.000
G2 X-37.596 Y-46.970 Z-0.370 I-1.373 J-1.360 K0.000 F500.000
G2 X-36.407 Y-47.307 Z-0.370 I0.157 J-1.712 K0.000 F500.000
G2 X-33.788 Y-47.328 Z-0.370 I1.298 J-1.396 K0.000 F500.000
G1 X-33.487 Y-47.027 Z-0.370 F500.000
G2 X-33.818 Y-46.767 Z-0.370 I1.154 J1.810 K0.000 F500.000
G1 X-34.812 Y-45.773 Z-0.370 F500.000
G2 X-35.173 Y-45.250 Z-0.370 I1.225 J1.231 K0.000 F500.000
G2 X-37.941 Y-45.294 Z-0.370 I-1.405 J1.320 K0.000 F500.000
G2 X-38.989 Y-44.201 Z-0.370 I5.025 J5.865 K0.000 F500.000
G2 X-38.780 Y-41.731 Z-0.370 I1.581 J1.110 K0.000 F500.000
G1 X-37.810 Y-40.760 Z-0.370 F500.000
G2 X-37.534 Y-40.537 Z-0.370 I1.269 J-1.287 K0.000 F500.000
G1 X-40.537 Y-37.534 Z-0.370 F500.000
G2 X-40.760 Y-37.810 Z-0.370 I-1.510 J0.993 K0.000 F500.000
G1 X-41.731 Y-38.780 Z-0.370 F500.000
G2 X-44.455 Y-38.780 Z-0.370 I-1.362 J1.362 K0.000 F500.000
G2 X-45.502 Y-37.687 Z-0.370 I5.025 J5.865 K0.000 F500.000
G2 X-45.266 Y-35.189 Z-0.370 I1.581 J1.110 K0.000 F500.000
G1 X-45.266 Y-35.189 Z-0.740 F300.000
G2 X-45.731 Y-34.855 Z-0.740 I0.862 J1.693 K0.000 F500.000
G1 X-46.746 Y-33.841 Z-0.740 F500.000
G2 X-47.021 Y-33.481 Z-0.740 I0.828 J0.920 K0.000 F500.000
G1 X-47.328 Y-33.788 Z-0.740 F500.000
G2 X-47.307 Y-36.407 Z-0.740 I-1.375 J-1.321 K0.000 F500.000
G2 X-46.967 Y-37.601 Z-0.740 I-1.397 J-1.043 K0.000 F500.000
G2 X-45.505 Y-38.153 Z-0.740 I0.128 J-1.873 K0.000 F500.000
G1 X-38.153 Y-45.505 Z-0.740 F500.000
G2 X-37.596 Y-46.970 Z-0.740 I-1.373 J-1.360 K0.000 F500.000
G2 X-36.407 Y-47.307 Z-0.740 I0.157 J-1.712 K0.000 F500.000
G2 X-33.788 Y-47.328 Z-0.740 I1.298 J-1.396 K0.000 F500.000
G1 X-33.487 Y-47.027 Z-0.740 F500.000
G2 X-33.818 Y-46.767 Z-0.740 I1.154 J1.810 K0.000 F500.000
G1 X-34.812 Y-45.773 Z-0.740 F500.000
G2 X-35.173 Y-45.250 Z-0.740 I1.225 J1.231 K0.000 F500.000
G2 X-37.941 Y-45.294 Z-0.740 I-1.405 J1.320 K0.000 F500.000
G2 X-38.989 Y-44.201 Z-0.740 I5.025 J5.865 K0.000 F500.000
G2 X-38.780 Y-41.731 Z-0.740 I1.581 J1.110 K0.000 F500.000
G1 X-37.810 Y-40.760 Z-0.740 F500.000
G2 X-37.534 Y-40.537 Z-0.740 I1.269 J-1.287 K0.000 F500.000
G1 X-40.537 Y-37.534 Z-0.740 F500.000
G2 X-40.760 Y-37.810 Z-0.740 I-1.510 J0.993 K0.000 F500.000
G1 X-41.731 Y-38.780 Z-0.740 F500.000
G2 X-44.455 Y-38.780 Z-0.740 I-1.362 J1.362 K0.000 F500.000
G2 X-45.502 Y-37.687 Z-0.740 I5.025 J5.865 K0.000 F500.000
G2 X-45.266 Y-35.189 Z-0.740 I1.581 J1.110 K0.000 F500.000
G1 X-45.266 Y-35.189 Z-1.110 F300.000
G2 X-45.731 Y-34.855 Z-1.110 I0.862 J1.693 K0.000 F500.000
G1 X-46.746 Y-33.841 Z-1.110 F500.000
G2 X-47.021 Y-33.481 Z-1.110 I0.828 J0.920 K0.000 F500.000
G1 X-47.328 Y-33.788 Z-1.110 F500.000
G2 X-47.307 Y-36.407 Z-1.110 I-1.375 J-1.321 K0.000 F500.000
G2 X-46.967 Y-37.601 Z-1.110 I-1.397 J-1.043 K0.000 F500.000
G2 X-45.505 Y-38.153 Z-1.110 I0.128 J-1.873 K0.000 F500.000
G1 X-38.153 Y-45.505 Z-1.110 F500.000
G2 X-37.596 Y-46.970 Z-1.110 I-1.373 J-1.360 K0.000 F500.000
G2 X-36.407 Y-47.307 Z-1.110 I0.157 J-1.712 K0.000 F500.000
G2 X-33.788 Y-47.328 Z-1.110 I1.298 J-1.396 K0.000 F500.000
G1 X-33.487 Y-47.027 Z-1.110 F500.000
G2 X-33.818 Y-46.767 Z-1.110 I1.154 J1.810 K0.000 F500.000
G1 X-34.812 Y-45.773 Z-1.110 F500.000
G2 X-35.173 Y-45.250 Z-1.110 I1.225 J1.231 K0.000 F500.000
G2 X-37.941 Y-45.294 Z-1.110 I-1.405 J1.320 K0.000 F500.000
G2 X-38.989 Y-44.201 Z-1.110 I5.025 J5.865 K0.000 F500.000
G2 X-38.780 Y-41.731 Z-1.110 I1.581 J1.110 K0.000 F500.000
G1 X-37.810 Y-40.760 Z-1.110 F500.000
G2 X-37.534 Y-40.537 Z-1.110 I1.269 J-1.287 K0.000 F500.000
G1 X-40.537 Y-37.534 Z-1.110 F500.000
G2 X-40.760 Y-37.810 Z-1.110 I-1.510 J0.993 K0.000 F500.000
G1 X-41.731 Y-38.780 Z-1.110 F500.000
G2 X-44.455 Y-38.780 Z-1.110 I-1.362 J1.362 K0.000 F500.000
G2 X-45.502 Y-37.687 Z-1.110 I5.025 J5.865 K0.000 F500.000
G2 X-45.266 Y-35.189 Z-1.110 I1.581 J1.110 K0.000 F500.000
G1 X-45.266 Y-35.189 Z-1.480 F300.000
G2 X-45.731 Y-34.855 Z-1.480 I0.862 J1.693 K0.000 F500.000
G1 X-46.746 Y-33.841 Z-1.480 F500.000
G2 X-47.021 Y-33.481 Z-1.480 I0.828 J0.920 K0.000 F500.000
G1 X-47.328 Y-33.788 Z-1.480 F500.000
G2 X-47.307 Y-36.407 Z-1.480 I-1.375 J-1.321 K0.000 F500.000
G2 X-46.967 Y-37.601 Z-1.480 I-1.397 J-1.043 K0.000 F500.000
G2 X-45.505 Y-38.153 Z-1.480 I0.128 J-1.873 K0.000 F500.000
G1 X-38.153 Y-45.505 Z-1.480 F500.000
G2 X-37.596 Y-46.970 Z-1.480 I-1.373 J-1.360 K0.000 F500.000
G2 X-36.407 Y-47.307 Z-1.480 I0.157 J-1.712 K0.000 F500.000
G2 X-33.788 Y-47.328 Z-1.480 I1.298 J-1.396 K0.000 F500.000
G1 X-33.487 Y-47.027 Z-1.480 F500.000
G2 X-33.818 Y-46.767 Z-1.480 I1.154 J1.810 K0.000 F500.000
G1 X-34.812 Y-45.773 Z-1.480 F500.000
G2 X-35.173 Y-45.250 Z-1.480 I1.225 J1.231 K0.000 F500.000
G2 X-37.941 Y-45.294 Z-1.480 I-1.405 J1.320 K0.000 F500.000
G2 X-38.989 Y-44.201 Z-1.480 I5.025 J5.865 K0.000 F500.000
G2 X-38.780 Y-41.731 Z-1.480 I1.581 J1.110 K0.000 F500.000
G1 X-37.810 Y-40.760 Z-1.480 F500.000
G2 X-37.534 Y-40.537 Z-1.480 I1.269 J-1.287 K0.000 F500.000
G1 X-40.537 Y-37.534 Z-1.480 F500.000
G2 X-40.760 Y-37.810 Z-1.480 I-1.510 J0.993 K0.000 F500.000
G1 X-41.731 Y-38.780 Z-1.480 F500.000
G2 X-44.455 Y-38.780 Z-1.480 I-1.362 J1.362 K0.000 F500.000
G2 X-45.502 Y-37.687 Z-1.480 I5.025 J5.865 K0.000 F500.000
G2 X-45.266 Y-35.189 Z-1.480 I1.581 J1.110 K0.000 F500.000
G1 X-45.266 Y-35.189 Z-1.850 F300.000
G2 X-45.731 Y-34.855 Z-1.850 I0.862 J1.693 K0.000 F500.000
G1 X-46.746 Y-33.841 Z-1.850 F500.000
G2 X-47.021 Y-33.481 Z-1.850 I0.828 J0.920 K0.000 F500.000
G1 X-47.328 Y-33.788 Z-1.850 F500.000
G2 X-47.307 Y-36.407 Z-1.850 I-1.375 J-1.321 K0.000 F500.000
G2 X-46.967 Y-37.601 Z-1.850 I-1.397 J-1.043 K0.000 F500.000
G2 X-45.505 Y-38.153 Z-1.850 I0.128 J-1.873 K0.000 F500.000
G1 X-38.153 Y-45.505 Z-1.850 F500.000
G2 X-37.596 Y-46.970 Z-1.850 I-1.373 J-1.360 K0.000 F500.000
G2 X-36.407 Y-47.307 Z-1.850 I0.157 J-1.712 K0.000 F500.000
G2 X-33.788 Y-47.328 Z-1.850 I1.298 J-1.396 K0.000 F500.000
G1 X-33.487 Y-47.027 Z-1.850 F500.000
G2 X-33.818 Y-46.767 Z-1.850 I1.154 J1.810 K0.000 F500.000
G1 X-34.812 Y-45.773 Z-1.850 F500.000
G2 X-35.173 Y-45.250 Z-1.850 I1.225 J1.231 K0.000 F500.000
G2 X-37.941 Y-45.294 Z-1.850 I-1.405 J1.320 K0.000 F500.000
G2 X-38.989 Y-44.201 Z-1.850 I5.025 J5.865 K0.000 F500.000
G2 X-38.780 Y-41.731 Z-1.850 I1.581 J1.110 K0.000 F500.000
G1 X-37.810 Y-40.760 Z-1.850 F500.000
G2 X-37.534 Y-40.537 Z-1.850 I1.269 J-1.287 K0.000 F500.000
G1 X-40.537 Y-37.534 Z-1.850 F500.000
G2 X-40.760 Y-37.810 Z-1.850 I-1.510 J0.993 K0.000 F500.000
G1 X-41.731 Y-38.780 Z-1.850 F500.000
G2 X-44.455 Y-38.780 Z-1.850 I-1.362 J1.362 K0.000 F500.000
G2 X-45.502 Y-37.687 Z-1.850 I5.025 J5.865 K0.000 F500.000
G2 X-45.266 Y-35.189 Z-1.850 I1.581 J1.110 K0.000 F500.000
G1 X-45.266 Y-35.189 Z-2.000 F300.000
G2 X-45.731 Y-34.855 Z-2.000 I0.862 J1.693 K0.000 F500.000
G1 X-46.746 Y-33.841 Z-2.000 F500.000
G2 X-47.021 Y-33.481 Z-2.000 I0.828 J0.920 K0.000 F500.000
G1 X-47.328 Y-33.788 Z-2.000 F500.000
G2 X-47.307 Y-36.407 Z-2.000 I-1.375 J-1.321 K0.000 F500.000
G2 X-46.967 Y-37.601 Z-2.000 I-1.397 J-1.043 K0.000 F500.000
G2 X-45.505 Y-38.153 Z-2.000 I0.128 J-1.873 K0.000 F500.000
G1 X-38.153 Y-45.505 Z-2.000 F500.000
G2 X-37.596 Y-46.970 Z-2.000 I-1.373 J-1.360 K0.000 F500.000
G2 X-36.407 Y-47.307 Z-2.000 I0.157 J-1.712 K0.000 F500.000
G2 X-33.788 Y-47.328 Z-2.000 I1.298 J-1.396 K0.000 F500.000
G1 X-33.487 Y-47.027 Z-2.000 F500.000
G2 X-33.818 Y-46.767 Z-2.000 I1.154 J1.810 K0.000 F500.000
G1 X-34.812 Y-45.773 Z-2.000 F500.000
G2 X-35.173 Y-45.250 Z-2.000 I1.225 J1.231 K0.000 F500.000
G2 X-37.941 Y-45.294 Z-2.000 I-1.405 J1.320 K0.000 F500.000
G2 X-38.989 Y-44.201 Z-2.000 I5.025 J5.865 K0.000 F500.000
G2 X-38.780 Y-41.731 Z-2.000 I1.581 J1.110 K0.000 F500.000
G1 X-37.810 Y-40.760 Z-2.000 F500.000
G2 X-37.534 Y-40.537 Z-2.000 I1.269 J-1.287 K0.000 F500.000
G1 X-40.537 Y-37.534 Z-2.000 F500.000
G2 X-40.760 Y-37.810 Z-2.000 I-1.510 J0.993 K0.000 F500.000
G1 X-41.731 Y-38.780 Z-2.000 F500.000
G2 X-44.455 Y-38.780 Z-2.000 I-1.362 J1.362 K0.000 F500.000
G2 X-45.502 Y-37.687 Z-2.000 I5.025 J5.865 K0.000 F500.000
G2 X-45.266 Y-35.189 Z-2.000 I1.581 J1.110 K0.000 F500.000
G0 Z5.000
G0 X-42.025 Y-40.168 Z5.000
G0 X-42.025 Y-40.168 Z3.000
G1 X-42.025 Y-40.168 Z-0.370 F300.000
G1 X-40.176 Y-42.016 Z-0.370 F500.000
G2 X-39.513 Y-40.998 Z-0.370 I2.924 J-1.181 K0.000 F500.000
G1 X-39.026 Y-40.511 Z-0.370 F500.000
G1 X-40.511 Y-39.026 Z-0.370 F500.000
G2 X-41.490 Y-39.904 Z-0.370 I-3.328 J2.724 K0.000 F500.000
G2 X-42.025 Y-40.168 Z-0.370 I-0.931 J1.211 K0.000 F500.000
G1 X-41.478 Y-40.262 Z-0.370 F300.000
G1 X-40.257 Y-41.483 Z-0.370 F500.000
G2 X-39.478 Y-40.511 Z-0.370 I2.642 J-1.321 K0.000 F500.000
G1 X-40.511 Y-39.478 Z-0.370 F500.000
G2 X-41.478 Y-40.262 Z-0.370 I-2.534 J2.136 K0.000 F500.000
G1 X-40.972 Y-40.315 Z-0.370 F300.000
G1 X-40.315 Y-40.972 Z-0.370 F500.000
G2 X-39.931 Y-40.511 Z-0.370 I2.534 J-1.723 K0.000 F500.000
G1 X-40.511 Y-39.931 Z-0.370 F500.000
G2 X-40.972 Y-40.315 Z-0.370 I-2.184 J2.149 K0.000 F500.000
G1 X-40.972 Y-40.315 Z-0.740 F300.000
G1 X-40.315 Y-40.972 Z-0.740 F500.000
G2 X-39.931 Y-40.511 Z-0.740 I2.534 J-1.723 K0.000 F500.000
G1 X-40.511 Y-39.931 Z-0.740 F500.000
G2 X-40.972 Y-40.315 Z-0.740 I-2.184 J2.149 K0.000 F500.000
G1 X-41.150 Y-40.061 Z-0.740 F300.000
G2 X-41.478 Y-40.262 Z-0.740 I-1.896 J2.719 K0.000 F500.000
G1 X-40.257 Y-41.483 Z-0.740 F500.000
G2 X-39.478 Y-40.511 Z-0.740 I2.642 J-1.321 K0.000 F500.000
G1 X-40.511 Y-39.478 Z-0.740 F500.000
G2 X-41.150 Y-40.061 Z-0.740 I-2.534 J2.136 K0.000 F500.000
G1 X-41.337 Y-39.799 Z-0.740 F300.000
G2 X-41.490 Y-39.904 Z-0.740 I-2.502 J3.497 K0.000 F500.000
G2 X-42.025 Y-40.168 Z-0.740 I-0.931 J1.211 K0.000 F500.000
G1 X-40.176 Y-42.016 Z-0.740 F500.000
G2 X-39.513 Y-40.998 Z-0.740 I2.924 J-1.181 K0.000 F500.000
G1 X-39.026 Y-40.511 Z-0.740 F500.000
G1 X-40.511 Y-39.026 Z-0.740 F500.000
G2 X-41.337 Y-39.799 Z-0.740 I-3.328 J2.724 K0.000 F500.000
G1 X-41.337 Y-39.799 Z-1.110 F300.000
G2 X-41.490 Y-39.904 Z-1.110 I-2.502 J3.497 K0.000 F500.000
G2 X-42.025 Y-40.168 Z-1.110 I-0.931 J1.211 K0.000 F500.000
G1 X-40.176 Y-42.016 Z-1.110 F500.000
G2 X-39.513 Y-40.998 Z-1.110 I2.924 J-1.181 K0.000 F500.000
G1 X-39.026 Y-40.511 Z-1.110 F500.000
G1 X-40.511 Y-39.026 Z-1.110 F500.000
G2 X-41.337 Y-39.799 Z-1.110 I-3.328 J2.724 K0.000 F500.000
G1 X-41.153 Y-40.063 Z-1.110 F300.000
G2 X-41.478 Y-40.262 Z-1.110 I-1.892 J2.721 K0.000 F500.000
G1 X-40.257 Y-41.483 Z-1.110 F500.000
G2 X-39.478 Y-40.511 Z-1.110 I2.642 J-1.321 K0.000 F500.000
G1 X-40.511 Y-39.478 Z-1.110 F500.000
G2 X-41.153 Y-40.063 Z-1.110 I-2.534 J2.136 K0.000 F500.000
G1 X-40.972 Y-40.315 Z-1.110 F300.000
G1 X-40.315 Y-40.972 Z-1.110 F500.000
G2 X-39.931 Y-40.511 Z-1.110 I2.534 J-1.723 K0.000 F500.000
G1 X-40.511 Y-39.931 Z-1.110 F500.000
G2 X-40.972 Y-40.315 Z-1.110 I-2.184 J2.149 K0.000 F500.000
G1 X-40.972 Y-40.315 Z-1.480 F300.000
G1 X-40.315 Y-40.972 Z-1.480 F500.000
G2 X-39.931 Y-40.511 Z-1.480 I2.534 J-1.723 K0.000 F500.000
G1 X-40.511 Y-39.931 Z-1.480 F500.000
G2 X-40.972 Y-40.315 Z-1.480 I-2.184 J2.149 K0.000 F500.000
G1 X-41.150 Y-40.061 Z-1.480 F300.000
G2 X-41.478 Y-40.262 Z-1.480 I-1.896 J2.719 K0.000 F500.000
G1 X-40.257 Y-41.483 Z-1.480 F500.000
G2 X-39.478 Y-40.511 Z-1.480 I2.642 J-1.321 K0.000 F500.000
G1 X-40.511 Y-39.478 Z-1.480 F500.000
G2 X-41.150 Y-40.061 Z-1.480 I-2.534 J2.136 K0.000 F500.000
G1 X-41.337 Y-39.799 Z-1.480 F300.000
G2 X-41.490 Y-39.904 Z-1.480 I-2.502 J3.497 K0.000 F500.000
G2 X-42.025 Y-40.168 Z-1.480 I-0.931 J1.211 K0.000 F500.000
G1 X-40.176 Y-42.016 Z-1.480 F500.000
G2 X-39.513 Y-40.998 Z-1.480 I2.924 J-1.181 K0.000 F500.000
G1 X-39.026 Y-40.511 Z-1.480 F500.000
G1 X-40.511 Y-39.026 Z-1.480 F500.000
G2 X-41.337 Y-39.799 Z-1.480 I-3.328 J2.724 K0.000 F500.000
G1 X-41.337 Y-39.799 Z-1.850 F300.000
G2 X-41.490 Y-39.904 Z-1.850 I-2.502 J3.497 K0.000 F500.000
G2 X-42.025 Y-40.168 Z-1.850 I-0.931 J1.211 K0.000 F500.000
G1 X-40.176 Y-42.016 Z-1.850 F500.000
G2 X-39.513 Y-40.998 Z-1.850 I2.924 J-1.181 K0.000 F500.000
G1 X-39.026 Y-40.511 Z-1.850 F500.000
G1 X-40.511 Y-39.026 Z-1.850 F500.000
G2 X-41.337 Y-39.799 Z-1.850 I-3.328 J2.724 K0.000 F500.000
G1 X-41.153 Y-40.063 Z-1.850 F300.000
G2 X-41.478 Y-40.262 Z-1.850 I-1.892 J2.721 K0.000 F500.000
G1 X-40.257 Y-41.483 Z-1.850 F500.000
G2 X-39.478 Y-40.511 Z-1.850 I2.642 J-1.321 K0.000 F500.000
G1 X-40.511 Y-39.478 Z-1.850 F500.000
G2 X-41.153 Y-40.063 Z-1.850 I-2.534 J2.136 K0.000 F500.000
G1 X-40.972 Y-40.315 Z-1.850 F300.000
G1 X-40.315 Y-40.972 Z-1.850 F500.000
G2 X-39.931 Y-40.511 Z-1.850 I2.534 J-1.723 K0.000 F500.000
G1 X-40.511 Y-39.931 Z-1.850 F500.000
G2 X-40.972 Y-40.315 Z-1.850 I-2.184 J2.149 K0.000 F500.000
G1 X-40.972 Y-40.315 Z-2.000 F300.000
G1 X-40.315 Y-40.972 Z-2.000 F500.000
G2 X-39.931 Y-40.511 Z-2.000 I2.534 J-1.723 K0.000 F500.000
G1 X-40.511 Y-39.931 Z-2.000 F500.000
G2 X-40.972 Y-40.315 Z-2.000 I-2.184 J2.149 K0.000 F500.000
G1 X-41.150 Y-40.061 Z-2.000 F300.000
G2 X-41.478 Y-40.262 Z-2.000 I-1.896 J2.719 K0.000 F500.000
G1 X-40.257 Y-41.483 Z-2.000 F500.000
G2 X-39.478 Y-40.511 Z-2.000 I2.642 J-1.321 K0.000 F500.000
G1 X-40.511 Y-39.478 Z-2.000 F500.000
G2 X-41.150 Y-40.061 Z-2.000 I-2.534 J2.136 K0.000 F500.000
G1 X-41.337 Y-39.799 Z-2.000 F300.000
G2 X-41.490 Y-39.904 Z-2.000 I-2.502 J3.497 K0.000 F500.000
G2 X-42.025 Y-40.168 Z-2.000 I-0.931 J1.211 K0.000 F500.000
G1 X-40.176 Y-42.016 Z-2.000 F500.000
G2 X-39.513 Y-40.998 Z-2.000 I2.924 J-1.181 K0.000 F500.000
G1 X-39.026 Y-40.511 Z-2.000 F500.000
G1 X-40.511 Y-39.026 Z-2.000 F500.000
G2 X-41.337 Y-39.799 Z-2.000 I-3.328 J2.724 K0.000 F500.000
G0 Z5.000
G0 X-38.095 Y-42.516 Z5.000
G0 X-38.095 Y-42.516 Z3.000
G1 X-38.095 Y-42.516 Z-0.370 F300.000
G3 X-38.048 Y-43.722 Z-0.370 I0.689 J-0.577 K0.000 F500.000
G1 X-37.209 Y-44.561 Z-0.370 F500.000
G3 X-36.800 Y-44.791 Z-0.370 I0.674 J0.722 K0.000 F500.000
G3 X-35.950 Y-44.561 Z-0.370 I0.221 J0.872 K0.000 F500.000
G1 X-34.979 Y-43.591 Z-0.370 F500.000
G3 X-34.979 Y-42.332 Z-0.370 I-0.642 J0.629 K0.000 F500.000
G1 X-35.818 Y-41.493 Z-0.370 F500.000
G3 X-37.077 Y-41.493 Z-0.370 I-0.629 J-0.642 K0.000 F500.000
G1 X-38.048 Y-42.463 Z-0.370 F500.000
G3 X-38.095 Y-42.516 Z-0.370 I0.642 J-0.629 K0.000 F500.000
G1 X-38.095 Y-42.516 Z-0.740 F300.000
G3 X-38.048 Y-43.722 Z-0.740 I0.689 J-0.577 K0.000 F500.000
G1 X-37.209 Y-44.561 Z-0.740 F500.000
G3 X-36.800 Y-44.791 Z-0.740 I0.674 J0.722 K0.000 F500.000
G3 X-35.950 Y-44.561 Z-0.740 I0.221 J0.872 K0.000 F500.000
G1 X-34.979 Y-43.591 Z-0.740 F500.000
G3 X-34.979 Y-42.332 Z-0.740 I-0.642 J0.629 K0.000 F500.000
G1 X-35.818 Y-41.493 Z-0.740 F500.000
G3 X-37.077 Y-41.493 Z-0.740 I-0.629 J-0.642 K0.000 F500.000
G1 X-38.048 Y-42.463 Z-0.740 F500.000
G3 X-38.095 Y-42.516 Z-0.740 I0.642 J-0.629 K0.000 F500.000
G1 X-38.095 Y-42.516 Z-1.110 F300.000
G3 X-38.048 Y-43.722 Z-1.110 I0.689 J-0.577 K0.000 F500.000
G1 X-37.209 Y-44.561 Z-1.110 F500.000
G3 X-36.800 Y-44.791 Z-1.110 I0.674 J0.722 K0.000 F500.000
G3 X-35.950 Y-44.561 Z-1.110 I0.221 J0.872 K0.000 F500.000
G1 X-34.979 Y-43.591 Z-1.110 F500.000
G3 X-34.979 Y-42.332 Z-1.110 I-0.642 J0.629 K0.000 F500.000
G1 X-35.818 Y-41.493 Z-1.110 F500.000
G3 X-37.077 Y-41.493 Z-1.110 I-0.629 J-0.642 K0.000 F500.000
G1 X-38.048 Y-42.463 Z-1.110 F500.000
G3 X-38.095 Y-42.516 Z-1.110 I0.642 J-0.629 K0.000 F500.000
G1 X-38.095 Y-42.516 Z-1.480 F300.000
G3 X-38.048 Y-43.722 Z-1.480 I0.689 J-0.577 K0.000 F500.000
G1 X-37.209 Y-44.561 Z-1.480 F500.000
G3 X-36.800 Y-44.791 Z-1.480 I0.674 J0.722 K0.000 F500.000
G3 X-35.950 Y-44.561 Z-1.480 I0.221 J0.872 K0.000 F500.000
G1 X-34.979 Y-43.591 Z-1.480 F500.000
G3 X-34.979 Y-42.332 Z-1.480 I-0.642 J0.629 K0.000 F500.000
G1 X-35.818 Y-41.493 Z-1.480 F500.000
G3 X-37.077 Y-41.493 Z-1.480 I-0.629 J-0.642 K0.000 F500.000
G1 X-38.048 Y-42.463 Z-1.480 F500.000
G3 X-38.095 Y-42.516 Z-1.480 I0.642 J-0.629 K0.000 F500.000
G1 X-38.095 Y-42.516 Z-1.850 F300.000
G3 X-38.048 Y-43.722 Z-1.850 I0.689 J-0.577 K0.000 F500.000
G1 X-37.209 Y-44.561 Z-1.850 F500.000
G3 X-36.800 Y-44.791 Z-1.850 I0.674 J0.722 K0.000 F500.000
G3 X-35.950 Y-44.561 Z-1.850 I0.221 J0.872 K0.000 F500.000
G1 X-34.979 Y-43.591 Z-1.850 F500.000
G3 X-34.979 Y-42.332 Z-1.850 I-0.642 J0.629 K0.000 F500.000
G1 X-35.818 Y-41.493 Z-1.850 F500.000
G3 X-37.077 Y-41.493 Z-1.850 I-0.629 J-0.642 K0.000 F500.000
G1 X-38.048 Y-42.463 Z-1.850 F500.000
G3 X-38.095 Y-42.516 Z-1.850 I0.642 J-0.629 K0.000 F500.000
G1 X-38.095 Y-42.516 Z-2.000 F300.000
G3 X-38.048 Y-43.722 Z-2.000 I0.689 J-0.577 K0.000 F500.000
G1 X-37.209 Y-44.561 Z-2.000 F500.000
G3 X-36.800 Y-44.791 Z-2.000 I0.674 J0.722 K0.000 F500.000
G3 X-35.950 Y-44.561 Z-2.000 I0.221 J0.872 K0.000 F500.000
G1 X-34.979 Y-43.591 Z-2.000 F500.000
G3 X-34.979 Y-42.332 Z-2.000 I-0.642 J0.629 K0.000 F500.000
G1 X-35.818 Y-41.493 Z-2.000 F500.000
G3 X-37.077 Y-41.493 Z-2.000 I-0.629 J-0.642 K0.000 F500.000
G1 X-38.048 Y-42.463 Z-2.000 F500.000
G3 X-38.095 Y-42.516 Z-2.000 I0.642 J-0.629 K0.000 F500.000
G0 Z5.000
G0 Z5.000
G0 X-38.095 Y-42.516
G0 X-10.455 Y-58.071
G0 X-10.455 Y-58.071 Z3.000
G1 X-10.455 Y-58.071 Z-0.370 F300.000
G1 X-10.455 Y-62.656 Z-0.370 F500.000
G1 X-9.781 Y-62.656 Z-0.370 F500.000
G1 X-9.781 Y-59.712 Z-0.370 F500.000
G2 X-8.854 Y-58.784 Z-0.370 I0.937 J-0.010 K0.000 F500.000
G1 X-7.354 Y-58.784 Z-0.370 F500.000
G2 X-6.468 Y-59.671 Z-0.370 I-0.009 J-0.895 K0.000 F500.000
G1 X-6.468 Y-63.027 Z-0.370 F500.000
G1 X-4.891 Y-64.572 Z-0.370 F500.000
G1 X-2.114 Y-64.572 Z-0.370 F500.000
G1 X-2.114 Y-63.936 Z-0.370 F500.000
G1 X-5.029 Y-63.936 Z-0.370 F500.000
G2 X-5.946 Y-63.020 Z-0.370 I0.009 J0.926 K0.000 F500.000
G1 X-5.946 Y-61.578 Z-0.370 F500.000
G2 X-5.068 Y-60.701 Z-0.370 I0.886 J-0.008 K0.000 F500.000
G1 X4.228 Y-60.701 Z-0.370 F500.000
G2 X5.106 Y-61.578 Z-0.370 I-0.008 J-0.886 K0.000 F500.000
G1 X5.106 Y-63.020 Z-0.370 F500.000
G2 X4.189 Y-63.936 Z-0.370 I-0.926 J0.009 K0.000 F500.000
G1 X1.272 Y-63.936 Z-0.370 F500.000
G1 X1.272 Y-64.573 Z-0.370 F500.000
G1 X4.051 Y-64.573 Z-0.370 F500.000
G1 X5.628 Y-63.027 Z-0.370 F500.000
G1 X5.628 Y-59.671 Z-0.370 F500.000
G2 X6.514 Y-58.784 Z-0.370 I0.895 J-0.009 K0.000 F500.000
G1 X8.012 Y-58.784 Z-0.370 F500.000
G2 X8.940 Y-59.712 Z-0.370 I-0.010 J-0.937 K0.000 F500.000
G1 X8.940 Y-62.656 Z-0.370 F500.000
G1 X9.615 Y-62.656 Z-0.370 F500.000
G1 X9.615 Y-58.071 Z-0.370 F500.000
G1 X8.544 Y-58.071 Z-0.370 F500.000
G2 X7.660 Y-57.186 Z-0.370 I0.009 J0.893 K0.000 F500.000
G1 X7.660 Y-56.077 Z-0.370 F500.000
G1 X6.426 Y-56.077 Z-0.370 F500.000
G2 X5.551 Y-55.202 Z-0.370 I0.008 J0.883 K0.000 F500.000
G1 X5.551 Y-54.198 Z-0.370 F500.000
G1 X4.654 Y-54.198 Z-0.370 F500.000
G2 X4.056 Y-52.880 Z-0.370 I0.000 J0.795 K0.000 F500.000
G1 X5.551 Y-51.171 Z-0.370 F500.000
G1 X5.551 Y-50.250 Z-0.370 F500.000
G1 X4.727 Y-50.250 Z-0.370 F500.000
G1 X2.997 Y-51.948 Z-0.370 F500.000
G1 X2.997 Y-53.293 Z-0.370 F500.000
G2 X2.091 Y-54.198 Z-0.370 I-0.915 J0.009 K0.000 F500.000
G1 X-2.931 Y-54.198 Z-0.370 F500.000
G2 X-3.837 Y-53.293 Z-0.370 I0.009 J0.915 K0.000 F500.000
G1 X-3.837 Y-51.948 Z-0.370 F500.000
G1 X-5.567 Y-50.250 Z-0.370 F500.000
G1 X-6.391 Y-50.250 Z-0.370 F500.000
G1 X-6.391 Y-51.171 Z-0.370 F500.000
G1 X-4.896 Y-52.880 Z-0.370 F500.000
G2 X-5.494 Y-54.198 Z-0.370 I-0.599 J-0.524 K0.000 F500.000
G1 X-6.391 Y-54.198 Z-0.370 F500.000
G2 X-6.403 Y-55.327 Z-0.370 I-5.735 J-0.502 K0.000 F500.000
G2 X-7.266 Y-56.077 Z-0.370 I-0.870 J0.129 K0.000 F500.000
G1 X-8.501 Y-56.077 Z-0.370 F500.000
G1 X-8.501 Y-57.186 Z-0.370 F500.000
G2 X-9.386 Y-58.071 Z-0.370 I-0.893 J0.009 K0.000 F500.000
G1 X-10.455 Y-58.071 Z-0.370 F500.000
G1 X-10.455 Y-58.071 Z-0.740 F300.000
G1 X-10.455 Y-62.656 Z-0.740 F500.000
G1 X-9.781 Y-62.656 Z-0.740 F500.000
G1 X-9.781 Y-59.712 Z-0.740 F500.000
G2 X-8.854 Y-58.784 Z-0.740 I0.937 J-0.010 K0.000 F500.000
G1 X-7.354 Y-58.784 Z-0.740 F500.000
G2 X-6.468 Y-59.671 Z-0.740 I-0.009 J-0.895 K0.000 F500.000
G1 X-6.468 Y-63.027 Z-0.740 F500.000
G1 X-4.891 Y-64.572 Z-0.740 F500.000
G1 X-2.114 Y-64.572 Z-0.740 F500.000
G1 X-2.114 Y-63.936 Z-0.740 F500.000
G1 X-5.029 Y-63.936 Z-0.740 F500.000
G2 X-5.946 Y-63.020 Z-0.740 I0.009 J0.926 K0.000 F500.000
G1 X-5.946 Y-61.578 Z-0.740 F500.000
G2 X-5.068 Y-60.701 Z-0.740 I0.886 J-0.008 K0.000 F500.000
G1 X4.228 Y-60.701 Z-0.740 F500.000
G2 X5.106 Y-61.578 Z-0.740 I-0.008 J-0.886 K0.000 F500.000
G1 X5.106 Y-63.020 Z-0.740 F500.000
G2 X4.189 Y-63.936 Z-0.740 I-0.926 J0.009 K0.000 F500.000
G1 X1.272 Y-63.936 Z-0.740 F500.000
G1 X1.272 Y-64.573 Z-0.740 F500.000
G1 X4.051 Y-64.573 Z-0.740 F500.000
G1 X5.628 Y-63.027 Z-0.740 F500.000
G1 X5.628 Y-59.671 Z-0.740 F500.000
G2 X6.514 Y-58.784 Z-0.740 I0.895 J-0.009 K0.000 F500.000
G1 X8.012 Y-58.784 Z-0.740 F500.000
G2 X8.940 Y-59.712 Z-0.740 I-0.010 J-0.937 K0.000 F500.000
G1 X8.940 Y-62.656 Z-0.740 F500.000
G1 X9.615 Y-62.656 Z-0.740 F500.000
G1 X9.615 Y-58.071 Z-0.740 F500.000
G1 X8.544 Y-58.071 Z-0.740 F500.000
G2 X7.660 Y-57.186 Z-0.740 I0.009 J0.893 K0.000 F500.000
G1 X7.660 Y-56.077 Z-0.740 F500.000
G1 X6.426 Y-56.077 Z-0.740 F500.000
G2 X5.551 Y-55.202 Z-0.740 I0.008 J0.883 K0.000 F500.000
G1 X5.551 Y-54.198 Z-0.740 F500.000
G1 X4.654 Y-54.198 Z-0.740 F500.000
G2 X4.056 Y-52.880 Z-0.740 I0.000 J0.795 K0.000 F500.000
G1 X5.551 Y-51.171 Z-0.740 F500.000
G1 X5.551 Y-50.250 Z-0.740 F500.000
G1 X4.727 Y-50.250 Z-0.740 F500.000
G1 X2.997 Y-51.948 Z-0.740 F500.000
G1 X2.997 Y-53.293 Z-0.740 F500.000
G2 X2.091 Y-54.198 Z-0.740 I-0.915 J0.009 K0.000 F500.000
G1 X-2.931 Y-54.198 Z-0.740 F500.000
G2 X-3.837 Y-53.293 Z-0.740 I0.009 J0.915 K0.000 F500.000
G1 X-3.837 Y-51.948 Z-0.740 F500.000
G1 X-5.567 Y-50.250 Z-0.740 F500.000
G1 X-6.391 Y-50.250 Z-0.740 F500.000
G1 X-6.391 Y-51.171 Z-0.740 F500.000
G1 X-4.896 Y-52.880 Z-0.740 F500.000
G2 X-5.494 Y-54.198 Z-0.740 I-0.599 J-0.524 K0.000 F500.000
G1 X-6.391 Y-54.198 Z-0.740 F500.000
G2 X-6.403 Y-55.327 Z-0.740 I-5.735 J-0.502 K0.000 F500.000
G2 X-7.266 Y-56.077 Z-0.740 I-0.870 J0.129 K0.000 F500.000
G1 X-8.501 Y-56.077 Z-0.740 F500.000
G1 X-8.501 Y-57.186 Z-0.740 F500.000
G2 X-9.386 Y-58.071 Z-0.740 I-0.893 J0.009 K0.000 F500.000
G1 X-10.455 Y-58.071 Z-0.740 F500.000
G1 X-10.455 Y-58.071 Z-1.110 F300.000
G1 X-10.455 Y-62.656 Z-1.110 F500.000
G1 X-9.781 Y-62.656 Z-1.110 F500.000
G1 X-9.781 Y-59.712 Z-1.110 F500.000
G2 X-8.854 Y-58.784 Z-1.110 I0.937 J-0.010 K0.000 F500.000
G1 X-7.354 Y-58.784 Z-1.110 F500.000
G2 X-6.468 Y-59.671 Z-1.110 I-0.009 J-0.895 K0.000 F500.000
G1 X-6.468 Y-63.027 Z-1.110 F500.000
G1 X-4.891 Y-64.572 Z-1.110 F500.000
G1 X-2.114 Y-64.572 Z-1.110 F500.000
G1 X-2.114 Y-63.936 Z-1.110 F500.000
G1 X-5.029 Y-63.936 Z-1.110 F500.000
G2 X-5.946 Y-63.020 Z-1.110 I0.009 J0.926 K0.000 F500.000
G1 X-5.946 Y-61.578 Z-1.110 F500.000
G2 X-5.068 Y-60.701 Z-1.110 I0.886 J-0.008 K0.000 F500.000
G1 X4.228 Y-60.701 Z-1.110 F500.000
G2 X5.106 Y-61.578 Z-1.110 I-0.008 J-0.886 K0.000 F500.000
G1 X5.106 Y-63.020 Z-1.110 F500.000
G2 X4.189 Y-63.936 Z-1.110 I-0.926 J0.009 K0.000 F500.000
G1 X1.272 Y-63.936 Z-1.110 F500.000
G1 X1.272 Y-64.573 Z-1.110 F500.000
G1 X4.051 Y-64.573 Z-1.110 F500.000
G1 X5.628 Y-63.027 Z-1.110 F500.000
G1 X5.628 Y-59.671 Z-1.110 F500.000
G2 X6.514 Y-58.784 Z-1.110 I0.895 J-0.009 K0.000 F500.000
G1 X8.012 Y-58.784 Z-1.110 F500.000
G2 X8.940 Y-59.712 Z-1.110 I-0.010 J-0.937 K0.000 F500.000
G1 X8.940 Y-62.656 Z-1.110 F500.000
G1 X9.615 Y-62.656 Z-1.110 F500.000
G1 X9.615 Y-58.071 Z-1.110 F500.000
G1 X8.544 Y-58.071 Z-1.110 F500.000
G2 X7.660 Y-57.186 Z-1.110 I0.009 J0.893 K0.000 F500.000
G1 X7.660 Y-56.077 Z-1.110 F500.000
G1 X6.426 Y-56.077 Z-1.110 F500.000
G2 X5.551 Y-55.202 Z-1.110 I0.008 J0.883 K0.000 F500.000
G1 X5.551 Y-54.198 Z-1.110 F500.000
G1 X4.654 Y-54.198 Z-1.110 F500.000
G2 X4.056 Y-52.880 Z-1.110 I0.000 J0.795 K0.000 F500.000
G1 X5.551 Y-51.171 Z-1.110 F500.000
G1 X5.551 Y-50.250 Z-1.110 F500.000
G1 X4.727 Y-50.250 Z-1.110 F500.000
G1 X2.997 Y-51.948 Z-1.110 F500.000
G1 X2.997 Y-53.293 Z-1.110 F500.000
G2 X2.091 Y-54.198 Z-1.110 I-0.915 J0.009 K0.000 F500.000
G1 X-2.931 Y-54.198 Z-1.110 F500.000
G2 X-3.837 Y-53.293 Z-1.110 I0.009 J0.915 K0.000 F500.000
G1 X-3.837 Y-51.948 Z-1.110 F500.000
G1 X-5.567 Y-50.250 Z-1.110 F500.000
G1 X-6.391 Y-50.250 Z-1.110 F500.000
G1 X-6.391 Y-51.171 Z-1.110 F500.000
G1 X-4.896 Y-52.880 Z-1.110 F500.000
G2 X-5.494 Y-54.198 Z-1.110 I-0.599 J-0.524 K0.000 F500.000
G1 X-6.391 Y-54.198 Z-1.110 F500.000
G2 X-6.403 Y-55.327 Z-1.110 I-5.735 J-0.502 K0.000 F500.000
G2 X-7.266 Y-56.077 Z-1.110 I-0.870 J0.129 K0.000 F500.000
G1 X-8.501 Y-56.077 Z-1.110 F500.000
G1 X-8.501 Y-57.186 Z-1.110 F500.000
G2 X-9.386 Y-58.071 Z-1.110 I-0.893 J0.009 K0.000 F500.000
G1 X-10.455 Y-58.071 Z-1.110 F500.000
G1 X-10.455 Y-58.071 Z-1.480 F300.000
G1 X-10.455 Y-62.656 Z-1.480 F500.000
G1 X-9.781 Y-62.656 Z-1.480 F500.000
G1 X-9.781 Y-59.712 Z-1.480 F500.000
G2 X-8.854 Y-58.784 Z-1.480 I0.937 J-0.010 K0.000 F500.000
G1 X-7.354 Y-58.784 Z-1.480 F500.000
G2 X-6.468 Y-59.671 Z-1.480 I-0.009 J-0.895 K0.000 F500.000
G1 X-6.468 Y-63.027 Z-1.480 F500.000
G1 X-4.891 Y-64.572 Z-1.480 F500.000
G1 X-2.114 Y-64.572 Z-1.480 F500.000
G1 X-2.114 Y-63.936 Z-1.480 F500.000
G1 X-5.029 Y-63.936 Z-1.480 F500.000
G2 X-5.946 Y-63.020 Z-1.480 I0.009 J0.926 K0.000 F500.000
G1 X-5.946 Y-61.578 Z-1.480 F500.000
G2 X-5.068 Y-60.701 Z-1.480 I0.886 J-0.008 K0.000 F500.000
G1 X4.228 Y-60.701 Z-1.480 F500.000
G2 X5.106 Y-61.578 Z-1.480 I-0.008 J-0.886 K0.000 F500.000
G1 X5.106 Y-63.020 Z-1.480 F500.000
G2 X4.189 Y-63.936 Z-1.480 I-0.926 J0.009 K0.000 F500.000
G1 X1.272 Y-63.936 Z-1.480 F500.000
G1 X1.272 Y-64.573 Z-1.480 F500.000
G1 X4.051 Y-64.573 Z-1.480 F500.000
G1 X5.628 Y-63.027 Z-1.480 F500.000
G1 X5.628 Y-59.671 Z-1.480 F500.000
G2 X6.514 Y-58.784 Z-1.480 I0.895 J-0.009 K0.000 F500.000
G1 X8.012 Y-58.784 Z-1.480 F500.000
G2 X8.940 Y-59.712 Z-1.480 I-0.010 J-0.937 K0.000 F500.000
G1 X8.940 Y-62.656 Z-1.480 F500.000
G1 X9.615 Y-62.656 Z-1.480 F500.000
G1 X9.615 Y-58.071 Z-1.480 F500.000
G1 X8.544 Y-58.071 Z-1.480 F500.000
G2 X7.660 Y-57.186 Z-1.480 I0.009 J0.893 K0.000 F500.000
G1 X7.660 Y-56.077 Z-1.480 F500.000
G1 X6.426 Y-56.077 Z-1.480 F500.000
G2 X5.551 Y-55.202 Z-1.480 I0.008 J0.883 K0.000 F500.000
G1 X5.551 Y-54.198 Z-1.480 F500.000
G1 X4.654 Y-54.198 Z-1.480 F500.000
G2 X4.056 Y-52.880 Z-1.480 I0.000 J0.795 K0.000 F500.000
G1 X5.551 Y-51.171 Z-1.480 F500.000
G1 X5.551 Y-50.250 Z-1.480 F500.000
G1 X4.727 Y-50.250 Z-1.480 F500.000
G1 X2.997 Y-51.948 Z-1.480 F500.000
G1 X2.997 Y-53.293 Z-1.480 F500.000
G2 X2.091 Y-54.198 Z-1.480 I-0.915 J0.009 K0.000 F500.000
G1 X-2.931 Y-54.198 Z-1.480 F500.000
G2 X-3.837 Y-53.293 Z-1.480 I0.009 J0.915 K0.000 F500.000
G1 X-3.837 Y-51.948 Z-1.480 F500.000
G1 X-5.567 Y-50.250 Z-1.480 F500.000
G1 X-6.391 Y-50.250 Z-1.480 F500.000
G1 X-6.391 Y-51.171 Z-1.480 F500.000
G1 X-4.896 Y-52.880 Z-1.480 F500.000
G2 X-5.494 Y-54.198 Z-1.480 I-0.599 J-0.524 K0.000 F500.000
G1 X-6.391 Y-54.198 Z-1.480 F500.000
G2 X-6.403 Y-55.327 Z-1.480 I-5.735 J-0.502 K0.000 F500.000
G2 X-7.266 Y-56.077 Z-1.480 I-0.870 J0.129 K0.000 F500.000
G1 X-8.501 Y-56.077 Z-1.480 F500.000
G1 X-8.501 Y-57.186 Z-1.480 F500.000
G2 X-9.386 Y-58.071 Z-1.480 I-0.893 J0.009 K0.000 F500.000
G1 X-10.455 Y-58.071 Z-1.480 F500.000
G1 X-10.455 Y-58.071 Z-1.850 F300.000
G1 X-10.455 Y-62.656 Z-1.850 F500.000
G1 X-9.781 Y-62.656 Z-1.850 F500.000
G1 X-9.781 Y-59.712 Z-1.850 F500.000
G2 X-8.854 Y-58.784 Z-1.850 I0.937 J-0.010 K0.000 F500.000
G1 X-7.354 Y-58.784 Z-1.850 F500.000
G2 X-6.468 Y-59.671 Z-1.850 I-0.009 J-0.895 K0.000 F500.000
G1 X-6.468 Y-63.027 Z-1.850 F500.000
G1 X-4.891 Y-64.572 Z-1.850 F500.000
G1 X-2.114 Y-64.572 Z-1.850 F500.000
G1 X-2.114 Y-63.936 Z-1.850 F500.000
G1 X-5.029 Y-63.936 Z-1.850 F500.000
G2 X-5.946 Y-63.020 Z-1.850 I0.009 J0.926 K0.000 F500.000
G1 X-5.946 Y-61.578 Z-1.850 F500.000
G2 X-5.068 Y-60.701 Z-1.850 I0.886 J-0.008 K0.000 F500.000
G1 X4.228 Y-60.701 Z-1.850 F500.000
G2 X5.106 Y-61.578 Z-1.850 I-0.008 J-0.886 K0.000 F500.000
G1 X5.106 Y-63.020 Z-1.850 F500.000
G2 X4.189 Y-63.936 Z-1.850 I-0.926 J0.009 K0.000 F500.000
G1 X1.272 Y-63.936 Z-1.850 F500.000
G1 X1.272 Y-64.573 Z-1.850 F500.000
G1 X4.051 Y-64.573 Z-1.850 F500.000
G1 X5.628 Y-63.027 Z-1.850 F500.000
G1 X5.628 Y-59.671 Z-1.850 F500.000
G2 X6.514 Y-58.784 Z-1.850 I0.895 J-0.009 K0.000 F500.000
G1 X8.012 Y-58.784 Z-1.850 F500.000
G2 X8.940 Y-59.712 Z-1.850 I-0.010 J-0.937 K0.000 F500.000
G1 X8.940 Y-62.656 Z-1.850 F500.000
G1 X9.615 Y-62.656 Z-1.850 F500.000
G1 X9.615 Y-58.071 Z-1.850 F500.000
G1 X8.544 Y-58.071 Z-1.850 F500.000
G2 X7.660 Y-57.186 Z-1.850 I0.009 J0.893 K0.000 F500.000
G1 X7.660 Y-56.077 Z-1.850 F500.000
G1 X6.426 Y-56.077 Z-1.850 F500.000
G2 X5.551 Y-55.202 Z-1.850 I0.008 J0.883 K0.000 F500.000
G1 X5.551 Y-54.198 Z-1.850 F500.000
G1 X4.654 Y-54.198 Z-1.850 F500.000
G2 X4.056 Y-52.880 Z-1.850 I0.000 J0.795 K0.000 F500.000
G1 X5.551 Y-51.171 Z-1.850 F500.000
G1 X5.551 Y-50.250 Z-1.850 F500.000
G1 X4.727 Y-50.250 Z-1.850 F500.000
G1 X2.997 Y-51.948 Z-1.850 F500.000
G1 X2.997 Y-53.293 Z-1.850 F500.000
G2 X2.091 Y-54.198 Z-1.850 I-0.915 J0.009 K0.000 F500.000
G1 X-2.931 Y-54.198 Z-1.850 F500.000
G2 X-3.837 Y-53.293 Z-1.850 I0.009 J0.915 K0.000 F500.000
G1 X-3.837 Y-51.948 Z-1.850 F500.000
G1 X-5.567 Y-50.250 Z-1.850 F500.000
G1 X-6.391 Y-50.250 Z-1.850 F500.000
G1 X-6.391 Y-51.171 Z-1.850 F500.000
G1 X-4.896 Y-52.880 Z-1.850 F500.000
G2 X-5.494 Y-54.198 Z-1.850 I-0.599 J-0.524 K0.000 F500.000
G1 X-6.391 Y-54.198 Z-1.850 F500.000
G2 X-6.403 Y-55.327 Z-1.850 I-5.735 J-0.502 K0.000 F500.000
G2 X-7.266 Y-56.077 Z-1.850 I-0.870 J0.129 K0.000 F500.000
G1 X-8.501 Y-56.077 Z-1.850 F500.000
G1 X-8.501 Y-57.186 Z-1.850 F500.000
G2 X-9.386 Y-58.071 Z-1.850 I-0.893 J0.009 K0.000 F500.000
G1 X-10.455 Y-58.071 Z-1.850 F500.000
G1 X-10.455 Y-58.071 Z-2.000 F300.000
G1 X-10.455 Y-62.656 Z-2.000 F500.000
G1 X-9.781 Y-62.656 Z-2.000 F500.000
G1 X-9.781 Y-59.712 Z-2.000 F500.000
G2 X-8.854 Y-58.784 Z-2.000 I0.937 J-0.010 K0.000 F500.000
G1 X-7.354 Y-58.784 Z-2.000 F500.000
G2 X-6.468 Y-59.671 Z-2.000 I-0.009 J-0.895 K0.000 F500.000
G1 X-6.468 Y-63.027 Z-2.000 F500.000
G1 X-4.891 Y-64.572 Z-2.000 F500.000
G1 X-2.114 Y-64.572 Z-2.000 F500.000
G1 X-2.114 Y-63.936 Z-2.000 F500.000
G1 X-5.029 Y-63.936 Z-2.000 F500.000
G2 X-5.946 Y-63.020 Z-2.000 I0.009 J0.926 K0.000 F500.000
G1 X-5.946 Y-61.578 Z-2.000 F500.000
G2 X-5.068 Y-60.701 Z-2.000 I0.886 J-0.008 K0.000 F500.000
G1 X4.228 Y-60.701 Z-2.000 F500.000
G2 X5.106 Y-61.578 Z-2.000 I-0.008 J-0.886 K0.000 F500.000
G1 X5.106 Y-63.020 Z-2.000 F500.000
G2 X4.189 Y-63.936 Z-2.000 I-0.926 J0.009 K0.000 F500.000
G1 X1.272 Y-63.936 Z-2.000 F500.000
G1 X1.272 Y-64.573 Z-2.000 F500.000
G1 X4.051 Y-64.573 Z-2.000 F500.000
G1 X5.628 Y-63.027 Z-2.000 F500.000
G1 X5.628 Y-59.671 Z-2.000 F500.000
G2 X6.514 Y-58.784 Z-2.000 I0.895 J-0.009 K0.000 F500.000
G1 X8.012 Y-58.784 Z-2.000 F500.000
G2 X8.940 Y-59.712 Z-2.000 I-0.010 J-0.937 K0.000 F500.000
G1 X8.940 Y-62.656 Z-2.000 F500.000
G1 X9.615 Y-62.656 Z-2.000 F500.000
G1 X9.615 Y-58.071 Z-2.000 F500.000
G1 X8.544 Y-58.071 Z-2.000 F500.000
G2 X7.660 Y-57.186 Z-2.000 I0.009 J0.893 K0.000 F500.000
G1 X7.660 Y-56.077 Z-2.000 F500.000
G1 X6.426 Y-56.077 Z-2.000 F500.000
G2 X5.551 Y-55.202 Z-2.000 I0.008 J0.883 K0.000 F500.000
G1 X5.551 Y-54.198 Z-2.000 F500.000
G1 X4.654 Y-54.198 Z-2.000 F500.000
G2 X4.056 Y-52.880 Z-2.000 I0.000 J0.795 K0.000 F500.000
G1 X5.551 Y-51.171 Z-2.000 F500.000
G1 X5.551 Y-50.250 Z-2.000 F500.000
G1 X4.727 Y-50.250 Z-2.000 F500.000
G1 X2.997 Y-51.948 Z-2.000 F500.000
G1 X2.997 Y-53.293 Z-2.000 F500.000
G2 X2.091 Y-54.198 Z-2.000 I-0.915 J0.009 K0.000 F500.000
G1 X-2.931 Y-54.198 Z-2.000 F500.000
G2 X-3.837 Y-53.293 Z-2.000 I0.009 J0.915 K0.000 F500.000
G1 X-3.837 Y-51.948 Z-2.000 F500.000
G1 X-5.567 Y-50.250 Z-2.000 F500.000
G1 X-6.391 Y-50.250 Z-2.000 F500.000
G1 X-6.391 Y-51.171 Z-2.000 F500.000
G1 X-4.896 Y-52.880 Z-2.000 F500.000
G2 X-5.494 Y-54.198 Z-2.000 I-0.599 J-0.524 K0.000 F500.000
G1 X-6.391 Y-54.198 Z-2.000 F500.000
G2 X-6.403 Y-55.327 Z-2.000 I-5.735 J-0.502 K0.000 F500.000
G2 X-7.266 Y-56.077 Z-2.000 I-0.870 J0.129 K0.000 F500.000
G1 X-8.501 Y-56.077 Z-2.000 F500.000
G1 X-8.501 Y-57.186 Z-2.000 F500.000
G2 X-9.386 Y-58.071 Z-2.000 I-0.893 J0.009 K0.000 F500.000
G1 X-10.455 Y-58.071 Z-2.000 F500.000
G0 Z5.000
G0 X-7.560 Y-57.748 Z5.000
G0 X-7.560 Y-57.748 Z3.000
G1 X-7.560 Y-57.748 Z-0.370 F300.000
G2 X-6.848 Y-57.826 Z-0.370 I0.152 J-1.911 K0.000 F500.000
G2 X-6.955 Y-57.082 Z-0.370 I1.918 J0.654 K0.000 F500.000
G2 X-7.465 Y-57.113 Z-0.370 I-0.411 J2.575 K0.000 F500.000
G2 X-7.560 Y-57.748 Z-0.370 I-1.773 J-0.059 K0.000 F500.000
G1 X-7.560 Y-57.748 Z-0.740 F300.000
G2 X-6.848 Y-57.826 Z-0.740 I0.152 J-1.911 K0.000 F500.000
G2 X-6.955 Y-57.082 Z-0.740 I1.918 J0.654 K0.000 F500.000
G2 X-7.465 Y-57.113 Z-0.740 I-0.411 J2.575 K0.000 F500.000
G2 X-7.560 Y-57.748 Z-0.740 I-1.773 J-0.059 K0.000 F500.000
G1 X-7.560 Y-57.748 Z-1.110 F300.000
G2 X-6.848 Y-57.826 Z-1.110 I0.152 J-1.911 K0.000 F500.000
G2 X-6.955 Y-57.082 Z-1.110 I1.918 J0.654 K0.000 F500.000
G2 X-7.465 Y-57.113 Z-1.110 I-0.411 J2.575 K0.000 F500.000
G2 X-7.560 Y-57.748 Z-1.110 I-1.773 J-0.059 K0.000 F500.000
G1 X-7.560 Y-57.748 Z-1.480 F300.000
G2 X-6.848 Y-57.826 Z-1.480 I0.152 J-1.911 K0.000 F500.000
G2 X-6.955 Y-57.082 Z-1.480 I1.918 J0.654 K0.000 F500.000
G2 X-7.465 Y-57.113 Z-1.480 I-0.411 J2.575 K0.000 F500.000
G2 X-7.560 Y-57.748 Z-1.480 I-1.773 J-0.059 K0.000 F500.000
G1 X-7.560 Y-57.748 Z-1.850 F300.000
G2 X-6.848 Y-57.826 Z-1.850 I0.152 J-1.911 K0.000 F500.000
G2 X-6.955 Y-57.082 Z-1.850 I1.918 J0.654 K0.000 F500.000
G2 X-7.465 Y-57.113 Z-1.850 I-0.411 J2.575 K0.000 F500.000
G2 X-7.560 Y-57.748 Z-1.850 I-1.773 J-0.059 K0.000 F500.000
G1 X-7.560 Y-57.748 Z-2.000 F300.000
G2 X-6.848 Y-57.826 Z-2.000 I0.152 J-1.911 K0.000 F500.000
G2 X-6.955 Y-57.082 Z-2.000 I1.918 J0.654 K0.000 F500.000
G2 X-7.465 Y-57.113 Z-2.000 I-0.411 J2.575 K0.000 F500.000
G2 X-7.560 Y-57.748 Z-2.000 I-1.773 J-0.059 K0.000 F500.000
G0 Z5.000
G0 X-5.899 Y-57.392 Z5.000
G0 X-5.899 Y-57.392 Z3.000
G1 X-5.899 Y-57.392 Z-0.370 F300.000
G3 X-5.039 Y-58.095 Z-0.370 I0.869 J0.186 K0.000 F500.000
G1 X-3.436 Y-58.095 Z-0.370 F500.000
G3 X-2.556 Y-57.215 Z-0.370 I-0.009 J0.889 K0.000 F500.000
G1 X-2.556 Y-55.675 Z-0.370 F500.000
G3 X-3.436 Y-54.795 Z-0.370 I-0.889 J-0.009 K0.000 F500.000
G1 X-5.039 Y-54.795 Z-0.370 F500.000
G3 X-5.919 Y-55.675 Z-0.370 I0.009 J-0.889 K0.000 F500.000
G1 X-5.919 Y-57.215 Z-0.370 F500.000
G3 X-5.899 Y-57.392 Z-0.370 I0.889 J0.009 K0.000 F500.000
G1 X-5.899 Y-57.392 Z-0.740 F300.000
G3 X-5.039 Y-58.095 Z-0.740 I0.869 J0.186 K0.000 F500.000
G1 X-3.436 Y-58.095 Z-0.740 F500.000
G3 X-2.556 Y-57.215 Z-0.740 I-0.009 J0.889 K0.000 F500.000
G1 X-2.556 Y-55.675 Z-0.740 F500.000
G3 X-3.436 Y-54.795 Z-0.740 I-0.889 J-0.009 K0.000 F500.000
G1 X-5.039 Y-54.795 Z-0.740 F500.000
G3 X-5.919 Y-55.675 Z-0.740 I0.009 J-0.889 K0.000 F500.000
G1 X-5.919 Y-57.215 Z-0.740 F500.000
G3 X-5.899 Y-57.392 Z-0.740 I0.889 J0.009 K0.000 F500.000
G1 X-5.899 Y-57.392 Z-1.110 F300.000
G3 X-5.039 Y-58.095 Z-1.110 I0.869 J0.186 K0.000 F500.000
G1 X-3.436 Y-58.095 Z-1.110 F500.000
G3 X-2.556 Y-57.215 Z-1.110 I-0.009 J0.889 K0.000 F500.000
G1 X-2.556 Y-55.675 Z-1.110 F500.000
G3 X-3.436 Y-54.795 Z-1.110 I-0.889 J-0.009 K0.000 F500.000
G1 X-5.039 Y-54.795 Z-1.110 F500.000
G3 X-5.919 Y-55.675 Z-1.110 I0.009 J-0.889 K0.000 F500.000
G1 X-5.919 Y-57.215 Z-1.110 F500.000
G3 X-5.899 Y-57.392 Z-1.110 I0.889 J0.009 K0.000 F500.000
G1 X-5.899 Y-57.392 Z-1.480 F300.000
G3 X-5.039 Y-58.095 Z-1.480 I0.869 J0.186 K0.000 F500.000
G1 X-3.436 Y-58.095 Z-1.480 F500.000
G3 X-2.556 Y-57.215 Z-1.480 I-0.009 J0.889 K0.000 F500.000
G1 X-2.556 Y-55.675 Z-1.480 F500.000
G3 X-3.436 Y-54.795 Z-1.480 I-0.889 J-0.009 K0.000 F500.000
G1 X-5.039 Y-54.795 Z-1.480 F500.000
G3 X-5.919 Y-55.675 Z-1.480 I0.009 J-0.889 K0.000 F500.000
G1 X-5.919 Y-57.215 Z-1.480 F500.000
G3 X-5.899 Y-57.392 Z-1.480 I0.889 J0.009 K0.000 F500.000
G1 X-5.899 Y-57.392 Z-1.850 F300.000
G3 X-5.039 Y-58.095 Z-1.850 I0.869 J0.186 K0.000 F500.000
G1 X-3.436 Y-58.095 Z-1.850 F500.000
G3 X-2.556 Y-57.215 Z-1.850 I-0.009 J0.889 K0.000 F500.000
G1 X-2.556 Y-55.675 Z-1.850 F500.000
G3 X-3.436 Y-54.795 Z-1.850 I-0.889 J-0.009 K0.000 F500.000
G1 X-5.039 Y-54.795 Z-1.850 F500.000
G3 X-5.919 Y-55.675 Z-1.850 I0.009 J-0.889 K0.000 F500.000
G1 X-5.919 Y-57.215 Z-1.850 F500.000
G3 X-5.899 Y-57.392 Z-1.850 I0.889 J0.009 K0.000 F500.000
G1 X-5.899 Y-57.392 Z-2.000 F300.000
G3 X-5.039 Y-58.095 Z-2.000 I0.869 J0.186 K0.000 F500.000
G1 X-3.436 Y-58.095 Z-2.000 F500.000
G3 X-2.556 Y-57.215 Z-2.000 I-0.009 J0.889 K0.000 F500.000
G1 X-2.556 Y-55.675 Z-2.000 F500.000
G3 X-3.436 Y-54.795 Z-2.000 I-0.889 J-0.009 K0.000 F500.000
G1 X-5.039 Y-54.795 Z-2.000 F500.000
G3 X-5.919 Y-55.675 Z-2.000 I0.009 J-0.889 K0.000 F500.000
G1 X-5.919 Y-57.215 Z-2.000 F500.000
G3 X-5.899 Y-57.392 Z-2.000 I0.889 J0.009 K0.000 F500.000
G0 Z5.000
G0 X-5.540 Y-59.055 Z5.000
G0 X-5.540 Y-59.055 Z3.000
G1 X-5.540 Y-59.055 Z-0.370 F300.000
G2 X-5.432 Y-59.705 Z-0.370 I-1.874 J-0.645 K0.000 F500.000
G2 X-5.068 Y-59.665 Z-0.370 I0.382 J-1.825 K0.000 F500.000
G1 X4.228 Y-59.665 Z-0.370 F500.000
G2 X4.592 Y-59.704 Z-0.370 I-0.019 J-1.864 K0.000 F500.000
G2 X4.704 Y-59.055 Z-0.370 I1.831 J0.018 K0.000 F500.000
G2 X4.199 Y-59.131 Z-0.370 I-0.518 J1.738 K0.000 F500.000
G1 X2.596 Y-59.131 Z-0.370 F500.000
G2 X0.680 Y-57.215 Z-0.370 I0.000 J1.916 K0.000 F500.000
G1 X0.680 Y-55.675 Z-0.370 F500.000
G2 X0.737 Y-55.234 Z-0.370 I1.208 J0.067 K0.000 F500.000
G1 X-1.577 Y-55.234 Z-0.370 F500.000
G2 X-1.520 Y-55.675 Z-0.370 I-1.873 J-0.466 K0.000 F500.000
G1 X-1.520 Y-57.215 Z-0.370 F500.000
G2 X-3.436 Y-59.131 Z-0.370 I-1.916 J0.000 K0.000 F500.000
G1 X-5.039 Y-59.131 Z-0.370 F500.000
G2 X-5.540 Y-59.055 Z-0.370 I-0.046 J1.378 K0.000 F500.000
G1 X-5.540 Y-59.055 Z-0.740 F300.000
G2 X-5.432 Y-59.705 Z-0.740 I-1.874 J-0.645 K0.000 F500.000
G2 X-5.068 Y-59.665 Z-0.740 I0.382 J-1.825 K0.000 F500.000
G1 X4.228 Y-59.665 Z-0.740 F500.000
G2 X4.592 Y-59.704 Z-0.740 I-0.019 J-1.864 K0.000 F500.000
G2 X4.704 Y-59.055 Z-0.740 I1.831 J0.018 K0.000 F500.000
G2 X4.199 Y-59.131 Z-0.740 I-0.518 J1.738 K0.000 F500.000
G1 X2.596 Y-59.131 Z-0.740 F500.000
G2 X0.680 Y-57.215 Z-0.740 I0.000 J1.916 K0.000 F500.000
G1 X0.680 Y-55.675 Z-0.740 F500.000
G2 X0.737 Y-55.234 Z-0.740 I1.208 J0.067 K0.000 F500.000
G1 X-1.577 Y-55.234 Z-0.740 F500.000
G2 X-1.520 Y-55.675 Z-0.740 I-1.873 J-0.466 K0.000 F500.000
G1 X-1.520 Y-57.215 Z-0.740 F500.000
G2 X-3.436 Y-59.131 Z-0.740 I-1.916 J0.000 K0.000 F500.000
G1 X-5.039 Y-59.131 Z-0.740 F500.000
G2 X-5.540 Y-59.055 Z-0.740 I-0.046 J1.378 K0.000 F500.000
G1 X-5.540 Y-59.055 Z-1.110 F300.000
G2 X-5.432 Y-59.705 Z-1.110 I-1.874 J-0.645 K0.000 F500.000
G2 X-5.068 Y-59.665 Z-1.110 I0.382 J-1.825 K0.000 F500.000
G1 X4.228 Y-59.665 Z-1.110 F500.000
G2 X4.592 Y-59.704 Z-1.110 I-0.019 J-1.864 K0.000 F500.000
G2 X4.704 Y-59.055 Z-1.110 I1.831 J0.018 K0.000 F500.000
G2 X4.199 Y-59.131 Z-1.110 I-0.518 J1.738 K0.000 F500.000
G1 X2.596 Y-59.131 Z-1.110 F500.000
G2 X0.680 Y-57.215 Z-1.110 I0.000 J1.916 K0.000 F500.000
G1 X0.680 Y-55.675 Z-1.110 F500.000
G2 X0.737 Y-55.234 Z-1.110 I1.208 J0.067 K0.000 F500.000
G1 X-1.577 Y-55.234 Z-1.110 F500.000
G2 X-1.520 Y-55.675 Z-1.110 I-1.873 J-0.466 K0.000 F500.000
G1 X-1.520 Y-57.215 Z-1.110 F500.000
G2 X-3.436 Y-59.131 Z-1.110 I-1.916 J0.000 K0.000 F500.000
G1 X-5.039 Y-59.131 Z-1.110 F500.000
G2 X-5.540 Y-59.055 Z-1.110 I-0.046 J1.378 K0.000 F500.000
G1 X-5.540 Y-59.055 Z-1.480 F300.000
G2 X-5.432 Y-59.705 Z-1.480 I-1.874 J-0.645 K0.000 F500.000
G2 X-5.068 Y-59.665 Z-1.480 I0.382 J-1.825 K0.000 F500.000
G1 X4.228 Y-59.665 Z-1.480 F500.000
G2 X4.592 Y-59.704 Z-1.480 I-0.019 J-1.864 K0.000 F500.000
G2 X4.704 Y-59.055 Z-1.480 I1.831 J0.018 K0.000 F500.000
G2 X4.199 Y-59.131 Z-1.480 I-0.518 J1.738 K0.000 F500.000
G1 X2.596 Y-59.131 Z-1.480 F500.000
G2 X0.680 Y-57.215 Z-1.480 I0.000 J1.916 K0.000 F500.000
G1 X0.680 Y-55.675 Z-1.480 F500.000
G2 X0.737 Y-55.234 Z-1.480 I1.208 J0.067 K0.000 F500.000
G1 X-1.577 Y-55.234 Z-1.480 F500.000
G2 X-1.520 Y-55.675 Z-1.480 I-1.873 J-0.466 K0.000 F500.000
G1 X-1.520 Y-57.215 Z-1.480 F500.000
G2 X-3.436 Y-59.131 Z-1.480 I-1.916 J0.000 K0.000 F500.000
G1 X-5.039 Y-59.131 Z-1.480 F500.000
G2 X-5.540 Y-59.055 Z-1.480 I-0.046 J1.378 K0.000 F500.000
G1 X-5.540 Y-59.055 Z-1.850 F300.000
G2 X-5.432 Y-59.705 Z-1.850 I-1.874 J-0.645 K0.000 F500.000
G2 X-5.068 Y-59.665 Z-1.850 I0.382 J-1.825 K0.000 F500.000
G1 X4.228 Y-59.665 Z-1.850 F500.000
G2 X4.592 Y-59.704 Z-1.850 I-0.019 J-1.864 K0.000 F500.000
G2 X4.704 Y-59.055 Z-1.850 I1.831 J0.018 K0.000 F500.000
G2 X4.199 Y-59.131 Z-1.850 I-0.518 J1.738 K0.000 F500.000
G1 X2.596 Y-59.131 Z-1.850 F500.000
G2 X0.680 Y-57.215 Z-1.850 I0.000 J1.916 K0.000 F500.000
G1 X0.680 Y-55.675 Z-1.850 F500.000
G2 X0.737 Y-55.234 Z-1.850 I1.208 J0.067 K0.000 F500.000
G1 X-1.577 Y-55.234 Z-1.850 F500.000
G2 X-1.520 Y-55.675 Z-1.850 I-1.873 J-0.466 K0.000 F500.000
G1 X-1.520 Y-57.215 Z-1.850 F500.000
G2 X-3.436 Y-59.131 Z-1.850 I-1.916 J0.000 K0.000 F500.000
G1 X-5.039 Y-59.131 Z-1.850 F500.000
G2 X-5.540 Y-59.055 Z-1.850 I-0.046 J1.378 K0.000 F500.000
G1 X-5.540 Y-59.055 Z-2.000 F300.000
G2 X-5.432 Y-59.705 Z-2.000 I-1.874 J-0.645 K0.000 F500.000
G2 X-5.068 Y-59.665 Z-2.000 I0.382 J-1.825 K0.000 F500.000
G1 X4.228 Y-59.665 Z-2.000 F500.000
G2 X4.592 Y-59.704 Z-2.000 I-0.019 J-1.864 K0.000 F500.000
G2 X4.704 Y-59.055 Z-2.000 I1.831 J0.018 K0.000 F500.000
G2 X4.199 Y-59.131 Z-2.000 I-0.518 J1.738 K0.000 F500.000
G1 X2.596 Y-59.131 Z-2.000 F500.000
G2 X0.680 Y-57.215 Z-2.000 I0.000 J1.916 K0.000 F500.000
G1 X0.680 Y-55.675 Z-2.000 F500.000
G2 X0.737 Y-55.234 Z-2.000 I1.208 J0.067 K0.000 F500.000
G1 X-1.577 Y-55.234 Z-2.000 F500.000
G2 X-1.520 Y-55.675 Z-2.000 I-1.873 J-0.466 K0.000 F500.000
G1 X-1.520 Y-57.215 Z-2.000 F500.000
G2 X-3.436 Y-59.131 Z-2.000 I-1.916 J0.000 K0.000 F500.000
G1 X-5.039 Y-59.131 Z-2.000 F500.000
G2 X-5.540 Y-59.055 Z-2.000 I-0.046 J1.378 K0.000 F500.000
G0 Z5.000
G0 X-0.864 Y-58.629 Z5.000
G0 X-0.864 Y-58.629 Z3.000
G1 X-0.864 Y-58.629 Z-0.370 F300.000
G1 X0.018 Y-58.629 Z-0.370 F500.000
G2 X-0.356 Y-57.215 Z-0.370 I2.557 J1.432 K0.000 F500.000
G1 X-0.356 Y-56.270 Z-0.370 F500.000
G1 X-0.484 Y-56.270 Z-0.370 F500.000
G2 X-0.536 Y-57.744 Z-0.370 I-7.507 J-0.472 K0.000 F500.000
G2 X-0.864 Y-58.629 Z-0.370 I-2.233 J0.324 K0.000 F500.000
G1 X-0.864 Y-58.629 Z-0.740 F300.000
G1 X0.018 Y-58.629 Z-0.740 F500.000
G2 X-0.356 Y-57.215 Z-0.740 I2.557 J1.432 K0.000 F500.000
G1 X-0.356 Y-56.270 Z-0.740 F500.000
G1 X-0.484 Y-56.270 Z-0.740 F500.000
G2 X-0.536 Y-57.744 Z-0.740 I-7.507 J-0.472 K0.000 F500.000
G2 X-0.864 Y-58.629 Z-0.740 I-2.233 J0.324 K0.000 F500.000
G1 X-0.864 Y-58.629 Z-1.110 F300.000
G1 X0.018 Y-58.629 Z-1.110 F500.000
G2 X-0.356 Y-57.215 Z-1.110 I2.557 J1.432 K0.000 F500.000
G1 X-0.356 Y-56.270 Z-1.110 F500.000
G1 X-0.484 Y-56.270 Z-1.110 F500.000
G2 X-0.536 Y-57.744 Z-1.110 I-7.507 J-0.472 K0.000 F500.000
G2 X-0.864 Y-58.629 Z-1.110 I-2.233 J0.324 K0.000 F500.000
G1 X-0.864 Y-58.629 Z-1.480 F300.000
G1 X0.018 Y-58.629 Z-1.480 F500.000
G2 X-0.356 Y-57.215 Z-1.480 I2.557 J1.432 K0.000 F500.000
G1 X-0.356 Y-56.270 Z-1.480 F500.000
G1 X-0.484 Y-56.270 Z-1.480 F500.000
G2 X-0.536 Y-57.744 Z-1.480 I-7.507 J-0.472 K0.000 F500.000
G2 X-0.864 Y-58.629 Z-1.480 I-2.233 J0.324 K0.000 F500.000
G1 X-0.864 Y-58.629 Z-1.850 F300.000
G1 X0.018 Y-58.629 Z-1.850 F500.000
G2 X-0.356 Y-57.215 Z-1.850 I2.557 J1.432 K0.000 F500.000
G1 X-0.356 Y-56.270 Z-1.850 F500.000
G1 X-0.484 Y-56.270 Z-1.850 F500.000
G2 X-0.536 Y-57.744 Z-1.850 I-7.507 J-0.472 K0.000 F500.000
G2 X-0.864 Y-58.629 Z-1.850 I-2.233 J0.324 K0.000 F500.000
G1 X-0.864 Y-58.629 Z-2.000 F300.000
G1 X0.018 Y-58.629 Z-2.000 F500.000
G2 X-0.356 Y-57.215 Z-2.000 I2.557 J1.432 K0.000 F500.000
G1 X-0.356 Y-56.270 Z-2.000 F500.000
G1 X-0.484 Y-56.270 Z-2.000 F500.000
G2 X-0.536 Y-57.744 Z-2.000 I-7.507 J-0.472 K0.000 F500.000
G2 X-0.864 Y-58.629 Z-2.000 I-2.233 J0.324 K0.000 F500.000
G0 Z5.000
G0 X1.782 Y-57.544 Z5.000
G0 X1.782 Y-57.544 Z3.000
G1 X1.782 Y-57.544 Z-0.370 F300.000
G3 X2.596 Y-58.095 Z-0.370 I0.822 J0.337 K0.000 F500.000
G1 X4.199 Y-58.095 Z-0.370 F500.000
G3 X5.079 Y-57.215 Z-0.370 I-0.009 J0.889 K0.000 F500.000
G1 X5.079 Y-55.675 Z-0.370 F500.000
G3 X4.199 Y-54.795 Z-0.370 I-0.889 J-0.009 K0.000 F500.000
G1 X2.596 Y-54.795 Z-0.370 F500.000
G3 X1.716 Y-55.675 Z-0.370 I0.009 J-0.889 K0.000 F500.000
G1 X1.716 Y-57.215 Z-0.370 F500.000
G3 X1.782 Y-57.544 Z-0.370 I0.889 J0.009 K0.000 F500.000
G1 X1.782 Y-57.544 Z-0.740 F300.000
G3 X2.596 Y-58.095 Z-0.740 I0.822 J0.337 K0.000 F500.000
G1 X4.199 Y-58.095 Z-0.740 F500.000
G3 X5.079 Y-57.215 Z-0.740 I-0.009 J0.889 K0.000 F500.000
G1 X5.079 Y-55.675 Z-0.740 F500.000
G3 X4.199 Y-54.795 Z-0.740 I-0.889 J-0.009 K0.000 F500.000
G1 X2.596 Y-54.795 Z-0.740 F500.000
G3 X1.716 Y-55.675 Z-0.740 I0.009 J-0.889 K0.000 F500.000
G1 X1.716 Y-57.215 Z-0.740 F500.000
G3 X1.782 Y-57.544 Z-0.740 I0.889 J0.009 K0.000 F500.000
G1 X1.782 Y-57.544 Z-1.110 F300.000
G3 X2.596 Y-58.095 Z-1.110 I0.822 J0.337 K0.000 F500.000
G1 X4.199 Y-58.095 Z-1.110 F500.000
G3 X5.079 Y-57.215 Z-1.110 I-0.009 J0.889 K0.000 F500.000
G1 X5.079 Y-55.675 Z-1.110 F500.000
G3 X4.199 Y-54.795 Z-1.110 I-0.889 J-0.009 K0.000 F500.000
G1 X2.596 Y-54.795 Z-1.110 F500.000
G3 X1.716 Y-55.675 Z-1.110 I0.009 J-0.889 K0.000 F500.000
G1 X1.716 Y-57.215 Z-1.110 F500.000
G3 X1.782 Y-57.544 Z-1.110 I0.889 J0.009 K0.000 F500.000
G1 X1.782 Y-57.544 Z-1.480 F300.000
G3 X2.596 Y-58.095 Z-1.480 I0.822 J0.337 K0.000 F500.000
G1 X4.199 Y-58.095 Z-1.480 F500.000
G3 X5.079 Y-57.215 Z-1.480 I-0.009 J0.889 K0.000 F500.000
G1 X5.079 Y-55.675 Z-1.480 F500.000
G3 X4.199 Y-54.795 Z-1.480 I-0.889 J-0.009 K0.000 F500.000
G1 X2.596 Y-54.795 Z-1.480 F500.000
G3 X1.716 Y-55.675 Z-1.480 I0.009 J-0.889 K0.000 F500.000
G1 X1.716 Y-57.215 Z-1.480 F500.000
G3 X1.782 Y-57.544 Z-1.480 I0.889 J0.009 K0.000 F500.000
G1 X1.782 Y-57.544 Z-1.850 F300.000
G3 X2.596 Y-58.095 Z-1.850 I0.822 J0.337 K0.000 F500.000
G1 X4.199 Y-58.095 Z-1.850 F500.000
G3 X5.079 Y-57.215 Z-1.850 I-0.009 J0.889 K0.000 F500.000
G1 X5.079 Y-55.675 Z-1.850 F500.000
G3 X4.199 Y-54.795 Z-1.850 I-0.889 J-0.009 K0.000 F500.000
G1 X2.596 Y-54.795 Z-1.850 F500.000
G3 X1.716 Y-55.675 Z-1.850 I0.009 J-0.889 K0.000 F500.000
G1 X1.716 Y-57.215 Z-1.850 F500.000
G3 X1.782 Y-57.544 Z-1.850 I0.889 J0.009 K0.000 F500.000
G1 X1.782 Y-57.544 Z-2.000 F300.000
G3 X2.596 Y-58.095 Z-2.000 I0.822 J0.337 K0.000 F500.000
G1 X4.199 Y-58.095 Z-2.000 F500.000
G3 X5.079 Y-57.215 Z-2.000 I-0.009 J0.889 K0.000 F500.000
G1 X5.079 Y-55.675 Z-2.000 F500.000
G3 X4.199 Y-54.795 Z-2.000 I-0.889 J-0.009 K0.000 F500.000
G1 X2.596 Y-54.795 Z-2.000 F500.000
G3 X1.716 Y-55.675 Z-2.000 I0.009 J-0.889 K0.000 F500.000
G1 X1.716 Y-57.215 Z-2.000 F500.000
G3 X1.782 Y-57.544 Z-2.000 I0.889 J0.009 K0.000 F500.000
G0 Z5.000
G0 X6.004 Y-57.825 Z5.000
G0 X6.004 Y-57.825 Z3.000
G1 X6.004 Y-57.825 Z-0.370 F300.000
G2 X6.716 Y-57.748 Z-0.370 I0.569 J-1.932 K0.000 F500.000
G2 X6.624 Y-57.113 Z-0.370 I1.810 J0.587 K0.000 F500.000
G2 X6.115 Y-57.082 Z-0.370 I-0.099 J2.597 K0.000 F500.000
G2 X6.004 Y-57.825 Z-0.370 I-1.885 J-0.099 K0.000 F500.000
G1 X6.004 Y-57.825 Z-0.740 F300.000
G2 X6.716 Y-57.748 Z-0.740 I0.569 J-1.932 K0.000 F500.000
G2 X6.624 Y-57.113 Z-0.740 I1.810 J0.587 K0.000 F500.000
G2 X6.115 Y-57.082 Z-0.740 I-0.099 J2.597 K0.000 F500.000
G2 X6.004 Y-57.825 Z-0.740 I-1.885 J-0.099 K0.000 F500.000
G1 X6.004 Y-57.825 Z-1.110 F300.000
G2 X6.716 Y-57.748 Z-1.110 I0.569 J-1.932 K0.000 F500.000
G2 X6.624 Y-57.113 Z-1.110 I1.810 J0.587 K0.000 F500.000
G2 X6.115 Y-57.082 Z-1.110 I-0.099 J2.597 K0.000 F500.000
G2 X6.004 Y-57.825 Z-1.110 I-1.885 J-0.099 K0.000 F500.000
G1 X6.004 Y-57.825 Z-1.480 F300.000
G2 X6.716 Y-57.748 Z-1.480 I0.569 J-1.932 K0.000 F500.000
G2 X6.624 Y-57.113 Z-1.480 I1.810 J0.587 K0.000 F500.000
G2 X6.115 Y-57.082 Z-1.480 I-0.099 J2.597 K0.000 F500.000
G2 X6.004 Y-57.825 Z-1.480 I-1.885 J-0.099 K0.000 F500.000
G1 X6.004 Y-57.825 Z-1.850 F300.000
G2 X6.716 Y-57.748 Z-1.850 I0.569 J-1.932 K0.000 F500.000
G2 X6.624 Y-57.113 Z-1.850 I1.810 J0.587 K0.000 F500.000
G2 X6.115 Y-57.082 Z-1.850 I-0.099 J2.597 K0.000 F500.000
G2 X6.004 Y-57.825 Z-1.850 I-1.885 J-0.099 K0.000 F500.000
G1 X6.004 Y-57.825 Z-2.000 F300.000
G2 X6.716 Y-57.748 Z-2.000 I0.569 J-1.932 K0.000 F500.000
G2 X6.624 Y-57.113 Z-2.000 I1.810 J0.587 K0.000 F500.000
G2 X6.115 Y-57.082 Z-2.000 I-0.099 J2.597 K0.000 F500.000
G2 X6.004 Y-57.825 Z-2.000 I-1.885 J-0.099 K0.000 F500.000
G0 Z5.000
G0 Z5.000
G0 X6.004 Y-57.825
G0 X29.409 Y-44.414
G0 X29.409 Y-44.414 Z3.000
G1 X29.409 Y-44.414 Z-0.370 F300.000
G1 X33.785 Y-48.790 Z-0.370 F500.000
G2 X34.578 Y-48.013 Z-0.370 I4.337 J-3.640 K0.000 F500.000
G2 X35.740 Y-48.093 Z-0.370 I0.534 J-0.717 K0.000 F500.000
G1 X36.385 Y-48.738 Z-0.370 F500.000
G2 X36.992 Y-48.156 Z-0.370 I2.761 J-2.272 K0.000 F500.000
G2 X38.393 Y-48.879 Z-0.370 I0.512 J-0.728 K0.000 F500.000
G1 X38.393 Y-50.874 Z-0.370 F500.000
G1 X39.046 Y-51.528 Z-0.370 F500.000
G1 X39.573 Y-51.001 Z-0.370 F500.000
G2 X38.830 Y-50.240 Z-0.370 I3.490 J4.154 K0.000 F500.000
G2 X38.909 Y-49.078 Z-0.370 I0.717 J0.534 K0.000 F500.000
G1 X39.688 Y-48.299 Z-0.370 F500.000
G1 X38.885 Y-47.497 Z-0.370 F500.000
G2 X38.885 Y-46.238 Z-0.370 I0.642 J0.629 K0.000 F500.000
G1 X46.238 Y-38.885 Z-0.370 F500.000
G2 X47.497 Y-38.885 Z-0.370 I0.629 J-0.642 K0.000 F500.000
G1 X48.299 Y-39.688 Z-0.370 F500.000
G1 X49.078 Y-38.909 Z-0.370 F500.000
G2 X50.337 Y-38.909 Z-0.370 I0.629 J-0.642 K0.000 F500.000
G1 X51.001 Y-39.573 Z-0.370 F500.000
G1 X51.528 Y-39.046 Z-0.370 F500.000
G1 X50.874 Y-38.393 Z-0.370 F500.000
G1 X48.879 Y-38.393 Z-0.370 F500.000
G2 X48.250 Y-36.874 Z-0.370 I0.008 J0.893 K0.000 F500.000
G1 X48.738 Y-36.385 Z-0.370 F500.000
G2 X48.013 Y-35.643 Z-0.370 I3.405 J4.050 K0.000 F500.000
G2 X48.093 Y-34.481 Z-0.370 I0.717 J0.534 K0.000 F500.000
G1 X48.790 Y-33.785 Z-0.370 F500.000
G1 X44.414 Y-29.409 Z-0.370 F500.000
G1 X44.015 Y-29.807 Z-0.370 F500.000
G1 X46.035 Y-31.827 Z-0.370 F500.000
G2 X46.035 Y-33.086 Z-0.370 I-0.642 J-0.629 K0.000 F500.000
G1 X45.040 Y-34.080 Z-0.370 F500.000
G2 X43.782 Y-34.080 Z-0.370 I-0.629 J0.642 K0.000 F500.000
G1 X43.154 Y-33.452 Z-0.370 F500.000
G2 X42.461 Y-34.120 Z-0.370 I-3.177 J2.602 K0.000 F500.000
G2 X41.060 Y-33.404 Z-0.370 I-0.512 J0.728 K0.000 F500.000
G1 X41.046 Y-31.461 Z-0.370 F500.000
G1 X40.378 Y-30.793 Z-0.370 F500.000
G1 X40.053 Y-31.118 Z-0.370 F500.000
G2 X40.824 Y-31.906 Z-0.370 I-3.618 J-4.310 K0.000 F500.000
G2 X40.745 Y-33.068 Z-0.370 I-0.717 J-0.534 K0.000 F500.000
G1 X40.019 Y-33.793 Z-0.370 F500.000
G1 X40.787 Y-34.561 Z-0.370 F500.000
G2 X40.787 Y-35.820 Z-0.370 I-0.642 J-0.629 K0.000 F500.000
G1 X35.820 Y-40.787 Z-0.370 F500.000
G2 X34.561 Y-40.787 Z-0.370 I-0.629 J0.642 K0.000 F500.000
G1 X33.798 Y-40.024 Z-0.370 F500.000
G2 X33.138 Y-40.667 Z-0.370 I-3.594 J3.031 K0.000 F500.000
G2 X31.976 Y-40.587 Z-0.370 I-0.534 J0.717 K0.000 F500.000
G1 X31.280 Y-39.891 Z-0.370 F500.000
G1 X30.793 Y-40.378 Z-0.370 F500.000
G1 X31.478 Y-41.064 Z-0.370 F500.000
G1 X33.394 Y-41.064 Z-0.370 F500.000
G2 X34.023 Y-42.583 Z-0.370 I-0.008 J-0.893 K0.000 F500.000
G1 X33.495 Y-43.112 Z-0.370 F500.000
G2 X34.202 Y-43.837 Z-0.370 I-3.327 J-3.956 K0.000 F500.000
G2 X34.123 Y-44.999 Z-0.370 I-0.717 J-0.534 K0.000 F500.000
G1 X33.108 Y-46.013 Z-0.370 F500.000
G2 X31.850 Y-46.013 Z-0.370 I-0.629 J0.642 K0.000 F500.000
G1 X29.829 Y-43.993 Z-0.370 F500.000
G1 X29.409 Y-44.414 Z-0.370 F500.000
G1 X29.409 Y-44.414 Z-0.740 F300.000
G1 X33.785 Y-48.790 Z-0.740 F500.000
G2 X34.578 Y-48.013 Z-0.740 I4.337 J-3.640 K0.000 F500.000
G2 X35.740 Y-48.093 Z-0.740 I0.534 J-0.717 K0.000 F500.000
G1 X36.385 Y-48.738 Z-0.740 F500.000
G2 X36.992 Y-48.156 Z-0.740 I2.761 J-2.272 K0.000 F500.000
G2 X38.393 Y-48.879 Z-0.740 I0.512 J-0.728 K0.000 F500.000
G1 X38.393 Y-50.874 Z-0.740 F500.000
G1 X39.046 Y-51.528 Z-0.740 F500.000
G1 X39.573 Y-51.001 Z-0.740 F500.000
G2 X38.830 Y-50.240 Z-0.740 I3.490 J4.154 K0.000 F500.000
G2 X38.909 Y-49.078 Z-0.740 I0.717 J0.534 K0.000 F500.000
G1 X39.688 Y-48.299 Z-0.740 F500.000
G1 X38.885 Y-47.497 Z-0.740 F500.000
G2 X38.885 Y-46.238 Z-0.740 I0.642 J0.629 K0.000 F500.000
G1 X46.238 Y-38.885 Z-0.740 F500.000
G2 X47.497 Y-38.885 Z-0.740 I0.629 J-0.642 K0.000 F500.000
G1 X48.299 Y-39.688 Z-0.740 F500.000
G1 X49.078 Y-38.909 Z-0.740 F500.000
G2 X50.337 Y-38.909 Z-0.740 I0.629 J-0.642 K0.000 F500.000
G1 X51.001 Y-39.573 Z-0.740 F500.000
G1 X51.528 Y-39.046 Z-0.740 F500.000
G1 X50.874 Y-38.393 Z-0.740 F500.000
G1 X48.879 Y-38.393 Z-0.740 F500.000
G2 X48.250 Y-36.874 Z-0.740 I0.008 J0.893 K0.000 F500.000
G1 X48.738 Y-36.385 Z-0.740 F500.000
G2 X48.013 Y-35.643 Z-0.740 I3.405 J4.050 K0.000 F500.000
G2 X48.093 Y-34.481 Z-0.740 I0.717 J0.534 K0.000 F500.000
G1 X48.790 Y-33.785 Z-0.740 F500.000
G1 X44.414 Y-29.409 Z-0.740 F500.000
G1 X44.015 Y-29.807 Z-0.740 F500.000
G1 X46.035 Y-31.827 Z-0.740 F500.000
G2 X46.035 Y-33.086 Z-0.740 I-0.642 J-0.629 K0.000 F500.000
G1 X45.040 Y-34.080 Z-0.740 F500.000
G2 X43.782 Y-34.080 Z-0.740 I-0.629 J0.642 K0.000 F500.000
G1 X43.154 Y-33.452 Z-0.740 F500.000
G2 X42.461 Y-34.120 Z-0.740 I-3.177 J2.602 K0.000 F500.000
G2 X41.060 Y-33.404 Z-0.740 I-0.512 J0.728 K0.000 F500.000
G1 X41.046 Y-31.461 Z-0.740 F500.000
G1 X40.378 Y-30.793 Z-0.740 F500.000
G1 X40.053 Y-31.118 Z-0.740 F500.000
G2 X40.824 Y-31.906 Z-0.740 I-3.618 J-4.310 K0.000 F500.000
G2 X40.745 Y-33.068 Z-0.740 I-0.717 J-0.534 K0.000 F500.000
G1 X40.019 Y-33.793 Z-0.740 F500.000
G1 X40.787 Y-34.561 Z-0.740 F500.000
G2 X40.787 Y-35.820 Z-0.740 I-0.642 J-0.629 K0.000 F500.000
G1 X35.820 Y-40.787 Z-0.740 F500.000
G2 X34.561 Y-40.787 Z-0.740 I-0.629 J0.642 K0.000 F500.000
G1 X33.798 Y-40.024 Z-0.740 F500.000
G2 X33.138 Y-40.667 Z-0.740 I-3.594 J3.031 K0.000 F500.000
G2 X31.976 Y-40.587 Z-0.740 I-0.534 J0.717 K0.000 F500.000
G1 X31.280 Y-39.891 Z-0.740 F500.000
G1 X30.793 Y-40.378 Z-0.740 F500.000
G1 X31.478 Y-41.064 Z-0.740 F500.000
G1 X33.394 Y-41.064 Z-0.740 F500.000
G2 X34.023 Y-42.583 Z-0.740 I-0.008 J-0.893 K0.000 F500.000
G1 X33.495 Y-43.112 Z-0.740 F500.000
G2 X34.202 Y-43.837 Z-0.740 I-3.327 J-3.956 K0.000 F500.000
G2 X34.123 Y-44.999 Z-0.740 I-0.717 J-0.534 K0.000 F500.000
G1 X33.108 Y-46.013 Z-0.740 F500.000
G2 X31.850 Y-46.013 Z-0.740 I-0.629 J0.642 K0.000 F500.000
G1 X29.829 Y-43.993 Z-0.740 F500.000
G1 X29.409 Y-44.414 Z-0.740 F500.000
G1 X29.409 Y-44.414 Z-1.110 F300.000
G1 X33.785 Y-48.790 Z-1.110 F500.000
G2 X34.578 Y-48.013 Z-1.110 I4.337 J-3.640 K0.000 F500.000
G2 X35.740 Y-48.093 Z-1.110 I0.534 J-0.717 K0.000 F500.000
G1 X36.385 Y-48.738 Z-1.110 F500.000
G2 X36.992 Y-48.156 Z-1.110 I2.761 J-2.272 K0.000 F500.000
G2 X38.393 Y-48.879 Z-1.110 I0.512 J-0.728 K0.000 F500.000
G1 X38.393 Y-50.874 Z-1.110 F500.000
G1 X39.046 Y-51.528 Z-1.110 F500.000
G1 X39.573 Y-51.001 Z-1.110 F500.000
G2 X38.830 Y-50.240 Z-1.110 I3.490 J4.154 K0.000 F500.000
G2 X38.909 Y-49.078 Z-1.110 I0.717 J0.534 K0.000 F500.000
G1 X39.688 Y-48.299 Z-1.110 F500.000
G1 X38.885 Y-47.497 Z-1.110 F500.000
G2 X38.885 Y-46.238 Z-1.110 I0.642 J0.629 K0.000 F500.000
G1 X46.238 Y-38.885 Z-1.110 F500.000
G2 X47.497 Y-38.885 Z-1.110 I0.629 J-0.642 K0.000 F500.000
G1 X48.299 Y-39.688 Z-1.110 F500.000
G1 X49.078 Y-38.909 Z-1.110 F500.000
G2 X50.337 Y-38.909 Z-1.110 I0.629 J-0.642 K0.000 F500.000
G1 X51.001 Y-39.573 Z-1.110 F500.000
G1 X51.528 Y-39.046 Z-1.110 F500.000
G1 X50.874 Y-38.393 Z-1.110 F500.000
G1 X48.879 Y-38.393 Z-1.110 F500.000
G2 X48.250 Y-36.874 Z-1.110 I0.008 J0.893 K0.000 F500.000
G1 X48.738 Y-36.385 Z-1.110 F500.000
G2 X48.013 Y-35.643 Z-1.110 I3.405 J4.050 K0.000 F500.000
G2 X48.093 Y-34.481 Z-1.110 I0.717 J0.534 K0.000 F500.000
G1 X48.790 Y-33.785 Z-1.110 F500.000
G1 X44.414 Y-29.409 Z-1.110 F500.000
G1 X44.015 Y-29.807 Z-1.110 F500.000
G1 X46.035 Y-31.827 Z-1.110 F500.000
G2 X46.035 Y-33.086 Z-1.110 I-0.642 J-0.629 K0.000 F500.000
G1 X45.040 Y-34.080 Z-1.110 F500.000
G2 X43.782 Y-34.080 Z-1.110 I-0.629 J0.642 K0.000 F500.000
G1 X43.154 Y-33.452 Z-1.110 F500.000
G2 X42.461 Y-34.120 Z-1.110 I-3.177 J2.602 K0.000 F500.000
G2 X41.060 Y-33.404 Z-1.110 I-0.512 J0.728 K0.000 F500.000
G1 X41.046 Y-31.461 Z-1.110 F500.000
G1 X40.378 Y-30.793 Z-1.110 F500.000
G1 X40.053 Y-31.118 Z-1.110 F500.000
G2 X40.824 Y-31.906 Z-1.110 I-3.618 J-4.310 K0.000 F500.000
G2 X40.745 Y-33.068 Z-1.110 I-0.717 J-0.534 K0.000 F500.000
G1 X40.019 Y-33.793 Z-1.110 F500.000
G1 X40.787 Y-34.561 Z-1.110 F500.000
G2 X40.787 Y-35.820 Z-1.110 I-0.642 J-0.629 K0.000 F500.000
G1 X35.820 Y-40.787 Z-1.110 F500.000
G2 X34.561 Y-40.787 Z-1.110 I-0.629 J0.642 K0.000 F500.000
G1 X33.798 Y-40.024 Z-1.110 F500.000
G2 X33.138 Y-40.667 Z-1.110 I-3.594 J3.031 K0.000 F500.000
G2 X31.976 Y-40.587 Z-1.110 I-0.534 J0.717 K0.000 F500.000
G1 X31.280 Y-39.891 Z-1.110 F500.000
G1 X30.793 Y-40.378 Z-1.110 F500.000
G1 X31.478 Y-41.064 Z-1.110 F500.000
G1 X33.394 Y-41.064 Z-1.110 F500.000
G2 X34.023 Y-42.583 Z-1.110 I-0.008 J-0.893 K0.000 F500.000
G1 X33.495 Y-43.112 Z-1.110 F500.000
G2 X34.202 Y-43.837 Z-1.110 I-3.327 J-3.956 K0.000 F500.000
G2 X34.123 Y-44.999 Z-1.110 I-0.717 J-0.534 K0.000 F500.000
G1 X33.108 Y-46.013 Z-1.110 F500.000
G2 X31.850 Y-46.013 Z-1.110 I-0.629 J0.642 K0.000 F500.000
G1 X29.829 Y-43.993 Z-1.110 F500.000
G1 X29.409 Y-44.414 Z-1.110 F500.000
G1 X29.409 Y-44.414 Z-1.480 F300.000
G1 X33.785 Y-48.790 Z-1.480 F500.000
G2 X34.578 Y-48.013 Z-1.480 I4.337 J-3.640 K0.000 F500.000
G2 X35.740 Y-48.093 Z-1.480 I0.534 J-0.717 K0.000 F500.000
G1 X36.385 Y-48.738 Z-1.480 F500.000
G2 X36.992 Y-48.156 Z-1.480 I2.761 J-2.272 K0.000 F500.000
G2 X38.393 Y-48.879 Z-1.480 I0.512 J-0.728 K0.000 F500.000
G1 X38.393 Y-50.874 Z-1.480 F500.000
G1 X39.046 Y-51.528 Z-1.480 F500.000
G1 X39.573 Y-51.001 Z-1.480 F500.000
G2 X38.830 Y-50.240 Z-1.480 I3.490 J4.154 K0.000 F500.000
G2 X38.909 Y-49.078 Z-1.480 I0.717 J0.534 K0.000 F500.000
G1 X39.688 Y-48.299 Z-1.480 F500.000
G1 X38.885 Y-47.497 Z-1.480 F500.000
G2 X38.885 Y-46.238 Z-1.480 I0.642 J0.629 K0.000 F500.000
G1 X46.238 Y-38.885 Z-1.480 F500.000
G2 X47.497 Y-38.885 Z-1.480 I0.629 J-0.642 K0.000 F500.000
G1 X48.299 Y-39.688 Z-1.480 F500.000
G1 X49.078 Y-38.909 Z-1.480 F500.000
G2 X50.337 Y-38.909 Z-1.480 I0.629 J-0.642 K0.000 F500.000
G1 X51.001 Y-39.573 Z-1.480 F500.000
G1 X51.528 Y-39.046 Z-1.480 F500.000
G1 X50.874 Y-38.393 Z-1.480 F500.000
G1 X48.879 Y-38.393 Z-1.480 F500.000
G2 X48.250 Y-36.874 Z-1.480 I0.008 J0.893 K0.000 F500.000
G1 X48.738 Y-36.385 Z-1.480 F500.000
G2 X48.013 Y-35.643 Z-1.480 I3.405 J4.050 K0.000 F500.000
G2 X48.093 Y-34.481 Z-1.480 I0.717 J0.534 K0.000 F500.000
G1 X48.790 Y-33.785 Z-1.480 F500.000
G1 X44.414 Y-29.409 Z-1.480 F500.000
G1 X44.015 Y-29.807 Z-1.480 F500.000
G1 X46.035 Y-31.827 Z-1.480 F500.000
G2 X46.035 Y-33.086 Z-1.480 I-0.642 J-0.629 K0.000 F500.000
G1 X45.040 Y-34.080 Z-1.480 F500.000
G2 X43.782 Y-34.080 Z-1.480 I-0.629 J0.642 K0.000 F500.000
G1 X43.154 Y-33.452 Z-1.480 F500.000
G2 X42.461 Y-34.120 Z-1.480 I-3.177 J2.602 K0.000 F500.000
G2 X41.060 Y-33.404 Z-1.480 I-0.512 J0.728 K0.000 F500.000
G1 X41.046 Y-31.461 Z-1.480 F500.000
G1 X40.378 Y-30.793 Z-1.480 F500.000
G1 X40.053 Y-31.118 Z-1.480 F500.000
G2 X40.824 Y-31.906 Z-1.480 I-3.618 J-4.310 K0.000 F500.000
G2 X40.745 Y-33.068 Z-1.480 I-0.717 J-0.534 K0.000 F500.000
G1 X40.019 Y-33.793 Z-1.480 F500.000
G1 X40.787 Y-34.561 Z-1.480 F500.000
G2 X40.787 Y-35.820 Z-1.480 I-0.642 J-0.629 K0.000 F500.000
G1 X35.820 Y-40.787 Z-1.480 F500.000
G2 X34.561 Y-40.787 Z-1.480 I-0.629 J0.642 K0.000 F500.000
G1 X33.798 Y-40.024 Z-1.480 F500.000
G2 X33.138 Y-40.667 Z-1.480 I-3.594 J3.031 K0.000 F500.000
G2 X31.976 Y-40.587 Z-1.480 I-0.534 J0.717 K0.000 F500.000
G1 X31.280 Y-39.891 Z-1.480 F500.000
G1 X30.793 Y-40.378 Z-1.480 F500.000
G1 X31.478 Y-41.064 Z-1.480 F500.000
G1 X33.394 Y-41.064 Z-1.480 F500.000
G2 X34.023 Y-42.583 Z-1.480 I-0.008 J-0.893 K0.000 F500.000
G1 X33.495 Y-43.112 Z-1.480 F500.000
G2 X34.202 Y-43.837 Z-1.480 I-3.327 J-3.956 K0.000 F500.000
G2 X34.123 Y-44.999 Z-1.480 I-0.717 J-0.534 K0.000 F500.000
G1 X33.108 Y-46.013 Z-1.480 F500.000
G2 X31.850 Y-46.013 Z-1.480 I-0.629 J0.642 K0.000 F500.000
G1 X29.829 Y-43.993 Z-1.480 F500.000
G1 X29.409 Y-44.414 Z-1.480 F500.000
G1 X29.409 Y-44.414 Z-1.850 F300.000
G1 X33.785 Y-48.790 Z-1.850 F500.000
G2 X34.578 Y-48.013 Z-1.850 I4.337 J-3.640 K0.000 F500.000
G2 X35.740 Y-48.093 Z-1.850 I0.534 J-0.717 K0.000 F500.000
G1 X36.385 Y-48.738 Z-1.850 F500.000
G2 X36.992 Y-48.156 Z-1.850 I2.761 J-2.272 K0.000 F500.000
G2 X38.393 Y-48.879 Z-1.850 I0.512 J-0.728 K0.000 F500.000
G1 X38.393 Y-50.874 Z-1.850 F500.000
G1 X39.046 Y-51.528 Z-1.850 F500.000
G1 X39.573 Y-51.001 Z-1.850 F500.000
G2 X38.830 Y-50.240 Z-1.850 I3.490 J4.154 K0.000 F500.000
G2 X38.909 Y-49.078 Z-1.850 I0.717 J0.534 K0.000 F500.000
G1 X39.688 Y-48.299 Z-1.850 F500.000
G1 X38.885 Y-47.497 Z-1.850 F500.000
G2 X38.885 Y-46.238 Z-1.850 I0.642 J0.629 K0.000 F500.000
G1 X46.238 Y-38.885 Z-1.850 F500.000
G2 X47.497 Y-38.885 Z-1.850 I0.629 J-0.642 K0.000 F500.000
G1 X48.299 Y-39.688 Z-1.850 F500.000
G1 X49.078 Y-38.909 Z-1.850 F500.000
G2 X50.337 Y-38.909 Z-1.850 I0.629 J-0.642 K0.000 F500.000
G1 X51.001 Y-39.573 Z-1.850 F500.000
G1 X51.528 Y-39.046 Z-1.850 F500.000
G1 X50.874 Y-38.393 Z-1.850 F500.000
G1 X48.879 Y-38.393 Z-1.850 F500.000
G2 X48.250 Y-36.874 Z-1.850 I0.008 J0.893 K0.000 F500.000
G1 X48.738 Y-36.385 Z-1.850 F500.000
G2 X48.013 Y-35.643 Z-1.850 I3.405 J4.050 K0.000 F500.000
G2 X48.093 Y-34.481 Z-1.850 I0.717 J0.534 K0.000 F500.000
G1 X48.790 Y-33.785 Z-1.850 F500.000
G1 X44.414 Y-29.409 Z-1.850 F500.000
G1 X44.015 Y-29.807 Z-1.850 F500.000
G1 X46.035 Y-31.827 Z-1.850 F500.000
G2 X46.035 Y-33.086 Z-1.850 I-0.642 J-0.629 K0.000 F500.000
G1 X45.040 Y-34.080 Z-1.850 F500.000
G2 X43.782 Y-34.080 Z-1.850 I-0.629 J0.642 K0.000 F500.000
G1 X43.154 Y-33.452 Z-1.850 F500.000
G2 X42.461 Y-34.120 Z-1.850 I-3.177 J2.602 K0.000 F500.000
G2 X41.060 Y-33.404 Z-1.850 I-0.512 J0.728 K0.000 F500.000
G1 X41.046 Y-31.461 Z-1.850 F500.000
G1 X40.378 Y-30.793 Z-1.850 F500.000
G1 X40.053 Y-31.118 Z-1.850 F500.000
G2 X40.824 Y-31.906 Z-1.850 I-3.618 J-4.310 K0.000 F500.000
G2 X40.745 Y-33.068 Z-1.850 I-0.717 J-0.534 K0.000 F500.000
G1 X40.019 Y-33.793 Z-1.850 F500.000
G1 X40.787 Y-34.561 Z-1.850 F500.000
G2 X40.787 Y-35.820 Z-1.850 I-0.642 J-0.629 K0.000 F500.000
G1 X35.820 Y-40.787 Z-1.850 F500.000
G2 X34.561 Y-40.787 Z-1.850 I-0.629 J0.642 K0.000 F500.000
G1 X33.798 Y-40.024 Z-1.850 F500.000
G2 X33.138 Y-40.667 Z-1.850 I-3.594 J3.031 K0.000 F500.000
G2 X31.976 Y-40.587 Z-1.850 I-0.534 J0.717 K0.000 F500.000
G1 X31.280 Y-39.891 Z-1.850 F500.000
G1 X30.793 Y-40.378 Z-1.850 F500.000
G1 X31.478 Y-41.064 Z-1.850 F500.000
G1 X33.394 Y-41.064 Z-1.850 F500.000
G2 X34.023 Y-42.583 Z-1.850 I-0.008 J-0.893 K0.000 F500.000
G1 X33.495 Y-43.112 Z-1.850 F500.000
G2 X34.202 Y-43.837 Z-1.850 I-3.327 J-3.956 K0.000 F500.000
G2 X34.123 Y-44.999 Z-1.850 I-0.717 J-0.534 K0.000 F500.000
G1 X33.108 Y-46.013 Z-1.850 F500.000
G2 X31.850 Y-46.013 Z-1.850 I-0.629 J0.642 K0.000 F500.000
G1 X29.829 Y-43.993 Z-1.850 F500.000
G1 X29.409 Y-44.414 Z-1.850 F500.000
G1 X29.409 Y-44.414 Z-2.000 F300.000
G1 X33.785 Y-48.790 Z-2.000 F500.000
G2 X34.578 Y-48.013 Z-2.000 I4.337 J-3.640 K0.000 F500.000
G2 X35.740 Y-48.093 Z-2.000 I0.534 J-0.717 K0.000 F500.000
G1 X36.385 Y-48.738 Z-2.000 F500.000
G2 X36.992 Y-48.156 Z-2.000 I2.761 J-2.272 K0.000 F500.000
G2 X38.393 Y-48.879 Z-2.000 I0.512 J-0.728 K0.000 F500.000
G1 X38.393 Y-50.874 Z-2.000 F500.000
G1 X39.046 Y-51.528 Z-2.000 F500.000
G1 X39.573 Y-51.001 Z-2.000 F500.000
G2 X38.830 Y-50.240 Z-2.000 I3.490 J4.154 K0.000 F500.000
G2 X38.909 Y-49.078 Z-2.000 I0.717 J0.534 K0.000 F500.000
G1 X39.688 Y-48.299 Z-2.000 F500.000
G1 X38.885 Y-47.497 Z-2.000 F500.000
G2 X38.885 Y-46.238 Z-2.000 I0.642 J0.629 K0.000 F500.000
G1 X46.238 Y-38.885 Z-2.000 F500.000
G2 X47.497 Y-38.885 Z-2.000 I0.629 J-0.642 K0.000 F500.000
G1 X48.299 Y-39.688 Z-2.000 F500.000
G1 X49.078 Y-38.909 Z-2.000 F500.000
G2 X50.337 Y-38.909 Z-2.000 I0.629 J-0.642 K0.000 F500.000
G1 X51.001 Y-39.573 Z-2.000 F500.000
G1 X51.528 Y-39.046 Z-2.000 F500.000
G1 X50.874 Y-38.393 Z-2.000 F500.000
G1 X48.879 Y-38.393 Z-2.000 F500.000
G2 X48.250 Y-36.874 Z-2.000 I0.008 J0.893 K0.000 F500.000
G1 X48.738 Y-36.385 Z-2.000 F500.000
G2 X48.013 Y-35.643 Z-2.000 I3.405 J4.050 K0.000 F500.000
G2 X48.093 Y-34.481 Z-2.000 I0.717 J0.534 K0.000 F500.000
G1 X48.790 Y-33.785 Z-2.000 F500.000
G1 X44.414 Y-29.409 Z-2.000 F500.000
G1 X44.015 Y-29.807 Z-2.000 F500.000
G1 X46.035 Y-31.827 Z-2.000 F500.000
G2 X46.035 Y-33.086 Z-2.000 I-0.642 J-0.629 K0.000 F500.000
G1 X45.040 Y-34.080 Z-2.000 F500.000
G2 X43.782 Y-34.080 Z-2.000 I-0.629 J0.642 K0.000 F500.000
G1 X43.154 Y-33.452 Z-2.000 F500.000
G2 X42.461 Y-34.120 Z-2.000 I-3.177 J2.602 K0.000 F500.000
G2 X41.060 Y-33.404 Z-2.000 I-0.512 J0.728 K0.000 F500.000
G1 X41.046 Y-31.461 Z-2.000 F500.000
G1 X40.378 Y-30.793 Z-2.000 F500.000
G1 X40.053 Y-31.118 Z-2.000 F500.000
G2 X40.824 Y-31.906 Z-2.000 I-3.618 J-4.310 K0.000 F500.000
G2 X40.745 Y-33.068 Z-2.000 I-0.717 J-0.534 K0.000 F500.000
G1 X40.019 Y-33.793 Z-2.000 F500.000
G1 X40.787 Y-34.561 Z-2.000 F500.000
G2 X40.787 Y-35.820 Z-2.000 I-0.642 J-0.629 K0.000 F500.000
G1 X35.820 Y-40.787 Z-2.000 F500.000
G2 X34.561 Y-40.787 Z-2.000 I-0.629 J0.642 K0.000 F500.000
G1 X33.798 Y-40.024 Z-2.000 F500.000
G2 X33.138 Y-40.667 Z-2.000 I-3.594 J3.031 K0.000 F500.000
G2 X31.976 Y-40.587 Z-2.000 I-0.534 J0.717 K0.000 F500.000
G1 X31.280 Y-39.891 Z-2.000 F500.000
G1 X30.793 Y-40.378 Z-2.000 F500.000
G1 X31.478 Y-41.064 Z-2.000 F500.000
G1 X33.394 Y-41.064 Z-2.000 F500.000
G2 X34.023 Y-42.583 Z-2.000 I-0.008 J-0.893 K0.000 F500.000
G1 X33.495 Y-43.112 Z-2.000 F500.000
G2 X34.202 Y-43.837 Z-2.000 I-3.327 J-3.956 K0.000 F500.000
G2 X34.123 Y-44.999 Z-2.000 I-0.717 J-0.534 K0.000 F500.000
G1 X33.108 Y-46.013 Z-2.000 F500.000
G2 X31.850 Y-46.013 Z-2.000 I-0.629 J0.642 K0.000 F500.000
G1 X29.829 Y-43.993 Z-2.000 F500.000
G1 X29.409 Y-44.414 Z-2.000 F500.000
G0 Z5.000
G0 X33.481 Y-47.021 Z5.000
G0 X33.481 Y-47.021 Z3.000
G1 X33.481 Y-47.021 Z-0.370 F300.000
G1 X33.788 Y-47.328 Z-0.370 F500.000
G2 X36.407 Y-47.307 Z-0.370 I1.321 J-1.375 K0.000 F500.000
G2 X37.601 Y-46.967 Z-0.370 I1.043 J-1.397 K0.000 F500.000
G2 X38.153 Y-45.505 Z-0.370 I1.873 J0.128 K0.000 F500.000
G1 X45.505 Y-38.153 Z-0.370 F500.000
G2 X46.970 Y-37.596 Z-0.370 I1.360 J-1.373 K0.000 F500.000
G2 X47.307 Y-36.407 Z-0.370 I1.712 J0.157 K0.000 F500.000
G2 X47.328 Y-33.788 Z-0.370 I1.396 J1.298 K0.000 F500.000
G1 X47.027 Y-33.487 Z-0.370 F500.000
G2 X46.767 Y-33.818 Z-0.370 I-1.810 J1.154 K0.000 F500.000
G1 X45.773 Y-34.812 Z-0.370 F500.000
G2 X45.250 Y-35.173 Z-0.370 I-1.231 J1.225 K0.000 F500.000
G2 X45.294 Y-37.941 Z-0.370 I-1.320 J-1.405 K0.000 F500.000
G2 X44.201 Y-38.989 Z-0.370 I-5.865 J5.025 K0.000 F500.000
G2 X41.731 Y-38.780 Z-0.370 I-1.110 J1.581 K0.000 F500.000
G1 X40.760 Y-37.810 Z-0.370 F500.000
G2 X40.537 Y-37.534 Z-0.370 I1.287 J1.269 K0.000 F500.000
G1 X37.534 Y-40.537 Z-0.370 F500.000
G2 X37.810 Y-40.760 Z-0.370 I-0.993 J-1.510 K0.000 F500.000
G1 X38.780 Y-41.731 Z-0.370 F500.000
G2 X38.780 Y-44.455 Z-0.370 I-1.362 J-1.362 K0.000 F500.000
G2 X37.687 Y-45.502 Z-0.370 I-5.865 J5.025 K0.000 F500.000
G2 X35.189 Y-45.266 Z-0.370 I-1.110 J1.581 K0.000 F500.000
G2 X34.855 Y-45.731 Z-0.370 I-1.693 J0.862 K0.000 F500.000
G1 X33.841 Y-46.746 Z-0.370 F500.000
G2 X33.481 Y-47.021 Z-0.370 I-0.920 J0.828 K0.000 F500.000
G1 X33.481 Y-47.021 Z-0.740 F300.000
G1 X33.788 Y-47.328 Z-0.740 F500.000
G2 X36.407 Y-47.307 Z-0.740 I1.321 J-1.375 K0.000 F500.000
G2 X37.601 Y-46.967 Z-0.740 I1.043 J-1.397 K0.000 F500.000
G2 X38.153 Y-45.505 Z-0.740 I1.873 J0.128 K0.000 F500.000
G1 X45.505 Y-38.153 Z-0.740 F500.000
G2 X46.970 Y-37.596 Z-0.740 I1.360 J-1.373 K0.000 F500.000
G2 X47.307 Y-36.407 Z-0.740 I1.712 J0.157 K0.000 F500.000
G2 X47.328 Y-33.788 Z-0.740 I1.396 J1.298 K0.000 F500.000
G1 X47.027 Y-33.487 Z-0.740 F500.000
G2 X46.767 Y-33.818 Z-0.740 I-1.810 J1.154 K0.000 F500.000
G1 X45.773 Y-34.812 Z-0.740 F500.000
G2 X45.250 Y-35.173 Z-0.740 I-1.231 J1.225 K0.000 F500.000
G2 X45.294 Y-37.941 Z-0.740 I-1.320 J-1.405 K0.000 F500.000
G2 X44.201 Y-38.989 Z-0.740 I-5.865 J5.025 K0.000 F500.000
G2 X41.731 Y-38.780 Z-0.740 I-1.110 J1.581 K0.000 F500.000
G1 X40.760 Y-37.810 Z-0.740 F500.000
G2 X40.537 Y-37.534 Z-0.740 I1.287 J1.269 K0.000 F500.000
G1 X37.534 Y-40.537 Z-0.740 F500.000
G2 X37.810 Y-40.760 Z-0.740 I-0.993 J-1.510 K0.000 F500.000
G1 X38.780 Y-41.731 Z-0.740 F500.000
G2 X38.780 Y-44.455 Z-0.740 I-1.362 J-1.362 K0.000 F500.000
G2 X37.687 Y-45.502 Z-0.740 I-5.865 J5.025 K0.000 F500.000
G2 X35.189 Y-45.266 Z-0.740 I-1.110 J1.581 K0.000 F500.000
G2 X34.855 Y-45.731 Z-0.740 I-1.693 J0.862 K0.000 F500.000
G1 X33.841 Y-46.746 Z-0.740 F500.000
G2 X33.481 Y-47.021 Z-0.740 I-0.920 J0.828 K0.000 F500.000
G1 X33.481 Y-47.021 Z-1.110 F300.000
G1 X33.788 Y-47.328 Z-1.110 F500.000
G2 X36.407 Y-47.307 Z-1.110 I1.321 J-1.375 K0.000 F500.000
G2 X37.601 Y-46.967 Z-1.110 I1.043 J-1.397 K0.000 F500.000
G2 X38.153 Y-45.505 Z-1.110 I1.873 J0.128 K0.000 F500.000
G1 X45.505 Y-38.153 Z-1.110 F500.000
G2 X46.970 Y-37.596 Z-1.110 I1.360 J-1.373 K0.000 F500.000
G2 X47.307 Y-36.407 Z-1.110 I1.712 J0.157 K0.000 F500.000
G2 X47.328 Y-33.788 Z-1.110 I1.396 J1.298 K0.000 F500.000
G1 X47.027 Y-33.487 Z-1.110 F500.000
G2 X46.767 Y-33.818 Z-1.110 I-1.810 J1.154 K0.000 F500.000
G1 X45.773 Y-34.812 Z-1.110 F500.000
G2 X45.250 Y-35.173 Z-1.110 I-1.231 J1.225 K0.000 F500.000
G2 X45.294 Y-37.941 Z-1.110 I-1.320 J-1.405 K0.000 F500.000
G2 X44.201 Y-38.989 Z-1.110 I-5.865 J5.025 K0.000 F500.000
G2 X41.731 Y-38.780 Z-1.110 I-1.110 J1.581 K0.000 F500.000
G1 X40.760 Y-37.810 Z-1.110 F500.000
G2 X40.537 Y-37.534 Z-1.110 I1.287 J1.269 K0.000 F500.000
G1 X37.534 Y-40.537 Z-1.110 F500.000
G2 X37.810 Y-40.760 Z-1.110 I-0.993 J-1.510 K0.000 F500.000
G1 X38.780 Y-41.731 Z-1.110 F500.000
G2 X38.780 Y-44.455 Z-1.110 I-1.362 J-1.362 K0.000 F500.000
G2 X37.687 Y-45.502 Z-1.110 I-5.865 J5.025 K0.000 F500.000
G2 X35.189 Y-45.266 Z-1.110 I-1.110 J1.581 K0.000 F500.000
G2 X34.855 Y-45.731 Z-1.110 I-1.693 J0.862 K0.000 F500.000
G1 X33.841 Y-46.746 Z-1.110 F500.000
G2 X33.481 Y-47.021 Z-1.110 I-0.920 J0.828 K0.000 F500.000
G1 X33.481 Y-47.021 Z-1.480 F300.000
G1 X33.788 Y-47.328 Z-1.480 F500.000
G2 X36.407 Y-47.307 Z-1.480 I1.321 J-1.375 K0.000 F500.000
G2 X37.601 Y-46.967 Z-1.480 I1.043 J-1.397 K0.000 F500.000
G2 X38.153 Y-45.505 Z-1.480 I1.873 J0.128 K0.000 F500.000
G1 X45.505 Y-38.153 Z-1.480 F500.000
G2 X46.970 Y-37.596 Z-1.480 I1.360 J-1.373 K0.000 F500.000
G2 X47.307 Y-36.407 Z-1.480 I1.712 J0.157 K0.000 F500.000
G2 X47.328 Y-33.788 Z-1.480 I1.396 J1.298 K0.000 F500.000
G1 X47.027 Y-33.487 Z-1.480 F500.000
G2 X46.767 Y-33.818 Z-1.480 I-1.810 J1.154 K0.000 F500.000
G1 X45.773 Y-34.812 Z-1.480 F500.000
G2 X45.250 Y-35.173 Z-1.480 I-1.231 J1.225 K0.000 F500.000
G2 X45.294 Y-37.941 Z-1.480 I-1.320 J-1.405 K0.000 F500.000
G2 X44.201 Y-38.989 Z-1.480 I-5.865 J5.025 K0.000 F500.000
G2 X41.731 Y-38.780 Z-1.480 I-1.110 J1.581 K0.000 F500.000
G1 X40.760 Y-37.810 Z-1.480 F500.000
G2 X40.537 Y-37.534 Z-1.480 I1.287 J1.269 K0.000 F500.000
G1 X37.534 Y-40.537 Z-1.480 F500.000
G2 X37.810 Y-40.760 Z-1.480 I-0.993 J-1.510 K0.000 F500.000
G1 X38.780 Y-41.731 Z-1.480 F500.000
G2 X38.780 Y-44.455 Z-1.480 I-1.362 J-1.362 K0.000 F500.000
G2 X37.687 Y-45.502 Z-1.480 I-5.865 J5.025 K0.000 F500.000
G2 X35.189 Y-45.266 Z-1.480 I-1.110 J1.581 K0.000 F500.000
G2 X34.855 Y-45.731 Z-1.480 I-1.693 J0.862 K0.000 F500.000
G1 X33.841 Y-46.746 Z-1.480 F500.000
G2 X33.481 Y-47.021 Z-1.480 I-0.920 J0.828 K0.000 F500.000
G1 X33.481 Y-47.021 Z-1.850 F300.000
G1 X33.788 Y-47.328 Z-1.850 F500.000
G2 X36.407 Y-47.307 Z-1.850 I1.321 J-1.375 K0.000 F500.000
G2 X37.601 Y-46.967 Z-1.850 I1.043 J-1.397 K0.000 F500.000
G2 X38.153 Y-45.505 Z-1.850 I1.873 J0.128 K0.000 F500.000
G1 X45.505 Y-38.153 Z-1.850 F500.000
G2 X46.970 Y-37.596 Z-1.850 I1.360 J-1.373 K0.000 F500.000
G2 X47.307 Y-36.407 Z-1.850 I1.712 J0.157 K0.000 F500.000
G2 X47.328 Y-33.788 Z-1.850 I1.396 J1.298 K0.000 F500.000
G1 X47.027 Y-33.487 Z-1.850 F500.000
G2 X46.767 Y-33.818 Z-1.850 I-1.810 J1.154 K0.000 F500.000
G1 X45.773 Y-34.812 Z-1.850 F500.000
G2 X45.250 Y-35.173 Z-1.850 I-1.231 J1.225 K0.000 F500.000
G2 X45.294 Y-37.941 Z-1.850 I-1.320 J-1.405 K0.000 F500.000
G2 X44.201 Y-38.989 Z-1.850 I-5.865 J5.025 K0.000 F500.000
G2 X41.731 Y-38.780 Z-1.850 I-1.110 J1.581 K0.000 F500.000
G1 X40.760 Y-37.810 Z-1.850 F500.000
G2 X40.537 Y-37.534 Z-1.850 I1.287 J1.269 K0.000 F500.000
G1 X37.534 Y-40.537 Z-1.850 F500.000
G2 X37.810 Y-40.760 Z-1.850 I-0.993 J-1.510 K0.000 F500.000
G1 X38.780 Y-41.731 Z-1.850 F500.000
G2 X38.780 Y-44.455 Z-1.850 I-1.362 J-1.362 K0.000 F500.000
G2 X37.687 Y-45.502 Z-1.850 I-5.865 J5.025 K0.000 F500.000
G2 X35.189 Y-45.266 Z-1.850 I-1.110 J1.581 K0.000 F500.000
G2 X34.855 Y-45.731 Z-1.850 I-1.693 J0.862 K0.000 F500.000
G1 X33.841 Y-46.746 Z-1.850 F500.000
G2 X33.481 Y-47.021 Z-1.850 I-0.920 J0.828 K0.000 F500.000
G1 X33.481 Y-47.021 Z-2.000 F300.000
G1 X33.788 Y-47.328 Z-2.000 F500.000
G2 X36.407 Y-47.307 Z-2.000 I1.321 J-1.375 K0.000 F500.000
G2 X37.601 Y-46.967 Z-2.000 I1.043 J-1.397 K0.000 F500.000
G2 X38.153 Y-45.505 Z-2.000 I1.873 J0.128 K0.000 F500.000
G1 X45.505 Y-38.153 Z-2.000 F500.000
G2 X46.970 Y-37.596 Z-2.000 I1.360 J-1.373 K0.000 F500.000
G2 X47.307 Y-36.407 Z-2.000 I1.712 J0.157 K0.000 F500.000
G2 X47.328 Y-33.788 Z-2.000 I1.396 J1.298 K0.000 F500.000
G1 X47.027 Y-33.487 Z-2.000 F500.000
G2 X46.767 Y-33.818 Z-2.000 I-1.810 J1.154 K0.000 F500.000
G1 X45.773 Y-34.812 Z-2.000 F500.000
G2 X45.250 Y-35.173 Z-2.000 I-1.231 J1.225 K0.000 F500.000
G2 X45.294 Y-37.941 Z-2.000 I-1.320 J-1.405 K0.000 F500.000
G2 X44.201 Y-38.989 Z-2.000 I-5.865 J5.025 K0.000 F500.000
G2 X41.731 Y-38.780 Z-2.000 I-1.110 J1.581 K0.000 F500.000
G1 X40.760 Y-37.810 Z-2.000 F500.000
G2 X40.537 Y-37.534 Z-2.000 I1.287 J1.269 K0.000 F500.000
G1 X37.534 Y-40.537 Z-2.000 F500.000
G2 X37.810 Y-40.760 Z-2.000 I-0.993 J-1.510 K0.000 F500.000
G1 X38.780 Y-41.731 Z-2.000 F500.000
G2 X38.780 Y-44.455 Z-2.000 I-1.362 J-1.362 K0.000 F500.000
G2 X37.687 Y-45.502 Z-2.000 I-5.865 J5.025 K0.000 F500.000
G2 X35.189 Y-45.266 Z-2.000 I-1.110 J1.581 K0.000 F500.000
G2 X34.855 Y-45.731 Z-2.000 I-1.693 J0.862 K0.000 F500.000
G1 X33.841 Y-46.746 Z-2.000 F500.000
G2 X33.481 Y-47.021 Z-2.000 I-0.920 J0.828 K0.000 F500.000
G0 Z5.000
G0 X35.950 Y-44.561 Z5.000
G0 X35.950 Y-44.561 Z3.000
G1 X35.950 Y-44.561 Z-0.370 F300.000
G3 X36.359 Y-44.791 Z-0.370 I0.674 J0.722 K0.000 F500.000
G3 X37.209 Y-44.561 Z-0.370 I0.221 J0.872 K0.000 F500.000
G1 X38.048 Y-43.722 Z-0.370 F500.000
G3 X38.048 Y-42.463 Z-0.370 I-0.642 J0.629 K0.000 F500.000
G1 X37.077 Y-41.493 Z-0.370 F500.000
G3 X35.818 Y-41.493 Z-0.370 I-0.629 J-0.642 K0.000 F500.000
G1 X34.979 Y-42.332 Z-0.370 F500.000
G3 X34.979 Y-43.591 Z-0.370 I0.642 J-0.629 K0.000 F500.000
G1 X35.950 Y-44.561 Z-0.370 F500.000
G1 X35.950 Y-44.561 Z-0.740 F300.000
G3 X36.359 Y-44.791 Z-0.740 I0.674 J0.722 K0.000 F500.000
G3 X37.209 Y-44.561 Z-0.740 I0.221 J0.872 K0.000 F500.000
G1 X38.048 Y-43.722 Z-0.740 F500.000
G3 X38.048 Y-42.463 Z-0.740 I-0.642 J0.629 K0.000 F500.000
G1 X37.077 Y-41.493 Z-0.740 F500.000
G3 X35.818 Y-41.493 Z-0.740 I-0.629 J-0.642 K0.000 F500.000
G1 X34.979 Y-42.332 Z-0.740 F500.000
G3 X34.979 Y-43.591 Z-0.740 I0.642 J-0.629 K0.000 F500.000
G1 X35.950 Y-44.561 Z-0.740 F500.000
G1 X35.950 Y-44.561 Z-1.110 F300.000
G3 X36.359 Y-44.791 Z-1.110 I0.674 J0.722 K0.000 F500.000
G3 X37.209 Y-44.561 Z-1.110 I0.221 J0.872 K0.000 F500.000
G1 X38.048 Y-43.722 Z-1.110 F500.000
G3 X38.048 Y-42.463 Z-1.110 I-0.642 J0.629 K0.000 F500.000
G1 X37.077 Y-41.493 Z-1.110 F500.000
G3 X35.818 Y-41.493 Z-1.110 I-0.629 J-0.642 K0.000 F500.000
G1 X34.979 Y-42.332 Z-1.110 F500.000
G3 X34.979 Y-43.591 Z-1.110 I0.642 J-0.629 K0.000 F500.000
G1 X35.950 Y-44.561 Z-1.110 F500.000
G1 X35.950 Y-44.561 Z-1.480 F300.000
G3 X36.359 Y-44.791 Z-1.480 I0.674 J0.722 K0.000 F500.000
G3 X37.209 Y-44.561 Z-1.480 I0.221 J0.872 K0.000 F500.000
G1 X38.048 Y-43.722 Z-1.480 F500.000
G3 X38.048 Y-42.463 Z-1.480 I-0.642 J0.629 K0.000 F500.000
G1 X37.077 Y-41.493 Z-1.480 F500.000
G3 X35.818 Y-41.493 Z-1.480 I-0.629 J-0.642 K0.000 F500.000
G1 X34.979 Y-42.332 Z-1.480 F500.000
G3 X34.979 Y-43.591 Z-1.480 I0.642 J-0.629 K0.000 F500.000
G1 X35.950 Y-44.561 Z-1.480 F500.000
G1 X35.950 Y-44.561 Z-1.850 F300.000
G3 X36.359 Y-44.791 Z-1.850 I0.674 J0.722 K0.000 F500.000
G3 X37.209 Y-44.561 Z-1.850 I0.221 J0.872 K0.000 F500.000
G1 X38.048 Y-43.722 Z-1.850 F500.000
G3 X38.048 Y-42.463 Z-1.850 I-0.642 J0.629 K0.000 F500.000
G1 X37.077 Y-41.493 Z-1.850 F500.000
G3 X35.818 Y-41.493 Z-1.850 I-0.629 J-0.642 K0.000 F500.000
G1 X34.979 Y-42.332 Z-1.850 F500.000
G3 X34.979 Y-43.591 Z-1.850 I0.642 J-0.629 K0.000 F500.000
G1 X35.950 Y-44.561 Z-1.850 F500.000
G1 X35.950 Y-44.561 Z-2.000 F300.000
G3 X36.359 Y-44.791 Z-2.000 I0.674 J0.722 K0.000 F500.000
G3 X37.209 Y-44.561 Z-2.000 I0.221 J0.872 K0.000 F500.000
G1 X38.048 Y-43.722 Z-2.000 F500.000
G3 X38.048 Y-42.463 Z-2.000 I-0.642 J0.629 K0.000 F500.000
G1 X37.077 Y-41.493 Z-2.000 F500.000
G3 X35.818 Y-41.493 Z-2.000 I-0.629 J-0.642 K0.000 F500.000
G1 X34.979 Y-42.332 Z-2.000 F500.000
G3 X34.979 Y-43.591 Z-2.000 I0.642 J-0.629 K0.000 F500.000
G1 X35.950 Y-44.561 Z-2.000 F500.000
G0 Z5.000
G0 X40.168 Y-42.025 Z5.000
G0 X40.168 Y-42.025 Z3.000
G1 X40.168 Y-42.025 Z-0.370 F300.000
G1 X42.016 Y-40.176 Z-0.370 F500.000
G2 X40.998 Y-39.513 Z-0.370 I1.181 J2.924 K0.000 F500.000
G1 X40.511 Y-39.026 Z-0.370 F500.000
G1 X39.026 Y-40.511 Z-0.370 F500.000
G2 X39.904 Y-41.490 Z-0.370 I-2.724 J-3.328 K0.000 F500.000
G2 X40.168 Y-42.025 Z-0.370 I-1.211 J-0.931 K0.000 F500.000
G1 X40.262 Y-41.478 Z-0.370 F300.000
G1 X41.483 Y-40.257 Z-0.370 F500.000
