(Exported by FreeCAD)
(Post Processor: script_module)
(Output Time:2024-09-28 18:05:12.033056)
(Begin preamble)
G17 G90
G21
(Begin operation: Fixture)
(Path: Fixture)
G54
(Finish operation: Fixture)
(Begin operation: TC: 0.5mm_droite)
(Path: TC: 0.5mm_droite)
(TC: 0.5mm_droite)
(Begin toolchange)
( M6 T2 )
M3 S24000
(Finish operation: TC: 0.5mm_droite)
(Begin operation: aliens)
(Path: aliens)
(aliens)
G0 Z5.000
G0 X-39.243 Y-31.262
G0 Z3.000
G1 X-39.243 Y-31.262 Z-0.167 F60.000
G3 X-39.251 Y-31.243 Z-0.167 I-0.054 J-0.013 K0.000 F200.000
G3 X-39.482 Y-30.980 Z-0.167 I-1.364 J-0.967 K0.000 F200.000
G3 X-39.510 Y-31.269 Z-0.167 I0.342 J-0.178 K0.000 F200.000
G2 X-39.520 Y-31.388 Z-0.167 I-0.337 J-0.031 K0.000 F200.000
G3 X-39.489 Y-31.570 Z-0.167 I0.348 J-0.033 K0.000 F200.000
G1 X-39.329 Y-31.411 Z-0.167 F200.000
G2 X-39.252 Y-31.307 Z-0.167 I0.169 J-0.046 K0.000 F200.000
G3 X-39.243 Y-31.262 Z-0.167 I-0.045 J0.033 K0.000 F200.000
G0 Z5.000
G0 X-40.094 Y-30.392 Z5.000
G0 X-40.094 Y-30.392 Z3.000
G1 X-40.094 Y-30.392 Z-0.167 F60.000
G2 X-40.349 Y-30.154 Z-0.167 I23.714 J25.603 K0.000 F200.000
G3 X-40.415 Y-30.153 Z-0.167 I-0.034 J-0.046 K0.000 F200.000
G3 X-40.673 Y-30.379 Z-0.167 I0.932 J-1.323 K0.000 F200.000
G3 X-40.519 Y-30.429 Z-0.167 I0.197 J0.351 K0.000 F200.000
G2 X-40.302 Y-30.416 Z-0.167 I0.184 J-1.302 K0.000 F200.000
G3 X-40.094 Y-30.392 Z-0.167 I0.067 J0.337 K0.000 F200.000
G0 Z5.000
G0 X-39.615 Y-33.499 Z5.000
G0 X-39.615 Y-33.499 Z3.000
G1 X-39.615 Y-33.499 Z-0.167 F60.000
G3 X-39.643 Y-33.791 Z-0.167 I0.341 J-0.179 K0.000 F200.000
G2 X-39.651 Y-33.908 Z-0.167 I-0.339 J-0.034 K0.000 F200.000
G3 X-39.618 Y-34.085 Z-0.167 I0.346 J-0.028 K0.000 F200.000
G1 X-39.462 Y-33.929 Z-0.167 F200.000
G2 X-39.385 Y-33.827 Z-0.167 I0.168 J-0.047 K0.000 F200.000
G3 X-39.384 Y-33.761 Z-0.167 I-0.046 J0.034 K0.000 F200.000
G3 X-39.615 Y-33.499 Z-0.167 I-1.358 J-0.961 K0.000 F200.000
G0 Z5.000
G0 X-42.832 Y-33.090 Z5.000
G0 X-42.832 Y-33.090 Z3.000
G1 X-42.832 Y-33.090 Z-0.167 F60.000
G2 X-43.083 Y-32.856 Z-0.167 I16.174 J17.563 K0.000 F200.000
G3 X-43.149 Y-32.855 Z-0.167 I-0.034 J-0.046 K0.000 F200.000
G3 X-43.406 Y-33.081 Z-0.167 I0.941 J-1.332 K0.000 F200.000
G3 X-43.249 Y-33.131 Z-0.167 I0.200 J0.359 K0.000 F200.000
G1 X-43.036 Y-33.117 Z-0.167 F200.000
G3 X-42.832 Y-33.090 Z-0.167 I0.061 J0.329 K0.000 F200.000
G0 Z5.000
G0 X-43.590 Y-30.120 Z5.000
G0 X-43.590 Y-30.120 Z3.000
G1 X-43.590 Y-30.120 Z-0.167 F60.000
G1 X-43.430 Y-29.959 Z-0.167 F200.000
G2 X-43.354 Y-29.859 Z-0.167 I0.168 J-0.048 K0.000 F200.000
G3 X-43.353 Y-29.793 Z-0.167 I-0.047 J0.034 K0.000 F200.000
G3 X-43.584 Y-29.530 Z-0.167 I-1.368 J-0.971 K0.000 F200.000
G3 X-43.611 Y-29.819 Z-0.167 I0.342 J-0.178 K0.000 F200.000
G2 X-43.621 Y-29.938 Z-0.167 I-0.337 J-0.031 K0.000 F200.000
G3 X-43.590 Y-30.120 Z-0.167 I0.348 J-0.034 K0.000 F200.000
G0 Z5.000
G0 X-44.130 Y-29.008 Z5.000
G0 X-44.130 Y-29.008 Z3.000
G1 X-44.130 Y-29.008 Z-0.167 F60.000
G2 X-44.384 Y-28.770 Z-0.167 I19.239 J20.809 K0.000 F200.000
G3 X-44.450 Y-28.769 Z-0.167 I-0.034 J-0.046 K0.000 F200.000
G3 X-44.708 Y-28.996 Z-0.167 I0.937 J-1.326 K0.000 F200.000
G3 X-44.554 Y-29.045 Z-0.167 I0.197 J0.350 K0.000 F200.000
G2 X-44.338 Y-29.032 Z-0.167 I0.184 J-1.290 K0.000 F200.000
G3 X-44.130 Y-29.008 Z-0.167 I0.067 J0.336 K0.000 F200.000
G0 Z5.000
G0 X-49.195 Y-33.507 Z5.000
G0 X-49.195 Y-33.507 Z3.000
G1 X-49.195 Y-33.507 Z-0.167 F60.000
G2 X-49.429 Y-33.756 Z-0.167 I-11.848 J10.836 K0.000 F200.000
G3 X-49.429 Y-33.821 Z-0.167 I0.045 J-0.033 K0.000 F200.000
G3 X-49.200 Y-34.082 Z-0.167 I1.379 J0.985 K0.000 F200.000
G3 X-49.164 Y-33.751 Z-0.167 I-0.356 J0.205 K0.000 F200.000
G2 X-49.164 Y-33.641 Z-0.167 I0.409 J0.054 K0.000 F200.000
G3 X-49.195 Y-33.507 Z-0.167 I-0.289 J0.003 K0.000 F200.000
G0 Z5.000
G0 X-49.141 Y-36.104 Z5.000
G0 X-49.141 Y-36.104 Z3.000
G1 X-49.141 Y-36.104 Z-0.167 F60.000
G3 X-49.376 Y-36.357 Z-0.167 I34.639 J-32.446 K0.000 F200.000
G3 X-49.376 Y-36.427 Z-0.167 I0.049 J-0.035 K0.000 F200.000
G3 X-49.146 Y-36.684 Z-0.167 I1.516 J1.122 K0.000 F200.000
G3 X-49.120 Y-36.393 Z-0.167 I-0.356 J0.179 K0.000 F200.000
G2 X-49.110 Y-36.276 Z-0.167 I0.342 J0.031 K0.000 F200.000
G3 X-49.141 Y-36.104 Z-0.167 I-0.341 J0.029 K0.000 F200.000
G0 Z5.000
G0 X-51.930 Y-38.765 Z5.000
G0 X-51.930 Y-38.765 Z3.000
G1 X-51.930 Y-38.765 Z-0.167 F60.000
G2 X-52.167 Y-39.019 Z-0.167 I-11.642 J10.637 K0.000 F200.000
G3 X-52.167 Y-39.083 Z-0.167 I0.045 J-0.033 K0.000 F200.000
G3 X-51.938 Y-39.344 Z-0.167 I1.353 J0.959 K0.000 F200.000
G3 X-51.901 Y-39.016 Z-0.167 I-0.357 J0.206 K0.000 F200.000
G2 X-51.900 Y-38.903 Z-0.167 I0.404 J0.050 K0.000 F200.000
G3 X-51.930 Y-38.765 Z-0.167 I-0.292 J0.007 K0.000 F200.000
G0 Z5.000
G0 X-51.272 Y-39.994 Z5.000
G0 X-51.272 Y-39.994 Z3.000
G1 X-51.272 Y-39.994 Z-0.167 F60.000
G1 X-51.131 Y-40.135 Z-0.167 F200.000
G2 X-51.030 Y-40.215 Z-0.167 I-0.036 J-0.150 K0.000 F200.000
G3 X-50.953 Y-40.205 Z-0.167 I0.026 J0.101 K0.000 F200.000
G3 X-50.711 Y-39.991 Z-0.167 I-0.938 J1.307 K0.000 F200.000
G3 X-51.096 Y-39.955 Z-0.167 I-0.239 J-0.484 K0.000 F200.000
G3 X-51.272 Y-39.994 Z-0.167 I0.004 J-0.437 K0.000 F200.000
G0 Z5.000
G0 X-48.573 Y-40.107 Z5.000
G0 X-48.573 Y-40.107 Z3.000
G1 X-48.573 Y-40.107 Z-0.167 F60.000
G1 X-48.430 Y-40.250 Z-0.167 F200.000
G2 X-48.329 Y-40.329 Z-0.167 I-0.036 J-0.150 K0.000 F200.000
G3 X-48.252 Y-40.320 Z-0.167 I0.026 J0.101 K0.000 F200.000
G3 X-48.010 Y-40.106 Z-0.167 I-0.946 J1.315 K0.000 F200.000
G3 X-48.393 Y-40.069 Z-0.167 I-0.240 J-0.482 K0.000 F200.000
G3 X-48.573 Y-40.107 Z-0.167 I-0.002 J-0.443 K0.000 F200.000
G0 Z5.000
G0 X-45.706 Y-38.781 Z5.000
G0 X-45.706 Y-38.781 Z3.000
G1 X-45.706 Y-38.781 Z-0.167 F60.000
G3 X-45.426 Y-39.131 Z-0.167 I0.848 J0.392 K0.000 F200.000
G3 X-44.959 Y-39.380 Z-0.167 I0.477 J0.332 K0.000 F200.000
G3 X-44.564 Y-38.967 Z-0.167 I-0.113 J0.503 K0.000 F200.000
G2 X-44.468 Y-38.864 Z-0.167 I0.145 J-0.038 K0.000 F200.000
G3 X-44.088 Y-38.374 Z-0.167 I-0.122 J0.486 K0.000 F200.000
G3 X-44.390 Y-37.947 Z-0.167 I-0.878 J-0.301 K0.000 F200.000
G2 X-44.457 Y-37.859 Z-0.167 I0.342 J0.328 K0.000 F200.000
G3 X-44.922 Y-37.713 Z-0.167 I-0.344 J-0.281 K0.000 F200.000
G3 X-45.160 Y-37.881 Z-0.167 I0.115 J-0.415 K0.000 F200.000
G2 X-45.520 Y-38.274 Z-0.167 I-0.480 J0.078 K0.000 F200.000
G3 X-45.759 Y-38.637 Z-0.167 I0.129 J-0.345 K0.000 F200.000
G3 X-45.706 Y-38.781 Z-0.167 I0.901 J0.247 K0.000 F200.000
G0 Z5.000
G0 X-45.180 Y-38.678 Z5.000
G0 X-45.180 Y-38.678 Z3.000
G1 X-45.180 Y-38.678 Z-0.167 F60.000
G2 X-45.039 Y-38.815 Z-0.167 I-0.931 J-1.100 K0.000 F200.000
G2 X-44.643 Y-38.396 Z-0.167 I0.614 J-0.184 K0.000 F200.000
G2 X-44.773 Y-38.269 Z-0.167 I1.470 J1.634 K0.000 F200.000
G2 X-45.180 Y-38.678 Z-0.167 I-0.880 J0.469 K0.000 F200.000
G0 Z5.000
G0 X-39.273 Y-44.731 Z5.000
G0 X-39.273 Y-44.731 Z3.000
G1 X-39.273 Y-44.731 Z-0.167 F60.000
G3 X-39.384 Y-45.007 Z-0.167 I0.258 J-0.264 K0.000 F200.000
G3 X-39.050 Y-45.507 Z-0.167 I0.891 J0.233 K0.000 F200.000
G3 X-38.584 Y-45.756 Z-0.167 I0.476 J0.330 K0.000 F200.000
G3 X-38.188 Y-45.356 Z-0.167 I-0.117 J0.512 K0.000 F200.000
G2 X-38.088 Y-45.257 Z-0.167 I0.143 J-0.045 K0.000 F200.000
G3 X-37.692 Y-44.778 Z-0.167 I-0.101 J0.486 K0.000 F200.000
G3 X-37.995 Y-44.342 Z-0.167 I-0.864 J-0.278 K0.000 F200.000
G2 X-38.061 Y-44.256 Z-0.167 I0.338 J0.326 K0.000 F200.000
G3 X-38.520 Y-44.106 Z-0.167 I-0.345 J-0.282 K0.000 F200.000
G3 X-38.759 Y-44.267 Z-0.167 I0.107 J-0.418 K0.000 F200.000
G2 X-39.132 Y-44.645 Z-0.167 I-0.474 J0.095 K0.000 F200.000
G3 X-39.273 Y-44.731 Z-0.167 I0.117 J-0.350 K0.000 F200.000
G0 Z5.000
G0 X-38.800 Y-45.058 Z5.000
G0 X-38.800 Y-45.058 Z3.000
G1 X-38.800 Y-45.058 Z-0.167 F60.000
G2 X-38.660 Y-45.194 Z-0.167 I-0.780 J-0.944 K0.000 F200.000
G2 X-38.252 Y-44.786 Z-0.167 I0.610 J-0.202 K0.000 F200.000
G2 X-38.381 Y-44.661 Z-0.167 I1.291 J1.456 K0.000 F200.000
G2 X-38.800 Y-45.058 Z-0.167 I-0.864 J0.492 K0.000 F200.000
G0 Z5.000
G0 X-40.091 Y-48.019 Z5.000
G0 X-40.091 Y-48.019 Z3.000
G1 X-40.091 Y-48.019 Z-0.167 F60.000
G2 X-40.327 Y-48.269 Z-0.167 I-23.751 J22.133 K0.000 F200.000
G3 X-40.328 Y-48.336 Z-0.167 I0.047 J-0.035 K0.000 F200.000
G3 X-40.098 Y-48.597 Z-0.167 I1.352 J0.959 K0.000 F200.000
G3 X-40.062 Y-48.270 Z-0.167 I-0.356 J0.204 K0.000 F200.000
G2 X-40.061 Y-48.158 Z-0.167 I0.404 J0.050 K0.000 F200.000
G3 X-40.091 Y-48.019 Z-0.167 I-0.293 J0.008 K0.000 F200.000
G0 Z5.000
G0 X-39.976 Y-50.720 Z5.000
G0 X-39.976 Y-50.720 Z3.000
G1 X-39.976 Y-50.720 Z-0.167 F60.000
G2 X-40.212 Y-50.970 Z-0.167 I-21.563 J20.079 K0.000 F200.000
G3 X-40.213 Y-51.037 Z-0.167 I0.047 J-0.034 K0.000 F200.000
G3 X-39.983 Y-51.298 Z-0.167 I1.358 J0.965 K0.000 F200.000
G3 X-39.947 Y-50.972 Z-0.167 I-0.356 J0.205 K0.000 F200.000
G2 X-39.945 Y-50.859 Z-0.167 I0.406 J0.050 K0.000 F200.000
G3 X-39.976 Y-50.720 Z-0.167 I-0.294 J0.008 K0.000 F200.000
G0 Z5.000
G0 X-39.320 Y-51.946 Z5.000
G0 X-39.320 Y-51.946 Z3.000
G1 X-39.320 Y-51.946 Z-0.167 F60.000
G1 X-39.177 Y-52.090 Z-0.167 F200.000
G2 X-39.076 Y-52.169 Z-0.167 I-0.036 J-0.150 K0.000 F200.000
G3 X-38.999 Y-52.159 Z-0.167 I0.027 J0.101 K0.000 F200.000
G3 X-38.756 Y-51.946 Z-0.167 I-0.909 J1.278 K0.000 F200.000
G3 X-39.139 Y-51.908 Z-0.167 I-0.240 J-0.482 K0.000 F200.000
G3 X-39.320 Y-51.946 Z-0.167 I-0.002 J-0.443 K0.000 F200.000
G0 Z5.000
G0 X-36.595 Y-49.221 Z5.000
G0 X-36.595 Y-49.221 Z3.000
G1 X-36.595 Y-49.221 Z-0.167 F60.000
G1 X-36.516 Y-49.300 Z-0.167 F200.000
G2 X-36.415 Y-49.379 Z-0.167 I-0.036 J-0.150 K0.000 F200.000
G3 X-36.337 Y-49.370 Z-0.167 I0.027 J0.101 K0.000 F200.000
G3 X-36.095 Y-49.156 Z-0.167 I-0.909 J1.277 K0.000 F200.000
G3 X-36.479 Y-49.120 Z-0.167 I-0.239 J-0.481 K0.000 F200.000
G3 X-36.657 Y-49.159 Z-0.167 I0.004 J-0.438 K0.000 F200.000
G1 X-36.595 Y-49.221 Z-0.167 F200.000
G0 Z5.000
G0 X-34.059 Y-49.208 Z5.000
G0 X-34.059 Y-49.208 Z3.000
G1 X-34.059 Y-49.208 Z-0.167 F60.000
G1 X-33.915 Y-49.352 Z-0.167 F200.000
G2 X-33.815 Y-49.431 Z-0.167 I-0.037 J-0.149 K0.000 F200.000
G3 X-33.738 Y-49.421 Z-0.167 I0.027 J0.101 K0.000 F200.000
G3 X-33.495 Y-49.207 Z-0.167 I-0.916 J1.284 K0.000 F200.000
G3 X-33.879 Y-49.171 Z-0.167 I-0.240 J-0.482 K0.000 F200.000
G3 X-34.059 Y-49.208 Z-0.167 I-0.002 J-0.440 K0.000 F200.000
G0 Z5.000
G0 X-33.048 Y-43.443 Z5.000
G0 X-33.048 Y-43.443 Z3.000
G1 X-33.048 Y-43.443 Z-0.167 F60.000
G1 X-32.891 Y-43.285 Z-0.167 F200.000
G2 X-32.813 Y-43.182 Z-0.167 I0.169 J-0.046 K0.000 F200.000
G3 X-32.812 Y-43.117 Z-0.167 I-0.045 J0.033 K0.000 F200.000
G3 X-33.044 Y-42.854 Z-0.167 I-1.384 J-0.987 K0.000 F200.000
G3 X-33.072 Y-43.147 Z-0.167 I0.342 J-0.180 K0.000 F200.000
G2 X-33.081 Y-43.265 Z-0.167 I-0.338 J-0.033 K0.000 F200.000
G3 X-33.048 Y-43.443 Z-0.167 I0.345 J-0.029 K0.000 F200.000
G0 Z5.000
G0 X-30.103 Y-43.603 Z5.000
G0 X-30.103 Y-43.603 Z3.000
G1 X-30.103 Y-43.603 Z-0.167 F60.000
G3 X-29.950 Y-43.652 Z-0.167 I0.194 J0.349 K0.000 F200.000
G2 X-29.732 Y-43.638 Z-0.167 I0.188 J-1.273 K0.000 F200.000
G3 X-29.524 Y-43.614 Z-0.167 I0.067 J0.337 K0.000 F200.000
G3 X-29.778 Y-43.377 Z-0.167 I-20.963 J-22.202 K0.000 F200.000
G3 X-29.849 Y-43.377 Z-0.167 I-0.035 J-0.050 K0.000 F200.000
G3 X-30.103 Y-43.603 Z-0.167 I1.119 J-1.508 K0.000 F200.000
G0 Z5.000
G0 X-29.006 Y-44.126 Z5.000
G0 X-29.006 Y-44.126 Z3.000
G1 X-29.006 Y-44.126 Z-0.167 F60.000
G3 X-29.027 Y-44.403 Z-0.167 I0.348 J-0.166 K0.000 F200.000
G2 X-29.038 Y-44.522 Z-0.167 I-0.336 J-0.031 K0.000 F200.000
G3 X-29.006 Y-44.704 Z-0.167 I0.348 J-0.034 K0.000 F200.000
G1 X-28.847 Y-44.545 Z-0.167 F200.000
G2 X-28.769 Y-44.441 Z-0.167 I0.169 J-0.046 K0.000 F200.000
G3 X-28.769 Y-44.377 Z-0.167 I-0.045 J0.033 K0.000 F200.000
G3 X-29.000 Y-44.114 Z-0.167 I-1.383 J-0.986 K0.000 F200.000
G3 X-29.006 Y-44.126 Z-0.167 I0.342 J-0.178 K0.000 F200.000
G0 Z5.000
G0 X-30.390 Y-40.668 Z5.000
G0 X-30.390 Y-40.668 Z3.000
G1 X-30.390 Y-40.668 Z-0.167 F60.000
G1 X-30.231 Y-40.509 Z-0.167 F200.000
G2 X-30.153 Y-40.406 Z-0.167 I0.168 J-0.046 K0.000 F200.000
G3 X-30.153 Y-40.341 Z-0.167 I-0.045 J0.033 K0.000 F200.000
G3 X-30.384 Y-40.079 Z-0.167 I-1.365 J-0.968 K0.000 F200.000
G3 X-30.411 Y-40.367 Z-0.167 I0.342 J-0.178 K0.000 F200.000
G2 X-30.422 Y-40.487 Z-0.167 I-0.336 J-0.031 K0.000 F200.000
G3 X-30.390 Y-40.668 Z-0.167 I0.348 J-0.034 K0.000 F200.000
G0 Z5.000
G0 X-30.838 Y-39.649 Z5.000
G0 X-30.838 Y-39.649 Z3.000
G1 X-30.838 Y-39.649 Z-0.167 F60.000
G3 X-31.090 Y-39.415 Z-0.167 I-34.006 J-36.268 K0.000 F200.000
G3 X-31.159 Y-39.415 Z-0.167 I-0.035 J-0.049 K0.000 F200.000
G3 X-31.412 Y-39.641 Z-0.167 I1.145 J-1.534 K0.000 F200.000
G3 X-31.256 Y-39.690 Z-0.167 I0.196 J0.353 K0.000 F200.000
G1 X-31.042 Y-39.675 Z-0.167 F200.000
G3 X-30.838 Y-39.649 Z-0.167 I0.060 J0.330 K0.000 F200.000
G0 Z5.000
G0 X-33.510 Y-39.619 Z5.000
G0 X-33.510 Y-39.619 Z3.000
G1 X-33.510 Y-39.619 Z-0.167 F60.000
G2 X-33.766 Y-39.380 Z-0.167 I9.674 J10.632 K0.000 F200.000
G3 X-33.830 Y-39.379 Z-0.167 I-0.032 J-0.045 K0.000 F200.000
G3 X-34.088 Y-39.606 Z-0.167 I0.968 J-1.360 K0.000 F200.000
G3 X-33.934 Y-39.656 Z-0.167 I0.197 J0.353 K0.000 F200.000
G2 X-33.717 Y-39.643 Z-0.167 I0.184 J-1.290 K0.000 F200.000
G3 X-33.510 Y-39.619 Z-0.167 I0.067 J0.338 K0.000 F200.000
G1 X-33.510 Y-39.619 Z-0.333 F60.000
G2 X-33.766 Y-39.380 Z-0.333 I9.674 J10.632 K0.000 F200.000
G3 X-33.830 Y-39.379 Z-0.333 I-0.032 J-0.045 K0.000 F200.000
G3 X-34.088 Y-39.606 Z-0.333 I0.968 J-1.360 K0.000 F200.000
G3 X-33.934 Y-39.656 Z-0.333 I0.197 J0.353 K0.000 F200.000
G2 X-33.717 Y-39.643 Z-0.333 I0.184 J-1.290 K0.000 F200.000
G3 X-33.510 Y-39.619 Z-0.333 I0.067 J0.338 K0.000 F200.000
G0 Z5.000
G0 X-31.412 Y-39.641 Z5.000
G0 X-31.412 Y-39.641 Z3.000
G1 X-31.412 Y-39.641 Z-0.333 F60.000
G3 X-31.256 Y-39.690 Z-0.333 I0.196 J0.353 K0.000 F200.000
G1 X-31.042 Y-39.675 Z-0.333 F200.000
G3 X-30.838 Y-39.649 Z-0.333 I0.060 J0.330 K0.000 F200.000
G3 X-31.090 Y-39.415 Z-0.333 I-34.006 J-36.268 K0.000 F200.000
G3 X-31.159 Y-39.415 Z-0.333 I-0.035 J-0.049 K0.000 F200.000
G3 X-31.412 Y-39.641 Z-0.333 I1.145 J-1.534 K0.000 F200.000
G0 Z5.000
G0 X-30.394 Y-40.099 Z5.000
G0 X-30.394 Y-40.099 Z3.000
G1 X-30.394 Y-40.099 Z-0.333 F60.000
G3 X-30.411 Y-40.367 Z-0.333 I0.352 J-0.158 K0.000 F200.000
G2 X-30.422 Y-40.487 Z-0.333 I-0.336 J-0.031 K0.000 F200.000
G3 X-30.390 Y-40.668 Z-0.333 I0.348 J-0.034 K0.000 F200.000
G1 X-30.231 Y-40.509 Z-0.333 F200.000
G2 X-30.153 Y-40.406 Z-0.333 I0.168 J-0.046 K0.000 F200.000
G3 X-30.153 Y-40.341 Z-0.333 I-0.045 J0.033 K0.000 F200.000
G3 X-30.384 Y-40.079 Z-0.333 I-1.365 J-0.968 K0.000 F200.000
G3 X-30.394 Y-40.099 Z-0.333 I0.342 J-0.178 K0.000 F200.000
G0 Z5.000
G0 X-29.824 Y-43.366 Z5.000
G0 X-29.824 Y-43.366 Z3.000
G1 X-29.824 Y-43.366 Z-0.333 F60.000
G3 X-29.849 Y-43.377 Z-0.333 I0.010 J-0.060 K0.000 F200.000
G3 X-30.103 Y-43.603 Z-0.333 I1.119 J-1.508 K0.000 F200.000
G3 X-29.950 Y-43.652 Z-0.333 I0.194 J0.349 K0.000 F200.000
G2 X-29.732 Y-43.638 Z-0.333 I0.188 J-1.273 K0.000 F200.000
G3 X-29.524 Y-43.614 Z-0.333 I0.067 J0.337 K0.000 F200.000
G3 X-29.778 Y-43.377 Z-0.333 I-20.963 J-22.202 K0.000 F200.000
G3 X-29.824 Y-43.366 Z-0.333 I-0.035 J-0.050 K0.000 F200.000
G0 Z5.000
G0 X-29.000 Y-44.114 Z5.000
G0 X-29.000 Y-44.114 Z3.000
G1 X-29.000 Y-44.114 Z-0.333 F60.000
G3 X-29.027 Y-44.403 Z-0.333 I0.342 J-0.178 K0.000 F200.000
G2 X-29.038 Y-44.522 Z-0.333 I-0.336 J-0.031 K0.000 F200.000
G3 X-29.006 Y-44.704 Z-0.333 I0.348 J-0.034 K0.000 F200.000
G1 X-28.847 Y-44.545 Z-0.333 F200.000
G2 X-28.769 Y-44.441 Z-0.333 I0.169 J-0.046 K0.000 F200.000
G3 X-28.769 Y-44.377 Z-0.333 I-0.045 J0.033 K0.000 F200.000
G3 X-29.000 Y-44.114 Z-0.333 I-1.383 J-0.986 K0.000 F200.000
G0 Z5.000
G0 X-32.804 Y-43.162 Z5.000
G0 X-32.804 Y-43.162 Z3.000
G1 X-32.804 Y-43.162 Z-0.333 F60.000
G3 X-32.812 Y-43.117 Z-0.333 I-0.054 J0.013 K0.000 F200.000
G3 X-33.044 Y-42.854 Z-0.333 I-1.384 J-0.987 K0.000 F200.000
G3 X-33.072 Y-43.147 Z-0.333 I0.342 J-0.180 K0.000 F200.000
G2 X-33.081 Y-43.265 Z-0.333 I-0.338 J-0.033 K0.000 F200.000
G3 X-33.048 Y-43.443 Z-0.333 I0.345 J-0.029 K0.000 F200.000
G1 X-32.891 Y-43.285 Z-0.333 F200.000
G2 X-32.813 Y-43.182 Z-0.333 I0.169 J-0.046 K0.000 F200.000
G3 X-32.804 Y-43.162 Z-0.333 I-0.045 J0.033 K0.000 F200.000
G0 Z5.000
G0 X-37.692 Y-44.778 Z5.000
G0 X-37.692 Y-44.778 Z3.000
G1 X-37.692 Y-44.778 Z-0.333 F60.000
G3 X-37.995 Y-44.342 Z-0.333 I-0.864 J-0.278 K0.000 F200.000
G2 X-38.061 Y-44.256 Z-0.333 I0.338 J0.326 K0.000 F200.000
G3 X-38.520 Y-44.106 Z-0.333 I-0.345 J-0.282 K0.000 F200.000
G3 X-38.759 Y-44.267 Z-0.333 I0.107 J-0.418 K0.000 F200.000
G2 X-39.132 Y-44.645 Z-0.333 I-0.474 J0.095 K0.000 F200.000
G3 X-39.384 Y-45.007 Z-0.333 I0.117 J-0.350 K0.000 F200.000
G3 X-39.050 Y-45.507 Z-0.333 I0.891 J0.233 K0.000 F200.000
G3 X-38.584 Y-45.756 Z-0.333 I0.476 J0.330 K0.000 F200.000
G3 X-38.188 Y-45.356 Z-0.333 I-0.117 J0.512 K0.000 F200.000
G2 X-38.088 Y-45.257 Z-0.333 I0.143 J-0.045 K0.000 F200.000
G3 X-37.692 Y-44.778 Z-0.333 I-0.101 J0.486 K0.000 F200.000
G0 Z5.000
G0 X-38.252 Y-44.786 Z5.000
G0 X-38.252 Y-44.786 Z3.000
G1 X-38.252 Y-44.786 Z-0.333 F60.000
G2 X-38.381 Y-44.661 Z-0.333 I1.291 J1.456 K0.000 F200.000
G2 X-38.800 Y-45.058 Z-0.333 I-0.864 J0.492 K0.000 F200.000
G2 X-38.660 Y-45.194 Z-0.333 I-0.780 J-0.944 K0.000 F200.000
G2 X-38.252 Y-44.786 Z-0.333 I0.610 J-0.202 K0.000 F200.000
G0 Z5.000
G0 X-40.091 Y-48.019 Z5.000
G0 X-40.091 Y-48.019 Z3.000
G1 X-40.091 Y-48.019 Z-0.333 F60.000
G2 X-40.327 Y-48.269 Z-0.333 I-23.751 J22.133 K0.000 F200.000
G3 X-40.328 Y-48.336 Z-0.333 I0.047 J-0.035 K0.000 F200.000
G3 X-40.098 Y-48.597 Z-0.333 I1.352 J0.959 K0.000 F200.000
G3 X-40.062 Y-48.270 Z-0.333 I-0.356 J0.204 K0.000 F200.000
G2 X-40.061 Y-48.158 Z-0.333 I0.404 J0.050 K0.000 F200.000
G3 X-40.091 Y-48.019 Z-0.333 I-0.293 J0.008 K0.000 F200.000
G0 Z5.000
G0 X-39.976 Y-50.720 Z5.000
G0 X-39.976 Y-50.720 Z3.000
G1 X-39.976 Y-50.720 Z-0.333 F60.000
G2 X-40.212 Y-50.970 Z-0.333 I-21.563 J20.079 K0.000 F200.000
G3 X-40.213 Y-51.037 Z-0.333 I0.047 J-0.034 K0.000 F200.000
G3 X-39.983 Y-51.298 Z-0.333 I1.358 J0.965 K0.000 F200.000
G3 X-39.947 Y-50.972 Z-0.333 I-0.356 J0.205 K0.000 F200.000
G2 X-39.945 Y-50.859 Z-0.333 I0.406 J0.050 K0.000 F200.000
G3 X-39.976 Y-50.720 Z-0.333 I-0.294 J0.008 K0.000 F200.000
G0 Z5.000
G0 X-39.320 Y-51.946 Z5.000
G0 X-39.320 Y-51.946 Z3.000
G1 X-39.320 Y-51.946 Z-0.333 F60.000
G1 X-39.177 Y-52.090 Z-0.333 F200.000
G2 X-39.076 Y-52.169 Z-0.333 I-0.036 J-0.150 K0.000 F200.000
G3 X-38.999 Y-52.159 Z-0.333 I0.027 J0.101 K0.000 F200.000
G3 X-38.756 Y-51.946 Z-0.333 I-0.909 J1.278 K0.000 F200.000
G3 X-39.139 Y-51.908 Z-0.333 I-0.240 J-0.482 K0.000 F200.000
G3 X-39.320 Y-51.946 Z-0.333 I-0.002 J-0.443 K0.000 F200.000
G0 Z5.000
G0 X-36.595 Y-49.221 Z5.000
G0 X-36.595 Y-49.221 Z3.000
G1 X-36.595 Y-49.221 Z-0.333 F60.000
G1 X-36.516 Y-49.300 Z-0.333 F200.000
G2 X-36.415 Y-49.379 Z-0.333 I-0.036 J-0.150 K0.000 F200.000
G3 X-36.337 Y-49.370 Z-0.333 I0.027 J0.101 K0.000 F200.000
G3 X-36.095 Y-49.156 Z-0.333 I-0.909 J1.277 K0.000 F200.000
G3 X-36.479 Y-49.120 Z-0.333 I-0.239 J-0.481 K0.000 F200.000
G3 X-36.657 Y-49.159 Z-0.333 I0.004 J-0.438 K0.000 F200.000
G1 X-36.595 Y-49.221 Z-0.333 F200.000
G0 Z5.000
G0 X-34.059 Y-49.208 Z5.000
G0 X-34.059 Y-49.208 Z3.000
G1 X-34.059 Y-49.208 Z-0.333 F60.000
G1 X-33.915 Y-49.352 Z-0.333 F200.000
G2 X-33.815 Y-49.431 Z-0.333 I-0.037 J-0.149 K0.000 F200.000
G3 X-33.738 Y-49.421 Z-0.333 I0.027 J0.101 K0.000 F200.000
G3 X-33.495 Y-49.207 Z-0.333 I-0.916 J1.284 K0.000 F200.000
G3 X-33.879 Y-49.171 Z-0.333 I-0.240 J-0.482 K0.000 F200.000
G3 X-34.059 Y-49.208 Z-0.333 I-0.002 J-0.440 K0.000 F200.000
G0 Z5.000
G0 X-44.696 Y-39.230 Z5.000
G0 X-44.696 Y-39.230 Z3.000
G1 X-44.696 Y-39.230 Z-0.333 F60.000
G3 X-44.564 Y-38.967 Z-0.333 I-0.376 J0.353 K0.000 F200.000
G2 X-44.468 Y-38.864 Z-0.333 I0.145 J-0.038 K0.000 F200.000
G3 X-44.088 Y-38.374 Z-0.333 I-0.122 J0.486 K0.000 F200.000
G3 X-44.390 Y-37.947 Z-0.333 I-0.878 J-0.301 K0.000 F200.000
G2 X-44.457 Y-37.859 Z-0.333 I0.342 J0.328 K0.000 F200.000
G3 X-44.922 Y-37.713 Z-0.333 I-0.344 J-0.281 K0.000 F200.000
G3 X-45.160 Y-37.881 Z-0.333 I0.115 J-0.415 K0.000 F200.000
G2 X-45.520 Y-38.274 Z-0.333 I-0.480 J0.078 K0.000 F200.000
G3 X-45.759 Y-38.637 Z-0.333 I0.129 J-0.345 K0.000 F200.000
G3 X-45.426 Y-39.131 Z-0.333 I0.901 J0.247 K0.000 F200.000
G3 X-44.959 Y-39.380 Z-0.333 I0.477 J0.332 K0.000 F200.000
G3 X-44.696 Y-39.230 Z-0.333 I-0.113 J0.503 K0.000 F200.000
G0 Z5.000
G0 X-45.039 Y-38.815 Z5.000
G0 X-45.039 Y-38.815 Z3.000
G1 X-45.039 Y-38.815 Z-0.333 F60.000
G2 X-44.643 Y-38.396 Z-0.333 I0.614 J-0.184 K0.000 F200.000
G2 X-44.773 Y-38.269 Z-0.333 I1.470 J1.634 K0.000 F200.000
G2 X-45.180 Y-38.678 Z-0.333 I-0.880 J0.469 K0.000 F200.000
G2 X-45.039 Y-38.815 Z-0.333 I-0.931 J-1.100 K0.000 F200.000
G0 Z5.000
G0 X-48.010 Y-40.106 Z5.000
G0 X-48.010 Y-40.106 Z3.000
G1 X-48.010 Y-40.106 Z-0.333 F60.000
G3 X-48.393 Y-40.069 Z-0.333 I-0.240 J-0.482 K0.000 F200.000
G3 X-48.573 Y-40.107 Z-0.333 I-0.002 J-0.443 K0.000 F200.000
G1 X-48.430 Y-40.250 Z-0.333 F200.000
G2 X-48.329 Y-40.329 Z-0.333 I-0.036 J-0.150 K0.000 F200.000
G3 X-48.252 Y-40.320 Z-0.333 I0.026 J0.101 K0.000 F200.000
G3 X-48.010 Y-40.106 Z-0.333 I-0.946 J1.315 K0.000 F200.000
G0 Z5.000
G0 X-50.711 Y-39.991 Z5.000
G0 X-50.711 Y-39.991 Z3.000
G1 X-50.711 Y-39.991 Z-0.333 F60.000
G3 X-51.096 Y-39.955 Z-0.333 I-0.239 J-0.484 K0.000 F200.000
G3 X-51.272 Y-39.994 Z-0.333 I0.004 J-0.437 K0.000 F200.000
G1 X-51.131 Y-40.135 Z-0.333 F200.000
G2 X-51.030 Y-40.215 Z-0.333 I-0.036 J-0.150 K0.000 F200.000
G3 X-50.953 Y-40.205 Z-0.333 I0.026 J0.101 K0.000 F200.000
G3 X-50.711 Y-39.991 Z-0.333 I-0.938 J1.307 K0.000 F200.000
G0 Z5.000
G0 X-51.932 Y-39.334 Z5.000
G0 X-51.932 Y-39.334 Z3.000
G1 X-51.932 Y-39.334 Z-0.333 F60.000
G3 X-51.901 Y-39.016 Z-0.333 I-0.363 J0.195 K0.000 F200.000
G2 X-51.900 Y-38.903 Z-0.333 I0.404 J0.050 K0.000 F200.000
G3 X-51.930 Y-38.765 Z-0.333 I-0.292 J0.007 K0.000 F200.000
G2 X-52.167 Y-39.019 Z-0.333 I-11.642 J10.637 K0.000 F200.000
G3 X-52.167 Y-39.083 Z-0.333 I0.045 J-0.033 K0.000 F200.000
G3 X-51.938 Y-39.344 Z-0.333 I1.353 J0.959 K0.000 F200.000
G3 X-51.932 Y-39.334 Z-0.333 I-0.357 J0.206 K0.000 F200.000
G0 Z5.000
G0 X-49.201 Y-36.631 Z5.000
G0 X-49.201 Y-36.631 Z3.000
G1 X-49.201 Y-36.631 Z-0.333 F60.000
G3 X-49.146 Y-36.684 Z-0.333 I1.341 J1.327 K0.000 F200.000
G3 X-49.120 Y-36.393 Z-0.333 I-0.356 J0.179 K0.000 F200.000
G2 X-49.110 Y-36.276 Z-0.333 I0.342 J0.031 K0.000 F200.000
G3 X-49.141 Y-36.104 Z-0.333 I-0.341 J0.029 K0.000 F200.000
G3 X-49.376 Y-36.357 Z-0.333 I34.639 J-32.446 K0.000 F200.000
G3 X-49.376 Y-36.427 Z-0.333 I0.049 J-0.035 K0.000 F200.000
G3 X-49.201 Y-36.631 Z-0.333 I1.516 J1.122 K0.000 F200.000
G0 Z5.000
G0 X-49.200 Y-34.082 Z5.000
G0 X-49.200 Y-34.082 Z3.000
G1 X-49.200 Y-34.082 Z-0.333 F60.000
G3 X-49.164 Y-33.751 Z-0.333 I-0.356 J0.205 K0.000 F200.000
G2 X-49.164 Y-33.641 Z-0.333 I0.409 J0.054 K0.000 F200.000
G3 X-49.195 Y-33.507 Z-0.333 I-0.289 J0.003 K0.000 F200.000
G2 X-49.429 Y-33.756 Z-0.333 I-11.848 J10.836 K0.000 F200.000
G3 X-49.429 Y-33.821 Z-0.333 I0.045 J-0.033 K0.000 F200.000
G3 X-49.200 Y-34.082 Z-0.333 I1.379 J0.985 K0.000 F200.000
G0 Z5.000
G0 X-43.406 Y-33.081 Z5.000
G0 X-43.406 Y-33.081 Z3.000
G1 X-43.406 Y-33.081 Z-0.333 F60.000
G3 X-43.249 Y-33.131 Z-0.333 I0.200 J0.359 K0.000 F200.000
G1 X-43.036 Y-33.117 Z-0.333 F200.000
G3 X-42.832 Y-33.090 Z-0.333 I0.061 J0.329 K0.000 F200.000
G2 X-43.083 Y-32.856 Z-0.333 I16.174 J17.563 K0.000 F200.000
G3 X-43.149 Y-32.855 Z-0.333 I-0.034 J-0.046 K0.000 F200.000
G3 X-43.406 Y-33.081 Z-0.333 I0.941 J-1.332 K0.000 F200.000
G0 Z5.000
G0 X-43.590 Y-30.120 Z5.000
G0 X-43.590 Y-30.120 Z3.000
G1 X-43.590 Y-30.120 Z-0.333 F60.000
G1 X-43.430 Y-29.959 Z-0.333 F200.000
G2 X-43.354 Y-29.859 Z-0.333 I0.168 J-0.048 K0.000 F200.000
G3 X-43.353 Y-29.793 Z-0.333 I-0.047 J0.034 K0.000 F200.000
G3 X-43.584 Y-29.530 Z-0.333 I-1.368 J-0.971 K0.000 F200.000
G3 X-43.611 Y-29.819 Z-0.333 I0.342 J-0.178 K0.000 F200.000
G2 X-43.621 Y-29.938 Z-0.333 I-0.337 J-0.031 K0.000 F200.000
G3 X-43.590 Y-30.120 Z-0.333 I0.348 J-0.034 K0.000 F200.000
G0 Z5.000
G0 X-44.130 Y-29.008 Z5.000
G0 X-44.130 Y-29.008 Z3.000
G1 X-44.130 Y-29.008 Z-0.333 F60.000
G2 X-44.384 Y-28.770 Z-0.333 I19.239 J20.809 K0.000 F200.000
G3 X-44.450 Y-28.769 Z-0.333 I-0.034 J-0.046 K0.000 F200.000
G3 X-44.708 Y-28.996 Z-0.333 I0.937 J-1.326 K0.000 F200.000
G3 X-44.554 Y-29.045 Z-0.333 I0.197 J0.350 K0.000 F200.000
G2 X-44.338 Y-29.032 Z-0.333 I0.184 J-1.290 K0.000 F200.000
G3 X-44.130 Y-29.008 Z-0.333 I0.067 J0.336 K0.000 F200.000
G0 Z5.000
G0 X-40.673 Y-30.379 Z5.000
G0 X-40.673 Y-30.379 Z3.000
G1 X-40.673 Y-30.379 Z-0.333 F60.000
G3 X-40.519 Y-30.429 Z-0.333 I0.197 J0.351 K0.000 F200.000
G2 X-40.302 Y-30.416 Z-0.333 I0.184 J-1.302 K0.000 F200.000
G3 X-40.094 Y-30.392 Z-0.333 I0.067 J0.337 K0.000 F200.000
G2 X-40.349 Y-30.154 Z-0.333 I23.714 J25.603 K0.000 F200.000
G3 X-40.415 Y-30.153 Z-0.333 I-0.034 J-0.046 K0.000 F200.000
G3 X-40.673 Y-30.379 Z-0.333 I0.932 J-1.323 K0.000 F200.000
G0 Z5.000
G0 X-39.482 Y-30.980 Z5.000
G0 X-39.482 Y-30.980 Z3.000
G1 X-39.482 Y-30.980 Z-0.333 F60.000
G3 X-39.510 Y-31.269 Z-0.333 I0.342 J-0.178 K0.000 F200.000
G2 X-39.520 Y-31.388 Z-0.333 I-0.337 J-0.031 K0.000 F200.000
G3 X-39.489 Y-31.570 Z-0.333 I0.348 J-0.033 K0.000 F200.000
G1 X-39.329 Y-31.411 Z-0.333 F200.000
G2 X-39.252 Y-31.307 Z-0.333 I0.169 J-0.046 K0.000 F200.000
G3 X-39.251 Y-31.243 Z-0.333 I-0.045 J0.033 K0.000 F200.000
G3 X-39.482 Y-30.980 Z-0.333 I-1.364 J-0.967 K0.000 F200.000
G0 Z5.000
G0 X-39.615 Y-33.499 Z5.000
G0 X-39.615 Y-33.499 Z3.000
G1 X-39.615 Y-33.499 Z-0.333 F60.000
G3 X-39.643 Y-33.791 Z-0.333 I0.341 J-0.179 K0.000 F200.000
G2 X-39.651 Y-33.908 Z-0.333 I-0.339 J-0.034 K0.000 F200.000
G3 X-39.618 Y-34.085 Z-0.333 I0.346 J-0.028 K0.000 F200.000
G1 X-39.462 Y-33.929 Z-0.333 F200.000
G2 X-39.385 Y-33.827 Z-0.333 I0.168 J-0.047 K0.000 F200.000
G3 X-39.384 Y-33.761 Z-0.333 I-0.046 J0.034 K0.000 F200.000
G3 X-39.615 Y-33.499 Z-0.333 I-1.358 J-0.961 K0.000 F200.000
G1 X-39.615 Y-33.499 Z-0.500 F60.000
G3 X-39.643 Y-33.791 Z-0.500 I0.341 J-0.179 K0.000 F200.000
G2 X-39.651 Y-33.908 Z-0.500 I-0.339 J-0.034 K0.000 F200.000
G3 X-39.618 Y-34.085 Z-0.500 I0.346 J-0.028 K0.000 F200.000
G1 X-39.462 Y-33.929 Z-0.500 F200.000
G2 X-39.385 Y-33.827 Z-0.500 I0.168 J-0.047 K0.000 F200.000
G3 X-39.384 Y-33.761 Z-0.500 I-0.046 J0.034 K0.000 F200.000
G3 X-39.615 Y-33.499 Z-0.500 I-1.358 J-0.961 K0.000 F200.000
G0 Z5.000
G0 X-39.489 Y-31.570 Z5.000
G0 X-39.489 Y-31.570 Z3.000
G1 X-39.489 Y-31.570 Z-0.500 F60.000
G1 X-39.329 Y-31.411 Z-0.500 F200.000
G2 X-39.252 Y-31.307 Z-0.500 I0.169 J-0.046 K0.000 F200.000
G3 X-39.251 Y-31.243 Z-0.500 I-0.045 J0.033 K0.000 F200.000
G3 X-39.482 Y-30.980 Z-0.500 I-1.364 J-0.967 K0.000 F200.000
G3 X-39.510 Y-31.269 Z-0.500 I0.342 J-0.178 K0.000 F200.000
G2 X-39.520 Y-31.388 Z-0.500 I-0.337 J-0.031 K0.000 F200.000
G3 X-39.489 Y-31.570 Z-0.500 I0.348 J-0.033 K0.000 F200.000
G0 Z5.000
G0 X-40.094 Y-30.392 Z5.000
G0 X-40.094 Y-30.392 Z3.000
G1 X-40.094 Y-30.392 Z-0.500 F60.000
G2 X-40.349 Y-30.154 Z-0.500 I23.714 J25.603 K0.000 F200.000
G3 X-40.415 Y-30.153 Z-0.500 I-0.034 J-0.046 K0.000 F200.000
G3 X-40.673 Y-30.379 Z-0.500 I0.932 J-1.323 K0.000 F200.000
G3 X-40.519 Y-30.429 Z-0.500 I0.197 J0.351 K0.000 F200.000
G2 X-40.302 Y-30.416 Z-0.500 I0.184 J-1.302 K0.000 F200.000
G3 X-40.094 Y-30.392 Z-0.500 I0.067 J0.337 K0.000 F200.000
G0 Z5.000
G0 X-43.344 Y-29.835 Z5.000
G0 X-43.344 Y-29.835 Z3.000
G1 X-43.344 Y-29.835 Z-0.500 F60.000
G3 X-43.353 Y-29.793 Z-0.500 I-0.057 J0.010 K0.000 F200.000
G3 X-43.584 Y-29.530 Z-0.500 I-1.368 J-0.971 K0.000 F200.000
G3 X-43.611 Y-29.819 Z-0.500 I0.342 J-0.178 K0.000 F200.000
G2 X-43.621 Y-29.938 Z-0.500 I-0.337 J-0.031 K0.000 F200.000
G3 X-43.590 Y-30.120 Z-0.500 I0.348 J-0.034 K0.000 F200.000
G1 X-43.430 Y-29.959 Z-0.500 F200.000
G2 X-43.354 Y-29.859 Z-0.500 I0.168 J-0.048 K0.000 F200.000
G3 X-43.344 Y-29.835 Z-0.500 I-0.047 J0.034 K0.000 F200.000
G0 Z5.000
G0 X-44.130 Y-29.008 Z5.000
G0 X-44.130 Y-29.008 Z3.000
G1 X-44.130 Y-29.008 Z-0.500 F60.000
G2 X-44.384 Y-28.770 Z-0.500 I19.239 J20.809 K0.000 F200.000
G3 X-44.450 Y-28.769 Z-0.500 I-0.034 J-0.046 K0.000 F200.000
G3 X-44.708 Y-28.996 Z-0.500 I0.937 J-1.326 K0.000 F200.000
G3 X-44.554 Y-29.045 Z-0.500 I0.197 J0.350 K0.000 F200.000
G2 X-44.338 Y-29.032 Z-0.500 I0.184 J-1.290 K0.000 F200.000
G3 X-44.130 Y-29.008 Z-0.500 I0.067 J0.336 K0.000 F200.000
G0 Z5.000
G0 X-43.131 Y-32.847 Z5.000
G0 X-43.131 Y-32.847 Z3.000
G1 X-43.131 Y-32.847 Z-0.500 F60.000
G3 X-43.149 Y-32.855 Z-0.500 I0.014 J-0.055 K0.000 F200.000
G3 X-43.406 Y-33.081 Z-0.500 I0.941 J-1.332 K0.000 F200.000
G3 X-43.249 Y-33.131 Z-0.500 I0.200 J0.359 K0.000 F200.000
G1 X-43.036 Y-33.117 Z-0.500 F200.000
G3 X-42.832 Y-33.090 Z-0.500 I0.061 J0.329 K0.000 F200.000
G2 X-43.083 Y-32.856 Z-0.500 I16.174 J17.563 K0.000 F200.000
G3 X-43.131 Y-32.847 Z-0.500 I-0.034 J-0.046 K0.000 F200.000
G0 Z5.000
G0 X-44.667 Y-37.716 Z5.000
G0 X-44.667 Y-37.716 Z3.000
G1 X-44.667 Y-37.716 Z-0.500 F60.000
G3 X-44.922 Y-37.713 Z-0.500 I-0.134 J-0.423 K0.000 F200.000
G3 X-45.160 Y-37.881 Z-0.500 I0.115 J-0.415 K0.000 F200.000
G2 X-45.520 Y-38.274 Z-0.500 I-0.480 J0.078 K0.000 F200.000
G3 X-45.759 Y-38.637 Z-0.500 I0.129 J-0.345 K0.000 F200.000
G3 X-45.426 Y-39.131 Z-0.500 I0.901 J0.247 K0.000 F200.000
G3 X-44.959 Y-39.380 Z-0.500 I0.477 J0.332 K0.000 F200.000
G3 X-44.564 Y-38.967 Z-0.500 I-0.113 J0.503 K0.000 F200.000
G2 X-44.468 Y-38.864 Z-0.500 I0.145 J-0.038 K0.000 F200.000
G3 X-44.088 Y-38.374 Z-0.500 I-0.122 J0.486 K0.000 F200.000
G3 X-44.390 Y-37.947 Z-0.500 I-0.878 J-0.301 K0.000 F200.000
G2 X-44.457 Y-37.859 Z-0.500 I0.342 J0.328 K0.000 F200.000
G3 X-44.667 Y-37.716 Z-0.500 I-0.344 J-0.281 K0.000 F200.000
G0 Z5.000
G0 X-44.773 Y-38.269 Z5.000
G0 X-44.773 Y-38.269 Z3.000
G1 X-44.773 Y-38.269 Z-0.500 F60.000
G2 X-45.180 Y-38.678 Z-0.500 I-0.880 J0.469 K0.000 F200.000
G2 X-45.039 Y-38.815 Z-0.500 I-0.931 J-1.100 K0.000 F200.000
G2 X-44.643 Y-38.396 Z-0.500 I0.614 J-0.184 K0.000 F200.000
G2 X-44.773 Y-38.269 Z-0.500 I1.470 J1.634 K0.000 F200.000
G0 Z5.000
G0 X-48.010 Y-40.106 Z5.000
G0 X-48.010 Y-40.106 Z3.000
G1 X-48.010 Y-40.106 Z-0.500 F60.000
G3 X-48.393 Y-40.069 Z-0.500 I-0.240 J-0.482 K0.000 F200.000
G3 X-48.573 Y-40.107 Z-0.500 I-0.002 J-0.443 K0.000 F200.000
G1 X-48.430 Y-40.250 Z-0.500 F200.000
G2 X-48.329 Y-40.329 Z-0.500 I-0.036 J-0.150 K0.000 F200.000
G3 X-48.252 Y-40.320 Z-0.500 I0.026 J0.101 K0.000 F200.000
G3 X-48.010 Y-40.106 Z-0.500 I-0.946 J1.315 K0.000 F200.000
G0 Z5.000
G0 X-50.711 Y-39.991 Z5.000
G0 X-50.711 Y-39.991 Z3.000
G1 X-50.711 Y-39.991 Z-0.500 F60.000
G3 X-51.096 Y-39.955 Z-0.500 I-0.239 J-0.484 K0.000 F200.000
G3 X-51.272 Y-39.994 Z-0.500 I0.004 J-0.437 K0.000 F200.000
G1 X-51.131 Y-40.135 Z-0.500 F200.000
G2 X-51.030 Y-40.215 Z-0.500 I-0.036 J-0.150 K0.000 F200.000
G3 X-50.953 Y-40.205 Z-0.500 I0.026 J0.101 K0.000 F200.000
G3 X-50.711 Y-39.991 Z-0.500 I-0.938 J1.307 K0.000 F200.000
G0 Z5.000
G0 X-51.932 Y-39.334 Z5.000
G0 X-51.932 Y-39.334 Z3.000
G1 X-51.932 Y-39.334 Z-0.500 F60.000
G3 X-51.901 Y-39.016 Z-0.500 I-0.363 J0.195 K0.000 F200.000
G2 X-51.900 Y-38.903 Z-0.500 I0.404 J0.050 K0.000 F200.000
G3 X-51.930 Y-38.765 Z-0.500 I-0.292 J0.007 K0.000 F200.000
G2 X-52.167 Y-39.019 Z-0.500 I-11.642 J10.637 K0.000 F200.000
G3 X-52.167 Y-39.083 Z-0.500 I0.045 J-0.033 K0.000 F200.000
G3 X-51.938 Y-39.344 Z-0.500 I1.353 J0.959 K0.000 F200.000
G3 X-51.932 Y-39.334 Z-0.500 I-0.357 J0.206 K0.000 F200.000
G0 Z5.000
G0 X-49.201 Y-36.631 Z5.000
G0 X-49.201 Y-36.631 Z3.000
G1 X-49.201 Y-36.631 Z-0.500 F60.000
G3 X-49.146 Y-36.684 Z-0.500 I1.341 J1.327 K0.000 F200.000
G3 X-49.120 Y-36.393 Z-0.500 I-0.356 J0.179 K0.000 F200.000
G2 X-49.110 Y-36.276 Z-0.500 I0.342 J0.031 K0.000 F200.000
G3 X-49.141 Y-36.104 Z-0.500 I-0.341 J0.029 K0.000 F200.000
G3 X-49.376 Y-36.357 Z-0.500 I34.639 J-32.446 K0.000 F200.000
G3 X-49.376 Y-36.427 Z-0.500 I0.049 J-0.035 K0.000 F200.000
G3 X-49.201 Y-36.631 Z-0.500 I1.516 J1.122 K0.000 F200.000
G0 Z5.000
G0 X-49.200 Y-34.082 Z5.000
G0 X-49.200 Y-34.082 Z3.000
G1 X-49.200 Y-34.082 Z-0.500 F60.000
G3 X-49.164 Y-33.751 Z-0.500 I-0.356 J0.205 K0.000 F200.000
G2 X-49.164 Y-33.641 Z-0.500 I0.409 J0.054 K0.000 F200.000
G3 X-49.195 Y-33.507 Z-0.500 I-0.289 J0.003 K0.000 F200.000
G2 X-49.429 Y-33.756 Z-0.500 I-11.848 J10.836 K0.000 F200.000
G3 X-49.429 Y-33.821 Z-0.500 I0.045 J-0.033 K0.000 F200.000
G3 X-49.200 Y-34.082 Z-0.500 I1.379 J0.985 K0.000 F200.000
G0 Z5.000
G0 X-39.267 Y-44.725 Z5.000
G0 X-39.267 Y-44.725 Z3.000
G1 X-39.267 Y-44.725 Z-0.500 F60.000
G3 X-39.384 Y-45.007 Z-0.500 I0.252 J-0.270 K0.000 F200.000
G3 X-39.050 Y-45.507 Z-0.500 I0.891 J0.233 K0.000 F200.000
G3 X-38.584 Y-45.756 Z-0.500 I0.476 J0.330 K0.000 F200.000
G3 X-38.188 Y-45.356 Z-0.500 I-0.117 J0.512 K0.000 F200.000
G2 X-38.088 Y-45.257 Z-0.500 I0.143 J-0.045 K0.000 F200.000
G3 X-37.692 Y-44.778 Z-0.500 I-0.101 J0.486 K0.000 F200.000
G3 X-37.995 Y-44.342 Z-0.500 I-0.864 J-0.278 K0.000 F200.000
G2 X-38.061 Y-44.256 Z-0.500 I0.338 J0.326 K0.000 F200.000
G3 X-38.520 Y-44.106 Z-0.500 I-0.345 J-0.282 K0.000 F200.000
G3 X-38.759 Y-44.267 Z-0.500 I0.107 J-0.418 K0.000 F200.000
G2 X-39.132 Y-44.645 Z-0.500 I-0.474 J0.095 K0.000 F200.000
G3 X-39.267 Y-44.725 Z-0.500 I0.117 J-0.350 K0.000 F200.000
G0 Z5.000
G0 X-38.800 Y-45.058 Z5.000
G0 X-38.800 Y-45.058 Z3.000
G1 X-38.800 Y-45.058 Z-0.500 F60.000
G2 X-38.660 Y-45.194 Z-0.500 I-0.780 J-0.944 K0.000 F200.000
G2 X-38.252 Y-44.786 Z-0.500 I0.610 J-0.202 K0.000 F200.000
G2 X-38.381 Y-44.661 Z-0.500 I1.291 J1.456 K0.000 F200.000
G2 X-38.800 Y-45.058 Z-0.500 I-0.864 J0.492 K0.000 F200.000
G0 Z5.000
G0 X-40.091 Y-48.019 Z5.000
G0 X-40.091 Y-48.019 Z3.000
G1 X-40.091 Y-48.019 Z-0.500 F60.000
G2 X-40.327 Y-48.269 Z-0.500 I-23.751 J22.133 K0.000 F200.000
G3 X-40.328 Y-48.336 Z-0.500 I0.047 J-0.035 K0.000 F200.000
G3 X-40.098 Y-48.597 Z-0.500 I1.352 J0.959 K0.000 F200.000
G3 X-40.062 Y-48.270 Z-0.500 I-0.356 J0.204 K0.000 F200.000
G2 X-40.061 Y-48.158 Z-0.500 I0.404 J0.050 K0.000 F200.000
G3 X-40.091 Y-48.019 Z-0.500 I-0.293 J0.008 K0.000 F200.000
G0 Z5.000
G0 X-39.976 Y-50.720 Z5.000
G0 X-39.976 Y-50.720 Z3.000
G1 X-39.976 Y-50.720 Z-0.500 F60.000
G2 X-40.212 Y-50.970 Z-0.500 I-21.563 J20.079 K0.000 F200.000
G3 X-40.213 Y-51.037 Z-0.500 I0.047 J-0.034 K0.000 F200.000
G3 X-39.983 Y-51.298 Z-0.500 I1.358 J0.965 K0.000 F200.000
G3 X-39.947 Y-50.972 Z-0.500 I-0.356 J0.205 K0.000 F200.000
G2 X-39.945 Y-50.859 Z-0.500 I0.406 J0.050 K0.000 F200.000
G3 X-39.976 Y-50.720 Z-0.500 I-0.294 J0.008 K0.000 F200.000
G0 Z5.000
G0 X-39.320 Y-51.946 Z5.000
G0 X-39.320 Y-51.946 Z3.000
G1 X-39.320 Y-51.946 Z-0.500 F60.000
G1 X-39.177 Y-52.090 Z-0.500 F200.000
G2 X-39.076 Y-52.169 Z-0.500 I-0.036 J-0.150 K0.000 F200.000
G3 X-38.999 Y-52.159 Z-0.500 I0.027 J0.101 K0.000 F200.000
G3 X-38.756 Y-51.946 Z-0.500 I-0.909 J1.278 K0.000 F200.000
G3 X-39.139 Y-51.908 Z-0.500 I-0.240 J-0.482 K0.000 F200.000
G3 X-39.320 Y-51.946 Z-0.500 I-0.002 J-0.443 K0.000 F200.000
G0 Z5.000
G0 X-36.595 Y-49.221 Z5.000
G0 X-36.595 Y-49.221 Z3.000
G1 X-36.595 Y-49.221 Z-0.500 F60.000
G1 X-36.516 Y-49.300 Z-0.500 F200.000
G2 X-36.415 Y-49.379 Z-0.500 I-0.036 J-0.150 K0.000 F200.000
G3 X-36.337 Y-49.370 Z-0.500 I0.027 J0.101 K0.000 F200.000
G3 X-36.095 Y-49.156 Z-0.500 I-0.909 J1.277 K0.000 F200.000
G3 X-36.479 Y-49.120 Z-0.500 I-0.239 J-0.481 K0.000 F200.000
G3 X-36.657 Y-49.159 Z-0.500 I0.004 J-0.438 K0.000 F200.000
G1 X-36.595 Y-49.221 Z-0.500 F200.000
G0 Z5.000
G0 X-34.059 Y-49.208 Z5.000
G0 X-34.059 Y-49.208 Z3.000
G1 X-34.059 Y-49.208 Z-0.500 F60.000
G1 X-33.915 Y-49.352 Z-0.500 F200.000
G2 X-33.815 Y-49.431 Z-0.500 I-0.037 J-0.149 K0.000 F200.000
G3 X-33.738 Y-49.421 Z-0.500 I0.027 J0.101 K0.000 F200.000
G3 X-33.495 Y-49.207 Z-0.500 I-0.916 J1.284 K0.000 F200.000
G3 X-33.879 Y-49.171 Z-0.500 I-0.240 J-0.482 K0.000 F200.000
G3 X-34.059 Y-49.208 Z-0.500 I-0.002 J-0.440 K0.000 F200.000
G0 Z5.000
G0 X-33.048 Y-43.443 Z5.000
G0 X-33.048 Y-43.443 Z3.000
G1 X-33.048 Y-43.443 Z-0.500 F60.000
G1 X-32.891 Y-43.285 Z-0.500 F200.000
G2 X-32.813 Y-43.182 Z-0.500 I0.169 J-0.046 K0.000 F200.000
G3 X-32.812 Y-43.117 Z-0.500 I-0.045 J0.033 K0.000 F200.000
G3 X-33.044 Y-42.854 Z-0.500 I-1.384 J-0.987 K0.000 F200.000
G3 X-33.072 Y-43.147 Z-0.500 I0.342 J-0.180 K0.000 F200.000
G2 X-33.081 Y-43.265 Z-0.500 I-0.338 J-0.033 K0.000 F200.000
G3 X-33.048 Y-43.443 Z-0.500 I0.345 J-0.029 K0.000 F200.000
G0 Z5.000
G0 X-30.103 Y-43.603 Z5.000
G0 X-30.103 Y-43.603 Z3.000
G1 X-30.103 Y-43.603 Z-0.500 F60.000
G3 X-29.950 Y-43.652 Z-0.500 I0.194 J0.349 K0.000 F200.000
G2 X-29.732 Y-43.638 Z-0.500 I0.188 J-1.273 K0.000 F200.000
G3 X-29.524 Y-43.614 Z-0.500 I0.067 J0.337 K0.000 F200.000
G3 X-29.778 Y-43.377 Z-0.500 I-20.963 J-22.202 K0.000 F200.000
G3 X-29.849 Y-43.377 Z-0.500 I-0.035 J-0.050 K0.000 F200.000
G3 X-30.103 Y-43.603 Z-0.500 I1.119 J-1.508 K0.000 F200.000
G0 Z5.000
G0 X-29.006 Y-44.126 Z5.000
G0 X-29.006 Y-44.126 Z3.000
G1 X-29.006 Y-44.126 Z-0.500 F60.000
G3 X-29.027 Y-44.403 Z-0.500 I0.348 J-0.166 K0.000 F200.000
G2 X-29.038 Y-44.522 Z-0.500 I-0.336 J-0.031 K0.000 F200.000
G3 X-29.006 Y-44.704 Z-0.500 I0.348 J-0.034 K0.000 F200.000
G1 X-28.847 Y-44.545 Z-0.500 F200.000
G2 X-28.769 Y-44.441 Z-0.500 I0.169 J-0.046 K0.000 F200.000
G3 X-28.769 Y-44.377 Z-0.500 I-0.045 J0.033 K0.000 F200.000
G3 X-29.000 Y-44.114 Z-0.500 I-1.383 J-0.986 K0.000 F200.000
G3 X-29.006 Y-44.126 Z-0.500 I0.342 J-0.178 K0.000 F200.000
G0 Z5.000
G0 X-30.390 Y-40.668 Z5.000
G0 X-30.390 Y-40.668 Z3.000
G1 X-30.390 Y-40.668 Z-0.500 F60.000
G1 X-30.231 Y-40.509 Z-0.500 F200.000
G2 X-30.153 Y-40.406 Z-0.500 I0.168 J-0.046 K0.000 F200.000
G3 X-30.153 Y-40.341 Z-0.500 I-0.045 J0.033 K0.000 F200.000
G3 X-30.384 Y-40.079 Z-0.500 I-1.365 J-0.968 K0.000 F200.000
G3 X-30.411 Y-40.367 Z-0.500 I0.342 J-0.178 K0.000 F200.000
G2 X-30.422 Y-40.487 Z-0.500 I-0.336 J-0.031 K0.000 F200.000
G3 X-30.390 Y-40.668 Z-0.500 I0.348 J-0.034 K0.000 F200.000
G0 Z5.000
G0 X-30.838 Y-39.649 Z5.000
G0 X-30.838 Y-39.649 Z3.000
G1 X-30.838 Y-39.649 Z-0.500 F60.000
G3 X-31.090 Y-39.415 Z-0.500 I-34.006 J-36.268 K0.000 F200.000
G3 X-31.159 Y-39.415 Z-0.500 I-0.035 J-0.049 K0.000 F200.000
G3 X-31.412 Y-39.641 Z-0.500 I1.145 J-1.534 K0.000 F200.000
G3 X-31.256 Y-39.690 Z-0.500 I0.196 J0.353 K0.000 F200.000
G1 X-31.042 Y-39.675 Z-0.500 F200.000
G3 X-30.838 Y-39.649 Z-0.500 I0.060 J0.330 K0.000 F200.000
G0 Z5.000
G0 X-33.510 Y-39.619 Z5.000
G0 X-33.510 Y-39.619 Z3.000
G1 X-33.510 Y-39.619 Z-0.500 F60.000
G2 X-33.766 Y-39.380 Z-0.500 I9.674 J10.632 K0.000 F200.000
G3 X-33.830 Y-39.379 Z-0.500 I-0.032 J-0.045 K0.000 F200.000
G3 X-34.088 Y-39.606 Z-0.500 I0.968 J-1.360 K0.000 F200.000
G3 X-33.934 Y-39.656 Z-0.500 I0.197 J0.353 K0.000 F200.000
G2 X-33.717 Y-39.643 Z-0.500 I0.184 J-1.290 K0.000 F200.000
G3 X-33.510 Y-39.619 Z-0.500 I0.067 J0.338 K0.000 F200.000
G1 X-33.510 Y-39.619 Z-0.667 F60.000
G2 X-33.766 Y-39.380 Z-0.667 I9.674 J10.632 K0.000 F200.000
G3 X-33.830 Y-39.379 Z-0.667 I-0.032 J-0.045 K0.000 F200.000
G3 X-34.088 Y-39.606 Z-0.667 I0.968 J-1.360 K0.000 F200.000
G3 X-33.934 Y-39.656 Z-0.667 I0.197 J0.353 K0.000 F200.000
G2 X-33.717 Y-39.643 Z-0.667 I0.184 J-1.290 K0.000 F200.000
G3 X-33.510 Y-39.619 Z-0.667 I0.067 J0.338 K0.000 F200.000
G0 Z5.000
G0 X-31.412 Y-39.641 Z5.000
G0 X-31.412 Y-39.641 Z3.000
G1 X-31.412 Y-39.641 Z-0.667 F60.000
G3 X-31.256 Y-39.690 Z-0.667 I0.196 J0.353 K0.000 F200.000
G1 X-31.042 Y-39.675 Z-0.667 F200.000
G3 X-30.838 Y-39.649 Z-0.667 I0.060 J0.330 K0.000 F200.000
G3 X-31.090 Y-39.415 Z-0.667 I-34.006 J-36.268 K0.000 F200.000
G3 X-31.159 Y-39.415 Z-0.667 I-0.035 J-0.049 K0.000 F200.000
G3 X-31.412 Y-39.641 Z-0.667 I1.145 J-1.534 K0.000 F200.000
G0 Z5.000
G0 X-30.394 Y-40.099 Z5.000
G0 X-30.394 Y-40.099 Z3.000
G1 X-30.394 Y-40.099 Z-0.667 F60.000
G3 X-30.411 Y-40.367 Z-0.667 I0.352 J-0.158 K0.000 F200.000
G2 X-30.422 Y-40.487 Z-0.667 I-0.336 J-0.031 K0.000 F200.000
G3 X-30.390 Y-40.668 Z-0.667 I0.348 J-0.034 K0.000 F200.000
G1 X-30.231 Y-40.509 Z-0.667 F200.000
G2 X-30.153 Y-40.406 Z-0.667 I0.168 J-0.046 K0.000 F200.000
G3 X-30.153 Y-40.341 Z-0.667 I-0.045 J0.033 K0.000 F200.000
G3 X-30.384 Y-40.079 Z-0.667 I-1.365 J-0.968 K0.000 F200.000
G3 X-30.394 Y-40.099 Z-0.667 I0.342 J-0.178 K0.000 F200.000
G0 Z5.000
G0 X-29.824 Y-43.366 Z5.000
G0 X-29.824 Y-43.366 Z3.000
G1 X-29.824 Y-43.366 Z-0.667 F60.000
G3 X-29.849 Y-43.377 Z-0.667 I0.010 J-0.060 K0.000 F200.000
G3 X-30.103 Y-43.603 Z-0.667 I1.119 J-1.508 K0.000 F200.000
G3 X-29.950 Y-43.652 Z-0.667 I0.194 J0.349 K0.000 F200.000
G2 X-29.732 Y-43.638 Z-0.667 I0.188 J-1.273 K0.000 F200.000
G3 X-29.524 Y-43.614 Z-0.667 I0.067 J0.337 K0.000 F200.000
G3 X-29.778 Y-43.377 Z-0.667 I-20.963 J-22.202 K0.000 F200.000
G3 X-29.824 Y-43.366 Z-0.667 I-0.035 J-0.050 K0.000 F200.000
G0 Z5.000
G0 X-29.000 Y-44.114 Z5.000
G0 X-29.000 Y-44.114 Z3.000
G1 X-29.000 Y-44.114 Z-0.667 F60.000
G3 X-29.027 Y-44.403 Z-0.667 I0.342 J-0.178 K0.000 F200.000
G2 X-29.038 Y-44.522 Z-0.667 I-0.336 J-0.031 K0.000 F200.000
G3 X-29.006 Y-44.704 Z-0.667 I0.348 J-0.034 K0.000 F200.000
G1 X-28.847 Y-44.545 Z-0.667 F200.000
G2 X-28.769 Y-44.441 Z-0.667 I0.169 J-0.046 K0.000 F200.000
G3 X-28.769 Y-44.377 Z-0.667 I-0.045 J0.033 K0.000 F200.000
G3 X-29.000 Y-44.114 Z-0.667 I-1.383 J-0.986 K0.000 F200.000
G0 Z5.000
G0 X-32.804 Y-43.162 Z5.000
G0 X-32.804 Y-43.162 Z3.000
G1 X-32.804 Y-43.162 Z-0.667 F60.000
G3 X-32.812 Y-43.117 Z-0.667 I-0.054 J0.013 K0.000 F200.000
G3 X-33.044 Y-42.854 Z-0.667 I-1.384 J-0.987 K0.000 F200.000
G3 X-33.072 Y-43.147 Z-0.667 I0.342 J-0.180 K0.000 F200.000
G2 X-33.081 Y-43.265 Z-0.667 I-0.338 J-0.033 K0.000 F200.000
G3 X-33.048 Y-43.443 Z-0.667 I0.345 J-0.029 K0.000 F200.000
G1 X-32.891 Y-43.285 Z-0.667 F200.000
G2 X-32.813 Y-43.182 Z-0.667 I0.169 J-0.046 K0.000 F200.000
G3 X-32.804 Y-43.162 Z-0.667 I-0.045 J0.033 K0.000 F200.000
G0 Z5.000
G0 X-37.692 Y-44.778 Z5.000
G0 X-37.692 Y-44.778 Z3.000
G1 X-37.692 Y-44.778 Z-0.667 F60.000
G3 X-37.995 Y-44.342 Z-0.667 I-0.864 J-0.278 K0.000 F200.000
G2 X-38.061 Y-44.256 Z-0.667 I0.338 J0.326 K0.000 F200.000
G3 X-38.520 Y-44.106 Z-0.667 I-0.345 J-0.282 K0.000 F200.000
G3 X-38.759 Y-44.267 Z-0.667 I0.107 J-0.418 K0.000 F200.000
G2 X-39.132 Y-44.645 Z-0.667 I-0.474 J0.095 K0.000 F200.000
G3 X-39.384 Y-45.007 Z-0.667 I0.117 J-0.350 K0.000 F200.000
G3 X-39.050 Y-45.507 Z-0.667 I0.891 J0.233 K0.000 F200.000
G3 X-38.584 Y-45.756 Z-0.667 I0.476 J0.330 K0.000 F200.000
G3 X-38.188 Y-45.356 Z-0.667 I-0.117 J0.512 K0.000 F200.000
G2 X-38.088 Y-45.257 Z-0.667 I0.143 J-0.045 K0.000 F200.000
G3 X-37.692 Y-44.778 Z-0.667 I-0.101 J0.486 K0.000 F200.000
G0 Z5.000
G0 X-38.252 Y-44.786 Z5.000
G0 X-38.252 Y-44.786 Z3.000
G1 X-38.252 Y-44.786 Z-0.667 F60.000
G2 X-38.381 Y-44.661 Z-0.667 I1.291 J1.456 K0.000 F200.000
G2 X-38.800 Y-45.058 Z-0.667 I-0.864 J0.492 K0.000 F200.000
G2 X-38.660 Y-45.194 Z-0.667 I-0.780 J-0.944 K0.000 F200.000
G2 X-38.252 Y-44.786 Z-0.667 I0.610 J-0.202 K0.000 F200.000
G0 Z5.000
G0 X-40.091 Y-48.019 Z5.000
G0 X-40.091 Y-48.019 Z3.000
G1 X-40.091 Y-48.019 Z-0.667 F60.000
G2 X-40.327 Y-48.269 Z-0.667 I-23.751 J22.133 K0.000 F200.000
G3 X-40.328 Y-48.336 Z-0.667 I0.047 J-0.035 K0.000 F200.000
G3 X-40.098 Y-48.597 Z-0.667 I1.352 J0.959 K0.000 F200.000
G3 X-40.062 Y-48.270 Z-0.667 I-0.356 J0.204 K0.000 F200.000
G2 X-40.061 Y-48.158 Z-0.667 I0.404 J0.050 K0.000 F200.000
G3 X-40.091 Y-48.019 Z-0.667 I-0.293 J0.008 K0.000 F200.000
G0 Z5.000
G0 X-39.976 Y-50.720 Z5.000
G0 X-39.976 Y-50.720 Z3.000
G1 X-39.976 Y-50.720 Z-0.667 F60.000
G2 X-40.212 Y-50.970 Z-0.667 I-21.563 J20.079 K0.000 F200.000
G3 X-40.213 Y-51.037 Z-0.667 I0.047 J-0.034 K0.000 F200.000
G3 X-39.983 Y-51.298 Z-0.667 I1.358 J0.965 K0.000 F200.000
G3 X-39.947 Y-50.972 Z-0.667 I-0.356 J0.205 K0.000 F200.000
G2 X-39.945 Y-50.859 Z-0.667 I0.406 J0.050 K0.000 F200.000
G3 X-39.976 Y-50.720 Z-0.667 I-0.294 J0.008 K0.000 F200.000
G0 Z5.000
G0 X-39.320 Y-51.946 Z5.000
G0 X-39.320 Y-51.946 Z3.000
G1 X-39.320 Y-51.946 Z-0.667 F60.000
G1 X-39.177 Y-52.090 Z-0.667 F200.000
G2 X-39.076 Y-52.169 Z-0.667 I-0.036 J-0.150 K0.000 F200.000
G3 X-38.999 Y-52.159 Z-0.667 I0.027 J0.101 K0.000 F200.000
G3 X-38.756 Y-51.946 Z-0.667 I-0.909 J1.278 K0.000 F200.000
G3 X-39.139 Y-51.908 Z-0.667 I-0.240 J-0.482 K0.000 F200.000
G3 X-39.320 Y-51.946 Z-0.667 I-0.002 J-0.443 K0.000 F200.000
G0 Z5.000
G0 X-36.595 Y-49.221 Z5.000
G0 X-36.595 Y-49.221 Z3.000
G1 X-36.595 Y-49.221 Z-0.667 F60.000
G1 X-36.516 Y-49.300 Z-0.667 F200.000
G2 X-36.415 Y-49.379 Z-0.667 I-0.036 J-0.150 K0.000 F200.000
G3 X-36.337 Y-49.370 Z-0.667 I0.027 J0.101 K0.000 F200.000
G3 X-36.095 Y-49.156 Z-0.667 I-0.909 J1.277 K0.000 F200.000
G3 X-36.479 Y-49.120 Z-0.667 I-0.239 J-0.481 K0.000 F200.000
G3 X-36.657 Y-49.159 Z-0.667 I0.004 J-0.438 K0.000 F200.000
G1 X-36.595 Y-49.221 Z-0.667 F200.000
G0 Z5.000
G0 X-34.059 Y-49.208 Z5.000
G0 X-34.059 Y-49.208 Z3.000
G1 X-34.059 Y-49.208 Z-0.667 F60.000
G1 X-33.915 Y-49.352 Z-0.667 F200.000
G2 X-33.815 Y-49.431 Z-0.667 I-0.037 J-0.149 K0.000 F200.000
G3 X-33.738 Y-49.421 Z-0.667 I0.027 J0.101 K0.000 F200.000
G3 X-33.495 Y-49.207 Z-0.667 I-0.916 J1.284 K0.000 F200.000
G3 X-33.879 Y-49.171 Z-0.667 I-0.240 J-0.482 K0.000 F200.000
G3 X-34.059 Y-49.208 Z-0.667 I-0.002 J-0.440 K0.000 F200.000
G0 Z5.000
G0 X-44.696 Y-39.230 Z5.000
G0 X-44.696 Y-39.230 Z3.000
G1 X-44.696 Y-39.230 Z-0.667 F60.000
G3 X-44.564 Y-38.967 Z-0.667 I-0.376 J0.353 K0.000 F200.000
G2 X-44.468 Y-38.864 Z-0.667 I0.145 J-0.038 K0.000 F200.000
G3 X-44.088 Y-38.374 Z-0.667 I-0.122 J0.486 K0.000 F200.000
G3 X-44.390 Y-37.947 Z-0.667 I-0.878 J-0.301 K0.000 F200.000
G2 X-44.457 Y-37.859 Z-0.667 I0.342 J0.328 K0.000 F200.000
G3 X-44.922 Y-37.713 Z-0.667 I-0.344 J-0.281 K0.000 F200.000
G3 X-45.160 Y-37.881 Z-0.667 I0.115 J-0.415 K0.000 F200.000
G2 X-45.520 Y-38.274 Z-0.667 I-0.480 J0.078 K0.000 F200.000
G3 X-45.759 Y-38.637 Z-0.667 I0.129 J-0.345 K0.000 F200.000
G3 X-45.426 Y-39.131 Z-0.667 I0.901 J0.247 K0.000 F200.000
G3 X-44.959 Y-39.380 Z-0.667 I0.477 J0.332 K0.000 F200.000
G3 X-44.696 Y-39.230 Z-0.667 I-0.113 J0.503 K0.000 F200.000
G0 Z5.000
G0 X-45.039 Y-38.815 Z5.000
G0 X-45.039 Y-38.815 Z3.000
G1 X-45.039 Y-38.815 Z-0.667 F60.000
G2 X-44.643 Y-38.396 Z-0.667 I0.614 J-0.184 K0.000 F200.000
G2 X-44.773 Y-38.269 Z-0.667 I1.470 J1.634 K0.000 F200.000
G2 X-45.180 Y-38.678 Z-0.667 I-0.880 J0.469 K0.000 F200.000
G2 X-45.039 Y-38.815 Z-0.667 I-0.931 J-1.100 K0.000 F200.000
G0 Z5.000
G0 X-48.010 Y-40.106 Z5.000
G0 X-48.010 Y-40.106 Z3.000
G1 X-48.010 Y-40.106 Z-0.667 F60.000
G3 X-48.393 Y-40.069 Z-0.667 I-0.240 J-0.482 K0.000 F200.000
G3 X-48.573 Y-40.107 Z-0.667 I-0.002 J-0.443 K0.000 F200.000
G1 X-48.430 Y-40.250 Z-0.667 F200.000
G2 X-48.329 Y-40.329 Z-0.667 I-0.036 J-0.150 K0.000 F200.000
G3 X-48.252 Y-40.320 Z-0.667 I0.026 J0.101 K0.000 F200.000
G3 X-48.010 Y-40.106 Z-0.667 I-0.946 J1.315 K0.000 F200.000
G0 Z5.000
G0 X-50.711 Y-39.991 Z5.000
G0 X-50.711 Y-39.991 Z3.000
G1 X-50.711 Y-39.991 Z-0.667 F60.000
G3 X-51.096 Y-39.955 Z-0.667 I-0.239 J-0.484 K0.000 F200.000
G3 X-51.272 Y-39.994 Z-0.667 I0.004 J-0.437 K0.000 F200.000
G1 X-51.131 Y-40.135 Z-0.667 F200.000
G2 X-51.030 Y-40.215 Z-0.667 I-0.036 J-0.150 K0.000 F200.000
G3 X-50.953 Y-40.205 Z-0.667 I0.026 J0.101 K0.000 F200.000
G3 X-50.711 Y-39.991 Z-0.667 I-0.938 J1.307 K0.000 F200.000
G0 Z5.000
G0 X-51.932 Y-39.334 Z5.000
G0 X-51.932 Y-39.334 Z3.000
G1 X-51.932 Y-39.334 Z-0.667 F60.000
G3 X-51.901 Y-39.016 Z-0.667 I-0.363 J0.195 K0.000 F200.000
G2 X-51.900 Y-38.903 Z-0.667 I0.404 J0.050 K0.000 F200.000
G3 X-51.930 Y-38.765 Z-0.667 I-0.292 J0.007 K0.000 F200.000
G2 X-52.167 Y-39.019 Z-0.667 I-11.642 J10.637 K0.000 F200.000
G3 X-52.167 Y-39.083 Z-0.667 I0.045 J-0.033 K0.000 F200.000
G3 X-51.938 Y-39.344 Z-0.667 I1.353 J0.959 K0.000 F200.000
G3 X-51.932 Y-39.334 Z-0.667 I-0.357 J0.206 K0.000 F200.000
G0 Z5.000
G0 X-49.201 Y-36.631 Z5.000
G0 X-49.201 Y-36.631 Z3.000
G1 X-49.201 Y-36.631 Z-0.667 F60.000
G3 X-49.146 Y-36.684 Z-0.667 I1.341 J1.327 K0.000 F200.000
G3 X-49.120 Y-36.393 Z-0.667 I-0.356 J0.179 K0.000 F200.000
G2 X-49.110 Y-36.276 Z-0.667 I0.342 J0.031 K0.000 F200.000
G3 X-49.141 Y-36.104 Z-0.667 I-0.341 J0.029 K0.000 F200.000
G3 X-49.376 Y-36.357 Z-0.667 I34.639 J-32.446 K0.000 F200.000
G3 X-49.376 Y-36.427 Z-0.667 I0.049 J-0.035 K0.000 F200.000
G3 X-49.201 Y-36.631 Z-0.667 I1.516 J1.122 K0.000 F200.000
G0 Z5.000
G0 X-49.200 Y-34.082 Z5.000
G0 X-49.200 Y-34.082 Z3.000
G1 X-49.200 Y-34.082 Z-0.667 F60.000
G3 X-49.164 Y-33.751 Z-0.667 I-0.356 J0.205 K0.000 F200.000
G2 X-49.164 Y-33.641 Z-0.667 I0.409 J0.054 K0.000 F200.000
G3 X-49.195 Y-33.507 Z-0.667 I-0.289 J0.003 K0.000 F200.000
G2 X-49.429 Y-33.756 Z-0.667 I-11.848 J10.836 K0.000 F200.000
G3 X-49.429 Y-33.821 Z-0.667 I0.045 J-0.033 K0.000 F200.000
G3 X-49.200 Y-34.082 Z-0.667 I1.379 J0.985 K0.000 F200.000
G0 Z5.000
G0 X-43.406 Y-33.081 Z5.000
G0 X-43.406 Y-33.081 Z3.000
G1 X-43.406 Y-33.081 Z-0.667 F60.000
G3 X-43.249 Y-33.131 Z-0.667 I0.200 J0.359 K0.000 F200.000
G1 X-43.036 Y-33.117 Z-0.667 F200.000
G3 X-42.832 Y-33.090 Z-0.667 I0.061 J0.329 K0.000 F200.000
G2 X-43.083 Y-32.856 Z-0.667 I16.174 J17.563 K0.000 F200.000
G3 X-43.149 Y-32.855 Z-0.667 I-0.034 J-0.046 K0.000 F200.000
G3 X-43.406 Y-33.081 Z-0.667 I0.941 J-1.332 K0.000 F200.000
G0 Z5.000
G0 X-43.590 Y-30.120 Z5.000
G0 X-43.590 Y-30.120 Z3.000
G1 X-43.590 Y-30.120 Z-0.667 F60.000
G1 X-43.430 Y-29.959 Z-0.667 F200.000
G2 X-43.354 Y-29.859 Z-0.667 I0.168 J-0.048 K0.000 F200.000
G3 X-43.353 Y-29.793 Z-0.667 I-0.047 J0.034 K0.000 F200.000
G3 X-43.584 Y-29.530 Z-0.667 I-1.368 J-0.971 K0.000 F200.000
G3 X-43.611 Y-29.819 Z-0.667 I0.342 J-0.178 K0.000 F200.000
G2 X-43.621 Y-29.938 Z-0.667 I-0.337 J-0.031 K0.000 F200.000
G3 X-43.590 Y-30.120 Z-0.667 I0.348 J-0.034 K0.000 F200.000
G0 Z5.000
G0 X-44.130 Y-29.008 Z5.000
G0 X-44.130 Y-29.008 Z3.000
G1 X-44.130 Y-29.008 Z-0.667 F60.000
G2 X-44.384 Y-28.770 Z-0.667 I19.239 J20.809 K0.000 F200.000
G3 X-44.450 Y-28.769 Z-0.667 I-0.034 J-0.046 K0.000 F200.000
G3 X-44.708 Y-28.996 Z-0.667 I0.937 J-1.326 K0.000 F200.000
G3 X-44.554 Y-29.045 Z-0.667 I0.197 J0.350 K0.000 F200.000
G2 X-44.338 Y-29.032 Z-0.667 I0.184 J-1.290 K0.000 F200.000
G3 X-44.130 Y-29.008 Z-0.667 I0.067 J0.336 K0.000 F200.000
G0 Z5.000
G0 X-40.673 Y-30.379 Z5.000
G0 X-40.673 Y-30.379 Z3.000
G1 X-40.673 Y-30.379 Z-0.667 F60.000
G3 X-40.519 Y-30.429 Z-0.667 I0.197 J0.351 K0.000 F200.000
G2 X-40.302 Y-30.416 Z-0.667 I0.184 J-1.302 K0.000 F200.000
G3 X-40.094 Y-30.392 Z-0.667 I0.067 J0.337 K0.000 F200.000
G2 X-40.349 Y-30.154 Z-0.667 I23.714 J25.603 K0.000 F200.000
G3 X-40.415 Y-30.153 Z-0.667 I-0.034 J-0.046 K0.000 F200.000
G3 X-40.673 Y-30.379 Z-0.667 I0.932 J-1.323 K0.000 F200.000
G0 Z5.000
G0 X-39.482 Y-30.980 Z5.000
G0 X-39.482 Y-30.980 Z3.000
G1 X-39.482 Y-30.980 Z-0.667 F60.000
G3 X-39.510 Y-31.269 Z-0.667 I0.342 J-0.178 K0.000 F200.000
G2 X-39.520 Y-31.388 Z-0.667 I-0.337 J-0.031 K0.000 F200.000
G3 X-39.489 Y-31.570 Z-0.667 I0.348 J-0.033 K0.000 F200.000
G1 X-39.329 Y-31.411 Z-0.667 F200.000
G2 X-39.252 Y-31.307 Z-0.667 I0.169 J-0.046 K0.000 F200.000
G3 X-39.251 Y-31.243 Z-0.667 I-0.045 J0.033 K0.000 F200.000
G3 X-39.482 Y-30.980 Z-0.667 I-1.364 J-0.967 K0.000 F200.000
G0 Z5.000
G0 X-39.615 Y-33.499 Z5.000
G0 X-39.615 Y-33.499 Z3.000
G1 X-39.615 Y-33.499 Z-0.667 F60.000
G3 X-39.643 Y-33.791 Z-0.667 I0.341 J-0.179 K0.000 F200.000
G2 X-39.651 Y-33.908 Z-0.667 I-0.339 J-0.034 K0.000 F200.000
G3 X-39.618 Y-34.085 Z-0.667 I0.346 J-0.028 K0.000 F200.000
G1 X-39.462 Y-33.929 Z-0.667 F200.000
G2 X-39.385 Y-33.827 Z-0.667 I0.168 J-0.047 K0.000 F200.000
G3 X-39.384 Y-33.761 Z-0.667 I-0.046 J0.034 K0.000 F200.000
G3 X-39.615 Y-33.499 Z-0.667 I-1.358 J-0.961 K0.000 F200.000
G1 X-39.615 Y-33.499 Z-0.833 F60.000
G3 X-39.643 Y-33.791 Z-0.833 I0.341 J-0.179 K0.000 F200.000
G2 X-39.651 Y-33.908 Z-0.833 I-0.339 J-0.034 K0.000 F200.000
G3 X-39.618 Y-34.085 Z-0.833 I0.346 J-0.028 K0.000 F200.000
G1 X-39.462 Y-33.929 Z-0.833 F200.000
G2 X-39.385 Y-33.827 Z-0.833 I0.168 J-0.047 K0.000 F200.000
G3 X-39.384 Y-33.761 Z-0.833 I-0.046 J0.034 K0.000 F200.000
G3 X-39.615 Y-33.499 Z-0.833 I-1.358 J-0.961 K0.000 F200.000
G0 Z5.000
G0 X-39.489 Y-31.570 Z5.000
G0 X-39.489 Y-31.570 Z3.000
G1 X-39.489 Y-31.570 Z-0.833 F60.000
G1 X-39.329 Y-31.411 Z-0.833 F200.000
G2 X-39.252 Y-31.307 Z-0.833 I0.169 J-0.046 K0.000 F200.000
G3 X-39.251 Y-31.243 Z-0.833 I-0.045 J0.033 K0.000 F200.000
G3 X-39.482 Y-30.980 Z-0.833 I-1.364 J-0.967 K0.000 F200.000
G3 X-39.510 Y-31.269 Z-0.833 I0.342 J-0.178 K0.000 F200.000
G2 X-39.520 Y-31.388 Z-0.833 I-0.337 J-0.031 K0.000 F200.000
G3 X-39.489 Y-31.570 Z-0.833 I0.348 J-0.033 K0.000 F200.000
G0 Z5.000
G0 X-40.094 Y-30.392 Z5.000
G0 X-40.094 Y-30.392 Z3.000
G1 X-40.094 Y-30.392 Z-0.833 F60.000
G2 X-40.349 Y-30.154 Z-0.833 I23.714 J25.603 K0.000 F200.000
G3 X-40.415 Y-30.153 Z-0.833 I-0.034 J-0.046 K0.000 F200.000
G3 X-40.673 Y-30.379 Z-0.833 I0.932 J-1.323 K0.000 F200.000
G3 X-40.519 Y-30.429 Z-0.833 I0.197 J0.351 K0.000 F200.000
G2 X-40.302 Y-30.416 Z-0.833 I0.184 J-1.302 K0.000 F200.000
G3 X-40.094 Y-30.392 Z-0.833 I0.067 J0.337 K0.000 F200.000
G0 Z5.000
G0 X-43.344 Y-29.835 Z5.000
G0 X-43.344 Y-29.835 Z3.000
G1 X-43.344 Y-29.835 Z-0.833 F60.000
G3 X-43.353 Y-29.793 Z-0.833 I-0.057 J0.010 K0.000 F200.000
G3 X-43.584 Y-29.530 Z-0.833 I-1.368 J-0.971 K0.000 F200.000
G3 X-43.611 Y-29.819 Z-0.833 I0.342 J-0.178 K0.000 F200.000
G2 X-43.621 Y-29.938 Z-0.833 I-0.337 J-0.031 K0.000 F200.000
G3 X-43.590 Y-30.120 Z-0.833 I0.348 J-0.034 K0.000 F200.000
G1 X-43.430 Y-29.959 Z-0.833 F200.000
G2 X-43.354 Y-29.859 Z-0.833 I0.168 J-0.048 K0.000 F200.000
G3 X-43.344 Y-29.835 Z-0.833 I-0.047 J0.034 K0.000 F200.000
G0 Z5.000
G0 X-44.130 Y-29.008 Z5.000
G0 X-44.130 Y-29.008 Z3.000
G1 X-44.130 Y-29.008 Z-0.833 F60.000
G2 X-44.384 Y-28.770 Z-0.833 I19.239 J20.809 K0.000 F200.000
G3 X-44.450 Y-28.769 Z-0.833 I-0.034 J-0.046 K0.000 F200.000
G3 X-44.708 Y-28.996 Z-0.833 I0.937 J-1.326 K0.000 F200.000
G3 X-44.554 Y-29.045 Z-0.833 I0.197 J0.350 K0.000 F200.000
G2 X-44.338 Y-29.032 Z-0.833 I0.184 J-1.290 K0.000 F200.000
G3 X-44.130 Y-29.008 Z-0.833 I0.067 J0.336 K0.000 F200.000
G0 Z5.000
G0 X-43.131 Y-32.847 Z5.000
G0 X-43.131 Y-32.847 Z3.000
G1 X-43.131 Y-32.847 Z-0.833 F60.000
G3 X-43.149 Y-32.855 Z-0.833 I0.014 J-0.055 K0.000 F200.000
G3 X-43.406 Y-33.081 Z-0.833 I0.941 J-1.332 K0.000 F200.000
G3 X-43.249 Y-33.131 Z-0.833 I0.200 J0.359 K0.000 F200.000
G1 X-43.036 Y-33.117 Z-0.833 F200.000
G3 X-42.832 Y-33.090 Z-0.833 I0.061 J0.329 K0.000 F200.000
G2 X-43.083 Y-32.856 Z-0.833 I16.174 J17.563 K0.000 F200.000
G3 X-43.131 Y-32.847 Z-0.833 I-0.034 J-0.046 K0.000 F200.000
G0 Z5.000
G0 X-44.667 Y-37.716 Z5.000
G0 X-44.667 Y-37.716 Z3.000
G1 X-44.667 Y-37.716 Z-0.833 F60.000
G3 X-44.922 Y-37.713 Z-0.833 I-0.134 J-0.423 K0.000 F200.000
G3 X-45.160 Y-37.881 Z-0.833 I0.115 J-0.415 K0.000 F200.000
G2 X-45.520 Y-38.274 Z-0.833 I-0.480 J0.078 K0.000 F200.000
G3 X-45.759 Y-38.637 Z-0.833 I0.129 J-0.345 K0.000 F200.000
G3 X-45.426 Y-39.131 Z-0.833 I0.901 J0.247 K0.000 F200.000
G3 X-44.959 Y-39.380 Z-0.833 I0.477 J0.332 K0.000 F200.000
G3 X-44.564 Y-38.967 Z-0.833 I-0.113 J0.503 K0.000 F200.000
G2 X-44.468 Y-38.864 Z-0.833 I0.145 J-0.038 K0.000 F200.000
G3 X-44.088 Y-38.374 Z-0.833 I-0.122 J0.486 K0.000 F200.000
G3 X-44.390 Y-37.947 Z-0.833 I-0.878 J-0.301 K0.000 F200.000
G2 X-44.457 Y-37.859 Z-0.833 I0.342 J0.328 K0.000 F200.000
G3 X-44.667 Y-37.716 Z-0.833 I-0.344 J-0.281 K0.000 F200.000
G0 Z5.000
G0 X-44.773 Y-38.269 Z5.000
G0 X-44.773 Y-38.269 Z3.000
G1 X-44.773 Y-38.269 Z-0.833 F60.000
G2 X-45.180 Y-38.678 Z-0.833 I-0.880 J0.469 K0.000 F200.000
G2 X-45.039 Y-38.815 Z-0.833 I-0.931 J-1.100 K0.000 F200.000
G2 X-44.643 Y-38.396 Z-0.833 I0.614 J-0.184 K0.000 F200.000
G2 X-44.773 Y-38.269 Z-0.833 I1.470 J1.634 K0.000 F200.000
G0 Z5.000
G0 X-48.010 Y-40.106 Z5.000
G0 X-48.010 Y-40.106 Z3.000
G1 X-48.010 Y-40.106 Z-0.833 F60.000
G3 X-48.393 Y-40.069 Z-0.833 I-0.240 J-0.482 K0.000 F200.000
G3 X-48.573 Y-40.107 Z-0.833 I-0.002 J-0.443 K0.000 F200.000
G1 X-48.430 Y-40.250 Z-0.833 F200.000
G2 X-48.329 Y-40.329 Z-0.833 I-0.036 J-0.150 K0.000 F200.000
G3 X-48.252 Y-40.320 Z-0.833 I0.026 J0.101 K0.000 F200.000
G3 X-48.010 Y-40.106 Z-0.833 I-0.946 J1.315 K0.000 F200.000
G0 Z5.000
G0 X-50.711 Y-39.991 Z5.000
G0 X-50.711 Y-39.991 Z3.000
G1 X-50.711 Y-39.991 Z-0.833 F60.000
G3 X-51.096 Y-39.955 Z-0.833 I-0.239 J-0.484 K0.000 F200.000
G3 X-51.272 Y-39.994 Z-0.833 I0.004 J-0.437 K0.000 F200.000
G1 X-51.131 Y-40.135 Z-0.833 F200.000
G2 X-51.030 Y-40.215 Z-0.833 I-0.036 J-0.150 K0.000 F200.000
G3 X-50.953 Y-40.205 Z-0.833 I0.026 J0.101 K0.000 F200.000
G3 X-50.711 Y-39.991 Z-0.833 I-0.938 J1.307 K0.000 F200.000
G0 Z5.000
G0 X-51.932 Y-39.334 Z5.000
G0 X-51.932 Y-39.334 Z3.000
G1 X-51.932 Y-39.334 Z-0.833 F60.000
G3 X-51.901 Y-39.016 Z-0.833 I-0.363 J0.195 K0.000 F200.000
G2 X-51.900 Y-38.903 Z-0.833 I0.404 J0.050 K0.000 F200.000
G3 X-51.930 Y-38.765 Z-0.833 I-0.292 J0.007 K0.000 F200.000
G2 X-52.167 Y-39.019 Z-0.833 I-11.642 J10.637 K0.000 F200.000
G3 X-52.167 Y-39.083 Z-0.833 I0.045 J-0.033 K0.000 F200.000
G3 X-51.938 Y-39.344 Z-0.833 I1.353 J0.959 K0.000 F200.000
G3 X-51.932 Y-39.334 Z-0.833 I-0.357 J0.206 K0.000 F200.000
G0 Z5.000
G0 X-49.201 Y-36.631 Z5.000
G0 X-49.201 Y-36.631 Z3.000
G1 X-49.201 Y-36.631 Z-0.833 F60.000
G3 X-49.146 Y-36.684 Z-0.833 I1.341 J1.327 K0.000 F200.000
G3 X-49.120 Y-36.393 Z-0.833 I-0.356 J0.179 K0.000 F200.000
G2 X-49.110 Y-36.276 Z-0.833 I0.342 J0.031 K0.000 F200.000
G3 X-49.141 Y-36.104 Z-0.833 I-0.341 J0.029 K0.000 F200.000
G3 X-49.376 Y-36.357 Z-0.833 I34.639 J-32.446 K0.000 F200.000
G3 X-49.376 Y-36.427 Z-0.833 I0.049 J-0.035 K0.000 F200.000
G3 X-49.201 Y-36.631 Z-0.833 I1.516 J1.122 K0.000 F200.000
G0 Z5.000
G0 X-49.200 Y-34.082 Z5.000
G0 X-49.200 Y-34.082 Z3.000
G1 X-49.200 Y-34.082 Z-0.833 F60.000
G3 X-49.164 Y-33.751 Z-0.833 I-0.356 J0.205 K0.000 F200.000
G2 X-49.164 Y-33.641 Z-0.833 I0.409 J0.054 K0.000 F200.000
G3 X-49.195 Y-33.507 Z-0.833 I-0.289 J0.003 K0.000 F200.000
G2 X-49.429 Y-33.756 Z-0.833 I-11.848 J10.836 K0.000 F200.000
G3 X-49.429 Y-33.821 Z-0.833 I0.045 J-0.033 K0.000 F200.000
G3 X-49.200 Y-34.082 Z-0.833 I1.379 J0.985 K0.000 F200.000
G0 Z5.000
G0 X-39.267 Y-44.725 Z5.000
G0 X-39.267 Y-44.725 Z3.000
G1 X-39.267 Y-44.725 Z-0.833 F60.000
G3 X-39.384 Y-45.007 Z-0.833 I0.252 J-0.270 K0.000 F200.000
G3 X-39.050 Y-45.507 Z-0.833 I0.891 J0.233 K0.000 F200.000
G3 X-38.584 Y-45.756 Z-0.833 I0.476 J0.330 K0.000 F200.000
G3 X-38.188 Y-45.356 Z-0.833 I-0.117 J0.512 K0.000 F200.000
G2 X-38.088 Y-45.257 Z-0.833 I0.143 J-0.045 K0.000 F200.000
G3 X-37.692 Y-44.778 Z-0.833 I-0.101 J0.486 K0.000 F200.000
G3 X-37.995 Y-44.342 Z-0.833 I-0.864 J-0.278 K0.000 F200.000
G2 X-38.061 Y-44.256 Z-0.833 I0.338 J0.326 K0.000 F200.000
G3 X-38.520 Y-44.106 Z-0.833 I-0.345 J-0.282 K0.000 F200.000
G3 X-38.759 Y-44.267 Z-0.833 I0.107 J-0.418 K0.000 F200.000
G2 X-39.132 Y-44.645 Z-0.833 I-0.474 J0.095 K0.000 F200.000
G3 X-39.267 Y-44.725 Z-0.833 I0.117 J-0.350 K0.000 F200.000
G0 Z5.000
G0 X-38.800 Y-45.058 Z5.000
G0 X-38.800 Y-45.058 Z3.000
G1 X-38.800 Y-45.058 Z-0.833 F60.000
G2 X-38.660 Y-45.194 Z-0.833 I-0.780 J-0.944 K0.000 F200.000
G2 X-38.252 Y-44.786 Z-0.833 I0.610 J-0.202 K0.000 F200.000
G2 X-38.381 Y-44.661 Z-0.833 I1.291 J1.456 K0.000 F200.000
G2 X-38.800 Y-45.058 Z-0.833 I-0.864 J0.492 K0.000 F200.000
G0 Z5.000
G0 X-40.091 Y-48.019 Z5.000
G0 X-40.091 Y-48.019 Z3.000
G1 X-40.091 Y-48.019 Z-0.833 F60.000
G2 X-40.327 Y-48.269 Z-0.833 I-23.751 J22.133 K0.000 F200.000
G3 X-40.328 Y-48.336 Z-0.833 I0.047 J-0.035 K0.000 F200.000
G3 X-40.098 Y-48.597 Z-0.833 I1.352 J0.959 K0.000 F200.000
G3 X-40.062 Y-48.270 Z-0.833 I-0.356 J0.204 K0.000 F200.000
G2 X-40.061 Y-48.158 Z-0.833 I0.404 J0.050 K0.000 F200.000
G3 X-40.091 Y-48.019 Z-0.833 I-0.293 J0.008 K0.000 F200.000
G0 Z5.000
G0 X-39.976 Y-50.720 Z5.000
G0 X-39.976 Y-50.720 Z3.000
G1 X-39.976 Y-50.720 Z-0.833 F60.000
G2 X-40.212 Y-50.970 Z-0.833 I-21.563 J20.079 K0.000 F200.000
G3 X-40.213 Y-51.037 Z-0.833 I0.047 J-0.034 K0.000 F200.000
G3 X-39.983 Y-51.298 Z-0.833 I1.358 J0.965 K0.000 F200.000
G3 X-39.947 Y-50.972 Z-0.833 I-0.356 J0.205 K0.000 F200.000
G2 X-39.945 Y-50.859 Z-0.833 I0.406 J0.050 K0.000 F200.000
G3 X-39.976 Y-50.720 Z-0.833 I-0.294 J0.008 K0.000 F200.000
G0 Z5.000
G0 X-39.320 Y-51.946 Z5.000
G0 X-39.320 Y-51.946 Z3.000
G1 X-39.320 Y-51.946 Z-0.833 F60.000
G1 X-39.177 Y-52.090 Z-0.833 F200.000
G2 X-39.076 Y-52.169 Z-0.833 I-0.036 J-0.150 K0.000 F200.000
G3 X-38.999 Y-52.159 Z-0.833 I0.027 J0.101 K0.000 F200.000
G3 X-38.756 Y-51.946 Z-0.833 I-0.909 J1.278 K0.000 F200.000
G3 X-39.139 Y-51.908 Z-0.833 I-0.240 J-0.482 K0.000 F200.000
G3 X-39.320 Y-51.946 Z-0.833 I-0.002 J-0.443 K0.000 F200.000
G0 Z5.000
G0 X-36.595 Y-49.221 Z5.000
G0 X-36.595 Y-49.221 Z3.000
G1 X-36.595 Y-49.221 Z-0.833 F60.000
G1 X-36.516 Y-49.300 Z-0.833 F200.000
G2 X-36.415 Y-49.379 Z-0.833 I-0.036 J-0.150 K0.000 F200.000
G3 X-36.337 Y-49.370 Z-0.833 I0.027 J0.101 K0.000 F200.000
G3 X-36.095 Y-49.156 Z-0.833 I-0.909 J1.277 K0.000 F200.000
G3 X-36.479 Y-49.120 Z-0.833 I-0.239 J-0.481 K0.000 F200.000
G3 X-36.657 Y-49.159 Z-0.833 I0.004 J-0.438 K0.000 F200.000
G1 X-36.595 Y-49.221 Z-0.833 F200.000
G0 Z5.000
G0 X-34.059 Y-49.208 Z5.000
G0 X-34.059 Y-49.208 Z3.000
G1 X-34.059 Y-49.208 Z-0.833 F60.000
G1 X-33.915 Y-49.352 Z-0.833 F200.000
G2 X-33.815 Y-49.431 Z-0.833 I-0.037 J-0.149 K0.000 F200.000
G3 X-33.738 Y-49.421 Z-0.833 I0.027 J0.101 K0.000 F200.000
G3 X-33.495 Y-49.207 Z-0.833 I-0.916 J1.284 K0.000 F200.000
G3 X-33.879 Y-49.171 Z-0.833 I-0.240 J-0.482 K0.000 F200.000
G3 X-34.059 Y-49.208 Z-0.833 I-0.002 J-0.440 K0.000 F200.000
G0 Z5.000
G0 X-33.048 Y-43.443 Z5.000
G0 X-33.048 Y-43.443 Z3.000
G1 X-33.048 Y-43.443 Z-0.833 F60.000
G1 X-32.891 Y-43.285 Z-0.833 F200.000
G2 X-32.813 Y-43.182 Z-0.833 I0.169 J-0.046 K0.000 F200.000
G3 X-32.812 Y-43.117 Z-0.833 I-0.045 J0.033 K0.000 F200.000
G3 X-33.044 Y-42.854 Z-0.833 I-1.384 J-0.987 K0.000 F200.000
G3 X-33.072 Y-43.147 Z-0.833 I0.342 J-0.180 K0.000 F200.000
G2 X-33.081 Y-43.265 Z-0.833 I-0.338 J-0.033 K0.000 F200.000
G3 X-33.048 Y-43.443 Z-0.833 I0.345 J-0.029 K0.000 F200.000
G0 Z5.000
G0 X-30.103 Y-43.603 Z5.000
G0 X-30.103 Y-43.603 Z3.000
G1 X-30.103 Y-43.603 Z-0.833 F60.000
G3 X-29.950 Y-43.652 Z-0.833 I0.194 J0.349 K0.000 F200.000
G2 X-29.732 Y-43.638 Z-0.833 I0.188 J-1.273 K0.000 F200.000
G3 X-29.524 Y-43.614 Z-0.833 I0.067 J0.337 K0.000 F200.000
G3 X-29.778 Y-43.377 Z-0.833 I-20.963 J-22.202 K0.000 F200.000
G3 X-29.849 Y-43.377 Z-0.833 I-0.035 J-0.050 K0.000 F200.000
G3 X-30.103 Y-43.603 Z-0.833 I1.119 J-1.508 K0.000 F200.000
G0 Z5.000
G0 X-29.006 Y-44.126 Z5.000
G0 X-29.006 Y-44.126 Z3.000
G1 X-29.006 Y-44.126 Z-0.833 F60.000
G3 X-29.027 Y-44.403 Z-0.833 I0.348 J-0.166 K0.000 F200.000
G2 X-29.038 Y-44.522 Z-0.833 I-0.336 J-0.031 K0.000 F200.000
G3 X-29.006 Y-44.704 Z-0.833 I0.348 J-0.034 K0.000 F200.000
G1 X-28.847 Y-44.545 Z-0.833 F200.000
G2 X-28.769 Y-44.441 Z-0.833 I0.169 J-0.046 K0.000 F200.000
G3 X-28.769 Y-44.377 Z-0.833 I-0.045 J0.033 K0.000 F200.000
G3 X-29.000 Y-44.114 Z-0.833 I-1.383 J-0.986 K0.000 F200.000
G3 X-29.006 Y-44.126 Z-0.833 I0.342 J-0.178 K0.000 F200.000
G0 Z5.000
G0 X-30.390 Y-40.668 Z5.000
G0 X-30.390 Y-40.668 Z3.000
G1 X-30.390 Y-40.668 Z-0.833 F60.000
G1 X-30.231 Y-40.509 Z-0.833 F200.000
G2 X-30.153 Y-40.406 Z-0.833 I0.168 J-0.046 K0.000 F200.000
G3 X-30.153 Y-40.341 Z-0.833 I-0.045 J0.033 K0.000 F200.000
G3 X-30.384 Y-40.079 Z-0.833 I-1.365 J-0.968 K0.000 F200.000
G3 X-30.411 Y-40.367 Z-0.833 I0.342 J-0.178 K0.000 F200.000
G2 X-30.422 Y-40.487 Z-0.833 I-0.336 J-0.031 K0.000 F200.000
G3 X-30.390 Y-40.668 Z-0.833 I0.348 J-0.034 K0.000 F200.000
G0 Z5.000
G0 X-30.838 Y-39.649 Z5.000
G0 X-30.838 Y-39.649 Z3.000
G1 X-30.838 Y-39.649 Z-0.833 F60.000
G3 X-31.090 Y-39.415 Z-0.833 I-34.006 J-36.268 K0.000 F200.000
G3 X-31.159 Y-39.415 Z-0.833 I-0.035 J-0.049 K0.000 F200.000
G3 X-31.412 Y-39.641 Z-0.833 I1.145 J-1.534 K0.000 F200.000
G3 X-31.256 Y-39.690 Z-0.833 I0.196 J0.353 K0.000 F200.000
G1 X-31.042 Y-39.675 Z-0.833 F200.000
G3 X-30.838 Y-39.649 Z-0.833 I0.060 J0.330 K0.000 F200.000
G0 Z5.000
G0 X-33.510 Y-39.619 Z5.000
G0 X-33.510 Y-39.619 Z3.000
G1 X-33.510 Y-39.619 Z-0.833 F60.000
G2 X-33.766 Y-39.380 Z-0.833 I9.674 J10.632 K0.000 F200.000
G3 X-33.830 Y-39.379 Z-0.833 I-0.032 J-0.045 K0.000 F200.000
G3 X-34.088 Y-39.606 Z-0.833 I0.968 J-1.360 K0.000 F200.000
G3 X-33.934 Y-39.656 Z-0.833 I0.197 J0.353 K0.000 F200.000
G2 X-33.717 Y-39.643 Z-0.833 I0.184 J-1.290 K0.000 F200.000
G3 X-33.510 Y-39.619 Z-0.833 I0.067 J0.338 K0.000 F200.000
G1 X-33.510 Y-39.619 Z-1.000 F60.000
G2 X-33.766 Y-39.380 Z-1.000 I9.674 J10.632 K0.000 F200.000
G3 X-33.830 Y-39.379 Z-1.000 I-0.032 J-0.045 K0.000 F200.000
G3 X-34.088 Y-39.606 Z-1.000 I0.968 J-1.360 K0.000 F200.000
G3 X-33.934 Y-39.656 Z-1.000 I0.197 J0.353 K0.000 F200.000
G2 X-33.717 Y-39.643 Z-1.000 I0.184 J-1.290 K0.000 F200.000
G3 X-33.510 Y-39.619 Z-1.000 I0.067 J0.338 K0.000 F200.000
G0 Z5.000
G0 X-31.412 Y-39.641 Z5.000
G0 X-31.412 Y-39.641 Z3.000
G1 X-31.412 Y-39.641 Z-1.000 F60.000
G3 X-31.256 Y-39.690 Z-1.000 I0.196 J0.353 K0.000 F200.000
G1 X-31.042 Y-39.675 Z-1.000 F200.000
G3 X-30.838 Y-39.649 Z-1.000 I0.060 J0.330 K0.000 F200.000
G3 X-31.090 Y-39.415 Z-1.000 I-34.006 J-36.268 K0.000 F200.000
G3 X-31.159 Y-39.415 Z-1.000 I-0.035 J-0.049 K0.000 F200.000
G3 X-31.412 Y-39.641 Z-1.000 I1.145 J-1.534 K0.000 F200.000
G0 Z5.000
G0 X-30.394 Y-40.099 Z5.000
G0 X-30.394 Y-40.099 Z3.000
G1 X-30.394 Y-40.099 Z-1.000 F60.000
G3 X-30.411 Y-40.367 Z-1.000 I0.352 J-0.158 K0.000 F200.000
G2 X-30.422 Y-40.487 Z-1.000 I-0.336 J-0.031 K0.000 F200.000
G3 X-30.390 Y-40.668 Z-1.000 I0.348 J-0.034 K0.000 F200.000
G1 X-30.231 Y-40.509 Z-1.000 F200.000
G2 X-30.153 Y-40.406 Z-1.000 I0.168 J-0.046 K0.000 F200.000
G3 X-30.153 Y-40.341 Z-1.000 I-0.045 J0.033 K0.000 F200.000
G3 X-30.384 Y-40.079 Z-1.000 I-1.365 J-0.968 K0.000 F200.000
G3 X-30.394 Y-40.099 Z-1.000 I0.342 J-0.178 K0.000 F200.000
G0 Z5.000
G0 X-29.824 Y-43.366 Z5.000
G0 X-29.824 Y-43.366 Z3.000
G1 X-29.824 Y-43.366 Z-1.000 F60.000
G3 X-29.849 Y-43.377 Z-1.000 I0.010 J-0.060 K0.000 F200.000
G3 X-30.103 Y-43.603 Z-1.000 I1.119 J-1.508 K0.000 F200.000
G3 X-29.950 Y-43.652 Z-1.000 I0.194 J0.349 K0.000 F200.000
G2 X-29.732 Y-43.638 Z-1.000 I0.188 J-1.273 K0.000 F200.000
G3 X-29.524 Y-43.614 Z-1.000 I0.067 J0.337 K0.000 F200.000
G3 X-29.778 Y-43.377 Z-1.000 I-20.963 J-22.202 K0.000 F200.000
G3 X-29.824 Y-43.366 Z-1.000 I-0.035 J-0.050 K0.000 F200.000
G0 Z5.000
G0 X-29.000 Y-44.114 Z5.000
G0 X-29.000 Y-44.114 Z3.000
G1 X-29.000 Y-44.114 Z-1.000 F60.000
G3 X-29.027 Y-44.403 Z-1.000 I0.342 J-0.178 K0.000 F200.000
G2 X-29.038 Y-44.522 Z-1.000 I-0.336 J-0.031 K0.000 F200.000
G3 X-29.006 Y-44.704 Z-1.000 I0.348 J-0.034 K0.000 F200.000
G1 X-28.847 Y-44.545 Z-1.000 F200.000
G2 X-28.769 Y-44.441 Z-1.000 I0.169 J-0.046 K0.000 F200.000
G3 X-28.769 Y-44.377 Z-1.000 I-0.045 J0.033 K0.000 F200.000
G3 X-29.000 Y-44.114 Z-1.000 I-1.383 J-0.986 K0.000 F200.000
G0 Z5.000
G0 X-32.804 Y-43.162 Z5.000
G0 X-32.804 Y-43.162 Z3.000
G1 X-32.804 Y-43.162 Z-1.000 F60.000
G3 X-32.812 Y-43.117 Z-1.000 I-0.054 J0.013 K0.000 F200.000
G3 X-33.044 Y-42.854 Z-1.000 I-1.384 J-0.987 K0.000 F200.000
G3 X-33.072 Y-43.147 Z-1.000 I0.342 J-0.180 K0.000 F200.000
G2 X-33.081 Y-43.265 Z-1.000 I-0.338 J-0.033 K0.000 F200.000
G3 X-33.048 Y-43.443 Z-1.000 I0.345 J-0.029 K0.000 F200.000
G1 X-32.891 Y-43.285 Z-1.000 F200.000
G2 X-32.813 Y-43.182 Z-1.000 I0.169 J-0.046 K0.000 F200.000
G3 X-32.804 Y-43.162 Z-1.000 I-0.045 J0.033 K0.000 F200.000
G0 Z5.000
G0 X-37.692 Y-44.778 Z5.000
G0 X-37.692 Y-44.778 Z3.000
G1 X-37.692 Y-44.778 Z-1.000 F60.000
G3 X-37.995 Y-44.342 Z-1.000 I-0.864 J-0.278 K0.000 F200.000
G2 X-38.061 Y-44.256 Z-1.000 I0.338 J0.326 K0.000 F200.000
G3 X-38.520 Y-44.106 Z-1.000 I-0.345 J-0.282 K0.000 F200.000
G3 X-38.759 Y-44.267 Z-1.000 I0.107 J-0.418 K0.000 F200.000
G2 X-39.132 Y-44.645 Z-1.000 I-0.474 J0.095 K0.000 F200.000
G3 X-39.384 Y-45.007 Z-1.000 I0.117 J-0.350 K0.000 F200.000
G3 X-39.050 Y-45.507 Z-1.000 I0.891 J0.233 K0.000 F200.000
G3 X-38.584 Y-45.756 Z-1.000 I0.476 J0.330 K0.000 F200.000
G3 X-38.188 Y-45.356 Z-1.000 I-0.117 J0.512 K0.000 F200.000
G2 X-38.088 Y-45.257 Z-1.000 I0.143 J-0.045 K0.000 F200.000
G3 X-37.692 Y-44.778 Z-1.000 I-0.101 J0.486 K0.000 F200.000
G0 Z5.000
G0 X-38.252 Y-44.786 Z5.000
G0 X-38.252 Y-44.786 Z3.000
G1 X-38.252 Y-44.786 Z-1.000 F60.000
G2 X-38.381 Y-44.661 Z-1.000 I1.291 J1.456 K0.000 F200.000
G2 X-38.800 Y-45.058 Z-1.000 I-0.864 J0.492 K0.000 F200.000
G2 X-38.660 Y-45.194 Z-1.000 I-0.780 J-0.944 K0.000 F200.000
G2 X-38.252 Y-44.786 Z-1.000 I0.610 J-0.202 K0.000 F200.000
G0 Z5.000
G0 X-40.091 Y-48.019 Z5.000
G0 X-40.091 Y-48.019 Z3.000
G1 X-40.091 Y-48.019 Z-1.000 F60.000
G2 X-40.327 Y-48.269 Z-1.000 I-23.751 J22.133 K0.000 F200.000
G3 X-40.328 Y-48.336 Z-1.000 I0.047 J-0.035 K0.000 F200.000
G3 X-40.098 Y-48.597 Z-1.000 I1.352 J0.959 K0.000 F200.000
G3 X-40.062 Y-48.270 Z-1.000 I-0.356 J0.204 K0.000 F200.000
G2 X-40.061 Y-48.158 Z-1.000 I0.404 J0.050 K0.000 F200.000
G3 X-40.091 Y-48.019 Z-1.000 I-0.293 J0.008 K0.000 F200.000
G0 Z5.000
G0 X-39.976 Y-50.720 Z5.000
G0 X-39.976 Y-50.720 Z3.000
G1 X-39.976 Y-50.720 Z-1.000 F60.000
G2 X-40.212 Y-50.970 Z-1.000 I-21.563 J20.079 K0.000 F200.000
G3 X-40.213 Y-51.037 Z-1.000 I0.047 J-0.034 K0.000 F200.000
G3 X-39.983 Y-51.298 Z-1.000 I1.358 J0.965 K0.000 F200.000
G3 X-39.947 Y-50.972 Z-1.000 I-0.356 J0.205 K0.000 F200.000
G2 X-39.945 Y-50.859 Z-1.000 I0.406 J0.050 K0.000 F200.000
G3 X-39.976 Y-50.720 Z-1.000 I-0.294 J0.008 K0.000 F200.000
G0 Z5.000
G0 X-39.320 Y-51.946 Z5.000
G0 X-39.320 Y-51.946 Z3.000
G1 X-39.320 Y-51.946 Z-1.000 F60.000
G1 X-39.177 Y-52.090 Z-1.000 F200.000
G2 X-39.076 Y-52.169 Z-1.000 I-0.036 J-0.150 K0.000 F200.000
G3 X-38.999 Y-52.159 Z-1.000 I0.027 J0.101 K0.000 F200.000
G3 X-38.756 Y-51.946 Z-1.000 I-0.909 J1.278 K0.000 F200.000
G3 X-39.139 Y-51.908 Z-1.000 I-0.240 J-0.482 K0.000 F200.000
G3 X-39.320 Y-51.946 Z-1.000 I-0.002 J-0.443 K0.000 F200.000
G0 Z5.000
G0 X-36.595 Y-49.221 Z5.000
G0 X-36.595 Y-49.221 Z3.000
G1 X-36.595 Y-49.221 Z-1.000 F60.000
G1 X-36.516 Y-49.300 Z-1.000 F200.000
G2 X-36.415 Y-49.379 Z-1.000 I-0.036 J-0.150 K0.000 F200.000
G3 X-36.337 Y-49.370 Z-1.000 I0.027 J0.101 K0.000 F200.000
G3 X-36.095 Y-49.156 Z-1.000 I-0.909 J1.277 K0.000 F200.000
G3 X-36.479 Y-49.120 Z-1.000 I-0.239 J-0.481 K0.000 F200.000
G3 X-36.657 Y-49.159 Z-1.000 I0.004 J-0.438 K0.000 F200.000
G1 X-36.595 Y-49.221 Z-1.000 F200.000
G0 Z5.000
G0 X-34.059 Y-49.208 Z5.000
G0 X-34.059 Y-49.208 Z3.000
G1 X-34.059 Y-49.208 Z-1.000 F60.000
G1 X-33.915 Y-49.352 Z-1.000 F200.000
G2 X-33.815 Y-49.431 Z-1.000 I-0.037 J-0.149 K0.000 F200.000
G3 X-33.738 Y-49.421 Z-1.000 I0.027 J0.101 K0.000 F200.000
G3 X-33.495 Y-49.207 Z-1.000 I-0.916 J1.284 K0.000 F200.000
G3 X-33.879 Y-49.171 Z-1.000 I-0.240 J-0.482 K0.000 F200.000
G3 X-34.059 Y-49.208 Z-1.000 I-0.002 J-0.440 K0.000 F200.000
G0 Z5.000
G0 X-44.696 Y-39.230 Z5.000
G0 X-44.696 Y-39.230 Z3.000
G1 X-44.696 Y-39.230 Z-1.000 F60.000
G3 X-44.564 Y-38.967 Z-1.000 I-0.376 J0.353 K0.000 F200.000
G2 X-44.468 Y-38.864 Z-1.000 I0.145 J-0.038 K0.000 F200.000
G3 X-44.088 Y-38.374 Z-1.000 I-0.122 J0.486 K0.000 F200.000
G3 X-44.390 Y-37.947 Z-1.000 I-0.878 J-0.301 K0.000 F200.000
G2 X-44.457 Y-37.859 Z-1.000 I0.342 J0.328 K0.000 F200.000
G3 X-44.922 Y-37.713 Z-1.000 I-0.344 J-0.281 K0.000 F200.000
G3 X-45.160 Y-37.881 Z-1.000 I0.115 J-0.415 K0.000 F200.000
G2 X-45.520 Y-38.274 Z-1.000 I-0.480 J0.078 K0.000 F200.000
G3 X-45.759 Y-38.637 Z-1.000 I0.129 J-0.345 K0.000 F200.000
G3 X-45.426 Y-39.131 Z-1.000 I0.901 J0.247 K0.000 F200.000
G3 X-44.959 Y-39.380 Z-1.000 I0.477 J0.332 K0.000 F200.000
G3 X-44.696 Y-39.230 Z-1.000 I-0.113 J0.503 K0.000 F200.000
G0 Z5.000
G0 X-45.039 Y-38.815 Z5.000
G0 X-45.039 Y-38.815 Z3.000
G1 X-45.039 Y-38.815 Z-1.000 F60.000
G2 X-44.643 Y-38.396 Z-1.000 I0.614 J-0.184 K0.000 F200.000
G2 X-44.773 Y-38.269 Z-1.000 I1.470 J1.634 K0.000 F200.000
G2 X-45.180 Y-38.678 Z-1.000 I-0.880 J0.469 K0.000 F200.000
G2 X-45.039 Y-38.815 Z-1.000 I-0.931 J-1.100 K0.000 F200.000
G0 Z5.000
G0 X-48.010 Y-40.106 Z5.000
G0 X-48.010 Y-40.106 Z3.000
G1 X-48.010 Y-40.106 Z-1.000 F60.000
G3 X-48.393 Y-40.069 Z-1.000 I-0.240 J-0.482 K0.000 F200.000
G3 X-48.573 Y-40.107 Z-1.000 I-0.002 J-0.443 K0.000 F200.000
G1 X-48.430 Y-40.250 Z-1.000 F200.000
G2 X-48.329 Y-40.329 Z-1.000 I-0.036 J-0.150 K0.000 F200.000
G3 X-48.252 Y-40.320 Z-1.000 I0.026 J0.101 K0.000 F200.000
G3 X-48.010 Y-40.106 Z-1.000 I-0.946 J1.315 K0.000 F200.000
G0 Z5.000
G0 X-50.711 Y-39.991 Z5.000
G0 X-50.711 Y-39.991 Z3.000
G1 X-50.711 Y-39.991 Z-1.000 F60.000
G3 X-51.096 Y-39.955 Z-1.000 I-0.239 J-0.484 K0.000 F200.000
G3 X-51.272 Y-39.994 Z-1.000 I0.004 J-0.437 K0.000 F200.000
G1 X-51.131 Y-40.135 Z-1.000 F200.000
G2 X-51.030 Y-40.215 Z-1.000 I-0.036 J-0.150 K0.000 F200.000
G3 X-50.953 Y-40.205 Z-1.000 I0.026 J0.101 K0.000 F200.000
G3 X-50.711 Y-39.991 Z-1.000 I-0.938 J1.307 K0.000 F200.000
G0 Z5.000
G0 X-51.932 Y-39.334 Z5.000
G0 X-51.932 Y-39.334 Z3.000
G1 X-51.932 Y-39.334 Z-1.000 F60.000
G3 X-51.901 Y-39.016 Z-1.000 I-0.363 J0.195 K0.000 F200.000
G2 X-51.900 Y-38.903 Z-1.000 I0.404 J0.050 K0.000 F200.000
G3 X-51.930 Y-38.765 Z-1.000 I-0.292 J0.007 K0.000 F200.000
G2 X-52.167 Y-39.019 Z-1.000 I-11.642 J10.637 K0.000 F200.000
G3 X-52.167 Y-39.083 Z-1.000 I0.045 J-0.033 K0.000 F200.000
G3 X-51.938 Y-39.344 Z-1.000 I1.353 J0.959 K0.000 F200.000
G3 X-51.932 Y-39.334 Z-1.000 I-0.357 J0.206 K0.000 F200.000
G0 Z5.000
G0 X-49.201 Y-36.631 Z5.000
G0 X-49.201 Y-36.631 Z3.000
G1 X-49.201 Y-36.631 Z-1.000 F60.000
G3 X-49.146 Y-36.684 Z-1.000 I1.341 J1.327 K0.000 F200.000
G3 X-49.120 Y-36.393 Z-1.000 I-0.356 J0.179 K0.000 F200.000
G2 X-49.110 Y-36.276 Z-1.000 I0.342 J0.031 K0.000 F200.000
G3 X-49.141 Y-36.104 Z-1.000 I-0.341 J0.029 K0.000 F200.000
G3 X-49.376 Y-36.357 Z-1.000 I34.639 J-32.446 K0.000 F200.000
G3 X-49.376 Y-36.427 Z-1.000 I0.049 J-0.035 K0.000 F200.000
G3 X-49.201 Y-36.631 Z-1.000 I1.516 J1.122 K0.000 F200.000
G0 Z5.000
G0 X-49.200 Y-34.082 Z5.000
G0 X-49.200 Y-34.082 Z3.000
G1 X-49.200 Y-34.082 Z-1.000 F60.000
G3 X-49.164 Y-33.751 Z-1.000 I-0.356 J0.205 K0.000 F200.000
G2 X-49.164 Y-33.641 Z-1.000 I0.409 J0.054 K0.000 F200.000
G3 X-49.195 Y-33.507 Z-1.000 I-0.289 J0.003 K0.000 F200.000
G2 X-49.429 Y-33.756 Z-1.000 I-11.848 J10.836 K0.000 F200.000
G3 X-49.429 Y-33.821 Z-1.000 I0.045 J-0.033 K0.000 F200.000
G3 X-49.200 Y-34.082 Z-1.000 I1.379 J0.985 K0.000 F200.000
G0 Z5.000
G0 X-43.406 Y-33.081 Z5.000
G0 X-43.406 Y-33.081 Z3.000
G1 X-43.406 Y-33.081 Z-1.000 F60.000
G3 X-43.249 Y-33.131 Z-1.000 I0.200 J0.359 K0.000 F200.000
G1 X-43.036 Y-33.117 Z-1.000 F200.000
G3 X-42.832 Y-33.090 Z-1.000 I0.061 J0.329 K0.000 F200.000
G2 X-43.083 Y-32.856 Z-1.000 I16.174 J17.563 K0.000 F200.000
G3 X-43.149 Y-32.855 Z-1.000 I-0.034 J-0.046 K0.000 F200.000
G3 X-43.406 Y-33.081 Z-1.000 I0.941 J-1.332 K0.000 F200.000
G0 Z5.000
G0 X-43.590 Y-30.120 Z5.000
G0 X-43.590 Y-30.120 Z3.000
G1 X-43.590 Y-30.120 Z-1.000 F60.000
G1 X-43.430 Y-29.959 Z-1.000 F200.000
G2 X-43.354 Y-29.859 Z-1.000 I0.168 J-0.048 K0.000 F200.000
G3 X-43.353 Y-29.793 Z-1.000 I-0.047 J0.034 K0.000 F200.000
G3 X-43.584 Y-29.530 Z-1.000 I-1.368 J-0.971 K0.000 F200.000
G3 X-43.611 Y-29.819 Z-1.000 I0.342 J-0.178 K0.000 F200.000
G2 X-43.621 Y-29.938 Z-1.000 I-0.337 J-0.031 K0.000 F200.000
G3 X-43.590 Y-30.120 Z-1.000 I0.348 J-0.034 K0.000 F200.000
G0 Z5.000
G0 X-44.130 Y-29.008 Z5.000
G0 X-44.130 Y-29.008 Z3.000
G1 X-44.130 Y-29.008 Z-1.000 F60.000
G2 X-44.384 Y-28.770 Z-1.000 I19.239 J20.809 K0.000 F200.000
G3 X-44.450 Y-28.769 Z-1.000 I-0.034 J-0.046 K0.000 F200.000
G3 X-44.708 Y-28.996 Z-1.000 I0.937 J-1.326 K0.000 F200.000
G3 X-44.554 Y-29.045 Z-1.000 I0.197 J0.350 K0.000 F200.000
G2 X-44.338 Y-29.032 Z-1.000 I0.184 J-1.290 K0.000 F200.000
G3 X-44.130 Y-29.008 Z-1.000 I0.067 J0.336 K0.000 F200.000
G0 Z5.000
G0 X-40.673 Y-30.379 Z5.000
G0 X-40.673 Y-30.379 Z3.000
G1 X-40.673 Y-30.379 Z-1.000 F60.000
G3 X-40.519 Y-30.429 Z-1.000 I0.197 J0.351 K0.000 F200.000
G2 X-40.302 Y-30.416 Z-1.000 I0.184 J-1.302 K0.000 F200.000
G3 X-40.094 Y-30.392 Z-1.000 I0.067 J0.337 K0.000 F200.000
G2 X-40.349 Y-30.154 Z-1.000 I23.714 J25.603 K0.000 F200.000
G3 X-40.415 Y-30.153 Z-1.000 I-0.034 J-0.046 K0.000 F200.000
G3 X-40.673 Y-30.379 Z-1.000 I0.932 J-1.323 K0.000 F200.000
G0 Z5.000
G0 X-39.482 Y-30.980 Z5.000
G0 X-39.482 Y-30.980 Z3.000
G1 X-39.482 Y-30.980 Z-1.000 F60.000
G3 X-39.510 Y-31.269 Z-1.000 I0.342 J-0.178 K0.000 F200.000
G2 X-39.520 Y-31.388 Z-1.000 I-0.337 J-0.031 K0.000 F200.000
G3 X-39.489 Y-31.570 Z-1.000 I0.348 J-0.033 K0.000 F200.000
G1 X-39.329 Y-31.411 Z-1.000 F200.000
G2 X-39.252 Y-31.307 Z-1.000 I0.169 J-0.046 K0.000 F200.000
G3 X-39.251 Y-31.243 Z-1.000 I-0.045 J0.033 K0.000 F200.000
G3 X-39.482 Y-30.980 Z-1.000 I-1.364 J-0.967 K0.000 F200.000
G0 Z5.000
G0 X-39.615 Y-33.499 Z5.000
G0 X-39.615 Y-33.499 Z3.000
G1 X-39.615 Y-33.499 Z-1.000 F60.000
G3 X-39.643 Y-33.791 Z-1.000 I0.341 J-0.179 K0.000 F200.000
G2 X-39.651 Y-33.908 Z-1.000 I-0.339 J-0.034 K0.000 F200.000
G3 X-39.618 Y-34.085 Z-1.000 I0.346 J-0.028 K0.000 F200.000
G1 X-39.462 Y-33.929 Z-1.000 F200.000
G2 X-39.385 Y-33.827 Z-1.000 I0.168 J-0.047 K0.000 F200.000
G3 X-39.384 Y-33.761 Z-1.000 I-0.046 J0.034 K0.000 F200.000
G3 X-39.615 Y-33.499 Z-1.000 I-1.358 J-0.961 K0.000 F200.000
G1 X-39.615 Y-33.499 Z-1.167 F60.000
G3 X-39.643 Y-33.791 Z-1.167 I0.341 J-0.179 K0.000 F200.000
G2 X-39.651 Y-33.908 Z-1.167 I-0.339 J-0.034 K0.000 F200.000
G3 X-39.618 Y-34.085 Z-1.167 I0.346 J-0.028 K0.000 F200.000
G1 X-39.462 Y-33.929 Z-1.167 F200.000
G2 X-39.385 Y-33.827 Z-1.167 I0.168 J-0.047 K0.000 F200.000
G3 X-39.384 Y-33.761 Z-1.167 I-0.046 J0.034 K0.000 F200.000
G3 X-39.615 Y-33.499 Z-1.167 I-1.358 J-0.961 K0.000 F200.000
G0 Z5.000
G0 X-39.489 Y-31.570 Z5.000
G0 X-39.489 Y-31.570 Z3.000
G1 X-39.489 Y-31.570 Z-1.167 F60.000
G1 X-39.329 Y-31.411 Z-1.167 F200.000
G2 X-39.252 Y-31.307 Z-1.167 I0.169 J-0.046 K0.000 F200.000
G3 X-39.251 Y-31.243 Z-1.167 I-0.045 J0.033 K0.000 F200.000
G3 X-39.482 Y-30.980 Z-1.167 I-1.364 J-0.967 K0.000 F200.000
G3 X-39.510 Y-31.269 Z-1.167 I0.342 J-0.178 K0.000 F200.000
G2 X-39.520 Y-31.388 Z-1.167 I-0.337 J-0.031 K0.000 F200.000
G3 X-39.489 Y-31.570 Z-1.167 I0.348 J-0.033 K0.000 F200.000
G0 Z5.000
G0 X-40.094 Y-30.392 Z5.000
G0 X-40.094 Y-30.392 Z3.000
G1 X-40.094 Y-30.392 Z-1.167 F60.000
G2 X-40.349 Y-30.154 Z-1.167 I23.714 J25.603 K0.000 F200.000
G3 X-40.415 Y-30.153 Z-1.167 I-0.034 J-0.046 K0.000 F200.000
G3 X-40.673 Y-30.379 Z-1.167 I0.932 J-1.323 K0.000 F200.000
G3 X-40.519 Y-30.429 Z-1.167 I0.197 J0.351 K0.000 F200.000
G2 X-40.302 Y-30.416 Z-1.167 I0.184 J-1.302 K0.000 F200.000
G3 X-40.094 Y-30.392 Z-1.167 I0.067 J0.337 K0.000 F200.000
G0 Z5.000
G0 X-43.344 Y-29.835 Z5.000
G0 X-43.344 Y-29.835 Z3.000
G1 X-43.344 Y-29.835 Z-1.167 F60.000
G3 X-43.353 Y-29.793 Z-1.167 I-0.057 J0.010 K0.000 F200.000
G3 X-43.584 Y-29.530 Z-1.167 I-1.368 J-0.971 K0.000 F200.000
G3 X-43.611 Y-29.819 Z-1.167 I0.342 J-0.178 K0.000 F200.000
G2 X-43.621 Y-29.938 Z-1.167 I-0.337 J-0.031 K0.000 F200.000
G3 X-43.590 Y-30.120 Z-1.167 I0.348 J-0.034 K0.000 F200.000
G1 X-43.430 Y-29.959 Z-1.167 F200.000
G2 X-43.354 Y-29.859 Z-1.167 I0.168 J-0.048 K0.000 F200.000
G3 X-43.344 Y-29.835 Z-1.167 I-0.047 J0.034 K0.000 F200.000
G0 Z5.000
G0 X-44.130 Y-29.008 Z5.000
G0 X-44.130 Y-29.008 Z3.000
G1 X-44.130 Y-29.008 Z-1.167 F60.000
G2 X-44.384 Y-28.770 Z-1.167 I19.239 J20.809 K0.000 F200.000
G3 X-44.450 Y-28.769 Z-1.167 I-0.034 J-0.046 K0.000 F200.000
G3 X-44.708 Y-28.996 Z-1.167 I0.937 J-1.326 K0.000 F200.000
G3 X-44.554 Y-29.045 Z-1.167 I0.197 J0.350 K0.000 F200.000
G2 X-44.338 Y-29.032 Z-1.167 I0.184 J-1.290 K0.000 F200.000
G3 X-44.130 Y-29.008 Z-1.167 I0.067 J0.336 K0.000 F200.000
G0 Z5.000
G0 X-43.131 Y-32.847 Z5.000
G0 X-43.131 Y-32.847 Z3.000
G1 X-43.131 Y-32.847 Z-1.167 F60.000
G3 X-43.149 Y-32.855 Z-1.167 I0.014 J-0.055 K0.000 F200.000
G3 X-43.406 Y-33.081 Z-1.167 I0.941 J-1.332 K0.000 F200.000
G3 X-43.249 Y-33.131 Z-1.167 I0.200 J0.359 K0.000 F200.000
G1 X-43.036 Y-33.117 Z-1.167 F200.000
G3 X-42.832 Y-33.090 Z-1.167 I0.061 J0.329 K0.000 F200.000
G2 X-43.083 Y-32.856 Z-1.167 I16.174 J17.563 K0.000 F200.000
G3 X-43.131 Y-32.847 Z-1.167 I-0.034 J-0.046 K0.000 F200.000
G0 Z5.000
G0 X-44.667 Y-37.716 Z5.000
G0 X-44.667 Y-37.716 Z3.000
G1 X-44.667 Y-37.716 Z-1.167 F60.000
G3 X-44.922 Y-37.713 Z-1.167 I-0.134 J-0.423 K0.000 F200.000
G3 X-45.160 Y-37.881 Z-1.167 I0.115 J-0.415 K0.000 F200.000
G2 X-45.520 Y-38.274 Z-1.167 I-0.480 J0.078 K0.000 F200.000
G3 X-45.759 Y-38.637 Z-1.167 I0.129 J-0.345 K0.000 F200.000
G3 X-45.426 Y-39.131 Z-1.167 I0.901 J0.247 K0.000 F200.000
G3 X-44.959 Y-39.380 Z-1.167 I0.477 J0.332 K0.000 F200.000
G3 X-44.564 Y-38.967 Z-1.167 I-0.113 J0.503 K0.000 F200.000
G2 X-44.468 Y-38.864 Z-1.167 I0.145 J-0.038 K0.000 F200.000
G3 X-44.088 Y-38.374 Z-1.167 I-0.122 J0.486 K0.000 F200.000
G3 X-44.390 Y-37.947 Z-1.167 I-0.878 J-0.301 K0.000 F200.000
G2 X-44.457 Y-37.859 Z-1.167 I0.342 J0.328 K0.000 F200.000
G3 X-44.667 Y-37.716 Z-1.167 I-0.344 J-0.281 K0.000 F200.000
G0 Z5.000
G0 X-44.773 Y-38.269 Z5.000
G0 X-44.773 Y-38.269 Z3.000
G1 X-44.773 Y-38.269 Z-1.167 F60.000
G2 X-45.180 Y-38.678 Z-1.167 I-0.880 J0.469 K0.000 F200.000
G2 X-45.039 Y-38.815 Z-1.167 I-0.931 J-1.100 K0.000 F200.000
G2 X-44.643 Y-38.396 Z-1.167 I0.614 J-0.184 K0.000 F200.000
G2 X-44.773 Y-38.269 Z-1.167 I1.470 J1.634 K0.000 F200.000
G0 Z5.000
G0 X-48.010 Y-40.106 Z5.000
G0 X-48.010 Y-40.106 Z3.000
G1 X-48.010 Y-40.106 Z-1.167 F60.000
G3 X-48.393 Y-40.069 Z-1.167 I-0.240 J-0.482 K0.000 F200.000
G3 X-48.573 Y-40.107 Z-1.167 I-0.002 J-0.443 K0.000 F200.000
G1 X-48.430 Y-40.250 Z-1.167 F200.000
G2 X-48.329 Y-40.329 Z-1.167 I-0.036 J-0.150 K0.000 F200.000
G3 X-48.252 Y-40.320 Z-1.167 I0.026 J0.101 K0.000 F200.000
G3 X-48.010 Y-40.106 Z-1.167 I-0.946 J1.315 K0.000 F200.000
G0 Z5.000
G0 X-50.711 Y-39.991 Z5.000
G0 X-50.711 Y-39.991 Z3.000
G1 X-50.711 Y-39.991 Z-1.167 F60.000
G3 X-51.096 Y-39.955 Z-1.167 I-0.239 J-0.484 K0.000 F200.000
G3 X-51.272 Y-39.994 Z-1.167 I0.004 J-0.437 K0.000 F200.000
G1 X-51.131 Y-40.135 Z-1.167 F200.000
G2 X-51.030 Y-40.215 Z-1.167 I-0.036 J-0.150 K0.000 F200.000
G3 X-50.953 Y-40.205 Z-1.167 I0.026 J0.101 K0.000 F200.000
G3 X-50.711 Y-39.991 Z-1.167 I-0.938 J1.307 K0.000 F200.000
G0 Z5.000
G0 X-51.932 Y-39.334 Z5.000
G0 X-51.932 Y-39.334 Z3.000
G1 X-51.932 Y-39.334 Z-1.167 F60.000
G3 X-51.901 Y-39.016 Z-1.167 I-0.363 J0.195 K0.000 F200.000
G2 X-51.900 Y-38.903 Z-1.167 I0.404 J0.050 K0.000 F200.000
G3 X-51.930 Y-38.765 Z-1.167 I-0.292 J0.007 K0.000 F200.000
G2 X-52.167 Y-39.019 Z-1.167 I-11.642 J10.637 K0.000 F200.000
G3 X-52.167 Y-39.083 Z-1.167 I0.045 J-0.033 K0.000 F200.000
G3 X-51.938 Y-39.344 Z-1.167 I1.353 J0.959 K0.000 F200.000
G3 X-51.932 Y-39.334 Z-1.167 I-0.357 J0.206 K0.000 F200.000
G0 Z5.000
G0 X-49.201 Y-36.631 Z5.000
G0 X-49.201 Y-36.631 Z3.000
G1 X-49.201 Y-36.631 Z-1.167 F60.000
G3 X-49.146 Y-36.684 Z-1.167 I1.341 J1.327 K0.000 F200.000
G3 X-49.120 Y-36.393 Z-1.167 I-0.356 J0.179 K0.000 F200.000
G2 X-49.110 Y-36.276 Z-1.167 I0.342 J0.031 K0.000 F200.000
G3 X-49.141 Y-36.104 Z-1.167 I-0.341 J0.029 K0.000 F200.000
G3 X-49.376 Y-36.357 Z-1.167 I34.639 J-32.446 K0.000 F200.000
G3 X-49.376 Y-36.427 Z-1.167 I0.049 J-0.035 K0.000 F200.000
G3 X-49.201 Y-36.631 Z-1.167 I1.516 J1.122 K0.000 F200.000
G0 Z5.000
G0 X-49.200 Y-34.082 Z5.000
G0 X-49.200 Y-34.082 Z3.000
G1 X-49.200 Y-34.082 Z-1.167 F60.000
G3 X-49.164 Y-33.751 Z-1.167 I-0.356 J0.205 K0.000 F200.000
G2 X-49.164 Y-33.641 Z-1.167 I0.409 J0.054 K0.000 F200.000
G3 X-49.195 Y-33.507 Z-1.167 I-0.289 J0.003 K0.000 F200.000
G2 X-49.429 Y-33.756 Z-1.167 I-11.848 J10.836 K0.000 F200.000
G3 X-49.429 Y-33.821 Z-1.167 I0.045 J-0.033 K0.000 F200.000
G3 X-49.200 Y-34.082 Z-1.167 I1.379 J0.985 K0.000 F200.000
G0 Z5.000
G0 X-39.267 Y-44.725 Z5.000
G0 X-39.267 Y-44.725 Z3.000
G1 X-39.267 Y-44.725 Z-1.167 F60.000
G3 X-39.384 Y-45.007 Z-1.167 I0.252 J-0.270 K0.000 F200.000
G3 X-39.050 Y-45.507 Z-1.167 I0.891 J0.233 K0.000 F200.000
G3 X-38.584 Y-45.756 Z-1.167 I0.476 J0.330 K0.000 F200.000
G3 X-38.188 Y-45.356 Z-1.167 I-0.117 J0.512 K0.000 F200.000
G2 X-38.088 Y-45.257 Z-1.167 I0.143 J-0.045 K0.000 F200.000
G3 X-37.692 Y-44.778 Z-1.167 I-0.101 J0.486 K0.000 F200.000
G3 X-37.995 Y-44.342 Z-1.167 I-0.864 J-0.278 K0.000 F200.000
G2 X-38.061 Y-44.256 Z-1.167 I0.338 J0.326 K0.000 F200.000
G3 X-38.520 Y-44.106 Z-1.167 I-0.345 J-0.282 K0.000 F200.000
G3 X-38.759 Y-44.267 Z-1.167 I0.107 J-0.418 K0.000 F200.000
G2 X-39.132 Y-44.645 Z-1.167 I-0.474 J0.095 K0.000 F200.000
G3 X-39.267 Y-44.725 Z-1.167 I0.117 J-0.350 K0.000 F200.000
G0 Z5.000
G0 X-38.800 Y-45.058 Z5.000
G0 X-38.800 Y-45.058 Z3.000
G1 X-38.800 Y-45.058 Z-1.167 F60.000
G2 X-38.660 Y-45.194 Z-1.167 I-0.780 J-0.944 K0.000 F200.000
G2 X-38.252 Y-44.786 Z-1.167 I0.610 J-0.202 K0.000 F200.000
G2 X-38.381 Y-44.661 Z-1.167 I1.291 J1.456 K0.000 F200.000
G2 X-38.800 Y-45.058 Z-1.167 I-0.864 J0.492 K0.000 F200.000
G0 Z5.000
G0 X-40.091 Y-48.019 Z5.000
G0 X-40.091 Y-48.019 Z3.000
G1 X-40.091 Y-48.019 Z-1.167 F60.000
G2 X-40.327 Y-48.269 Z-1.167 I-23.751 J22.133 K0.000 F200.000
G3 X-40.328 Y-48.336 Z-1.167 I0.047 J-0.035 K0.000 F200.000
G3 X-40.098 Y-48.597 Z-1.167 I1.352 J0.959 K0.000 F200.000
G3 X-40.062 Y-48.270 Z-1.167 I-0.356 J0.204 K0.000 F200.000
G2 X-40.061 Y-48.158 Z-1.167 I0.404 J0.050 K0.000 F200.000
G3 X-40.091 Y-48.019 Z-1.167 I-0.293 J0.008 K0.000 F200.000
G0 Z5.000
G0 X-39.976 Y-50.720 Z5.000
G0 X-39.976 Y-50.720 Z3.000
G1 X-39.976 Y-50.720 Z-1.167 F60.000
G2 X-40.212 Y-50.970 Z-1.167 I-21.563 J20.079 K0.000 F200.000
G3 X-40.213 Y-51.037 Z-1.167 I0.047 J-0.034 K0.000 F200.000
G3 X-39.983 Y-51.298 Z-1.167 I1.358 J0.965 K0.000 F200.000
G3 X-39.947 Y-50.972 Z-1.167 I-0.356 J0.205 K0.000 F200.000
G2 X-39.945 Y-50.859 Z-1.167 I0.406 J0.050 K0.000 F200.000
G3 X-39.976 Y-50.720 Z-1.167 I-0.294 J0.008 K0.000 F200.000
G0 Z5.000
G0 X-39.320 Y-51.946 Z5.000
G0 X-39.320 Y-51.946 Z3.000
G1 X-39.320 Y-51.946 Z-1.167 F60.000
G1 X-39.177 Y-52.090 Z-1.167 F200.000
G2 X-39.076 Y-52.169 Z-1.167 I-0.036 J-0.150 K0.000 F200.000
G3 X-38.999 Y-52.159 Z-1.167 I0.027 J0.101 K0.000 F200.000
G3 X-38.756 Y-51.946 Z-1.167 I-0.909 J1.278 K0.000 F200.000
G3 X-39.139 Y-51.908 Z-1.167 I-0.240 J-0.482 K0.000 F200.000
G3 X-39.320 Y-51.946 Z-1.167 I-0.002 J-0.443 K0.000 F200.000
G0 Z5.000
G0 X-36.595 Y-49.221 Z5.000
G0 X-36.595 Y-49.221 Z3.000
G1 X-36.595 Y-49.221 Z-1.167 F60.000
G1 X-36.516 Y-49.300 Z-1.167 F200.000
G2 X-36.415 Y-49.379 Z-1.167 I-0.036 J-0.150 K0.000 F200.000
G3 X-36.337 Y-49.370 Z-1.167 I0.027 J0.101 K0.000 F200.000
G3 X-36.095 Y-49.156 Z-1.167 I-0.909 J1.277 K0.000 F200.000
G3 X-36.479 Y-49.120 Z-1.167 I-0.239 J-0.481 K0.000 F200.000
G3 X-36.657 Y-49.159 Z-1.167 I0.004 J-0.438 K0.000 F200.000
G1 X-36.595 Y-49.221 Z-1.167 F200.000
G0 Z5.000
G0 X-34.059 Y-49.208 Z5.000
G0 X-34.059 Y-49.208 Z3.000
G1 X-34.059 Y-49.208 Z-1.167 F60.000
G1 X-33.915 Y-49.352 Z-1.167 F200.000
G2 X-33.815 Y-49.431 Z-1.167 I-0.037 J-0.149 K0.000 F200.000
G3 X-33.738 Y-49.421 Z-1.167 I0.027 J0.101 K0.000 F200.000
G3 X-33.495 Y-49.207 Z-1.167 I-0.916 J1.284 K0.000 F200.000
G3 X-33.879 Y-49.171 Z-1.167 I-0.240 J-0.482 K0.000 F200.000
G3 X-34.059 Y-49.208 Z-1.167 I-0.002 J-0.440 K0.000 F200.000
G0 Z5.000
G0 X-33.048 Y-43.443 Z5.000
G0 X-33.048 Y-43.443 Z3.000
G1 X-33.048 Y-43.443 Z-1.167 F60.000
G1 X-32.891 Y-43.285 Z-1.167 F200.000
G2 X-32.813 Y-43.182 Z-1.167 I0.169 J-0.046 K0.000 F200.000
G3 X-32.812 Y-43.117 Z-1.167 I-0.045 J0.033 K0.000 F200.000
G3 X-33.044 Y-42.854 Z-1.167 I-1.384 J-0.987 K0.000 F200.000
G3 X-33.072 Y-43.147 Z-1.167 I0.342 J-0.180 K0.000 F200.000
G2 X-33.081 Y-43.265 Z-1.167 I-0.338 J-0.033 K0.000 F200.000
G3 X-33.048 Y-43.443 Z-1.167 I0.345 J-0.029 K0.000 F200.000
G0 Z5.000
G0 X-30.103 Y-43.603 Z5.000
G0 X-30.103 Y-43.603 Z3.000
G1 X-30.103 Y-43.603 Z-1.167 F60.000
G3 X-29.950 Y-43.652 Z-1.167 I0.194 J0.349 K0.000 F200.000
G2 X-29.732 Y-43.638 Z-1.167 I0.188 J-1.273 K0.000 F200.000
G3 X-29.524 Y-43.614 Z-1.167 I0.067 J0.337 K0.000 F200.000
G3 X-29.778 Y-43.377 Z-1.167 I-20.963 J-22.202 K0.000 F200.000
G3 X-29.849 Y-43.377 Z-1.167 I-0.035 J-0.050 K0.000 F200.000
G3 X-30.103 Y-43.603 Z-1.167 I1.119 J-1.508 K0.000 F200.000
G0 Z5.000
G0 X-29.006 Y-44.126 Z5.000
G0 X-29.006 Y-44.126 Z3.000
G1 X-29.006 Y-44.126 Z-1.167 F60.000
G3 X-29.027 Y-44.403 Z-1.167 I0.348 J-0.166 K0.000 F200.000
G2 X-29.038 Y-44.522 Z-1.167 I-0.336 J-0.031 K0.000 F200.000
G3 X-29.006 Y-44.704 Z-1.167 I0.348 J-0.034 K0.000 F200.000
G1 X-28.847 Y-44.545 Z-1.167 F200.000
G2 X-28.769 Y-44.441 Z-1.167 I0.169 J-0.046 K0.000 F200.000
G3 X-28.769 Y-44.377 Z-1.167 I-0.045 J0.033 K0.000 F200.000
G3 X-29.000 Y-44.114 Z-1.167 I-1.383 J-0.986 K0.000 F200.000
G3 X-29.006 Y-44.126 Z-1.167 I0.342 J-0.178 K0.000 F200.000
G0 Z5.000
G0 X-30.390 Y-40.668 Z5.000
G0 X-30.390 Y-40.668 Z3.000
G1 X-30.390 Y-40.668 Z-1.167 F60.000
G1 X-30.231 Y-40.509 Z-1.167 F200.000
G2 X-30.153 Y-40.406 Z-1.167 I0.168 J-0.046 K0.000 F200.000
G3 X-30.153 Y-40.341 Z-1.167 I-0.045 J0.033 K0.000 F200.000
G3 X-30.384 Y-40.079 Z-1.167 I-1.365 J-0.968 K0.000 F200.000
G3 X-30.411 Y-40.367 Z-1.167 I0.342 J-0.178 K0.000 F200.000
G2 X-30.422 Y-40.487 Z-1.167 I-0.336 J-0.031 K0.000 F200.000
G3 X-30.390 Y-40.668 Z-1.167 I0.348 J-0.034 K0.000 F200.000
G0 Z5.000
G0 X-30.838 Y-39.649 Z5.000
G0 X-30.838 Y-39.649 Z3.000
G1 X-30.838 Y-39.649 Z-1.167 F60.000
G3 X-31.090 Y-39.415 Z-1.167 I-34.006 J-36.268 K0.000 F200.000
G3 X-31.159 Y-39.415 Z-1.167 I-0.035 J-0.049 K0.000 F200.000
G3 X-31.412 Y-39.641 Z-1.167 I1.145 J-1.534 K0.000 F200.000
G3 X-31.256 Y-39.690 Z-1.167 I0.196 J0.353 K0.000 F200.000
G1 X-31.042 Y-39.675 Z-1.167 F200.000
G3 X-30.838 Y-39.649 Z-1.167 I0.060 J0.330 K0.000 F200.000
G0 Z5.000
G0 X-33.510 Y-39.619 Z5.000
G0 X-33.510 Y-39.619 Z3.000
G1 X-33.510 Y-39.619 Z-1.167 F60.000
G2 X-33.766 Y-39.380 Z-1.167 I9.674 J10.632 K0.000 F200.000
G3 X-33.830 Y-39.379 Z-1.167 I-0.032 J-0.045 K0.000 F200.000
G3 X-34.088 Y-39.606 Z-1.167 I0.968 J-1.360 K0.000 F200.000
G3 X-33.934 Y-39.656 Z-1.167 I0.197 J0.353 K0.000 F200.000
G2 X-33.717 Y-39.643 Z-1.167 I0.184 J-1.290 K0.000 F200.000
G3 X-33.510 Y-39.619 Z-1.167 I0.067 J0.338 K0.000 F200.000
G1 X-33.510 Y-39.619 Z-1.333 F60.000
G2 X-33.766 Y-39.380 Z-1.333 I9.674 J10.632 K0.000 F200.000
G3 X-33.830 Y-39.379 Z-1.333 I-0.032 J-0.045 K0.000 F200.000
G3 X-34.088 Y-39.606 Z-1.333 I0.968 J-1.360 K0.000 F200.000
G3 X-33.934 Y-39.656 Z-1.333 I0.197 J0.353 K0.000 F200.000
G2 X-33.717 Y-39.643 Z-1.333 I0.184 J-1.290 K0.000 F200.000
G3 X-33.510 Y-39.619 Z-1.333 I0.067 J0.338 K0.000 F200.000
G0 Z5.000
G0 X-31.412 Y-39.641 Z5.000
G0 X-31.412 Y-39.641 Z3.000
G1 X-31.412 Y-39.641 Z-1.333 F60.000
G3 X-31.256 Y-39.690 Z-1.333 I0.196 J0.353 K0.000 F200.000
G1 X-31.042 Y-39.675 Z-1.333 F200.000
G3 X-30.838 Y-39.649 Z-1.333 I0.060 J0.330 K0.000 F200.000
G3 X-31.090 Y-39.415 Z-1.333 I-34.006 J-36.268 K0.000 F200.000
G3 X-31.159 Y-39.415 Z-1.333 I-0.035 J-0.049 K0.000 F200.000
G3 X-31.412 Y-39.641 Z-1.333 I1.145 J-1.534 K0.000 F200.000
G0 Z5.000
G0 X-30.394 Y-40.099 Z5.000
G0 X-30.394 Y-40.099 Z3.000
G1 X-30.394 Y-40.099 Z-1.333 F60.000
G3 X-30.411 Y-40.367 Z-1.333 I0.352 J-0.158 K0.000 F200.000
G2 X-30.422 Y-40.487 Z-1.333 I-0.336 J-0.031 K0.000 F200.000
G3 X-30.390 Y-40.668 Z-1.333 I0.348 J-0.034 K0.000 F200.000
G1 X-30.231 Y-40.509 Z-1.333 F200.000
G2 X-30.153 Y-40.406 Z-1.333 I0.168 J-0.046 K0.000 F200.000
G3 X-30.153 Y-40.341 Z-1.333 I-0.045 J0.033 K0.000 F200.000
G3 X-30.384 Y-40.079 Z-1.333 I-1.365 J-0.968 K0.000 F200.000
G3 X-30.394 Y-40.099 Z-1.333 I0.342 J-0.178 K0.000 F200.000
G0 Z5.000
G0 X-29.824 Y-43.366 Z5.000
G0 X-29.824 Y-43.366 Z3.000
G1 X-29.824 Y-43.366 Z-1.333 F60.000
G3 X-29.849 Y-43.377 Z-1.333 I0.010 J-0.060 K0.000 F200.000
G3 X-30.103 Y-43.603 Z-1.333 I1.119 J-1.508 K0.000 F200.000
G3 X-29.950 Y-43.652 Z-1.333 I0.194 J0.349 K0.000 F200.000
G2 X-29.732 Y-43.638 Z-1.333 I0.188 J-1.273 K0.000 F200.000
G3 X-29.524 Y-43.614 Z-1.333 I0.067 J0.337 K0.000 F200.000
G3 X-29.778 Y-43.377 Z-1.333 I-20.963 J-22.202 K0.000 F200.000
G3 X-29.824 Y-43.366 Z-1.333 I-0.035 J-0.050 K0.000 F200.000
G0 Z5.000
G0 X-29.000 Y-44.114 Z5.000
G0 X-29.000 Y-44.114 Z3.000
G1 X-29.000 Y-44.114 Z-1.333 F60.000
G3 X-29.027 Y-44.403 Z-1.333 I0.342 J-0.178 K0.000 F200.000
G2 X-29.038 Y-44.522 Z-1.333 I-0.336 J-0.031 K0.000 F200.000
G3 X-29.006 Y-44.704 Z-1.333 I0.348 J-0.034 K0.000 F200.000
G1 X-28.847 Y-44.545 Z-1.333 F200.000
G2 X-28.769 Y-44.441 Z-1.333 I0.169 J-0.046 K0.000 F200.000
G3 X-28.769 Y-44.377 Z-1.333 I-0.045 J0.033 K0.000 F200.000
G3 X-29.000 Y-44.114 Z-1.333 I-1.383 J-0.986 K0.000 F200.000
G0 Z5.000
G0 X-32.804 Y-43.162 Z5.000
G0 X-32.804 Y-43.162 Z3.000
G1 X-32.804 Y-43.162 Z-1.333 F60.000
G3 X-32.812 Y-43.117 Z-1.333 I-0.054 J0.013 K0.000 F200.000
G3 X-33.044 Y-42.854 Z-1.333 I-1.384 J-0.987 K0.000 F200.000
G3 X-33.072 Y-43.147 Z-1.333 I0.342 J-0.180 K0.000 F200.000
G2 X-33.081 Y-43.265 Z-1.333 I-0.338 J-0.033 K0.000 F200.000
G3 X-33.048 Y-43.443 Z-1.333 I0.345 J-0.029 K0.000 F200.000
G1 X-32.891 Y-43.285 Z-1.333 F200.000
G2 X-32.813 Y-43.182 Z-1.333 I0.169 J-0.046 K0.000 F200.000
G3 X-32.804 Y-43.162 Z-1.333 I-0.045 J0.033 K0.000 F200.000
G0 Z5.000
G0 X-37.692 Y-44.778 Z5.000
G0 X-37.692 Y-44.778 Z3.000
G1 X-37.692 Y-44.778 Z-1.333 F60.000
G3 X-37.995 Y-44.342 Z-1.333 I-0.864 J-0.278 K0.000 F200.000
G2 X-38.061 Y-44.256 Z-1.333 I0.338 J0.326 K0.000 F200.000
G3 X-38.520 Y-44.106 Z-1.333 I-0.345 J-0.282 K0.000 F200.000
G3 X-38.759 Y-44.267 Z-1.333 I0.107 J-0.418 K0.000 F200.000
G2 X-39.132 Y-44.645 Z-1.333 I-0.474 J0.095 K0.000 F200.000
G3 X-39.384 Y-45.007 Z-1.333 I0.117 J-0.350 K0.000 F200.000
G3 X-39.050 Y-45.507 Z-1.333 I0.891 J0.233 K0.000 F200.000
G3 X-38.584 Y-45.756 Z-1.333 I0.476 J0.330 K0.000 F200.000
G3 X-38.188 Y-45.356 Z-1.333 I-0.117 J0.512 K0.000 F200.000
G2 X-38.088 Y-45.257 Z-1.333 I0.143 J-0.045 K0.000 F200.000
G3 X-37.692 Y-44.778 Z-1.333 I-0.101 J0.486 K0.000 F200.000
G0 Z5.000
G0 X-38.252 Y-44.786 Z5.000
G0 X-38.252 Y-44.786 Z3.000
G1 X-38.252 Y-44.786 Z-1.333 F60.000
G2 X-38.381 Y-44.661 Z-1.333 I1.291 J1.456 K0.000 F200.000
G2 X-38.800 Y-45.058 Z-1.333 I-0.864 J0.492 K0.000 F200.000
G2 X-38.660 Y-45.194 Z-1.333 I-0.780 J-0.944 K0.000 F200.000
G2 X-38.252 Y-44.786 Z-1.333 I0.610 J-0.202 K0.000 F200.000
G0 Z5.000
G0 X-40.091 Y-48.019 Z5.000
G0 X-40.091 Y-48.019 Z3.000
G1 X-40.091 Y-48.019 Z-1.333 F60.000
G2 X-40.327 Y-48.269 Z-1.333 I-23.751 J22.133 K0.000 F200.000
G3 X-40.328 Y-48.336 Z-1.333 I0.047 J-0.035 K0.000 F200.000
G3 X-40.098 Y-48.597 Z-1.333 I1.352 J0.959 K0.000 F200.000
G3 X-40.062 Y-48.270 Z-1.333 I-0.356 J0.204 K0.000 F200.000
G2 X-40.061 Y-48.158 Z-1.333 I0.404 J0.050 K0.000 F200.000
G3 X-40.091 Y-48.019 Z-1.333 I-0.293 J0.008 K0.000 F200.000
G0 Z5.000
G0 X-39.976 Y-50.720 Z5.000
G0 X-39.976 Y-50.720 Z3.000
G1 X-39.976 Y-50.720 Z-1.333 F60.000
G2 X-40.212 Y-50.970 Z-1.333 I-21.563 J20.079 K0.000 F200.000
G3 X-40.213 Y-51.037 Z-1.333 I0.047 J-0.034 K0.000 F200.000
G3 X-39.983 Y-51.298 Z-1.333 I1.358 J0.965 K0.000 F200.000
G3 X-39.947 Y-50.972 Z-1.333 I-0.356 J0.205 K0.000 F200.000
G2 X-39.945 Y-50.859 Z-1.333 I0.406 J0.050 K0.000 F200.000
G3 X-39.976 Y-50.720 Z-1.333 I-0.294 J0.008 K0.000 F200.000
G0 Z5.000
G0 X-39.320 Y-51.946 Z5.000
G0 X-39.320 Y-51.946 Z3.000
G1 X-39.320 Y-51.946 Z-1.333 F60.000
G1 X-39.177 Y-52.090 Z-1.333 F200.000
G2 X-39.076 Y-52.169 Z-1.333 I-0.036 J-0.150 K0.000 F200.000
G3 X-38.999 Y-52.159 Z-1.333 I0.027 J0.101 K0.000 F200.000
G3 X-38.756 Y-51.946 Z-1.333 I-0.909 J1.278 K0.000 F200.000
G3 X-39.139 Y-51.908 Z-1.333 I-0.240 J-0.482 K0.000 F200.000
G3 X-39.320 Y-51.946 Z-1.333 I-0.002 J-0.443 K0.000 F200.000
G0 Z5.000
G0 X-36.595 Y-49.221 Z5.000
G0 X-36.595 Y-49.221 Z3.000
G1 X-36.595 Y-49.221 Z-1.333 F60.000
G1 X-36.516 Y-49.300 Z-1.333 F200.000
G2 X-36.415 Y-49.379 Z-1.333 I-0.036 J-0.150 K0.000 F200.000
G3 X-36.337 Y-49.370 Z-1.333 I0.027 J0.101 K0.000 F200.000
G3 X-36.095 Y-49.156 Z-1.333 I-0.909 J1.277 K0.000 F200.000
G3 X-36.479 Y-49.120 Z-1.333 I-0.239 J-0.481 K0.000 F200.000
G3 X-36.657 Y-49.159 Z-1.333 I0.004 J-0.438 K0.000 F200.000
G1 X-36.595 Y-49.221 Z-1.333 F200.000
G0 Z5.000
G0 X-34.059 Y-49.208 Z5.000
G0 X-34.059 Y-49.208 Z3.000
G1 X-34.059 Y-49.208 Z-1.333 F60.000
G1 X-33.915 Y-49.352 Z-1.333 F200.000
G2 X-33.815 Y-49.431 Z-1.333 I-0.037 J-0.149 K0.000 F200.000
G3 X-33.738 Y-49.421 Z-1.333 I0.027 J0.101 K0.000 F200.000
G3 X-33.495 Y-49.207 Z-1.333 I-0.916 J1.284 K0.000 F200.000
G3 X-33.879 Y-49.171 Z-1.333 I-0.240 J-0.482 K0.000 F200.000
G3 X-34.059 Y-49.208 Z-1.333 I-0.002 J-0.440 K0.000 F200.000
G0 Z5.000
G0 X-44.696 Y-39.230 Z5.000
G0 X-44.696 Y-39.230 Z3.000
G1 X-44.696 Y-39.230 Z-1.333 F60.000
G3 X-44.564 Y-38.967 Z-1.333 I-0.376 J0.353 K0.000 F200.000
G2 X-44.468 Y-38.864 Z-1.333 I0.145 J-0.038 K0.000 F200.000
G3 X-44.088 Y-38.374 Z-1.333 I-0.122 J0.486 K0.000 F200.000
G3 X-44.390 Y-37.947 Z-1.333 I-0.878 J-0.301 K0.000 F200.000
G2 X-44.457 Y-37.859 Z-1.333 I0.342 J0.328 K0.000 F200.000
G3 X-44.922 Y-37.713 Z-1.333 I-0.344 J-0.281 K0.000 F200.000
G3 X-45.160 Y-37.881 Z-1.333 I0.115 J-0.415 K0.000 F200.000
G2 X-45.520 Y-38.274 Z-1.333 I-0.480 J0.078 K0.000 F200.000
G3 X-45.759 Y-38.637 Z-1.333 I0.129 J-0.345 K0.000 F200.000
G3 X-45.426 Y-39.131 Z-1.333 I0.901 J0.247 K0.000 F200.000
G3 X-44.959 Y-39.380 Z-1.333 I0.477 J0.332 K0.000 F200.000
G3 X-44.696 Y-39.230 Z-1.333 I-0.113 J0.503 K0.000 F200.000
G0 Z5.000
G0 X-45.039 Y-38.815 Z5.000
G0 X-45.039 Y-38.815 Z3.000
G1 X-45.039 Y-38.815 Z-1.333 F60.000
G2 X-44.643 Y-38.396 Z-1.333 I0.614 J-0.184 K0.000 F200.000
G2 X-44.773 Y-38.269 Z-1.333 I1.470 J1.634 K0.000 F200.000
G2 X-45.180 Y-38.678 Z-1.333 I-0.880 J0.469 K0.000 F200.000
G2 X-45.039 Y-38.815 Z-1.333 I-0.931 J-1.100 K0.000 F200.000
G0 Z5.000
G0 X-48.010 Y-40.106 Z5.000
G0 X-48.010 Y-40.106 Z3.000
G1 X-48.010 Y-40.106 Z-1.333 F60.000
G3 X-48.393 Y-40.069 Z-1.333 I-0.240 J-0.482 K0.000 F200.000
G3 X-48.573 Y-40.107 Z-1.333 I-0.002 J-0.443 K0.000 F200.000
G1 X-48.430 Y-40.250 Z-1.333 F200.000
G2 X-48.329 Y-40.329 Z-1.333 I-0.036 J-0.150 K0.000 F200.000
G3 X-48.252 Y-40.320 Z-1.333 I0.026 J0.101 K0.000 F200.000
G3 X-48.010 Y-40.106 Z-1.333 I-0.946 J1.315 K0.000 F200.000
G0 Z5.000
G0 X-50.711 Y-39.991 Z5.000
G0 X-50.711 Y-39.991 Z3.000
G1 X-50.711 Y-39.991 Z-1.333 F60.000
G3 X-51.096 Y-39.955 Z-1.333 I-0.239 J-0.484 K0.000 F200.000
G3 X-51.272 Y-39.994 Z-1.333 I0.004 J-0.437 K0.000 F200.000
G1 X-51.131 Y-40.135 Z-1.333 F200.000
G2 X-51.030 Y-40.215 Z-1.333 I-0.036 J-0.150 K0.000 F200.000
G3 X-50.953 Y-40.205 Z-1.333 I0.026 J0.101 K0.000 F200.000
G3 X-50.711 Y-39.991 Z-1.333 I-0.938 J1.307 K0.000 F200.000
G0 Z5.000
G0 X-51.932 Y-39.334 Z5.000
G0 X-51.932 Y-39.334 Z3.000
G1 X-51.932 Y-39.334 Z-1.333 F60.000
G3 X-51.901 Y-39.016 Z-1.333 I-0.363 J0.195 K0.000 F200.000
G2 X-51.900 Y-38.903 Z-1.333 I0.404 J0.050 K0.000 F200.000
G3 X-51.930 Y-38.765 Z-1.333 I-0.292 J0.007 K0.000 F200.000
G2 X-52.167 Y-39.019 Z-1.333 I-11.642 J10.637 K0.000 F200.000
G3 X-52.167 Y-39.083 Z-1.333 I0.045 J-0.033 K0.000 F200.000
G3 X-51.938 Y-39.344 Z-1.333 I1.353 J0.959 K0.000 F200.000
G3 X-51.932 Y-39.334 Z-1.333 I-0.357 J0.206 K0.000 F200.000
G0 Z5.000
G0 X-49.201 Y-36.631 Z5.000
G0 X-49.201 Y-36.631 Z3.000
G1 X-49.201 Y-36.631 Z-1.333 F60.000
G3 X-49.146 Y-36.684 Z-1.333 I1.341 J1.327 K0.000 F200.000
G3 X-49.120 Y-36.393 Z-1.333 I-0.356 J0.179 K0.000 F200.000
G2 X-49.110 Y-36.276 Z-1.333 I0.342 J0.031 K0.000 F200.000
G3 X-49.141 Y-36.104 Z-1.333 I-0.341 J0.029 K0.000 F200.000
G3 X-49.376 Y-36.357 Z-1.333 I34.639 J-32.446 K0.000 F200.000
G3 X-49.376 Y-36.427 Z-1.333 I0.049 J-0.035 K0.000 F200.000
G3 X-49.201 Y-36.631 Z-1.333 I1.516 J1.122 K0.000 F200.000
G0 Z5.000
G0 X-49.200 Y-34.082 Z5.000
G0 X-49.200 Y-34.082 Z3.000
G1 X-49.200 Y-34.082 Z-1.333 F60.000
G3 X-49.164 Y-33.751 Z-1.333 I-0.356 J0.205 K0.000 F200.000
G2 X-49.164 Y-33.641 Z-1.333 I0.409 J0.054 K0.000 F200.000
