(Exported by FreeCAD)
(Post Processor: script_module)
(Output Time:2024-09-29 13:11:02.942607)
(Begin preamble)
G17 G90
G21
(Begin operation: TC: 0.5mm_droite)
(Path: TC: 0.5mm_droite)
(TC: 0.5mm_droite)
(Begin toolchange)
( M6 T2 )
M3 S24000
(Finish operation: TC: 0.5mm_droite)
(Begin operation: Fixture)
(Path: Fixture)
G54
(Finish operation: Fixture)
(Begin operation: Pocket_Shape002)
(Path: Pocket_Shape002)
(Pocket_Shape002)
G0 Z9.000
G0 X-39.310 Y-31.329
G0 Z7.000
G1 X-39.310 Y-31.329 Z3.750 F60.000
G3 X-39.319 Y-31.311 Z3.750 I-0.054 J-0.013 K0.000 F120.000
G3 X-39.609 Y-30.985 Z3.750 I-1.686 J-1.214 K0.000 F120.000
G3 X-39.626 Y-31.339 Z3.750 I0.352 J-0.194 K0.000 F120.000
G2 X-39.639 Y-31.488 Z3.750 I-0.277 J-0.051 K0.000 F120.000
G3 X-39.610 Y-31.692 Z3.750 I0.351 J-0.055 K0.000 F120.000
G1 X-39.397 Y-31.479 Z3.750 F120.000
G2 X-39.319 Y-31.375 Z3.750 I0.169 J-0.046 K0.000 F120.000
G3 X-39.310 Y-31.329 Z3.750 I-0.045 J0.033 K0.000 F120.000
G0 Z9.000
G0 X-40.078 Y-30.542 Z9.000
G0 X-40.078 Y-30.542 Z7.000
G1 X-40.078 Y-30.542 Z3.750 F60.000
G3 X-40.416 Y-30.222 Z3.750 I-84.799 J-89.163 K0.000 F120.000
G3 X-40.482 Y-30.221 Z3.750 I-0.034 J-0.046 K0.000 F120.000
G3 X-40.833 Y-30.537 Z3.750 I1.229 J-1.716 K0.000 F120.000
G3 X-40.649 Y-30.575 Z3.750 I0.151 J0.263 K0.000 F120.000
G1 X-40.480 Y-30.542 Z3.750 F120.000
G2 X-40.337 Y-30.568 Z3.750 I0.022 J-0.288 K0.000 F120.000
G3 X-40.078 Y-30.542 Z3.750 I0.094 J0.376 K0.000 F120.000
G0 Z9.000
G0 X-39.743 Y-33.503 Z9.000
G0 X-39.743 Y-33.503 Z7.000
G1 X-39.743 Y-33.503 Z3.750 F60.000
G3 X-39.758 Y-33.827 Z3.750 I0.355 J-0.178 K0.000 F120.000
G2 X-39.777 Y-33.975 Z3.750 I-0.265 J-0.041 K0.000 F120.000
G3 X-39.750 Y-34.217 Z3.750 I0.364 J-0.081 K0.000 F120.000
G1 X-39.529 Y-33.997 Z3.750 F120.000
G2 X-39.453 Y-33.895 Z3.750 I0.168 J-0.047 K0.000 F120.000
G3 X-39.452 Y-33.829 Z3.750 I-0.046 J0.034 K0.000 F120.000
G3 X-39.743 Y-33.503 Z3.750 I-1.688 J-1.212 K0.000 F120.000
G0 Z9.000
G0 X-42.834 Y-33.222 Z9.000
G0 X-42.834 Y-33.222 Z7.000
G1 X-42.834 Y-33.222 Z3.750 F60.000
G2 X-43.150 Y-32.924 Z3.750 I106.039 J112.633 K0.000 F120.000
G3 X-43.216 Y-32.922 Z3.750 I-0.034 J-0.046 K0.000 F120.000
G3 X-43.555 Y-33.227 Z3.750 I1.205 J-1.679 K0.000 F120.000
G3 X-43.379 Y-33.265 Z3.750 I0.144 J0.244 K0.000 F120.000
G1 X-43.205 Y-33.233 Z3.750 F120.000
G2 X-43.075 Y-33.252 Z3.750 I0.022 J-0.307 K0.000 F120.000
G3 X-42.834 Y-33.222 Z3.750 I0.074 J0.392 K0.000 F120.000
G0 Z9.000
G0 X-43.718 Y-30.247 Z9.000
G0 X-43.718 Y-30.247 Z7.000
G1 X-43.718 Y-30.247 Z3.750 F60.000
G1 X-43.497 Y-30.027 Z3.750 F120.000
G2 X-43.422 Y-29.927 Z3.750 I0.168 J-0.048 K0.000 F120.000
G3 X-43.420 Y-29.861 Z3.750 I-0.047 J0.034 K0.000 F120.000
G3 X-43.711 Y-29.535 Z3.750 I-1.695 J-1.222 K0.000 F120.000
G3 X-43.726 Y-29.857 Z3.750 I0.331 J-0.176 K0.000 F120.000
G2 X-43.744 Y-30.008 Z3.750 I-0.261 J-0.045 K0.000 F120.000
G3 X-43.718 Y-30.247 Z3.750 I0.363 J-0.081 K0.000 F120.000
G0 Z9.000
G0 X-44.151 Y-29.122 Z9.000
G0 X-44.151 Y-29.122 Z7.000
G1 X-44.151 Y-29.122 Z3.750 F60.000
G2 X-44.452 Y-28.838 Z3.750 I231.321 J244.957 K0.000 F120.000
G3 X-44.518 Y-28.836 Z3.750 I-0.034 J-0.046 K0.000 F120.000
G3 X-44.856 Y-29.140 Z3.750 I1.236 J-1.718 K0.000 F120.000
G3 X-44.479 Y-29.168 Z3.750 I0.229 J0.532 K0.000 F120.000
G3 X-44.203 Y-29.140 Z3.750 I0.048 J0.900 K0.000 F120.000
G1 X-44.151 Y-29.122 Z3.750 F120.000
G0 Z9.000
G0 X-49.199 Y-33.509 Z9.000
G0 X-49.199 Y-33.509 Z7.000
G1 X-49.199 Y-33.509 Z3.750 F60.000
G2 X-49.496 Y-33.824 Z3.750 I-32.373 J30.259 K0.000 F120.000
G3 X-49.497 Y-33.889 Z3.750 I0.045 J-0.033 K0.000 F120.000
G3 X-49.214 Y-34.206 Z3.750 I1.680 J1.216 K0.000 F120.000
G3 X-49.188 Y-33.855 Z3.750 I-0.371 J0.204 K0.000 F120.000
G2 X-49.173 Y-33.711 Z3.750 I0.294 J0.042 K0.000 F120.000
G3 X-49.199 Y-33.509 Z3.750 I-0.358 J0.057 K0.000 F120.000
G0 Z9.000
G0 X-49.150 Y-36.111 Z9.000
G0 X-49.150 Y-36.111 Z7.000
G1 X-49.150 Y-36.111 Z3.750 F60.000
G3 X-49.444 Y-36.425 Z3.750 I29.253 J-27.680 K0.000 F120.000
G3 X-49.444 Y-36.494 Z3.750 I0.049 J-0.035 K0.000 F120.000
G3 X-49.159 Y-36.809 Z3.750 I1.850 J1.388 K0.000 F120.000
G3 X-49.137 Y-36.453 Z3.750 I-0.372 J0.201 K0.000 F120.000
G2 X-49.124 Y-36.310 Z3.750 I0.290 J0.046 K0.000 F120.000
G3 X-49.150 Y-36.111 Z3.750 I-0.360 J0.054 K0.000 F120.000
G0 Z9.000
G0 X-51.910 Y-38.742 Z9.000
G0 X-51.910 Y-38.742 Z7.000
G1 X-51.910 Y-38.742 Z3.750 F60.000
G3 X-52.234 Y-39.086 Z3.750 I35.170 J-33.448 K0.000 F120.000
G3 X-52.235 Y-39.151 Z3.750 I0.045 J-0.033 K0.000 F120.000
G3 X-51.928 Y-39.493 Z3.750 I1.745 J1.258 K0.000 F120.000
G3 X-51.915 Y-39.164 Z3.750 I-0.341 J0.179 K0.000 F120.000
G2 X-51.888 Y-39.001 Z3.750 I0.254 J0.042 K0.000 F120.000
G3 X-51.910 Y-38.742 Z3.750 I-0.349 J0.100 K0.000 F120.000
G0 Z9.000
G0 X-51.069 Y-39.974 Z9.000
G0 X-51.069 Y-39.974 Z7.000
G1 X-51.069 Y-39.974 Z3.750 F60.000
G3 X-51.118 Y-40.266 Z3.750 I18.482 J-3.225 K0.000 F120.000
G3 X-51.066 Y-40.286 Z3.750 I0.039 J0.025 K0.000 F120.000
G1 X-51.021 Y-40.273 Z3.750 F120.000
G3 X-50.699 Y-39.981 Z3.750 I-1.231 J1.686 K0.000 F120.000
G3 X-50.940 Y-39.965 Z3.750 I-0.137 J-0.240 K0.000 F120.000
G2 X-51.069 Y-39.974 Z3.750 I-0.096 J0.453 K0.000 F120.000
G0 Z9.000
G0 X-48.708 Y-40.108 Z9.000
G0 X-48.708 Y-40.108 Z7.000
G1 X-48.708 Y-40.108 Z3.750 F60.000
G1 X-48.498 Y-40.318 Z3.750 F120.000
G2 X-48.396 Y-40.397 Z3.750 I-0.036 J-0.150 K0.000 F120.000
G3 X-48.320 Y-40.388 Z3.750 I0.026 J0.101 K0.000 F120.000
G3 X-48.010 Y-40.109 Z3.750 I-1.225 J1.675 K0.000 F120.000
G3 X-48.360 Y-40.091 Z3.750 I-0.195 J-0.383 K0.000 F120.000
G2 X-48.503 Y-40.078 Z3.750 I-0.045 J0.292 K0.000 F120.000
G3 X-48.708 Y-40.108 Z3.750 I-0.052 J-0.360 K0.000 F120.000
G0 Z9.000
G0 X-45.814 Y-38.808 Z9.000
G0 X-45.814 Y-38.808 Z7.000
G1 X-45.814 Y-38.808 Z3.750 F60.000
G3 X-45.570 Y-39.119 Z3.750 I0.751 J0.337 K0.000 F120.000
G3 X-45.461 Y-39.248 Z3.750 I0.622 J0.416 K0.000 F120.000
G3 X-44.892 Y-39.252 Z3.750 I0.287 J0.324 K0.000 F120.000
G2 X-44.464 Y-38.871 Z3.750 I0.960 J-0.646 K0.000 F120.000
G3 X-44.379 Y-38.111 Z3.750 I-0.099 J0.396 K0.000 F120.000
G2 X-44.464 Y-38.009 Z3.750 I0.209 J0.260 K0.000 F120.000
G3 X-44.915 Y-37.872 Z3.750 I-0.327 J-0.264 K0.000 F120.000
G3 X-45.022 Y-37.923 Z3.750 I0.117 J-0.384 K0.000 F120.000
G2 X-45.549 Y-38.281 Z3.750 I-1.178 J1.168 K0.000 F120.000
G3 X-45.861 Y-38.673 Z3.750 I0.069 J-0.376 K0.000 F120.000
G3 X-45.814 Y-38.808 Z3.750 I0.798 J0.202 K0.000 F120.000
G0 Z9.000
G0 X-45.280 Y-38.708 Z9.000
G0 X-45.280 Y-38.708 Z7.000
G1 X-45.280 Y-38.708 Z3.750 F60.000
G2 X-45.180 Y-38.810 Z3.750 I-0.422 J-0.516 K0.000 F120.000
G2 X-44.745 Y-38.455 Z3.750 I1.239 J-1.073 K0.000 F120.000
G2 X-44.800 Y-38.398 Z3.750 I0.197 J0.242 K0.000 F120.000
G2 X-45.280 Y-38.708 Z3.750 I-1.417 J1.666 K0.000 F120.000
G0 Z9.000
G0 X-39.344 Y-44.795 Z9.000
G0 X-39.344 Y-44.795 Z7.000
G1 X-39.344 Y-44.795 Z3.750 F60.000
G3 X-39.455 Y-45.070 Z3.750 I0.257 J-0.264 K0.000 F120.000
G3 X-39.120 Y-45.574 Z3.750 I0.889 J0.228 K0.000 F120.000
G3 X-38.878 Y-45.791 Z3.750 I0.572 J0.393 K0.000 F120.000
G3 X-38.615 Y-45.860 Z3.750 I0.277 J0.525 K0.000 F120.000
G3 X-38.219 Y-45.462 Z3.750 I-0.118 J0.513 K0.000 F120.000
G2 X-38.119 Y-45.364 Z3.750 I0.143 J-0.046 K0.000 F120.000
G3 X-37.804 Y-44.687 Z3.750 I-0.089 J0.453 K0.000 F120.000
G2 X-38.215 Y-44.260 Z3.750 I4.354 J4.611 K0.000 F120.000
G3 X-38.605 Y-44.168 Z3.750 I-0.277 J-0.301 K0.000 F120.000
G3 X-38.828 Y-44.330 Z3.750 I0.108 J-0.383 K0.000 F120.000
G2 X-39.204 Y-44.709 Z3.750 I-0.481 J0.100 K0.000 F120.000
G3 X-39.344 Y-44.795 Z3.750 I0.117 J-0.349 K0.000 F120.000
G0 Z9.000
G0 X-38.873 Y-45.123 Z9.000
G0 X-38.873 Y-45.123 Z7.000
G1 X-38.873 Y-45.123 Z3.750 F60.000
G2 X-38.693 Y-45.304 Z3.750 I-0.975 J-1.152 K0.000 F120.000
G2 X-38.303 Y-44.899 Z3.750 I0.612 J-0.200 K0.000 F120.000
G2 X-38.459 Y-44.735 Z3.750 I2.215 J2.269 K0.000 F120.000
G2 X-38.873 Y-45.123 Z3.750 I-0.856 J0.498 K0.000 F120.000
G1 X-38.746 Y-45.137 Z3.750 F60.000
G2 X-38.715 Y-45.169 Z3.750 I-0.154 J-0.181 K0.000 F120.000
G2 X-38.647 Y-45.064 Z3.750 I0.414 J-0.194 K0.000 F120.000
G2 X-38.746 Y-45.137 Z3.750 I-0.422 J0.471 K0.000 F120.000
G1 X-38.504 Y-44.924 Z3.750 F60.000
G2 X-38.429 Y-44.877 Z3.750 I0.211 J-0.247 K0.000 F120.000
G1 X-38.448 Y-44.856 Z3.750 F120.000
G2 X-38.504 Y-44.924 Z3.750 I-0.377 J0.251 K0.000 F120.000
G0 Z9.000
G0 X-40.105 Y-48.030 Z9.000
G0 X-40.105 Y-48.030 Z7.000
G1 X-40.105 Y-48.030 Z3.750 F60.000
G3 X-40.394 Y-48.337 Z3.750 I474.255 J-448.390 K0.000 F120.000
G3 X-40.396 Y-48.404 Z3.750 I0.047 J-0.035 K0.000 F120.000
G3 X-40.107 Y-48.727 Z3.750 I1.679 J1.208 K0.000 F120.000
G3 X-40.090 Y-48.375 Z3.750 I-0.370 J0.194 K0.000 F120.000
G2 X-40.078 Y-48.229 Z3.750 I0.285 J0.049 K0.000 F120.000
G3 X-40.105 Y-48.030 Z3.750 I-0.360 J0.053 K0.000 F120.000
G0 Z9.000
G0 X-39.988 Y-50.730 Z9.000
G0 X-39.988 Y-50.730 Z7.000
G1 X-39.988 Y-50.730 Z3.750 F60.000
G2 X-40.280 Y-51.038 Z3.750 I-79.484 J74.835 K0.000 F120.000
G3 X-40.281 Y-51.105 Z3.750 I0.047 J-0.034 K0.000 F120.000
G3 X-39.993 Y-51.427 Z3.750 I1.677 J1.208 K0.000 F120.000
G3 X-39.975 Y-51.075 Z3.750 I-0.368 J0.195 K0.000 F120.000
G2 X-39.962 Y-50.929 Z3.750 I0.286 J0.048 K0.000 F120.000
G3 X-39.988 Y-50.730 Z3.750 I-0.359 J0.054 K0.000 F120.000
G0 Z9.000
G0 X-39.464 Y-51.923 Z9.000
G0 X-39.464 Y-51.923 Z7.000
G1 X-39.464 Y-51.923 Z3.750 F60.000
G3 X-39.474 Y-51.928 Z3.750 I0.095 J-0.217 K0.000 F120.000
G1 X-39.244 Y-52.158 Z3.750 F120.000
G2 X-39.143 Y-52.236 Z3.750 I-0.036 J-0.150 K0.000 F120.000
G3 X-39.066 Y-52.227 Z3.750 I0.027 J0.101 K0.000 F120.000
G3 X-38.760 Y-51.953 Z3.750 I-1.162 J1.607 K0.000 F120.000
G3 X-39.107 Y-51.925 Z3.750 I-0.207 J-0.400 K0.000 F120.000
G2 X-39.246 Y-51.905 Z3.750 I-0.032 J0.277 K0.000 F120.000
G3 X-39.410 Y-51.907 Z3.750 I-0.079 J-0.381 K0.000 F120.000
G3 X-39.464 Y-51.923 Z3.750 I0.041 J-0.233 K0.000 F120.000
G0 Z9.000
G0 X-36.503 Y-49.431 Z9.000
G0 X-36.503 Y-49.431 Z7.000
G1 X-36.503 Y-49.431 Z3.750 F60.000
G3 X-36.451 Y-49.450 Z3.750 I0.039 J0.026 K0.000 F120.000
G1 X-36.405 Y-49.438 Z3.750 F120.000
G3 X-36.087 Y-49.151 Z3.750 I-1.194 J1.648 K0.000 F120.000
G3 X-36.322 Y-49.122 Z3.750 I-0.147 J-0.226 K0.000 F120.000
G2 X-36.453 Y-49.139 Z3.750 I-0.130 J0.487 K0.000 F120.000
G3 X-36.503 Y-49.431 Z3.750 I8.838 J-1.642 K0.000 F120.000
G0 Z9.000
G0 X-34.195 Y-49.208 Z9.000
G0 X-34.195 Y-49.208 Z7.000
G1 X-34.195 Y-49.208 Z3.750 F60.000
G1 X-33.982 Y-49.420 Z3.750 F120.000
G2 X-33.883 Y-49.498 Z3.750 I-0.037 J-0.149 K0.000 F120.000
G3 X-33.806 Y-49.489 Z3.750 I0.027 J0.101 K0.000 F120.000
G3 X-33.499 Y-49.214 Z3.750 I-1.172 J1.616 K0.000 F120.000
G3 X-33.851 Y-49.192 Z3.750 I-0.201 J-0.391 K0.000 F120.000
G2 X-33.992 Y-49.179 Z3.750 I-0.042 J0.296 K0.000 F120.000
G3 X-34.195 Y-49.208 Z3.750 I-0.052 J-0.358 K0.000 F120.000
G0 Z9.000
G0 X-33.180 Y-43.575 Z9.000
G0 X-33.180 Y-43.575 Z7.000
G1 X-33.180 Y-43.575 Z3.750 F60.000
G1 X-32.958 Y-43.353 Z3.750 F120.000
G2 X-32.881 Y-43.249 Z3.750 I0.169 J-0.046 K0.000 F120.000
G3 X-32.880 Y-43.185 Z3.750 I-0.045 J0.033 K0.000 F120.000
G3 X-33.168 Y-42.862 Z3.750 I-1.700 J-1.229 K0.000 F120.000
G3 X-33.185 Y-43.180 Z3.750 I0.354 J-0.178 K0.000 F120.000
G2 X-33.208 Y-43.330 Z3.750 I-0.265 J-0.037 K0.000 F120.000
G3 X-33.180 Y-43.575 Z3.750 I0.346 J-0.085 K0.000 F120.000
G0 Z9.000
G0 X-30.257 Y-43.755 Z9.000
G0 X-30.257 Y-43.755 Z7.000
G1 X-30.257 Y-43.755 Z3.750 F60.000
G3 X-30.152 Y-43.777 Z3.750 I0.098 J0.208 K0.000 F120.000
G1 X-29.707 Y-43.755 Z3.750 F120.000
G3 X-29.552 Y-43.722 Z3.750 I-0.004 J0.404 K0.000 F120.000
G3 X-29.846 Y-43.444 Z3.750 I-13.335 J-13.861 K0.000 F120.000
G3 X-29.916 Y-43.444 Z3.750 I-0.035 J-0.050 K0.000 F120.000
G3 X-30.257 Y-43.755 Z3.750 I1.481 J-1.966 K0.000 F120.000
G0 Z9.000
G0 X-29.148 Y-44.173 Z9.000
G0 X-29.148 Y-44.173 Z7.000
G1 X-29.148 Y-44.173 Z3.750 F60.000
G3 X-29.142 Y-44.467 Z3.750 I0.372 J-0.140 K0.000 F120.000
G2 X-29.158 Y-44.619 Z3.750 I-0.279 J-0.048 K0.000 F120.000
G3 X-29.132 Y-44.829 Z3.750 I0.357 J-0.062 K0.000 F120.000
G1 X-28.915 Y-44.612 Z3.750 F120.000
G2 X-28.837 Y-44.509 Z3.750 I0.169 J-0.046 K0.000 F120.000
G3 X-28.836 Y-44.444 Z3.750 I-0.045 J0.033 K0.000 F120.000
G3 X-29.125 Y-44.122 Z3.750 I-1.698 J-1.229 K0.000 F120.000
G3 X-29.148 Y-44.173 Z3.750 I0.349 J-0.191 K0.000 F120.000
G0 Z9.000
G0 X-30.524 Y-40.802 Z9.000
G0 X-30.524 Y-40.802 Z7.000
G1 X-30.524 Y-40.802 Z3.750 F60.000
G1 X-30.298 Y-40.576 Z3.750 F120.000
G2 X-30.221 Y-40.473 Z3.750 I0.168 J-0.046 K0.000 F120.000
G3 X-30.220 Y-40.409 Z3.750 I-0.045 J0.033 K0.000 F120.000
G3 X-30.509 Y-40.086 Z3.750 I-1.679 J-1.208 K0.000 F120.000
G3 X-30.526 Y-40.403 Z3.750 I0.355 J-0.179 K0.000 F120.000
G2 X-30.550 Y-40.554 Z3.750 I-0.266 J-0.036 K0.000 F120.000
G3 X-30.524 Y-40.802 Z3.750 I0.354 J-0.088 K0.000 F120.000
G0 Z9.000
G0 X-30.867 Y-39.795 Z9.000
G0 X-30.867 Y-39.795 Z7.000
G1 X-30.867 Y-39.795 Z3.750 F60.000
G3 X-30.837 Y-39.783 Z3.750 I-0.096 J0.281 K0.000 F120.000
G3 X-31.157 Y-39.482 Z3.750 I-24.988 J-26.327 K0.000 F120.000
G3 X-31.227 Y-39.483 Z3.750 I-0.035 J-0.049 K0.000 F120.000
G3 X-31.550 Y-39.777 Z3.750 I1.452 J-1.917 K0.000 F120.000
G3 X-31.326 Y-39.793 Z3.750 I0.128 J0.226 K0.000 F120.000
G2 X-30.988 Y-39.810 Z3.750 I0.131 J-0.761 K0.000 F120.000
G3 X-30.867 Y-39.795 Z3.750 I0.026 J0.295 K0.000 F120.000
G0 Z9.000
G0 X-33.522 Y-39.740 Z9.000
G0 X-33.522 Y-39.740 Z7.000
G1 X-33.522 Y-39.740 Z3.750 F60.000
G3 X-33.834 Y-39.448 Z3.750 I-70.305 J-74.655 K0.000 F120.000
G3 X-33.897 Y-39.447 Z3.750 I-0.032 J-0.044 K0.000 F120.000
G3 X-34.229 Y-39.745 Z3.750 I1.228 J-1.698 K0.000 F120.000
G3 X-34.026 Y-39.757 Z3.750 I0.114 J0.218 K0.000 F120.000
G2 X-33.707 Y-39.780 Z3.750 I0.110 J-0.693 K0.000 F120.000
G3 X-33.522 Y-39.740 Z3.750 I0.011 J0.390 K0.000 F120.000
G1 X-33.522 Y-39.740 Z3.500 F60.000
G3 X-33.834 Y-39.448 Z3.500 I-70.305 J-74.655 K0.000 F120.000
G3 X-33.897 Y-39.447 Z3.500 I-0.032 J-0.044 K0.000 F120.000
G3 X-34.229 Y-39.745 Z3.500 I1.228 J-1.698 K0.000 F120.000
G3 X-34.026 Y-39.757 Z3.500 I0.114 J0.218 K0.000 F120.000
G2 X-33.707 Y-39.780 Z3.500 I0.110 J-0.693 K0.000 F120.000
G3 X-33.522 Y-39.740 Z3.500 I0.011 J0.390 K0.000 F120.000
G0 Z9.000
G0 X-31.550 Y-39.777 Z9.000
G0 X-31.550 Y-39.777 Z7.000
G1 X-31.550 Y-39.777 Z3.500 F60.000
G3 X-31.326 Y-39.793 Z3.500 I0.128 J0.226 K0.000 F120.000
G2 X-30.988 Y-39.810 Z3.500 I0.131 J-0.761 K0.000 F120.000
G3 X-30.837 Y-39.783 Z3.500 I0.026 J0.295 K0.000 F120.000
G3 X-31.157 Y-39.482 Z3.500 I-24.988 J-26.327 K0.000 F120.000
G3 X-31.227 Y-39.483 Z3.500 I-0.035 J-0.049 K0.000 F120.000
G3 X-31.550 Y-39.777 Z3.500 I1.452 J-1.917 K0.000 F120.000
G0 Z9.000
G0 X-30.529 Y-40.134 Z9.000
G0 X-30.529 Y-40.134 Z7.000
G1 X-30.529 Y-40.134 Z3.500 F60.000
G3 X-30.526 Y-40.403 Z3.500 I0.375 J-0.131 K0.000 F120.000
G2 X-30.550 Y-40.554 Z3.500 I-0.266 J-0.036 K0.000 F120.000
G3 X-30.524 Y-40.802 Z3.500 I0.354 J-0.088 K0.000 F120.000
G1 X-30.298 Y-40.576 Z3.500 F120.000
G2 X-30.221 Y-40.473 Z3.500 I0.168 J-0.046 K0.000 F120.000
G3 X-30.220 Y-40.409 Z3.500 I-0.045 J0.033 K0.000 F120.000
G3 X-30.509 Y-40.086 Z3.500 I-1.679 J-1.208 K0.000 F120.000
G3 X-30.529 Y-40.134 Z3.500 I0.355 J-0.179 K0.000 F120.000
G0 Z9.000
G0 X-29.893 Y-43.434 Z9.000
G0 X-29.893 Y-43.434 Z7.000
G1 X-29.893 Y-43.434 Z3.500 F60.000
G3 X-29.916 Y-43.444 Z3.500 I0.012 J-0.060 K0.000 F120.000
G3 X-30.257 Y-43.755 Z3.500 I1.481 J-1.966 K0.000 F120.000
G3 X-30.152 Y-43.777 Z3.500 I0.098 J0.208 K0.000 F120.000
G1 X-29.707 Y-43.755 Z3.500 F120.000
G3 X-29.552 Y-43.722 Z3.500 I-0.004 J0.404 K0.000 F120.000
G3 X-29.846 Y-43.444 Z3.500 I-13.335 J-13.861 K0.000 F120.000
G3 X-29.893 Y-43.434 Z3.500 I-0.035 J-0.050 K0.000 F120.000
G0 Z9.000
G0 X-29.125 Y-44.122 Z9.000
G0 X-29.125 Y-44.122 Z7.000
G1 X-29.125 Y-44.122 Z3.500 F60.000
G3 X-29.142 Y-44.467 Z3.500 I0.349 J-0.191 K0.000 F120.000
G2 X-29.158 Y-44.619 Z3.500 I-0.279 J-0.048 K0.000 F120.000
G3 X-29.132 Y-44.829 Z3.500 I0.357 J-0.062 K0.000 F120.000
G1 X-28.915 Y-44.612 Z3.500 F120.000
G2 X-28.837 Y-44.509 Z3.500 I0.169 J-0.046 K0.000 F120.000
G3 X-28.836 Y-44.444 Z3.500 I-0.045 J0.033 K0.000 F120.000
G3 X-29.125 Y-44.122 Z3.500 I-1.698 J-1.229 K0.000 F120.000
G0 Z9.000
G0 X-32.872 Y-43.229 Z9.000
G0 X-32.872 Y-43.229 Z7.000
G1 X-32.872 Y-43.229 Z3.500 F60.000
G3 X-32.880 Y-43.185 Z3.500 I-0.054 J0.013 K0.000 F120.000
G3 X-33.168 Y-42.862 Z3.500 I-1.700 J-1.229 K0.000 F120.000
G3 X-33.185 Y-43.180 Z3.500 I0.354 J-0.178 K0.000 F120.000
G2 X-33.208 Y-43.330 Z3.500 I-0.265 J-0.037 K0.000 F120.000
G3 X-33.180 Y-43.575 Z3.500 I0.346 J-0.085 K0.000 F120.000
G1 X-32.958 Y-43.353 Z3.500 F120.000
G2 X-32.881 Y-43.249 Z3.500 I0.169 J-0.046 K0.000 F120.000
G3 X-32.872 Y-43.229 Z3.500 I-0.045 J0.033 K0.000 F120.000
G0 Z9.000
G0 X-37.767 Y-44.772 Z9.000
G0 X-37.767 Y-44.772 Z7.000
G1 X-37.767 Y-44.772 Z3.500 F60.000
G3 X-37.804 Y-44.687 Z3.500 I-0.441 J-0.139 K0.000 F120.000
G2 X-38.215 Y-44.260 Z3.500 I4.354 J4.611 K0.000 F120.000
G3 X-38.605 Y-44.168 Z3.500 I-0.277 J-0.301 K0.000 F120.000
G3 X-38.828 Y-44.330 Z3.500 I0.108 J-0.383 K0.000 F120.000
G2 X-39.204 Y-44.709 Z3.500 I-0.481 J0.100 K0.000 F120.000
G3 X-39.455 Y-45.070 Z3.500 I0.117 J-0.349 K0.000 F120.000
G3 X-39.120 Y-45.574 Z3.500 I0.889 J0.228 K0.000 F120.000
G3 X-38.878 Y-45.791 Z3.500 I0.572 J0.393 K0.000 F120.000
G3 X-38.615 Y-45.860 Z3.500 I0.277 J0.525 K0.000 F120.000
G3 X-38.219 Y-45.462 Z3.500 I-0.118 J0.513 K0.000 F120.000
G2 X-38.119 Y-45.364 Z3.500 I0.143 J-0.046 K0.000 F120.000
G3 X-37.767 Y-44.772 Z3.500 I-0.089 J0.453 K0.000 F120.000
G0 Z9.000
G0 X-38.303 Y-44.899 Z9.000
G0 X-38.303 Y-44.899 Z7.000
G1 X-38.303 Y-44.899 Z3.500 F60.000
G2 X-38.459 Y-44.735 Z3.500 I2.215 J2.269 K0.000 F120.000
G2 X-38.873 Y-45.123 Z3.500 I-0.856 J0.498 K0.000 F120.000
G2 X-38.693 Y-45.304 Z3.500 I-0.975 J-1.152 K0.000 F120.000
G2 X-38.303 Y-44.899 Z3.500 I0.612 J-0.200 K0.000 F120.000
G1 X-38.429 Y-44.877 Z3.500 F60.000
G1 X-38.448 Y-44.856 Z3.500 F120.000
G2 X-38.504 Y-44.924 Z3.500 I-0.377 J0.251 K0.000 F120.000
G2 X-38.429 Y-44.877 Z3.500 I0.211 J-0.247 K0.000 F120.000
G1 X-38.647 Y-45.064 Z3.500 F60.000
G2 X-38.746 Y-45.137 Z3.500 I-0.422 J0.471 K0.000 F120.000
G2 X-38.715 Y-45.169 Z3.500 I-0.154 J-0.181 K0.000 F120.000
G2 X-38.647 Y-45.064 Z3.500 I0.414 J-0.194 K0.000 F120.000
G0 Z9.000
G0 X-40.105 Y-48.030 Z9.000
G0 X-40.105 Y-48.030 Z7.000
G1 X-40.105 Y-48.030 Z3.500 F60.000
G3 X-40.394 Y-48.337 Z3.500 I474.255 J-448.390 K0.000 F120.000
G3 X-40.396 Y-48.404 Z3.500 I0.047 J-0.035 K0.000 F120.000
G3 X-40.107 Y-48.727 Z3.500 I1.679 J1.208 K0.000 F120.000
G3 X-40.090 Y-48.375 Z3.500 I-0.370 J0.194 K0.000 F120.000
G2 X-40.078 Y-48.229 Z3.500 I0.285 J0.049 K0.000 F120.000
G3 X-40.105 Y-48.030 Z3.500 I-0.360 J0.053 K0.000 F120.000
G0 Z9.000
G0 X-39.988 Y-50.730 Z9.000
G0 X-39.988 Y-50.730 Z7.000
G1 X-39.988 Y-50.730 Z3.500 F60.000
G2 X-40.280 Y-51.038 Z3.500 I-79.484 J74.835 K0.000 F120.000
G3 X-40.281 Y-51.105 Z3.500 I0.047 J-0.034 K0.000 F120.000
G3 X-39.993 Y-51.427 Z3.500 I1.677 J1.208 K0.000 F120.000
G3 X-39.975 Y-51.075 Z3.500 I-0.368 J0.195 K0.000 F120.000
G2 X-39.962 Y-50.929 Z3.500 I0.286 J0.048 K0.000 F120.000
G3 X-39.988 Y-50.730 Z3.500 I-0.359 J0.054 K0.000 F120.000
G0 Z9.000
G0 X-39.464 Y-51.923 Z9.000
G0 X-39.464 Y-51.923 Z7.000
G1 X-39.464 Y-51.923 Z3.500 F60.000
G3 X-39.474 Y-51.928 Z3.500 I0.095 J-0.217 K0.000 F120.000
G1 X-39.244 Y-52.158 Z3.500 F120.000
G2 X-39.143 Y-52.236 Z3.500 I-0.036 J-0.150 K0.000 F120.000
G3 X-39.066 Y-52.227 Z3.500 I0.027 J0.101 K0.000 F120.000
G3 X-38.760 Y-51.953 Z3.500 I-1.162 J1.607 K0.000 F120.000
G3 X-39.107 Y-51.925 Z3.500 I-0.207 J-0.400 K0.000 F120.000
G2 X-39.246 Y-51.905 Z3.500 I-0.032 J0.277 K0.000 F120.000
G3 X-39.410 Y-51.907 Z3.500 I-0.079 J-0.381 K0.000 F120.000
G3 X-39.464 Y-51.923 Z3.500 I0.041 J-0.233 K0.000 F120.000
G0 Z9.000
G0 X-36.503 Y-49.431 Z9.000
G0 X-36.503 Y-49.431 Z7.000
G1 X-36.503 Y-49.431 Z3.500 F60.000
G3 X-36.451 Y-49.450 Z3.500 I0.039 J0.026 K0.000 F120.000
G1 X-36.405 Y-49.438 Z3.500 F120.000
G3 X-36.087 Y-49.151 Z3.500 I-1.194 J1.648 K0.000 F120.000
G3 X-36.322 Y-49.122 Z3.500 I-0.147 J-0.226 K0.000 F120.000
G2 X-36.453 Y-49.139 Z3.500 I-0.130 J0.487 K0.000 F120.000
G3 X-36.503 Y-49.431 Z3.500 I8.838 J-1.642 K0.000 F120.000
G0 Z9.000
G0 X-34.195 Y-49.208 Z9.000
G0 X-34.195 Y-49.208 Z7.000
G1 X-34.195 Y-49.208 Z3.500 F60.000
G1 X-33.982 Y-49.420 Z3.500 F120.000
G2 X-33.883 Y-49.498 Z3.500 I-0.037 J-0.149 K0.000 F120.000
G3 X-33.806 Y-49.489 Z3.500 I0.027 J0.101 K0.000 F120.000
G3 X-33.499 Y-49.214 Z3.500 I-1.172 J1.616 K0.000 F120.000
G3 X-33.851 Y-49.192 Z3.500 I-0.201 J-0.391 K0.000 F120.000
G2 X-33.992 Y-49.179 Z3.500 I-0.042 J0.296 K0.000 F120.000
G3 X-34.195 Y-49.208 Z3.500 I-0.052 J-0.358 K0.000 F120.000
G0 Z9.000
G0 X-44.279 Y-38.769 Z9.000
G0 X-44.279 Y-38.769 Z7.000
G1 X-44.279 Y-38.769 Z3.500 F60.000
G3 X-44.379 Y-38.111 Z3.500 I-0.283 J0.293 K0.000 F120.000
G2 X-44.464 Y-38.009 Z3.500 I0.209 J0.260 K0.000 F120.000
G3 X-44.915 Y-37.872 Z3.500 I-0.327 J-0.264 K0.000 F120.000
G3 X-45.022 Y-37.923 Z3.500 I0.117 J-0.384 K0.000 F120.000
G2 X-45.549 Y-38.281 Z3.500 I-1.178 J1.168 K0.000 F120.000
G3 X-45.861 Y-38.673 Z3.500 I0.069 J-0.376 K0.000 F120.000
G3 X-45.570 Y-39.119 Z3.500 I0.798 J0.202 K0.000 F120.000
G3 X-45.461 Y-39.248 Z3.500 I0.622 J0.416 K0.000 F120.000
G3 X-44.892 Y-39.252 Z3.500 I0.287 J0.324 K0.000 F120.000
G2 X-44.464 Y-38.871 Z3.500 I0.960 J-0.646 K0.000 F120.000
G3 X-44.279 Y-38.769 Z3.500 I-0.099 J0.396 K0.000 F120.000
G0 Z9.000
G0 X-44.745 Y-38.455 Z9.000
G0 X-44.745 Y-38.455 Z7.000
G1 X-44.745 Y-38.455 Z3.500 F60.000
G2 X-44.800 Y-38.398 Z3.500 I0.197 J0.242 K0.000 F120.000
G2 X-45.280 Y-38.708 Z3.500 I-1.417 J1.666 K0.000 F120.000
G2 X-45.180 Y-38.810 Z3.500 I-0.422 J-0.516 K0.000 F120.000
G2 X-44.745 Y-38.455 Z3.500 I1.239 J-1.073 K0.000 F120.000
G0 Z9.000
G0 X-48.010 Y-40.109 Z9.000
G0 X-48.010 Y-40.109 Z7.000
G1 X-48.010 Y-40.109 Z3.500 F60.000
G3 X-48.360 Y-40.091 Z3.500 I-0.195 J-0.383 K0.000 F120.000
G2 X-48.503 Y-40.078 Z3.500 I-0.045 J0.292 K0.000 F120.000
G3 X-48.708 Y-40.108 Z3.500 I-0.052 J-0.360 K0.000 F120.000
G1 X-48.498 Y-40.318 Z3.500 F120.000
G2 X-48.396 Y-40.397 Z3.500 I-0.036 J-0.150 K0.000 F120.000
G3 X-48.320 Y-40.388 Z3.500 I0.026 J0.101 K0.000 F120.000
G3 X-48.010 Y-40.109 Z3.500 I-1.225 J1.675 K0.000 F120.000
G0 Z9.000
G0 X-50.699 Y-39.981 Z9.000
G0 X-50.699 Y-39.981 Z7.000
G1 X-50.699 Y-39.981 Z3.500 F60.000
G3 X-50.940 Y-39.965 Z3.500 I-0.137 J-0.240 K0.000 F120.000
G2 X-51.069 Y-39.974 Z3.500 I-0.096 J0.453 K0.000 F120.000
G3 X-51.118 Y-40.266 Z3.500 I18.482 J-3.225 K0.000 F120.000
G3 X-51.066 Y-40.286 Z3.500 I0.039 J0.025 K0.000 F120.000
G1 X-51.021 Y-40.273 Z3.500 F120.000
G3 X-50.699 Y-39.981 Z3.500 I-1.231 J1.686 K0.000 F120.000
G0 Z9.000
G0 X-51.915 Y-39.465 Z9.000
G0 X-51.915 Y-39.465 Z7.000
G1 X-51.915 Y-39.465 Z3.500 F60.000
G3 X-51.915 Y-39.164 Z3.500 I-0.354 J0.151 K0.000 F120.000
G2 X-51.888 Y-39.001 Z3.500 I0.254 J0.042 K0.000 F120.000
G3 X-51.910 Y-38.742 Z3.500 I-0.349 J0.100 K0.000 F120.000
G3 X-52.234 Y-39.086 Z3.500 I35.170 J-33.448 K0.000 F120.000
G3 X-52.235 Y-39.151 Z3.500 I0.045 J-0.033 K0.000 F120.000
G3 X-51.928 Y-39.493 Z3.500 I1.745 J1.258 K0.000 F120.000
G3 X-51.915 Y-39.465 Z3.500 I-0.341 J0.179 K0.000 F120.000
G0 Z9.000
G0 X-49.222 Y-36.749 Z9.000
G0 X-49.222 Y-36.749 Z7.000
G1 X-49.222 Y-36.749 Z3.500 F60.000
G3 X-49.159 Y-36.809 Z3.500 I1.628 J1.642 K0.000 F120.000
G3 X-49.137 Y-36.453 Z3.500 I-0.372 J0.201 K0.000 F120.000
G2 X-49.124 Y-36.310 Z3.500 I0.290 J0.046 K0.000 F120.000
G3 X-49.150 Y-36.111 Z3.500 I-0.360 J0.054 K0.000 F120.000
G3 X-49.444 Y-36.425 Z3.500 I29.253 J-27.680 K0.000 F120.000
G3 X-49.444 Y-36.494 Z3.500 I0.049 J-0.035 K0.000 F120.000
G3 X-49.222 Y-36.749 Z3.500 I1.850 J1.388 K0.000 F120.000
G0 Z9.000
G0 X-49.214 Y-34.206 Z9.000
G0 X-49.214 Y-34.206 Z7.000
G1 X-49.214 Y-34.206 Z3.500 F60.000
G3 X-49.188 Y-33.855 Z3.500 I-0.371 J0.204 K0.000 F120.000
G2 X-49.173 Y-33.711 Z3.500 I0.294 J0.042 K0.000 F120.000
G3 X-49.199 Y-33.509 Z3.500 I-0.358 J0.057 K0.000 F120.000
G2 X-49.496 Y-33.824 Z3.500 I-32.373 J30.259 K0.000 F120.000
G3 X-49.497 Y-33.889 Z3.500 I0.045 J-0.033 K0.000 F120.000
G3 X-49.214 Y-34.206 Z3.500 I1.680 J1.216 K0.000 F120.000
G0 Z9.000
G0 X-43.555 Y-33.227 Z9.000
G0 X-43.555 Y-33.227 Z7.000
G1 X-43.555 Y-33.227 Z3.500 F60.000
G3 X-43.379 Y-33.265 Z3.500 I0.144 J0.244 K0.000 F120.000
G1 X-43.205 Y-33.233 Z3.500 F120.000
G2 X-43.075 Y-33.252 Z3.500 I0.022 J-0.307 K0.000 F120.000
G3 X-42.834 Y-33.222 Z3.500 I0.074 J0.392 K0.000 F120.000
G2 X-43.150 Y-32.924 Z3.500 I106.039 J112.633 K0.000 F120.000
G3 X-43.216 Y-32.922 Z3.500 I-0.034 J-0.046 K0.000 F120.000
G3 X-43.555 Y-33.227 Z3.500 I1.205 J-1.679 K0.000 F120.000
G0 Z9.000
G0 X-43.718 Y-30.247 Z9.000
G0 X-43.718 Y-30.247 Z7.000
G1 X-43.718 Y-30.247 Z3.500 F60.000
G1 X-43.497 Y-30.027 Z3.500 F120.000
G2 X-43.422 Y-29.927 Z3.500 I0.168 J-0.048 K0.000 F120.000
G3 X-43.420 Y-29.861 Z3.500 I-0.047 J0.034 K0.000 F120.000
G3 X-43.711 Y-29.535 Z3.500 I-1.695 J-1.222 K0.000 F120.000
G3 X-43.726 Y-29.857 Z3.500 I0.331 J-0.176 K0.000 F120.000
G2 X-43.744 Y-30.008 Z3.500 I-0.261 J-0.045 K0.000 F120.000
G3 X-43.718 Y-30.247 Z3.500 I0.363 J-0.081 K0.000 F120.000
G0 Z9.000
G0 X-44.151 Y-29.122 Z9.000
G0 X-44.151 Y-29.122 Z7.000
G1 X-44.151 Y-29.122 Z3.500 F60.000
G2 X-44.452 Y-28.838 Z3.500 I231.321 J244.957 K0.000 F120.000
G3 X-44.518 Y-28.836 Z3.500 I-0.034 J-0.046 K0.000 F120.000
G3 X-44.856 Y-29.140 Z3.500 I1.236 J-1.718 K0.000 F120.000
G3 X-44.479 Y-29.168 Z3.500 I0.229 J0.532 K0.000 F120.000
G3 X-44.203 Y-29.140 Z3.500 I0.048 J0.900 K0.000 F120.000
G1 X-44.151 Y-29.122 Z3.500 F120.000
G0 Z9.000
G0 X-40.833 Y-30.537 Z9.000
G0 X-40.833 Y-30.537 Z7.000
G1 X-40.833 Y-30.537 Z3.500 F60.000
G3 X-40.649 Y-30.575 Z3.500 I0.151 J0.263 K0.000 F120.000
G1 X-40.480 Y-30.542 Z3.500 F120.000
G2 X-40.337 Y-30.568 Z3.500 I0.022 J-0.288 K0.000 F120.000
G3 X-40.078 Y-30.542 Z3.500 I0.094 J0.376 K0.000 F120.000
G3 X-40.416 Y-30.222 Z3.500 I-84.799 J-89.163 K0.000 F120.000
G3 X-40.482 Y-30.221 Z3.500 I-0.034 J-0.046 K0.000 F120.000
G3 X-40.833 Y-30.537 Z3.500 I1.229 J-1.716 K0.000 F120.000
G0 Z9.000
G0 X-39.629 Y-31.027 Z9.000
G0 X-39.629 Y-31.027 Z7.000
G1 X-39.629 Y-31.027 Z3.500 F60.000
G3 X-39.626 Y-31.339 Z3.500 I0.372 J-0.152 K0.000 F120.000
G2 X-39.639 Y-31.488 Z3.500 I-0.277 J-0.051 K0.000 F120.000
G3 X-39.610 Y-31.692 Z3.500 I0.351 J-0.055 K0.000 F120.000
G1 X-39.397 Y-31.479 Z3.500 F120.000
G2 X-39.319 Y-31.375 Z3.500 I0.169 J-0.046 K0.000 F120.000
G3 X-39.319 Y-31.311 Z3.500 I-0.045 J0.033 K0.000 F120.000
G3 X-39.609 Y-30.985 Z3.500 I-1.686 J-1.214 K0.000 F120.000
G3 X-39.629 Y-31.027 Z3.500 I0.352 J-0.194 K0.000 F120.000
G0 Z9.000
G0 X-39.743 Y-33.503 Z9.000
G0 X-39.743 Y-33.503 Z7.000
G1 X-39.743 Y-33.503 Z3.500 F60.000
G3 X-39.758 Y-33.827 Z3.500 I0.355 J-0.178 K0.000 F120.000
G2 X-39.777 Y-33.975 Z3.500 I-0.265 J-0.041 K0.000 F120.000
G3 X-39.750 Y-34.217 Z3.500 I0.364 J-0.081 K0.000 F120.000
G1 X-39.529 Y-33.997 Z3.500 F120.000
G2 X-39.453 Y-33.895 Z3.500 I0.168 J-0.047 K0.000 F120.000
G3 X-39.452 Y-33.829 Z3.500 I-0.046 J0.034 K0.000 F120.000
G3 X-39.743 Y-33.503 Z3.500 I-1.688 J-1.212 K0.000 F120.000
G1 X-39.743 Y-33.503 Z3.250 F60.000
G3 X-39.758 Y-33.827 Z3.250 I0.355 J-0.178 K0.000 F120.000
G2 X-39.777 Y-33.975 Z3.250 I-0.265 J-0.041 K0.000 F120.000
G3 X-39.750 Y-34.217 Z3.250 I0.364 J-0.081 K0.000 F120.000
G1 X-39.529 Y-33.997 Z3.250 F120.000
G2 X-39.453 Y-33.895 Z3.250 I0.168 J-0.047 K0.000 F120.000
G3 X-39.452 Y-33.829 Z3.250 I-0.046 J0.034 K0.000 F120.000
G3 X-39.743 Y-33.503 Z3.250 I-1.688 J-1.212 K0.000 F120.000
G0 Z9.000
G0 X-39.610 Y-31.692 Z9.000
G0 X-39.610 Y-31.692 Z7.000
G1 X-39.610 Y-31.692 Z3.250 F60.000
G1 X-39.397 Y-31.479 Z3.250 F120.000
G2 X-39.319 Y-31.375 Z3.250 I0.169 J-0.046 K0.000 F120.000
G3 X-39.319 Y-31.311 Z3.250 I-0.045 J0.033 K0.000 F120.000
G3 X-39.609 Y-30.985 Z3.250 I-1.686 J-1.214 K0.000 F120.000
G3 X-39.626 Y-31.339 Z3.250 I0.352 J-0.194 K0.000 F120.000
G2 X-39.639 Y-31.488 Z3.250 I-0.277 J-0.051 K0.000 F120.000
G3 X-39.610 Y-31.692 Z3.250 I0.351 J-0.055 K0.000 F120.000
G0 Z9.000
G0 X-40.092 Y-30.549 Z9.000
G0 X-40.092 Y-30.549 Z7.000
G1 X-40.092 Y-30.549 Z3.250 F60.000
G3 X-40.078 Y-30.542 Z3.250 I-0.150 J0.357 K0.000 F120.000
G3 X-40.416 Y-30.222 Z3.250 I-84.799 J-89.163 K0.000 F120.000
G3 X-40.482 Y-30.221 Z3.250 I-0.034 J-0.046 K0.000 F120.000
G3 X-40.833 Y-30.537 Z3.250 I1.229 J-1.716 K0.000 F120.000
G3 X-40.649 Y-30.575 Z3.250 I0.151 J0.263 K0.000 F120.000
G1 X-40.480 Y-30.542 Z3.250 F120.000
G2 X-40.337 Y-30.568 Z3.250 I0.022 J-0.288 K0.000 F120.000
G3 X-40.092 Y-30.549 Z3.250 I0.094 J0.376 K0.000 F120.000
G0 Z9.000
G0 X-43.411 Y-29.904 Z9.000
G0 X-43.411 Y-29.904 Z7.000
G1 X-43.411 Y-29.904 Z3.250 F60.000
G3 X-43.420 Y-29.861 Z3.250 I-0.057 J0.011 K0.000 F120.000
G3 X-43.711 Y-29.535 Z3.250 I-1.695 J-1.222 K0.000 F120.000
G3 X-43.726 Y-29.857 Z3.250 I0.331 J-0.176 K0.000 F120.000
G2 X-43.744 Y-30.008 Z3.250 I-0.261 J-0.045 K0.000 F120.000
G3 X-43.718 Y-30.247 Z3.250 I0.363 J-0.081 K0.000 F120.000
G1 X-43.497 Y-30.027 Z3.250 F120.000
G2 X-43.422 Y-29.927 Z3.250 I0.168 J-0.048 K0.000 F120.000
G3 X-43.411 Y-29.904 Z3.250 I-0.047 J0.034 K0.000 F120.000
G0 Z9.000
G0 X-44.151 Y-29.122 Z9.000
G0 X-44.151 Y-29.122 Z7.000
G1 X-44.151 Y-29.122 Z3.250 F60.000
G2 X-44.452 Y-28.838 Z3.250 I231.321 J244.957 K0.000 F120.000
G3 X-44.518 Y-28.836 Z3.250 I-0.034 J-0.046 K0.000 F120.000
G3 X-44.856 Y-29.140 Z3.250 I1.236 J-1.718 K0.000 F120.000
G3 X-44.479 Y-29.168 Z3.250 I0.229 J0.532 K0.000 F120.000
G3 X-44.203 Y-29.140 Z3.250 I0.048 J0.900 K0.000 F120.000
G1 X-44.151 Y-29.122 Z3.250 F120.000
G0 Z9.000
G0 X-43.198 Y-32.914 Z9.000
G0 X-43.198 Y-32.914 Z7.000
G1 X-43.198 Y-32.914 Z3.250 F60.000
G3 X-43.216 Y-32.922 Z3.250 I0.014 J-0.055 K0.000 F120.000
G3 X-43.555 Y-33.227 Z3.250 I1.205 J-1.679 K0.000 F120.000
G3 X-43.379 Y-33.265 Z3.250 I0.144 J0.244 K0.000 F120.000
G1 X-43.205 Y-33.233 Z3.250 F120.000
G2 X-43.075 Y-33.252 Z3.250 I0.022 J-0.307 K0.000 F120.000
G3 X-42.834 Y-33.222 Z3.250 I0.074 J0.392 K0.000 F120.000
G2 X-43.150 Y-32.924 Z3.250 I106.039 J112.633 K0.000 F120.000
G3 X-43.198 Y-32.914 Z3.250 I-0.034 J-0.046 K0.000 F120.000
G0 Z9.000
G0 X-44.671 Y-37.871 Z9.000
G0 X-44.671 Y-37.871 Z7.000
G1 X-44.671 Y-37.871 Z3.250 F60.000
G3 X-44.915 Y-37.872 Z3.250 I-0.120 J-0.402 K0.000 F120.000
G3 X-45.022 Y-37.923 Z3.250 I0.117 J-0.384 K0.000 F120.000
G2 X-45.549 Y-38.281 Z3.250 I-1.178 J1.168 K0.000 F120.000
G3 X-45.861 Y-38.673 Z3.250 I0.069 J-0.376 K0.000 F120.000
G3 X-45.570 Y-39.119 Z3.250 I0.798 J0.202 K0.000 F120.000
G3 X-45.461 Y-39.248 Z3.250 I0.622 J0.416 K0.000 F120.000
G3 X-44.892 Y-39.252 Z3.250 I0.287 J0.324 K0.000 F120.000
G2 X-44.464 Y-38.871 Z3.250 I0.960 J-0.646 K0.000 F120.000
G3 X-44.379 Y-38.111 Z3.250 I-0.099 J0.396 K0.000 F120.000
G2 X-44.464 Y-38.009 Z3.250 I0.209 J0.260 K0.000 F120.000
G3 X-44.671 Y-37.871 Z3.250 I-0.327 J-0.264 K0.000 F120.000
G0 Z9.000
G0 X-44.800 Y-38.398 Z9.000
G0 X-44.800 Y-38.398 Z7.000
G1 X-44.800 Y-38.398 Z3.250 F60.000
G2 X-45.280 Y-38.708 Z3.250 I-1.417 J1.666 K0.000 F120.000
G2 X-45.180 Y-38.810 Z3.250 I-0.422 J-0.516 K0.000 F120.000
G2 X-44.745 Y-38.455 Z3.250 I1.239 J-1.073 K0.000 F120.000
G2 X-44.800 Y-38.398 Z3.250 I0.197 J0.242 K0.000 F120.000
G0 Z9.000
G0 X-48.010 Y-40.109 Z9.000
G0 X-48.010 Y-40.109 Z7.000
G1 X-48.010 Y-40.109 Z3.250 F60.000
G3 X-48.360 Y-40.091 Z3.250 I-0.195 J-0.383 K0.000 F120.000
G2 X-48.503 Y-40.078 Z3.250 I-0.045 J0.292 K0.000 F120.000
G3 X-48.708 Y-40.108 Z3.250 I-0.052 J-0.360 K0.000 F120.000
G1 X-48.498 Y-40.318 Z3.250 F120.000
G2 X-48.396 Y-40.397 Z3.250 I-0.036 J-0.150 K0.000 F120.000
G3 X-48.320 Y-40.388 Z3.250 I0.026 J0.101 K0.000 F120.000
G3 X-48.010 Y-40.109 Z3.250 I-1.225 J1.675 K0.000 F120.000
G0 Z9.000
G0 X-50.699 Y-39.981 Z9.000
G0 X-50.699 Y-39.981 Z7.000
G1 X-50.699 Y-39.981 Z3.250 F60.000
G3 X-50.940 Y-39.965 Z3.250 I-0.137 J-0.240 K0.000 F120.000
G2 X-51.069 Y-39.974 Z3.250 I-0.096 J0.453 K0.000 F120.000
G3 X-51.118 Y-40.266 Z3.250 I18.482 J-3.225 K0.000 F120.000
G3 X-51.066 Y-40.286 Z3.250 I0.039 J0.025 K0.000 F120.000
G1 X-51.021 Y-40.273 Z3.250 F120.000
G3 X-50.699 Y-39.981 Z3.250 I-1.231 J1.686 K0.000 F120.000
G0 Z9.000
G0 X-51.915 Y-39.465 Z9.000
G0 X-51.915 Y-39.465 Z7.000
G1 X-51.915 Y-39.465 Z3.250 F60.000
G3 X-51.915 Y-39.164 Z3.250 I-0.354 J0.151 K0.000 F120.000
G2 X-51.888 Y-39.001 Z3.250 I0.254 J0.042 K0.000 F120.000
G3 X-51.910 Y-38.742 Z3.250 I-0.349 J0.100 K0.000 F120.000
G3 X-52.234 Y-39.086 Z3.250 I35.170 J-33.448 K0.000 F120.000
G3 X-52.235 Y-39.151 Z3.250 I0.045 J-0.033 K0.000 F120.000
G3 X-51.928 Y-39.493 Z3.250 I1.745 J1.258 K0.000 F120.000
G3 X-51.915 Y-39.465 Z3.250 I-0.341 J0.179 K0.000 F120.000
G0 Z9.000
G0 X-49.222 Y-36.749 Z9.000
G0 X-49.222 Y-36.749 Z7.000
G1 X-49.222 Y-36.749 Z3.250 F60.000
G3 X-49.159 Y-36.809 Z3.250 I1.628 J1.642 K0.000 F120.000
G3 X-49.137 Y-36.453 Z3.250 I-0.372 J0.201 K0.000 F120.000
G2 X-49.124 Y-36.310 Z3.250 I0.290 J0.046 K0.000 F120.000
G3 X-49.150 Y-36.111 Z3.250 I-0.360 J0.054 K0.000 F120.000
G3 X-49.444 Y-36.425 Z3.250 I29.253 J-27.680 K0.000 F120.000
G3 X-49.444 Y-36.494 Z3.250 I0.049 J-0.035 K0.000 F120.000
G3 X-49.222 Y-36.749 Z3.250 I1.850 J1.388 K0.000 F120.000
G0 Z9.000
G0 X-49.214 Y-34.206 Z9.000
G0 X-49.214 Y-34.206 Z7.000
G1 X-49.214 Y-34.206 Z3.250 F60.000
G3 X-49.188 Y-33.855 Z3.250 I-0.371 J0.204 K0.000 F120.000
G2 X-49.173 Y-33.711 Z3.250 I0.294 J0.042 K0.000 F120.000
G3 X-49.199 Y-33.509 Z3.250 I-0.358 J0.057 K0.000 F120.000
G2 X-49.496 Y-33.824 Z3.250 I-32.373 J30.259 K0.000 F120.000
G3 X-49.497 Y-33.889 Z3.250 I0.045 J-0.033 K0.000 F120.000
G3 X-49.214 Y-34.206 Z3.250 I1.680 J1.216 K0.000 F120.000
G0 Z9.000
G0 X-39.338 Y-44.789 Z9.000
G0 X-39.338 Y-44.789 Z7.000
G1 X-39.338 Y-44.789 Z3.250 F60.000
G3 X-39.455 Y-45.070 Z3.250 I0.251 J-0.269 K0.000 F120.000
G3 X-39.120 Y-45.574 Z3.250 I0.889 J0.228 K0.000 F120.000
G3 X-38.878 Y-45.791 Z3.250 I0.572 J0.393 K0.000 F120.000
G3 X-38.615 Y-45.860 Z3.250 I0.277 J0.525 K0.000 F120.000
G3 X-38.219 Y-45.462 Z3.250 I-0.118 J0.513 K0.000 F120.000
G2 X-38.119 Y-45.364 Z3.250 I0.143 J-0.046 K0.000 F120.000
G3 X-37.804 Y-44.687 Z3.250 I-0.089 J0.453 K0.000 F120.000
G2 X-38.215 Y-44.260 Z3.250 I4.354 J4.611 K0.000 F120.000
G3 X-38.605 Y-44.168 Z3.250 I-0.277 J-0.301 K0.000 F120.000
G3 X-38.828 Y-44.330 Z3.250 I0.108 J-0.383 K0.000 F120.000
G2 X-39.204 Y-44.709 Z3.250 I-0.481 J0.100 K0.000 F120.000
G3 X-39.338 Y-44.789 Z3.250 I0.117 J-0.349 K0.000 F120.000
G0 Z9.000
G0 X-38.873 Y-45.123 Z9.000
G0 X-38.873 Y-45.123 Z7.000
G1 X-38.873 Y-45.123 Z3.250 F60.000
G2 X-38.693 Y-45.304 Z3.250 I-0.975 J-1.152 K0.000 F120.000
G2 X-38.303 Y-44.899 Z3.250 I0.612 J-0.200 K0.000 F120.000
G2 X-38.459 Y-44.735 Z3.250 I2.215 J2.269 K0.000 F120.000
G2 X-38.873 Y-45.123 Z3.250 I-0.856 J0.498 K0.000 F120.000
G1 X-38.746 Y-45.137 Z3.250 F60.000
G2 X-38.715 Y-45.169 Z3.250 I-0.154 J-0.181 K0.000 F120.000
G2 X-38.647 Y-45.064 Z3.250 I0.414 J-0.194 K0.000 F120.000
G2 X-38.746 Y-45.137 Z3.250 I-0.422 J0.471 K0.000 F120.000
G1 X-38.504 Y-44.924 Z3.250 F60.000
G2 X-38.429 Y-44.877 Z3.250 I0.211 J-0.247 K0.000 F120.000
G1 X-38.448 Y-44.856 Z3.250 F120.000
G2 X-38.504 Y-44.924 Z3.250 I-0.377 J0.251 K0.000 F120.000
G0 Z9.000
G0 X-40.105 Y-48.030 Z9.000
G0 X-40.105 Y-48.030 Z7.000
G1 X-40.105 Y-48.030 Z3.250 F60.000
G3 X-40.394 Y-48.337 Z3.250 I474.255 J-448.390 K0.000 F120.000
G3 X-40.396 Y-48.404 Z3.250 I0.047 J-0.035 K0.000 F120.000
G3 X-40.107 Y-48.727 Z3.250 I1.679 J1.208 K0.000 F120.000
G3 X-40.090 Y-48.375 Z3.250 I-0.370 J0.194 K0.000 F120.000
G2 X-40.078 Y-48.229 Z3.250 I0.285 J0.049 K0.000 F120.000
G3 X-40.105 Y-48.030 Z3.250 I-0.360 J0.053 K0.000 F120.000
G0 Z9.000
G0 X-39.988 Y-50.730 Z9.000
G0 X-39.988 Y-50.730 Z7.000
G1 X-39.988 Y-50.730 Z3.250 F60.000
G2 X-40.280 Y-51.038 Z3.250 I-79.484 J74.835 K0.000 F120.000
G3 X-40.281 Y-51.105 Z3.250 I0.047 J-0.034 K0.000 F120.000
G3 X-39.993 Y-51.427 Z3.250 I1.677 J1.208 K0.000 F120.000
G3 X-39.975 Y-51.075 Z3.250 I-0.368 J0.195 K0.000 F120.000
G2 X-39.962 Y-50.929 Z3.250 I0.286 J0.048 K0.000 F120.000
G3 X-39.988 Y-50.730 Z3.250 I-0.359 J0.054 K0.000 F120.000
G0 Z9.000
G0 X-39.464 Y-51.923 Z9.000
G0 X-39.464 Y-51.923 Z7.000
G1 X-39.464 Y-51.923 Z3.250 F60.000
G3 X-39.474 Y-51.928 Z3.250 I0.095 J-0.217 K0.000 F120.000
G1 X-39.244 Y-52.158 Z3.250 F120.000
G2 X-39.143 Y-52.236 Z3.250 I-0.036 J-0.150 K0.000 F120.000
G3 X-39.066 Y-52.227 Z3.250 I0.027 J0.101 K0.000 F120.000
G3 X-38.760 Y-51.953 Z3.250 I-1.162 J1.607 K0.000 F120.000
G3 X-39.107 Y-51.925 Z3.250 I-0.207 J-0.400 K0.000 F120.000
G2 X-39.246 Y-51.905 Z3.250 I-0.032 J0.277 K0.000 F120.000
G3 X-39.410 Y-51.907 Z3.250 I-0.079 J-0.381 K0.000 F120.000
G3 X-39.464 Y-51.923 Z3.250 I0.041 J-0.233 K0.000 F120.000
G0 Z9.000
G0 X-36.503 Y-49.431 Z9.000
G0 X-36.503 Y-49.431 Z7.000
G1 X-36.503 Y-49.431 Z3.250 F60.000
G3 X-36.451 Y-49.450 Z3.250 I0.039 J0.026 K0.000 F120.000
G1 X-36.405 Y-49.438 Z3.250 F120.000
G3 X-36.087 Y-49.151 Z3.250 I-1.194 J1.648 K0.000 F120.000
G3 X-36.322 Y-49.122 Z3.250 I-0.147 J-0.226 K0.000 F120.000
G2 X-36.453 Y-49.139 Z3.250 I-0.130 J0.487 K0.000 F120.000
G3 X-36.503 Y-49.431 Z3.250 I8.838 J-1.642 K0.000 F120.000
G0 Z9.000
G0 X-34.195 Y-49.208 Z9.000
G0 X-34.195 Y-49.208 Z7.000
G1 X-34.195 Y-49.208 Z3.250 F60.000
G1 X-33.982 Y-49.420 Z3.250 F120.000
G2 X-33.883 Y-49.498 Z3.250 I-0.037 J-0.149 K0.000 F120.000
G3 X-33.806 Y-49.489 Z3.250 I0.027 J0.101 K0.000 F120.000
G3 X-33.499 Y-49.214 Z3.250 I-1.172 J1.616 K0.000 F120.000
G3 X-33.851 Y-49.192 Z3.250 I-0.201 J-0.391 K0.000 F120.000
G2 X-33.992 Y-49.179 Z3.250 I-0.042 J0.296 K0.000 F120.000
G3 X-34.195 Y-49.208 Z3.250 I-0.052 J-0.358 K0.000 F120.000
G0 Z9.000
G0 X-33.180 Y-43.575 Z9.000
G0 X-33.180 Y-43.575 Z7.000
G1 X-33.180 Y-43.575 Z3.250 F60.000
G1 X-32.958 Y-43.353 Z3.250 F120.000
G2 X-32.881 Y-43.249 Z3.250 I0.169 J-0.046 K0.000 F120.000
G3 X-32.880 Y-43.185 Z3.250 I-0.045 J0.033 K0.000 F120.000
G3 X-33.168 Y-42.862 Z3.250 I-1.700 J-1.229 K0.000 F120.000
G3 X-33.185 Y-43.180 Z3.250 I0.354 J-0.178 K0.000 F120.000
G2 X-33.208 Y-43.330 Z3.250 I-0.265 J-0.037 K0.000 F120.000
G3 X-33.180 Y-43.575 Z3.250 I0.346 J-0.085 K0.000 F120.000
G0 Z9.000
G0 X-30.257 Y-43.755 Z9.000
G0 X-30.257 Y-43.755 Z7.000
G1 X-30.257 Y-43.755 Z3.250 F60.000
G3 X-30.152 Y-43.777 Z3.250 I0.098 J0.208 K0.000 F120.000
G1 X-29.707 Y-43.755 Z3.250 F120.000
G3 X-29.552 Y-43.722 Z3.250 I-0.004 J0.404 K0.000 F120.000
G3 X-29.846 Y-43.444 Z3.250 I-13.335 J-13.861 K0.000 F120.000
G3 X-29.916 Y-43.444 Z3.250 I-0.035 J-0.050 K0.000 F120.000
G3 X-30.257 Y-43.755 Z3.250 I1.481 J-1.966 K0.000 F120.000
G0 Z9.000
G0 X-29.148 Y-44.173 Z9.000
G0 X-29.148 Y-44.173 Z7.000
G1 X-29.148 Y-44.173 Z3.250 F60.000
G3 X-29.142 Y-44.467 Z3.250 I0.372 J-0.140 K0.000 F120.000
G2 X-29.158 Y-44.619 Z3.250 I-0.279 J-0.048 K0.000 F120.000
G3 X-29.132 Y-44.829 Z3.250 I0.357 J-0.062 K0.000 F120.000
G1 X-28.915 Y-44.612 Z3.250 F120.000
G2 X-28.837 Y-44.509 Z3.250 I0.169 J-0.046 K0.000 F120.000
G3 X-28.836 Y-44.444 Z3.250 I-0.045 J0.033 K0.000 F120.000
G3 X-29.125 Y-44.122 Z3.250 I-1.698 J-1.229 K0.000 F120.000
G3 X-29.148 Y-44.173 Z3.250 I0.349 J-0.191 K0.000 F120.000
G0 Z9.000
G0 X-30.524 Y-40.802 Z9.000
G0 X-30.524 Y-40.802 Z7.000
G1 X-30.524 Y-40.802 Z3.250 F60.000
G1 X-30.298 Y-40.576 Z3.250 F120.000
G2 X-30.221 Y-40.473 Z3.250 I0.168 J-0.046 K0.000 F120.000
G3 X-30.220 Y-40.409 Z3.250 I-0.045 J0.033 K0.000 F120.000
G3 X-30.509 Y-40.086 Z3.250 I-1.679 J-1.208 K0.000 F120.000
G3 X-30.526 Y-40.403 Z3.250 I0.355 J-0.179 K0.000 F120.000
G2 X-30.550 Y-40.554 Z3.250 I-0.266 J-0.036 K0.000 F120.000
G3 X-30.524 Y-40.802 Z3.250 I0.354 J-0.088 K0.000 F120.000
G0 Z9.000
G0 X-30.867 Y-39.795 Z9.000
G0 X-30.867 Y-39.795 Z7.000
G1 X-30.867 Y-39.795 Z3.250 F60.000
G3 X-30.837 Y-39.783 Z3.250 I-0.096 J0.281 K0.000 F120.000
G3 X-31.157 Y-39.482 Z3.250 I-24.988 J-26.327 K0.000 F120.000
G3 X-31.227 Y-39.483 Z3.250 I-0.035 J-0.049 K0.000 F120.000
G3 X-31.550 Y-39.777 Z3.250 I1.452 J-1.917 K0.000 F120.000
G3 X-31.326 Y-39.793 Z3.250 I0.128 J0.226 K0.000 F120.000
G2 X-30.988 Y-39.810 Z3.250 I0.131 J-0.761 K0.000 F120.000
G3 X-30.867 Y-39.795 Z3.250 I0.026 J0.295 K0.000 F120.000
G0 Z9.000
G0 X-33.522 Y-39.740 Z9.000
G0 X-33.522 Y-39.740 Z7.000
G1 X-33.522 Y-39.740 Z3.250 F60.000
G3 X-33.834 Y-39.448 Z3.250 I-70.305 J-74.655 K0.000 F120.000
G3 X-33.897 Y-39.447 Z3.250 I-0.032 J-0.044 K0.000 F120.000
G3 X-34.229 Y-39.745 Z3.250 I1.228 J-1.698 K0.000 F120.000
G3 X-34.026 Y-39.757 Z3.250 I0.114 J0.218 K0.000 F120.000
G2 X-33.707 Y-39.780 Z3.250 I0.110 J-0.693 K0.000 F120.000
G3 X-33.522 Y-39.740 Z3.250 I0.011 J0.390 K0.000 F120.000
G1 X-33.522 Y-39.740 Z3.000 F60.000
G3 X-33.834 Y-39.448 Z3.000 I-70.305 J-74.655 K0.000 F120.000
G3 X-33.897 Y-39.447 Z3.000 I-0.032 J-0.044 K0.000 F120.000
G3 X-34.229 Y-39.745 Z3.000 I1.228 J-1.698 K0.000 F120.000
G3 X-34.026 Y-39.757 Z3.000 I0.114 J0.218 K0.000 F120.000
G2 X-33.707 Y-39.780 Z3.000 I0.110 J-0.693 K0.000 F120.000
G3 X-33.522 Y-39.740 Z3.000 I0.011 J0.390 K0.000 F120.000
G0 Z9.000
G0 X-31.550 Y-39.777 Z9.000
G0 X-31.550 Y-39.777 Z7.000
G1 X-31.550 Y-39.777 Z3.000 F60.000
G3 X-31.326 Y-39.793 Z3.000 I0.128 J0.226 K0.000 F120.000
G2 X-30.988 Y-39.810 Z3.000 I0.131 J-0.761 K0.000 F120.000
G3 X-30.837 Y-39.783 Z3.000 I0.026 J0.295 K0.000 F120.000
G3 X-31.157 Y-39.482 Z3.000 I-24.988 J-26.327 K0.000 F120.000
G3 X-31.227 Y-39.483 Z3.000 I-0.035 J-0.049 K0.000 F120.000
G3 X-31.550 Y-39.777 Z3.000 I1.452 J-1.917 K0.000 F120.000
G0 Z9.000
G0 X-30.529 Y-40.134 Z9.000
G0 X-30.529 Y-40.134 Z7.000
G1 X-30.529 Y-40.134 Z3.000 F60.000
G3 X-30.526 Y-40.403 Z3.000 I0.375 J-0.131 K0.000 F120.000
G2 X-30.550 Y-40.554 Z3.000 I-0.266 J-0.036 K0.000 F120.000
G3 X-30.524 Y-40.802 Z3.000 I0.354 J-0.088 K0.000 F120.000
G1 X-30.298 Y-40.576 Z3.000 F120.000
G2 X-30.221 Y-40.473 Z3.000 I0.168 J-0.046 K0.000 F120.000
G3 X-30.220 Y-40.409 Z3.000 I-0.045 J0.033 K0.000 F120.000
G3 X-30.509 Y-40.086 Z3.000 I-1.679 J-1.208 K0.000 F120.000
G3 X-30.529 Y-40.134 Z3.000 I0.355 J-0.179 K0.000 F120.000
G0 Z9.000
G0 X-29.893 Y-43.434 Z9.000
G0 X-29.893 Y-43.434 Z7.000
G1 X-29.893 Y-43.434 Z3.000 F60.000
G3 X-29.916 Y-43.444 Z3.000 I0.012 J-0.060 K0.000 F120.000
G3 X-30.257 Y-43.755 Z3.000 I1.481 J-1.966 K0.000 F120.000
G3 X-30.152 Y-43.777 Z3.000 I0.098 J0.208 K0.000 F120.000
G1 X-29.707 Y-43.755 Z3.000 F120.000
G3 X-29.552 Y-43.722 Z3.000 I-0.004 J0.404 K0.000 F120.000
G3 X-29.846 Y-43.444 Z3.000 I-13.335 J-13.861 K0.000 F120.000
G3 X-29.893 Y-43.434 Z3.000 I-0.035 J-0.050 K0.000 F120.000
G0 Z9.000
G0 X-29.125 Y-44.122 Z9.000
G0 X-29.125 Y-44.122 Z7.000
G1 X-29.125 Y-44.122 Z3.000 F60.000
G3 X-29.142 Y-44.467 Z3.000 I0.349 J-0.191 K0.000 F120.000
G2 X-29.158 Y-44.619 Z3.000 I-0.279 J-0.048 K0.000 F120.000
G3 X-29.132 Y-44.829 Z3.000 I0.357 J-0.062 K0.000 F120.000
G1 X-28.915 Y-44.612 Z3.000 F120.000
G2 X-28.837 Y-44.509 Z3.000 I0.169 J-0.046 K0.000 F120.000
G3 X-28.836 Y-44.444 Z3.000 I-0.045 J0.033 K0.000 F120.000
G3 X-29.125 Y-44.122 Z3.000 I-1.698 J-1.229 K0.000 F120.000
G0 Z9.000
G0 X-32.872 Y-43.229 Z9.000
G0 X-32.872 Y-43.229 Z7.000
G1 X-32.872 Y-43.229 Z3.000 F60.000
G3 X-32.880 Y-43.185 Z3.000 I-0.054 J0.013 K0.000 F120.000
G3 X-33.168 Y-42.862 Z3.000 I-1.700 J-1.229 K0.000 F120.000
G3 X-33.185 Y-43.180 Z3.000 I0.354 J-0.178 K0.000 F120.000
G2 X-33.208 Y-43.330 Z3.000 I-0.265 J-0.037 K0.000 F120.000
G3 X-33.180 Y-43.575 Z3.000 I0.346 J-0.085 K0.000 F120.000
G1 X-32.958 Y-43.353 Z3.000 F120.000
G2 X-32.881 Y-43.249 Z3.000 I0.169 J-0.046 K0.000 F120.000
G3 X-32.872 Y-43.229 Z3.000 I-0.045 J0.033 K0.000 F120.000
G0 Z9.000
G0 X-37.767 Y-44.772 Z9.000
G0 X-37.767 Y-44.772 Z7.000
G1 X-37.767 Y-44.772 Z3.000 F60.000
G3 X-37.804 Y-44.687 Z3.000 I-0.440 J-0.139 K0.000 F120.000
G2 X-38.215 Y-44.260 Z3.000 I4.413 J4.666 K0.000 F120.000
G3 X-38.605 Y-44.168 Z3.000 I-0.277 J-0.301 K0.000 F120.000
G3 X-38.828 Y-44.330 Z3.000 I0.108 J-0.383 K0.000 F120.000
G2 X-39.204 Y-44.709 Z3.000 I-0.481 J0.100 K0.000 F120.000
G3 X-39.455 Y-45.070 Z3.000 I0.117 J-0.349 K0.000 F120.000
G3 X-39.120 Y-45.574 Z3.000 I0.890 J0.229 K0.000 F120.000
G3 X-38.878 Y-45.791 Z3.000 I0.572 J0.392 K0.000 F120.000
G3 X-38.615 Y-45.860 Z3.000 I0.277 J0.525 K0.000 F120.000
G3 X-38.219 Y-45.462 Z3.000 I-0.117 J0.512 K0.000 F120.000
G2 X-38.119 Y-45.363 Z3.000 I0.143 J-0.045 K0.000 F120.000
G3 X-37.767 Y-44.772 Z3.000 I-0.088 J0.453 K0.000 F120.000
G0 Z9.000
G0 X-38.303 Y-44.899 Z9.000
G0 X-38.303 Y-44.899 Z7.000
G1 X-38.303 Y-44.899 Z3.000 F60.000
G2 X-38.459 Y-44.735 Z3.000 I2.241 J2.292 K0.000 F120.000
G2 X-38.873 Y-45.123 Z3.000 I-0.856 J0.498 K0.000 F120.000
G2 X-38.693 Y-45.303 Z3.000 I-0.979 J-1.156 K0.000 F120.000
G2 X-38.303 Y-44.899 Z3.000 I0.611 J-0.200 K0.000 F120.000
G1 X-38.430 Y-44.876 Z3.000 F60.000
G1 X-38.448 Y-44.856 Z3.000 F120.000
G2 X-38.502 Y-44.922 Z3.000 I-0.363 J0.242 K0.000 F120.000
G2 X-38.430 Y-44.876 Z3.000 I0.203 J-0.239 K0.000 F120.000
G1 X-38.649 Y-45.066 Z3.000 F60.000
G2 X-38.746 Y-45.137 Z3.000 I-0.413 J0.461 K0.000 F120.000
G2 X-38.716 Y-45.168 Z3.000 I-0.152 J-0.178 K0.000 F120.000
G2 X-38.649 Y-45.066 Z3.000 I0.405 J-0.190 K0.000 F120.000
G0 Z9.000
G0 X-40.105 Y-48.030 Z9.000
G0 X-40.105 Y-48.030 Z7.000
G1 X-40.105 Y-48.030 Z3.000 F60.000
G3 X-40.394 Y-48.337 Z3.000 I474.255 J-448.390 K0.000 F120.000
G3 X-40.396 Y-48.404 Z3.000 I0.047 J-0.035 K0.000 F120.000
G3 X-40.107 Y-48.727 Z3.000 I1.679 J1.208 K0.000 F120.000
G3 X-40.090 Y-48.375 Z3.000 I-0.370 J0.194 K0.000 F120.000
G2 X-40.078 Y-48.229 Z3.000 I0.285 J0.049 K0.000 F120.000
G3 X-40.105 Y-48.030 Z3.000 I-0.360 J0.053 K0.000 F120.000
G0 Z9.000
G0 X-39.988 Y-50.730 Z9.000
G0 X-39.988 Y-50.730 Z7.000
G1 X-39.988 Y-50.730 Z3.000 F60.000
G2 X-40.280 Y-51.038 Z3.000 I-79.484 J74.835 K0.000 F120.000
G3 X-40.281 Y-51.105 Z3.000 I0.047 J-0.034 K0.000 F120.000
G3 X-39.993 Y-51.427 Z3.000 I1.677 J1.208 K0.000 F120.000
G3 X-39.975 Y-51.075 Z3.000 I-0.368 J0.195 K0.000 F120.000
G2 X-39.962 Y-50.929 Z3.000 I0.286 J0.048 K0.000 F120.000
G3 X-39.988 Y-50.730 Z3.000 I-0.359 J0.054 K0.000 F120.000
G0 Z9.000
G0 X-39.464 Y-51.923 Z9.000
G0 X-39.464 Y-51.923 Z7.000
G1 X-39.464 Y-51.923 Z3.000 F60.000
G3 X-39.474 Y-51.928 Z3.000 I0.095 J-0.217 K0.000 F120.000
G1 X-39.244 Y-52.158 Z3.000 F120.000
G2 X-39.143 Y-52.236 Z3.000 I-0.036 J-0.150 K0.000 F120.000
G3 X-39.066 Y-52.227 Z3.000 I0.027 J0.101 K0.000 F120.000
G3 X-38.760 Y-51.953 Z3.000 I-1.162 J1.607 K0.000 F120.000
G3 X-39.107 Y-51.925 Z3.000 I-0.207 J-0.400 K0.000 F120.000
G2 X-39.246 Y-51.905 Z3.000 I-0.032 J0.277 K0.000 F120.000
G3 X-39.410 Y-51.907 Z3.000 I-0.079 J-0.381 K0.000 F120.000
G3 X-39.464 Y-51.923 Z3.000 I0.041 J-0.233 K0.000 F120.000
G0 Z9.000
G0 X-36.503 Y-49.431 Z9.000
G0 X-36.503 Y-49.431 Z7.000
G1 X-36.503 Y-49.431 Z3.000 F60.000
G3 X-36.451 Y-49.450 Z3.000 I0.039 J0.026 K0.000 F120.000
G1 X-36.405 Y-49.438 Z3.000 F120.000
G3 X-36.087 Y-49.151 Z3.000 I-1.194 J1.648 K0.000 F120.000
G3 X-36.322 Y-49.122 Z3.000 I-0.147 J-0.226 K0.000 F120.000
G2 X-36.453 Y-49.139 Z3.000 I-0.130 J0.487 K0.000 F120.000
G3 X-36.503 Y-49.431 Z3.000 I8.838 J-1.642 K0.000 F120.000
G0 Z9.000
G0 X-34.195 Y-49.208 Z9.000
G0 X-34.195 Y-49.208 Z7.000
G1 X-34.195 Y-49.208 Z3.000 F60.000
G1 X-33.982 Y-49.420 Z3.000 F120.000
G2 X-33.883 Y-49.498 Z3.000 I-0.037 J-0.149 K0.000 F120.000
G3 X-33.806 Y-49.489 Z3.000 I0.027 J0.101 K0.000 F120.000
G3 X-33.499 Y-49.214 Z3.000 I-1.172 J1.616 K0.000 F120.000
G3 X-33.851 Y-49.192 Z3.000 I-0.201 J-0.391 K0.000 F120.000
G2 X-33.992 Y-49.179 Z3.000 I-0.042 J0.296 K0.000 F120.000
G3 X-34.195 Y-49.208 Z3.000 I-0.052 J-0.358 K0.000 F120.000
G0 Z9.000
G0 X-44.280 Y-38.774 Z9.000
G0 X-44.280 Y-38.774 Z7.000
G1 X-44.280 Y-38.774 Z3.000 F60.000
G3 X-44.379 Y-38.111 Z3.000 I-0.286 J0.296 K0.000 F120.000
G2 X-44.463 Y-38.010 Z3.000 I0.212 J0.261 K0.000 F120.000
G3 X-44.915 Y-37.872 Z3.000 I-0.327 J-0.264 K0.000 F120.000
G3 X-45.023 Y-37.923 Z3.000 I0.118 J-0.385 K0.000 F120.000
G2 X-45.617 Y-38.303 Z3.000 I-1.090 J1.053 K0.000 F120.000
G3 X-45.675 Y-39.015 Z3.000 I0.151 J-0.371 K0.000 F120.000
G2 X-45.591 Y-39.120 Z3.000 I-0.312 J-0.333 K0.000 F120.000
G3 X-45.121 Y-39.358 Z3.000 I0.502 J0.407 K0.000 F120.000
G3 X-44.558 Y-38.935 Z3.000 I-0.340 J1.037 K0.000 F120.000
G2 X-44.413 Y-38.860 Z3.000 I0.189 J-0.190 K0.000 F120.000
G3 X-44.280 Y-38.774 Z3.000 I-0.152 J0.382 K0.000 F120.000
G0 Z9.000
G0 X-44.747 Y-38.453 Z9.000
G0 X-44.747 Y-38.453 Z7.000
G1 X-44.747 Y-38.453 Z3.000 F60.000
G2 X-44.800 Y-38.397 Z3.000 I0.198 J0.241 K0.000 F120.000
G2 X-45.278 Y-38.707 Z3.000 I-1.429 J1.681 K0.000 F120.000
G2 X-45.203 Y-38.803 Z3.000 I-0.607 J-0.549 K0.000 F120.000
G3 X-45.137 Y-38.815 Z3.000 I0.037 J0.011 K0.000 F120.000
G3 X-44.956 Y-38.632 Z3.000 I-0.358 J0.533 K0.000 F120.000
G2 X-44.747 Y-38.453 Z3.000 I0.504 J-0.381 K0.000 F120.000
G1 X-45.128 Y-38.714 Z3.000 F60.000
G2 X-45.162 Y-38.732 Z3.000 I-0.207 J0.361 K0.000 F120.000
G1 X-45.158 Y-38.738 Z3.000 F120.000
G3 X-45.128 Y-38.714 Z3.000 I-0.107 J0.167 K0.000 F120.000
G0 Z9.000
G0 X-48.010 Y-40.109 Z9.000
G0 X-48.010 Y-40.109 Z7.000
G1 X-48.010 Y-40.109 Z3.000 F60.000
G3 X-48.360 Y-40.091 Z3.000 I-0.195 J-0.383 K0.000 F120.000
G2 X-48.503 Y-40.078 Z3.000 I-0.045 J0.292 K0.000 F120.000
G3 X-48.708 Y-40.108 Z3.000 I-0.052 J-0.360 K0.000 F120.000
G1 X-48.498 Y-40.318 Z3.000 F120.000
G2 X-48.396 Y-40.397 Z3.000 I-0.036 J-0.150 K0.000 F120.000
G3 X-48.320 Y-40.388 Z3.000 I0.026 J0.101 K0.000 F120.000
G3 X-48.010 Y-40.109 Z3.000 I-1.225 J1.675 K0.000 F120.000
G0 Z9.000
G0 X-50.699 Y-39.981 Z9.000
G0 X-50.699 Y-39.981 Z7.000
G1 X-50.699 Y-39.981 Z3.000 F60.000
G3 X-50.940 Y-39.965 Z3.000 I-0.137 J-0.240 K0.000 F120.000
G2 X-51.069 Y-39.974 Z3.000 I-0.096 J0.453 K0.000 F120.000
G3 X-51.118 Y-40.266 Z3.000 I18.482 J-3.225 K0.000 F120.000
G3 X-51.066 Y-40.286 Z3.000 I0.039 J0.025 K0.000 F120.000
G1 X-51.021 Y-40.273 Z3.000 F120.000
G3 X-50.699 Y-39.981 Z3.000 I-1.231 J1.686 K0.000 F120.000
G0 Z9.000
G0 X-51.915 Y-39.465 Z9.000
G0 X-51.915 Y-39.465 Z7.000
G1 X-51.915 Y-39.465 Z3.000 F60.000
G3 X-51.915 Y-39.164 Z3.000 I-0.354 J0.151 K0.000 F120.000
G2 X-51.888 Y-39.001 Z3.000 I0.254 J0.042 K0.000 F120.000
G3 X-51.910 Y-38.742 Z3.000 I-0.349 J0.100 K0.000 F120.000
G3 X-52.234 Y-39.086 Z3.000 I35.170 J-33.448 K0.000 F120.000
G3 X-52.235 Y-39.151 Z3.000 I0.045 J-0.033 K0.000 F120.000
G3 X-51.928 Y-39.493 Z3.000 I1.745 J1.258 K0.000 F120.000
G3 X-51.915 Y-39.465 Z3.000 I-0.341 J0.179 K0.000 F120.000
G0 Z9.000
G0 X-49.222 Y-36.749 Z9.000
G0 X-49.222 Y-36.749 Z7.000
G1 X-49.222 Y-36.749 Z3.000 F60.000
G3 X-49.159 Y-36.809 Z3.000 I1.628 J1.642 K0.000 F120.000
G3 X-49.137 Y-36.453 Z3.000 I-0.372 J0.201 K0.000 F120.000
G2 X-49.124 Y-36.310 Z3.000 I0.290 J0.046 K0.000 F120.000
G3 X-49.150 Y-36.111 Z3.000 I-0.360 J0.054 K0.000 F120.000
G3 X-49.444 Y-36.425 Z3.000 I29.253 J-27.680 K0.000 F120.000
G3 X-49.444 Y-36.494 Z3.000 I0.049 J-0.035 K0.000 F120.000
G3 X-49.222 Y-36.749 Z3.000 I1.850 J1.388 K0.000 F120.000
G0 Z9.000
G0 X-49.214 Y-34.206 Z9.000
G0 X-49.214 Y-34.206 Z7.000
G1 X-49.214 Y-34.206 Z3.000 F60.000
G3 X-49.188 Y-33.855 Z3.000 I-0.371 J0.204 K0.000 F120.000
G2 X-49.173 Y-33.711 Z3.000 I0.294 J0.042 K0.000 F120.000
G3 X-49.199 Y-33.509 Z3.000 I-0.358 J0.057 K0.000 F120.000
G2 X-49.496 Y-33.824 Z3.000 I-32.373 J30.259 K0.000 F120.000
G3 X-49.497 Y-33.889 Z3.000 I0.045 J-0.033 K0.000 F120.000
G3 X-49.214 Y-34.206 Z3.000 I1.680 J1.216 K0.000 F120.000
G0 Z9.000
G0 X-43.555 Y-33.227 Z9.000
G0 X-43.555 Y-33.227 Z7.000
G1 X-43.555 Y-33.227 Z3.000 F60.000
G3 X-43.379 Y-33.265 Z3.000 I0.144 J0.244 K0.000 F120.000
G1 X-43.205 Y-33.233 Z3.000 F120.000
G2 X-43.075 Y-33.252 Z3.000 I0.022 J-0.307 K0.000 F120.000
G3 X-42.834 Y-33.222 Z3.000 I0.074 J0.392 K0.000 F120.000
G2 X-43.150 Y-32.924 Z3.000 I106.039 J112.633 K0.000 F120.000
G3 X-43.216 Y-32.922 Z3.000 I-0.034 J-0.046 K0.000 F120.000
G3 X-43.555 Y-33.227 Z3.000 I1.205 J-1.679 K0.000 F120.000
G0 Z9.000
G0 X-43.718 Y-30.247 Z9.000
G0 X-43.718 Y-30.247 Z7.000
G1 X-43.718 Y-30.247 Z3.000 F60.000
G1 X-43.497 Y-30.027 Z3.000 F120.000
G2 X-43.422 Y-29.927 Z3.000 I0.168 J-0.048 K0.000 F120.000
G3 X-43.420 Y-29.861 Z3.000 I-0.047 J0.034 K0.000 F120.000
G3 X-43.711 Y-29.535 Z3.000 I-1.695 J-1.222 K0.000 F120.000
G3 X-43.726 Y-29.857 Z3.000 I0.331 J-0.176 K0.000 F120.000
G2 X-43.744 Y-30.008 Z3.000 I-0.261 J-0.045 K0.000 F120.000
G3 X-43.718 Y-30.247 Z3.000 I0.363 J-0.081 K0.000 F120.000
G0 Z9.000
G0 X-44.151 Y-29.122 Z9.000
G0 X-44.151 Y-29.122 Z7.000
G1 X-44.151 Y-29.122 Z3.000 F60.000
G2 X-44.452 Y-28.838 Z3.000 I231.321 J244.957 K0.000 F120.000
G3 X-44.518 Y-28.836 Z3.000 I-0.034 J-0.046 K0.000 F120.000
G3 X-44.856 Y-29.140 Z3.000 I1.236 J-1.718 K0.000 F120.000
G3 X-44.479 Y-29.168 Z3.000 I0.229 J0.532 K0.000 F120.000
G3 X-44.203 Y-29.140 Z3.000 I0.048 J0.900 K0.000 F120.000
G1 X-44.151 Y-29.122 Z3.000 F120.000
G0 Z9.000
G0 X-40.833 Y-30.537 Z9.000
G0 X-40.833 Y-30.537 Z7.000
G1 X-40.833 Y-30.537 Z3.000 F60.000
G3 X-40.649 Y-30.575 Z3.000 I0.151 J0.263 K0.000 F120.000
G1 X-40.480 Y-30.542 Z3.000 F120.000
G2 X-40.337 Y-30.568 Z3.000 I0.022 J-0.288 K0.000 F120.000
G3 X-40.078 Y-30.542 Z3.000 I0.094 J0.376 K0.000 F120.000
G3 X-40.416 Y-30.222 Z3.000 I-84.799 J-89.163 K0.000 F120.000
G3 X-40.482 Y-30.221 Z3.000 I-0.034 J-0.046 K0.000 F120.000
G3 X-40.833 Y-30.537 Z3.000 I1.229 J-1.716 K0.000 F120.000
G0 Z9.000
G0 X-39.629 Y-31.027 Z9.000
G0 X-39.629 Y-31.027 Z7.000
G1 X-39.629 Y-31.027 Z3.000 F60.000
G3 X-39.626 Y-31.339 Z3.000 I0.372 J-0.152 K0.000 F120.000
G2 X-39.639 Y-31.488 Z3.000 I-0.277 J-0.051 K0.000 F120.000
G3 X-39.610 Y-31.692 Z3.000 I0.351 J-0.055 K0.000 F120.000
G1 X-39.397 Y-31.479 Z3.000 F120.000
G2 X-39.319 Y-31.375 Z3.000 I0.169 J-0.046 K0.000 F120.000
G3 X-39.319 Y-31.311 Z3.000 I-0.045 J0.033 K0.000 F120.000
G3 X-39.609 Y-30.985 Z3.000 I-1.686 J-1.214 K0.000 F120.000
G3 X-39.629 Y-31.027 Z3.000 I0.352 J-0.194 K0.000 F120.000
G0 Z9.000
G0 X-39.743 Y-33.503 Z9.000
G0 X-39.743 Y-33.503 Z7.000
G1 X-39.743 Y-33.503 Z3.000 F60.000
G3 X-39.758 Y-33.827 Z3.000 I0.355 J-0.178 K0.000 F120.000
G2 X-39.777 Y-33.975 Z3.000 I-0.265 J-0.041 K0.000 F120.000
G3 X-39.750 Y-34.217 Z3.000 I0.364 J-0.081 K0.000 F120.000
G1 X-39.529 Y-33.997 Z3.000 F120.000
G2 X-39.453 Y-33.895 Z3.000 I0.168 J-0.047 K0.000 F120.000
G3 X-39.452 Y-33.829 Z3.000 I-0.046 J0.034 K0.000 F120.000
G3 X-39.743 Y-33.503 Z3.000 I-1.688 J-1.212 K0.000 F120.000
G1 X-39.743 Y-33.503 Z2.750 F60.000
G3 X-39.758 Y-33.827 Z2.750 I0.355 J-0.178 K0.000 F120.000
G2 X-39.777 Y-33.975 Z2.750 I-0.265 J-0.041 K0.000 F120.000
G3 X-39.750 Y-34.217 Z2.750 I0.364 J-0.081 K0.000 F120.000
G1 X-39.529 Y-33.997 Z2.750 F120.000
G2 X-39.453 Y-33.895 Z2.750 I0.168 J-0.047 K0.000 F120.000
G3 X-39.452 Y-33.829 Z2.750 I-0.046 J0.034 K0.000 F120.000
G3 X-39.743 Y-33.503 Z2.750 I-1.688 J-1.212 K0.000 F120.000
G0 Z9.000
G0 X-39.610 Y-31.692 Z9.000
G0 X-39.610 Y-31.692 Z7.000
G1 X-39.610 Y-31.692 Z2.750 F60.000
G1 X-39.397 Y-31.479 Z2.750 F120.000
G2 X-39.319 Y-31.375 Z2.750 I0.169 J-0.046 K0.000 F120.000
G3 X-39.319 Y-31.311 Z2.750 I-0.045 J0.033 K0.000 F120.000
G3 X-39.609 Y-30.985 Z2.750 I-1.686 J-1.214 K0.000 F120.000
G3 X-39.626 Y-31.339 Z2.750 I0.352 J-0.194 K0.000 F120.000
G2 X-39.639 Y-31.488 Z2.750 I-0.277 J-0.051 K0.000 F120.000
G3 X-39.610 Y-31.692 Z2.750 I0.351 J-0.055 K0.000 F120.000
G0 Z9.000
G0 X-40.092 Y-30.549 Z9.000
G0 X-40.092 Y-30.549 Z7.000
G1 X-40.092 Y-30.549 Z2.750 F60.000
G3 X-40.078 Y-30.542 Z2.750 I-0.150 J0.357 K0.000 F120.000
G3 X-40.416 Y-30.222 Z2.750 I-84.799 J-89.163 K0.000 F120.000
G3 X-40.482 Y-30.221 Z2.750 I-0.034 J-0.046 K0.000 F120.000
G3 X-40.833 Y-30.537 Z2.750 I1.229 J-1.716 K0.000 F120.000
G3 X-40.649 Y-30.575 Z2.750 I0.151 J0.263 K0.000 F120.000
G1 X-40.480 Y-30.542 Z2.750 F120.000
G2 X-40.337 Y-30.568 Z2.750 I0.022 J-0.288 K0.000 F120.000
G3 X-40.092 Y-30.549 Z2.750 I0.094 J0.376 K0.000 F120.000
G0 Z9.000
G0 X-43.411 Y-29.904 Z9.000
G0 X-43.411 Y-29.904 Z7.000
G1 X-43.411 Y-29.904 Z2.750 F60.000
G3 X-43.420 Y-29.861 Z2.750 I-0.057 J0.011 K0.000 F120.000
G3 X-43.711 Y-29.535 Z2.750 I-1.695 J-1.222 K0.000 F120.000
G3 X-43.726 Y-29.857 Z2.750 I0.331 J-0.176 K0.000 F120.000
G2 X-43.744 Y-30.008 Z2.750 I-0.261 J-0.045 K0.000 F120.000
G3 X-43.718 Y-30.247 Z2.750 I0.363 J-0.081 K0.000 F120.000
G1 X-43.497 Y-30.027 Z2.750 F120.000
G2 X-43.422 Y-29.927 Z2.750 I0.168 J-0.048 K0.000 F120.000
G3 X-43.411 Y-29.904 Z2.750 I-0.047 J0.034 K0.000 F120.000
G0 Z9.000
G0 X-44.151 Y-29.122 Z9.000
G0 X-44.151 Y-29.122 Z7.000
G1 X-44.151 Y-29.122 Z2.750 F60.000
G2 X-44.452 Y-28.838 Z2.750 I231.321 J244.957 K0.000 F120.000
G3 X-44.518 Y-28.836 Z2.750 I-0.034 J-0.046 K0.000 F120.000
G3 X-44.856 Y-29.140 Z2.750 I1.236 J-1.718 K0.000 F120.000
G3 X-44.479 Y-29.168 Z2.750 I0.229 J0.532 K0.000 F120.000
G3 X-44.203 Y-29.140 Z2.750 I0.048 J0.900 K0.000 F120.000
G1 X-44.151 Y-29.122 Z2.750 F120.000
G0 Z9.000
G0 X-43.198 Y-32.914 Z9.000
G0 X-43.198 Y-32.914 Z7.000
G1 X-43.198 Y-32.914 Z2.750 F60.000
G3 X-43.216 Y-32.922 Z2.750 I0.014 J-0.055 K0.000 F120.000
G3 X-43.555 Y-33.227 Z2.750 I1.205 J-1.679 K0.000 F120.000
G3 X-43.379 Y-33.265 Z2.750 I0.144 J0.244 K0.000 F120.000
G1 X-43.205 Y-33.233 Z2.750 F120.000
G2 X-43.075 Y-33.252 Z2.750 I0.022 J-0.307 K0.000 F120.000
G3 X-42.834 Y-33.222 Z2.750 I0.074 J0.392 K0.000 F120.000
G2 X-43.150 Y-32.924 Z2.750 I106.039 J112.633 K0.000 F120.000
G3 X-43.198 Y-32.914 Z2.750 I-0.034 J-0.046 K0.000 F120.000
G0 Z9.000
G0 X-44.671 Y-37.871 Z9.000
G0 X-44.671 Y-37.871 Z7.000
G1 X-44.671 Y-37.871 Z2.750 F60.000
G3 X-44.915 Y-37.872 Z2.750 I-0.120 J-0.403 K0.000 F120.000
G3 X-45.023 Y-37.923 Z2.750 I0.118 J-0.385 K0.000 F120.000
G2 X-45.617 Y-38.303 Z2.750 I-1.090 J1.053 K0.000 F120.000
G3 X-45.675 Y-39.015 Z2.750 I0.151 J-0.371 K0.000 F120.000
G2 X-45.591 Y-39.120 Z2.750 I-0.312 J-0.333 K0.000 F120.000
G3 X-45.121 Y-39.358 Z2.750 I0.502 J0.407 K0.000 F120.000
G3 X-44.558 Y-38.935 Z2.750 I-0.340 J1.037 K0.000 F120.000
G2 X-44.413 Y-38.860 Z2.750 I0.189 J-0.190 K0.000 F120.000
G3 X-44.379 Y-38.111 Z2.750 I-0.152 J0.382 K0.000 F120.000
G2 X-44.463 Y-38.010 Z2.750 I0.212 J0.261 K0.000 F120.000
G3 X-44.671 Y-37.871 Z2.750 I-0.327 J-0.264 K0.000 F120.000
G0 Z9.000
G0 X-44.800 Y-38.397 Z9.000
G0 X-44.800 Y-38.397 Z7.000
G1 X-44.800 Y-38.397 Z2.750 F60.000
G2 X-45.278 Y-38.707 Z2.750 I-1.429 J1.681 K0.000 F120.000
G2 X-45.203 Y-38.803 Z2.750 I-0.607 J-0.549 K0.000 F120.000
G3 X-45.137 Y-38.815 Z2.750 I0.037 J0.011 K0.000 F120.000
G3 X-44.956 Y-38.632 Z2.750 I-0.358 J0.533 K0.000 F120.000
G2 X-44.747 Y-38.453 Z2.750 I0.504 J-0.381 K0.000 F120.000
G2 X-44.800 Y-38.397 Z2.750 I0.198 J0.241 K0.000 F120.000
G1 X-45.128 Y-38.714 Z2.750 F60.000
G2 X-45.162 Y-38.732 Z2.750 I-0.207 J0.361 K0.000 F120.000
G1 X-45.158 Y-38.738 Z2.750 F120.000
G3 X-45.128 Y-38.714 Z2.750 I-0.107 J0.167 K0.000 F120.000
G0 Z9.000
G0 X-48.010 Y-40.109 Z9.000
G0 X-48.010 Y-40.109 Z7.000
G1 X-48.010 Y-40.109 Z2.750 F60.000
G3 X-48.360 Y-40.091 Z2.750 I-0.195 J-0.383 K0.000 F120.000
G2 X-48.503 Y-40.078 Z2.750 I-0.045 J0.292 K0.000 F120.000
G3 X-48.708 Y-40.108 Z2.750 I-0.052 J-0.360 K0.000 F120.000
G1 X-48.498 Y-40.318 Z2.750 F120.000
G2 X-48.396 Y-40.397 Z2.750 I-0.036 J-0.150 K0.000 F120.000
G3 X-48.320 Y-40.388 Z2.750 I0.026 J0.101 K0.000 F120.000
G3 X-48.010 Y-40.109 Z2.750 I-1.225 J1.675 K0.000 F120.000
G0 Z9.000
G0 X-50.699 Y-39.981 Z9.000
G0 X-50.699 Y-39.981 Z7.000
G1 X-50.699 Y-39.981 Z2.750 F60.000
G3 X-50.940 Y-39.965 Z2.750 I-0.137 J-0.240 K0.000 F120.000
G2 X-51.069 Y-39.974 Z2.750 I-0.096 J0.453 K0.000 F120.000
G3 X-51.118 Y-40.266 Z2.750 I18.482 J-3.225 K0.000 F120.000
G3 X-51.066 Y-40.286 Z2.750 I0.039 J0.025 K0.000 F120.000
G1 X-51.021 Y-40.273 Z2.750 F120.000
G3 X-50.699 Y-39.981 Z2.750 I-1.231 J1.686 K0.000 F120.000
G0 Z9.000
G0 X-51.915 Y-39.465 Z9.000
G0 X-51.915 Y-39.465 Z7.000
G1 X-51.915 Y-39.465 Z2.750 F60.000
G3 X-51.915 Y-39.164 Z2.750 I-0.354 J0.151 K0.000 F120.000
G2 X-51.888 Y-39.001 Z2.750 I0.254 J0.042 K0.000 F120.000
G3 X-51.910 Y-38.742 Z2.750 I-0.349 J0.100 K0.000 F120.000
G3 X-52.234 Y-39.086 Z2.750 I35.170 J-33.448 K0.000 F120.000
G3 X-52.235 Y-39.151 Z2.750 I0.045 J-0.033 K0.000 F120.000
G3 X-51.928 Y-39.493 Z2.750 I1.745 J1.258 K0.000 F120.000
G3 X-51.915 Y-39.465 Z2.750 I-0.341 J0.179 K0.000 F120.000
G0 Z9.000
G0 X-49.222 Y-36.749 Z9.000
G0 X-49.222 Y-36.749 Z7.000
G1 X-49.222 Y-36.749 Z2.750 F60.000
G3 X-49.159 Y-36.809 Z2.750 I1.628 J1.642 K0.000 F120.000
G3 X-49.137 Y-36.453 Z2.750 I-0.372 J0.201 K0.000 F120.000
G2 X-49.124 Y-36.310 Z2.750 I0.290 J0.046 K0.000 F120.000
G3 X-49.150 Y-36.111 Z2.750 I-0.360 J0.054 K0.000 F120.000
G3 X-49.444 Y-36.425 Z2.750 I29.253 J-27.680 K0.000 F120.000
G3 X-49.444 Y-36.494 Z2.750 I0.049 J-0.035 K0.000 F120.000
G3 X-49.222 Y-36.749 Z2.750 I1.850 J1.388 K0.000 F120.000
G0 Z9.000
G0 X-49.214 Y-34.206 Z9.000
G0 X-49.214 Y-34.206 Z7.000
G1 X-49.214 Y-34.206 Z2.750 F60.000
G3 X-49.188 Y-33.855 Z2.750 I-0.371 J0.204 K0.000 F120.000
G2 X-49.173 Y-33.711 Z2.750 I0.294 J0.042 K0.000 F120.000
G3 X-49.199 Y-33.509 Z2.750 I-0.358 J0.057 K0.000 F120.000
G2 X-49.496 Y-33.824 Z2.750 I-32.373 J30.259 K0.000 F120.000
G3 X-49.497 Y-33.889 Z2.750 I0.045 J-0.033 K0.000 F120.000
G3 X-49.214 Y-34.206 Z2.750 I1.680 J1.216 K0.000 F120.000
G0 Z9.000
G0 X-39.338 Y-44.789 Z9.000
G0 X-39.338 Y-44.789 Z7.000
G1 X-39.338 Y-44.789 Z2.750 F60.000
G3 X-39.455 Y-45.070 Z2.750 I0.251 J-0.269 K0.000 F120.000
G3 X-39.120 Y-45.574 Z2.750 I0.890 J0.229 K0.000 F120.000
G3 X-38.878 Y-45.791 Z2.750 I0.572 J0.392 K0.000 F120.000
G3 X-38.615 Y-45.860 Z2.750 I0.277 J0.525 K0.000 F120.000
G3 X-38.219 Y-45.462 Z2.750 I-0.117 J0.512 K0.000 F120.000
G2 X-38.119 Y-45.363 Z2.750 I0.143 J-0.045 K0.000 F120.000
G3 X-37.804 Y-44.687 Z2.750 I-0.088 J0.453 K0.000 F120.000
G2 X-38.215 Y-44.260 Z2.750 I4.413 J4.666 K0.000 F120.000
G3 X-38.605 Y-44.168 Z2.750 I-0.277 J-0.301 K0.000 F120.000
G3 X-38.828 Y-44.330 Z2.750 I0.108 J-0.383 K0.000 F120.000
G2 X-39.204 Y-44.709 Z2.750 I-0.481 J0.100 K0.000 F120.000
G3 X-39.338 Y-44.789 Z2.750 I0.117 J-0.349 K0.000 F120.000
G0 Z9.000
G0 X-38.873 Y-45.123 Z9.000
G0 X-38.873 Y-45.123 Z7.000
G1 X-38.873 Y-45.123 Z2.750 F60.000
G2 X-38.693 Y-45.303 Z2.750 I-0.979 J-1.156 K0.000 F120.000
G2 X-38.303 Y-44.899 Z2.750 I0.611 J-0.200 K0.000 F120.000
G2 X-38.459 Y-44.735 Z2.750 I2.241 J2.292 K0.000 F120.000
G2 X-38.873 Y-45.123 Z2.750 I-0.856 J0.498 K0.000 F120.000
G1 X-38.746 Y-45.137 Z2.750 F60.000
G2 X-38.716 Y-45.168 Z2.750 I-0.152 J-0.178 K0.000 F120.000
G2 X-38.649 Y-45.066 Z2.750 I0.405 J-0.190 K0.000 F120.000
G2 X-38.746 Y-45.137 Z2.750 I-0.413 J0.461 K0.000 F120.000
G1 X-38.502 Y-44.922 Z2.750 F60.000
G2 X-38.430 Y-44.876 Z2.750 I0.203 J-0.239 K0.000 F120.000
G1 X-38.448 Y-44.856 Z2.750 F120.000
G2 X-38.502 Y-44.922 Z2.750 I-0.363 J0.242 K0.000 F120.000
G0 Z9.000
G0 X-40.105 Y-48.030 Z9.000
G0 X-40.105 Y-48.030 Z7.000
G1 X-40.105 Y-48.030 Z2.750 F60.000
G3 X-40.394 Y-48.337 Z2.750 I474.255 J-448.390 K0.000 F120.000
G3 X-40.396 Y-48.404 Z2.750 I0.047 J-0.035 K0.000 F120.000
G3 X-40.107 Y-48.727 Z2.750 I1.679 J1.208 K0.000 F120.000
G3 X-40.090 Y-48.375 Z2.750 I-0.370 J0.194 K0.000 F120.000
G2 X-40.078 Y-48.229 Z2.750 I0.285 J0.049 K0.000 F120.000
G3 X-40.105 Y-48.030 Z2.750 I-0.360 J0.053 K0.000 F120.000
G0 Z9.000
G0 X-39.988 Y-50.730 Z9.000
G0 X-39.988 Y-50.730 Z7.000
G1 X-39.988 Y-50.730 Z2.750 F60.000
G2 X-40.280 Y-51.038 Z2.750 I-79.484 J74.835 K0.000 F120.000
G3 X-40.281 Y-51.105 Z2.750 I0.047 J-0.034 K0.000 F120.000
G3 X-39.993 Y-51.427 Z2.750 I1.677 J1.208 K0.000 F120.000
G3 X-39.975 Y-51.075 Z2.750 I-0.368 J0.195 K0.000 F120.000
G2 X-39.962 Y-50.929 Z2.750 I0.286 J0.048 K0.000 F120.000
G3 X-39.988 Y-50.730 Z2.750 I-0.359 J0.054 K0.000 F120.000
G0 Z9.000
G0 X-39.464 Y-51.923 Z9.000
G0 X-39.464 Y-51.923 Z7.000
G1 X-39.464 Y-51.923 Z2.750 F60.000
G3 X-39.474 Y-51.928 Z2.750 I0.095 J-0.217 K0.000 F120.000
G1 X-39.244 Y-52.158 Z2.750 F120.000
G2 X-39.143 Y-52.236 Z2.750 I-0.036 J-0.150 K0.000 F120.000
G3 X-39.066 Y-52.227 Z2.750 I0.027 J0.101 K0.000 F120.000
G3 X-38.760 Y-51.953 Z2.750 I-1.162 J1.607 K0.000 F120.000
G3 X-39.107 Y-51.925 Z2.750 I-0.207 J-0.400 K0.000 F120.000
G2 X-39.246 Y-51.905 Z2.750 I-0.032 J0.277 K0.000 F120.000
G3 X-39.410 Y-51.907 Z2.750 I-0.079 J-0.381 K0.000 F120.000
G3 X-39.464 Y-51.923 Z2.750 I0.041 J-0.233 K0.000 F120.000
G0 Z9.000
G0 X-36.503 Y-49.431 Z9.000
G0 X-36.503 Y-49.431 Z7.000
G1 X-36.503 Y-49.431 Z2.750 F60.000
G3 X-36.451 Y-49.450 Z2.750 I0.039 J0.026 K0.000 F120.000
G1 X-36.405 Y-49.438 Z2.750 F120.000
G3 X-36.087 Y-49.151 Z2.750 I-1.194 J1.648 K0.000 F120.000
G3 X-36.322 Y-49.122 Z2.750 I-0.147 J-0.226 K0.000 F120.000
G2 X-36.453 Y-49.139 Z2.750 I-0.130 J0.487 K0.000 F120.000
G3 X-36.503 Y-49.431 Z2.750 I8.838 J-1.642 K0.000 F120.000
G0 Z9.000
G0 X-34.195 Y-49.208 Z9.000
G0 X-34.195 Y-49.208 Z7.000
G1 X-34.195 Y-49.208 Z2.750 F60.000
G1 X-33.982 Y-49.420 Z2.750 F120.000
G2 X-33.883 Y-49.498 Z2.750 I-0.037 J-0.149 K0.000 F120.000
G3 X-33.806 Y-49.489 Z2.750 I0.027 J0.101 K0.000 F120.000
G3 X-33.499 Y-49.214 Z2.750 I-1.172 J1.616 K0.000 F120.000
G3 X-33.851 Y-49.192 Z2.750 I-0.201 J-0.391 K0.000 F120.000
G2 X-33.992 Y-49.179 Z2.750 I-0.042 J0.296 K0.000 F120.000
G3 X-34.195 Y-49.208 Z2.750 I-0.052 J-0.358 K0.000 F120.000
G0 Z9.000
G0 X-33.180 Y-43.575 Z9.000
G0 X-33.180 Y-43.575 Z7.000
G1 X-33.180 Y-43.575 Z2.750 F60.000
G1 X-32.958 Y-43.353 Z2.750 F120.000
G2 X-32.881 Y-43.249 Z2.750 I0.169 J-0.046 K0.000 F120.000
G3 X-32.880 Y-43.185 Z2.750 I-0.045 J0.033 K0.000 F120.000
G3 X-33.168 Y-42.862 Z2.750 I-1.700 J-1.229 K0.000 F120.000
G3 X-33.185 Y-43.180 Z2.750 I0.354 J-0.178 K0.000 F120.000
G2 X-33.208 Y-43.330 Z2.750 I-0.265 J-0.037 K0.000 F120.000
G3 X-33.180 Y-43.575 Z2.750 I0.346 J-0.085 K0.000 F120.000
G0 Z9.000
G0 X-30.257 Y-43.755 Z9.000
G0 X-30.257 Y-43.755 Z7.000
G1 X-30.257 Y-43.755 Z2.750 F60.000
G3 X-30.152 Y-43.777 Z2.750 I0.098 J0.208 K0.000 F120.000
G1 X-29.707 Y-43.755 Z2.750 F120.000
G3 X-29.552 Y-43.722 Z2.750 I-0.004 J0.404 K0.000 F120.000
G3 X-29.846 Y-43.444 Z2.750 I-13.335 J-13.861 K0.000 F120.000
G3 X-29.916 Y-43.444 Z2.750 I-0.035 J-0.050 K0.000 F120.000
G3 X-30.257 Y-43.755 Z2.750 I1.481 J-1.966 K0.000 F120.000
G0 Z9.000
G0 X-29.148 Y-44.173 Z9.000
G0 X-29.148 Y-44.173 Z7.000
G1 X-29.148 Y-44.173 Z2.750 F60.000
G3 X-29.142 Y-44.467 Z2.750 I0.372 J-0.140 K0.000 F120.000
G2 X-29.158 Y-44.619 Z2.750 I-0.279 J-0.048 K0.000 F120.000
G3 X-29.132 Y-44.829 Z2.750 I0.357 J-0.062 K0.000 F120.000
G1 X-28.915 Y-44.612 Z2.750 F120.000
G2 X-28.837 Y-44.509 Z2.750 I0.169 J-0.046 K0.000 F120.000
G3 X-28.836 Y-44.444 Z2.750 I-0.045 J0.033 K0.000 F120.000
G3 X-29.125 Y-44.122 Z2.750 I-1.698 J-1.229 K0.000 F120.000
G3 X-29.148 Y-44.173 Z2.750 I0.349 J-0.191 K0.000 F120.000
G0 Z9.000
G0 X-30.524 Y-40.802 Z9.000
G0 X-30.524 Y-40.802 Z7.000
G1 X-30.524 Y-40.802 Z2.750 F60.000
G1 X-30.298 Y-40.576 Z2.750 F120.000
G2 X-30.221 Y-40.473 Z2.750 I0.168 J-0.046 K0.000 F120.000
G3 X-30.220 Y-40.409 Z2.750 I-0.045 J0.033 K0.000 F120.000
G3 X-30.509 Y-40.086 Z2.750 I-1.679 J-1.208 K0.000 F120.000
G3 X-30.526 Y-40.403 Z2.750 I0.355 J-0.179 K0.000 F120.000
G2 X-30.550 Y-40.554 Z2.750 I-0.266 J-0.036 K0.000 F120.000
G3 X-30.524 Y-40.802 Z2.750 I0.354 J-0.088 K0.000 F120.000
G0 Z9.000
G0 X-30.867 Y-39.795 Z9.000
G0 X-30.867 Y-39.795 Z7.000
G1 X-30.867 Y-39.795 Z2.750 F60.000
G3 X-30.837 Y-39.783 Z2.750 I-0.096 J0.281 K0.000 F120.000
G3 X-31.157 Y-39.482 Z2.750 I-24.988 J-26.327 K0.000 F120.000
G3 X-31.227 Y-39.483 Z2.750 I-0.035 J-0.049 K0.000 F120.000
G3 X-31.550 Y-39.777 Z2.750 I1.452 J-1.917 K0.000 F120.000
G3 X-31.326 Y-39.793 Z2.750 I0.128 J0.226 K0.000 F120.000
G2 X-30.988 Y-39.810 Z2.750 I0.131 J-0.761 K0.000 F120.000
G3 X-30.867 Y-39.795 Z2.750 I0.026 J0.295 K0.000 F120.000
G0 Z9.000
G0 X-33.522 Y-39.740 Z9.000
G0 X-33.522 Y-39.740 Z7.000
G1 X-33.522 Y-39.740 Z2.750 F60.000
G3 X-33.834 Y-39.448 Z2.750 I-70.305 J-74.655 K0.000 F120.000
G3 X-33.897 Y-39.447 Z2.750 I-0.032 J-0.044 K0.000 F120.000
G3 X-34.229 Y-39.745 Z2.750 I1.228 J-1.698 K0.000 F120.000
G3 X-34.026 Y-39.757 Z2.750 I0.114 J0.218 K0.000 F120.000
G2 X-33.707 Y-39.780 Z2.750 I0.110 J-0.693 K0.000 F120.000
G3 X-33.522 Y-39.740 Z2.750 I0.011 J0.390 K0.000 F120.000
G1 X-33.522 Y-39.740 Z2.500 F60.000
G3 X-33.834 Y-39.448 Z2.500 I-70.305 J-74.655 K0.000 F120.000
G3 X-33.897 Y-39.447 Z2.500 I-0.032 J-0.044 K0.000 F120.000
G3 X-34.229 Y-39.745 Z2.500 I1.228 J-1.698 K0.000 F120.000
G3 X-34.026 Y-39.757 Z2.500 I0.114 J0.218 K0.000 F120.000
G2 X-33.707 Y-39.780 Z2.500 I0.110 J-0.693 K0.000 F120.000
G3 X-33.522 Y-39.740 Z2.500 I0.011 J0.390 K0.000 F120.000
G0 Z9.000
G0 X-31.550 Y-39.777 Z9.000
G0 X-31.550 Y-39.777 Z7.000
G1 X-31.550 Y-39.777 Z2.500 F60.000
G3 X-31.326 Y-39.793 Z2.500 I0.128 J0.226 K0.000 F120.000
G2 X-30.988 Y-39.810 Z2.500 I0.131 J-0.761 K0.000 F120.000
G3 X-30.837 Y-39.783 Z2.500 I0.026 J0.295 K0.000 F120.000
G3 X-31.157 Y-39.482 Z2.500 I-24.988 J-26.327 K0.000 F120.000
G3 X-31.227 Y-39.483 Z2.500 I-0.035 J-0.049 K0.000 F120.000
G3 X-31.550 Y-39.777 Z2.500 I1.452 J-1.917 K0.000 F120.000
G0 Z9.000
G0 X-30.529 Y-40.134 Z9.000
G0 X-30.529 Y-40.134 Z7.000
G1 X-30.529 Y-40.134 Z2.500 F60.000
G3 X-30.526 Y-40.403 Z2.500 I0.375 J-0.131 K0.000 F120.000
G2 X-30.550 Y-40.554 Z2.500 I-0.266 J-0.036 K0.000 F120.000
G3 X-30.524 Y-40.802 Z2.500 I0.354 J-0.088 K0.000 F120.000
G1 X-30.298 Y-40.576 Z2.500 F120.000
G2 X-30.221 Y-40.473 Z2.500 I0.168 J-0.046 K0.000 F120.000
G3 X-30.220 Y-40.409 Z2.500 I-0.045 J0.033 K0.000 F120.000
G3 X-30.509 Y-40.086 Z2.500 I-1.679 J-1.208 K0.000 F120.000
G3 X-30.529 Y-40.134 Z2.500 I0.355 J-0.179 K0.000 F120.000
G0 Z9.000
G0 X-29.893 Y-43.434 Z9.000
G0 X-29.893 Y-43.434 Z7.000
G1 X-29.893 Y-43.434 Z2.500 F60.000
G3 X-29.916 Y-43.444 Z2.500 I0.012 J-0.060 K0.000 F120.000
G3 X-30.257 Y-43.755 Z2.500 I1.481 J-1.966 K0.000 F120.000
G3 X-30.152 Y-43.777 Z2.500 I0.098 J0.208 K0.000 F120.000
G1 X-29.707 Y-43.755 Z2.500 F120.000
G3 X-29.552 Y-43.722 Z2.500 I-0.004 J0.404 K0.000 F120.000
G3 X-29.846 Y-43.444 Z2.500 I-13.335 J-13.861 K0.000 F120.000
G3 X-29.893 Y-43.434 Z2.500 I-0.035 J-0.050 K0.000 F120.000
G0 Z9.000
G0 X-29.125 Y-44.122 Z9.000
G0 X-29.125 Y-44.122 Z7.000
G1 X-29.125 Y-44.122 Z2.500 F60.000
G3 X-29.142 Y-44.467 Z2.500 I0.349 J-0.191 K0.000 F120.000
G2 X-29.158 Y-44.619 Z2.500 I-0.279 J-0.048 K0.000 F120.000
G3 X-29.132 Y-44.829 Z2.500 I0.357 J-0.062 K0.000 F120.000
G1 X-28.915 Y-44.612 Z2.500 F120.000
G2 X-28.837 Y-44.509 Z2.500 I0.169 J-0.046 K0.000 F120.000
G3 X-28.836 Y-44.444 Z2.500 I-0.045 J0.033 K0.000 F120.000
G3 X-29.125 Y-44.122 Z2.500 I-1.698 J-1.229 K0.000 F120.000
G0 Z9.000
G0 X-32.872 Y-43.229 Z9.000
G0 X-32.872 Y-43.229 Z7.000
G1 X-32.872 Y-43.229 Z2.500 F60.000
G3 X-32.880 Y-43.185 Z2.500 I-0.054 J0.013 K0.000 F120.000
G3 X-33.168 Y-42.862 Z2.500 I-1.700 J-1.229 K0.000 F120.000
G3 X-33.185 Y-43.180 Z2.500 I0.354 J-0.178 K0.000 F120.000
G2 X-33.208 Y-43.330 Z2.500 I-0.265 J-0.037 K0.000 F120.000
G3 X-33.180 Y-43.575 Z2.500 I0.346 J-0.085 K0.000 F120.000
G1 X-32.958 Y-43.353 Z2.500 F120.000
G2 X-32.881 Y-43.249 Z2.500 I0.169 J-0.046 K0.000 F120.000
G3 X-32.872 Y-43.229 Z2.500 I-0.045 J0.033 K0.000 F120.000
G0 Z9.000
G0 X-37.767 Y-44.772 Z9.000
G0 X-37.767 Y-44.772 Z7.000
G1 X-37.767 Y-44.772 Z2.500 F60.000
G3 X-37.804 Y-44.687 Z2.500 I-0.440 J-0.139 K0.000 F120.000
G2 X-38.215 Y-44.260 Z2.500 I4.413 J4.666 K0.000 F120.000
G3 X-38.605 Y-44.168 Z2.500 I-0.277 J-0.301 K0.000 F120.000
G3 X-38.828 Y-44.330 Z2.500 I0.108 J-0.383 K0.000 F120.000
G2 X-39.204 Y-44.709 Z2.500 I-0.481 J0.100 K0.000 F120.000
G3 X-39.455 Y-45.070 Z2.500 I0.117 J-0.349 K0.000 F120.000
G3 X-39.120 Y-45.574 Z2.500 I0.890 J0.229 K0.000 F120.000
G3 X-38.878 Y-45.791 Z2.500 I0.572 J0.392 K0.000 F120.000
G3 X-38.615 Y-45.860 Z2.500 I0.277 J0.525 K0.000 F120.000
G3 X-38.219 Y-45.462 Z2.500 I-0.117 J0.512 K0.000 F120.000
G2 X-38.119 Y-45.363 Z2.500 I0.143 J-0.045 K0.000 F120.000
G3 X-37.767 Y-44.772 Z2.500 I-0.088 J0.453 K0.000 F120.000
G0 Z9.000
G0 X-38.303 Y-44.899 Z9.000
G0 X-38.303 Y-44.899 Z7.000
G1 X-38.303 Y-44.899 Z2.500 F60.000
G2 X-38.459 Y-44.735 Z2.500 I2.241 J2.292 K0.000 F120.000
G2 X-38.873 Y-45.123 Z2.500 I-0.856 J0.498 K0.000 F120.000
G2 X-38.693 Y-45.303 Z2.500 I-0.979 J-1.156 K0.000 F120.000
G2 X-38.303 Y-44.899 Z2.500 I0.611 J-0.200 K0.000 F120.000
G1 X-38.430 Y-44.876 Z2.500 F60.000
G1 X-38.448 Y-44.856 Z2.500 F120.000
G2 X-38.502 Y-44.922 Z2.500 I-0.363 J0.242 K0.000 F120.000
G2 X-38.430 Y-44.876 Z2.500 I0.203 J-0.239 K0.000 F120.000
G1 X-38.649 Y-45.066 Z2.500 F60.000
G2 X-38.746 Y-45.137 Z2.500 I-0.413 J0.461 K0.000 F120.000
G2 X-38.716 Y-45.168 Z2.500 I-0.152 J-0.178 K0.000 F120.000
G2 X-38.649 Y-45.066 Z2.500 I0.405 J-0.190 K0.000 F120.000
G0 Z9.000
G0 X-40.105 Y-48.030 Z9.000
G0 X-40.105 Y-48.030 Z7.000
G1 X-40.105 Y-48.030 Z2.500 F60.000
G3 X-40.394 Y-48.337 Z2.500 I474.255 J-448.390 K0.000 F120.000
G3 X-40.396 Y-48.404 Z2.500 I0.047 J-0.035 K0.000 F120.000
G3 X-40.107 Y-48.727 Z2.500 I1.679 J1.208 K0.000 F120.000
G3 X-40.090 Y-48.375 Z2.500 I-0.370 J0.194 K0.000 F120.000
G2 X-40.078 Y-48.229 Z2.500 I0.285 J0.049 K0.000 F120.000
G3 X-40.105 Y-48.030 Z2.500 I-0.360 J0.053 K0.000 F120.000
G0 Z9.000
G0 X-39.988 Y-50.730 Z9.000
G0 X-39.988 Y-50.730 Z7.000
G1 X-39.988 Y-50.730 Z2.500 F60.000
G2 X-40.280 Y-51.038 Z2.500 I-79.484 J74.835 K0.000 F120.000
G3 X-40.281 Y-51.105 Z2.500 I0.047 J-0.034 K0.000 F120.000
G3 X-39.993 Y-51.427 Z2.500 I1.677 J1.208 K0.000 F120.000
G3 X-39.975 Y-51.075 Z2.500 I-0.368 J0.195 K0.000 F120.000
G2 X-39.962 Y-50.929 Z2.500 I0.286 J0.048 K0.000 F120.000
G3 X-39.988 Y-50.730 Z2.500 I-0.359 J0.054 K0.000 F120.000
G0 Z9.000
G0 X-39.464 Y-51.923 Z9.000
G0 X-39.464 Y-51.923 Z7.000
G1 X-39.464 Y-51.923 Z2.500 F60.000
G3 X-39.474 Y-51.928 Z2.500 I0.095 J-0.217 K0.000 F120.000
G1 X-39.244 Y-52.158 Z2.500 F120.000
G2 X-39.143 Y-52.236 Z2.500 I-0.036 J-0.150 K0.000 F120.000
G3 X-39.066 Y-52.227 Z2.500 I0.027 J0.101 K0.000 F120.000
G3 X-38.760 Y-51.953 Z2.500 I-1.162 J1.607 K0.000 F120.000
G3 X-39.107 Y-51.925 Z2.500 I-0.207 J-0.400 K0.000 F120.000
G2 X-39.246 Y-51.905 Z2.500 I-0.032 J0.277 K0.000 F120.000
G3 X-39.410 Y-51.907 Z2.500 I-0.079 J-0.381 K0.000 F120.000
G3 X-39.464 Y-51.923 Z2.500 I0.041 J-0.233 K0.000 F120.000
G0 Z9.000
G0 X-36.503 Y-49.431 Z9.000
G0 X-36.503 Y-49.431 Z7.000
G1 X-36.503 Y-49.431 Z2.500 F60.000
G3 X-36.451 Y-49.450 Z2.500 I0.039 J0.026 K0.000 F120.000
G1 X-36.405 Y-49.438 Z2.500 F120.000
G3 X-36.087 Y-49.151 Z2.500 I-1.194 J1.648 K0.000 F120.000
G3 X-36.322 Y-49.122 Z2.500 I-0.147 J-0.226 K0.000 F120.000
G2 X-36.453 Y-49.139 Z2.500 I-0.130 J0.487 K0.000 F120.000
G3 X-36.503 Y-49.431 Z2.500 I8.838 J-1.642 K0.000 F120.000
G0 Z9.000
G0 X-34.195 Y-49.208 Z9.000
G0 X-34.195 Y-49.208 Z7.000
G1 X-34.195 Y-49.208 Z2.500 F60.000
G1 X-33.982 Y-49.420 Z2.500 F120.000
G2 X-33.883 Y-49.498 Z2.500 I-0.037 J-0.149 K0.000 F120.000
G3 X-33.806 Y-49.489 Z2.500 I0.027 J0.101 K0.000 F120.000
G3 X-33.499 Y-49.214 Z2.500 I-1.172 J1.616 K0.000 F120.000
G3 X-33.851 Y-49.192 Z2.500 I-0.201 J-0.391 K0.000 F120.000
G2 X-33.992 Y-49.179 Z2.500 I-0.042 J0.296 K0.000 F120.000
G3 X-34.195 Y-49.208 Z2.500 I-0.052 J-0.358 K0.000 F120.000
G0 Z9.000
G0 X-44.280 Y-38.774 Z9.000
G0 X-44.280 Y-38.774 Z7.000
G1 X-44.280 Y-38.774 Z2.500 F60.000
G3 X-44.379 Y-38.111 Z2.500 I-0.286 J0.296 K0.000 F120.000
G2 X-44.463 Y-38.010 Z2.500 I0.212 J0.261 K0.000 F120.000
G3 X-44.915 Y-37.872 Z2.500 I-0.327 J-0.264 K0.000 F120.000
G3 X-45.023 Y-37.923 Z2.500 I0.118 J-0.385 K0.000 F120.000
G2 X-45.617 Y-38.303 Z2.500 I-1.090 J1.053 K0.000 F120.000
G3 X-45.675 Y-39.015 Z2.500 I0.151 J-0.371 K0.000 F120.000
G2 X-45.591 Y-39.120 Z2.500 I-0.312 J-0.333 K0.000 F120.000
G3 X-45.121 Y-39.358 Z2.500 I0.502 J0.407 K0.000 F120.000
G3 X-44.558 Y-38.935 Z2.500 I-0.340 J1.037 K0.000 F120.000
G2 X-44.413 Y-38.860 Z2.500 I0.189 J-0.190 K0.000 F120.000
G3 X-44.280 Y-38.774 Z2.500 I-0.152 J0.382 K0.000 F120.000
G0 Z9.000
G0 X-44.747 Y-38.453 Z9.000
G0 X-44.747 Y-38.453 Z7.000
G1 X-44.747 Y-38.453 Z2.500 F60.000
G2 X-44.800 Y-38.397 Z2.500 I0.198 J0.241 K0.000 F120.000
G2 X-45.278 Y-38.707 Z2.500 I-1.429 J1.681 K0.000 F120.000
G2 X-45.203 Y-38.803 Z2.500 I-0.607 J-0.549 K0.000 F120.000
G3 X-45.137 Y-38.815 Z2.500 I0.037 J0.011 K0.000 F120.000
G3 X-44.956 Y-38.632 Z2.500 I-0.358 J0.533 K0.000 F120.000
G2 X-44.747 Y-38.453 Z2.500 I0.504 J-0.381 K0.000 F120.000
G1 X-45.128 Y-38.714 Z2.500 F60.000
G2 X-45.162 Y-38.732 Z2.500 I-0.207 J0.361 K0.000 F120.000
G1 X-45.158 Y-38.738 Z2.500 F120.000
G3 X-45.128 Y-38.714 Z2.500 I-0.107 J0.167 K0.000 F120.000
G0 Z9.000
G0 X-48.010 Y-40.109 Z9.000
G0 X-48.010 Y-40.109 Z7.000
G1 X-48.010 Y-40.109 Z2.500 F60.000
G3 X-48.360 Y-40.091 Z2.500 I-0.195 J-0.383 K0.000 F120.000
G2 X-48.503 Y-40.078 Z2.500 I-0.045 J0.292 K0.000 F120.000
G3 X-48.708 Y-40.108 Z2.500 I-0.052 J-0.360 K0.000 F120.000
G1 X-48.498 Y-40.318 Z2.500 F120.000
G2 X-48.396 Y-40.397 Z2.500 I-0.036 J-0.150 K0.000 F120.000
G3 X-48.320 Y-40.388 Z2.500 I0.026 J0.101 K0.000 F120.000
G3 X-48.010 Y-40.109 Z2.500 I-1.225 J1.675 K0.000 F120.000
G0 Z9.000
G0 X-50.699 Y-39.981 Z9.000
G0 X-50.699 Y-39.981 Z7.000
G1 X-50.699 Y-39.981 Z2.500 F60.000
G3 X-50.940 Y-39.965 Z2.500 I-0.137 J-0.240 K0.000 F120.000
G2 X-51.069 Y-39.974 Z2.500 I-0.096 J0.453 K0.000 F120.000
G3 X-51.118 Y-40.266 Z2.500 I18.482 J-3.225 K0.000 F120.000
G3 X-51.066 Y-40.286 Z2.500 I0.039 J0.025 K0.000 F120.000
G1 X-51.021 Y-40.273 Z2.500 F120.000
G3 X-50.699 Y-39.981 Z2.500 I-1.231 J1.686 K0.000 F120.000
G0 Z9.000
G0 X-51.915 Y-39.465 Z9.000
G0 X-51.915 Y-39.465 Z7.000
G1 X-51.915 Y-39.465 Z2.500 F60.000
G3 X-51.915 Y-39.164 Z2.500 I-0.354 J0.151 K0.000 F120.000
G2 X-51.888 Y-39.001 Z2.500 I0.254 J0.042 K0.000 F120.000
G3 X-51.910 Y-38.742 Z2.500 I-0.349 J0.100 K0.000 F120.000
G3 X-52.234 Y-39.086 Z2.500 I35.170 J-33.448 K0.000 F120.000
G3 X-52.235 Y-39.151 Z2.500 I0.045 J-0.033 K0.000 F120.000
G3 X-51.928 Y-39.493 Z2.500 I1.745 J1.258 K0.000 F120.000
G3 X-51.915 Y-39.465 Z2.500 I-0.341 J0.179 K0.000 F120.000
G0 Z9.000
G0 X-49.222 Y-36.749 Z9.000
G0 X-49.222 Y-36.749 Z7.000
G1 X-49.222 Y-36.749 Z2.500 F60.000
G3 X-49.159 Y-36.809 Z2.500 I1.628 J1.642 K0.000 F120.000
G3 X-49.137 Y-36.453 Z2.500 I-0.372 J0.201 K0.000 F120.000
G2 X-49.124 Y-36.310 Z2.500 I0.290 J0.046 K0.000 F120.000
G3 X-49.150 Y-36.111 Z2.500 I-0.360 J0.054 K0.000 F120.000
G3 X-49.444 Y-36.425 Z2.500 I29.253 J-27.680 K0.000 F120.000
G3 X-49.444 Y-36.494 Z2.500 I0.049 J-0.035 K0.000 F120.000
G3 X-49.222 Y-36.749 Z2.500 I1.850 J1.388 K0.000 F120.000
G0 Z9.000
G0 X-49.214 Y-34.206 Z9.000
G0 X-49.214 Y-34.206 Z7.000
G1 X-49.214 Y-34.206 Z2.500 F60.000
G3 X-49.188 Y-33.855 Z2.500 I-0.371 J0.204 K0.000 F120.000
G2 X-49.173 Y-33.711 Z2.500 I0.294 J0.042 K0.000 F120.000
G3 X-49.199 Y-33.509 Z2.500 I-0.358 J0.057 K0.000 F120.000
G2 X-49.496 Y-33.824 Z2.500 I-32.373 J30.259 K0.000 F120.000
G3 X-49.497 Y-33.889 Z2.500 I0.045 J-0.033 K0.000 F120.000
G3 X-49.214 Y-34.206 Z2.500 I1.680 J1.216 K0.000 F120.000
G0 Z9.000
G0 X-43.555 Y-33.227 Z9.000
G0 X-43.555 Y-33.227 Z7.000
G1 X-43.555 Y-33.227 Z2.500 F60.000
G3 X-43.379 Y-33.265 Z2.500 I0.144 J0.244 K0.000 F120.000
G1 X-43.205 Y-33.233 Z2.500 F120.000
G2 X-43.075 Y-33.252 Z2.500 I0.022 J-0.307 K0.000 F120.000
G3 X-42.834 Y-33.222 Z2.500 I0.074 J0.392 K0.000 F120.000
G2 X-43.150 Y-32.924 Z2.500 I106.039 J112.633 K0.000 F120.000
G3 X-43.216 Y-32.922 Z2.500 I-0.034 J-0.046 K0.000 F120.000
G3 X-43.555 Y-33.227 Z2.500 I1.205 J-1.679 K0.000 F120.000
G0 Z9.000
G0 X-43.718 Y-30.247 Z9.000
G0 X-43.718 Y-30.247 Z7.000
G1 X-43.718 Y-30.247 Z2.500 F60.000
G1 X-43.497 Y-30.027 Z2.500 F120.000
G2 X-43.422 Y-29.927 Z2.500 I0.168 J-0.048 K0.000 F120.000
G3 X-43.420 Y-29.861 Z2.500 I-0.047 J0.034 K0.000 F120.000
G3 X-43.711 Y-29.535 Z2.500 I-1.695 J-1.222 K0.000 F120.000
G3 X-43.726 Y-29.857 Z2.500 I0.331 J-0.176 K0.000 F120.000
G2 X-43.744 Y-30.008 Z2.500 I-0.261 J-0.045 K0.000 F120.000
G3 X-43.718 Y-30.247 Z2.500 I0.363 J-0.081 K0.000 F120.000
G0 Z9.000
G0 X-44.151 Y-29.122 Z9.000
G0 X-44.151 Y-29.122 Z7.000
G1 X-44.151 Y-29.122 Z2.500 F60.000
G2 X-44.452 Y-28.838 Z2.500 I231.321 J244.957 K0.000 F120.000
G3 X-44.518 Y-28.836 Z2.500 I-0.034 J-0.046 K0.000 F120.000
G3 X-44.856 Y-29.140 Z2.500 I1.236 J-1.718 K0.000 F120.000
G3 X-44.479 Y-29.168 Z2.500 I0.229 J0.532 K0.000 F120.000
G3 X-44.203 Y-29.140 Z2.500 I0.048 J0.900 K0.000 F120.000
G1 X-44.151 Y-29.122 Z2.500 F120.000
G0 Z9.000
G0 X-40.833 Y-30.537 Z9.000
G0 X-40.833 Y-30.537 Z7.000
G1 X-40.833 Y-30.537 Z2.500 F60.000
G3 X-40.649 Y-30.575 Z2.500 I0.151 J0.263 K0.000 F120.000
G1 X-40.480 Y-30.542 Z2.500 F120.000
G2 X-40.337 Y-30.568 Z2.500 I0.022 J-0.288 K0.000 F120.000
G3 X-40.078 Y-30.542 Z2.500 I0.094 J0.376 K0.000 F120.000
G3 X-40.416 Y-30.222 Z2.500 I-84.799 J-89.163 K0.000 F120.000
G3 X-40.482 Y-30.221 Z2.500 I-0.034 J-0.046 K0.000 F120.000
G3 X-40.833 Y-30.537 Z2.500 I1.229 J-1.716 K0.000 F120.000
G0 Z9.000
G0 X-39.629 Y-31.027 Z9.000
G0 X-39.629 Y-31.027 Z7.000
G1 X-39.629 Y-31.027 Z2.500 F60.000
G3 X-39.626 Y-31.339 Z2.500 I0.372 J-0.152 K0.000 F120.000
G2 X-39.639 Y-31.488 Z2.500 I-0.277 J-0.051 K0.000 F120.000
G3 X-39.610 Y-31.692 Z2.500 I0.351 J-0.055 K0.000 F120.000
G1 X-39.397 Y-31.479 Z2.500 F120.000
G2 X-39.319 Y-31.375 Z2.500 I0.169 J-0.046 K0.000 F120.000
G3 X-39.319 Y-31.311 Z2.500 I-0.045 J0.033 K0.000 F120.000
G3 X-39.609 Y-30.985 Z2.500 I-1.686 J-1.214 K0.000 F120.000
G3 X-39.629 Y-31.027 Z2.500 I0.352 J-0.194 K0.000 F120.000
G0 Z9.000
G0 X-39.743 Y-33.503 Z9.000
G0 X-39.743 Y-33.503 Z7.000
G1 X-39.743 Y-33.503 Z2.500 F60.000
G3 X-39.758 Y-33.827 Z2.500 I0.355 J-0.178 K0.000 F120.000
G2 X-39.777 Y-33.975 Z2.500 I-0.265 J-0.041 K0.000 F120.000
G3 X-39.750 Y-34.217 Z2.500 I0.364 J-0.081 K0.000 F120.000
G1 X-39.529 Y-33.997 Z2.500 F120.000
G2 X-39.453 Y-33.895 Z2.500 I0.168 J-0.047 K0.000 F120.000
G3 X-39.452 Y-33.829 Z2.500 I-0.046 J0.034 K0.000 F120.000
G3 X-39.743 Y-33.503 Z2.500 I-1.688 J-1.212 K0.000 F120.000
G1 X-39.743 Y-33.503 Z2.250 F60.000
G3 X-39.758 Y-33.827 Z2.250 I0.355 J-0.178 K0.000 F120.000
G2 X-39.777 Y-33.975 Z2.250 I-0.265 J-0.041 K0.000 F120.000
G3 X-39.750 Y-34.217 Z2.250 I0.364 J-0.081 K0.000 F120.000
G1 X-39.529 Y-33.997 Z2.250 F120.000
G2 X-39.453 Y-33.895 Z2.250 I0.168 J-0.047 K0.000 F120.000
G3 X-39.452 Y-33.829 Z2.250 I-0.046 J0.034 K0.000 F120.000
G3 X-39.743 Y-33.503 Z2.250 I-1.688 J-1.212 K0.000 F120.000
G0 Z9.000
G0 X-39.610 Y-31.692 Z9.000
G0 X-39.610 Y-31.692 Z7.000
G1 X-39.610 Y-31.692 Z2.250 F60.000
G1 X-39.397 Y-31.479 Z2.250 F120.000
G2 X-39.319 Y-31.375 Z2.250 I0.169 J-0.046 K0.000 F120.000
G3 X-39.319 Y-31.311 Z2.250 I-0.045 J0.033 K0.000 F120.000
G3 X-39.609 Y-30.985 Z2.250 I-1.686 J-1.214 K0.000 F120.000
G3 X-39.626 Y-31.339 Z2.250 I0.352 J-0.194 K0.000 F120.000
G2 X-39.639 Y-31.488 Z2.250 I-0.277 J-0.051 K0.000 F120.000
G3 X-39.610 Y-31.692 Z2.250 I0.351 J-0.055 K0.000 F120.000
G0 Z9.000
G0 X-40.092 Y-30.549 Z9.000
G0 X-40.092 Y-30.549 Z7.000
G1 X-40.092 Y-30.549 Z2.250 F60.000
G3 X-40.078 Y-30.542 Z2.250 I-0.150 J0.357 K0.000 F120.000
G3 X-40.416 Y-30.222 Z2.250 I-84.799 J-89.163 K0.000 F120.000
G3 X-40.482 Y-30.221 Z2.250 I-0.034 J-0.046 K0.000 F120.000
G3 X-40.833 Y-30.537 Z2.250 I1.229 J-1.716 K0.000 F120.000
G3 X-40.649 Y-30.575 Z2.250 I0.151 J0.263 K0.000 F120.000
G1 X-40.480 Y-30.542 Z2.250 F120.000
G2 X-40.337 Y-30.568 Z2.250 I0.022 J-0.288 K0.000 F120.000
G3 X-40.092 Y-30.549 Z2.250 I0.094 J0.376 K0.000 F120.000
G0 Z9.000
G0 X-43.411 Y-29.904 Z9.000
G0 X-43.411 Y-29.904 Z7.000
G1 X-43.411 Y-29.904 Z2.250 F60.000
G3 X-43.420 Y-29.861 Z2.250 I-0.057 J0.011 K0.000 F120.000
G3 X-43.711 Y-29.535 Z2.250 I-1.695 J-1.222 K0.000 F120.000
G3 X-43.726 Y-29.857 Z2.250 I0.331 J-0.176 K0.000 F120.000
G2 X-43.744 Y-30.008 Z2.250 I-0.261 J-0.045 K0.000 F120.000
G3 X-43.718 Y-30.247 Z2.250 I0.363 J-0.081 K0.000 F120.000
G1 X-43.497 Y-30.027 Z2.250 F120.000
G2 X-43.422 Y-29.927 Z2.250 I0.168 J-0.048 K0.000 F120.000
G3 X-43.411 Y-29.904 Z2.250 I-0.047 J0.034 K0.000 F120.000
G0 Z9.000
G0 X-44.151 Y-29.122 Z9.000
G0 X-44.151 Y-29.122 Z7.000
G1 X-44.151 Y-29.122 Z2.250 F60.000
G2 X-44.452 Y-28.838 Z2.250 I231.321 J244.957 K0.000 F120.000
G3 X-44.518 Y-28.836 Z2.250 I-0.034 J-0.046 K0.000 F120.000
G3 X-44.856 Y-29.140 Z2.250 I1.236 J-1.718 K0.000 F120.000
G3 X-44.479 Y-29.168 Z2.250 I0.229 J0.532 K0.000 F120.000
G3 X-44.203 Y-29.140 Z2.250 I0.048 J0.900 K0.000 F120.000
G1 X-44.151 Y-29.122 Z2.250 F120.000
G0 Z9.000
G0 X-43.198 Y-32.914 Z9.000
G0 X-43.198 Y-32.914 Z7.000
G1 X-43.198 Y-32.914 Z2.250 F60.000
G3 X-43.216 Y-32.922 Z2.250 I0.014 J-0.055 K0.000 F120.000
G3 X-43.555 Y-33.227 Z2.250 I1.205 J-1.679 K0.000 F120.000
G3 X-43.379 Y-33.265 Z2.250 I0.144 J0.244 K0.000 F120.000
G1 X-43.205 Y-33.233 Z2.250 F120.000
G2 X-43.075 Y-33.252 Z2.250 I0.022 J-0.307 K0.000 F120.000
G3 X-42.834 Y-33.222 Z2.250 I0.074 J0.392 K0.000 F120.000
G2 X-43.150 Y-32.924 Z2.250 I106.039 J112.633 K0.000 F120.000
G3 X-43.198 Y-32.914 Z2.250 I-0.034 J-0.046 K0.000 F120.000
G0 Z9.000
G0 X-44.671 Y-37.871 Z9.000
G0 X-44.671 Y-37.871 Z7.000
G1 X-44.671 Y-37.871 Z2.250 F60.000
G3 X-44.915 Y-37.872 Z2.250 I-0.120 J-0.403 K0.000 F120.000
G3 X-45.023 Y-37.923 Z2.250 I0.118 J-0.384 K0.000 F120.000
G2 X-45.549 Y-38.281 Z2.250 I-1.188 J1.183 K0.000 F120.000
G3 X-45.861 Y-38.673 Z2.250 I0.069 J-0.376 K0.000 F120.000
G3 X-45.570 Y-39.119 Z2.250 I0.799 J0.203 K0.000 F120.000
G3 X-45.461 Y-39.248 Z2.250 I0.622 J0.416 K0.000 F120.000
G3 X-44.892 Y-39.252 Z2.250 I0.287 J0.324 K0.000 F120.000
G2 X-44.464 Y-38.871 Z2.250 I0.960 J-0.646 K0.000 F120.000
G3 X-44.379 Y-38.111 Z2.250 I-0.099 J0.396 K0.000 F120.000
G2 X-44.464 Y-38.009 Z2.250 I0.209 J0.260 K0.000 F120.000
G3 X-44.671 Y-37.871 Z2.250 I-0.327 J-0.264 K0.000 F120.000
G0 Z9.000
G0 X-44.800 Y-38.397 Z9.000
G0 X-44.800 Y-38.397 Z7.000
G1 X-44.800 Y-38.397 Z2.250 F60.000
G2 X-45.280 Y-38.708 Z2.250 I-1.431 J1.684 K0.000 F120.000
G2 X-45.180 Y-38.810 Z2.250 I-0.422 J-0.516 K0.000 F120.000
G2 X-44.745 Y-38.455 Z2.250 I1.239 J-1.073 K0.000 F120.000
G2 X-44.800 Y-38.397 Z2.250 I0.198 J0.243 K0.000 F120.000
G0 Z9.000
G0 X-48.010 Y-40.109 Z9.000
G0 X-48.010 Y-40.109 Z7.000
G1 X-48.010 Y-40.109 Z2.250 F60.000
G3 X-48.360 Y-40.091 Z2.250 I-0.195 J-0.383 K0.000 F120.000
G2 X-48.503 Y-40.078 Z2.250 I-0.045 J0.292 K0.000 F120.000
G3 X-48.708 Y-40.108 Z2.250 I-0.052 J-0.360 K0.000 F120.000
G1 X-48.498 Y-40.318 Z2.250 F120.000
G2 X-48.396 Y-40.397 Z2.250 I-0.036 J-0.150 K0.000 F120.000
G3 X-48.320 Y-40.388 Z2.250 I0.026 J0.101 K0.000 F120.000
G3 X-48.010 Y-40.109 Z2.250 I-1.225 J1.675 K0.000 F120.000
G0 Z9.000
G0 X-50.699 Y-39.981 Z9.000
G0 X-50.699 Y-39.981 Z7.000
G1 X-50.699 Y-39.981 Z2.250 F60.000
G3 X-50.940 Y-39.965 Z2.250 I-0.137 J-0.240 K0.000 F120.000
G2 X-51.069 Y-39.974 Z2.250 I-0.096 J0.453 K0.000 F120.000
G3 X-51.118 Y-40.266 Z2.250 I18.482 J-3.225 K0.000 F120.000
G3 X-51.066 Y-40.286 Z2.250 I0.039 J0.025 K0.000 F120.000
G1 X-51.021 Y-40.273 Z2.250 F120.000
G3 X-50.699 Y-39.981 Z2.250 I-1.231 J1.686 K0.000 F120.000
G0 Z9.000
G0 X-51.915 Y-39.465 Z9.000
G0 X-51.915 Y-39.465 Z7.000
G1 X-51.915 Y-39.465 Z2.250 F60.000
G3 X-51.915 Y-39.164 Z2.250 I-0.354 J0.151 K0.000 F120.000
G2 X-51.888 Y-39.001 Z2.250 I0.254 J0.042 K0.000 F120.000
G3 X-51.910 Y-38.742 Z2.250 I-0.349 J0.100 K0.000 F120.000
G3 X-52.234 Y-39.086 Z2.250 I35.170 J-33.448 K0.000 F120.000
G3 X-52.235 Y-39.151 Z2.250 I0.045 J-0.033 K0.000 F120.000
G3 X-51.928 Y-39.493 Z2.250 I1.745 J1.258 K0.000 F120.000
G3 X-51.915 Y-39.465 Z2.250 I-0.341 J0.179 K0.000 F120.000
G0 Z9.000
G0 X-49.222 Y-36.749 Z9.000
G0 X-49.222 Y-36.749 Z7.000
G1 X-49.222 Y-36.749 Z2.250 F60.000
G3 X-49.159 Y-36.809 Z2.250 I1.628 J1.642 K0.000 F120.000
G3 X-49.137 Y-36.453 Z2.250 I-0.372 J0.201 K0.000 F120.000
G2 X-49.124 Y-36.310 Z2.250 I0.290 J0.046 K0.000 F120.000
G3 X-49.150 Y-36.111 Z2.250 I-0.360 J0.054 K0.000 F120.000
G3 X-49.444 Y-36.425 Z2.250 I29.253 J-27.680 K0.000 F120.000
G3 X-49.444 Y-36.494 Z2.250 I0.049 J-0.035 K0.000 F120.000
G3 X-49.222 Y-36.749 Z2.250 I1.850 J1.388 K0.000 F120.000
G0 Z9.000
G0 X-49.214 Y-34.206 Z9.000
G0 X-49.214 Y-34.206 Z7.000
G1 X-49.214 Y-34.206 Z2.250 F60.000
G3 X-49.188 Y-33.855 Z2.250 I-0.371 J0.204 K0.000 F120.000
G2 X-49.173 Y-33.711 Z2.250 I0.294 J0.042 K0.000 F120.000
G3 X-49.199 Y-33.509 Z2.250 I-0.358 J0.057 K0.000 F120.000
G2 X-49.496 Y-33.824 Z2.250 I-32.373 J30.259 K0.000 F120.000
G3 X-49.497 Y-33.889 Z2.250 I0.045 J-0.033 K0.000 F120.000
G3 X-49.214 Y-34.206 Z2.250 I1.680 J1.216 K0.000 F120.000
G0 Z9.000
G0 X-39.338 Y-44.789 Z9.000
G0 X-39.338 Y-44.789 Z7.000
G1 X-39.338 Y-44.789 Z2.250 F60.000
G3 X-39.455 Y-45.070 Z2.250 I0.251 J-0.269 K0.000 F120.000
G3 X-39.120 Y-45.574 Z2.250 I0.889 J0.228 K0.000 F120.000
G3 X-38.878 Y-45.791 Z2.250 I0.572 J0.393 K0.000 F120.000
G3 X-38.615 Y-45.860 Z2.250 I0.277 J0.525 K0.000 F120.000
G3 X-38.219 Y-45.462 Z2.250 I-0.118 J0.513 K0.000 F120.000
G2 X-38.119 Y-45.364 Z2.250 I0.143 J-0.046 K0.000 F120.000
G3 X-37.804 Y-44.687 Z2.250 I-0.089 J0.453 K0.000 F120.000
G2 X-38.215 Y-44.260 Z2.250 I4.354 J4.611 K0.000 F120.000
G3 X-38.605 Y-44.168 Z2.250 I-0.277 J-0.301 K0.000 F120.000
G3 X-38.828 Y-44.330 Z2.250 I0.108 J-0.383 K0.000 F120.000
G2 X-39.204 Y-44.709 Z2.250 I-0.481 J0.100 K0.000 F120.000
G3 X-39.338 Y-44.789 Z2.250 I0.117 J-0.349 K0.000 F120.000
G0 Z9.000
G0 X-38.873 Y-45.123 Z9.000
G0 X-38.873 Y-45.123 Z7.000
G1 X-38.873 Y-45.123 Z2.250 F60.000
G2 X-38.693 Y-45.304 Z2.250 I-0.975 J-1.152 K0.000 F120.000
G2 X-38.303 Y-44.899 Z2.250 I0.612 J-0.200 K0.000 F120.000
G2 X-38.459 Y-44.735 Z2.250 I2.215 J2.269 K0.000 F120.000
G2 X-38.873 Y-45.123 Z2.250 I-0.856 J0.498 K0.000 F120.000
G1 X-38.746 Y-45.137 Z2.250 F60.000
G2 X-38.715 Y-45.169 Z2.250 I-0.154 J-0.181 K0.000 F120.000
G2 X-38.647 Y-45.064 Z2.250 I0.414 J-0.194 K0.000 F120.000
G2 X-38.746 Y-45.137 Z2.250 I-0.422 J0.471 K0.000 F120.000
G1 X-38.504 Y-44.924 Z2.250 F60.000
G2 X-38.429 Y-44.877 Z2.250 I0.211 J-0.247 K0.000 F120.000
G1 X-38.448 Y-44.856 Z2.250 F120.000
G2 X-38.504 Y-44.924 Z2.250 I-0.377 J0.251 K0.000 F120.000
G0 Z9.000
G0 X-40.105 Y-48.030 Z9.000
G0 X-40.105 Y-48.030 Z7.000
G1 X-40.105 Y-48.030 Z2.250 F60.000
G3 X-40.394 Y-48.337 Z2.250 I474.255 J-448.390 K0.000 F120.000
G3 X-40.396 Y-48.404 Z2.250 I0.047 J-0.035 K0.000 F120.000
G3 X-40.107 Y-48.727 Z2.250 I1.679 J1.208 K0.000 F120.000
G3 X-40.090 Y-48.375 Z2.250 I-0.370 J0.194 K0.000 F120.000
G2 X-40.078 Y-48.229 Z2.250 I0.285 J0.049 K0.000 F120.000
G3 X-40.105 Y-48.030 Z2.250 I-0.360 J0.053 K0.000 F120.000
G0 Z9.000
G0 X-39.988 Y-50.730 Z9.000
G0 X-39.988 Y-50.730 Z7.000
G1 X-39.988 Y-50.730 Z2.250 F60.000
G2 X-40.280 Y-51.038 Z2.250 I-79.484 J74.835 K0.000 F120.000
G3 X-40.281 Y-51.105 Z2.250 I0.047 J-0.034 K0.000 F120.000
G3 X-39.993 Y-51.427 Z2.250 I1.677 J1.208 K0.000 F120.000
G3 X-39.975 Y-51.075 Z2.250 I-0.368 J0.195 K0.000 F120.000
G2 X-39.962 Y-50.929 Z2.250 I0.286 J0.048 K0.000 F120.000
G3 X-39.988 Y-50.730 Z2.250 I-0.359 J0.054 K0.000 F120.000
G0 Z9.000
G0 X-39.464 Y-51.923 Z9.000
G0 X-39.464 Y-51.923 Z7.000
G1 X-39.464 Y-51.923 Z2.250 F60.000
G3 X-39.474 Y-51.928 Z2.250 I0.095 J-0.217 K0.000 F120.000
G1 X-39.244 Y-52.158 Z2.250 F120.000
G2 X-39.143 Y-52.236 Z2.250 I-0.036 J-0.150 K0.000 F120.000
G3 X-39.066 Y-52.227 Z2.250 I0.027 J0.101 K0.000 F120.000
G3 X-38.760 Y-51.953 Z2.250 I-1.162 J1.607 K0.000 F120.000
G3 X-39.107 Y-51.925 Z2.250 I-0.207 J-0.400 K0.000 F120.000
G2 X-39.246 Y-51.905 Z2.250 I-0.032 J0.277 K0.000 F120.000
G3 X-39.410 Y-51.907 Z2.250 I-0.079 J-0.381 K0.000 F120.000
G3 X-39.464 Y-51.923 Z2.250 I0.041 J-0.233 K0.000 F120.000
G0 Z9.000
G0 X-36.503 Y-49.431 Z9.000
G0 X-36.503 Y-49.431 Z7.000
G1 X-36.503 Y-49.431 Z2.250 F60.000
G3 X-36.451 Y-49.450 Z2.250 I0.039 J0.026 K0.000 F120.000
G1 X-36.405 Y-49.438 Z2.250 F120.000
G3 X-36.087 Y-49.151 Z2.250 I-1.194 J1.648 K0.000 F120.000
G3 X-36.322 Y-49.122 Z2.250 I-0.147 J-0.226 K0.000 F120.000
G2 X-36.453 Y-49.139 Z2.250 I-0.130 J0.487 K0.000 F120.000
G3 X-36.503 Y-49.431 Z2.250 I8.838 J-1.642 K0.000 F120.000
G0 Z9.000
G0 X-34.195 Y-49.208 Z9.000
G0 X-34.195 Y-49.208 Z7.000
G1 X-34.195 Y-49.208 Z2.250 F60.000
G1 X-33.982 Y-49.420 Z2.250 F120.000
G2 X-33.883 Y-49.498 Z2.250 I-0.037 J-0.149 K0.000 F120.000
G3 X-33.806 Y-49.489 Z2.250 I0.027 J0.101 K0.000 F120.000
G3 X-33.499 Y-49.214 Z2.250 I-1.172 J1.616 K0.000 F120.000
G3 X-33.851 Y-49.192 Z2.250 I-0.201 J-0.391 K0.000 F120.000
G2 X-33.992 Y-49.179 Z2.250 I-0.042 J0.296 K0.000 F120.000
G3 X-34.195 Y-49.208 Z2.250 I-0.052 J-0.358 K0.000 F120.000
G0 Z9.000
G0 X-33.180 Y-43.575 Z9.000
G0 X-33.180 Y-43.575 Z7.000
G1 X-33.180 Y-43.575 Z2.250 F60.000
G1 X-32.958 Y-43.353 Z2.250 F120.000
G2 X-32.881 Y-43.249 Z2.250 I0.169 J-0.046 K0.000 F120.000
G3 X-32.880 Y-43.185 Z2.250 I-0.045 J0.033 K0.000 F120.000
G3 X-33.168 Y-42.862 Z2.250 I-1.700 J-1.229 K0.000 F120.000
G3 X-33.185 Y-43.180 Z2.250 I0.354 J-0.178 K0.000 F120.000
G2 X-33.208 Y-43.330 Z2.250 I-0.265 J-0.037 K0.000 F120.000
G3 X-33.180 Y-43.575 Z2.250 I0.346 J-0.085 K0.000 F120.000
G0 Z9.000
G0 X-32.928 Y-41.614 Z9.000
G0 X-32.928 Y-41.614 Z7.000
G1 X-32.928 Y-41.614 Z2.250 F60.000
G1 X-32.049 Y-41.608 Z2.250 F120.000
G3 X-32.593 Y-41.332 Z2.250 I-0.438 J-0.190 K0.000 F120.000
G3 X-32.928 Y-41.614 Z2.250 I0.102 J-0.462 K0.000 F120.000
G0 Z9.000
G0 X-33.569 Y-39.759 Z9.000
G0 X-33.569 Y-39.759 Z7.000
G1 X-33.569 Y-39.759 Z2.250 F60.000
G3 X-33.522 Y-39.740 Z2.250 I-0.127 J0.369 K0.000 F120.000
G3 X-33.834 Y-39.448 Z2.250 I-70.305 J-74.655 K0.000 F120.000
G3 X-33.897 Y-39.447 Z2.250 I-0.032 J-0.044 K0.000 F120.000
G3 X-34.229 Y-39.745 Z2.250 I1.228 J-1.698 K0.000 F120.000
G3 X-34.026 Y-39.757 Z2.250 I0.114 J0.218 K0.000 F120.000
G2 X-33.707 Y-39.780 Z2.250 I0.110 J-0.693 K0.000 F120.000
G3 X-33.569 Y-39.759 Z2.250 I0.011 J0.390 K0.000 F120.000
G0 Z9.000
G0 X-31.550 Y-39.777 Z9.000
G0 X-31.550 Y-39.777 Z7.000
G1 X-31.550 Y-39.777 Z2.250 F60.000
G3 X-31.326 Y-39.793 Z2.250 I0.128 J0.226 K0.000 F120.000
G2 X-30.988 Y-39.810 Z2.250 I0.131 J-0.761 K0.000 F120.000
G3 X-30.837 Y-39.783 Z2.250 I0.026 J0.295 K0.000 F120.000
G3 X-31.157 Y-39.482 Z2.250 I-24.988 J-26.327 K0.000 F120.000
G3 X-31.227 Y-39.483 Z2.250 I-0.035 J-0.049 K0.000 F120.000
G3 X-31.550 Y-39.777 Z2.250 I1.452 J-1.917 K0.000 F120.000
G0 Z9.000
G0 X-30.529 Y-40.134 Z9.000
G0 X-30.529 Y-40.134 Z7.000
G1 X-30.529 Y-40.134 Z2.250 F60.000
G3 X-30.526 Y-40.403 Z2.250 I0.375 J-0.131 K0.000 F120.000
G2 X-30.550 Y-40.554 Z2.250 I-0.266 J-0.036 K0.000 F120.000
G3 X-30.524 Y-40.802 Z2.250 I0.354 J-0.088 K0.000 F120.000
G1 X-30.298 Y-40.576 Z2.250 F120.000
G2 X-30.221 Y-40.473 Z2.250 I0.168 J-0.046 K0.000 F120.000
G3 X-30.220 Y-40.409 Z2.250 I-0.045 J0.033 K0.000 F120.000
G3 X-30.509 Y-40.086 Z2.250 I-1.679 J-1.208 K0.000 F120.000
G3 X-30.529 Y-40.134 Z2.250 I0.355 J-0.179 K0.000 F120.000
G0 Z9.000
G0 X-29.893 Y-43.434 Z9.000
G0 X-29.893 Y-43.434 Z7.000
G1 X-29.893 Y-43.434 Z2.250 F60.000
G3 X-29.916 Y-43.444 Z2.250 I0.012 J-0.060 K0.000 F120.000
G3 X-30.257 Y-43.755 Z2.250 I1.481 J-1.966 K0.000 F120.000
G3 X-30.152 Y-43.777 Z2.250 I0.098 J0.208 K0.000 F120.000
G1 X-29.707 Y-43.755 Z2.250 F120.000
G3 X-29.552 Y-43.722 Z2.250 I-0.004 J0.404 K0.000 F120.000
G3 X-29.846 Y-43.444 Z2.250 I-13.335 J-13.861 K0.000 F120.000
G3 X-29.893 Y-43.434 Z2.250 I-0.035 J-0.050 K0.000 F120.000
G0 Z9.000
G0 X-29.125 Y-44.122 Z9.000
G0 X-29.125 Y-44.122 Z7.000
G1 X-29.125 Y-44.122 Z2.250 F60.000
G3 X-29.142 Y-44.467 Z2.250 I0.349 J-0.191 K0.000 F120.000
G2 X-29.158 Y-44.619 Z2.250 I-0.279 J-0.048 K0.000 F120.000
G3 X-29.132 Y-44.829 Z2.250 I0.357 J-0.062 K0.000 F120.000
G1 X-28.915 Y-44.612 Z2.250 F120.000
G2 X-28.837 Y-44.509 Z2.250 I0.169 J-0.046 K0.000 F120.000
G3 X-28.836 Y-44.444 Z2.250 I-0.045 J0.033 K0.000 F120.000
G3 X-29.125 Y-44.122 Z2.250 I-1.698 J-1.229 K0.000 F120.000
G1 X-29.125 Y-44.122 Z2.000 F60.000
G3 X-29.142 Y-44.467 Z2.000 I0.349 J-0.191 K0.000 F120.000
G2 X-29.158 Y-44.619 Z2.000 I-0.279 J-0.048 K0.000 F120.000
G3 X-29.132 Y-44.829 Z2.000 I0.357 J-0.062 K0.000 F120.000
G1 X-28.915 Y-44.612 Z2.000 F120.000
G2 X-28.837 Y-44.509 Z2.000 I0.169 J-0.046 K0.000 F120.000
G3 X-28.836 Y-44.444 Z2.000 I-0.045 J0.033 K0.000 F120.000
G3 X-29.125 Y-44.122 Z2.000 I-1.698 J-1.229 K0.000 F120.000
G0 Z9.000
G0 X-29.552 Y-43.722 Z9.000
G0 X-29.552 Y-43.722 Z7.000
G1 X-29.552 Y-43.722 Z2.000 F60.000
G3 X-29.846 Y-43.444 Z2.000 I-13.335 J-13.861 K0.000 F120.000
G3 X-29.916 Y-43.444 Z2.000 I-0.035 J-0.050 K0.000 F120.000
G3 X-30.257 Y-43.755 Z2.000 I1.481 J-1.966 K0.000 F120.000
G3 X-30.152 Y-43.777 Z2.000 I0.098 J0.208 K0.000 F120.000
G1 X-29.707 Y-43.755 Z2.000 F120.000
G3 X-29.552 Y-43.722 Z2.000 I-0.004 J0.404 K0.000 F120.000
G0 Z9.000
G0 X-30.524 Y-40.802 Z9.000
G0 X-30.524 Y-40.802 Z7.000
G1 X-30.524 Y-40.802 Z2.000 F60.000
G1 X-30.298 Y-40.576 Z2.000 F120.000
G2 X-30.221 Y-40.473 Z2.000 I0.168 J-0.046 K0.000 F120.000
G3 X-30.220 Y-40.409 Z2.000 I-0.045 J0.033 K0.000 F120.000
G3 X-30.509 Y-40.086 Z2.000 I-1.679 J-1.208 K0.000 F120.000
G3 X-30.526 Y-40.403 Z2.000 I0.355 J-0.179 K0.000 F120.000
G2 X-30.550 Y-40.554 Z2.000 I-0.266 J-0.036 K0.000 F120.000
G3 X-30.524 Y-40.802 Z2.000 I0.354 J-0.088 K0.000 F120.000
G0 Z9.000
G0 X-30.867 Y-39.795 Z9.000
G0 X-30.867 Y-39.795 Z7.000
G1 X-30.867 Y-39.795 Z2.000 F60.000
G3 X-30.837 Y-39.783 Z2.000 I-0.096 J0.281 K0.000 F120.000
G3 X-31.157 Y-39.482 Z2.000 I-24.988 J-26.327 K0.000 F120.000
G3 X-31.227 Y-39.483 Z2.000 I-0.035 J-0.049 K0.000 F120.000
G3 X-31.550 Y-39.777 Z2.000 I1.452 J-1.917 K0.000 F120.000
G3 X-31.326 Y-39.793 Z2.000 I0.128 J0.226 K0.000 F120.000
G2 X-30.988 Y-39.810 Z2.000 I0.131 J-0.761 K0.000 F120.000
G3 X-30.867 Y-39.795 Z2.000 I0.026 J0.295 K0.000 F120.000
G0 Z9.000
G0 X-32.187 Y-41.426 Z9.000
G0 X-32.187 Y-41.426 Z7.000
G1 X-32.187 Y-41.426 Z2.000 F60.000
G3 X-32.593 Y-41.332 Z2.000 I-0.300 J-0.371 K0.000 F120.000
G3 X-32.928 Y-41.614 Z2.000 I0.102 J-0.462 K0.000 F120.000
G1 X-32.049 Y-41.608 Z2.000 F120.000
G3 X-32.187 Y-41.426 Z2.000 I-0.438 J-0.190 K0.000 F120.000
G0 Z9.000
G0 X-33.168 Y-42.862 Z9.000
G0 X-33.168 Y-42.862 Z7.000
G1 X-33.168 Y-42.862 Z2.000 F60.000
G3 X-33.185 Y-43.180 Z2.000 I0.354 J-0.178 K0.000 F120.000
G2 X-33.208 Y-43.330 Z2.000 I-0.265 J-0.037 K0.000 F120.000
G3 X-33.180 Y-43.575 Z2.000 I0.346 J-0.085 K0.000 F120.000
G1 X-32.958 Y-43.353 Z2.000 F120.000
G2 X-32.881 Y-43.249 Z2.000 I0.169 J-0.046 K0.000 F120.000
G3 X-32.880 Y-43.185 Z2.000 I-0.045 J0.033 K0.000 F120.000
G3 X-33.168 Y-42.862 Z2.000 I-1.700 J-1.229 K0.000 F120.000
G0 Z9.000
G0 X-33.638 Y-39.776 Z9.000
G0 X-33.638 Y-39.776 Z7.000
G1 X-33.638 Y-39.776 Z2.000 F60.000
G3 X-33.522 Y-39.740 Z2.000 I-0.059 J0.386 K0.000 F120.000
G3 X-33.834 Y-39.448 Z2.000 I-70.305 J-74.655 K0.000 F120.000
G3 X-33.897 Y-39.447 Z2.000 I-0.032 J-0.044 K0.000 F120.000
G3 X-34.229 Y-39.745 Z2.000 I1.228 J-1.698 K0.000 F120.000
G3 X-34.026 Y-39.757 Z2.000 I0.114 J0.218 K0.000 F120.000
G2 X-33.707 Y-39.780 Z2.000 I0.110 J-0.693 K0.000 F120.000
G3 X-33.638 Y-39.776 Z2.000 I0.011 J0.390 K0.000 F120.000
G0 Z9.000
G0 X-38.215 Y-44.260 Z9.000
G0 X-38.215 Y-44.260 Z7.000
G1 X-38.215 Y-44.260 Z2.000 F60.000
G3 X-38.605 Y-44.168 Z2.000 I-0.277 J-0.301 K0.000 F120.000
G3 X-38.828 Y-44.330 Z2.000 I0.108 J-0.383 K0.000 F120.000
G2 X-39.204 Y-44.709 Z2.000 I-0.481 J0.100 K0.000 F120.000
G3 X-39.455 Y-45.070 Z2.000 I0.117 J-0.349 K0.000 F120.000
G3 X-39.120 Y-45.574 Z2.000 I0.889 J0.228 K0.000 F120.000
G3 X-38.878 Y-45.791 Z2.000 I0.572 J0.393 K0.000 F120.000
G3 X-38.615 Y-45.860 Z2.000 I0.277 J0.525 K0.000 F120.000
G3 X-38.219 Y-45.462 Z2.000 I-0.118 J0.513 K0.000 F120.000
G2 X-38.119 Y-45.364 Z2.000 I0.143 J-0.046 K0.000 F120.000
G3 X-37.804 Y-44.687 Z2.000 I-0.089 J0.453 K0.000 F120.000
G2 X-38.215 Y-44.260 Z2.000 I4.354 J4.611 K0.000 F120.000
G0 Z9.000
G0 X-38.459 Y-44.735 Z9.000
G0 X-38.459 Y-44.735 Z7.000
G1 X-38.459 Y-44.735 Z2.000 F60.000
G2 X-38.873 Y-45.123 Z2.000 I-0.856 J0.498 K0.000 F120.000
G2 X-38.693 Y-45.304 Z2.000 I-0.975 J-1.152 K0.000 F120.000
G2 X-38.303 Y-44.899 Z2.000 I0.612 J-0.200 K0.000 F120.000
