(Exported by FreeCAD)
(Post Processor: script_module)
(Output Time:2024-09-28 19:25:26.043729)
(Begin preamble)
G17 G90
G21
(Begin operation: 1.5 incrustations)
(Path: 1.5 incrustations)
(1.5 incrustations)
(Begin toolchange)
( M6 T3 )
M3 S24000
(Finish operation: 1.5 incrustations)
(Begin operation: Fixture)
(Path: Fixture)
G54
(Finish operation: Fixture)
(Begin operation: Pocket_Shape001)
(Path: Pocket_Shape001)
(Pocket_Shape001)
G0 Z9.000
G0 X5.441 Y-50.360
G0 Z7.000
G1 X5.441 Y-50.360 Z3.250 F200.000
G1 X4.772 Y-50.360 Z3.250 F500.000
G1 X3.107 Y-51.995 Z3.250 F500.000
G1 X3.107 Y-53.293 Z3.250 F500.000
G2 X2.091 Y-54.308 Z3.250 I-1.025 J0.010 K0.000 F500.000
G1 X-2.931 Y-54.308 Z3.250 F500.000
G2 X-3.947 Y-53.293 Z3.250 I0.010 J1.025 K0.000 F500.000
G1 X-3.947 Y-51.995 Z3.250 F500.000
G1 X-5.612 Y-50.360 Z3.250 F500.000
G1 X-6.281 Y-50.360 Z3.250 F500.000
G1 X-6.281 Y-51.130 Z3.250 F500.000
G1 X-4.813 Y-52.807 Z3.250 F500.000
G2 X-5.494 Y-54.308 Z3.250 I-0.681 J-0.596 K0.000 F500.000
G1 X-6.281 Y-54.308 Z3.250 F500.000
G2 X-6.295 Y-55.348 Z3.250 I-5.287 J-0.447 K0.000 F500.000
G2 X-7.266 Y-56.187 Z3.250 I-0.978 J0.151 K0.000 F500.000
G1 X-8.391 Y-56.187 Z3.250 F500.000
G2 X-8.406 Y-57.332 Z3.250 I-5.822 J-0.500 K0.000 F500.000
G2 X-9.386 Y-58.181 Z3.250 I-0.988 J0.151 K0.000 F500.000
G1 X-10.345 Y-58.181 Z3.250 F500.000
G1 X-10.345 Y-62.546 Z3.250 F500.000
G1 X-9.891 Y-62.546 Z3.250 F500.000
G1 X-9.891 Y-59.712 Z3.250 F500.000
G2 X-8.854 Y-58.674 Z3.250 I1.047 J-0.010 K0.000 F500.000
G1 X-7.354 Y-58.674 Z3.250 F500.000
G2 X-6.358 Y-59.671 Z3.250 I-0.009 J-1.006 K0.000 F500.000
G1 X-6.358 Y-62.981 Z3.250 F500.000
G1 X-5.993 Y-63.339 Z3.250 F500.000
G2 X-6.056 Y-63.020 Z3.250 I0.860 J0.336 K0.000 F500.000
G1 X-6.056 Y-61.578 Z3.250 F500.000
G2 X-5.068 Y-60.591 Z3.250 I0.996 J-0.009 K0.000 F500.000
G1 X4.228 Y-60.591 Z3.250 F500.000
G2 X5.216 Y-61.578 Z3.250 I-0.009 J-0.996 K0.000 F500.000
G1 X5.216 Y-63.020 Z3.250 F500.000
G2 X5.152 Y-63.339 Z3.250 I-0.650 J-0.037 K0.000 F500.000
G1 X5.518 Y-62.981 Z3.250 F500.000
G1 X5.518 Y-59.671 Z3.250 F500.000
G2 X6.514 Y-58.674 Z3.250 I1.006 J-0.009 K0.000 F500.000
G1 X8.012 Y-58.674 Z3.250 F500.000
G2 X9.050 Y-59.712 Z3.250 I-0.010 J-1.047 K0.000 F500.000
G1 X9.050 Y-62.546 Z3.250 F500.000
G1 X9.505 Y-62.546 Z3.250 F500.000
G1 X9.505 Y-58.181 Z3.250 F500.000
G2 X8.398 Y-58.166 Z3.250 I-0.480 J5.627 K0.000 F500.000
G2 X7.550 Y-57.186 Z3.250 I0.151 J0.988 K0.000 F500.000
G1 X7.550 Y-56.187 Z3.250 F500.000
G1 X6.426 Y-56.187 Z3.250 F500.000
G2 X5.441 Y-55.202 Z3.250 I0.009 J0.994 K0.000 F500.000
G1 X5.441 Y-54.308 Z3.250 F500.000
G2 X4.443 Y-54.278 Z3.250 I-0.393 J3.479 K0.000 F500.000
G2 X3.973 Y-52.807 Z3.250 I0.217 J0.880 K0.000 F500.000
G1 X5.441 Y-51.130 Z3.250 F500.000
G1 X5.441 Y-50.360 Z3.250 F500.000
G0 Z9.000
G0 X4.419 Y-54.712 Z9.000
G0 X4.419 Y-54.712 Z7.000
G1 X4.419 Y-54.712 Z3.250 F200.000
G3 X4.199 Y-54.685 Z3.250 I-0.228 J-0.972 K0.000 F500.000
G1 X2.596 Y-54.685 Z3.250 F500.000
G3 X1.606 Y-55.675 Z3.250 I0.009 J-0.999 K0.000 F500.000
G1 X1.606 Y-57.215 Z3.250 F500.000
G3 X2.596 Y-58.205 Z3.250 I0.999 J0.009 K0.000 F500.000
G1 X4.199 Y-58.205 Z3.250 F500.000
G3 X5.189 Y-57.215 Z3.250 I-0.009 J0.999 K0.000 F500.000
G1 X5.189 Y-55.675 Z3.250 F500.000
G3 X4.419 Y-54.712 Z3.250 I-0.999 J-0.009 K0.000 F500.000
G0 Z9.000
G0 X0.106 Y-55.808 Z9.000
G0 X0.106 Y-55.808 Z7.000
G1 X0.106 Y-55.808 Z3.250 F200.000
G1 X-0.946 Y-55.808 Z3.250 F500.000
G1 X-0.946 Y-57.215 Z3.250 F500.000
G2 X-1.818 Y-59.091 Z3.250 I-2.436 J-0.008 K0.000 F500.000
G1 X0.974 Y-59.091 Z3.250 F500.000
G2 X0.106 Y-57.215 Z3.250 I1.573 J1.866 K0.000 F500.000
G1 X0.106 Y-55.808 Z3.250 F500.000
G0 Z9.000
G0 X-0.269 Y-56.183 Z9.000
G0 X-0.269 Y-56.183 Z7.000
G1 X-0.269 Y-56.183 Z3.250 F200.000
G1 X-0.571 Y-56.183 Z3.250 F500.000
G2 X-0.621 Y-57.727 Z3.250 I-7.862 J-0.516 K0.000 F500.000
G2 X-1.006 Y-58.716 Z3.250 I-2.499 J0.403 K0.000 F500.000
G1 X0.165 Y-58.716 Z3.250 F500.000
G2 X-0.269 Y-57.215 Z3.250 I2.462 J1.525 K0.000 F500.000
G1 X-0.269 Y-56.183 Z3.250 F500.000
G0 Z9.000
G0 X-2.446 Z9.000
G0 X-2.446 Z7.000
G1 X-2.446 Y-56.183 Z3.250 F200.000
G1 X-2.446 Y-55.675 Z3.250 F500.000
G3 X-3.436 Y-54.685 Z3.250 I-0.999 J-0.009 K0.000 F500.000
G1 X-5.039 Y-54.685 Z3.250 F500.000
G3 X-6.029 Y-55.675 Z3.250 I0.009 J-0.999 K0.000 F500.000
G1 X-6.029 Y-57.215 Z3.250 F500.000
G3 X-5.039 Y-58.205 Z3.250 I0.999 J0.009 K0.000 F500.000
G1 X-3.436 Y-58.205 Z3.250 F500.000
G3 X-2.446 Y-57.215 Z3.250 I-0.009 J0.999 K0.000 F500.000
G1 X-2.446 Y-56.183 Z3.250 F500.000
G0 Z9.000
G0 Y-64.046 Z9.000
G0 Y-64.046 Z7.000
G1 X-2.446 Y-64.046 Z3.250 F200.000
G1 X-5.029 Y-64.046 Z3.250 F500.000
G2 X-5.325 Y-63.993 Z3.250 I-0.044 J0.598 K0.000 F500.000
G1 X-4.846 Y-64.462 Z3.250 F500.000
G1 X-2.224 Y-64.462 Z3.250 F500.000
G1 X-2.224 Y-64.046 Z3.250 F500.000
G1 X-2.446 Y-64.046 Z3.250 F500.000
G0 Z9.000
G0 X1.382 Z9.000
G0 X1.382 Z7.000
G1 X1.382 Y-64.046 Z3.250 F200.000
G1 X1.382 Y-64.463 Z3.250 F500.000
G1 X4.006 Y-64.463 Z3.250 F500.000
G1 X4.487 Y-63.992 Z3.250 F500.000
G2 X4.189 Y-64.046 Z3.250 I-0.317 J0.898 K0.000 F500.000
G1 X1.382 Y-64.046 Z3.250 F500.000
G1 X1.382 Y-64.046 Z2.500 F200.000
G1 X1.382 Y-64.463 Z2.500 F500.000
G1 X4.006 Y-64.463 Z2.500 F500.000
G1 X4.487 Y-63.992 Z2.500 F500.000
G2 X4.189 Y-64.046 Z2.500 I-0.317 J0.898 K0.000 F500.000
G1 X1.382 Y-64.046 Z2.500 F500.000
G0 Z9.000
G0 Y-60.591 Z9.000
G0 Y-60.591 Z7.000
G1 X1.382 Y-60.591 Z2.500 F200.000
G1 X4.228 Y-60.591 Z2.500 F500.000
G2 X5.216 Y-61.578 Z2.500 I-0.009 J-0.996 K0.000 F500.000
G1 X5.216 Y-63.020 Z2.500 F500.000
G2 X5.152 Y-63.339 Z2.500 I-0.650 J-0.037 K0.000 F500.000
G1 X5.518 Y-62.981 Z2.500 F500.000
G1 X5.518 Y-59.671 Z2.500 F500.000
G2 X6.514 Y-58.674 Z2.500 I1.006 J-0.009 K0.000 F500.000
G1 X8.012 Y-58.674 Z2.500 F500.000
G2 X9.050 Y-59.712 Z2.500 I-0.010 J-1.047 K0.000 F500.000
G1 X9.050 Y-62.546 Z2.500 F500.000
G1 X9.505 Y-62.546 Z2.500 F500.000
G1 X9.505 Y-58.181 Z2.500 F500.000
G2 X8.398 Y-58.166 Z2.500 I-0.480 J5.627 K0.000 F500.000
G2 X7.550 Y-57.186 Z2.500 I0.151 J0.988 K0.000 F500.000
G1 X7.550 Y-56.187 Z2.500 F500.000
G1 X6.426 Y-56.187 Z2.500 F500.000
G2 X5.441 Y-55.202 Z2.500 I0.009 J0.994 K0.000 F500.000
G1 X5.441 Y-54.308 Z2.500 F500.000
G2 X4.443 Y-54.278 Z2.500 I-0.393 J3.479 K0.000 F500.000
G2 X3.973 Y-52.807 Z2.500 I0.217 J0.880 K0.000 F500.000
G1 X5.441 Y-51.130 Z2.500 F500.000
G1 X5.441 Y-50.360 Z2.500 F500.000
G1 X4.772 Y-50.360 Z2.500 F500.000
G1 X3.107 Y-51.995 Z2.500 F500.000
G1 X3.107 Y-53.293 Z2.500 F500.000
G2 X2.091 Y-54.308 Z2.500 I-1.025 J0.010 K0.000 F500.000
G1 X-2.931 Y-54.308 Z2.500 F500.000
G2 X-3.947 Y-53.293 Z2.500 I0.010 J1.025 K0.000 F500.000
G1 X-3.947 Y-51.995 Z2.500 F500.000
G1 X-5.612 Y-50.360 Z2.500 F500.000
G1 X-6.281 Y-50.360 Z2.500 F500.000
G1 X-6.281 Y-51.130 Z2.500 F500.000
G1 X-4.813 Y-52.807 Z2.500 F500.000
G2 X-5.494 Y-54.308 Z2.500 I-0.681 J-0.596 K0.000 F500.000
G1 X-6.281 Y-54.308 Z2.500 F500.000
G2 X-6.295 Y-55.348 Z2.500 I-5.287 J-0.447 K0.000 F500.000
G2 X-7.266 Y-56.187 Z2.500 I-0.978 J0.151 K0.000 F500.000
G1 X-8.391 Y-56.187 Z2.500 F500.000
G2 X-8.406 Y-57.332 Z2.500 I-5.822 J-0.500 K0.000 F500.000
G2 X-9.386 Y-58.181 Z2.500 I-0.988 J0.151 K0.000 F500.000
G1 X-10.345 Y-58.181 Z2.500 F500.000
G1 X-10.345 Y-62.546 Z2.500 F500.000
G1 X-9.891 Y-62.546 Z2.500 F500.000
G1 X-9.891 Y-59.712 Z2.500 F500.000
G2 X-8.854 Y-58.674 Z2.500 I1.047 J-0.010 K0.000 F500.000
G1 X-7.354 Y-58.674 Z2.500 F500.000
G2 X-6.358 Y-59.671 Z2.500 I-0.009 J-1.006 K0.000 F500.000
G1 X-6.358 Y-62.981 Z2.500 F500.000
G1 X-5.993 Y-63.339 Z2.500 F500.000
G2 X-6.056 Y-63.020 Z2.500 I0.860 J0.336 K0.000 F500.000
G1 X-6.056 Y-61.578 Z2.500 F500.000
G2 X-5.068 Y-60.591 Z2.500 I0.996 J-0.009 K0.000 F500.000
G1 X1.382 Y-60.591 Z2.500 F500.000
G0 Z9.000
G0 X0.974 Y-59.091 Z9.000
G0 X0.974 Y-59.091 Z7.000
G1 X0.974 Y-59.091 Z2.500 F200.000
G2 X0.106 Y-57.215 Z2.500 I1.573 J1.866 K0.000 F500.000
G1 X0.106 Y-55.808 Z2.500 F500.000
G1 X-0.946 Y-55.808 Z2.500 F500.000
G1 X-0.946 Y-57.215 Z2.500 F500.000
G2 X-1.818 Y-59.091 Z2.500 I-2.436 J-0.008 K0.000 F500.000
G1 X0.974 Y-59.091 Z2.500 F500.000
G0 Z9.000
G0 X0.165 Y-58.716 Z9.000
G0 X0.165 Y-58.716 Z7.000
G1 X0.165 Y-58.716 Z2.500 F200.000
G2 X-0.269 Y-57.215 Z2.500 I2.462 J1.525 K0.000 F500.000
G1 X-0.269 Y-56.183 Z2.500 F500.000
G1 X-0.571 Y-56.183 Z2.500 F500.000
G2 X-0.621 Y-57.727 Z2.500 I-7.862 J-0.516 K0.000 F500.000
G2 X-1.006 Y-58.716 Z2.500 I-2.499 J0.403 K0.000 F500.000
G1 X0.165 Y-58.716 Z2.500 F500.000
G0 Z9.000
G0 X1.755 Y-57.732 Z9.000
G0 X1.755 Y-57.732 Z7.000
G1 X1.755 Y-57.732 Z2.500 F200.000
G3 X2.596 Y-58.205 Z2.500 I0.849 J0.526 K0.000 F500.000
G1 X4.199 Y-58.205 Z2.500 F500.000
G3 X5.189 Y-57.215 Z2.500 I-0.009 J0.999 K0.000 F500.000
G1 X5.189 Y-55.675 Z2.500 F500.000
G3 X4.199 Y-54.685 Z2.500 I-0.999 J-0.009 K0.000 F500.000
G1 X2.596 Y-54.685 Z2.500 F500.000
G3 X1.606 Y-55.675 Z2.500 I0.009 J-0.999 K0.000 F500.000
G1 X1.606 Y-57.215 Z2.500 F500.000
G3 X1.755 Y-57.732 Z2.500 I0.999 J0.009 K0.000 F500.000
G0 Z9.000
G0 X-2.451 Y-57.307 Z9.000
G0 X-2.451 Y-57.307 Z7.000
G1 X-2.451 Y-57.307 Z2.500 F200.000
G3 X-2.446 Y-57.215 Z2.500 I-0.994 J0.100 K0.000 F500.000
G1 X-2.446 Y-55.675 Z2.500 F500.000
G3 X-3.436 Y-54.685 Z2.500 I-0.999 J-0.009 K0.000 F500.000
G1 X-5.039 Y-54.685 Z2.500 F500.000
G3 X-6.029 Y-55.675 Z2.500 I0.009 J-0.999 K0.000 F500.000
G1 X-6.029 Y-57.215 Z2.500 F500.000
G3 X-5.039 Y-58.205 Z2.500 I0.999 J0.009 K0.000 F500.000
G1 X-3.436 Y-58.205 Z2.500 F500.000
G3 X-2.451 Y-57.307 Z2.500 I-0.009 J0.999 K0.000 F500.000
G0 Z9.000
G0 Y-64.046 Z9.000
G0 Y-64.046 Z7.000
G1 X-2.451 Y-64.046 Z2.500 F200.000
G1 X-5.029 Y-64.046 Z2.500 F500.000
G2 X-5.325 Y-63.993 Z2.500 I-0.044 J0.598 K0.000 F500.000
G1 X-4.846 Y-64.462 Z2.500 F500.000
G1 X-2.224 Y-64.462 Z2.500 F500.000
G1 X-2.224 Y-64.046 Z2.500 F500.000
G1 X-2.451 Y-64.046 Z2.500 F500.000
G1 X-2.451 Y-64.046 Z2.000 F200.000
G1 X-5.029 Y-64.046 Z2.000 F500.000
G2 X-5.325 Y-63.993 Z2.000 I-0.044 J0.598 K0.000 F500.000
G1 X-4.846 Y-64.462 Z2.000 F500.000
G1 X-2.224 Y-64.462 Z2.000 F500.000
G1 X-2.224 Y-64.046 Z2.000 F500.000
G1 X-2.451 Y-64.046 Z2.000 F500.000
G0 Z9.000
G0 Y-60.591 Z9.000
G0 Y-60.591 Z7.000
G1 X-2.451 Y-60.591 Z2.000 F200.000
G1 X4.228 Y-60.591 Z2.000 F500.000
G2 X5.216 Y-61.578 Z2.000 I-0.009 J-0.996 K0.000 F500.000
G1 X5.216 Y-63.020 Z2.000 F500.000
G2 X5.152 Y-63.339 Z2.000 I-0.650 J-0.037 K0.000 F500.000
G1 X5.518 Y-62.981 Z2.000 F500.000
G1 X5.518 Y-59.671 Z2.000 F500.000
G2 X6.514 Y-58.674 Z2.000 I1.006 J-0.009 K0.000 F500.000
G1 X8.012 Y-58.674 Z2.000 F500.000
G2 X9.050 Y-59.712 Z2.000 I-0.010 J-1.047 K0.000 F500.000
G1 X9.050 Y-62.546 Z2.000 F500.000
G1 X9.505 Y-62.546 Z2.000 F500.000
G1 X9.505 Y-58.181 Z2.000 F500.000
G2 X8.398 Y-58.166 Z2.000 I-0.480 J5.627 K0.000 F500.000
G2 X7.550 Y-57.186 Z2.000 I0.151 J0.988 K0.000 F500.000
G1 X7.550 Y-56.187 Z2.000 F500.000
G1 X6.426 Y-56.187 Z2.000 F500.000
G2 X5.441 Y-55.202 Z2.000 I0.009 J0.994 K0.000 F500.000
G1 X5.441 Y-54.308 Z2.000 F500.000
G2 X4.443 Y-54.278 Z2.000 I-0.393 J3.479 K0.000 F500.000
G2 X3.973 Y-52.807 Z2.000 I0.217 J0.880 K0.000 F500.000
G1 X5.441 Y-51.130 Z2.000 F500.000
G1 X5.441 Y-50.360 Z2.000 F500.000
G1 X4.772 Y-50.360 Z2.000 F500.000
G1 X3.107 Y-51.995 Z2.000 F500.000
G1 X3.107 Y-53.293 Z2.000 F500.000
G2 X2.091 Y-54.308 Z2.000 I-1.025 J0.010 K0.000 F500.000
G1 X-2.931 Y-54.308 Z2.000 F500.000
G2 X-3.947 Y-53.293 Z2.000 I0.010 J1.025 K0.000 F500.000
G1 X-3.947 Y-51.995 Z2.000 F500.000
G1 X-5.612 Y-50.360 Z2.000 F500.000
G1 X-6.281 Y-50.360 Z2.000 F500.000
G1 X-6.281 Y-51.130 Z2.000 F500.000
G1 X-4.813 Y-52.807 Z2.000 F500.000
G2 X-5.494 Y-54.308 Z2.000 I-0.681 J-0.596 K0.000 F500.000
G1 X-6.281 Y-54.308 Z2.000 F500.000
G2 X-6.295 Y-55.348 Z2.000 I-5.287 J-0.447 K0.000 F500.000
G2 X-7.266 Y-56.187 Z2.000 I-0.978 J0.151 K0.000 F500.000
G1 X-8.391 Y-56.187 Z2.000 F500.000
G2 X-8.406 Y-57.332 Z2.000 I-5.822 J-0.500 K0.000 F500.000
G2 X-9.386 Y-58.181 Z2.000 I-0.988 J0.151 K0.000 F500.000
G1 X-10.345 Y-58.181 Z2.000 F500.000
G1 X-10.345 Y-62.546 Z2.000 F500.000
G1 X-9.891 Y-62.546 Z2.000 F500.000
G1 X-9.891 Y-59.712 Z2.000 F500.000
G2 X-8.854 Y-58.674 Z2.000 I1.047 J-0.010 K0.000 F500.000
G1 X-7.354 Y-58.674 Z2.000 F500.000
G2 X-6.358 Y-59.671 Z2.000 I-0.009 J-1.006 K0.000 F500.000
G1 X-6.358 Y-62.981 Z2.000 F500.000
G1 X-5.993 Y-63.339 Z2.000 F500.000
G2 X-6.056 Y-63.020 Z2.000 I0.860 J0.336 K0.000 F500.000
G1 X-6.056 Y-61.578 Z2.000 F500.000
G2 X-5.068 Y-60.591 Z2.000 I0.996 J-0.009 K0.000 F500.000
G1 X-2.451 Y-60.591 Z2.000 F500.000
G0 Z9.000
G0 X-1.818 Y-59.091 Z9.000
G0 X-1.818 Y-59.091 Z7.000
G1 X-1.818 Y-59.091 Z2.000 F200.000
G1 X0.974 Y-59.091 Z2.000 F500.000
G2 X0.106 Y-57.215 Z2.000 I1.573 J1.866 K0.000 F500.000
G1 X0.106 Y-55.808 Z2.000 F500.000
G1 X-0.946 Y-55.808 Z2.000 F500.000
G1 X-0.946 Y-57.215 Z2.000 F500.000
G2 X-1.818 Y-59.091 Z2.000 I-2.436 J-0.008 K0.000 F500.000
G0 Z9.000
G0 X-1.006 Y-58.716 Z9.000
G0 X-1.006 Y-58.716 Z7.000
G1 X-1.006 Y-58.716 Z2.000 F200.000
G1 X0.165 Y-58.716 Z2.000 F500.000
G2 X-0.269 Y-57.215 Z2.000 I2.462 J1.525 K0.000 F500.000
G1 X-0.269 Y-56.183 Z2.000 F500.000
G1 X-0.571 Y-56.183 Z2.000 F500.000
G2 X-0.621 Y-57.727 Z2.000 I-7.862 J-0.516 K0.000 F500.000
G2 X-1.006 Y-58.716 Z2.000 I-2.499 J0.403 K0.000 F500.000
G0 Z9.000
G0 X-2.596 Y-57.732 Z9.000
G0 X-2.596 Y-57.732 Z7.000
G1 X-2.596 Y-57.732 Z2.000 F200.000
G3 X-2.446 Y-57.215 Z2.000 I-0.849 J0.526 K0.000 F500.000
G1 X-2.446 Y-55.675 Z2.000 F500.000
G3 X-3.436 Y-54.685 Z2.000 I-0.999 J-0.009 K0.000 F500.000
G1 X-5.039 Y-54.685 Z2.000 F500.000
G3 X-6.029 Y-55.675 Z2.000 I0.009 J-0.999 K0.000 F500.000
G1 X-6.029 Y-57.215 Z2.000 F500.000
G3 X-5.039 Y-58.205 Z2.000 I0.999 J0.009 K0.000 F500.000
G1 X-3.436 Y-58.205 Z2.000 F500.000
G3 X-2.596 Y-57.732 Z2.000 I-0.009 J0.999 K0.000 F500.000
G0 Z9.000
G0 X1.611 Y-57.307 Z9.000
G0 X1.611 Y-57.307 Z7.000
G1 X1.611 Y-57.307 Z2.000 F200.000
G3 X2.596 Y-58.205 Z2.000 I0.994 J0.100 K0.000 F500.000
G1 X4.199 Y-58.205 Z2.000 F500.000
G3 X5.189 Y-57.215 Z2.000 I-0.009 J0.999 K0.000 F500.000
G1 X5.189 Y-55.675 Z2.000 F500.000
G3 X4.199 Y-54.685 Z2.000 I-0.999 J-0.009 K0.000 F500.000
G1 X2.596 Y-54.685 Z2.000 F500.000
G3 X1.606 Y-55.675 Z2.000 I0.009 J-0.999 K0.000 F500.000
G1 X1.606 Y-57.215 Z2.000 F500.000
G3 X1.611 Y-57.307 Z2.000 I0.999 J0.009 K0.000 F500.000
G0 Z9.000
G0 Y-64.046 Z9.000
G0 Y-64.046 Z7.000
G1 X1.611 Y-64.046 Z2.000 F200.000
G1 X1.382 Y-64.046 Z2.000 F500.000
G1 X1.382 Y-64.463 Z2.000 F500.000
G1 X4.006 Y-64.463 Z2.000 F500.000
G1 X4.487 Y-63.992 Z2.000 F500.000
G2 X4.189 Y-64.046 Z2.000 I-0.317 J0.898 K0.000 F500.000
G1 X1.611 Y-64.046 Z2.000 F500.000
G0 Z9.000
G0 Z9.000
G0 X1.611 Y-64.046
G0 X50.360 Y-6.281
G0 X50.360 Y-6.281 Z7.000
G1 X50.360 Y-6.281 Z3.250 F200.000
G1 X51.130 Y-6.281 Z3.250 F500.000
G1 X52.807 Y-4.813 Z3.250 F500.000
G2 X54.308 Y-5.494 Z3.250 I0.596 J-0.681 K0.000 F500.000
G1 X54.308 Y-6.281 Z3.250 F500.000
G2 X55.348 Y-6.295 Z3.250 I0.447 J-5.287 K0.000 F500.000
G2 X56.187 Y-7.266 Z3.250 I-0.151 J-0.978 K0.000 F500.000
G1 X56.187 Y-8.391 Z3.250 F500.000
G2 X57.332 Y-8.406 Z3.250 I0.500 J-5.822 K0.000 F500.000
G2 X58.181 Y-9.386 Z3.250 I-0.151 J-0.988 K0.000 F500.000
G1 X58.181 Y-10.345 Z3.250 F500.000
G1 X62.546 Y-10.345 Z3.250 F500.000
G1 X62.546 Y-9.891 Z3.250 F500.000
G1 X59.712 Y-9.891 Z3.250 F500.000
G2 X58.674 Y-8.854 Z3.250 I0.010 J1.047 K0.000 F500.000
G1 X58.674 Y-7.354 Z3.250 F500.000
G2 X59.671 Y-6.358 Z3.250 I1.006 J-0.009 K0.000 F500.000
G1 X62.981 Y-6.358 Z3.250 F500.000
G1 X63.339 Y-5.993 Z3.250 F500.000
G2 X63.020 Y-6.056 Z3.250 I-0.336 J0.860 K0.000 F500.000
G1 X61.578 Y-6.056 Z3.250 F500.000
G2 X60.591 Y-5.068 Z3.250 I0.009 J0.996 K0.000 F500.000
G1 X60.591 Y4.228 Z3.250 F500.000
G2 X61.578 Y5.216 Z3.250 I0.996 J-0.009 K0.000 F500.000
G1 X63.020 Y5.216 Z3.250 F500.000
G2 X63.339 Y5.152 Z3.250 I0.037 J-0.650 K0.000 F500.000
G1 X62.981 Y5.518 Z3.250 F500.000
G1 X59.671 Y5.518 Z3.250 F500.000
G2 X58.674 Y6.514 Z3.250 I0.009 J1.006 K0.000 F500.000
G1 X58.674 Y8.012 Z3.250 F500.000
G2 X59.712 Y9.050 Z3.250 I1.047 J-0.010 K0.000 F500.000
G1 X62.546 Y9.050 Z3.250 F500.000
G1 X62.546 Y9.505 Z3.250 F500.000
G1 X58.181 Y9.505 Z3.250 F500.000
G2 X58.166 Y8.398 Z3.250 I-5.627 J-0.480 K0.000 F500.000
G2 X57.186 Y7.550 Z3.250 I-0.988 J0.151 K0.000 F500.000
G1 X56.187 Y7.550 Z3.250 F500.000
G1 X56.187 Y6.426 Z3.250 F500.000
G2 X55.202 Y5.441 Z3.250 I-0.994 J0.009 K0.000 F500.000
G1 X54.308 Y5.441 Z3.250 F500.000
G2 X54.278 Y4.443 Z3.250 I-3.479 J-0.393 K0.000 F500.000
G2 X52.807 Y3.973 Z3.250 I-0.880 J0.217 K0.000 F500.000
G1 X51.130 Y5.441 Z3.250 F500.000
G1 X50.360 Y5.441 Z3.250 F500.000
G1 X50.360 Y4.772 Z3.250 F500.000
G1 X51.995 Y3.107 Z3.250 F500.000
G1 X53.293 Y3.107 Z3.250 F500.000
G2 X54.308 Y2.091 Z3.250 I-0.010 J-1.025 K0.000 F500.000
G1 X54.308 Y-2.931 Z3.250 F500.000
G2 X53.293 Y-3.947 Z3.250 I-1.025 J0.010 K0.000 F500.000
G1 X51.995 Y-3.947 Z3.250 F500.000
G1 X50.360 Y-5.612 Z3.250 F500.000
G1 X50.360 Y-6.281 Z3.250 F500.000
G0 Z9.000
G0 X54.712 Y-5.259 Z9.000
G0 X54.712 Y-5.259 Z7.000
G1 X54.712 Y-5.259 Z3.250 F200.000
G3 X55.675 Y-6.029 Z3.250 I0.972 J0.228 K0.000 F500.000
G1 X57.215 Y-6.029 Z3.250 F500.000
G3 X58.205 Y-5.039 Z3.250 I-0.009 J0.999 K0.000 F500.000
G1 X58.205 Y-3.436 Z3.250 F500.000
G3 X57.215 Y-2.446 Z3.250 I-0.999 J-0.009 K0.000 F500.000
G1 X55.675 Y-2.446 Z3.250 F500.000
G3 X54.685 Y-3.436 Z3.250 I0.009 J-0.999 K0.000 F500.000
G1 X54.685 Y-5.039 Z3.250 F500.000
G3 X54.712 Y-5.259 Z3.250 I0.999 J0.009 K0.000 F500.000
G0 Z9.000
G0 X55.808 Y-0.946 Z9.000
G0 X55.808 Y-0.946 Z7.000
G1 X55.808 Y-0.946 Z3.250 F200.000
G1 X57.215 Y-0.946 Z3.250 F500.000
G2 X59.091 Y-1.818 Z3.250 I0.008 J-2.436 K0.000 F500.000
G1 X59.091 Y0.974 Z3.250 F500.000
G2 X57.215 Y0.106 Z3.250 I-1.866 J1.573 K0.000 F500.000
G1 X55.808 Y0.106 Z3.250 F500.000
G1 X55.808 Y-0.946 Z3.250 F500.000
G0 Z9.000
G0 X56.183 Y-0.571 Z9.000
G0 X56.183 Y-0.571 Z7.000
G1 X56.183 Y-0.571 Z3.250 F200.000
G2 X57.727 Y-0.621 Z3.250 I0.516 J-7.862 K0.000 F500.000
G2 X58.716 Y-1.006 Z3.250 I-0.403 J-2.499 K0.000 F500.000
G1 X58.716 Y0.165 Z3.250 F500.000
G2 X57.215 Y-0.269 Z3.250 I-1.525 J2.462 K0.000 F500.000
G1 X56.183 Y-0.269 Z3.250 F500.000
G1 X56.183 Y-0.571 Z3.250 F500.000
G0 Z9.000
G0 Y1.606 Z9.000
G0 Y1.606 Z7.000
G1 X56.183 Y1.606 Z3.250 F200.000
G1 X57.215 Y1.606 Z3.250 F500.000
G3 X58.205 Y2.596 Z3.250 I-0.009 J0.999 K0.000 F500.000
G1 X58.205 Y4.199 Z3.250 F500.000
G3 X57.215 Y5.189 Z3.250 I-0.999 J-0.009 K0.000 F500.000
G1 X55.675 Y5.189 Z3.250 F500.000
G3 X54.685 Y4.199 Z3.250 I0.009 J-0.999 K0.000 F500.000
G1 X54.685 Y2.596 Z3.250 F500.000
G3 X55.675 Y1.606 Z3.250 I0.999 J0.009 K0.000 F500.000
G1 X56.183 Y1.606 Z3.250 F500.000
G0 Z9.000
G0 X64.046 Z9.000
G0 X64.046 Z7.000
G1 X64.046 Y1.606 Z3.250 F200.000
G1 X64.046 Y1.382 Z3.250 F500.000
G1 X64.463 Y1.382 Z3.250 F500.000
G1 X64.463 Y4.006 Z3.250 F500.000
G1 X63.992 Y4.487 Z3.250 F500.000
G2 X64.046 Y4.189 Z3.250 I-0.898 J-0.317 K0.000 F500.000
G1 X64.046 Y1.606 Z3.250 F500.000
G0 Z9.000
G0 Y-2.224 Z9.000
G0 Y-2.224 Z7.000
G1 X64.046 Y-2.224 Z3.250 F200.000
G1 X64.046 Y-5.029 Z3.250 F500.000
G2 X63.993 Y-5.325 Z3.250 I-0.598 J-0.044 K0.000 F500.000
G1 X64.462 Y-4.846 Z3.250 F500.000
G1 X64.462 Y-2.224 Z3.250 F500.000
G1 X64.046 Y-2.224 Z3.250 F500.000
G1 X64.046 Y-2.224 Z2.500 F200.000
G1 X64.046 Y-5.029 Z2.500 F500.000
G2 X63.993 Y-5.325 Z2.500 I-0.598 J-0.044 K0.000 F500.000
G1 X64.462 Y-4.846 Z2.500 F500.000
G1 X64.462 Y-2.224 Z2.500 F500.000
G1 X64.046 Y-2.224 Z2.500 F500.000
G0 Z9.000
G0 X60.591 Z9.000
G0 X60.591 Z7.000
G1 X60.591 Y-2.224 Z2.500 F200.000
G1 X60.591 Y4.228 Z2.500 F500.000
G2 X61.578 Y5.216 Z2.500 I0.996 J-0.009 K0.000 F500.000
G1 X63.020 Y5.216 Z2.500 F500.000
G2 X63.339 Y5.152 Z2.500 I0.037 J-0.650 K0.000 F500.000
G1 X62.981 Y5.518 Z2.500 F500.000
G1 X59.671 Y5.518 Z2.500 F500.000
G2 X58.674 Y6.514 Z2.500 I0.009 J1.006 K0.000 F500.000
G1 X58.674 Y8.012 Z2.500 F500.000
G2 X59.712 Y9.050 Z2.500 I1.047 J-0.010 K0.000 F500.000
G1 X62.546 Y9.050 Z2.500 F500.000
G1 X62.546 Y9.505 Z2.500 F500.000
G1 X58.181 Y9.505 Z2.500 F500.000
G2 X58.166 Y8.398 Z2.500 I-5.627 J-0.480 K0.000 F500.000
G2 X57.186 Y7.550 Z2.500 I-0.988 J0.151 K0.000 F500.000
G1 X56.187 Y7.550 Z2.500 F500.000
G1 X56.187 Y6.426 Z2.500 F500.000
G2 X55.202 Y5.441 Z2.500 I-0.994 J0.009 K0.000 F500.000
G1 X54.308 Y5.441 Z2.500 F500.000
G2 X54.278 Y4.443 Z2.500 I-3.479 J-0.393 K0.000 F500.000
G2 X52.807 Y3.973 Z2.500 I-0.880 J0.217 K0.000 F500.000
G1 X51.130 Y5.441 Z2.500 F500.000
G1 X50.360 Y5.441 Z2.500 F500.000
G1 X50.360 Y4.772 Z2.500 F500.000
G1 X51.995 Y3.107 Z2.500 F500.000
G1 X53.293 Y3.107 Z2.500 F500.000
G2 X54.308 Y2.091 Z2.500 I-0.010 J-1.025 K0.000 F500.000
G1 X54.308 Y-2.931 Z2.500 F500.000
G2 X53.293 Y-3.947 Z2.500 I-1.025 J0.010 K0.000 F500.000
G1 X51.995 Y-3.947 Z2.500 F500.000
G1 X50.360 Y-5.612 Z2.500 F500.000
G1 X50.360 Y-6.281 Z2.500 F500.000
G1 X51.130 Y-6.281 Z2.500 F500.000
G1 X52.807 Y-4.813 Z2.500 F500.000
G2 X54.308 Y-5.494 Z2.500 I0.596 J-0.681 K0.000 F500.000
G1 X54.308 Y-6.281 Z2.500 F500.000
G2 X55.348 Y-6.295 Z2.500 I0.447 J-5.287 K0.000 F500.000
G2 X56.187 Y-7.266 Z2.500 I-0.151 J-0.978 K0.000 F500.000
G1 X56.187 Y-8.391 Z2.500 F500.000
G2 X57.332 Y-8.406 Z2.500 I0.500 J-5.822 K0.000 F500.000
G2 X58.181 Y-9.386 Z2.500 I-0.151 J-0.988 K0.000 F500.000
G1 X58.181 Y-10.345 Z2.500 F500.000
G1 X62.546 Y-10.345 Z2.500 F500.000
G1 X62.546 Y-9.891 Z2.500 F500.000
G1 X59.712 Y-9.891 Z2.500 F500.000
G2 X58.674 Y-8.854 Z2.500 I0.010 J1.047 K0.000 F500.000
G1 X58.674 Y-7.354 Z2.500 F500.000
G2 X59.671 Y-6.358 Z2.500 I1.006 J-0.009 K0.000 F500.000
G1 X62.981 Y-6.358 Z2.500 F500.000
G1 X63.339 Y-5.993 Z2.500 F500.000
G2 X63.020 Y-6.056 Z2.500 I-0.336 J0.860 K0.000 F500.000
G1 X61.578 Y-6.056 Z2.500 F500.000
G2 X60.591 Y-5.068 Z2.500 I0.009 J0.996 K0.000 F500.000
G1 X60.591 Y-2.224 Z2.500 F500.000
G0 Z9.000
G0 X59.091 Y-1.818 Z9.000
G0 X59.091 Y-1.818 Z7.000
G1 X59.091 Y-1.818 Z2.500 F200.000
G1 X59.091 Y0.974 Z2.500 F500.000
G2 X57.215 Y0.106 Z2.500 I-1.866 J1.573 K0.000 F500.000
G1 X55.808 Y0.106 Z2.500 F500.000
G1 X55.808 Y-0.946 Z2.500 F500.000
G1 X57.215 Y-0.946 Z2.500 F500.000
G2 X59.091 Y-1.818 Z2.500 I0.008 J-2.436 K0.000 F500.000
G0 Z9.000
G0 X58.716 Y-1.006 Z9.000
G0 X58.716 Y-1.006 Z7.000
G1 X58.716 Y-1.006 Z2.500 F200.000
G1 X58.716 Y0.165 Z2.500 F500.000
G2 X57.215 Y-0.269 Z2.500 I-1.525 J2.462 K0.000 F500.000
G1 X56.183 Y-0.269 Z2.500 F500.000
G1 X56.183 Y-0.571 Z2.500 F500.000
G2 X57.727 Y-0.621 Z2.500 I0.516 J-7.862 K0.000 F500.000
G2 X58.716 Y-1.006 Z2.500 I-0.403 J-2.499 K0.000 F500.000
G0 Z9.000
G0 X57.732 Y-2.596 Z9.000
G0 X57.732 Y-2.596 Z7.000
G1 X57.732 Y-2.596 Z2.500 F200.000
G3 X57.215 Y-2.446 Z2.500 I-0.526 J-0.849 K0.000 F500.000
G1 X55.675 Y-2.446 Z2.500 F500.000
G3 X54.685 Y-3.436 Z2.500 I0.009 J-0.999 K0.000 F500.000
G1 X54.685 Y-5.039 Z2.500 F500.000
G3 X55.675 Y-6.029 Z2.500 I0.999 J0.009 K0.000 F500.000
G1 X57.215 Y-6.029 Z2.500 F500.000
G3 X58.205 Y-5.039 Z2.500 I-0.009 J0.999 K0.000 F500.000
G1 X58.205 Y-3.436 Z2.500 F500.000
G3 X57.732 Y-2.596 Z2.500 I-0.999 J-0.009 K0.000 F500.000
G0 Z9.000
G0 X57.307 Y1.611 Z9.000
G0 X57.307 Y1.611 Z7.000
G1 X57.307 Y1.611 Z2.500 F200.000
G3 X58.205 Y2.596 Z2.500 I-0.100 J0.994 K0.000 F500.000
G1 X58.205 Y4.199 Z2.500 F500.000
G3 X57.215 Y5.189 Z2.500 I-0.999 J-0.009 K0.000 F500.000
G1 X55.675 Y5.189 Z2.500 F500.000
G3 X54.685 Y4.199 Z2.500 I0.009 J-0.999 K0.000 F500.000
G1 X54.685 Y2.596 Z2.500 F500.000
G3 X55.675 Y1.606 Z2.500 I0.999 J0.009 K0.000 F500.000
G1 X57.215 Y1.606 Z2.500 F500.000
G3 X57.307 Y1.611 Z2.500 I-0.009 J0.999 K0.000 F500.000
G0 Z9.000
G0 X64.046 Z9.000
G0 X64.046 Z7.000
G1 X64.046 Y1.611 Z2.500 F200.000
G1 X64.046 Y1.382 Z2.500 F500.000
G1 X64.463 Y1.382 Z2.500 F500.000
G1 X64.463 Y4.006 Z2.500 F500.000
G1 X63.992 Y4.487 Z2.500 F500.000
G2 X64.046 Y4.189 Z2.500 I-0.898 J-0.317 K0.000 F500.000
G1 X64.046 Y1.611 Z2.500 F500.000
G1 X64.046 Y1.611 Z2.000 F200.000
G1 X64.046 Y1.382 Z2.000 F500.000
G1 X64.463 Y1.382 Z2.000 F500.000
G1 X64.463 Y4.006 Z2.000 F500.000
G1 X63.992 Y4.487 Z2.000 F500.000
G2 X64.046 Y4.189 Z2.000 I-0.898 J-0.317 K0.000 F500.000
G1 X64.046 Y1.611 Z2.000 F500.000
G0 Z9.000
G0 X60.591 Z9.000
G0 X60.591 Z7.000
G1 X60.591 Y1.611 Z2.000 F200.000
G1 X60.591 Y4.228 Z2.000 F500.000
G2 X61.578 Y5.216 Z2.000 I0.996 J-0.009 K0.000 F500.000
G1 X63.020 Y5.216 Z2.000 F500.000
G2 X63.339 Y5.152 Z2.000 I0.037 J-0.650 K0.000 F500.000
G1 X62.981 Y5.518 Z2.000 F500.000
G1 X59.671 Y5.518 Z2.000 F500.000
G2 X58.674 Y6.514 Z2.000 I0.009 J1.006 K0.000 F500.000
G1 X58.674 Y8.012 Z2.000 F500.000
G2 X59.712 Y9.050 Z2.000 I1.047 J-0.010 K0.000 F500.000
G1 X62.546 Y9.050 Z2.000 F500.000
G1 X62.546 Y9.505 Z2.000 F500.000
G1 X58.181 Y9.505 Z2.000 F500.000
G2 X58.166 Y8.398 Z2.000 I-5.627 J-0.480 K0.000 F500.000
G2 X57.186 Y7.550 Z2.000 I-0.988 J0.151 K0.000 F500.000
G1 X56.187 Y7.550 Z2.000 F500.000
G1 X56.187 Y6.426 Z2.000 F500.000
G2 X55.202 Y5.441 Z2.000 I-0.994 J0.009 K0.000 F500.000
G1 X54.308 Y5.441 Z2.000 F500.000
G2 X54.278 Y4.443 Z2.000 I-3.479 J-0.393 K0.000 F500.000
G2 X52.807 Y3.973 Z2.000 I-0.880 J0.217 K0.000 F500.000
G1 X51.130 Y5.441 Z2.000 F500.000
G1 X50.360 Y5.441 Z2.000 F500.000
G1 X50.360 Y4.772 Z2.000 F500.000
G1 X51.995 Y3.107 Z2.000 F500.000
G1 X53.293 Y3.107 Z2.000 F500.000
G2 X54.308 Y2.091 Z2.000 I-0.010 J-1.025 K0.000 F500.000
G1 X54.308 Y-2.931 Z2.000 F500.000
G2 X53.293 Y-3.947 Z2.000 I-1.025 J0.010 K0.000 F500.000
G1 X51.995 Y-3.947 Z2.000 F500.000
G1 X50.360 Y-5.612 Z2.000 F500.000
G1 X50.360 Y-6.281 Z2.000 F500.000
G1 X51.130 Y-6.281 Z2.000 F500.000
G1 X52.807 Y-4.813 Z2.000 F500.000
G2 X54.308 Y-5.494 Z2.000 I0.596 J-0.681 K0.000 F500.000
G1 X54.308 Y-6.281 Z2.000 F500.000
G2 X55.348 Y-6.295 Z2.000 I0.447 J-5.287 K0.000 F500.000
G2 X56.187 Y-7.266 Z2.000 I-0.151 J-0.978 K0.000 F500.000
G1 X56.187 Y-8.391 Z2.000 F500.000
G2 X57.332 Y-8.406 Z2.000 I0.500 J-5.822 K0.000 F500.000
G2 X58.181 Y-9.386 Z2.000 I-0.151 J-0.988 K0.000 F500.000
G1 X58.181 Y-10.345 Z2.000 F500.000
G1 X62.546 Y-10.345 Z2.000 F500.000
G1 X62.546 Y-9.891 Z2.000 F500.000
G1 X59.712 Y-9.891 Z2.000 F500.000
G2 X58.674 Y-8.854 Z2.000 I0.010 J1.047 K0.000 F500.000
G1 X58.674 Y-7.354 Z2.000 F500.000
G2 X59.671 Y-6.358 Z2.000 I1.006 J-0.009 K0.000 F500.000
G1 X62.981 Y-6.358 Z2.000 F500.000
G1 X63.339 Y-5.993 Z2.000 F500.000
G2 X63.020 Y-6.056 Z2.000 I-0.336 J0.860 K0.000 F500.000
G1 X61.578 Y-6.056 Z2.000 F500.000
G2 X60.591 Y-5.068 Z2.000 I0.009 J0.996 K0.000 F500.000
G1 X60.591 Y1.611 Z2.000 F500.000
G0 Z9.000
G0 X59.091 Y0.974 Z9.000
G0 X59.091 Y0.974 Z7.000
G1 X59.091 Y0.974 Z2.000 F200.000
G2 X57.215 Y0.106 Z2.000 I-1.866 J1.573 K0.000 F500.000
G1 X55.808 Y0.106 Z2.000 F500.000
G1 X55.808 Y-0.946 Z2.000 F500.000
G1 X57.215 Y-0.946 Z2.000 F500.000
G2 X59.091 Y-1.818 Z2.000 I0.008 J-2.436 K0.000 F500.000
G1 X59.091 Y0.974 Z2.000 F500.000
G0 Z9.000
G0 X58.716 Y0.165 Z9.000
G0 X58.716 Y0.165 Z7.000
G1 X58.716 Y0.165 Z2.000 F200.000
G2 X57.215 Y-0.269 Z2.000 I-1.525 J2.462 K0.000 F500.000
G1 X56.183 Y-0.269 Z2.000 F500.000
G1 X56.183 Y-0.571 Z2.000 F500.000
G2 X57.727 Y-0.621 Z2.000 I0.516 J-7.862 K0.000 F500.000
G2 X58.716 Y-1.006 Z2.000 I-0.403 J-2.499 K0.000 F500.000
G1 X58.716 Y0.165 Z2.000 F500.000
G0 Z9.000
G0 X57.732 Y1.755 Z9.000
G0 X57.732 Y1.755 Z7.000
G1 X57.732 Y1.755 Z2.000 F200.000
G3 X58.205 Y2.596 Z2.000 I-0.526 J0.849 K0.000 F500.000
G1 X58.205 Y4.199 Z2.000 F500.000
G3 X57.215 Y5.189 Z2.000 I-0.999 J-0.009 K0.000 F500.000
G1 X55.675 Y5.189 Z2.000 F500.000
G3 X54.685 Y4.199 Z2.000 I0.009 J-0.999 K0.000 F500.000
G1 X54.685 Y2.596 Z2.000 F500.000
G3 X55.675 Y1.606 Z2.000 I0.999 J0.009 K0.000 F500.000
G1 X57.215 Y1.606 Z2.000 F500.000
G3 X57.732 Y1.755 Z2.000 I-0.009 J0.999 K0.000 F500.000
G0 Z9.000
G0 X57.307 Y-2.451 Z9.000
G0 X57.307 Y-2.451 Z7.000
G1 X57.307 Y-2.451 Z2.000 F200.000
G3 X57.215 Y-2.446 Z2.000 I-0.100 J-0.994 K0.000 F500.000
G1 X55.675 Y-2.446 Z2.000 F500.000
G3 X54.685 Y-3.436 Z2.000 I0.009 J-0.999 K0.000 F500.000
G1 X54.685 Y-5.039 Z2.000 F500.000
G3 X55.675 Y-6.029 Z2.000 I0.999 J0.009 K0.000 F500.000
G1 X57.215 Y-6.029 Z2.000 F500.000
G3 X58.205 Y-5.039 Z2.000 I-0.009 J0.999 K0.000 F500.000
G1 X58.205 Y-3.436 Z2.000 F500.000
G3 X57.307 Y-2.451 Z2.000 I-0.999 J-0.009 K0.000 F500.000
G0 Z9.000
G0 X64.046 Z9.000
G0 X64.046 Z7.000
G1 X64.046 Y-2.451 Z2.000 F200.000
G1 X64.046 Y-5.029 Z2.000 F500.000
G2 X63.993 Y-5.325 Z2.000 I-0.598 J-0.044 K0.000 F500.000
G1 X64.462 Y-4.846 Z2.000 F500.000
G1 X64.462 Y-2.224 Z2.000 F500.000
G1 X64.046 Y-2.224 Z2.000 F500.000
G1 X64.046 Y-2.451 Z2.000 F500.000
G0 Z9.000
G0 Z9.000
G0 X64.046 Y-2.451
G0 X-50.360 Y-4.772
G0 X-50.360 Y-4.772 Z7.000
G1 X-50.360 Y-4.772 Z3.250 F200.000
G1 X-51.995 Y-3.107 Z3.250 F500.000
G1 X-53.293 Y-3.107 Z3.250 F500.000
G2 X-54.308 Y-2.091 Z3.250 I0.010 J1.025 K0.000 F500.000
G1 X-54.308 Y2.931 Z3.250 F500.000
G2 X-53.293 Y3.947 Z3.250 I1.025 J-0.010 K0.000 F500.000
G1 X-51.995 Y3.947 Z3.250 F500.000
G1 X-50.360 Y5.612 Z3.250 F500.000
G1 X-50.360 Y6.281 Z3.250 F500.000
G1 X-51.130 Y6.281 Z3.250 F500.000
G1 X-52.807 Y4.813 Z3.250 F500.000
G2 X-54.308 Y5.494 Z3.250 I-0.596 J0.681 K0.000 F500.000
G1 X-54.308 Y6.281 Z3.250 F500.000
G2 X-55.348 Y6.295 Z3.250 I-0.447 J5.287 K0.000 F500.000
G2 X-56.187 Y7.266 Z3.250 I0.151 J0.978 K0.000 F500.000
G1 X-56.187 Y8.391 Z3.250 F500.000
G2 X-57.332 Y8.406 Z3.250 I-0.500 J5.822 K0.000 F500.000
G2 X-58.181 Y9.386 Z3.250 I0.151 J0.988 K0.000 F500.000
G1 X-58.181 Y10.345 Z3.250 F500.000
G1 X-62.546 Y10.345 Z3.250 F500.000
G1 X-62.546 Y9.891 Z3.250 F500.000
G1 X-59.712 Y9.891 Z3.250 F500.000
G2 X-58.674 Y8.854 Z3.250 I-0.010 J-1.047 K0.000 F500.000
G1 X-58.674 Y7.354 Z3.250 F500.000
G2 X-59.671 Y6.358 Z3.250 I-1.006 J0.009 K0.000 F500.000
G1 X-62.981 Y6.358 Z3.250 F500.000
G1 X-63.339 Y5.993 Z3.250 F500.000
G2 X-63.020 Y6.056 Z3.250 I0.336 J-0.860 K0.000 F500.000
G1 X-61.578 Y6.056 Z3.250 F500.000
G2 X-60.591 Y5.068 Z3.250 I-0.009 J-0.996 K0.000 F500.000
G1 X-60.591 Y-4.228 Z3.250 F500.000
G2 X-61.578 Y-5.216 Z3.250 I-0.996 J0.009 K0.000 F500.000
G1 X-63.020 Y-5.216 Z3.250 F500.000
G2 X-63.339 Y-5.152 Z3.250 I-0.037 J0.650 K0.000 F500.000
G1 X-62.981 Y-5.518 Z3.250 F500.000
G1 X-59.671 Y-5.518 Z3.250 F500.000
G2 X-58.674 Y-6.514 Z3.250 I-0.009 J-1.006 K0.000 F500.000
G1 X-58.674 Y-8.012 Z3.250 F500.000
G2 X-59.712 Y-9.050 Z3.250 I-1.047 J0.010 K0.000 F500.000
G1 X-62.546 Y-9.050 Z3.250 F500.000
G1 X-62.546 Y-9.505 Z3.250 F500.000
G1 X-58.181 Y-9.505 Z3.250 F500.000
G2 X-58.166 Y-8.398 Z3.250 I5.628 J0.480 K0.000 F500.000
G2 X-57.186 Y-7.550 Z3.250 I0.988 J-0.151 K0.000 F500.000
G1 X-56.187 Y-7.550 Z3.250 F500.000
G1 X-56.187 Y-6.426 Z3.250 F500.000
G2 X-55.202 Y-5.441 Z3.250 I0.994 J-0.009 K0.000 F500.000
G1 X-54.308 Y-5.441 Z3.250 F500.000
G2 X-54.278 Y-4.443 Z3.250 I3.479 J0.393 K0.000 F500.000
G2 X-52.807 Y-3.973 Z3.250 I0.880 J-0.217 K0.000 F500.000
G1 X-51.130 Y-5.441 Z3.250 F500.000
G1 X-50.360 Y-5.441 Z3.250 F500.000
G1 X-50.360 Y-4.772 Z3.250 F500.000
G0 Z9.000
G0 X-54.691 Y-4.299 Z9.000
G0 X-54.691 Y-4.299 Z7.000
G1 X-54.691 Y-4.299 Z3.250 F200.000
G3 X-54.685 Y-4.199 Z3.250 I-0.993 J0.109 K0.000 F500.000
G1 X-54.685 Y-2.596 Z3.250 F500.000
G3 X-55.675 Y-1.606 Z3.250 I-0.999 J-0.009 K0.000 F500.000
G1 X-57.215 Y-1.606 Z3.250 F500.000
G3 X-58.205 Y-2.596 Z3.250 I0.009 J-0.999 K0.000 F500.000
G1 X-58.205 Y-4.199 Z3.250 F500.000
G3 X-57.215 Y-5.189 Z3.250 I0.999 J0.009 K0.000 F500.000
G1 X-55.675 Y-5.189 Z3.250 F500.000
G3 X-54.691 Y-4.299 Z3.250 I-0.009 J0.999 K0.000 F500.000
G0 Z9.000
G0 X-55.808 Y-0.106 Z9.000
G0 X-55.808 Y-0.106 Z7.000
G1 X-55.808 Y-0.106 Z3.250 F200.000
G1 X-55.808 Y0.946 Z3.250 F500.000
G1 X-57.215 Y0.946 Z3.250 F500.000
G2 X-59.091 Y1.818 Z3.250 I-0.008 J2.436 K0.000 F500.000
G1 X-59.091 Y-0.974 Z3.250 F500.000
G2 X-57.215 Y-0.106 Z3.250 I1.866 J-1.573 K0.000 F500.000
G1 X-55.808 Y-0.106 Z3.250 F500.000
G0 Z9.000
G0 X-56.183 Y0.269 Z9.000
G0 X-56.183 Y0.269 Z7.000
G1 X-56.183 Y0.269 Z3.250 F200.000
G1 X-56.183 Y0.571 Z3.250 F500.000
G2 X-57.727 Y0.621 Z3.250 I-0.516 J7.862 K0.000 F500.000
G2 X-58.716 Y1.006 Z3.250 I0.403 J2.499 K0.000 F500.000
G1 X-58.716 Y-0.165 Z3.250 F500.000
G2 X-57.215 Y0.269 Z3.250 I1.525 J-2.462 K0.000 F500.000
G1 X-56.183 Y0.269 Z3.250 F500.000
G0 Z9.000
G0 Y2.446 Z9.000
G0 Y2.446 Z7.000
G1 X-56.183 Y2.446 Z3.250 F200.000
G1 X-55.675 Y2.446 Z3.250 F500.000
G3 X-54.685 Y3.436 Z3.250 I-0.009 J0.999 K0.000 F500.000
G1 X-54.685 Y5.039 Z3.250 F500.000
G3 X-55.675 Y6.029 Z3.250 I-0.999 J-0.009 K0.000 F500.000
G1 X-57.215 Y6.029 Z3.250 F500.000
G3 X-58.205 Y5.039 Z3.250 I0.009 J-0.999 K0.000 F500.000
G1 X-58.205 Y3.436 Z3.250 F500.000
G3 X-57.215 Y2.446 Z3.250 I0.999 J0.009 K0.000 F500.000
G1 X-56.183 Y2.446 Z3.250 F500.000
G0 Z9.000
G0 X-64.046 Z9.000
G0 X-64.046 Z7.000
G1 X-64.046 Y2.446 Z3.250 F200.000
G1 X-64.046 Y5.029 Z3.250 F500.000
G2 X-63.993 Y5.325 Z3.250 I0.598 J0.044 K0.000 F500.000
G1 X-64.462 Y4.846 Z3.250 F500.000
G1 X-64.462 Y2.224 Z3.250 F500.000
G1 X-64.046 Y2.224 Z3.250 F500.000
G1 X-64.046 Y2.446 Z3.250 F500.000
G0 Z9.000
G0 Y-1.382 Z9.000
G0 Y-1.382 Z7.000
G1 X-64.046 Y-1.382 Z3.250 F200.000
G1 X-64.463 Y-1.382 Z3.250 F500.000
G1 X-64.463 Y-4.006 Z3.250 F500.000
G1 X-63.992 Y-4.487 Z3.250 F500.000
G2 X-64.046 Y-4.189 Z3.250 I0.898 J0.317 K0.000 F500.000
G1 X-64.046 Y-1.382 Z3.250 F500.000
G1 X-64.046 Y-1.382 Z2.500 F200.000
G1 X-64.463 Y-1.382 Z2.500 F500.000
G1 X-64.463 Y-4.006 Z2.500 F500.000
G1 X-63.992 Y-4.487 Z2.500 F500.000
G2 X-64.046 Y-4.189 Z2.500 I0.898 J0.317 K0.000 F500.000
G1 X-64.046 Y-1.382 Z2.500 F500.000
G0 Z9.000
G0 X-60.591 Z9.000
G0 X-60.591 Z7.000
G1 X-60.591 Y-1.382 Z2.500 F200.000
G1 X-60.591 Y-4.228 Z2.500 F500.000
G2 X-61.578 Y-5.216 Z2.500 I-0.996 J0.009 K0.000 F500.000
G1 X-63.020 Y-5.216 Z2.500 F500.000
G2 X-63.339 Y-5.152 Z2.500 I-0.037 J0.650 K0.000 F500.000
G1 X-62.981 Y-5.518 Z2.500 F500.000
G1 X-59.671 Y-5.518 Z2.500 F500.000
G2 X-58.674 Y-6.514 Z2.500 I-0.009 J-1.006 K0.000 F500.000
G1 X-58.674 Y-8.012 Z2.500 F500.000
G2 X-59.712 Y-9.050 Z2.500 I-1.047 J0.010 K0.000 F500.000
G1 X-62.546 Y-9.050 Z2.500 F500.000
G1 X-62.546 Y-9.505 Z2.500 F500.000
G1 X-58.181 Y-9.505 Z2.500 F500.000
G2 X-58.166 Y-8.398 Z2.500 I5.628 J0.480 K0.000 F500.000
G2 X-57.186 Y-7.550 Z2.500 I0.988 J-0.151 K0.000 F500.000
G1 X-56.187 Y-7.550 Z2.500 F500.000
G1 X-56.187 Y-6.426 Z2.500 F500.000
G2 X-55.202 Y-5.441 Z2.500 I0.994 J-0.009 K0.000 F500.000
G1 X-54.308 Y-5.441 Z2.500 F500.000
G2 X-54.278 Y-4.443 Z2.500 I3.479 J0.393 K0.000 F500.000
G2 X-52.807 Y-3.973 Z2.500 I0.880 J-0.217 K0.000 F500.000
G1 X-51.130 Y-5.441 Z2.500 F500.000
G1 X-50.360 Y-5.441 Z2.500 F500.000
G1 X-50.360 Y-4.772 Z2.500 F500.000
G1 X-51.995 Y-3.107 Z2.500 F500.000
G1 X-53.293 Y-3.107 Z2.500 F500.000
G2 X-54.308 Y-2.091 Z2.500 I0.010 J1.025 K0.000 F500.000
G1 X-54.308 Y2.931 Z2.500 F500.000
G2 X-53.293 Y3.947 Z2.500 I1.025 J-0.010 K0.000 F500.000
G1 X-51.995 Y3.947 Z2.500 F500.000
G1 X-50.360 Y5.612 Z2.500 F500.000
G1 X-50.360 Y6.281 Z2.500 F500.000
G1 X-51.130 Y6.281 Z2.500 F500.000
G1 X-52.807 Y4.813 Z2.500 F500.000
G2 X-54.308 Y5.494 Z2.500 I-0.596 J0.681 K0.000 F500.000
G1 X-54.308 Y6.281 Z2.500 F500.000
G2 X-55.348 Y6.295 Z2.500 I-0.447 J5.287 K0.000 F500.000
G2 X-56.187 Y7.266 Z2.500 I0.151 J0.978 K0.000 F500.000
G1 X-56.187 Y8.391 Z2.500 F500.000
G2 X-57.332 Y8.406 Z2.500 I-0.500 J5.822 K0.000 F500.000
G2 X-58.181 Y9.386 Z2.500 I0.151 J0.988 K0.000 F500.000
G1 X-58.181 Y10.345 Z2.500 F500.000
G1 X-62.546 Y10.345 Z2.500 F500.000
G1 X-62.546 Y9.891 Z2.500 F500.000
G1 X-59.712 Y9.891 Z2.500 F500.000
G2 X-58.674 Y8.854 Z2.500 I-0.010 J-1.047 K0.000 F500.000
G1 X-58.674 Y7.354 Z2.500 F500.000
G2 X-59.671 Y6.358 Z2.500 I-1.006 J0.009 K0.000 F500.000
G1 X-62.981 Y6.358 Z2.500 F500.000
G1 X-63.339 Y5.993 Z2.500 F500.000
G2 X-63.020 Y6.056 Z2.500 I0.336 J-0.860 K0.000 F500.000
G1 X-61.578 Y6.056 Z2.500 F500.000
G2 X-60.591 Y5.068 Z2.500 I-0.009 J-0.996 K0.000 F500.000
G1 X-60.591 Y-1.382 Z2.500 F500.000
G0 Z9.000
G0 X-59.091 Y-0.974 Z9.000
G0 X-59.091 Y-0.974 Z7.000
G1 X-59.091 Y-0.974 Z2.500 F200.000
G2 X-57.215 Y-0.106 Z2.500 I1.866 J-1.573 K0.000 F500.000
G1 X-55.808 Y-0.106 Z2.500 F500.000
G1 X-55.808 Y0.946 Z2.500 F500.000
G1 X-57.215 Y0.946 Z2.500 F500.000
G2 X-59.091 Y1.818 Z2.500 I-0.008 J2.436 K0.000 F500.000
G1 X-59.091 Y-0.974 Z2.500 F500.000
G0 Z9.000
G0 X-58.716 Y-0.165 Z9.000
G0 X-58.716 Y-0.165 Z7.000
G1 X-58.716 Y-0.165 Z2.500 F200.000
G2 X-57.215 Y0.269 Z2.500 I1.525 J-2.462 K0.000 F500.000
G1 X-56.183 Y0.269 Z2.500 F500.000
G1 X-56.183 Y0.571 Z2.500 F500.000
G2 X-57.727 Y0.621 Z2.500 I-0.516 J7.862 K0.000 F500.000
G2 X-58.716 Y1.006 Z2.500 I0.403 J2.499 K0.000 F500.000
G1 X-58.716 Y-0.165 Z2.500 F500.000
G0 Z9.000
G0 X-57.732 Y-1.755 Z9.000
G0 X-57.732 Y-1.755 Z7.000
G1 X-57.732 Y-1.755 Z2.500 F200.000
G3 X-58.205 Y-2.596 Z2.500 I0.526 J-0.849 K0.000 F500.000
G1 X-58.205 Y-4.199 Z2.500 F500.000
G3 X-57.215 Y-5.189 Z2.500 I0.999 J0.009 K0.000 F500.000
G1 X-55.675 Y-5.189 Z2.500 F500.000
G3 X-54.685 Y-4.199 Z2.500 I-0.009 J0.999 K0.000 F500.000
G1 X-54.685 Y-2.596 Z2.500 F500.000
G3 X-55.675 Y-1.606 Z2.500 I-0.999 J-0.009 K0.000 F500.000
G1 X-57.215 Y-1.606 Z2.500 F500.000
G3 X-57.732 Y-1.755 Z2.500 I0.009 J-0.999 K0.000 F500.000
G0 Z9.000
G0 X-57.307 Y2.451 Z9.000
G0 X-57.307 Y2.451 Z7.000
G1 X-57.307 Y2.451 Z2.500 F200.000
G3 X-57.215 Y2.446 Z2.500 I0.100 J0.994 K0.000 F500.000
G1 X-55.675 Y2.446 Z2.500 F500.000
G3 X-54.685 Y3.436 Z2.500 I-0.009 J0.999 K0.000 F500.000
G1 X-54.685 Y5.039 Z2.500 F500.000
G3 X-55.675 Y6.029 Z2.500 I-0.999 J-0.009 K0.000 F500.000
G1 X-57.215 Y6.029 Z2.500 F500.000
G3 X-58.205 Y5.039 Z2.500 I0.009 J-0.999 K0.000 F500.000
G1 X-58.205 Y3.436 Z2.500 F500.000
G3 X-57.307 Y2.451 Z2.500 I0.999 J0.009 K0.000 F500.000
G0 Z9.000
G0 X-64.046 Z9.000
G0 X-64.046 Z7.000
G1 X-64.046 Y2.451 Z2.500 F200.000
G1 X-64.046 Y5.029 Z2.500 F500.000
G2 X-63.993 Y5.325 Z2.500 I0.598 J0.044 K0.000 F500.000
G1 X-64.462 Y4.846 Z2.500 F500.000
G1 X-64.462 Y2.224 Z2.500 F500.000
G1 X-64.046 Y2.224 Z2.500 F500.000
G1 X-64.046 Y2.451 Z2.500 F500.000
G1 X-64.046 Y2.451 Z2.000 F200.000
G1 X-64.046 Y5.029 Z2.000 F500.000
G2 X-63.993 Y5.325 Z2.000 I0.598 J0.044 K0.000 F500.000
G1 X-64.462 Y4.846 Z2.000 F500.000
G1 X-64.462 Y2.224 Z2.000 F500.000
G1 X-64.046 Y2.224 Z2.000 F500.000
G1 X-64.046 Y2.451 Z2.000 F500.000
G0 Z9.000
G0 X-60.591 Z9.000
G0 X-60.591 Z7.000
G1 X-60.591 Y2.451 Z2.000 F200.000
G1 X-60.591 Y-4.228 Z2.000 F500.000
G2 X-61.578 Y-5.216 Z2.000 I-0.996 J0.009 K0.000 F500.000
G1 X-63.020 Y-5.216 Z2.000 F500.000
G2 X-63.339 Y-5.152 Z2.000 I-0.037 J0.650 K0.000 F500.000
G1 X-62.981 Y-5.518 Z2.000 F500.000
G1 X-59.671 Y-5.518 Z2.000 F500.000
G2 X-58.674 Y-6.514 Z2.000 I-0.009 J-1.006 K0.000 F500.000
G1 X-58.674 Y-8.012 Z2.000 F500.000
G2 X-59.712 Y-9.050 Z2.000 I-1.047 J0.010 K0.000 F500.000
G1 X-62.546 Y-9.050 Z2.000 F500.000
G1 X-62.546 Y-9.505 Z2.000 F500.000
G1 X-58.181 Y-9.505 Z2.000 F500.000
G2 X-58.166 Y-8.398 Z2.000 I5.628 J0.480 K0.000 F500.000
G2 X-57.186 Y-7.550 Z2.000 I0.988 J-0.151 K0.000 F500.000
G1 X-56.187 Y-7.550 Z2.000 F500.000
G1 X-56.187 Y-6.426 Z2.000 F500.000
G2 X-55.202 Y-5.441 Z2.000 I0.994 J-0.009 K0.000 F500.000
G1 X-54.308 Y-5.441 Z2.000 F500.000
G2 X-54.278 Y-4.443 Z2.000 I3.479 J0.393 K0.000 F500.000
G2 X-52.807 Y-3.973 Z2.000 I0.880 J-0.217 K0.000 F500.000
G1 X-51.130 Y-5.441 Z2.000 F500.000
G1 X-50.360 Y-5.441 Z2.000 F500.000
G1 X-50.360 Y-4.772 Z2.000 F500.000
G1 X-51.995 Y-3.107 Z2.000 F500.000
G1 X-53.293 Y-3.107 Z2.000 F500.000
G2 X-54.308 Y-2.091 Z2.000 I0.010 J1.025 K0.000 F500.000
G1 X-54.308 Y2.931 Z2.000 F500.000
G2 X-53.293 Y3.947 Z2.000 I1.025 J-0.010 K0.000 F500.000
G1 X-51.995 Y3.947 Z2.000 F500.000
G1 X-50.360 Y5.612 Z2.000 F500.000
G1 X-50.360 Y6.281 Z2.000 F500.000
G1 X-51.130 Y6.281 Z2.000 F500.000
G1 X-52.807 Y4.813 Z2.000 F500.000
G2 X-54.308 Y5.494 Z2.000 I-0.596 J0.681 K0.000 F500.000
G1 X-54.308 Y6.281 Z2.000 F500.000
G2 X-55.348 Y6.295 Z2.000 I-0.447 J5.287 K0.000 F500.000
G2 X-56.187 Y7.266 Z2.000 I0.151 J0.978 K0.000 F500.000
G1 X-56.187 Y8.391 Z2.000 F500.000
G2 X-57.332 Y8.406 Z2.000 I-0.500 J5.822 K0.000 F500.000
G2 X-58.181 Y9.386 Z2.000 I0.151 J0.988 K0.000 F500.000
G1 X-58.181 Y10.345 Z2.000 F500.000
G1 X-62.546 Y10.345 Z2.000 F500.000
G1 X-62.546 Y9.891 Z2.000 F500.000
G1 X-59.712 Y9.891 Z2.000 F500.000
G2 X-58.674 Y8.854 Z2.000 I-0.010 J-1.047 K0.000 F500.000
G1 X-58.674 Y7.354 Z2.000 F500.000
G2 X-59.671 Y6.358 Z2.000 I-1.006 J0.009 K0.000 F500.000
G1 X-62.981 Y6.358 Z2.000 F500.000
G1 X-63.339 Y5.993 Z2.000 F500.000
G2 X-63.020 Y6.056 Z2.000 I0.336 J-0.860 K0.000 F500.000
G1 X-61.578 Y6.056 Z2.000 F500.000
G2 X-60.591 Y5.068 Z2.000 I-0.009 J-0.996 K0.000 F500.000
G1 X-60.591 Y2.451 Z2.000 F500.000
G0 Z9.000
G0 X-59.091 Y1.818 Z9.000
G0 X-59.091 Y1.818 Z7.000
G1 X-59.091 Y1.818 Z2.000 F200.000
G1 X-59.091 Y-0.974 Z2.000 F500.000
G2 X-57.215 Y-0.106 Z2.000 I1.866 J-1.573 K0.000 F500.000
G1 X-55.808 Y-0.106 Z2.000 F500.000
G1 X-55.808 Y0.946 Z2.000 F500.000
G1 X-57.215 Y0.946 Z2.000 F500.000
G2 X-59.091 Y1.818 Z2.000 I-0.008 J2.436 K0.000 F500.000
G0 Z9.000
G0 X-58.716 Y1.006 Z9.000
G0 X-58.716 Y1.006 Z7.000
G1 X-58.716 Y1.006 Z2.000 F200.000
G1 X-58.716 Y-0.165 Z2.000 F500.000
G2 X-57.215 Y0.269 Z2.000 I1.525 J-2.462 K0.000 F500.000
G1 X-56.183 Y0.269 Z2.000 F500.000
G1 X-56.183 Y0.571 Z2.000 F500.000
G2 X-57.727 Y0.621 Z2.000 I-0.516 J7.862 K0.000 F500.000
G2 X-58.716 Y1.006 Z2.000 I0.403 J2.499 K0.000 F500.000
G0 Z9.000
G0 X-57.732 Y2.596 Z9.000
G0 X-57.732 Y2.596 Z7.000
G1 X-57.732 Y2.596 Z2.000 F200.000
G3 X-57.215 Y2.446 Z2.000 I0.526 J0.849 K0.000 F500.000
G1 X-55.675 Y2.446 Z2.000 F500.000
G3 X-54.685 Y3.436 Z2.000 I-0.009 J0.999 K0.000 F500.000
G1 X-54.685 Y5.039 Z2.000 F500.000
G3 X-55.675 Y6.029 Z2.000 I-0.999 J-0.009 K0.000 F500.000
G1 X-57.215 Y6.029 Z2.000 F500.000
G3 X-58.205 Y5.039 Z2.000 I0.009 J-0.999 K0.000 F500.000
G1 X-58.205 Y3.436 Z2.000 F500.000
G3 X-57.732 Y2.596 Z2.000 I0.999 J0.009 K0.000 F500.000
G0 Z9.000
G0 X-57.307 Y-1.611 Z9.000
G0 X-57.307 Y-1.611 Z7.000
G1 X-57.307 Y-1.611 Z2.000 F200.000
G3 X-58.205 Y-2.596 Z2.000 I0.100 J-0.994 K0.000 F500.000
G1 X-58.205 Y-4.199 Z2.000 F500.000
G3 X-57.215 Y-5.189 Z2.000 I0.999 J0.009 K0.000 F500.000
G1 X-55.675 Y-5.189 Z2.000 F500.000
G3 X-54.685 Y-4.199 Z2.000 I-0.009 J0.999 K0.000 F500.000
G1 X-54.685 Y-2.596 Z2.000 F500.000
G3 X-55.675 Y-1.606 Z2.000 I-0.999 J-0.009 K0.000 F500.000
G1 X-57.215 Y-1.606 Z2.000 F500.000
G3 X-57.307 Y-1.611 Z2.000 I0.009 J-0.999 K0.000 F500.000
G0 Z9.000
G0 X-64.046 Z9.000
G0 X-64.046 Z7.000
G1 X-64.046 Y-1.611 Z2.000 F200.000
G1 X-64.046 Y-1.382 Z2.000 F500.000
G1 X-64.463 Y-1.382 Z2.000 F500.000
G1 X-64.463 Y-4.006 Z2.000 F500.000
G1 X-63.992 Y-4.487 Z2.000 F500.000
G2 X-64.046 Y-4.189 Z2.000 I0.898 J0.317 K0.000 F500.000
G1 X-64.046 Y-1.611 Z2.000 F500.000
G0 Z9.000
G0 Z9.000
(Finish operation: Pocket_Shape001)
(Begin operation: Pocket_Shape002)
(Path: Pocket_Shape002)
(Pocket_Shape002)
G0 Z9.000
G0 X-40.614 Y-31.847
G0 Z7.000
G1 X-40.614 Y-31.847 Z3.250 F200.000
G1 X-40.946 Y-31.516 Z3.250 F500.000
G1 X-41.521 Y-32.092 Z3.250 F500.000
G1 X-41.521 Y-33.962 Z3.250 F500.000
G2 X-43.229 Y-34.669 Z3.250 I-1.003 J0.008 K0.000 F500.000
G1 X-43.679 Y-34.218 Z3.250 F500.000
G2 X-44.344 Y-34.861 Z3.250 I-3.600 J3.049 K0.000 F500.000
G2 X-45.644 Y-34.768 Z3.250 I-0.596 J0.809 K0.000 F500.000
G1 X-46.658 Y-33.754 Z3.250 F500.000
G2 X-46.658 Y-32.340 Z3.250 I0.720 J0.707 K0.000 F500.000
G1 X-44.716 Y-30.397 Z3.250 F500.000
G1 X-44.981 Y-30.132 Z3.250 F500.000
G1 X-49.202 Y-34.352 Z3.250 F500.000
G2 X-48.490 Y-35.085 Z3.250 I-3.362 J-3.981 K0.000 F500.000
G2 X-48.583 Y-36.385 Z3.250 I-0.809 J-0.596 K0.000 F500.000
G1 X-49.150 Y-36.953 Z3.250 F500.000
G2 X-48.630 Y-37.502 Z3.250 I-2.060 J-2.471 K0.000 F500.000
G2 X-49.446 Y-39.071 Z3.250 I-0.822 J-0.569 K0.000 F500.000
G1 X-51.396 Y-39.071 Z3.250 F500.000
G1 X-51.940 Y-39.614 Z3.250 F500.000
G1 X-51.568 Y-39.985 Z3.250 F500.000
G2 X-50.868 Y-39.306 Z3.250 I3.798 J-3.212 K0.000 F500.000
G2 X-49.568 Y-39.399 Z3.250 I0.596 J-0.809 K0.000 F500.000
G1 X-48.867 Y-40.100 Z3.250 F500.000
G2 X-48.028 Y-39.282 Z3.250 I4.573 J-3.848 K0.000 F500.000
G2 X-46.728 Y-39.375 Z3.250 I0.596 J-0.809 K0.000 F500.000
G1 X-39.375 Y-46.728 Z3.250 F500.000
G2 X-39.375 Y-48.142 Z3.250 I-0.720 J-0.707 K0.000 F500.000
G1 X-40.100 Y-48.867 Z3.250 F500.000
G2 X-39.306 Y-49.682 Z3.250 I-3.738 J-4.439 K0.000 F500.000
G2 X-39.399 Y-50.982 Z3.250 I-0.809 J-0.596 K0.000 F500.000
G1 X-39.985 Y-51.568 Z3.250 F500.000
G1 X-39.614 Y-51.940 Z3.250 F500.000
G1 X-39.071 Y-51.396 Z3.250 F500.000
G1 X-39.071 Y-49.446 Z3.250 F500.000
G2 X-37.363 Y-48.739 Z3.250 I1.003 J-0.008 K0.000 F500.000
G1 X-36.953 Y-49.150 Z3.250 F500.000
G2 X-36.272 Y-48.490 Z3.250 I3.694 J-3.127 K0.000 F500.000
G2 X-34.971 Y-48.583 Z3.250 I0.596 J-0.809 K0.000 F500.000
G1 X-34.352 Y-49.202 Z3.250 F500.000
G1 X-30.132 Y-44.981 Z3.250 F500.000
G1 X-30.375 Y-44.738 Z3.250 F500.000
G1 X-32.317 Y-46.680 Z3.250 F500.000
G2 X-33.731 Y-46.680 Z3.250 I-0.707 J0.720 K0.000 F500.000
G1 X-34.725 Y-45.686 Z3.250 F500.000
G2 X-34.725 Y-44.272 Z3.250 I0.720 J0.707 K0.000 F500.000
G1 X-34.175 Y-43.722 Z3.250 F500.000
G2 X-34.782 Y-43.086 Z3.250 I2.389 J2.886 K0.000 F500.000
G2 X-33.973 Y-41.517 Z3.250 I0.821 J0.570 K0.000 F500.000
G1 X-33.553 Y-41.514 Z3.250 F500.000
G2 X-33.713 Y-41.390 Z3.250 I0.551 J0.875 K0.000 F500.000
G1 X-34.361 Y-40.743 Z3.250 F500.000
G2 X-35.164 Y-41.526 Z3.250 I-4.377 J3.687 K0.000 F500.000
G2 X-36.465 Y-41.432 Z3.250 I-0.596 J0.809 K0.000 F500.000
G1 X-41.432 Y-36.465 Z3.250 F500.000
G2 X-41.432 Y-35.051 Z3.250 I0.720 J0.707 K0.000 F500.000
G1 X-40.747 Y-34.366 Z3.250 F500.000
G2 X-41.326 Y-33.767 Z3.250 I2.753 J3.238 K0.000 F500.000
G2 X-41.233 Y-32.466 Z3.250 I0.809 J0.596 K0.000 F500.000
G1 X-40.614 Y-31.847 Z3.250 F500.000
G0 Z9.000
G0 X-42.966 Y-35.351 Z9.000
G0 X-42.966 Y-35.351 Z7.000
G1 X-42.966 Y-35.351 Z3.250 F200.000
G3 X-44.236 Y-35.469 Z3.250 I-0.562 J-0.838 K0.000 F500.000
G1 X-45.207 Y-36.440 Z3.250 F500.000
G3 X-45.207 Y-37.854 Z3.250 I0.720 J-0.707 K0.000 F500.000
G1 X-44.368 Y-38.693 Z3.250 F500.000
G3 X-43.902 Y-38.953 Z3.250 I0.750 J0.798 K0.000 F500.000
G3 X-42.953 Y-38.693 Z3.250 I0.242 J0.980 K0.000 F500.000
G1 X-41.983 Y-37.722 Z3.250 F500.000
G3 X-41.983 Y-36.308 Z3.250 I-0.720 J0.707 K0.000 F500.000
G1 X-42.822 Y-35.469 Z3.250 F500.000
G3 X-42.966 Y-35.351 Z3.250 I-0.707 J-0.720 K0.000 F500.000
G0 Z9.000
G0 X-46.643 Y-35.880 Z9.000
G0 X-46.643 Y-35.880 Z7.000
G1 X-46.643 Y-35.880 Z3.250 F200.000
G2 X-46.798 Y-35.736 Z3.250 I0.654 J0.860 K0.000 F500.000
G2 X-47.189 Y-37.024 Z3.250 I-2.351 J0.009 K0.000 F500.000
G2 X-46.990 Y-37.626 Z3.250 I-1.386 J-0.790 K0.000 F500.000
G1 X-46.947 Y-37.635 Z3.250 F500.000
G2 X-46.643 Y-35.880 Z3.250 I2.398 J0.489 K0.000 F500.000
G0 Z9.000
G0 X-43.509 Y-40.473 Z9.000
G0 X-43.509 Y-40.473 Z7.000
G1 X-43.509 Y-40.473 Z3.250 F200.000
G1 X-40.470 Y-43.512 Z3.250 F500.000
G2 X-39.754 Y-41.893 Z3.250 I2.400 J-0.093 K0.000 F500.000
G1 X-38.940 Y-41.079 Z3.250 F500.000
G1 X-41.079 Y-38.940 Z3.250 F500.000
G2 X-42.234 Y-40.034 Z3.250 I-6.130 J5.316 K0.000 F500.000
G2 X-43.509 Y-40.473 Z3.250 I-1.387 J1.957 K0.000 F500.000
G0 Z9.000
G0 X-42.754 Y-40.697 Z9.000
G0 X-42.754 Y-40.697 Z7.000
G1 X-42.754 Y-40.697 Z3.250 F200.000
G1 X-40.703 Y-42.748 Z3.250 F500.000
G2 X-40.019 Y-41.628 Z3.250 I2.733 J-0.898 K0.000 F500.000
G1 X-39.470 Y-41.079 Z3.250 F500.000
G1 X-41.079 Y-39.470 Z3.250 F500.000
G2 X-42.025 Y-40.345 Z3.250 I-4.917 J4.368 K0.000 F500.000
G2 X-42.754 Y-40.697 Z3.250 I-1.183 J1.519 K0.000 F500.000
G0 Z9.000
G0 X-42.098 Y-40.823 Z9.000
G0 X-42.098 Y-40.823 Z7.000
G1 X-42.098 Y-40.823 Z3.250 F200.000
G2 X-40.817 Y-42.104 Z3.250 I-4103453.553 J-4103454.834 K0.000 F500.000
G2 X-40.000 Y-41.079 Z3.250 I2.707 J-1.317 K0.000 F500.000
G1 X-41.079 Y-40.000 Z3.250 F500.000
G2 X-42.098 Y-40.823 Z3.250 I-2.597 J2.176 K0.000 F500.000
G0 Z9.000
G0 X-41.506 Y-40.885 Z9.000
G0 X-41.506 Y-40.885 Z7.000
G1 X-41.506 Y-40.885 Z3.250 F200.000
G2 X-40.885 Y-41.506 Z3.250 I-964755.282 J-964755.903 K0.000 F500.000
G2 X-40.531 Y-41.079 Z3.250 I2.345 J-1.583 K0.000 F500.000
G1 X-41.079 Y-40.531 Z3.250 F500.000
G2 X-41.506 Y-40.885 Z3.250 I-2.010 J1.991 K0.000 F500.000
G0 Z9.000
G0 X-38.767 Y-43.037 Z9.000
G0 X-38.767 Y-43.037 Z7.000
G1 X-38.767 Y-43.037 Z3.250 F200.000
G3 X-38.693 Y-44.368 Z3.250 I0.794 J-0.624 K0.000 F500.000
G1 X-37.854 Y-45.207 Z3.250 F500.000
G3 X-37.389 Y-45.466 Z3.250 I0.750 J0.798 K0.000 F500.000
G3 X-36.440 Y-45.207 Z3.250 I0.242 J0.980 K0.000 F500.000
G1 X-35.469 Y-44.236 Z3.250 F500.000
G3 X-35.469 Y-42.822 Z3.250 I-0.720 J0.707 K0.000 F500.000
G1 X-36.308 Y-41.983 Z3.250 F500.000
G3 X-37.722 Y-41.983 Z3.250 I-0.707 J-0.720 K0.000 F500.000
G1 X-38.693 Y-42.953 Z3.250 F500.000
G3 X-38.767 Y-43.037 Z3.250 I0.720 J-0.707 K0.000 F500.000
G0 Z9.000
G0 X-37.635 Y-46.947 Z9.000
G0 X-37.635 Y-46.947 Z7.000
G1 X-37.635 Y-46.947 Z3.250 F200.000
G2 X-37.625 Y-46.999 Z3.250 I-0.277 J-0.081 K0.000 F500.000
G2 X-37.014 Y-47.183 Z3.250 I-0.133 J-1.544 K0.000 F500.000
G2 X-35.739 Y-46.794 Z3.250 I1.345 J-2.123 K0.000 F500.000
G2 X-35.873 Y-46.640 Z3.250 I0.712 J0.759 K0.000 F500.000
G2 X-37.635 Y-46.947 Z3.250 I-1.273 J2.102 K0.000 F500.000
G0 Z9.000
G0 X-32.448 Y-41.507 Z9.000
G0 X-32.448 Y-41.507 Z7.000
G1 X-32.448 Y-41.507 Z3.250 F200.000
G1 X-32.075 Y-41.504 Z3.250 F500.000
G1 X-31.516 Y-40.946 Z3.250 F500.000
G1 X-31.685 Y-40.776 Z3.250 F500.000
G2 X-32.413 Y-41.483 Z3.250 I-3.954 J3.340 K0.000 F500.000
G1 X-32.448 Y-41.507 Z3.250 F500.000
G1 X-32.448 Y-41.507 Z2.500 F200.000
G1 X-32.075 Y-41.504 Z2.500 F500.000
G1 X-31.516 Y-40.946 Z2.500 F500.000
G1 X-31.685 Y-40.776 Z2.500 F500.000
G2 X-32.413 Y-41.483 Z2.500 I-3.954 J3.340 K0.000 F500.000
G1 X-32.448 Y-41.507 Z2.500 F500.000
G0 Z9.000
G0 X-33.553 Y-41.514 Z9.000
G0 X-33.553 Y-41.514 Z7.000
G1 X-33.553 Y-41.514 Z2.500 F200.000
G2 X-33.713 Y-41.390 Z2.500 I0.551 J0.875 K0.000 F500.000
G1 X-34.361 Y-40.743 Z2.500 F500.000
G2 X-35.164 Y-41.526 Z2.500 I-4.377 J3.687 K0.000 F500.000
G2 X-36.465 Y-41.432 Z2.500 I-0.596 J0.809 K0.000 F500.000
G1 X-41.432 Y-36.465 Z2.500 F500.000
G2 X-41.432 Y-35.051 Z2.500 I0.720 J0.707 K0.000 F500.000
G1 X-40.747 Y-34.366 Z2.500 F500.000
G2 X-41.326 Y-33.767 Z2.500 I2.753 J3.238 K0.000 F500.000
G2 X-41.233 Y-32.466 Z2.500 I0.809 J0.596 K0.000 F500.000
G1 X-40.614 Y-31.847 Z2.500 F500.000
G1 X-40.946 Y-31.516 Z2.500 F500.000
G1 X-41.521 Y-32.092 Z2.500 F500.000
G1 X-41.521 Y-33.962 Z2.500 F500.000
G2 X-43.229 Y-34.669 Z2.500 I-1.003 J0.008 K0.000 F500.000
G1 X-43.679 Y-34.218 Z2.500 F500.000
G2 X-44.344 Y-34.861 Z2.500 I-3.600 J3.049 K0.000 F500.000
G2 X-45.644 Y-34.768 Z2.500 I-0.596 J0.809 K0.000 F500.000
G1 X-46.658 Y-33.754 Z2.500 F500.000
G2 X-46.658 Y-32.340 Z2.500 I0.720 J0.707 K0.000 F500.000
G1 X-44.716 Y-30.397 Z2.500 F500.000
G1 X-44.981 Y-30.132 Z2.500 F500.000
G1 X-49.202 Y-34.352 Z2.500 F500.000
G2 X-48.490 Y-35.085 Z2.500 I-3.362 J-3.981 K0.000 F500.000
G2 X-48.583 Y-36.385 Z2.500 I-0.809 J-0.596 K0.000 F500.000
G1 X-49.150 Y-36.953 Z2.500 F500.000
G2 X-48.630 Y-37.502 Z2.500 I-2.060 J-2.471 K0.000 F500.000
G2 X-49.446 Y-39.071 Z2.500 I-0.822 J-0.569 K0.000 F500.000
G1 X-51.396 Y-39.071 Z2.500 F500.000
G1 X-51.940 Y-39.614 Z2.500 F500.000
G1 X-51.568 Y-39.985 Z2.500 F500.000
G2 X-50.868 Y-39.306 Z2.500 I3.798 J-3.212 K0.000 F500.000
G2 X-49.568 Y-39.399 Z2.500 I0.596 J-0.809 K0.000 F500.000
G1 X-48.867 Y-40.100 Z2.500 F500.000
G2 X-48.028 Y-39.282 Z2.500 I4.573 J-3.848 K0.000 F500.000
G2 X-46.728 Y-39.375 Z2.500 I0.596 J-0.809 K0.000 F500.000
G1 X-39.375 Y-46.728 Z2.500 F500.000
G2 X-39.375 Y-48.142 Z2.500 I-0.720 J-0.707 K0.000 F500.000
G1 X-40.100 Y-48.867 Z2.500 F500.000
G2 X-39.306 Y-49.682 Z2.500 I-3.738 J-4.439 K0.000 F500.000
G2 X-39.399 Y-50.982 Z2.500 I-0.809 J-0.596 K0.000 F500.000
G1 X-39.985 Y-51.568 Z2.500 F500.000
G1 X-39.614 Y-51.940 Z2.500 F500.000
G1 X-39.071 Y-51.396 Z2.500 F500.000
G1 X-39.071 Y-49.446 Z2.500 F500.000
G2 X-37.363 Y-48.739 Z2.500 I1.003 J-0.008 K0.000 F500.000
G1 X-36.953 Y-49.150 Z2.500 F500.000
G2 X-36.272 Y-48.490 Z2.500 I3.694 J-3.127 K0.000 F500.000
G2 X-34.971 Y-48.583 Z2.500 I0.596 J-0.809 K0.000 F500.000
G1 X-34.352 Y-49.202 Z2.500 F500.000
G1 X-30.132 Y-44.981 Z2.500 F500.000
G1 X-30.375 Y-44.738 Z2.500 F500.000
G1 X-32.317 Y-46.680 Z2.500 F500.000
G2 X-33.731 Y-46.680 Z2.500 I-0.707 J0.720 K0.000 F500.000
G1 X-34.725 Y-45.686 Z2.500 F500.000
G2 X-34.725 Y-44.272 Z2.500 I0.720 J0.707 K0.000 F500.000
G1 X-34.175 Y-43.722 Z2.500 F500.000
G2 X-34.782 Y-43.086 Z2.500 I2.389 J2.886 K0.000 F500.000
G2 X-33.973 Y-41.517 Z2.500 I0.821 J0.570 K0.000 F500.000
G1 X-33.553 Y-41.514 Z2.500 F500.000
G0 Z9.000
G0 X-35.387 Y-42.916 Z9.000
G0 X-35.387 Y-42.916 Z7.000
G1 X-35.387 Y-42.916 Z2.500 F200.000
G3 X-35.469 Y-42.822 Z2.500 I-0.802 J-0.613 K0.000 F500.000
G1 X-36.308 Y-41.983 Z2.500 F500.000
G3 X-37.722 Y-41.983 Z2.500 I-0.707 J-0.720 K0.000 F500.000
G1 X-38.693 Y-42.953 Z2.500 F500.000
G3 X-38.693 Y-44.368 Z2.500 I0.720 J-0.707 K0.000 F500.000
G1 X-37.854 Y-45.207 Z2.500 F500.000
G3 X-37.389 Y-45.466 Z2.500 I0.750 J0.798 K0.000 F500.000
G3 X-36.440 Y-45.207 Z2.500 I0.242 J0.980 K0.000 F500.000
G1 X-35.469 Y-44.236 Z2.500 F500.000
G3 X-35.387 Y-42.916 Z2.500 I-0.720 J0.707 K0.000 F500.000
G0 Z9.000
G0 X-35.873 Y-46.640 Z9.000
G0 X-35.873 Y-46.640 Z7.000
G1 X-35.873 Y-46.640 Z2.500 F200.000
G2 X-37.635 Y-46.947 Z2.500 I-1.273 J2.102 K0.000 F500.000
G2 X-37.625 Y-46.999 Z2.500 I-0.277 J-0.081 K0.000 F500.000
G2 X-37.014 Y-47.183 Z2.500 I-0.133 J-1.544 K0.000 F500.000
G2 X-35.739 Y-46.794 Z2.500 I1.345 J-2.123 K0.000 F500.000
G2 X-35.873 Y-46.640 Z2.500 I0.712 J0.759 K0.000 F500.000
G0 Z9.000
G0 X-40.470 Y-43.512 Z9.000
G0 X-40.470 Y-43.512 Z7.000
G1 X-40.470 Y-43.512 Z2.500 F200.000
G2 X-39.754 Y-41.893 Z2.500 I2.400 J-0.093 K0.000 F500.000
G1 X-38.940 Y-41.079 Z2.500 F500.000
G1 X-41.079 Y-38.940 Z2.500 F500.000
G2 X-42.234 Y-40.034 Z2.500 I-6.130 J5.316 K0.000 F500.000
G2 X-43.509 Y-40.473 Z2.500 I-1.387 J1.957 K0.000 F500.000
G1 X-40.470 Y-43.512 Z2.500 F500.000
G0 Z9.000
G0 X-40.703 Y-42.748 Z9.000
G0 X-40.703 Y-42.748 Z7.000
G1 X-40.703 Y-42.748 Z2.500 F200.000
G2 X-40.019 Y-41.628 Z2.500 I2.733 J-0.898 K0.000 F500.000
G1 X-39.470 Y-41.079 Z2.500 F500.000
G1 X-41.079 Y-39.470 Z2.500 F500.000
G2 X-42.025 Y-40.345 Z2.500 I-4.917 J4.368 K0.000 F500.000
G2 X-42.754 Y-40.697 Z2.500 I-1.183 J1.519 K0.000 F500.000
G1 X-40.703 Y-42.748 Z2.500 F500.000
G0 Z9.000
G0 X-40.817 Y-42.104 Z9.000
G0 X-40.817 Y-42.104 Z7.000
G1 X-40.817 Y-42.104 Z2.500 F200.000
G2 X-40.000 Y-41.079 Z2.500 I2.707 J-1.317 K0.000 F500.000
G1 X-41.079 Y-40.000 Z2.500 F500.000
G2 X-42.098 Y-40.823 Z2.500 I-2.597 J2.176 K0.000 F500.000
G2 X-40.817 Y-42.104 Z2.500 I-4103453.553 J-4103454.834 K0.000 F500.000
G0 Z9.000
G0 X-40.885 Y-41.506 Z9.000
G0 X-40.885 Y-41.506 Z7.000
G1 X-40.885 Y-41.506 Z2.500 F200.000
G2 X-40.531 Y-41.079 Z2.500 I2.345 J-1.583 K0.000 F500.000
G1 X-41.079 Y-40.531 Z2.500 F500.000
G2 X-41.506 Y-40.885 Z2.500 I-2.010 J1.991 K0.000 F500.000
G2 X-40.885 Y-41.506 Z2.500 I-964755.282 J-964755.903 K0.000 F500.000
G0 Z9.000
G0 X-43.037 Y-38.766 Z9.000
G0 X-43.037 Y-38.766 Z7.000
G1 X-43.037 Y-38.766 Z2.500 F200.000
G3 X-42.953 Y-38.693 Z2.500 I-0.624 J0.794 K0.000 F500.000
G1 X-41.983 Y-37.722 Z2.500 F500.000
G3 X-41.983 Y-36.308 Z2.500 I-0.720 J0.707 K0.000 F500.000
G1 X-42.822 Y-35.469 Z2.500 F500.000
G3 X-44.236 Y-35.469 Z2.500 I-0.707 J-0.720 K0.000 F500.000
G1 X-45.207 Y-36.440 Z2.500 F500.000
G3 X-45.207 Y-37.854 Z2.500 I0.720 J-0.707 K0.000 F500.000
G1 X-44.368 Y-38.693 Z2.500 F500.000
G3 X-43.902 Y-38.953 Z2.500 I0.750 J0.798 K0.000 F500.000
G3 X-43.037 Y-38.766 Z2.500 I0.242 J0.980 K0.000 F500.000
G0 Z9.000
G0 X-46.947 Y-37.635 Z9.000
G0 X-46.947 Y-37.635 Z7.000
G1 X-46.947 Y-37.635 Z2.500 F200.000
G2 X-46.643 Y-35.880 Z2.500 I2.398 J0.489 K0.000 F500.000
G2 X-46.798 Y-35.736 Z2.500 I0.654 J0.860 K0.000 F500.000
G2 X-47.189 Y-37.024 Z2.500 I-2.351 J0.009 K0.000 F500.000
G2 X-46.990 Y-37.626 Z2.500 I-1.386 J-0.790 K0.000 F500.000
G1 X-46.947 Y-37.635 Z2.500 F500.000
G1 X-46.947 Y-37.635 Z2.000 F200.000
G2 X-46.643 Y-35.880 Z2.000 I2.398 J0.489 K0.000 F500.000
G2 X-46.798 Y-35.736 Z2.000 I0.654 J0.860 K0.000 F500.000
G2 X-47.189 Y-37.024 Z2.000 I-2.351 J0.009 K0.000 F500.000
G2 X-46.990 Y-37.626 Z2.000 I-1.386 J-0.790 K0.000 F500.000
G1 X-46.947 Y-37.635 Z2.000 F500.000
G0 Z9.000
G0 X-47.238 Y-39.105 Z9.000
G0 X-47.238 Y-39.105 Z7.000
G1 X-47.238 Y-39.105 Z2.000 F200.000
G2 X-46.728 Y-39.375 Z2.000 I-0.195 J-0.985 K0.000 F500.000
G1 X-39.375 Y-46.728 Z2.000 F500.000
G2 X-39.375 Y-48.142 Z2.000 I-0.720 J-0.707 K0.000 F500.000
G1 X-40.100 Y-48.867 Z2.000 F500.000
G2 X-39.306 Y-49.682 Z2.000 I-3.738 J-4.439 K0.000 F500.000
G2 X-39.399 Y-50.982 Z2.000 I-0.809 J-0.596 K0.000 F500.000
G1 X-39.985 Y-51.568 Z2.000 F500.000
G1 X-39.614 Y-51.940 Z2.000 F500.000
G1 X-39.071 Y-51.396 Z2.000 F500.000
G1 X-39.071 Y-49.446 Z2.000 F500.000
G2 X-37.363 Y-48.739 Z2.000 I1.003 J-0.008 K0.000 F500.000
G1 X-36.953 Y-49.150 Z2.000 F500.000
G2 X-36.272 Y-48.490 Z2.000 I3.694 J-3.127 K0.000 F500.000
G2 X-34.971 Y-48.583 Z2.000 I0.596 J-0.809 K0.000 F500.000
G1 X-34.352 Y-49.202 Z2.000 F500.000
G1 X-30.132 Y-44.981 Z2.000 F500.000
G1 X-30.375 Y-44.738 Z2.000 F500.000
G1 X-32.317 Y-46.680 Z2.000 F500.000
G2 X-33.731 Y-46.680 Z2.000 I-0.707 J0.720 K0.000 F500.000
G1 X-34.725 Y-45.686 Z2.000 F500.000
G2 X-34.725 Y-44.272 Z2.000 I0.720 J0.707 K0.000 F500.000
G1 X-34.175 Y-43.722 Z2.000 F500.000
G2 X-34.782 Y-43.086 Z2.000 I2.389 J2.886 K0.000 F500.000
G2 X-33.973 Y-41.517 Z2.000 I0.821 J0.570 K0.000 F500.000
G1 X-33.553 Y-41.514 Z2.000 F500.000
G2 X-33.713 Y-41.390 Z2.000 I0.551 J0.875 K0.000 F500.000
G1 X-34.361 Y-40.743 Z2.000 F500.000
G2 X-35.164 Y-41.526 Z2.000 I-4.377 J3.687 K0.000 F500.000
G2 X-36.465 Y-41.432 Z2.000 I-0.596 J0.809 K0.000 F500.000
G1 X-41.432 Y-36.465 Z2.000 F500.000
G2 X-41.432 Y-35.051 Z2.000 I0.720 J0.707 K0.000 F500.000
G1 X-40.747 Y-34.366 Z2.000 F500.000
G2 X-41.326 Y-33.767 Z2.000 I2.753 J3.238 K0.000 F500.000
G2 X-41.233 Y-32.466 Z2.000 I0.809 J0.596 K0.000 F500.000
G1 X-40.614 Y-31.847 Z2.000 F500.000
G1 X-40.946 Y-31.516 Z2.000 F500.000
G1 X-41.521 Y-32.092 Z2.000 F500.000
G1 X-41.521 Y-33.962 Z2.000 F500.000
G2 X-43.229 Y-34.669 Z2.000 I-1.003 J0.008 K0.000 F500.000
G1 X-43.679 Y-34.218 Z2.000 F500.000
G2 X-44.344 Y-34.861 Z2.000 I-3.600 J3.049 K0.000 F500.000
G2 X-45.644 Y-34.768 Z2.000 I-0.596 J0.809 K0.000 F500.000
G1 X-46.658 Y-33.754 Z2.000 F500.000
G2 X-46.658 Y-32.340 Z2.000 I0.720 J0.707 K0.000 F500.000
G1 X-44.716 Y-30.397 Z2.000 F500.000
G1 X-44.981 Y-30.132 Z2.000 F500.000
G1 X-49.202 Y-34.352 Z2.000 F500.000
G2 X-48.490 Y-35.085 Z2.000 I-3.362 J-3.981 K0.000 F500.000
G2 X-48.583 Y-36.385 Z2.000 I-0.809 J-0.596 K0.000 F500.000
G1 X-49.150 Y-36.953 Z2.000 F500.000
G2 X-48.630 Y-37.502 Z2.000 I-2.060 J-2.471 K0.000 F500.000
G2 X-49.446 Y-39.071 Z2.000 I-0.822 J-0.569 K0.000 F500.000
G1 X-51.396 Y-39.071 Z2.000 F500.000
G1 X-51.940 Y-39.614 Z2.000 F500.000
G1 X-51.568 Y-39.985 Z2.000 F500.000
G2 X-50.868 Y-39.306 Z2.000 I3.798 J-3.212 K0.000 F500.000
G2 X-49.568 Y-39.399 Z2.000 I0.596 J-0.809 K0.000 F500.000
G1 X-48.867 Y-40.100 Z2.000 F500.000
G2 X-48.028 Y-39.282 Z2.000 I4.573 J-3.848 K0.000 F500.000
G2 X-47.238 Y-39.105 Z2.000 I0.596 J-0.809 K0.000 F500.000
G0 Z9.000
G0 X-45.309 Y-37.732 Z9.000
G0 X-45.309 Y-37.732 Z7.000
G1 X-45.309 Y-37.732 Z2.000 F200.000
G3 X-45.207 Y-37.854 Z2.000 I0.822 J0.585 K0.000 F500.000
G1 X-44.368 Y-38.693 Z2.000 F500.000
G3 X-43.902 Y-38.953 Z2.000 I0.750 J0.798 K0.000 F500.000
G3 X-42.953 Y-38.693 Z2.000 I0.242 J0.980 K0.000 F500.000
G1 X-41.983 Y-37.722 Z2.000 F500.000
G3 X-41.983 Y-36.308 Z2.000 I-0.720 J0.707 K0.000 F500.000
G1 X-42.822 Y-35.469 Z2.000 F500.000
G3 X-44.236 Y-35.469 Z2.000 I-0.707 J-0.720 K0.000 F500.000
G1 X-45.207 Y-36.440 Z2.000 F500.000
G3 X-45.309 Y-37.732 Z2.000 I0.720 J-0.707 K0.000 F500.000
G0 Z9.000
G0 X-43.509 Y-40.473 Z9.000
G0 X-43.509 Y-40.473 Z7.000
G1 X-43.509 Y-40.473 Z2.000 F200.000
G1 X-40.470 Y-43.512 Z2.000 F500.000
G2 X-39.754 Y-41.893 Z2.000 I2.400 J-0.093 K0.000 F500.000
G1 X-38.940 Y-41.079 Z2.000 F500.000
G1 X-41.079 Y-38.940 Z2.000 F500.000
G2 X-42.234 Y-40.034 Z2.000 I-6.130 J5.316 K0.000 F500.000
G2 X-43.509 Y-40.473 Z2.000 I-1.387 J1.957 K0.000 F500.000
G0 Z9.000
G0 X-42.754 Y-40.697 Z9.000
G0 X-42.754 Y-40.697 Z7.000
G1 X-42.754 Y-40.697 Z2.000 F200.000
G1 X-40.703 Y-42.748 Z2.000 F500.000
G2 X-40.019 Y-41.628 Z2.000 I2.733 J-0.898 K0.000 F500.000
G1 X-39.470 Y-41.079 Z2.000 F500.000
G1 X-41.079 Y-39.470 Z2.000 F500.000
G2 X-42.025 Y-40.345 Z2.000 I-4.917 J4.368 K0.000 F500.000
G2 X-42.754 Y-40.697 Z2.000 I-1.183 J1.519 K0.000 F500.000
G0 Z9.000
G0 X-42.098 Y-40.823 Z9.000
G0 X-42.098 Y-40.823 Z7.000
G1 X-42.098 Y-40.823 Z2.000 F200.000
G2 X-40.817 Y-42.104 Z2.000 I-4103453.553 J-4103454.834 K0.000 F500.000
G2 X-40.000 Y-41.079 Z2.000 I2.707 J-1.317 K0.000 F500.000
G1 X-41.079 Y-40.000 Z2.000 F500.000
G2 X-42.098 Y-40.823 Z2.000 I-2.597 J2.176 K0.000 F500.000
G0 Z9.000
G0 X-41.506 Y-40.885 Z9.000
G0 X-41.506 Y-40.885 Z7.000
G1 X-41.506 Y-40.885 Z2.000 F200.000
G2 X-40.885 Y-41.506 Z2.000 I-964755.282 J-964755.903 K0.000 F500.000
G2 X-40.531 Y-41.079 Z2.000 I2.345 J-1.583 K0.000 F500.000
G1 X-41.079 Y-40.531 Z2.000 F500.000
G2 X-41.506 Y-40.885 Z2.000 I-2.010 J1.991 K0.000 F500.000
G0 Z9.000
G0 X-38.767 Y-43.037 Z9.000
G0 X-38.767 Y-43.037 Z7.000
G1 X-38.767 Y-43.037 Z2.000 F200.000
G3 X-38.693 Y-44.368 Z2.000 I0.794 J-0.624 K0.000 F500.000
G1 X-37.854 Y-45.207 Z2.000 F500.000
G3 X-37.389 Y-45.466 Z2.000 I0.750 J0.798 K0.000 F500.000
G3 X-36.440 Y-45.207 Z2.000 I0.242 J0.980 K0.000 F500.000
G1 X-35.469 Y-44.236 Z2.000 F500.000
G3 X-35.469 Y-42.822 Z2.000 I-0.720 J0.707 K0.000 F500.000
G1 X-36.308 Y-41.983 Z2.000 F500.000
G3 X-37.722 Y-41.983 Z2.000 I-0.707 J-0.720 K0.000 F500.000
G1 X-38.693 Y-42.953 Z2.000 F500.000
G3 X-38.767 Y-43.037 Z2.000 I0.720 J-0.707 K0.000 F500.000
G0 Z9.000
G0 X-37.635 Y-46.947 Z9.000
G0 X-37.635 Y-46.947 Z7.000
G1 X-37.635 Y-46.947 Z2.000 F200.000
G2 X-37.625 Y-46.999 Z2.000 I-0.277 J-0.081 K0.000 F500.000
G2 X-37.014 Y-47.183 Z2.000 I-0.133 J-1.544 K0.000 F500.000
G2 X-35.739 Y-46.794 Z2.000 I1.345 J-2.123 K0.000 F500.000
G2 X-35.873 Y-46.640 Z2.000 I0.712 J0.759 K0.000 F500.000
G2 X-37.635 Y-46.947 Z2.000 I-1.273 J2.102 K0.000 F500.000
G0 Z9.000
G0 X-32.448 Y-41.507 Z9.000
G0 X-32.448 Y-41.507 Z7.000
G1 X-32.448 Y-41.507 Z2.000 F200.000
G1 X-32.075 Y-41.504 Z2.000 F500.000
G1 X-31.516 Y-40.946 Z2.000 F500.000
G1 X-31.685 Y-40.776 Z2.000 F500.000
G2 X-32.413 Y-41.483 Z2.000 I-3.954 J3.340 K0.000 F500.000
G1 X-32.448 Y-41.507 Z2.000 F500.000
G0 Z9.000
G0 Z9.000
G0 X-32.448 Y-41.507
G0 X-44.981 Y30.132
G0 X-44.981 Y30.132 Z7.000
G1 X-44.981 Y30.132 Z3.250 F200.000
G1 X-44.738 Y30.375 Z3.250 F500.000
G1 X-46.680 Y32.317 Z3.250 F500.000
G2 X-46.680 Y33.731 Z3.250 I0.720 J0.707 K0.000 F500.000
G1 X-45.686 Y34.725 Z3.250 F500.000
G2 X-44.272 Y34.725 Z3.250 I0.707 J-0.720 K0.000 F500.000
G1 X-43.722 Y34.175 Z3.250 F500.000
G2 X-43.086 Y34.782 Z3.250 I2.886 J-2.389 K0.000 F500.000
G2 X-41.517 Y33.973 Z3.250 I0.570 J-0.821 K0.000 F500.000
G1 X-41.514 Y33.553 Z3.250 F500.000
G2 X-41.390 Y33.713 Z3.250 I0.875 J-0.551 K0.000 F500.000
G1 X-40.743 Y34.361 Z3.250 F500.000
G2 X-41.526 Y35.164 Z3.250 I3.687 J4.377 K0.000 F500.000
G2 X-41.432 Y36.465 Z3.250 I0.809 J0.596 K0.000 F500.000
G1 X-36.465 Y41.432 Z3.250 F500.000
G2 X-35.051 Y41.432 Z3.250 I0.707 J-0.720 K0.000 F500.000
G1 X-34.366 Y40.747 Z3.250 F500.000
G2 X-33.767 Y41.326 Z3.250 I3.238 J-2.753 K0.000 F500.000
G2 X-32.466 Y41.233 Z3.250 I0.596 J-0.809 K0.000 F500.000
G1 X-31.847 Y40.614 Z3.250 F500.000
G1 X-31.516 Y40.946 Z3.250 F500.000
G1 X-32.092 Y41.521 Z3.250 F500.000
G1 X-33.962 Y41.521 Z3.250 F500.000
G2 X-34.669 Y43.229 Z3.250 I0.008 J1.003 K0.000 F500.000
G1 X-34.218 Y43.679 Z3.250 F500.000
G2 X-34.861 Y44.344 Z3.250 I3.049 J3.600 K0.000 F500.000
G2 X-34.768 Y45.644 Z3.250 I0.809 J0.596 K0.000 F500.000
G1 X-33.754 Y46.658 Z3.250 F500.000
G2 X-32.340 Y46.658 Z3.250 I0.707 J-0.720 K0.000 F500.000
G1 X-30.397 Y44.716 Z3.250 F500.000
G1 X-30.132 Y44.981 Z3.250 F500.000
G1 X-34.352 Y49.202 Z3.250 F500.000
G2 X-35.085 Y48.490 Z3.250 I-3.981 J3.362 K0.000 F500.000
G2 X-36.385 Y48.583 Z3.250 I-0.596 J0.809 K0.000 F500.000
G1 X-36.953 Y49.150 Z3.250 F500.000
G2 X-37.502 Y48.630 Z3.250 I-2.471 J2.060 K0.000 F500.000
G2 X-39.071 Y49.446 Z3.250 I-0.569 J0.822 K0.000 F500.000
G1 X-39.071 Y51.396 Z3.250 F500.000
G1 X-39.614 Y51.940 Z3.250 F500.000
G1 X-39.985 Y51.568 Z3.250 F500.000
G2 X-39.306 Y50.868 Z3.250 I-3.212 J-3.798 K0.000 F500.000
G2 X-39.399 Y49.568 Z3.250 I-0.809 J-0.596 K0.000 F500.000
G1 X-40.100 Y48.867 Z3.250 F500.000
G2 X-39.282 Y48.028 Z3.250 I-3.848 J-4.573 K0.000 F500.000
G2 X-39.375 Y46.728 Z3.250 I-0.809 J-0.596 K0.000 F500.000
G1 X-46.728 Y39.375 Z3.250 F500.000
G2 X-48.142 Y39.375 Z3.250 I-0.707 J0.720 K0.000 F500.000
G1 X-48.867 Y40.100 Z3.250 F500.000
G2 X-49.682 Y39.306 Z3.250 I-4.439 J3.738 K0.000 F500.000
G2 X-50.982 Y39.399 Z3.250 I-0.596 J0.809 K0.000 F500.000
G1 X-51.568 Y39.985 Z3.250 F500.000
G1 X-51.940 Y39.614 Z3.250 F500.000
G1 X-51.396 Y39.071 Z3.250 F500.000
G1 X-49.446 Y39.071 Z3.250 F500.000
G2 X-48.739 Y37.363 Z3.250 I-0.008 J-1.003 K0.000 F500.000
G1 X-49.150 Y36.953 Z3.250 F500.000
G2 X-48.490 Y36.272 Z3.250 I-3.127 J-3.694 K0.000 F500.000
G2 X-48.583 Y34.971 Z3.250 I-0.809 J-0.596 K0.000 F500.000
G1 X-49.202 Y34.352 Z3.250 F500.000
G1 X-44.981 Y30.132 Z3.250 F500.000
G0 Z9.000
G0 X-41.504 Y32.075 Z9.000
G0 X-41.504 Y32.075 Z7.000
G1 X-41.504 Y32.075 Z3.250 F200.000
G1 X-40.946 Y31.516 Z3.250 F500.000
G1 X-40.776 Y31.685 Z3.250 F500.000
G2 X-41.483 Y32.413 Z3.250 I3.340 J3.954 K0.000 F500.000
G1 X-41.507 Y32.448 Z3.250 F500.000
G1 X-41.504 Y32.075 Z3.250 F500.000
G0 Z9.000
G0 X-43.083 Y35.284 Z9.000
G0 X-43.083 Y35.284 Z7.000
G1 X-43.083 Y35.284 Z3.250 F200.000
G3 X-42.822 Y35.469 Z3.250 I-0.446 J0.906 K0.000 F500.000
G1 X-41.983 Y36.308 Z3.250 F500.000
G3 X-41.983 Y37.722 Z3.250 I-0.720 J0.707 K0.000 F500.000
G1 X-42.953 Y38.693 Z3.250 F500.000
G3 X-44.368 Y38.693 Z3.250 I-0.707 J-0.720 K0.000 F500.000
G1 X-45.207 Y37.854 Z3.250 F500.000
G3 X-45.207 Y36.440 Z3.250 I0.720 J-0.707 K0.000 F500.000
G1 X-44.236 Y35.469 Z3.250 F500.000
G3 X-43.771 Y35.210 Z3.250 I0.750 J0.798 K0.000 F500.000
G3 X-43.083 Y35.284 Z3.250 I0.242 J0.980 K0.000 F500.000
G0 Z9.000
G0 X-46.640 Y35.873 Z9.000
G0 X-46.640 Y35.873 Z7.000
G1 X-46.640 Y35.873 Z3.250 F200.000
G2 X-46.947 Y37.635 Z3.250 I2.102 J1.273 K0.000 F500.000
G2 X-46.999 Y37.625 Z3.250 I-0.081 J0.277 K0.000 F500.000
G2 X-47.183 Y37.014 Z3.250 I-1.544 J0.133 K0.000 F500.000
G2 X-46.794 Y35.739 Z3.250 I-2.123 J-1.345 K0.000 F500.000
G2 X-46.640 Y35.873 Z3.250 I0.759 J-0.712 K0.000 F500.000
G0 Z9.000
G0 X-43.512 Y40.470 Z9.000
G0 X-43.512 Y40.470 Z7.000
G1 X-43.512 Y40.470 Z3.250 F200.000
G2 X-41.893 Y39.754 Z3.250 I-0.093 J-2.400 K0.000 F500.000
G1 X-41.079 Y38.940 Z3.250 F500.000
G1 X-38.940 Y41.079 Z3.250 F500.000
G2 X-40.034 Y42.234 Z3.250 I5.316 J6.130 K0.000 F500.000
G2 X-40.473 Y43.509 Z3.250 I1.957 J1.387 K0.000 F500.000
G1 X-43.512 Y40.470 Z3.250 F500.000
G0 Z9.000
G0 X-42.748 Y40.703 Z9.000
G0 X-42.748 Y40.703 Z7.000
G1 X-42.748 Y40.703 Z3.250 F200.000
G2 X-41.628 Y40.019 Z3.250 I-0.898 J-2.733 K0.000 F500.000
G1 X-41.079 Y39.470 Z3.250 F500.000
G1 X-39.470 Y41.079 Z3.250 F500.000
G2 X-40.345 Y42.025 Z3.250 I4.368 J4.917 K0.000 F500.000
G2 X-40.697 Y42.754 Z3.250 I1.519 J1.183 K0.000 F500.000
G1 X-42.748 Y40.703 Z3.250 F500.000
G0 Z9.000
G0 X-42.104 Y40.817 Z9.000
G0 X-42.104 Y40.817 Z7.000
G1 X-42.104 Y40.817 Z3.250 F200.000
G2 X-41.079 Y40.000 Z3.250 I-1.317 J-2.707 K0.000 F500.000
G1 X-40.000 Y41.079 Z3.250 F500.000
G2 X-40.823 Y42.098 Z3.250 I2.176 J2.597 K0.000 F500.000
G2 X-42.104 Y40.817 Z3.250 I-4103454.834 J4103453.553 K0.000 F500.000
G0 Z9.000
G0 X-41.506 Y40.885 Z9.000
G0 X-41.506 Y40.885 Z7.000
G1 X-41.506 Y40.885 Z3.250 F200.000
G2 X-41.079 Y40.531 Z3.250 I-1.583 J-2.345 K0.000 F500.000
G1 X-40.531 Y41.079 Z3.250 F500.000
G2 X-40.885 Y41.506 Z3.250 I1.991 J2.010 K0.000 F500.000
G2 X-41.506 Y40.885 Z3.250 I-964755.903 J964755.282 K0.000 F500.000
G0 Z9.000
G0 X-38.767 Y43.037 Z9.000
G0 X-38.767 Y43.037 Z7.000
G1 X-38.767 Y43.037 Z3.250 F200.000
G3 X-38.693 Y42.953 Z3.250 I0.794 J0.624 K0.000 F500.000
G1 X-37.722 Y41.983 Z3.250 F500.000
G3 X-37.257 Y41.723 Z3.250 I0.750 J0.798 K0.000 F500.000
G3 X-36.308 Y41.983 Z3.250 I0.242 J0.980 K0.000 F500.000
G1 X-35.469 Y42.822 Z3.250 F500.000
G3 X-35.469 Y44.236 Z3.250 I-0.720 J0.707 K0.000 F500.000
G1 X-36.440 Y45.207 Z3.250 F500.000
G3 X-37.854 Y45.207 Z3.250 I-0.707 J-0.720 K0.000 F500.000
G1 X-38.693 Y44.368 Z3.250 F500.000
G3 X-38.767 Y43.037 Z3.250 I0.720 J-0.707 K0.000 F500.000
G0 Z9.000
G0 X-37.635 Y46.947 Z9.000
G0 X-37.635 Y46.947 Z7.000
G1 X-37.635 Y46.947 Z3.250 F200.000
G2 X-35.880 Y46.643 Z3.250 I0.489 J-2.398 K0.000 F500.000
G2 X-35.736 Y46.798 Z3.250 I0.860 J-0.654 K0.000 F500.000
G2 X-37.024 Y47.189 Z3.250 I0.009 J2.351 K0.000 F500.000
G2 X-37.626 Y46.990 Z3.250 I-0.790 J1.386 K0.000 F500.000
G1 X-37.635 Y46.947 Z3.250 F500.000
G1 X-37.635 Y46.947 Z2.500 F200.000
G2 X-35.880 Y46.643 Z2.500 I0.489 J-2.398 K0.000 F500.000
G2 X-35.736 Y46.798 Z2.500 I0.860 J-0.654 K0.000 F500.000
G2 X-37.024 Y47.189 Z2.500 I0.009 J2.351 K0.000 F500.000
G2 X-37.626 Y46.990 Z2.500 I-0.790 J1.386 K0.000 F500.000
G1 X-37.635 Y46.947 Z2.500 F500.000
G0 Z9.000
G0 X-39.105 Y47.238 Z9.000
G0 X-39.105 Y47.238 Z7.000
G1 X-39.105 Y47.238 Z2.500 F200.000
G2 X-39.375 Y46.728 Z2.500 I-0.985 J0.195 K0.000 F500.000
G1 X-46.728 Y39.375 Z2.500 F500.000
G2 X-48.142 Y39.375 Z2.500 I-0.707 J0.720 K0.000 F500.000
G1 X-48.867 Y40.100 Z2.500 F500.000
G2 X-49.682 Y39.306 Z2.500 I-4.439 J3.738 K0.000 F500.000
G2 X-50.982 Y39.399 Z2.500 I-0.596 J0.809 K0.000 F500.000
G1 X-51.568 Y39.985 Z2.500 F500.000
G1 X-51.940 Y39.614 Z2.500 F500.000
G1 X-51.396 Y39.071 Z2.500 F500.000
G1 X-49.446 Y39.071 Z2.500 F500.000
G2 X-48.739 Y37.363 Z2.500 I-0.008 J-1.003 K0.000 F500.000
G1 X-49.150 Y36.953 Z2.500 F500.000
G2 X-48.490 Y36.272 Z2.500 I-3.127 J-3.694 K0.000 F500.000
G2 X-48.583 Y34.971 Z2.500 I-0.809 J-0.596 K0.000 F500.000
G1 X-49.202 Y34.352 Z2.500 F500.000
G1 X-44.981 Y30.132 Z2.500 F500.000
G1 X-44.738 Y30.375 Z2.500 F500.000
G1 X-46.680 Y32.317 Z2.500 F500.000
G2 X-46.680 Y33.731 Z2.500 I0.720 J0.707 K0.000 F500.000
G1 X-45.686 Y34.725 Z2.500 F500.000
G2 X-44.272 Y34.725 Z2.500 I0.707 J-0.720 K0.000 F500.000
G1 X-43.722 Y34.175 Z2.500 F500.000
G2 X-43.086 Y34.782 Z2.500 I2.886 J-2.389 K0.000 F500.000
G2 X-41.517 Y33.973 Z2.500 I0.570 J-0.821 K0.000 F500.000
G1 X-41.514 Y33.553 Z2.500 F500.000
G2 X-41.390 Y33.713 Z2.500 I0.875 J-0.551 K0.000 F500.000
G1 X-40.743 Y34.361 Z2.500 F500.000
G2 X-41.526 Y35.164 Z2.500 I3.687 J4.377 K0.000 F500.000
G2 X-41.432 Y36.465 Z2.500 I0.809 J0.596 K0.000 F500.000
G1 X-36.465 Y41.432 Z2.500 F500.000
G2 X-35.051 Y41.432 Z2.500 I0.707 J-0.720 K0.000 F500.000
G1 X-34.366 Y40.747 Z2.500 F500.000
G2 X-33.767 Y41.326 Z2.500 I3.238 J-2.753 K0.000 F500.000
G2 X-32.466 Y41.233 Z2.500 I0.596 J-0.809 K0.000 F500.000
G1 X-31.847 Y40.614 Z2.500 F500.000
G1 X-31.516 Y40.946 Z2.500 F500.000
G1 X-32.092 Y41.521 Z2.500 F500.000
G1 X-33.962 Y41.521 Z2.500 F500.000
G2 X-34.669 Y43.229 Z2.500 I0.008 J1.003 K0.000 F500.000
G1 X-34.218 Y43.679 Z2.500 F500.000
G2 X-34.861 Y44.344 Z2.500 I3.049 J3.600 K0.000 F500.000
G2 X-34.768 Y45.644 Z2.500 I0.809 J0.596 K0.000 F500.000
G1 X-33.754 Y46.658 Z2.500 F500.000
G2 X-32.340 Y46.658 Z2.500 I0.707 J-0.720 K0.000 F500.000
G1 X-30.397 Y44.716 Z2.500 F500.000
G1 X-30.132 Y44.981 Z2.500 F500.000
G1 X-34.352 Y49.202 Z2.500 F500.000
G2 X-35.085 Y48.490 Z2.500 I-3.981 J3.362 K0.000 F500.000
G2 X-36.385 Y48.583 Z2.500 I-0.596 J0.809 K0.000 F500.000
G1 X-36.953 Y49.150 Z2.500 F500.000
G2 X-37.502 Y48.630 Z2.500 I-2.471 J2.060 K0.000 F500.000
G2 X-39.071 Y49.446 Z2.500 I-0.569 J0.822 K0.000 F500.000
G1 X-39.071 Y51.396 Z2.500 F500.000
G1 X-39.614 Y51.940 Z2.500 F500.000
G1 X-39.985 Y51.568 Z2.500 F500.000
G2 X-39.306 Y50.868 Z2.500 I-3.212 J-3.798 K0.000 F500.000
G2 X-39.399 Y49.568 Z2.500 I-0.809 J-0.596 K0.000 F500.000
G1 X-40.100 Y48.867 Z2.500 F500.000
G2 X-39.282 Y48.028 Z2.500 I-3.848 J-4.573 K0.000 F500.000
G2 X-39.105 Y47.238 Z2.500 I-0.809 J-0.596 K0.000 F500.000
G0 Z9.000
G0 X-37.732 Y45.309 Z9.000
G0 X-37.732 Y45.309 Z7.000
G1 X-37.732 Y45.309 Z2.500 F200.000
G3 X-37.854 Y45.207 Z2.500 I0.585 J-0.822 K0.000 F500.000
G1 X-38.693 Y44.368 Z2.500 F500.000
G3 X-38.693 Y42.953 Z2.500 I0.720 J-0.707 K0.000 F500.000
G1 X-37.722 Y41.983 Z2.500 F500.000
G3 X-37.257 Y41.723 Z2.500 I0.750 J0.798 K0.000 F500.000
G3 X-36.308 Y41.983 Z2.500 I0.242 J0.980 K0.000 F500.000
G1 X-35.469 Y42.822 Z2.500 F500.000
G3 X-35.469 Y44.236 Z2.500 I-0.720 J0.707 K0.000 F500.000
G1 X-36.440 Y45.207 Z2.500 F500.000
G3 X-37.732 Y45.309 Z2.500 I-0.707 J-0.720 K0.000 F500.000
G0 Z9.000
G0 X-40.473 Y43.509 Z9.000
G0 X-40.473 Y43.509 Z7.000
G1 X-40.473 Y43.509 Z2.500 F200.000
G1 X-43.512 Y40.470 Z2.500 F500.000
G2 X-41.893 Y39.754 Z2.500 I-0.093 J-2.400 K0.000 F500.000
G1 X-41.079 Y38.940 Z2.500 F500.000
G1 X-38.940 Y41.079 Z2.500 F500.000
G2 X-40.034 Y42.234 Z2.500 I5.316 J6.130 K0.000 F500.000
G2 X-40.473 Y43.509 Z2.500 I1.957 J1.387 K0.000 F500.000
G0 Z9.000
G0 X-40.697 Y42.754 Z9.000
G0 X-40.697 Y42.754 Z7.000
G1 X-40.697 Y42.754 Z2.500 F200.000
G1 X-42.748 Y40.703 Z2.500 F500.000
G2 X-41.628 Y40.019 Z2.500 I-0.898 J-2.733 K0.000 F500.000
G1 X-41.079 Y39.470 Z2.500 F500.000
G1 X-39.470 Y41.079 Z2.500 F500.000
G2 X-40.345 Y42.025 Z2.500 I4.368 J4.917 K0.000 F500.000
G2 X-40.697 Y42.754 Z2.500 I1.519 J1.183 K0.000 F500.000
G0 Z9.000
G0 X-40.823 Y42.098 Z9.000
G0 X-40.823 Y42.098 Z7.000
G1 X-40.823 Y42.098 Z2.500 F200.000
G2 X-42.104 Y40.817 Z2.500 I-4103454.834 J4103453.553 K0.000 F500.000
G2 X-41.079 Y40.000 Z2.500 I-1.317 J-2.707 K0.000 F500.000
G1 X-40.000 Y41.079 Z2.500 F500.000
G2 X-40.823 Y42.098 Z2.500 I2.176 J2.597 K0.000 F500.000
G0 Z9.000
G0 X-40.885 Y41.506 Z9.000
G0 X-40.885 Y41.506 Z7.000
G1 X-40.885 Y41.506 Z2.500 F200.000
G2 X-41.506 Y40.885 Z2.500 I-964755.903 J964755.282 K0.000 F500.000
G2 X-41.079 Y40.531 Z2.500 I-1.583 J-2.345 K0.000 F500.000
G1 X-40.531 Y41.079 Z2.500 F500.000
G2 X-40.885 Y41.506 Z2.500 I1.991 J2.010 K0.000 F500.000
G0 Z9.000
G0 X-43.037 Y38.767 Z9.000
G0 X-43.037 Y38.767 Z7.000
G1 X-43.037 Y38.767 Z2.500 F200.000
G3 X-44.368 Y38.693 Z2.500 I-0.624 J-0.794 K0.000 F500.000
G1 X-45.207 Y37.854 Z2.500 F500.000
G3 X-45.207 Y36.440 Z2.500 I0.720 J-0.707 K0.000 F500.000
G1 X-44.236 Y35.469 Z2.500 F500.000
G3 X-43.771 Y35.210 Z2.500 I0.750 J0.798 K0.000 F500.000
G3 X-42.822 Y35.469 Z2.500 I0.242 J0.980 K0.000 F500.000
G1 X-41.983 Y36.308 Z2.500 F500.000
G3 X-41.983 Y37.722 Z2.500 I-0.720 J0.707 K0.000 F500.000
G1 X-42.953 Y38.693 Z2.500 F500.000
G3 X-43.037 Y38.767 Z2.500 I-0.707 J-0.720 K0.000 F500.000
G0 Z9.000
G0 X-46.947 Y37.635 Z9.000
G0 X-46.947 Y37.635 Z7.000
G1 X-46.947 Y37.635 Z2.500 F200.000
G2 X-46.999 Y37.625 Z2.500 I-0.081 J0.277 K0.000 F500.000
G2 X-47.183 Y37.014 Z2.500 I-1.544 J0.133 K0.000 F500.000
G2 X-46.794 Y35.739 Z2.500 I-2.123 J-1.345 K0.000 F500.000
G2 X-46.640 Y35.873 Z2.500 I0.759 J-0.712 K0.000 F500.000
G2 X-46.947 Y37.635 Z2.500 I2.102 J1.273 K0.000 F500.000
G0 Z9.000
G0 X-41.507 Y32.448 Z9.000
G0 X-41.507 Y32.448 Z7.000
G1 X-41.507 Y32.448 Z2.500 F200.000
G1 X-41.504 Y32.075 Z2.500 F500.000
G1 X-40.946 Y31.516 Z2.500 F500.000
G1 X-40.776 Y31.685 Z2.500 F500.000
G2 X-41.483 Y32.413 Z2.500 I3.340 J3.954 K0.000 F500.000
G1 X-41.507 Y32.448 Z2.500 F500.000
G1 X-41.507 Y32.448 Z2.000 F200.000
G1 X-41.504 Y32.075 Z2.000 F500.000
G1 X-40.946 Y31.516 Z2.000 F500.000
G1 X-40.776 Y31.685 Z2.000 F500.000
G2 X-41.483 Y32.413 Z2.000 I3.340 J3.954 K0.000 F500.000
G1 X-41.507 Y32.448 Z2.000 F500.000
G0 Z9.000
G0 X-41.514 Y33.553 Z9.000
G0 X-41.514 Y33.553 Z7.000
G1 X-41.514 Y33.553 Z2.000 F200.000
G2 X-41.390 Y33.713 Z2.000 I0.875 J-0.551 K0.000 F500.000
G1 X-40.743 Y34.361 Z2.000 F500.000
G2 X-41.526 Y35.164 Z2.000 I3.687 J4.377 K0.000 F500.000
G2 X-41.432 Y36.465 Z2.000 I0.809 J0.596 K0.000 F500.000
G1 X-36.465 Y41.432 Z2.000 F500.000
G2 X-35.051 Y41.432 Z2.000 I0.707 J-0.720 K0.000 F500.000
G1 X-34.366 Y40.747 Z2.000 F500.000
G2 X-33.767 Y41.326 Z2.000 I3.238 J-2.753 K0.000 F500.000
G2 X-32.466 Y41.233 Z2.000 I0.596 J-0.809 K0.000 F500.000
G1 X-31.847 Y40.614 Z2.000 F500.000
G1 X-31.516 Y40.946 Z2.000 F500.000
G1 X-32.092 Y41.521 Z2.000 F500.000
G1 X-33.962 Y41.521 Z2.000 F500.000
G2 X-34.669 Y43.229 Z2.000 I0.008 J1.003 K0.000 F500.000
G1 X-34.218 Y43.679 Z2.000 F500.000
G2 X-34.861 Y44.344 Z2.000 I3.049 J3.600 K0.000 F500.000
G2 X-34.768 Y45.644 Z2.000 I0.809 J0.596 K0.000 F500.000
G1 X-33.754 Y46.658 Z2.000 F500.000
G2 X-32.340 Y46.658 Z2.000 I0.707 J-0.720 K0.000 F500.000
G1 X-30.397 Y44.716 Z2.000 F500.000
G1 X-30.132 Y44.981 Z2.000 F500.000
G1 X-34.352 Y49.202 Z2.000 F500.000
G2 X-35.085 Y48.490 Z2.000 I-3.981 J3.362 K0.000 F500.000
G2 X-36.385 Y48.583 Z2.000 I-0.596 J0.809 K0.000 F500.000
G1 X-36.953 Y49.150 Z2.000 F500.000
G2 X-37.502 Y48.630 Z2.000 I-2.471 J2.060 K0.000 F500.000
G2 X-39.071 Y49.446 Z2.000 I-0.569 J0.822 K0.000 F500.000
G1 X-39.071 Y51.396 Z2.000 F500.000
G1 X-39.614 Y51.940 Z2.000 F500.000
G1 X-39.985 Y51.568 Z2.000 F500.000
G2 X-39.306 Y50.868 Z2.000 I-3.212 J-3.798 K0.000 F500.000
G2 X-39.399 Y49.568 Z2.000 I-0.809 J-0.596 K0.000 F500.000
G1 X-40.100 Y48.867 Z2.000 F500.000
G2 X-39.282 Y48.028 Z2.000 I-3.848 J-4.573 K0.000 F500.000
G2 X-39.375 Y46.728 Z2.000 I-0.809 J-0.596 K0.000 F500.000
G1 X-46.728 Y39.375 Z2.000 F500.000
G2 X-48.142 Y39.375 Z2.000 I-0.707 J0.720 K0.000 F500.000
G1 X-48.867 Y40.100 Z2.000 F500.000
G2 X-49.682 Y39.306 Z2.000 I-4.439 J3.738 K0.000 F500.000
G2 X-50.982 Y39.399 Z2.000 I-0.596 J0.809 K0.000 F500.000
G1 X-51.568 Y39.985 Z2.000 F500.000
G1 X-51.940 Y39.614 Z2.000 F500.000
G1 X-51.396 Y39.071 Z2.000 F500.000
G1 X-49.446 Y39.071 Z2.000 F500.000
G2 X-48.739 Y37.363 Z2.000 I-0.008 J-1.003 K0.000 F500.000
G1 X-49.150 Y36.953 Z2.000 F500.000
G2 X-48.490 Y36.272 Z2.000 I-3.127 J-3.694 K0.000 F500.000
G2 X-48.583 Y34.971 Z2.000 I-0.809 J-0.596 K0.000 F500.000
G1 X-49.202 Y34.352 Z2.000 F500.000
G1 X-44.981 Y30.132 Z2.000 F500.000
G1 X-44.738 Y30.375 Z2.000 F500.000
G1 X-46.680 Y32.317 Z2.000 F500.000
G2 X-46.680 Y33.731 Z2.000 I0.720 J0.707 K0.000 F500.000
G1 X-45.686 Y34.725 Z2.000 F500.000
G2 X-44.272 Y34.725 Z2.000 I0.707 J-0.720 K0.000 F500.000
G1 X-43.722 Y34.175 Z2.000 F500.000
G2 X-43.086 Y34.782 Z2.000 I2.886 J-2.389 K0.000 F500.000
G2 X-41.517 Y33.973 Z2.000 I0.570 J-0.821 K0.000 F500.000
G1 X-41.514 Y33.553 Z2.000 F500.000
G0 Z9.000
G0 X-42.916 Y35.388 Z9.000
G0 X-42.916 Y35.388 Z7.000
G1 X-42.916 Y35.388 Z2.000 F200.000
G3 X-42.822 Y35.469 Z2.000 I-0.613 J0.802 K0.000 F500.000
G1 X-41.983 Y36.308 Z2.000 F500.000
G3 X-41.983 Y37.722 Z2.000 I-0.720 J0.707 K0.000 F500.000
G1 X-42.953 Y38.693 Z2.000 F500.000
G3 X-44.368 Y38.693 Z2.000 I-0.707 J-0.720 K0.000 F500.000
G1 X-45.207 Y37.854 Z2.000 F500.000
G3 X-45.207 Y36.440 Z2.000 I0.720 J-0.707 K0.000 F500.000
G1 X-44.236 Y35.469 Z2.000 F500.000
G3 X-43.771 Y35.210 Z2.000 I0.750 J0.798 K0.000 F500.000
G3 X-42.916 Y35.388 Z2.000 I0.242 J0.980 K0.000 F500.000
G0 Z9.000
G0 X-46.640 Y35.873 Z9.000
G0 X-46.640 Y35.873 Z7.000
G1 X-46.640 Y35.873 Z2.000 F200.000
G2 X-46.947 Y37.635 Z2.000 I2.102 J1.273 K0.000 F500.000
G2 X-46.999 Y37.625 Z2.000 I-0.081 J0.277 K0.000 F500.000
G2 X-47.183 Y37.014 Z2.000 I-1.544 J0.133 K0.000 F500.000
G2 X-46.794 Y35.739 Z2.000 I-2.123 J-1.345 K0.000 F500.000
G2 X-46.640 Y35.873 Z2.000 I0.759 J-0.712 K0.000 F500.000
G0 Z9.000
G0 X-43.512 Y40.470 Z9.000
G0 X-43.512 Y40.470 Z7.000
G1 X-43.512 Y40.470 Z2.000 F200.000
G2 X-41.893 Y39.754 Z2.000 I-0.093 J-2.400 K0.000 F500.000
G1 X-41.079 Y38.940 Z2.000 F500.000
G1 X-38.940 Y41.079 Z2.000 F500.000
G2 X-40.034 Y42.234 Z2.000 I5.316 J6.130 K0.000 F500.000
G2 X-40.473 Y43.509 Z2.000 I1.957 J1.387 K0.000 F500.000
G1 X-43.512 Y40.470 Z2.000 F500.000
G0 Z9.000
G0 X-42.748 Y40.703 Z9.000
G0 X-42.748 Y40.703 Z7.000
G1 X-42.748 Y40.703 Z2.000 F200.000
G2 X-41.628 Y40.019 Z2.000 I-0.898 J-2.733 K0.000 F500.000
G1 X-41.079 Y39.470 Z2.000 F500.000
G1 X-39.470 Y41.079 Z2.000 F500.000
G2 X-40.345 Y42.025 Z2.000 I4.368 J4.917 K0.000 F500.000
G2 X-40.697 Y42.754 Z2.000 I1.519 J1.183 K0.000 F500.000
G1 X-42.748 Y40.703 Z2.000 F500.000
G0 Z9.000
G0 X-42.104 Y40.817 Z9.000
G0 X-42.104 Y40.817 Z7.000
G1 X-42.104 Y40.817 Z2.000 F200.000
G2 X-41.079 Y40.000 Z2.000 I-1.317 J-2.707 K0.000 F500.000
G1 X-40.000 Y41.079 Z2.000 F500.000
G2 X-40.823 Y42.098 Z2.000 I2.176 J2.597 K0.000 F500.000
G2 X-42.104 Y40.817 Z2.000 I-4103454.834 J4103453.553 K0.000 F500.000
G0 Z9.000
G0 X-41.506 Y40.885 Z9.000
G0 X-41.506 Y40.885 Z7.000
G1 X-41.506 Y40.885 Z2.000 F200.000
G2 X-41.079 Y40.531 Z2.000 I-1.583 J-2.345 K0.000 F500.000
G1 X-40.531 Y41.079 Z2.000 F500.000
G2 X-40.885 Y41.506 Z2.000 I1.991 J2.010 K0.000 F500.000
G2 X-41.506 Y40.885 Z2.000 I-964755.903 J964755.282 K0.000 F500.000
G0 Z9.000
G0 X-38.767 Y43.037 Z9.000
G0 X-38.767 Y43.037 Z7.000
G1 X-38.767 Y43.037 Z2.000 F200.000
G3 X-38.693 Y42.953 Z2.000 I0.794 J0.624 K0.000 F500.000
G1 X-37.722 Y41.983 Z2.000 F500.000
G3 X-37.257 Y41.723 Z2.000 I0.750 J0.798 K0.000 F500.000
G3 X-36.308 Y41.983 Z2.000 I0.242 J0.980 K0.000 F500.000
G1 X-35.469 Y42.822 Z2.000 F500.000
G3 X-35.469 Y44.236 Z2.000 I-0.720 J0.707 K0.000 F500.000
G1 X-36.440 Y45.207 Z2.000 F500.000
G3 X-37.854 Y45.207 Z2.000 I-0.707 J-0.720 K0.000 F500.000
G1 X-38.693 Y44.368 Z2.000 F500.000
G3 X-38.767 Y43.037 Z2.000 I0.720 J-0.707 K0.000 F500.000
G0 Z9.000
G0 X-37.635 Y46.947 Z9.000
G0 X-37.635 Y46.947 Z7.000
G1 X-37.635 Y46.947 Z2.000 F200.000
G2 X-35.880 Y46.643 Z2.000 I0.489 J-2.398 K0.000 F500.000
G2 X-35.736 Y46.798 Z2.000 I0.860 J-0.654 K0.000 F500.000
G2 X-37.024 Y47.189 Z2.000 I0.009 J2.351 K0.000 F500.000
G2 X-37.626 Y46.990 Z2.000 I-0.790 J1.386 K0.000 F500.000
G1 X-37.635 Y46.947 Z2.000 F500.000
G0 Z9.000
G0 Z9.000
G0 X-37.635 Y46.947
G0 X30.132 Y44.981
G0 X30.132 Y44.981 Z7.000
G1 X30.132 Y44.981 Z3.250 F200.000
G1 X30.375 Y44.738 Z3.250 F500.000
G1 X32.317 Y46.680 Z3.250 F500.000
G2 X33.731 Y46.680 Z3.250 I0.707 J-0.720 K0.000 F500.000
G1 X34.725 Y45.686 Z3.250 F500.000
G2 X34.725 Y44.272 Z3.250 I-0.720 J-0.707 K0.000 F500.000
G1 X34.175 Y43.722 Z3.250 F500.000
G2 X34.782 Y43.086 Z3.250 I-2.389 J-2.886 K0.000 F500.000
G2 X33.973 Y41.517 Z3.250 I-0.821 J-0.570 K0.000 F500.000
G1 X33.553 Y41.514 Z3.250 F500.000
G2 X33.713 Y41.390 Z3.250 I-0.551 J-0.875 K0.000 F500.000
G1 X34.361 Y40.743 Z3.250 F500.000
G2 X35.164 Y41.526 Z3.250 I4.377 J-3.687 K0.000 F500.000
G2 X36.465 Y41.432 Z3.250 I0.596 J-0.809 K0.000 F500.000
G1 X41.432 Y36.465 Z3.250 F500.000
G2 X41.432 Y35.051 Z3.250 I-0.720 J-0.707 K0.000 F500.000
G1 X40.747 Y34.366 Z3.250 F500.000
G2 X41.326 Y33.767 Z3.250 I-2.753 J-3.238 K0.000 F500.000
G2 X41.233 Y32.466 Z3.250 I-0.809 J-0.596 K0.000 F500.000
G1 X40.614 Y31.847 Z3.250 F500.000
G1 X40.946 Y31.516 Z3.250 F500.000
G1 X41.521 Y32.092 Z3.250 F500.000
G1 X41.521 Y33.962 Z3.250 F500.000
G2 X43.229 Y34.669 Z3.250 I1.003 J-0.008 K0.000 F500.000
G1 X43.679 Y34.218 Z3.250 F500.000
G2 X44.344 Y34.861 Z3.250 I3.600 J-3.049 K0.000 F500.000
G2 X45.644 Y34.768 Z3.250 I0.596 J-0.809 K0.000 F500.000
G1 X46.658 Y33.754 Z3.250 F500.000
G2 X46.658 Y32.340 Z3.250 I-0.720 J-0.707 K0.000 F500.000
G1 X44.716 Y30.397 Z3.250 F500.000
G1 X44.981 Y30.132 Z3.250 F500.000
G1 X49.202 Y34.352 Z3.250 F500.000
G2 X48.490 Y35.085 Z3.250 I3.362 J3.981 K0.000 F500.000
G2 X48.583 Y36.385 Z3.250 I0.809 J0.596 K0.000 F500.000
G1 X49.150 Y36.953 Z3.250 F500.000
G2 X48.630 Y37.502 Z3.250 I2.060 J2.471 K0.000 F500.000
G2 X49.446 Y39.071 Z3.250 I0.822 J0.569 K0.000 F500.000
G1 X51.396 Y39.071 Z3.250 F500.000
G1 X51.940 Y39.614 Z3.250 F500.000
G1 X51.568 Y39.985 Z3.250 F500.000
G2 X50.868 Y39.306 Z3.250 I-3.798 J3.212 K0.000 F500.000
G2 X49.568 Y39.399 Z3.250 I-0.596 J0.809 K0.000 F500.000
G1 X48.867 Y40.100 Z3.250 F500.000
G2 X48.028 Y39.282 Z3.250 I-4.573 J3.848 K0.000 F500.000
G2 X46.728 Y39.375 Z3.250 I-0.596 J0.809 K0.000 F500.000
G1 X39.375 Y46.728 Z3.250 F500.000
G2 X39.375 Y48.142 Z3.250 I0.720 J0.707 K0.000 F500.000
G1 X40.100 Y48.867 Z3.250 F500.000
G2 X39.306 Y49.682 Z3.250 I3.738 J4.439 K0.000 F500.000
G2 X39.399 Y50.982 Z3.250 I0.809 J0.596 K0.000 F500.000
G1 X39.985 Y51.568 Z3.250 F500.000
G1 X39.614 Y51.940 Z3.250 F500.000
G1 X39.071 Y51.396 Z3.250 F500.000
G1 X39.071 Y49.446 Z3.250 F500.000
G2 X37.363 Y48.739 Z3.250 I-1.003 J0.008 K0.000 F500.000
G1 X36.953 Y49.150 Z3.250 F500.000
G2 X36.272 Y48.490 Z3.250 I-3.694 J3.127 K0.000 F500.000
G2 X34.971 Y48.583 Z3.250 I-0.596 J0.809 K0.000 F500.000
G1 X34.352 Y49.202 Z3.250 F500.000
G1 X30.132 Y44.981 Z3.250 F500.000
G0 Z9.000
G0 X32.075 Y41.504 Z9.000
G0 X32.075 Y41.504 Z7.000
G1 X32.075 Y41.504 Z3.250 F200.000
G1 X31.516 Y40.946 Z3.250 F500.000
G1 X31.685 Y40.776 Z3.250 F500.000
G2 X32.413 Y41.483 Z3.250 I3.954 J-3.340 K0.000 F500.000
G1 X32.448 Y41.507 Z3.250 F500.000
G1 X32.075 Y41.504 Z3.250 F500.000
G0 Z9.000
G0 X35.284 Y43.083 Z9.000
G0 X35.284 Y43.083 Z7.000
G1 X35.284 Y43.083 Z3.250 F200.000
G3 X35.469 Y42.822 Z3.250 I0.906 J0.446 K0.000 F500.000
G1 X36.308 Y41.983 Z3.250 F500.000
G3 X36.773 Y41.723 Z3.250 I0.750 J0.798 K0.000 F500.000
G3 X37.722 Y41.983 Z3.250 I0.242 J0.980 K0.000 F500.000
G1 X38.693 Y42.953 Z3.250 F500.000
G3 X38.693 Y44.368 Z3.250 I-0.720 J0.707 K0.000 F500.000
G1 X37.854 Y45.207 Z3.250 F500.000
G3 X36.440 Y45.207 Z3.250 I-0.707 J-0.720 K0.000 F500.000
G1 X35.469 Y44.236 Z3.250 F500.000
G3 X35.284 Y43.083 Z3.250 I0.720 J-0.707 K0.000 F500.000
G0 Z9.000
G0 X35.873 Y46.640 Z9.000
G0 X35.873 Y46.640 Z7.000
G1 X35.873 Y46.640 Z3.250 F200.000
G2 X37.635 Y46.947 Z3.250 I1.273 J-2.102 K0.000 F500.000
G2 X37.625 Y46.999 Z3.250 I0.277 J0.081 K0.000 F500.000
G2 X37.014 Y47.183 Z3.250 I0.133 J1.544 K0.000 F500.000
G2 X35.739 Y46.794 Z3.250 I-1.345 J2.123 K0.000 F500.000
G2 X35.873 Y46.640 Z3.250 I-0.712 J-0.759 K0.000 F500.000
G0 Z9.000
G0 X40.470 Y43.512 Z9.000
G0 X40.470 Y43.512 Z7.000
G1 X40.470 Y43.512 Z3.250 F200.000
G2 X39.754 Y41.893 Z3.250 I-2.400 J0.093 K0.000 F500.000
G1 X38.940 Y41.079 Z3.250 F500.000
G1 X41.079 Y38.940 Z3.250 F500.000
G2 X42.234 Y40.034 Z3.250 I6.130 J-5.316 K0.000 F500.000
G2 X43.509 Y40.473 Z3.250 I1.387 J-1.957 K0.000 F500.000
G1 X40.470 Y43.512 Z3.250 F500.000
G0 Z9.000
G0 X40.703 Y42.748 Z9.000
G0 X40.703 Y42.748 Z7.000
G1 X40.703 Y42.748 Z3.250 F200.000
G2 X40.019 Y41.628 Z3.250 I-2.733 J0.898 K0.000 F500.000
G1 X39.470 Y41.079 Z3.250 F500.000
G1 X41.079 Y39.470 Z3.250 F500.000
G2 X42.025 Y40.345 Z3.250 I4.917 J-4.368 K0.000 F500.000
G2 X42.754 Y40.697 Z3.250 I1.183 J-1.519 K0.000 F500.000
G1 X40.703 Y42.748 Z3.250 F500.000
G0 Z9.000
G0 X40.817 Y42.104 Z9.000
G0 X40.817 Y42.104 Z7.000
G1 X40.817 Y42.104 Z3.250 F200.000
G2 X40.000 Y41.079 Z3.250 I-2.707 J1.317 K0.000 F500.000
G1 X41.079 Y40.000 Z3.250 F500.000
G2 X42.098 Y40.823 Z3.250 I2.597 J-2.176 K0.000 F500.000
G2 X40.817 Y42.104 Z3.250 I4103453.553 J4103454.834 K0.000 F500.000
G0 Z9.000
G0 X40.885 Y41.506 Z9.000
G0 X40.885 Y41.506 Z7.000
G1 X40.885 Y41.506 Z3.250 F200.000
G2 X40.531 Y41.079 Z3.250 I-2.345 J1.583 K0.000 F500.000
G1 X41.079 Y40.531 Z3.250 F500.000
G2 X41.506 Y40.885 Z3.250 I2.010 J-1.991 K0.000 F500.000
G2 X40.885 Y41.506 Z3.250 I964755.282 J964755.903 K0.000 F500.000
G0 Z9.000
G0 X43.037 Y38.767 Z9.000
G0 X43.037 Y38.767 Z7.000
G1 X43.037 Y38.767 Z3.250 F200.000
G3 X42.953 Y38.693 Z3.250 I0.624 J-0.794 K0.000 F500.000
G1 X41.983 Y37.722 Z3.250 F500.000
G3 X41.983 Y36.308 Z3.250 I0.720 J-0.707 K0.000 F500.000
G1 X42.822 Y35.469 Z3.250 F500.000
G3 X43.287 Y35.210 Z3.250 I0.750 J0.798 K0.000 F500.000
G3 X44.236 Y35.469 Z3.250 I0.242 J0.980 K0.000 F500.000
G1 X45.207 Y36.440 Z3.250 F500.000
G3 X45.207 Y37.854 Z3.250 I-0.720 J0.707 K0.000 F500.000
G1 X44.368 Y38.693 Z3.250 F500.000
G3 X43.037 Y38.767 Z3.250 I-0.707 J-0.720 K0.000 F500.000
G0 Z9.000
G0 X46.947 Y37.635 Z9.000
G0 X46.947 Y37.635 Z7.000
G1 X46.947 Y37.635 Z3.250 F200.000
G2 X46.643 Y35.880 Z3.250 I-2.398 J-0.489 K0.000 F500.000
G2 X46.798 Y35.736 Z3.250 I-0.654 J-0.860 K0.000 F500.000
G2 X47.189 Y37.024 Z3.250 I2.351 J-0.009 K0.000 F500.000
G2 X46.990 Y37.626 Z3.250 I1.386 J0.790 K0.000 F500.000
G1 X46.947 Y37.635 Z3.250 F500.000
G1 X46.947 Y37.635 Z2.500 F200.000
G2 X46.643 Y35.880 Z2.500 I-2.398 J-0.489 K0.000 F500.000
G2 X46.798 Y35.736 Z2.500 I-0.654 J-0.860 K0.000 F500.000
G2 X47.189 Y37.024 Z2.500 I2.351 J-0.009 K0.000 F500.000
G2 X46.990 Y37.626 Z2.500 I1.386 J0.790 K0.000 F500.000
G1 X46.947 Y37.635 Z2.500 F500.000
G0 Z9.000
G0 X47.238 Y39.105 Z9.000
G0 X47.238 Y39.105 Z7.000
G1 X47.238 Y39.105 Z2.500 F200.000
G2 X46.728 Y39.375 Z2.500 I0.195 J0.985 K0.000 F500.000
G1 X39.375 Y46.728 Z2.500 F500.000
G2 X39.375 Y48.142 Z2.500 I0.720 J0.707 K0.000 F500.000
G1 X40.100 Y48.867 Z2.500 F500.000
G2 X39.306 Y49.682 Z2.500 I3.738 J4.439 K0.000 F500.000
G2 X39.399 Y50.982 Z2.500 I0.809 J0.596 K0.000 F500.000
G1 X39.985 Y51.568 Z2.500 F500.000
G1 X39.614 Y51.940 Z2.500 F500.000
G1 X39.071 Y51.396 Z2.500 F500.000
G1 X39.071 Y49.446 Z2.500 F500.000
G2 X37.363 Y48.739 Z2.500 I-1.003 J0.008 K0.000 F500.000
G1 X36.953 Y49.150 Z2.500 F500.000
G2 X36.272 Y48.490 Z2.500 I-3.694 J3.127 K0.000 F500.000
G2 X34.971 Y48.583 Z2.500 I-0.596 J0.809 K0.000 F500.000
G1 X34.352 Y49.202 Z2.500 F500.000
G1 X30.132 Y44.981 Z2.500 F500.000
G1 X30.375 Y44.738 Z2.500 F500.000
G1 X32.317 Y46.680 Z2.500 F500.000
G2 X33.731 Y46.680 Z2.500 I0.707 J-0.720 K0.000 F500.000
G1 X34.725 Y45.686 Z2.500 F500.000
G2 X34.725 Y44.272 Z2.500 I-0.720 J-0.707 K0.000 F500.000
G1 X34.175 Y43.722 Z2.500 F500.000
G2 X34.782 Y43.086 Z2.500 I-2.389 J-2.886 K0.000 F500.000
G2 X33.973 Y41.517 Z2.500 I-0.821 J-0.570 K0.000 F500.000
G1 X33.553 Y41.514 Z2.500 F500.000
G2 X33.713 Y41.390 Z2.500 I-0.551 J-0.875 K0.000 F500.000
G1 X34.361 Y40.743 Z2.500 F500.000
G2 X35.164 Y41.526 Z2.500 I4.377 J-3.687 K0.000 F500.000
G2 X36.465 Y41.432 Z2.500 I0.596 J-0.809 K0.000 F500.000
G1 X41.432 Y36.465 Z2.500 F500.000
G2 X41.432 Y35.051 Z2.500 I-0.720 J-0.707 K0.000 F500.000
G1 X40.747 Y34.366 Z2.500 F500.000
G2 X41.326 Y33.767 Z2.500 I-2.753 J-3.238 K0.000 F500.000
G2 X41.233 Y32.466 Z2.500 I-0.809 J-0.596 K0.000 F500.000
G1 X40.614 Y31.847 Z2.500 F500.000
G1 X40.946 Y31.516 Z2.500 F500.000
G1 X41.521 Y32.092 Z2.500 F500.000
G1 X41.521 Y33.962 Z2.500 F500.000
G2 X43.229 Y34.669 Z2.500 I1.003 J-0.008 K0.000 F500.000
G1 X43.679 Y34.218 Z2.500 F500.000
G2 X44.344 Y34.861 Z2.500 I3.600 J-3.049 K0.000 F500.000
G2 X45.644 Y34.768 Z2.500 I0.596 J-0.809 K0.000 F500.000
G1 X46.658 Y33.754 Z2.500 F500.000
G2 X46.658 Y32.340 Z2.500 I-0.720 J-0.707 K0.000 F500.000
G1 X44.716 Y30.397 Z2.500 F500.000
G1 X44.981 Y30.132 Z2.500 F500.000
G1 X49.202 Y34.352 Z2.500 F500.000
G2 X48.490 Y35.085 Z2.500 I3.362 J3.981 K0.000 F500.000
G2 X48.583 Y36.385 Z2.500 I0.809 J0.596 K0.000 F500.000
G1 X49.150 Y36.953 Z2.500 F500.000
G2 X48.630 Y37.502 Z2.500 I2.060 J2.471 K0.000 F500.000
G2 X49.446 Y39.071 Z2.500 I0.822 J0.569 K0.000 F500.000
G1 X51.396 Y39.071 Z2.500 F500.000
G1 X51.940 Y39.614 Z2.500 F500.000
G1 X51.568 Y39.985 Z2.500 F500.000
G2 X50.868 Y39.306 Z2.500 I-3.798 J3.212 K0.000 F500.000
G2 X49.568 Y39.399 Z2.500 I-0.596 J0.809 K0.000 F500.000
G1 X48.867 Y40.100 Z2.500 F500.000
G2 X48.028 Y39.282 Z2.500 I-4.573 J3.848 K0.000 F500.000
G2 X47.238 Y39.105 Z2.500 I-0.596 J0.809 K0.000 F500.000
G0 Z9.000
G0 X45.309 Y37.732 Z9.000
G0 X45.309 Y37.732 Z7.000
G1 X45.309 Y37.732 Z2.500 F200.000
G3 X45.207 Y37.854 Z2.500 I-0.822 J-0.585 K0.000 F500.000
G1 X44.368 Y38.693 Z2.500 F500.000
G3 X42.953 Y38.693 Z2.500 I-0.707 J-0.720 K0.000 F500.000
G1 X41.983 Y37.722 Z2.500 F500.000
G3 X41.983 Y36.308 Z2.500 I0.720 J-0.707 K0.000 F500.000
G1 X42.822 Y35.469 Z2.500 F500.000
G3 X43.287 Y35.210 Z2.500 I0.750 J0.798 K0.000 F500.000
G3 X44.236 Y35.469 Z2.500 I0.242 J0.980 K0.000 F500.000
G1 X45.207 Y36.440 Z2.500 F500.000
G3 X45.309 Y37.732 Z2.500 I-0.720 J0.707 K0.000 F500.000
G0 Z9.000
G0 X43.509 Y40.473 Z9.000
G0 X43.509 Y40.473 Z7.000
G1 X43.509 Y40.473 Z2.500 F200.000
G1 X40.470 Y43.512 Z2.500 F500.000
G2 X39.754 Y41.893 Z2.500 I-2.400 J0.093 K0.000 F500.000
G1 X38.940 Y41.079 Z2.500 F500.000
G1 X41.079 Y38.940 Z2.500 F500.000
G2 X42.234 Y40.034 Z2.500 I6.130 J-5.316 K0.000 F500.000
G2 X43.509 Y40.473 Z2.500 I1.387 J-1.957 K0.000 F500.000
G0 Z9.000
G0 X42.754 Y40.697 Z9.000
G0 X42.754 Y40.697 Z7.000
G1 X42.754 Y40.697 Z2.500 F200.000
G1 X40.703 Y42.748 Z2.500 F500.000
G2 X40.019 Y41.628 Z2.500 I-2.733 J0.898 K0.000 F500.000
G1 X39.470 Y41.079 Z2.500 F500.000
G1 X41.079 Y39.470 Z2.500 F500.000
G2 X42.025 Y40.345 Z2.500 I4.917 J-4.368 K0.000 F500.000
G2 X42.754 Y40.697 Z2.500 I1.183 J-1.519 K0.000 F500.000
G0 Z9.000
G0 X42.098 Y40.823 Z9.000
G0 X42.098 Y40.823 Z7.000
G1 X42.098 Y40.823 Z2.500 F200.000
G2 X40.817 Y42.104 Z2.500 I4103453.553 J4103454.834 K0.000 F500.000
G2 X40.000 Y41.079 Z2.500 I-2.707 J1.317 K0.000 F500.000
G1 X41.079 Y40.000 Z2.500 F500.000
G2 X42.098 Y40.823 Z2.500 I2.597 J-2.176 K0.000 F500.000
G0 Z9.000
G0 X41.506 Y40.885 Z9.000
G0 X41.506 Y40.885 Z7.000
G1 X41.506 Y40.885 Z2.500 F200.000
G2 X40.885 Y41.506 Z2.500 I964755.282 J964755.903 K0.000 F500.000
G2 X40.531 Y41.079 Z2.500 I-2.345 J1.583 K0.000 F500.000
G1 X41.079 Y40.531 Z2.500 F500.000
G2 X41.506 Y40.885 Z2.500 I2.010 J-1.991 K0.000 F500.000
G0 Z9.000
G0 X38.767 Y43.037 Z9.000
G0 X38.767 Y43.037 Z7.000
G1 X38.767 Y43.037 Z2.500 F200.000
G3 X38.693 Y44.368 Z2.500 I-0.794 J0.624 K0.000 F500.000
G1 X37.854 Y45.207 Z2.500 F500.000
G3 X36.440 Y45.207 Z2.500 I-0.707 J-0.720 K0.000 F500.000
G1 X35.469 Y44.236 Z2.500 F500.000
G3 X35.469 Y42.822 Z2.500 I0.720 J-0.707 K0.000 F500.000
G1 X36.308 Y41.983 Z2.500 F500.000
G3 X36.773 Y41.723 Z2.500 I0.750 J0.798 K0.000 F500.000
G3 X37.722 Y41.983 Z2.500 I0.242 J0.980 K0.000 F500.000
G1 X38.693 Y42.953 Z2.500 F500.000
G3 X38.767 Y43.037 Z2.500 I-0.720 J0.707 K0.000 F500.000
G0 Z9.000
G0 X37.635 Y46.947 Z9.000
G0 X37.635 Y46.947 Z7.000
G1 X37.635 Y46.947 Z2.500 F200.000
G2 X37.625 Y46.999 Z2.500 I0.277 J0.081 K0.000 F500.000
G2 X37.014 Y47.183 Z2.500 I0.133 J1.544 K0.000 F500.000
G2 X35.739 Y46.794 Z2.500 I-1.345 J2.123 K0.000 F500.000
G2 X35.873 Y46.640 Z2.500 I-0.712 J-0.759 K0.000 F500.000
G2 X37.635 Y46.947 Z2.500 I1.273 J-2.102 K0.000 F500.000
G0 Z9.000
G0 X32.448 Y41.507 Z9.000
G0 X32.448 Y41.507 Z7.000
G1 X32.448 Y41.507 Z2.500 F200.000
G1 X32.075 Y41.504 Z2.500 F500.000
G1 X31.516 Y40.946 Z2.500 F500.000
G1 X31.685 Y40.776 Z2.500 F500.000
G2 X32.413 Y41.483 Z2.500 I3.954 J-3.340 K0.000 F500.000
G1 X32.448 Y41.507 Z2.500 F500.000
G1 X32.448 Y41.507 Z2.000 F200.000
G1 X32.075 Y41.504 Z2.000 F500.000
G1 X31.516 Y40.946 Z2.000 F500.000
G1 X31.685 Y40.776 Z2.000 F500.000
G2 X32.413 Y41.483 Z2.000 I3.954 J-3.340 K0.000 F500.000
G1 X32.448 Y41.507 Z2.000 F500.000
G0 Z9.000
G0 X33.553 Y41.514 Z9.000
G0 X33.553 Y41.514 Z7.000
G1 X33.553 Y41.514 Z2.000 F200.000
G2 X33.713 Y41.390 Z2.000 I-0.551 J-0.875 K0.000 F500.000
G1 X34.361 Y40.743 Z2.000 F500.000
G2 X35.164 Y41.526 Z2.000 I4.377 J-3.687 K0.000 F500.000
G2 X36.465 Y41.432 Z2.000 I0.596 J-0.809 K0.000 F500.000
G1 X41.432 Y36.465 Z2.000 F500.000
G2 X41.432 Y35.051 Z2.000 I-0.720 J-0.707 K0.000 F500.000
G1 X40.747 Y34.366 Z2.000 F500.000
G2 X41.326 Y33.767 Z2.000 I-2.753 J-3.238 K0.000 F500.000
G2 X41.233 Y32.466 Z2.000 I-0.809 J-0.596 K0.000 F500.000
G1 X40.614 Y31.847 Z2.000 F500.000
G1 X40.946 Y31.516 Z2.000 F500.000
G1 X41.521 Y32.092 Z2.000 F500.000
G1 X41.521 Y33.962 Z2.000 F500.000
G2 X43.229 Y34.669 Z2.000 I1.003 J-0.008 K0.000 F500.000
G1 X43.679 Y34.218 Z2.000 F500.000
G2 X44.344 Y34.861 Z2.000 I3.600 J-3.049 K0.000 F500.000
G2 X45.644 Y34.768 Z2.000 I0.596 J-0.809 K0.000 F500.000
G1 X46.658 Y33.754 Z2.000 F500.000
G2 X46.658 Y32.340 Z2.000 I-0.720 J-0.707 K0.000 F500.000
G1 X44.716 Y30.397 Z2.000 F500.000
G1 X44.981 Y30.132 Z2.000 F500.000
G1 X49.202 Y34.352 Z2.000 F500.000
G2 X48.490 Y35.085 Z2.000 I3.362 J3.981 K0.000 F500.000
G2 X48.583 Y36.385 Z2.000 I0.809 J0.596 K0.000 F500.000
G1 X49.150 Y36.953 Z2.000 F500.000
G2 X48.630 Y37.502 Z2.000 I2.060 J2.471 K0.000 F500.000
G2 X49.446 Y39.071 Z2.000 I0.822 J0.569 K0.000 F500.000
G1 X51.396 Y39.071 Z2.000 F500.000
G1 X51.940 Y39.614 Z2.000 F500.000
G1 X51.568 Y39.985 Z2.000 F500.000
G2 X50.868 Y39.306 Z2.000 I-3.798 J3.212 K0.000 F500.000
G2 X49.568 Y39.399 Z2.000 I-0.596 J0.809 K0.000 F500.000
G1 X48.867 Y40.100 Z2.000 F500.000
G2 X48.028 Y39.282 Z2.000 I-4.573 J3.848 K0.000 F500.000
G2 X46.728 Y39.375 Z2.000 I-0.596 J0.809 K0.000 F500.000
G1 X39.375 Y46.728 Z2.000 F500.000
G2 X39.375 Y48.142 Z2.000 I0.720 J0.707 K0.000 F500.000
G1 X40.100 Y48.867 Z2.000 F500.000
G2 X39.306 Y49.682 Z2.000 I3.738 J4.439 K0.000 F500.000
G2 X39.399 Y50.982 Z2.000 I0.809 J0.596 K0.000 F500.000
G1 X39.985 Y51.568 Z2.000 F500.000
G1 X39.614 Y51.940 Z2.000 F500.000
G1 X39.071 Y51.396 Z2.000 F500.000
G1 X39.071 Y49.446 Z2.000 F500.000
G2 X37.363 Y48.739 Z2.000 I-1.003 J0.008 K0.000 F500.000
G1 X36.953 Y49.150 Z2.000 F500.000
G2 X36.272 Y48.490 Z2.000 I-3.694 J3.127 K0.000 F500.000
G2 X34.971 Y48.583 Z2.000 I-0.596 J0.809 K0.000 F500.000
G1 X34.352 Y49.202 Z2.000 F500.000
G1 X30.132 Y44.981 Z2.000 F500.000
G1 X30.375 Y44.738 Z2.000 F500.000
G1 X32.317 Y46.680 Z2.000 F500.000
G2 X33.731 Y46.680 Z2.000 I0.707 J-0.720 K0.000 F500.000
G1 X34.725 Y45.686 Z2.000 F500.000
G2 X34.725 Y44.272 Z2.000 I-0.720 J-0.707 K0.000 F500.000
G1 X34.175 Y43.722 Z2.000 F500.000
G2 X34.782 Y43.086 Z2.000 I-2.389 J-2.886 K0.000 F500.000
G2 X33.973 Y41.517 Z2.000 I-0.821 J-0.570 K0.000 F500.000
G1 X33.553 Y41.514 Z2.000 F500.000
G0 Z9.000
G0 X35.387 Y42.916 Z9.000
G0 X35.387 Y42.916 Z7.000
G1 X35.387 Y42.916 Z2.000 F200.000
G3 X35.469 Y42.822 Z2.000 I0.802 J0.613 K0.000 F500.000
G1 X36.308 Y41.983 Z2.000 F500.000
G3 X36.773 Y41.723 Z2.000 I0.750 J0.798 K0.000 F500.000
G3 X37.722 Y41.983 Z2.000 I0.242 J0.980 K0.000 F500.000
G1 X38.693 Y42.953 Z2.000 F500.000
G3 X38.693 Y44.368 Z2.000 I-0.720 J0.707 K0.000 F500.000
G1 X37.854 Y45.207 Z2.000 F500.000
G3 X36.440 Y45.207 Z2.000 I-0.707 J-0.720 K0.000 F500.000
G1 X35.469 Y44.236 Z2.000 F500.000
G3 X35.387 Y42.916 Z2.000 I0.720 J-0.707 K0.000 F500.000
G0 Z9.000
G0 X35.873 Y46.640 Z9.000
G0 X35.873 Y46.640 Z7.000
G1 X35.873 Y46.640 Z2.000 F200.000
G2 X37.635 Y46.947 Z2.000 I1.273 J-2.102 K0.000 F500.000
G2 X37.625 Y46.999 Z2.000 I0.277 J0.081 K0.000 F500.000
G2 X37.014 Y47.183 Z2.000 I0.133 J1.544 K0.000 F500.000
G2 X35.739 Y46.794 Z2.000 I-1.345 J2.123 K0.000 F500.000
G2 X35.873 Y46.640 Z2.000 I-0.712 J-0.759 K0.000 F500.000
G0 Z9.000
G0 X40.470 Y43.512 Z9.000
G0 X40.470 Y43.512 Z7.000
G1 X40.470 Y43.512 Z2.000 F200.000
G2 X39.754 Y41.893 Z2.000 I-2.400 J0.093 K0.000 F500.000
G1 X38.940 Y41.079 Z2.000 F500.000
G1 X41.079 Y38.940 Z2.000 F500.000
G2 X42.234 Y40.034 Z2.000 I6.130 J-5.316 K0.000 F500.000
G2 X43.509 Y40.473 Z2.000 I1.387 J-1.957 K0.000 F500.000
G1 X40.470 Y43.512 Z2.000 F500.000
G0 Z9.000
G0 X40.703 Y42.748 Z9.000
G0 X40.703 Y42.748 Z7.000
G1 X40.703 Y42.748 Z2.000 F200.000
G2 X40.019 Y41.628 Z2.000 I-2.733 J0.898 K0.000 F500.000
G1 X39.470 Y41.079 Z2.000 F500.000
G1 X41.079 Y39.470 Z2.000 F500.000
G2 X42.025 Y40.345 Z2.000 I4.917 J-4.368 K0.000 F500.000
G2 X42.754 Y40.697 Z2.000 I1.183 J-1.519 K0.000 F500.000
G1 X40.703 Y42.748 Z2.000 F500.000
G0 Z9.000
G0 X40.817 Y42.104 Z9.000
G0 X40.817 Y42.104 Z7.000
G1 X40.817 Y42.104 Z2.000 F200.000
G2 X40.000 Y41.079 Z2.000 I-2.707 J1.317 K0.000 F500.000
G1 X41.079 Y40.000 Z2.000 F500.000
G2 X42.098 Y40.823 Z2.000 I2.597 J-2.176 K0.000 F500.000
