(Exported by FreeCAD)
(Post Processor: grbl_post)
(Output Time:2024-04-17 21:18:02.238214)
(Begin preamble)
G17 G90
G21
(Begin operation: TC: 0.5mm_droite)
(Path: TC: 0.5mm_droite)
(TC: 0.5mm_droite)
(Begin toolchange)
( M6 T2 )
M3 S3000
(Finish operation: TC: 0.5mm_droite)
(Begin operation: Fixture)
(Path: Fixture)
G54
(Finish operation: Fixture)
(Begin operation: Pocket_Shape)
(Path: Pocket_Shape)
(Pocket_Shape)
G0 Z5.000
G0 X-4.466 Y14.893
G0 Z3.000
G1 X-4.466 Y14.893 Z-0.100 F300.000
G2 X-4.464 Y14.897 Z-0.100 I0.051 J-0.030 K0.000 F1200.000
G1 X-4.886 Y15.173 Z-0.100 F1200.000
G1 X-4.889 Y15.170 Z-0.100 F1200.000
G1 X-5.313 Y15.447 Z-0.100 F1200.000
G1 X-5.309 Y15.450 Z-0.100 F1200.000
G1 X-5.732 Y15.727 Z-0.100 F1200.000
G1 X-5.736 Y15.724 Z-0.100 F1200.000
G1 X-6.159 Y16.001 Z-0.100 F1200.000
G1 X-6.155 Y16.004 Z-0.100 F1200.000
G1 X-6.578 Y16.281 Z-0.100 F1200.000
G1 X-6.582 Y16.278 Z-0.100 F1200.000
G1 X-7.005 Y16.555 Z-0.100 F1200.000
G1 X-7.001 Y16.558 Z-0.100 F1200.000
G1 X-7.424 Y16.835 Z-0.100 F1200.000
G1 X-7.428 Y16.832 Z-0.100 F1200.000
G1 X-7.851 Y17.109 Z-0.100 F1200.000
G1 X-7.847 Y17.113 Z-0.100 F1200.000
G1 X-8.270 Y17.390 Z-0.100 F1200.000
G1 X-8.274 Y17.386 Z-0.100 F1200.000
G1 X-8.697 Y17.663 Z-0.100 F1200.000
G1 X-8.693 Y17.667 Z-0.100 F1200.000
G1 X-9.116 Y17.944 Z-0.100 F1200.000
G1 X-9.120 Y17.940 Z-0.100 F1200.000
G1 X-9.543 Y18.217 Z-0.100 F1200.000
G1 X-9.539 Y18.221 Z-0.100 F1200.000
G1 X-9.962 Y18.498 Z-0.100 F1200.000
G1 X-9.966 Y18.494 Z-0.100 F1200.000
G1 X-10.389 Y18.771 Z-0.100 F1200.000
G1 X-10.385 Y18.775 Z-0.100 F1200.000
G1 X-10.808 Y19.052 Z-0.100 F1200.000
G1 X-10.812 Y19.048 Z-0.100 F1200.000
G1 X-11.235 Y19.325 Z-0.100 F1200.000
G1 X-11.231 Y19.329 Z-0.100 F1200.000
G1 X-11.654 Y19.606 Z-0.100 F1200.000
G1 X-11.658 Y19.602 Z-0.100 F1200.000
G1 X-12.081 Y19.879 Z-0.100 F1200.000
G1 X-12.077 Y19.883 Z-0.100 F1200.000
G1 X-12.500 Y20.160 Z-0.100 F1200.000
G1 X-12.504 Y20.156 Z-0.100 F1200.000
G1 X-12.927 Y20.433 Z-0.100 F1200.000
G1 X-12.923 Y20.437 Z-0.100 F1200.000
G1 X-13.346 Y20.714 Z-0.100 F1200.000
G1 X-13.350 Y20.710 Z-0.100 F1200.000
G1 X-13.773 Y20.987 Z-0.100 F1200.000
G1 X-13.769 Y20.991 Z-0.100 F1200.000
G1 X-14.192 Y21.268 Z-0.100 F1200.000
G1 X-14.196 Y21.264 Z-0.100 F1200.000
G1 X-14.619 Y21.541 Z-0.100 F1200.000
G1 X-14.615 Y21.545 Z-0.100 F1200.000
G1 X-15.038 Y21.822 Z-0.100 F1200.000
G1 X-15.042 Y21.818 Z-0.100 F1200.000
G1 X-15.465 Y22.095 Z-0.100 F1200.000
G1 X-15.462 Y22.099 Z-0.100 F1200.000
G1 X-15.885 Y22.376 Z-0.100 F1200.000
G1 X-15.888 Y22.372 Z-0.100 F1200.000
G1 X-16.311 Y22.649 Z-0.100 F1200.000
G1 X-16.308 Y22.653 Z-0.100 F1200.000
G1 X-16.731 Y22.930 Z-0.100 F1200.000
G1 X-16.734 Y22.926 Z-0.100 F1200.000
G1 X-17.157 Y23.203 Z-0.100 F1200.000
G1 X-17.154 Y23.207 Z-0.100 F1200.000
G1 X-17.577 Y23.484 Z-0.100 F1200.000
G1 X-17.580 Y23.480 Z-0.100 F1200.000
G1 X-18.003 Y23.757 Z-0.100 F1200.000
G1 X-18.000 Y23.761 Z-0.100 F1200.000
G1 X-18.423 Y24.038 Z-0.100 F1200.000
G1 X-18.426 Y24.034 Z-0.100 F1200.000
G1 X-18.849 Y24.311 Z-0.100 F1200.000
G1 X-18.846 Y24.315 Z-0.100 F1200.000
G1 X-19.269 Y24.592 Z-0.100 F1200.000
G1 X-19.272 Y24.588 Z-0.100 F1200.000
G1 X-19.695 Y24.865 Z-0.100 F1200.000
G1 X-19.692 Y24.869 Z-0.100 F1200.000
G1 X-20.115 Y25.146 Z-0.100 F1200.000
G1 X-20.118 Y25.142 Z-0.100 F1200.000
G1 X-20.541 Y25.419 Z-0.100 F1200.000
G1 X-20.538 Y25.423 Z-0.100 F1200.000
G1 X-20.961 Y25.700 Z-0.100 F1200.000
G1 X-20.964 Y25.696 Z-0.100 F1200.000
G1 X-21.387 Y25.973 Z-0.100 F1200.000
G1 X-21.384 Y25.977 Z-0.100 F1200.000
G1 X-21.807 Y26.254 Z-0.100 F1200.000
G1 X-21.811 Y26.250 Z-0.100 F1200.000
G1 X-22.234 Y26.527 Z-0.100 F1200.000
G1 X-22.230 Y26.531 Z-0.100 F1200.000
G1 X-22.653 Y26.808 Z-0.100 F1200.000
G1 X-22.657 Y26.804 Z-0.100 F1200.000
G1 X-23.080 Y27.081 Z-0.100 F1200.000
G1 X-23.076 Y27.085 Z-0.100 F1200.000
G1 X-23.499 Y27.362 Z-0.100 F1200.000
G1 X-23.503 Y27.358 Z-0.100 F1200.000
G1 X-23.926 Y27.635 Z-0.100 F1200.000
G1 X-23.922 Y27.639 Z-0.100 F1200.000
G1 X-24.345 Y27.916 Z-0.100 F1200.000
G1 X-24.349 Y27.912 Z-0.100 F1200.000
G1 X-24.772 Y28.189 Z-0.100 F1200.000
G1 X-24.768 Y28.193 Z-0.100 F1200.000
G1 X-25.191 Y28.470 Z-0.100 F1200.000
G1 X-25.195 Y28.466 Z-0.100 F1200.000
G1 X-25.618 Y28.743 Z-0.100 F1200.000
G1 X-25.614 Y28.747 Z-0.100 F1200.000
G1 X-26.037 Y29.024 Z-0.100 F1200.000
G1 X-26.041 Y29.020 Z-0.100 F1200.000
G1 X-26.464 Y29.297 Z-0.100 F1200.000
G1 X-26.460 Y29.301 Z-0.100 F1200.000
G1 X-26.883 Y29.578 Z-0.100 F1200.000
G1 X-26.887 Y29.574 Z-0.100 F1200.000
G1 X-27.310 Y29.851 Z-0.100 F1200.000
G1 X-27.306 Y29.855 Z-0.100 F1200.000
G1 X-27.729 Y30.132 Z-0.100 F1200.000
G1 X-27.733 Y30.128 Z-0.100 F1200.000
G1 X-28.156 Y30.405 Z-0.100 F1200.000
G1 X-28.152 Y30.409 Z-0.100 F1200.000
G1 X-28.575 Y30.686 Z-0.100 F1200.000
G1 X-28.579 Y30.682 Z-0.100 F1200.000
G1 X-29.002 Y30.959 Z-0.100 F1200.000
G1 X-28.998 Y30.963 Z-0.100 F1200.000
G1 X-29.421 Y31.240 Z-0.100 F1200.000
G1 X-29.425 Y31.236 Z-0.100 F1200.000
G1 X-29.848 Y31.513 Z-0.100 F1200.000
G1 X-29.844 Y31.517 Z-0.100 F1200.000
G1 X-30.267 Y31.794 Z-0.100 F1200.000
G1 X-30.271 Y31.790 Z-0.100 F1200.000
G1 X-30.694 Y32.067 Z-0.100 F1200.000
G1 X-30.690 Y32.071 Z-0.100 F1200.000
G1 X-31.113 Y32.348 Z-0.100 F1200.000
G1 X-31.117 Y32.344 Z-0.100 F1200.000
G1 X-31.540 Y32.621 Z-0.100 F1200.000
G1 X-31.536 Y32.625 Z-0.100 F1200.000
G1 X-31.960 Y32.902 Z-0.100 F1200.000
G1 X-31.963 Y32.898 Z-0.100 F1200.000
G1 X-32.386 Y33.175 Z-0.100 F1200.000
G1 X-32.383 Y33.179 Z-0.100 F1200.000
G1 X-32.806 Y33.456 Z-0.100 F1200.000
G1 X-32.809 Y33.452 Z-0.100 F1200.000
G1 X-33.232 Y33.729 Z-0.100 F1200.000
G1 X-33.229 Y33.733 Z-0.100 F1200.000
G1 X-33.652 Y34.010 Z-0.100 F1200.000
G1 X-33.655 Y34.006 Z-0.100 F1200.000
G1 X-34.078 Y34.284 Z-0.100 F1200.000
G1 X-34.075 Y34.287 Z-0.100 F1200.000
G1 X-34.498 Y34.564 Z-0.100 F1200.000
G1 X-34.501 Y34.561 Z-0.100 F1200.000
G1 X-34.924 Y34.838 Z-0.100 F1200.000
G1 X-34.921 Y34.841 Z-0.100 F1200.000
G1 X-35.344 Y35.118 Z-0.100 F1200.000
G1 X-35.347 Y35.115 Z-0.100 F1200.000
G1 X-35.770 Y35.392 Z-0.100 F1200.000
G1 X-35.767 Y35.395 Z-0.100 F1200.000
G1 X-36.190 Y35.672 Z-0.100 F1200.000
G1 X-36.193 Y35.669 Z-0.100 F1200.000
G1 X-36.616 Y35.946 Z-0.100 F1200.000
G1 X-36.613 Y35.949 Z-0.100 F1200.000
G1 X-37.036 Y36.226 Z-0.100 F1200.000
G1 X-37.039 Y36.223 Z-0.100 F1200.000
G1 X-37.462 Y36.500 Z-0.100 F1200.000
G1 X-37.459 Y36.503 Z-0.100 F1200.000
G1 X-37.882 Y36.780 Z-0.100 F1200.000
G1 X-37.885 Y36.777 Z-0.100 F1200.000
G1 X-38.309 Y37.054 Z-0.100 F1200.000
G1 X-38.305 Y37.057 Z-0.100 F1200.000
G1 X-38.728 Y37.334 Z-0.100 F1200.000
G1 X-38.732 Y37.331 Z-0.100 F1200.000
G1 X-39.155 Y37.608 Z-0.100 F1200.000
G1 X-39.151 Y37.611 Z-0.100 F1200.000
G1 X-39.574 Y37.888 Z-0.100 F1200.000
G1 X-39.578 Y37.885 Z-0.100 F1200.000
G1 X-40.001 Y38.162 Z-0.100 F1200.000
G1 X-39.997 Y38.165 Z-0.100 F1200.000
G1 X-40.420 Y38.442 Z-0.100 F1200.000
G1 X-40.424 Y38.439 Z-0.100 F1200.000
G1 X-40.847 Y38.716 Z-0.100 F1200.000
G1 X-40.843 Y38.719 Z-0.100 F1200.000
G1 X-41.266 Y38.996 Z-0.100 F1200.000
G1 X-41.270 Y38.993 Z-0.100 F1200.000
G1 X-41.693 Y39.270 Z-0.100 F1200.000
G1 X-41.689 Y39.273 Z-0.100 F1200.000
G1 X-42.112 Y39.550 Z-0.100 F1200.000
G1 X-42.116 Y39.547 Z-0.100 F1200.000
G1 X-42.539 Y39.824 Z-0.100 F1200.000
G1 X-42.535 Y39.827 Z-0.100 F1200.000
G1 X-42.958 Y40.104 Z-0.100 F1200.000
G1 X-42.962 Y40.101 Z-0.100 F1200.000
G1 X-43.385 Y40.378 Z-0.100 F1200.000
G1 X-43.381 Y40.381 Z-0.100 F1200.000
G1 X-43.804 Y40.658 Z-0.100 F1200.000
G1 X-43.808 Y40.655 Z-0.100 F1200.000
G1 X-44.231 Y40.932 Z-0.100 F1200.000
G1 X-44.227 Y40.935 Z-0.100 F1200.000
G1 X-44.650 Y41.212 Z-0.100 F1200.000
G1 X-44.654 Y41.209 Z-0.100 F1200.000
G1 X-45.077 Y41.486 Z-0.100 F1200.000
G1 X-45.073 Y41.489 Z-0.100 F1200.000
G1 X-45.496 Y41.766 Z-0.100 F1200.000
G1 X-45.500 Y41.763 Z-0.100 F1200.000
G1 X-45.923 Y42.040 Z-0.100 F1200.000
G1 X-45.919 Y42.043 Z-0.100 F1200.000
G1 X-46.342 Y42.320 Z-0.100 F1200.000
G1 X-46.346 Y42.317 Z-0.100 F1200.000
G1 X-46.769 Y42.594 Z-0.100 F1200.000
G1 X-46.765 Y42.597 Z-0.100 F1200.000
G1 X-47.188 Y42.874 Z-0.100 F1200.000
G1 X-47.192 Y42.871 Z-0.100 F1200.000
G1 X-47.615 Y43.148 Z-0.100 F1200.000
G1 X-47.611 Y43.151 Z-0.100 F1200.000
G1 X-48.035 Y43.428 Z-0.100 F1200.000
G1 X-48.038 Y43.425 Z-0.100 F1200.000
G1 X-48.461 Y43.702 Z-0.100 F1200.000
G1 X-48.458 Y43.705 Z-0.100 F1200.000
G1 X-48.881 Y43.982 Z-0.100 F1200.000
G1 X-48.884 Y43.979 Z-0.100 F1200.000
G1 X-49.307 Y44.256 Z-0.100 F1200.000
G1 X-49.304 Y44.259 Z-0.100 F1200.000
G1 X-49.727 Y44.536 Z-0.100 F1200.000
G1 X-49.730 Y44.533 Z-0.100 F1200.000
G1 X-50.153 Y44.810 Z-0.100 F1200.000
G1 X-50.150 Y44.813 Z-0.100 F1200.000
G1 X-50.573 Y45.090 Z-0.100 F1200.000
G1 X-50.576 Y45.087 Z-0.100 F1200.000
G1 X-50.999 Y45.364 Z-0.100 F1200.000
G1 X-50.996 Y45.368 Z-0.100 F1200.000
G1 X-51.419 Y45.645 Z-0.100 F1200.000
G1 X-51.422 Y45.641 Z-0.100 F1200.000
G1 X-51.845 Y45.918 Z-0.100 F1200.000
G1 X-51.842 Y45.922 Z-0.100 F1200.000
G1 X-52.265 Y46.199 Z-0.100 F1200.000
G1 X-52.268 Y46.195 Z-0.100 F1200.000
G1 X-52.691 Y46.472 Z-0.100 F1200.000
G1 X-52.688 Y46.476 Z-0.100 F1200.000
G1 X-53.111 Y46.753 Z-0.100 F1200.000
G1 X-53.114 Y46.749 Z-0.100 F1200.000
G1 X-53.537 Y47.026 Z-0.100 F1200.000
G1 X-53.534 Y47.030 Z-0.100 F1200.000
G1 X-53.957 Y47.307 Z-0.100 F1200.000
G1 X-53.960 Y47.303 Z-0.100 F1200.000
G1 X-54.384 Y47.580 Z-0.100 F1200.000
G1 X-54.380 Y47.584 Z-0.100 F1200.000
G1 X-54.803 Y47.861 Z-0.100 F1200.000
G1 X-54.807 Y47.857 Z-0.100 F1200.000
G1 X-55.230 Y48.134 Z-0.100 F1200.000
G1 X-55.226 Y48.138 Z-0.100 F1200.000
G1 X-55.649 Y48.415 Z-0.100 F1200.000
G1 X-55.653 Y48.411 Z-0.100 F1200.000
G1 X-56.076 Y48.688 Z-0.100 F1200.000
G1 X-56.072 Y48.692 Z-0.100 F1200.000
G1 X-56.495 Y48.969 Z-0.100 F1200.000
G1 X-56.499 Y48.965 Z-0.100 F1200.000
G1 X-56.922 Y49.242 Z-0.100 F1200.000
G1 X-56.918 Y49.246 Z-0.100 F1200.000
G1 X-57.341 Y49.523 Z-0.100 F1200.000
G1 X-57.345 Y49.519 Z-0.100 F1200.000
G1 X-57.768 Y49.796 Z-0.100 F1200.000
G1 X-57.764 Y49.800 Z-0.100 F1200.000
G1 X-58.187 Y50.077 Z-0.100 F1200.000
G1 X-58.191 Y50.073 Z-0.100 F1200.000
G1 X-58.614 Y50.350 Z-0.100 F1200.000
G1 X-58.610 Y50.354 Z-0.100 F1200.000
G1 X-59.033 Y50.631 Z-0.100 F1200.000
G1 X-59.037 Y50.627 Z-0.100 F1200.000
G1 X-59.460 Y50.904 Z-0.100 F1200.000
G1 X-59.456 Y50.908 Z-0.100 F1200.000
G1 X-59.879 Y51.185 Z-0.100 F1200.000
G1 X-59.883 Y51.181 Z-0.100 F1200.000
G1 X-60.306 Y51.458 Z-0.100 F1200.000
G1 X-60.302 Y51.462 Z-0.100 F1200.000
G1 X-60.725 Y51.739 Z-0.100 F1200.000
G1 X-60.729 Y51.735 Z-0.100 F1200.000
G1 X-61.152 Y52.012 Z-0.100 F1200.000
G1 X-61.148 Y52.016 Z-0.100 F1200.000
G1 X-61.571 Y52.293 Z-0.100 F1200.000
G1 X-61.575 Y52.289 Z-0.100 F1200.000
G1 X-61.998 Y52.566 Z-0.100 F1200.000
G1 X-61.994 Y52.570 Z-0.100 F1200.000
G1 X-62.417 Y52.847 Z-0.100 F1200.000
G1 X-62.421 Y52.843 Z-0.100 F1200.000
G1 X-62.844 Y53.120 Z-0.100 F1200.000
G1 X-62.840 Y53.124 Z-0.100 F1200.000
G1 X-63.263 Y53.401 Z-0.100 F1200.000
G1 X-63.267 Y53.397 Z-0.100 F1200.000
G1 X-63.690 Y53.674 Z-0.100 F1200.000
G1 X-63.686 Y53.678 Z-0.100 F1200.000
G1 X-64.109 Y53.955 Z-0.100 F1200.000
G1 X-64.113 Y53.951 Z-0.100 F1200.000
G1 X-64.536 Y54.228 Z-0.100 F1200.000
G1 X-64.533 Y54.232 Z-0.100 F1200.000
G1 X-64.956 Y54.509 Z-0.100 F1200.000
G1 X-64.959 Y54.505 Z-0.100 F1200.000
G1 X-65.382 Y54.782 Z-0.100 F1200.000
G1 X-65.379 Y54.786 Z-0.100 F1200.000
G1 X-65.802 Y55.063 Z-0.100 F1200.000
G1 X-65.805 Y55.059 Z-0.100 F1200.000
G1 X-66.228 Y55.336 Z-0.100 F1200.000
G1 X-66.225 Y55.340 Z-0.100 F1200.000
G1 X-66.648 Y55.617 Z-0.100 F1200.000
G1 X-66.651 Y55.613 Z-0.100 F1200.000
G1 X-67.074 Y55.890 Z-0.100 F1200.000
G1 X-67.071 Y55.894 Z-0.100 F1200.000
G1 X-67.494 Y56.171 Z-0.100 F1200.000
G1 X-67.497 Y56.167 Z-0.100 F1200.000
G1 X-67.920 Y56.444 Z-0.100 F1200.000
G1 X-67.917 Y56.448 Z-0.100 F1200.000
G1 X-68.340 Y56.725 Z-0.100 F1200.000
G1 X-68.343 Y56.721 Z-0.100 F1200.000
G1 X-68.766 Y56.998 Z-0.100 F1200.000
G1 X-68.763 Y57.002 Z-0.100 F1200.000
G1 X-69.186 Y57.279 Z-0.100 F1200.000
G1 X-69.189 Y57.275 Z-0.100 F1200.000
G1 X-69.612 Y57.552 Z-0.100 F1200.000
G1 X-69.609 Y57.556 Z-0.100 F1200.000
G1 X-70.032 Y57.833 Z-0.100 F1200.000
G1 X-70.035 Y57.829 Z-0.100 F1200.000
G1 X-70.458 Y58.106 Z-0.100 F1200.000
G1 X-70.455 Y58.110 Z-0.100 F1200.000
G1 X-70.878 Y58.387 Z-0.100 F1200.000
G1 X-70.882 Y58.383 Z-0.100 F1200.000
G1 X-71.305 Y58.660 Z-0.100 F1200.000
G1 X-71.301 Y58.664 Z-0.100 F1200.000
G1 X-71.724 Y58.941 Z-0.100 F1200.000
G1 X-71.728 Y58.937 Z-0.100 F1200.000
G1 X-72.151 Y59.214 Z-0.100 F1200.000
G1 X-72.147 Y59.218 Z-0.100 F1200.000
G1 X-72.570 Y59.495 Z-0.100 F1200.000
G1 X-72.574 Y59.491 Z-0.100 F1200.000
G1 X-72.997 Y59.768 Z-0.100 F1200.000
G1 X-72.993 Y59.772 Z-0.100 F1200.000
G1 X-73.416 Y60.049 Z-0.100 F1200.000
G1 X-73.420 Y60.045 Z-0.100 F1200.000
G1 X-73.843 Y60.322 Z-0.100 F1200.000
G1 X-73.839 Y60.326 Z-0.100 F1200.000
G1 X-74.262 Y60.603 Z-0.100 F1200.000
G1 X-74.266 Y60.599 Z-0.100 F1200.000
G1 X-74.689 Y60.876 Z-0.100 F1200.000
G1 X-74.685 Y60.880 Z-0.100 F1200.000
G1 X-75.108 Y61.157 Z-0.100 F1200.000
G1 X-75.112 Y61.153 Z-0.100 F1200.000
G1 X-75.535 Y61.430 Z-0.100 F1200.000
G1 X-75.531 Y61.434 Z-0.100 F1200.000
G1 X-75.954 Y61.711 Z-0.100 F1200.000
G1 X-75.958 Y61.707 Z-0.100 F1200.000
G1 X-76.381 Y61.984 Z-0.100 F1200.000
G1 X-76.377 Y61.988 Z-0.100 F1200.000
G1 X-76.800 Y62.265 Z-0.100 F1200.000
G1 X-76.804 Y62.261 Z-0.100 F1200.000
G1 X-77.227 Y62.539 Z-0.100 F1200.000
G1 X-77.223 Y62.542 Z-0.100 F1200.000
G1 X-77.646 Y62.819 Z-0.100 F1200.000
G1 X-77.650 Y62.816 Z-0.100 F1200.000
G1 X-78.073 Y63.093 Z-0.100 F1200.000
G1 X-78.069 Y63.096 Z-0.100 F1200.000
G1 X-78.492 Y63.373 Z-0.100 F1200.000
G1 X-78.496 Y63.370 Z-0.100 F1200.000
G1 X-78.919 Y63.647 Z-0.100 F1200.000
G1 X-78.915 Y63.650 Z-0.100 F1200.000
G1 X-79.338 Y63.927 Z-0.100 F1200.000
G1 X-79.342 Y63.924 Z-0.100 F1200.000
G1 X-79.765 Y64.201 Z-0.100 F1200.000
G1 X-79.761 Y64.204 Z-0.100 F1200.000
G1 X-80.184 Y64.481 Z-0.100 F1200.000
G1 X-80.188 Y64.478 Z-0.100 F1200.000
G1 X-80.611 Y64.755 Z-0.100 F1200.000
G1 X-80.607 Y64.758 Z-0.100 F1200.000
G1 X-81.031 Y65.035 Z-0.100 F1200.000
G1 X-81.034 Y65.032 Z-0.100 F1200.000
G1 X-81.457 Y65.309 Z-0.100 F1200.000
G1 X-81.454 Y65.312 Z-0.100 F1200.000
G1 X-81.877 Y65.589 Z-0.100 F1200.000
G1 X-81.880 Y65.586 Z-0.100 F1200.000
G1 X-82.303 Y65.863 Z-0.100 F1200.000
G1 X-82.300 Y65.866 Z-0.100 F1200.000
G1 X-82.723 Y66.143 Z-0.100 F1200.000
G1 X-82.726 Y66.140 Z-0.100 F1200.000
G1 X-83.149 Y66.417 Z-0.100 F1200.000
G1 X-83.146 Y66.420 Z-0.100 F1200.000
G1 X-83.569 Y66.697 Z-0.100 F1200.000
G1 X-83.572 Y66.694 Z-0.100 F1200.000
G1 X-83.995 Y66.971 Z-0.100 F1200.000
G1 X-83.992 Y66.974 Z-0.100 F1200.000
G1 X-84.415 Y67.251 Z-0.100 F1200.000
G1 X-84.418 Y67.248 Z-0.100 F1200.000
G1 X-84.841 Y67.525 Z-0.100 F1200.000
G1 X-84.838 Y67.528 Z-0.100 F1200.000
G1 X-85.261 Y67.805 Z-0.100 F1200.000
G1 X-85.264 Y67.802 Z-0.100 F1200.000
G1 X-85.687 Y68.079 Z-0.100 F1200.000
G1 X-85.684 Y68.082 Z-0.100 F1200.000
G1 X-86.107 Y68.359 Z-0.100 F1200.000
G1 X-86.110 Y68.356 Z-0.100 F1200.000
G1 X-86.533 Y68.633 Z-0.100 F1200.000
G1 X-86.530 Y68.636 Z-0.100 F1200.000
G1 X-86.953 Y68.913 Z-0.100 F1200.000
G1 X-86.956 Y68.910 Z-0.100 F1200.000
G1 X-87.380 Y69.187 Z-0.100 F1200.000
G1 X-87.376 Y69.190 Z-0.100 F1200.000
G1 X-87.799 Y69.467 Z-0.100 F1200.000
G1 X-87.803 Y69.464 Z-0.100 F1200.000
G1 X-88.226 Y69.741 Z-0.100 F1200.000
G1 X-88.222 Y69.744 Z-0.100 F1200.000
G1 X-88.645 Y70.021 Z-0.100 F1200.000
G1 X-88.649 Y70.018 Z-0.100 F1200.000
G1 X-89.072 Y70.295 Z-0.100 F1200.000
G1 X-89.068 Y70.298 Z-0.100 F1200.000
G1 X-89.491 Y70.575 Z-0.100 F1200.000
G1 X-89.495 Y70.572 Z-0.100 F1200.000
G1 X-89.918 Y70.849 Z-0.100 F1200.000
G1 X-89.914 Y70.852 Z-0.100 F1200.000
G1 X-90.337 Y71.129 Z-0.100 F1200.000
G1 X-90.341 Y71.126 Z-0.100 F1200.000
G1 X-90.764 Y71.403 Z-0.100 F1200.000
G1 X-90.760 Y71.406 Z-0.100 F1200.000
G1 X-91.183 Y71.683 Z-0.100 F1200.000
G1 X-91.187 Y71.680 Z-0.100 F1200.000
G1 X-91.610 Y71.957 Z-0.100 F1200.000
G1 X-91.606 Y71.960 Z-0.100 F1200.000
G1 X-92.029 Y72.237 Z-0.100 F1200.000
G1 X-92.033 Y72.234 Z-0.100 F1200.000
G1 X-92.456 Y72.511 Z-0.100 F1200.000
G1 X-92.452 Y72.514 Z-0.100 F1200.000
G1 X-92.875 Y72.791 Z-0.100 F1200.000
G1 X-92.879 Y72.788 Z-0.100 F1200.000
G1 X-93.302 Y73.065 Z-0.100 F1200.000
G1 X-93.298 Y73.068 Z-0.100 F1200.000
G1 X-93.721 Y73.346 Z-0.100 F1200.000
G1 X-93.725 Y73.342 Z-0.100 F1200.000
G1 X-94.148 Y73.619 Z-0.100 F1200.000
G1 X-94.144 Y73.623 Z-0.100 F1200.000
G1 X-94.567 Y73.900 Z-0.100 F1200.000
G1 X-94.571 Y73.896 Z-0.100 F1200.000
G1 X-94.994 Y74.173 Z-0.100 F1200.000
G1 X-94.990 Y74.177 Z-0.100 F1200.000
G1 X-95.413 Y74.454 Z-0.100 F1200.000
G1 X-95.417 Y74.450 Z-0.100 F1200.000
G1 X-95.840 Y74.727 Z-0.100 F1200.000
G1 X-95.836 Y74.731 Z-0.100 F1200.000
G1 X-96.259 Y75.008 Z-0.100 F1200.000
G1 X-96.263 Y75.004 Z-0.100 F1200.000
G1 X-96.686 Y75.281 Z-0.100 F1200.000
G1 X-96.682 Y75.285 Z-0.100 F1200.000
G1 X-97.106 Y75.562 Z-0.100 F1200.000
G1 X-97.109 Y75.558 Z-0.100 F1200.000
G1 X-97.532 Y75.835 Z-0.100 F1200.000
G1 X-97.529 Y75.839 Z-0.100 F1200.000
G1 X-97.952 Y76.116 Z-0.100 F1200.000
G1 X-97.955 Y76.112 Z-0.100 F1200.000
G1 X-98.378 Y76.389 Z-0.100 F1200.000
G1 X-98.375 Y76.393 Z-0.100 F1200.000
G1 X-98.798 Y76.670 Z-0.100 F1200.000
G1 X-98.801 Y76.666 Z-0.100 F1200.000
G1 X-99.224 Y76.943 Z-0.100 F1200.000
G1 X-99.221 Y76.947 Z-0.100 F1200.000
G1 X-99.644 Y77.224 Z-0.100 F1200.000
G1 X-99.647 Y77.220 Z-0.100 F1200.000
G1 X-100.070 Y77.497 Z-0.100 F1200.000
G1 X-100.067 Y77.501 Z-0.100 F1200.000
G1 X-100.490 Y77.778 Z-0.100 F1200.000
G1 X-100.493 Y77.774 Z-0.100 F1200.000
G1 X-100.916 Y78.051 Z-0.100 F1200.000
G1 X-100.913 Y78.055 Z-0.100 F1200.000
G1 X-101.336 Y78.332 Z-0.100 F1200.000
G1 X-101.339 Y78.328 Z-0.100 F1200.000
G1 X-101.762 Y78.605 Z-0.100 F1200.000
G1 X-101.759 Y78.609 Z-0.100 F1200.000
G1 X-102.182 Y78.886 Z-0.100 F1200.000
G1 X-102.185 Y78.882 Z-0.100 F1200.000
G1 X-102.608 Y79.159 Z-0.100 F1200.000
G1 X-102.605 Y79.163 Z-0.100 F1200.000
G1 X-103.028 Y79.440 Z-0.100 F1200.000
G1 X-103.031 Y79.436 Z-0.100 F1200.000
G1 X-103.455 Y79.713 Z-0.100 F1200.000
G1 X-103.451 Y79.717 Z-0.100 F1200.000
G1 X-103.874 Y79.994 Z-0.100 F1200.000
G1 X-103.878 Y79.990 Z-0.100 F1200.000
G1 X-104.301 Y80.267 Z-0.100 F1200.000
G1 X-104.297 Y80.271 Z-0.100 F1200.000
G1 X-104.720 Y80.548 Z-0.100 F1200.000
G1 X-104.724 Y80.544 Z-0.100 F1200.000
G1 X-105.147 Y80.821 Z-0.100 F1200.000
G1 X-105.143 Y80.825 Z-0.100 F1200.000
G1 X-105.566 Y81.102 Z-0.100 F1200.000
G1 X-105.570 Y81.098 Z-0.100 F1200.000
G1 X-105.993 Y81.375 Z-0.100 F1200.000
G1 X-105.989 Y81.379 Z-0.100 F1200.000
G1 X-106.412 Y81.656 Z-0.100 F1200.000
G1 X-106.416 Y81.652 Z-0.100 F1200.000
G1 X-106.839 Y81.929 Z-0.100 F1200.000
G1 X-106.835 Y81.933 Z-0.100 F1200.000
G1 X-107.258 Y82.210 Z-0.100 F1200.000
G1 X-107.262 Y82.206 Z-0.100 F1200.000
G1 X-107.685 Y82.483 Z-0.100 F1200.000
G1 X-107.681 Y82.487 Z-0.100 F1200.000
G1 X-108.104 Y82.764 Z-0.100 F1200.000
G1 X-108.108 Y82.760 Z-0.100 F1200.000
G1 X-108.531 Y83.037 Z-0.100 F1200.000
G1 X-108.527 Y83.041 Z-0.100 F1200.000
G1 X-108.950 Y83.318 Z-0.100 F1200.000
G1 X-108.954 Y83.314 Z-0.100 F1200.000
G1 X-109.377 Y83.591 Z-0.100 F1200.000
G1 X-109.373 Y83.595 Z-0.100 F1200.000
G1 X-109.796 Y83.872 Z-0.100 F1200.000
G1 X-109.800 Y83.868 Z-0.100 F1200.000
G1 X-110.223 Y84.145 Z-0.100 F1200.000
G1 X-110.219 Y84.149 Z-0.100 F1200.000
G1 X-110.642 Y84.426 Z-0.100 F1200.000
G1 X-110.646 Y84.422 Z-0.100 F1200.000
G1 X-111.069 Y84.699 Z-0.100 F1200.000
G1 X-111.065 Y84.703 Z-0.100 F1200.000
G1 X-111.488 Y84.980 Z-0.100 F1200.000
G1 X-111.492 Y84.976 Z-0.100 F1200.000
G1 X-111.915 Y85.253 Z-0.100 F1200.000
G1 X-111.911 Y85.257 Z-0.100 F1200.000
G1 X-112.334 Y85.534 Z-0.100 F1200.000
G1 X-112.338 Y85.530 Z-0.100 F1200.000
G1 X-112.761 Y85.807 Z-0.100 F1200.000
G1 X-112.757 Y85.811 Z-0.100 F1200.000
G1 X-113.180 Y86.088 Z-0.100 F1200.000
G1 X-113.184 Y86.084 Z-0.100 F1200.000
G1 X-113.607 Y86.361 Z-0.100 F1200.000
G1 X-113.604 Y86.365 Z-0.100 F1200.000
G1 X-114.027 Y86.642 Z-0.100 F1200.000
G1 X-114.030 Y86.638 Z-0.100 F1200.000
G1 X-114.453 Y86.915 Z-0.100 F1200.000
G1 X-114.450 Y86.919 Z-0.100 F1200.000
G1 X-114.873 Y87.196 Z-0.100 F1200.000
G1 X-114.876 Y87.192 Z-0.100 F1200.000
G1 X-115.299 Y87.469 Z-0.100 F1200.000
G1 X-115.296 Y87.473 Z-0.100 F1200.000
G1 X-115.719 Y87.750 Z-0.100 F1200.000
G1 X-115.722 Y87.746 Z-0.100 F1200.000
G1 X-116.145 Y88.023 Z-0.100 F1200.000
G1 X-116.142 Y88.027 Z-0.100 F1200.000
G1 X-116.565 Y88.304 Z-0.100 F1200.000
G1 X-116.568 Y88.300 Z-0.100 F1200.000
G1 X-116.991 Y88.577 Z-0.100 F1200.000
G1 X-116.988 Y88.581 Z-0.100 F1200.000
G1 X-117.411 Y88.858 Z-0.100 F1200.000
G1 X-117.414 Y88.854 Z-0.100 F1200.000
G1 X-117.837 Y89.131 Z-0.100 F1200.000
G1 X-117.834 Y89.135 Z-0.100 F1200.000
G1 X-118.257 Y89.412 Z-0.100 F1200.000
G1 X-118.260 Y89.408 Z-0.100 F1200.000
G1 X-118.683 Y89.685 Z-0.100 F1200.000
G1 X-118.680 Y89.689 Z-0.100 F1200.000
G1 X-119.103 Y89.966 Z-0.100 F1200.000
G1 X-119.106 Y89.962 Z-0.100 F1200.000
G1 X-119.529 Y90.239 Z-0.100 F1200.000
G1 X-119.526 Y90.243 Z-0.100 F1200.000
G1 X-119.949 Y90.520 Z-0.100 F1200.000
G1 X-119.953 Y90.517 Z-0.100 F1200.000
G1 X-120.376 Y90.794 Z-0.100 F1200.000
G1 X-120.372 Y90.797 Z-0.100 F1200.000
G1 X-120.795 Y91.074 Z-0.100 F1200.000
G1 X-120.799 Y91.071 Z-0.100 F1200.000
G1 X-121.222 Y91.348 Z-0.100 F1200.000
G1 X-121.218 Y91.351 Z-0.100 F1200.000
G1 X-121.641 Y91.628 Z-0.100 F1200.000
G1 X-121.645 Y91.625 Z-0.100 F1200.000
G1 X-122.068 Y91.902 Z-0.100 F1200.000
G1 X-122.064 Y91.905 Z-0.100 F1200.000
G1 X-122.487 Y92.182 Z-0.100 F1200.000
G1 X-122.491 Y92.179 Z-0.100 F1200.000
G1 X-122.914 Y92.456 Z-0.100 F1200.000
G1 X-122.910 Y92.459 Z-0.100 F1200.000
G1 X-123.333 Y92.736 Z-0.100 F1200.000
G1 X-123.337 Y92.733 Z-0.100 F1200.000
G1 X-123.760 Y93.010 Z-0.100 F1200.000
G1 X-123.756 Y93.013 Z-0.100 F1200.000
G1 X-124.179 Y93.290 Z-0.100 F1200.000
G1 X-124.183 Y93.287 Z-0.100 F1200.000
G1 X-124.606 Y93.564 Z-0.100 F1200.000
G1 X-124.602 Y93.567 Z-0.100 F1200.000
G1 X-125.025 Y93.844 Z-0.100 F1200.000
G1 X-125.029 Y93.841 Z-0.100 F1200.000
G1 X-125.452 Y94.118 Z-0.100 F1200.000
G1 X-125.448 Y94.121 Z-0.100 F1200.000
G1 X-125.871 Y94.398 Z-0.100 F1200.000
G1 X-125.875 Y94.395 Z-0.100 F1200.000
G1 X-126.298 Y94.672 Z-0.100 F1200.000
G1 X-126.294 Y94.675 Z-0.100 F1200.000
G1 X-126.717 Y94.952 Z-0.100 F1200.000
G1 X-126.721 Y94.949 Z-0.100 F1200.000
G1 X-127.144 Y95.226 Z-0.100 F1200.000
G1 X-127.140 Y95.229 Z-0.100 F1200.000
G1 X-127.563 Y95.506 Z-0.100 F1200.000
G1 X-127.567 Y95.503 Z-0.100 F1200.000
G1 X-127.990 Y95.780 Z-0.100 F1200.000
G1 X-127.986 Y95.783 Z-0.100 F1200.000
G1 X-128.409 Y96.060 Z-0.100 F1200.000
G1 X-128.413 Y96.057 Z-0.100 F1200.000
G1 X-128.836 Y96.334 Z-0.100 F1200.000
G1 X-128.832 Y96.337 Z-0.100 F1200.000
G1 X-129.255 Y96.614 Z-0.100 F1200.000
G1 X-129.259 Y96.611 Z-0.100 F1200.000
G1 X-129.682 Y96.888 Z-0.100 F1200.000
G1 X-129.678 Y96.891 Z-0.100 F1200.000
G1 X-130.102 Y97.168 Z-0.100 F1200.000
G1 X-130.105 Y97.165 Z-0.100 F1200.000
G1 X-130.528 Y97.442 Z-0.100 F1200.000
G1 X-130.525 Y97.445 Z-0.100 F1200.000
G1 X-130.948 Y97.722 Z-0.100 F1200.000
G1 X-130.951 Y97.719 Z-0.100 F1200.000
G1 X-131.374 Y97.996 Z-0.100 F1200.000
G1 X-131.371 Y97.999 Z-0.100 F1200.000
G1 X-131.794 Y98.276 Z-0.100 F1200.000
G1 X-131.797 Y98.273 Z-0.100 F1200.000
G1 X-132.220 Y98.550 Z-0.100 F1200.000
G1 X-132.217 Y98.553 Z-0.100 F1200.000
G1 X-132.640 Y98.830 Z-0.100 F1200.000
G1 X-132.643 Y98.827 Z-0.100 F1200.000
G1 X-133.066 Y99.104 Z-0.100 F1200.000
G1 X-133.063 Y99.107 Z-0.100 F1200.000
G1 X-133.486 Y99.384 Z-0.100 F1200.000
G1 X-133.489 Y99.381 Z-0.100 F1200.000
G1 X-133.912 Y99.658 Z-0.100 F1200.000
G1 X-133.909 Y99.661 Z-0.100 F1200.000
G1 X-134.332 Y99.938 Z-0.100 F1200.000
G1 X-134.335 Y99.935 Z-0.100 F1200.000
G1 X-134.758 Y100.212 Z-0.100 F1200.000
G1 X-134.755 Y100.215 Z-0.100 F1200.000
G1 X-135.178 Y100.492 Z-0.100 F1200.000
G1 X-135.181 Y100.489 Z-0.100 F1200.000
G1 X-135.604 Y100.766 Z-0.100 F1200.000
G1 X-135.601 Y100.769 Z-0.100 F1200.000
G1 X-136.024 Y101.046 Z-0.100 F1200.000
G1 X-136.027 Y101.043 Z-0.100 F1200.000
G1 X-136.451 Y101.320 Z-0.100 F1200.000
G1 X-136.447 Y101.323 Z-0.100 F1200.000
G1 X-136.870 Y101.601 Z-0.100 F1200.000
G1 X-136.874 Y101.597 Z-0.100 F1200.000
G1 X-137.297 Y101.874 Z-0.100 F1200.000
G1 X-137.293 Y101.878 Z-0.100 F1200.000
G1 X-137.716 Y102.155 Z-0.100 F1200.000
G1 X-137.720 Y102.151 Z-0.100 F1200.000
G1 X-138.143 Y102.428 Z-0.100 F1200.000
G1 X-138.139 Y102.432 Z-0.100 F1200.000
G1 X-138.562 Y102.709 Z-0.100 F1200.000
G1 X-138.566 Y102.705 Z-0.100 F1200.000
G1 X-138.989 Y102.982 Z-0.100 F1200.000
G1 X-138.985 Y102.986 Z-0.100 F1200.000
G1 X-139.408 Y103.263 Z-0.100 F1200.000
G1 X-139.412 Y103.259 Z-0.100 F1200.000
G1 X-139.835 Y103.536 Z-0.100 F1200.000
G1 X-139.831 Y103.540 Z-0.100 F1200.000
G1 X-140.254 Y103.817 Z-0.100 F1200.000
G1 X-140.258 Y103.813 Z-0.100 F1200.000
G1 X-140.681 Y104.090 Z-0.100 F1200.000
G1 X-140.677 Y104.094 Z-0.100 F1200.000
G1 X-141.100 Y104.371 Z-0.100 F1200.000
G1 X-141.104 Y104.367 Z-0.100 F1200.000
G1 X-141.527 Y104.644 Z-0.100 F1200.000
G1 X-141.523 Y104.648 Z-0.100 F1200.000
G1 X-141.946 Y104.925 Z-0.100 F1200.000
G1 X-141.950 Y104.921 Z-0.100 F1200.000
G1 X-142.373 Y105.198 Z-0.100 F1200.000
G1 X-142.369 Y105.202 Z-0.100 F1200.000
G1 X-142.792 Y105.479 Z-0.100 F1200.000
G1 X-142.796 Y105.475 Z-0.100 F1200.000
G1 X-143.219 Y105.752 Z-0.100 F1200.000
G1 X-143.215 Y105.756 Z-0.100 F1200.000
G1 X-143.638 Y106.033 Z-0.100 F1200.000
G1 X-143.642 Y106.029 Z-0.100 F1200.000
G1 X-144.065 Y106.306 Z-0.100 F1200.000
G1 X-144.061 Y106.310 Z-0.100 F1200.000
G1 X-144.484 Y106.587 Z-0.100 F1200.000
G1 X-144.488 Y106.583 Z-0.100 F1200.000
G1 X-144.911 Y106.860 Z-0.100 F1200.000
G1 X-144.907 Y106.864 Z-0.100 F1200.000
G1 X-145.330 Y107.141 Z-0.100 F1200.000
G1 X-145.334 Y107.137 Z-0.100 F1200.000
G1 X-145.757 Y107.414 Z-0.100 F1200.000
G1 X-145.753 Y107.418 Z-0.100 F1200.000
G1 X-146.177 Y107.695 Z-0.100 F1200.000
G1 X-146.180 Y107.691 Z-0.100 F1200.000
G1 X-146.603 Y107.968 Z-0.100 F1200.000
G1 X-146.600 Y107.972 Z-0.100 F1200.000
G1 X-147.023 Y108.249 Z-0.100 F1200.000
G1 X-147.026 Y108.245 Z-0.100 F1200.000
G1 X-147.449 Y108.522 Z-0.100 F1200.000
G1 X-147.446 Y108.526 Z-0.100 F1200.000
G1 X-147.869 Y108.803 Z-0.100 F1200.000
G1 X-147.872 Y108.799 Z-0.100 F1200.000
G1 X-148.295 Y109.076 Z-0.100 F1200.000
G1 X-148.292 Y109.080 Z-0.100 F1200.000
G1 X-148.715 Y109.357 Z-0.100 F1200.000
G1 X-148.718 Y109.353 Z-0.100 F1200.000
G1 X-149.141 Y109.630 Z-0.100 F1200.000
G1 X-149.138 Y109.634 Z-0.100 F1200.000
G1 X-149.561 Y109.911 Z-0.100 F1200.000
G1 X-149.564 Y109.907 Z-0.100 F1200.000
G1 X-149.987 Y110.184 Z-0.100 F1200.000
G1 X-149.984 Y110.188 Z-0.100 F1200.000
G1 X-150.407 Y110.465 Z-0.100 F1200.000
G1 X-150.410 Y110.461 Z-0.100 F1200.000
G1 X-150.833 Y110.738 Z-0.100 F1200.000
G1 X-150.830 Y110.742 Z-0.100 F1200.000
G1 X-151.253 Y111.019 Z-0.100 F1200.000
G1 X-151.256 Y111.015 Z-0.100 F1200.000
G1 X-151.679 Y111.292 Z-0.100 F1200.000
G1 X-151.676 Y111.296 Z-0.100 F1200.000
G1 X-152.099 Y111.573 Z-0.100 F1200.000
G1 X-152.102 Y111.569 Z-0.100 F1200.000
G1 X-152.526 Y111.846 Z-0.100 F1200.000
G1 X-152.522 Y111.850 Z-0.100 F1200.000
G1 X-152.945 Y112.127 Z-0.100 F1200.000
G1 X-152.949 Y112.123 Z-0.100 F1200.000
G1 X-153.372 Y112.400 Z-0.100 F1200.000
G1 X-153.368 Y112.404 Z-0.100 F1200.000
G1 X-153.791 Y112.681 Z-0.100 F1200.000
G1 X-153.795 Y112.677 Z-0.100 F1200.000
G1 X-154.218 Y112.954 Z-0.100 F1200.000
G1 X-154.214 Y112.958 Z-0.100 F1200.000
G1 X-154.637 Y113.235 Z-0.100 F1200.000
G1 X-154.641 Y113.231 Z-0.100 F1200.000
G1 X-155.064 Y113.508 Z-0.100 F1200.000
G1 X-155.060 Y113.512 Z-0.100 F1200.000
G1 X-155.483 Y113.789 Z-0.100 F1200.000
G1 X-155.487 Y113.785 Z-0.100 F1200.000
G1 X-155.910 Y114.062 Z-0.100 F1200.000
G1 X-155.906 Y114.066 Z-0.100 F1200.000
G1 X-156.329 Y114.343 Z-0.100 F1200.000
G1 X-156.333 Y114.339 Z-0.100 F1200.000
G1 X-156.756 Y114.616 Z-0.100 F1200.000
G1 X-156.752 Y114.620 Z-0.100 F1200.000
G1 X-157.175 Y114.897 Z-0.100 F1200.000
G1 X-157.179 Y114.893 Z-0.100 F1200.000
G1 X-157.602 Y115.170 Z-0.100 F1200.000
G1 X-157.598 Y115.174 Z-0.100 F1200.000
G1 X-158.021 Y115.451 Z-0.100 F1200.000
G1 X-158.025 Y115.447 Z-0.100 F1200.000
G1 X-158.448 Y115.724 Z-0.100 F1200.000
G1 X-158.444 Y115.728 Z-0.100 F1200.000
G1 X-158.867 Y116.005 Z-0.100 F1200.000
G1 X-158.871 Y116.001 Z-0.100 F1200.000
G1 X-159.294 Y116.278 Z-0.100 F1200.000
G1 X-159.290 Y116.282 Z-0.100 F1200.000
G1 X-159.713 Y116.559 Z-0.100 F1200.000
G1 X-159.717 Y116.555 Z-0.100 F1200.000
G1 X-160.140 Y116.832 Z-0.100 F1200.000
G1 X-160.136 Y116.836 Z-0.100 F1200.000
G1 X-160.559 Y117.113 Z-0.100 F1200.000
G1 X-160.563 Y117.109 Z-0.100 F1200.000
G1 X-160.986 Y117.386 Z-0.100 F1200.000
G1 X-160.982 Y117.390 Z-0.100 F1200.000
G1 X-161.405 Y117.667 Z-0.100 F1200.000
G1 X-161.409 Y117.663 Z-0.100 F1200.000
G1 X-161.832 Y117.940 Z-0.100 F1200.000
G1 X-161.828 Y117.944 Z-0.100 F1200.000
G1 X-162.251 Y118.221 Z-0.100 F1200.000
G1 X-162.255 Y118.217 Z-0.100 F1200.000
G1 X-162.678 Y118.494 Z-0.100 F1200.000
G1 X-162.675 Y118.498 Z-0.100 F1200.000
G1 X-163.098 Y118.775 Z-0.100 F1200.000
G1 X-163.101 Y118.772 Z-0.100 F1200.000
G1 X-163.524 Y119.049 Z-0.100 F1200.000
G1 X-163.521 Y119.052 Z-0.100 F1200.000
G1 X-163.944 Y119.329 Z-0.100 F1200.000
G1 X-163.947 Y119.326 Z-0.100 F1200.000
G1 X-164.370 Y119.603 Z-0.100 F1200.000
G1 X-164.367 Y119.606 Z-0.100 F1200.000
G1 X-164.790 Y119.883 Z-0.100 F1200.000
G1 X-164.793 Y119.880 Z-0.100 F1200.000
G1 X-165.216 Y120.157 Z-0.100 F1200.000
G1 X-165.213 Y120.160 Z-0.100 F1200.000
G1 X-165.636 Y120.437 Z-0.100 F1200.000
G1 X-165.639 Y120.434 Z-0.100 F1200.000
G1 X-166.062 Y120.711 Z-0.100 F1200.000
G1 X-166.059 Y120.714 Z-0.100 F1200.000
G1 X-166.482 Y120.991 Z-0.100 F1200.000
G1 X-166.485 Y120.988 Z-0.100 F1200.000
G1 X-166.908 Y121.265 Z-0.100 F1200.000
G1 X-166.905 Y121.268 Z-0.100 F1200.000
G1 X-167.328 Y121.545 Z-0.100 F1200.000
G1 X-167.331 Y121.542 Z-0.100 F1200.000
G1 X-167.754 Y121.819 Z-0.100 F1200.000
G1 X-167.751 Y121.822 Z-0.100 F1200.000
G1 X-168.174 Y122.099 Z-0.100 F1200.000
G1 X-168.177 Y122.096 Z-0.100 F1200.000
G1 X-168.600 Y122.373 Z-0.100 F1200.000
G1 X-168.597 Y122.376 Z-0.100 F1200.000
G1 X-169.020 Y122.653 Z-0.100 F1200.000
G1 X-169.024 Y122.650 Z-0.100 F1200.000
G1 X-169.447 Y122.927 Z-0.100 F1200.000
G1 X-169.443 Y122.930 Z-0.100 F1200.000
G1 X-169.866 Y123.207 Z-0.100 F1200.000
G1 X-169.870 Y123.204 Z-0.100 F1200.000
G1 X-170.293 Y123.481 Z-0.100 F1200.000
G1 X-170.289 Y123.484 Z-0.100 F1200.000
G1 X-170.712 Y123.761 Z-0.100 F1200.000
G1 X-170.716 Y123.758 Z-0.100 F1200.000
G1 X-171.139 Y124.035 Z-0.100 F1200.000
G1 X-171.135 Y124.038 Z-0.100 F1200.000
G1 X-171.558 Y124.315 Z-0.100 F1200.000
G1 X-171.562 Y124.312 Z-0.100 F1200.000
G1 X-171.985 Y124.589 Z-0.100 F1200.000
G1 X-171.981 Y124.592 Z-0.100 F1200.000
G1 X-172.404 Y124.869 Z-0.100 F1200.000
G1 X-172.408 Y124.866 Z-0.100 F1200.000
G1 X-172.831 Y125.143 Z-0.100 F1200.000
G1 X-172.827 Y125.146 Z-0.100 F1200.000
G1 X-173.250 Y125.423 Z-0.100 F1200.000
G1 X-173.254 Y125.420 Z-0.100 F1200.000
G1 X-173.677 Y125.697 Z-0.100 F1200.000
G1 X-173.673 Y125.700 Z-0.100 F1200.000
G1 X-174.096 Y125.977 Z-0.100 F1200.000
G1 X-174.100 Y125.974 Z-0.100 F1200.000
G1 X-174.523 Y126.251 Z-0.100 F1200.000
G1 X-174.519 Y126.254 Z-0.100 F1200.000
G1 X-174.942 Y126.531 Z-0.100 F1200.000
G1 X-174.946 Y126.528 Z-0.100 F1200.000
G1 X-175.369 Y126.805 Z-0.100 F1200.000
G1 X-175.365 Y126.808 Z-0.100 F1200.000
G1 X-175.788 Y127.085 Z-0.100 F1200.000
G1 X-175.792 Y127.082 Z-0.100 F1200.000
G1 X-176.215 Y127.359 Z-0.100 F1200.000
G1 X-176.211 Y127.362 Z-0.100 F1200.000
G1 X-176.634 Y127.639 Z-0.100 F1200.000
G1 X-176.638 Y127.636 Z-0.100 F1200.000
G1 X-176.883 Y127.796 Z-0.100 F1200.000
G3 X-176.880 Y127.800 Z-0.100 I-0.048 J0.034 K0.000 F1200.000
G1 X-176.634 Y127.639 Z-0.100 F1200.000
G0 Z5.000
G0 Z5.000
G0 X-176.634 Y127.639
G0 X-106.228 Y85.057
G0 X-106.228 Y85.057 Z3.000
G1 X-106.228 Y85.057 Z-0.100 F300.000
G1 X-105.970 Y86.015 Z-0.100 F1200.000
G1 X-105.977 Y86.008 Z-0.100 F1200.000
G1 X-105.719 Y86.966 Z-0.100 F1200.000
G1 X-105.711 Y86.973 Z-0.100 F1200.000
G1 X-105.453 Y87.931 Z-0.100 F1200.000
G1 X-105.460 Y87.924 Z-0.100 F1200.000
G1 X-105.202 Y88.882 Z-0.100 F1200.000
G1 X-105.195 Y88.889 Z-0.100 F1200.000
G1 X-104.937 Y89.847 Z-0.100 F1200.000
G1 X-104.944 Y89.840 Z-0.100 F1200.000
G1 X-104.686 Y90.798 Z-0.100 F1200.000
G1 X-104.679 Y90.806 Z-0.100 F1200.000
G1 X-104.421 Y91.764 Z-0.100 F1200.000
G1 X-104.428 Y91.757 Z-0.100 F1200.000
G1 X-104.170 Y92.715 Z-0.100 F1200.000
G1 X-104.163 Y92.722 Z-0.100 F1200.000
G1 X-103.905 Y93.680 Z-0.100 F1200.000
G1 X-103.912 Y93.673 Z-0.100 F1200.000
G1 X-103.654 Y94.631 Z-0.100 F1200.000
G1 X-103.647 Y94.638 Z-0.100 F1200.000
G1 X-103.388 Y95.596 Z-0.100 F1200.000
G1 X-103.396 Y95.589 Z-0.100 F1200.000
G1 X-103.137 Y96.547 Z-0.100 F1200.000
G1 X-103.130 Y96.554 Z-0.100 F1200.000
G1 X-102.872 Y97.513 Z-0.100 F1200.000
G1 X-102.879 Y97.505 Z-0.100 F1200.000
G1 X-102.621 Y98.464 Z-0.100 F1200.000
G1 X-102.614 Y98.471 Z-0.100 F1200.000
G1 X-102.356 Y99.429 Z-0.100 F1200.000
G1 X-102.363 Y99.422 Z-0.100 F1200.000
G1 X-102.105 Y100.380 Z-0.100 F1200.000
G1 X-102.098 Y100.387 Z-0.100 F1200.000
G1 X-101.840 Y101.345 Z-0.100 F1200.000
G1 X-101.847 Y101.338 Z-0.100 F1200.000
G1 X-101.589 Y102.296 Z-0.100 F1200.000
G1 X-101.582 Y102.303 Z-0.100 F1200.000
G1 X-101.324 Y103.261 Z-0.100 F1200.000
G1 X-101.331 Y103.254 Z-0.100 F1200.000
G1 X-101.073 Y104.212 Z-0.100 F1200.000
G1 X-101.066 Y104.220 Z-0.100 F1200.000
G1 X-100.807 Y105.178 Z-0.100 F1200.000
G1 X-100.814 Y105.171 Z-0.100 F1200.000
G1 X-100.556 Y106.129 Z-0.100 F1200.000
G1 X-100.549 Y106.136 Z-0.100 F1200.000
G1 X-100.291 Y107.094 Z-0.100 F1200.000
G1 X-100.298 Y107.087 Z-0.100 F1200.000
G1 X-100.040 Y108.045 Z-0.100 F1200.000
G1 X-100.033 Y108.052 Z-0.100 F1200.000
G1 X-99.775 Y109.010 Z-0.100 F1200.000
G1 X-99.782 Y109.003 Z-0.100 F1200.000
G1 X-99.524 Y109.961 Z-0.100 F1200.000
G1 X-99.517 Y109.968 Z-0.100 F1200.000
G1 X-99.259 Y110.927 Z-0.100 F1200.000
G1 X-99.266 Y110.919 Z-0.100 F1200.000
G1 X-99.008 Y111.878 Z-0.100 F1200.000
G1 X-99.001 Y111.885 Z-0.100 F1200.000
G1 X-98.743 Y112.843 Z-0.100 F1200.000
G1 X-98.750 Y112.836 Z-0.100 F1200.000
G1 X-98.492 Y113.794 Z-0.100 F1200.000
G1 X-98.484 Y113.801 Z-0.100 F1200.000
G1 X-98.226 Y114.759 Z-0.100 F1200.000
G1 X-98.233 Y114.752 Z-0.100 F1200.000
G1 X-97.975 Y115.710 Z-0.100 F1200.000
G1 X-97.968 Y115.717 Z-0.100 F1200.000
G1 X-97.710 Y116.675 Z-0.100 F1200.000
G1 X-97.717 Y116.668 Z-0.100 F1200.000
G1 X-97.459 Y117.626 Z-0.100 F1200.000
G1 X-97.452 Y117.634 Z-0.100 F1200.000
G1 X-97.194 Y118.592 Z-0.100 F1200.000
G1 X-97.201 Y118.585 Z-0.100 F1200.000
G1 X-96.943 Y119.543 Z-0.100 F1200.000
G1 X-96.936 Y119.550 Z-0.100 F1200.000
G1 X-96.678 Y120.508 Z-0.100 F1200.000
G1 X-96.685 Y120.501 Z-0.100 F1200.000
G1 X-96.427 Y121.459 Z-0.100 F1200.000
G1 X-96.420 Y121.466 Z-0.100 F1200.000
G1 X-96.161 Y122.424 Z-0.100 F1200.000
G1 X-96.169 Y122.417 Z-0.100 F1200.000
G1 X-95.910 Y123.375 Z-0.100 F1200.000
G1 X-95.903 Y123.382 Z-0.100 F1200.000
G1 X-95.645 Y124.341 Z-0.100 F1200.000
G1 X-95.652 Y124.333 Z-0.100 F1200.000
G1 X-95.394 Y125.292 Z-0.100 F1200.000
G1 X-95.387 Y125.299 Z-0.100 F1200.000
G1 X-95.129 Y126.257 Z-0.100 F1200.000
G1 X-95.136 Y126.250 Z-0.100 F1200.000
G1 X-94.878 Y127.208 Z-0.100 F1200.000
G1 X-94.871 Y127.215 Z-0.100 F1200.000
G1 X-94.613 Y128.173 Z-0.100 F1200.000
G1 X-94.620 Y128.166 Z-0.100 F1200.000
G1 X-94.362 Y129.124 Z-0.100 F1200.000
G1 X-94.355 Y129.131 Z-0.100 F1200.000
G1 X-94.097 Y130.089 Z-0.100 F1200.000
G1 X-94.104 Y130.082 Z-0.100 F1200.000
G1 X-93.846 Y131.040 Z-0.100 F1200.000
G1 X-93.839 Y131.048 Z-0.100 F1200.000
G1 X-93.580 Y132.006 Z-0.100 F1200.000
G1 X-93.587 Y131.999 Z-0.100 F1200.000
G1 X-93.329 Y132.957 Z-0.100 F1200.000
G1 X-93.322 Y132.964 Z-0.100 F1200.000
G1 X-93.064 Y133.922 Z-0.100 F1200.000
G1 X-93.071 Y133.915 Z-0.100 F1200.000
G1 X-92.813 Y134.873 Z-0.100 F1200.000
G1 X-92.806 Y134.880 Z-0.100 F1200.000
G1 X-92.548 Y135.838 Z-0.100 F1200.000
G1 X-92.555 Y135.831 Z-0.100 F1200.000
G1 X-92.297 Y136.789 Z-0.100 F1200.000
G1 X-92.290 Y136.796 Z-0.100 F1200.000
G1 X-92.032 Y137.755 Z-0.100 F1200.000
G1 X-92.039 Y137.747 Z-0.100 F1200.000
G1 X-91.781 Y138.706 Z-0.100 F1200.000
G1 X-91.774 Y138.713 Z-0.100 F1200.000
G1 X-91.516 Y139.671 Z-0.100 F1200.000
G1 X-91.523 Y139.664 Z-0.100 F1200.000
G1 X-91.265 Y140.622 Z-0.100 F1200.000
G1 X-91.257 Y140.629 Z-0.100 F1200.000
G1 X-90.999 Y141.587 Z-0.100 F1200.000
G1 X-91.006 Y141.580 Z-0.100 F1200.000
G1 X-90.748 Y142.538 Z-0.100 F1200.000
G1 X-90.741 Y142.545 Z-0.100 F1200.000
G1 X-90.483 Y143.503 Z-0.100 F1200.000
G1 X-90.490 Y143.496 Z-0.100 F1200.000
G1 X-90.232 Y144.454 Z-0.100 F1200.000
G1 X-90.225 Y144.462 Z-0.100 F1200.000
G1 X-89.967 Y145.420 Z-0.100 F1200.000
G1 X-89.974 Y145.413 Z-0.100 F1200.000
G1 X-89.716 Y146.371 Z-0.100 F1200.000
G1 X-89.709 Y146.378 Z-0.100 F1200.000
G1 X-89.451 Y147.336 Z-0.100 F1200.000
G1 X-89.458 Y147.329 Z-0.100 F1200.000
G1 X-89.200 Y148.287 Z-0.100 F1200.000
G1 X-89.193 Y148.294 Z-0.100 F1200.000
G1 X-88.934 Y149.252 Z-0.100 F1200.000
G1 X-88.942 Y149.245 Z-0.100 F1200.000
G1 X-88.683 Y150.203 Z-0.100 F1200.000
G1 X-88.676 Y150.210 Z-0.100 F1200.000
G1 X-88.418 Y151.169 Z-0.100 F1200.000
G1 X-88.425 Y151.161 Z-0.100 F1200.000
G1 X-88.167 Y152.120 Z-0.100 F1200.000
G1 X-88.160 Y152.127 Z-0.100 F1200.000
G1 X-87.902 Y153.085 Z-0.100 F1200.000
G1 X-87.909 Y153.078 Z-0.100 F1200.000
G1 X-87.651 Y154.036 Z-0.100 F1200.000
G1 X-87.644 Y154.043 Z-0.100 F1200.000
G1 X-87.386 Y155.001 Z-0.100 F1200.000
G1 X-87.393 Y154.994 Z-0.100 F1200.000
G1 X-87.135 Y155.952 Z-0.100 F1200.000
G1 X-87.128 Y155.959 Z-0.100 F1200.000
G1 X-86.870 Y156.917 Z-0.100 F1200.000
G1 X-86.877 Y156.910 Z-0.100 F1200.000
G1 X-86.619 Y157.868 Z-0.100 F1200.000
G1 X-86.611 Y157.876 Z-0.100 F1200.000
G1 X-86.353 Y158.834 Z-0.100 F1200.000
G1 X-86.360 Y158.827 Z-0.100 F1200.000
G1 X-86.102 Y159.785 Z-0.100 F1200.000
G1 X-86.095 Y159.792 Z-0.100 F1200.000
G1 X-85.837 Y160.750 Z-0.100 F1200.000
G1 X-85.844 Y160.743 Z-0.100 F1200.000
G1 X-85.586 Y161.701 Z-0.100 F1200.000
G1 X-85.579 Y161.708 Z-0.100 F1200.000
G1 X-85.321 Y162.666 Z-0.100 F1200.000
G1 X-85.328 Y162.659 Z-0.100 F1200.000
G1 X-85.070 Y163.617 Z-0.100 F1200.000
G1 X-85.063 Y163.624 Z-0.100 F1200.000
G1 X-84.805 Y164.583 Z-0.100 F1200.000
G1 X-84.812 Y164.575 Z-0.100 F1200.000
G1 X-84.554 Y165.534 Z-0.100 F1200.000
G1 X-84.547 Y165.541 Z-0.100 F1200.000
G1 X-84.289 Y166.499 Z-0.100 F1200.000
G1 X-84.296 Y166.492 Z-0.100 F1200.000
G1 X-84.037 Y167.450 Z-0.100 F1200.000
G1 X-84.030 Y167.457 Z-0.100 F1200.000
G1 X-83.772 Y168.415 Z-0.100 F1200.000
G1 X-83.779 Y168.408 Z-0.100 F1200.000
G1 X-83.521 Y169.366 Z-0.100 F1200.000
G1 X-83.514 Y169.373 Z-0.100 F1200.000
G1 X-83.256 Y170.331 Z-0.100 F1200.000
G1 X-83.263 Y170.324 Z-0.100 F1200.000
G1 X-83.005 Y171.282 Z-0.100 F1200.000
G1 X-82.998 Y171.290 Z-0.100 F1200.000
G1 X-82.740 Y172.248 Z-0.100 F1200.000
G1 X-82.747 Y172.241 Z-0.100 F1200.000
G1 X-82.489 Y173.199 Z-0.100 F1200.000
G1 X-82.482 Y173.206 Z-0.100 F1200.000
G1 X-82.224 Y174.164 Z-0.100 F1200.000
G1 X-82.231 Y174.157 Z-0.100 F1200.000
G1 X-81.973 Y175.115 Z-0.100 F1200.000
G1 X-81.966 Y175.122 Z-0.100 F1200.000
G1 X-81.707 Y176.080 Z-0.100 F1200.000
G1 X-81.715 Y176.073 Z-0.100 F1200.000
G1 X-81.456 Y177.031 Z-0.100 F1200.000
G1 X-81.449 Y177.038 Z-0.100 F1200.000
G1 X-81.191 Y177.997 Z-0.100 F1200.000
G1 X-81.198 Y177.989 Z-0.100 F1200.000
G1 X-80.940 Y178.948 Z-0.100 F1200.000
G1 X-80.933 Y178.955 Z-0.100 F1200.000
G1 X-80.675 Y179.913 Z-0.100 F1200.000
G1 X-80.682 Y179.906 Z-0.100 F1200.000
G1 X-80.424 Y180.864 Z-0.100 F1200.000
G1 X-80.417 Y180.871 Z-0.100 F1200.000
G1 X-80.159 Y181.829 Z-0.100 F1200.000
G1 X-80.166 Y181.822 Z-0.100 F1200.000
G1 X-79.908 Y182.780 Z-0.100 F1200.000
G1 X-79.901 Y182.787 Z-0.100 F1200.000
G1 X-79.643 Y183.745 Z-0.100 F1200.000
G1 X-79.650 Y183.738 Z-0.100 F1200.000
G1 X-79.392 Y184.696 Z-0.100 F1200.000
G1 X-79.384 Y184.704 Z-0.100 F1200.000
G1 X-79.126 Y185.662 Z-0.100 F1200.000
G1 X-79.133 Y185.655 Z-0.100 F1200.000
G1 X-78.875 Y186.613 Z-0.100 F1200.000
G1 X-78.868 Y186.620 Z-0.100 F1200.000
G1 X-78.610 Y187.578 Z-0.100 F1200.000
G1 X-78.617 Y187.571 Z-0.100 F1200.000
G1 X-78.359 Y188.529 Z-0.100 F1200.000
G1 X-78.352 Y188.536 Z-0.100 F1200.000
G1 X-78.094 Y189.494 Z-0.100 F1200.000
G1 X-78.101 Y189.487 Z-0.100 F1200.000
G1 X-77.843 Y190.445 Z-0.100 F1200.000
G1 X-77.836 Y190.452 Z-0.100 F1200.000
G1 X-77.578 Y191.411 Z-0.100 F1200.000
G1 X-77.585 Y191.403 Z-0.100 F1200.000
G1 X-77.327 Y192.362 Z-0.100 F1200.000
G1 X-77.320 Y192.369 Z-0.100 F1200.000
G1 X-77.061 Y193.327 Z-0.100 F1200.000
G1 X-77.069 Y193.320 Z-0.100 F1200.000
G1 X-76.810 Y194.278 Z-0.100 F1200.000
G1 X-76.803 Y194.285 Z-0.100 F1200.000
G1 X-76.545 Y195.243 Z-0.100 F1200.000
G1 X-76.552 Y195.236 Z-0.100 F1200.000
G1 X-76.294 Y196.194 Z-0.100 F1200.000
G1 X-76.287 Y196.201 Z-0.100 F1200.000
G1 X-76.029 Y197.159 Z-0.100 F1200.000
G1 X-76.036 Y197.152 Z-0.100 F1200.000
G1 X-75.778 Y198.110 Z-0.100 F1200.000
G1 X-75.771 Y198.118 Z-0.100 F1200.000
G1 X-75.513 Y199.076 Z-0.100 F1200.000
G1 X-75.520 Y199.069 Z-0.100 F1200.000
G1 X-75.262 Y200.027 Z-0.100 F1200.000
G1 X-75.255 Y200.034 Z-0.100 F1200.000
G1 X-74.997 Y200.992 Z-0.100 F1200.000
G1 X-75.004 Y200.985 Z-0.100 F1200.000
G1 X-74.746 Y201.943 Z-0.100 F1200.000
G1 X-74.739 Y201.950 Z-0.100 F1200.000
G1 X-74.480 Y202.908 Z-0.100 F1200.000
G1 X-74.488 Y202.901 Z-0.100 F1200.000
G1 X-74.229 Y203.859 Z-0.100 F1200.000
G1 X-74.222 Y203.866 Z-0.100 F1200.000
G1 X-73.964 Y204.825 Z-0.100 F1200.000
G1 X-73.971 Y204.817 Z-0.100 F1200.000
G1 X-73.713 Y205.776 Z-0.100 F1200.000
G1 X-73.706 Y205.783 Z-0.100 F1200.000
G1 X-73.448 Y206.741 Z-0.100 F1200.000
G1 X-73.455 Y206.734 Z-0.100 F1200.000
G1 X-73.197 Y207.692 Z-0.100 F1200.000
G1 X-73.190 Y207.699 Z-0.100 F1200.000
G1 X-72.932 Y208.657 Z-0.100 F1200.000
G1 X-72.939 Y208.650 Z-0.100 F1200.000
G1 X-72.681 Y209.608 Z-0.100 F1200.000
G1 X-72.674 Y209.615 Z-0.100 F1200.000
G1 X-72.416 Y210.573 Z-0.100 F1200.000
G1 X-72.423 Y210.566 Z-0.100 F1200.000
G1 X-72.165 Y211.524 Z-0.100 F1200.000
G1 X-72.157 Y211.532 Z-0.100 F1200.000
G1 X-71.899 Y212.490 Z-0.100 F1200.000
G1 X-71.906 Y212.483 Z-0.100 F1200.000
G1 X-71.648 Y213.441 Z-0.100 F1200.000
G1 X-71.641 Y213.448 Z-0.100 F1200.000
G1 X-71.383 Y214.406 Z-0.100 F1200.000
G1 X-71.390 Y214.399 Z-0.100 F1200.000
G1 X-71.132 Y215.357 Z-0.100 F1200.000
G1 X-71.125 Y215.364 Z-0.100 F1200.000
G1 X-70.867 Y216.322 Z-0.100 F1200.000
G1 X-70.874 Y216.315 Z-0.100 F1200.000
G1 X-70.616 Y217.273 Z-0.100 F1200.000
G1 X-70.609 Y217.280 Z-0.100 F1200.000
G1 X-70.351 Y218.239 Z-0.100 F1200.000
G1 X-70.358 Y218.231 Z-0.100 F1200.000
G1 X-70.331 Y218.332 Z-0.100 F1200.000
G3 X-70.326 Y218.331 Z-0.100 I0.018 J0.056 K0.000 F1200.000
G1 X-70.351 Y218.239 Z-0.100 F1200.000
G0 Z5.000
G0 Z5.000
G0 X-70.351 Y218.239
G0 X-31.853 Y239.024
G0 X-31.853 Y239.024 Z3.000
G1 X-31.853 Y239.024 Z-0.100 F300.000
G1 X-31.818 Y239.285 Z-0.100 F1200.000
G2 X-31.823 Y239.285 Z-0.100 I0.005 J0.059 K0.000 F1200.000
G1 X-31.859 Y239.018 Z-0.100 F1200.000
G1 X-31.853 Y239.024 Z-0.100 F1200.000
G1 X-31.960 Y238.216 Z-0.100 F1200.000
G1 X-31.966 Y238.211 Z-0.100 F1200.000
G1 X-32.073 Y237.403 Z-0.100 F1200.000
G1 X-32.068 Y237.409 Z-0.100 F1200.000
G1 X-32.175 Y236.602 Z-0.100 F1200.000
G1 X-32.181 Y236.596 Z-0.100 F1200.000
G1 X-32.288 Y235.789 Z-0.100 F1200.000
G1 X-32.282 Y235.794 Z-0.100 F1200.000
G1 X-32.389 Y234.987 Z-0.100 F1200.000
G1 X-32.395 Y234.981 Z-0.100 F1200.000
G1 X-32.503 Y234.174 Z-0.100 F1200.000
G1 X-32.497 Y234.180 Z-0.100 F1200.000
G1 X-32.604 Y233.372 Z-0.100 F1200.000
G1 X-32.610 Y233.367 Z-0.100 F1200.000
G1 X-32.717 Y232.559 Z-0.100 F1200.000
G1 X-32.711 Y232.565 Z-0.100 F1200.000
G1 X-32.819 Y231.758 Z-0.100 F1200.000
G1 X-32.825 Y231.752 Z-0.100 F1200.000
G1 X-32.932 Y230.945 Z-0.100 F1200.000
G1 X-32.926 Y230.950 Z-0.100 F1200.000
G1 X-33.033 Y230.143 Z-0.100 F1200.000
G1 X-33.039 Y230.137 Z-0.100 F1200.000
G1 X-33.146 Y229.330 Z-0.100 F1200.000
G1 X-33.141 Y229.336 Z-0.100 F1200.000
G1 X-33.248 Y228.528 Z-0.100 F1200.000
G1 X-33.254 Y228.522 Z-0.100 F1200.000
G1 X-33.361 Y227.715 Z-0.100 F1200.000
G1 X-33.355 Y227.721 Z-0.100 F1200.000
G1 X-33.463 Y226.914 Z-0.100 F1200.000
G1 X-33.468 Y226.908 Z-0.100 F1200.000
G1 X-33.576 Y226.100 Z-0.100 F1200.000
G1 X-33.570 Y226.106 Z-0.100 F1200.000
G1 X-33.677 Y225.299 Z-0.100 F1200.000
G1 X-33.683 Y225.293 Z-0.100 F1200.000
G1 X-33.790 Y224.486 Z-0.100 F1200.000
G1 X-33.784 Y224.492 Z-0.100 F1200.000
G1 X-33.892 Y223.684 Z-0.100 F1200.000
G1 X-33.898 Y223.678 Z-0.100 F1200.000
G1 X-34.005 Y222.871 Z-0.100 F1200.000
G1 X-33.999 Y222.877 Z-0.100 F1200.000
G1 X-34.106 Y222.070 Z-0.100 F1200.000
G1 X-34.112 Y222.064 Z-0.100 F1200.000
G1 X-34.220 Y221.256 Z-0.100 F1200.000
G1 X-34.214 Y221.262 Z-0.100 F1200.000
G1 X-34.321 Y220.455 Z-0.100 F1200.000
G1 X-34.327 Y220.449 Z-0.100 F1200.000
G1 X-34.434 Y219.642 Z-0.100 F1200.000
G1 X-34.428 Y219.648 Z-0.100 F1200.000
G1 X-34.536 Y218.840 Z-0.100 F1200.000
G1 X-34.541 Y218.834 Z-0.100 F1200.000
G1 X-34.649 Y218.027 Z-0.100 F1200.000
G1 X-34.643 Y218.033 Z-0.100 F1200.000
G1 X-34.750 Y217.226 Z-0.100 F1200.000
G1 X-34.756 Y217.220 Z-0.100 F1200.000
G1 X-34.863 Y216.412 Z-0.100 F1200.000
G1 X-34.858 Y216.418 Z-0.100 F1200.000
G1 X-34.965 Y215.611 Z-0.100 F1200.000
G1 X-34.971 Y215.605 Z-0.100 F1200.000
G1 X-35.078 Y214.798 Z-0.100 F1200.000
G1 X-35.072 Y214.803 Z-0.100 F1200.000
G1 X-35.179 Y213.996 Z-0.100 F1200.000
G1 X-35.185 Y213.990 Z-0.100 F1200.000
G1 X-35.293 Y213.183 Z-0.100 F1200.000
G1 X-35.287 Y213.189 Z-0.100 F1200.000
G1 X-35.394 Y212.381 Z-0.100 F1200.000
G1 X-35.400 Y212.376 Z-0.100 F1200.000
G1 X-35.507 Y211.568 Z-0.100 F1200.000
G1 X-35.501 Y211.574 Z-0.100 F1200.000
G1 X-35.609 Y210.767 Z-0.100 F1200.000
G1 X-35.614 Y210.761 Z-0.100 F1200.000
G1 X-35.722 Y209.954 Z-0.100 F1200.000
G1 X-35.716 Y209.959 Z-0.100 F1200.000
G1 X-35.823 Y209.152 Z-0.100 F1200.000
G1 X-35.829 Y209.146 Z-0.100 F1200.000
G1 X-35.936 Y208.339 Z-0.100 F1200.000
G1 X-35.931 Y208.345 Z-0.100 F1200.000
G1 X-36.038 Y207.537 Z-0.100 F1200.000
G1 X-36.044 Y207.532 Z-0.100 F1200.000
G1 X-36.151 Y206.724 Z-0.100 F1200.000
G1 X-36.145 Y206.730 Z-0.100 F1200.000
G1 X-36.253 Y205.923 Z-0.100 F1200.000
G1 X-36.258 Y205.917 Z-0.100 F1200.000
G1 X-36.366 Y205.110 Z-0.100 F1200.000
G1 X-36.360 Y205.115 Z-0.100 F1200.000
G1 X-36.467 Y204.308 Z-0.100 F1200.000
G1 X-36.473 Y204.302 Z-0.100 F1200.000
G1 X-36.580 Y203.495 Z-0.100 F1200.000
G1 X-36.574 Y203.501 Z-0.100 F1200.000
G1 X-36.682 Y202.693 Z-0.100 F1200.000
G1 X-36.688 Y202.688 Z-0.100 F1200.000
G1 X-36.795 Y201.880 Z-0.100 F1200.000
G1 X-36.789 Y201.886 Z-0.100 F1200.000
G1 X-36.896 Y201.079 Z-0.100 F1200.000
G1 X-36.902 Y201.073 Z-0.100 F1200.000
G1 X-37.009 Y200.266 Z-0.100 F1200.000
G1 X-37.004 Y200.271 Z-0.100 F1200.000
G1 X-37.111 Y199.464 Z-0.100 F1200.000
G1 X-37.117 Y199.458 Z-0.100 F1200.000
G1 X-37.224 Y198.651 Z-0.100 F1200.000
G1 X-37.218 Y198.657 Z-0.100 F1200.000
G1 X-37.326 Y197.849 Z-0.100 F1200.000
G1 X-37.331 Y197.843 Z-0.100 F1200.000
G1 X-37.439 Y197.036 Z-0.100 F1200.000
G1 X-37.433 Y197.042 Z-0.100 F1200.000
G1 X-37.540 Y196.235 Z-0.100 F1200.000
G1 X-37.546 Y196.229 Z-0.100 F1200.000
G1 X-37.653 Y195.421 Z-0.100 F1200.000
G1 X-37.647 Y195.427 Z-0.100 F1200.000
G1 X-37.755 Y194.620 Z-0.100 F1200.000
G1 X-37.761 Y194.614 Z-0.100 F1200.000
G1 X-37.868 Y193.807 Z-0.100 F1200.000
G1 X-37.862 Y193.813 Z-0.100 F1200.000
G1 X-37.969 Y193.005 Z-0.100 F1200.000
G1 X-37.975 Y192.999 Z-0.100 F1200.000
G1 X-38.083 Y192.192 Z-0.100 F1200.000
G1 X-38.077 Y192.198 Z-0.100 F1200.000
G1 X-38.184 Y191.391 Z-0.100 F1200.000
G1 X-38.190 Y191.385 Z-0.100 F1200.000
G1 X-38.297 Y190.577 Z-0.100 F1200.000
G1 X-38.291 Y190.583 Z-0.100 F1200.000
G1 X-38.399 Y189.776 Z-0.100 F1200.000
G1 X-38.404 Y189.770 Z-0.100 F1200.000
G1 X-38.512 Y188.963 Z-0.100 F1200.000
G1 X-38.506 Y188.969 Z-0.100 F1200.000
G1 X-38.613 Y188.161 Z-0.100 F1200.000
G1 X-38.619 Y188.155 Z-0.100 F1200.000
G1 X-38.726 Y187.348 Z-0.100 F1200.000
G1 X-38.721 Y187.354 Z-0.100 F1200.000
G1 X-38.828 Y186.547 Z-0.100 F1200.000
G1 X-38.834 Y186.541 Z-0.100 F1200.000
G1 X-38.941 Y185.733 Z-0.100 F1200.000
G1 X-38.935 Y185.739 Z-0.100 F1200.000
G1 X-39.042 Y184.932 Z-0.100 F1200.000
G1 X-39.048 Y184.926 Z-0.100 F1200.000
G1 X-39.156 Y184.119 Z-0.100 F1200.000
G1 X-39.150 Y184.124 Z-0.100 F1200.000
G1 X-39.257 Y183.317 Z-0.100 F1200.000
G1 X-39.263 Y183.311 Z-0.100 F1200.000
G1 X-39.370 Y182.504 Z-0.100 F1200.000
G1 X-39.364 Y182.510 Z-0.100 F1200.000
G1 X-39.472 Y181.702 Z-0.100 F1200.000
G1 X-39.478 Y181.697 Z-0.100 F1200.000
G1 X-39.585 Y180.889 Z-0.100 F1200.000
G1 X-39.579 Y180.895 Z-0.100 F1200.000
G1 X-39.686 Y180.088 Z-0.100 F1200.000
G1 X-39.692 Y180.082 Z-0.100 F1200.000
G1 X-39.799 Y179.275 Z-0.100 F1200.000
G1 X-39.794 Y179.280 Z-0.100 F1200.000
G1 X-39.901 Y178.473 Z-0.100 F1200.000
G1 X-39.907 Y178.467 Z-0.100 F1200.000
G1 X-40.014 Y177.660 Z-0.100 F1200.000
G1 X-40.008 Y177.666 Z-0.100 F1200.000
G1 X-40.116 Y176.858 Z-0.100 F1200.000
G1 X-40.121 Y176.853 Z-0.100 F1200.000
G1 X-40.229 Y176.045 Z-0.100 F1200.000
G1 X-40.223 Y176.051 Z-0.100 F1200.000
G1 X-40.330 Y175.244 Z-0.100 F1200.000
G1 X-40.336 Y175.238 Z-0.100 F1200.000
G1 X-40.443 Y174.431 Z-0.100 F1200.000
G1 X-40.437 Y174.436 Z-0.100 F1200.000
G1 X-40.545 Y173.629 Z-0.100 F1200.000
G1 X-40.551 Y173.623 Z-0.100 F1200.000
G1 X-40.658 Y172.816 Z-0.100 F1200.000
G1 X-40.652 Y172.822 Z-0.100 F1200.000
G1 X-40.759 Y172.014 Z-0.100 F1200.000
G1 X-40.765 Y172.009 Z-0.100 F1200.000
G1 X-40.872 Y171.201 Z-0.100 F1200.000
G1 X-40.867 Y171.207 Z-0.100 F1200.000
G1 X-40.974 Y170.400 Z-0.100 F1200.000
G1 X-40.980 Y170.394 Z-0.100 F1200.000
G1 X-41.087 Y169.587 Z-0.100 F1200.000
G1 X-41.081 Y169.592 Z-0.100 F1200.000
G1 X-41.189 Y168.785 Z-0.100 F1200.000
G1 X-41.194 Y168.779 Z-0.100 F1200.000
G1 X-41.302 Y167.972 Z-0.100 F1200.000
G1 X-41.296 Y167.978 Z-0.100 F1200.000
G1 X-41.403 Y167.170 Z-0.100 F1200.000
G1 X-41.409 Y167.164 Z-0.100 F1200.000
G1 X-41.516 Y166.357 Z-0.100 F1200.000
G1 X-41.511 Y166.363 Z-0.100 F1200.000
G1 X-41.618 Y165.556 Z-0.100 F1200.000
G1 X-41.624 Y165.550 Z-0.100 F1200.000
G1 X-41.731 Y164.742 Z-0.100 F1200.000
G1 X-41.725 Y164.748 Z-0.100 F1200.000
G1 X-41.832 Y163.941 Z-0.100 F1200.000
G1 X-41.838 Y163.935 Z-0.100 F1200.000
G1 X-41.946 Y163.128 Z-0.100 F1200.000
G1 X-41.940 Y163.134 Z-0.100 F1200.000
G1 X-42.047 Y162.326 Z-0.100 F1200.000
G1 X-42.053 Y162.320 Z-0.100 F1200.000
G1 X-42.160 Y161.513 Z-0.100 F1200.000
G1 X-42.154 Y161.519 Z-0.100 F1200.000
G1 X-42.262 Y160.712 Z-0.100 F1200.000
G1 X-42.267 Y160.706 Z-0.100 F1200.000
G1 X-42.375 Y159.898 Z-0.100 F1200.000
G1 X-42.369 Y159.904 Z-0.100 F1200.000
G1 X-42.476 Y159.097 Z-0.100 F1200.000
G1 X-42.482 Y159.091 Z-0.100 F1200.000
G1 X-42.589 Y158.284 Z-0.100 F1200.000
G1 X-42.584 Y158.290 Z-0.100 F1200.000
G1 X-42.691 Y157.482 Z-0.100 F1200.000
G1 X-42.697 Y157.476 Z-0.100 F1200.000
G1 X-42.804 Y156.669 Z-0.100 F1200.000
G1 X-42.798 Y156.675 Z-0.100 F1200.000
G1 X-42.905 Y155.868 Z-0.100 F1200.000
G1 X-42.911 Y155.862 Z-0.100 F1200.000
G1 X-43.019 Y155.054 Z-0.100 F1200.000
G1 X-43.013 Y155.060 Z-0.100 F1200.000
G1 X-43.120 Y154.253 Z-0.100 F1200.000
G1 X-43.126 Y154.247 Z-0.100 F1200.000
G1 X-43.233 Y153.440 Z-0.100 F1200.000
G1 X-43.227 Y153.446 Z-0.100 F1200.000
G1 X-43.335 Y152.638 Z-0.100 F1200.000
G1 X-43.341 Y152.632 Z-0.100 F1200.000
G1 X-43.448 Y151.825 Z-0.100 F1200.000
G1 X-43.442 Y151.831 Z-0.100 F1200.000
G1 X-43.549 Y151.023 Z-0.100 F1200.000
G1 X-43.555 Y151.018 Z-0.100 F1200.000
G1 X-43.662 Y150.210 Z-0.100 F1200.000
G1 X-43.657 Y150.216 Z-0.100 F1200.000
G1 X-43.764 Y149.409 Z-0.100 F1200.000
G1 X-43.770 Y149.403 Z-0.100 F1200.000
G1 X-43.877 Y148.596 Z-0.100 F1200.000
G1 X-43.871 Y148.601 Z-0.100 F1200.000
G1 X-43.979 Y147.794 Z-0.100 F1200.000
G1 X-43.984 Y147.788 Z-0.100 F1200.000
G1 X-44.092 Y146.981 Z-0.100 F1200.000
G1 X-44.086 Y146.987 Z-0.100 F1200.000
G1 X-44.193 Y146.179 Z-0.100 F1200.000
G1 X-44.199 Y146.174 Z-0.100 F1200.000
G1 X-44.306 Y145.366 Z-0.100 F1200.000
G1 X-44.300 Y145.372 Z-0.100 F1200.000
G1 X-44.408 Y144.565 Z-0.100 F1200.000
G1 X-44.414 Y144.559 Z-0.100 F1200.000
G1 X-44.521 Y143.752 Z-0.100 F1200.000
G1 X-44.515 Y143.757 Z-0.100 F1200.000
G1 X-44.622 Y142.950 Z-0.100 F1200.000
G1 X-44.628 Y142.944 Z-0.100 F1200.000
G1 X-44.736 Y142.137 Z-0.100 F1200.000
G1 X-44.730 Y142.143 Z-0.100 F1200.000
G1 X-44.837 Y141.335 Z-0.100 F1200.000
G1 X-44.843 Y141.330 Z-0.100 F1200.000
G1 X-44.950 Y140.522 Z-0.100 F1200.000
G1 X-44.944 Y140.528 Z-0.100 F1200.000
G1 X-45.052 Y139.721 Z-0.100 F1200.000
G1 X-45.057 Y139.715 Z-0.100 F1200.000
G1 X-45.165 Y138.908 Z-0.100 F1200.000
G1 X-45.159 Y138.913 Z-0.100 F1200.000
G1 X-45.266 Y138.106 Z-0.100 F1200.000
G1 X-45.272 Y138.100 Z-0.100 F1200.000
G1 X-45.379 Y137.293 Z-0.100 F1200.000
G1 X-45.374 Y137.299 Z-0.100 F1200.000
G1 X-45.481 Y136.491 Z-0.100 F1200.000
G1 X-45.487 Y136.486 Z-0.100 F1200.000
G1 X-45.594 Y135.678 Z-0.100 F1200.000
G1 X-45.588 Y135.684 Z-0.100 F1200.000
G1 X-45.695 Y134.877 Z-0.100 F1200.000
G1 X-45.701 Y134.871 Z-0.100 F1200.000
G1 X-45.809 Y134.063 Z-0.100 F1200.000
G1 X-45.803 Y134.069 Z-0.100 F1200.000
G1 X-45.910 Y133.262 Z-0.100 F1200.000
G1 X-45.916 Y133.256 Z-0.100 F1200.000
G1 X-46.023 Y132.449 Z-0.100 F1200.000
G1 X-46.017 Y132.455 Z-0.100 F1200.000
G1 X-46.125 Y131.647 Z-0.100 F1200.000
G1 X-46.130 Y131.641 Z-0.100 F1200.000
G1 X-46.238 Y130.834 Z-0.100 F1200.000
G1 X-46.232 Y130.840 Z-0.100 F1200.000
G1 X-46.339 Y130.033 Z-0.100 F1200.000
G1 X-46.345 Y130.027 Z-0.100 F1200.000
G1 X-46.452 Y129.219 Z-0.100 F1200.000
G1 X-46.447 Y129.225 Z-0.100 F1200.000
G1 X-46.554 Y128.418 Z-0.100 F1200.000
G1 X-46.560 Y128.412 Z-0.100 F1200.000
G1 X-46.667 Y127.605 Z-0.100 F1200.000
G1 X-46.661 Y127.611 Z-0.100 F1200.000
G1 X-46.769 Y126.803 Z-0.100 F1200.000
G1 X-46.774 Y126.797 Z-0.100 F1200.000
G1 X-46.882 Y125.990 Z-0.100 F1200.000
G1 X-46.876 Y125.996 Z-0.100 F1200.000
G1 X-46.983 Y125.189 Z-0.100 F1200.000
G1 X-46.989 Y125.183 Z-0.100 F1200.000
G1 X-47.096 Y124.375 Z-0.100 F1200.000
G1 X-47.090 Y124.381 Z-0.100 F1200.000
G1 X-47.198 Y123.574 Z-0.100 F1200.000
G1 X-47.204 Y123.568 Z-0.100 F1200.000
G1 X-47.311 Y122.761 Z-0.100 F1200.000
G1 X-47.305 Y122.767 Z-0.100 F1200.000
G1 X-47.412 Y121.959 Z-0.100 F1200.000
G1 X-47.418 Y121.953 Z-0.100 F1200.000
G1 X-47.525 Y121.146 Z-0.100 F1200.000
G1 X-47.520 Y121.152 Z-0.100 F1200.000
G1 X-47.627 Y120.344 Z-0.100 F1200.000
G1 X-47.633 Y120.339 Z-0.100 F1200.000
G1 X-47.740 Y119.531 Z-0.100 F1200.000
G1 X-47.734 Y119.537 Z-0.100 F1200.000
G1 X-47.842 Y118.730 Z-0.100 F1200.000
G1 X-47.847 Y118.724 Z-0.100 F1200.000
G1 X-47.955 Y117.917 Z-0.100 F1200.000
G1 X-47.949 Y117.922 Z-0.100 F1200.000
G1 X-48.056 Y117.115 Z-0.100 F1200.000
G1 X-48.062 Y117.109 Z-0.100 F1200.000
G1 X-48.169 Y116.302 Z-0.100 F1200.000
G1 X-48.163 Y116.308 Z-0.100 F1200.000
G1 X-48.271 Y115.500 Z-0.100 F1200.000
G1 X-48.277 Y115.495 Z-0.100 F1200.000
G1 X-48.384 Y114.687 Z-0.100 F1200.000
G1 X-48.378 Y114.693 Z-0.100 F1200.000
G1 X-48.485 Y113.886 Z-0.100 F1200.000
G1 X-48.491 Y113.880 Z-0.100 F1200.000
G1 X-48.599 Y113.073 Z-0.100 F1200.000
G1 X-48.593 Y113.078 Z-0.100 F1200.000
G1 X-48.700 Y112.271 Z-0.100 F1200.000
G1 X-48.706 Y112.265 Z-0.100 F1200.000
G1 X-48.813 Y111.458 Z-0.100 F1200.000
G1 X-48.807 Y111.464 Z-0.100 F1200.000
G1 X-48.915 Y110.656 Z-0.100 F1200.000
G1 X-48.920 Y110.651 Z-0.100 F1200.000
G1 X-49.028 Y109.843 Z-0.100 F1200.000
G1 X-49.022 Y109.849 Z-0.100 F1200.000
G1 X-49.129 Y109.042 Z-0.100 F1200.000
G1 X-49.135 Y109.036 Z-0.100 F1200.000
G1 X-49.242 Y108.229 Z-0.100 F1200.000
G1 X-49.237 Y108.234 Z-0.100 F1200.000
G1 X-49.344 Y107.427 Z-0.100 F1200.000
G1 X-49.350 Y107.421 Z-0.100 F1200.000
G1 X-49.457 Y106.614 Z-0.100 F1200.000
G1 X-49.451 Y106.620 Z-0.100 F1200.000
G1 X-49.558 Y105.812 Z-0.100 F1200.000
G1 X-49.564 Y105.807 Z-0.100 F1200.000
G1 X-49.672 Y104.999 Z-0.100 F1200.000
G1 X-49.666 Y105.005 Z-0.100 F1200.000
G1 X-49.773 Y104.198 Z-0.100 F1200.000
G1 X-49.779 Y104.192 Z-0.100 F1200.000
G1 X-49.886 Y103.384 Z-0.100 F1200.000
G1 X-49.880 Y103.390 Z-0.100 F1200.000
G1 X-49.988 Y102.583 Z-0.100 F1200.000
G1 X-49.994 Y102.577 Z-0.100 F1200.000
G1 X-50.101 Y101.770 Z-0.100 F1200.000
G1 X-50.095 Y101.776 Z-0.100 F1200.000
G1 X-50.202 Y100.968 Z-0.100 F1200.000
G1 X-50.208 Y100.962 Z-0.100 F1200.000
G1 X-50.315 Y100.155 Z-0.100 F1200.000
G1 X-50.310 Y100.161 Z-0.100 F1200.000
G1 X-50.417 Y99.354 Z-0.100 F1200.000
G1 X-50.423 Y99.348 Z-0.100 F1200.000
G1 X-50.530 Y98.540 Z-0.100 F1200.000
G1 X-50.524 Y98.546 Z-0.100 F1200.000
G1 X-50.632 Y97.739 Z-0.100 F1200.000
G1 X-50.637 Y97.733 Z-0.100 F1200.000
G1 X-50.745 Y96.926 Z-0.100 F1200.000
G1 X-50.739 Y96.932 Z-0.100 F1200.000
G1 X-50.846 Y96.124 Z-0.100 F1200.000
G1 X-50.852 Y96.118 Z-0.100 F1200.000
G1 X-50.959 Y95.311 Z-0.100 F1200.000
G1 X-50.953 Y95.317 Z-0.100 F1200.000
G1 X-51.061 Y94.510 Z-0.100 F1200.000
G1 X-51.067 Y94.504 Z-0.100 F1200.000
G1 X-51.174 Y93.696 Z-0.100 F1200.000
G1 X-51.168 Y93.702 Z-0.100 F1200.000
G1 X-51.275 Y92.895 Z-0.100 F1200.000
G1 X-51.281 Y92.889 Z-0.100 F1200.000
G1 X-51.388 Y92.082 Z-0.100 F1200.000
G1 X-51.383 Y92.088 Z-0.100 F1200.000
G1 X-51.490 Y91.280 Z-0.100 F1200.000
G1 X-51.496 Y91.274 Z-0.100 F1200.000
G1 X-51.603 Y90.467 Z-0.100 F1200.000
G1 X-51.597 Y90.473 Z-0.100 F1200.000
G1 X-51.705 Y89.665 Z-0.100 F1200.000
G1 X-51.710 Y89.660 Z-0.100 F1200.000
G1 X-51.818 Y88.852 Z-0.100 F1200.000
G1 X-51.812 Y88.858 Z-0.100 F1200.000
G1 X-51.919 Y88.051 Z-0.100 F1200.000
G1 X-51.925 Y88.045 Z-0.100 F1200.000
G1 X-52.032 Y87.238 Z-0.100 F1200.000
G1 X-52.027 Y87.243 Z-0.100 F1200.000
G1 X-52.134 Y86.436 Z-0.100 F1200.000
G1 X-52.140 Y86.430 Z-0.100 F1200.000
G1 X-52.247 Y85.623 Z-0.100 F1200.000
G1 X-52.241 Y85.629 Z-0.100 F1200.000
G1 X-52.348 Y84.821 Z-0.100 F1200.000
G1 X-52.354 Y84.816 Z-0.100 F1200.000
G1 X-52.462 Y84.008 Z-0.100 F1200.000
G1 X-52.456 Y84.014 Z-0.100 F1200.000
G1 X-52.563 Y83.207 Z-0.100 F1200.000
G1 X-52.569 Y83.201 Z-0.100 F1200.000
G1 X-52.676 Y82.394 Z-0.100 F1200.000
G1 X-52.670 Y82.399 Z-0.100 F1200.000
G1 X-52.778 Y81.592 Z-0.100 F1200.000
G1 X-52.783 Y81.586 Z-0.100 F1200.000
G1 X-52.891 Y80.779 Z-0.100 F1200.000
G1 X-52.885 Y80.785 Z-0.100 F1200.000
G1 X-52.992 Y79.977 Z-0.100 F1200.000
G1 X-52.998 Y79.972 Z-0.100 F1200.000
G1 X-53.105 Y79.164 Z-0.100 F1200.000
G1 X-53.100 Y79.170 Z-0.100 F1200.000
G1 X-53.207 Y78.363 Z-0.100 F1200.000
G1 X-53.213 Y78.357 Z-0.100 F1200.000
G1 X-53.320 Y77.550 Z-0.100 F1200.000
G1 X-53.314 Y77.555 Z-0.100 F1200.000
G1 X-53.421 Y76.748 Z-0.100 F1200.000
G1 X-53.427 Y76.742 Z-0.100 F1200.000
G1 X-53.535 Y75.935 Z-0.100 F1200.000
G1 X-53.529 Y75.941 Z-0.100 F1200.000
G1 X-53.636 Y75.133 Z-0.100 F1200.000
G1 X-53.642 Y75.128 Z-0.100 F1200.000
G1 X-53.749 Y74.320 Z-0.100 F1200.000
G1 X-53.743 Y74.326 Z-0.100 F1200.000
G1 X-53.851 Y73.519 Z-0.100 F1200.000
G1 X-53.857 Y73.513 Z-0.100 F1200.000
G1 X-53.964 Y72.706 Z-0.100 F1200.000
G1 X-53.958 Y72.711 Z-0.100 F1200.000
G1 X-54.065 Y71.904 Z-0.100 F1200.000
G1 X-54.071 Y71.898 Z-0.100 F1200.000
G1 X-54.178 Y71.091 Z-0.100 F1200.000
G1 X-54.173 Y71.097 Z-0.100 F1200.000
G1 X-54.280 Y70.289 Z-0.100 F1200.000
G1 X-54.286 Y70.283 Z-0.100 F1200.000
G1 X-54.393 Y69.476 Z-0.100 F1200.000
G1 X-54.387 Y69.482 Z-0.100 F1200.000
G1 X-54.495 Y68.675 Z-0.100 F1200.000
G1 X-54.500 Y68.669 Z-0.100 F1200.000
G1 X-54.608 Y67.861 Z-0.100 F1200.000
G1 X-54.602 Y67.867 Z-0.100 F1200.000
G1 X-54.709 Y67.060 Z-0.100 F1200.000
G1 X-54.715 Y67.054 Z-0.100 F1200.000
G1 X-54.822 Y66.247 Z-0.100 F1200.000
G1 X-54.816 Y66.253 Z-0.100 F1200.000
G1 X-54.924 Y65.445 Z-0.100 F1200.000
G1 X-54.930 Y65.439 Z-0.100 F1200.000
G1 X-55.037 Y64.632 Z-0.100 F1200.000
G1 X-55.031 Y64.638 Z-0.100 F1200.000
G1 X-55.138 Y63.831 Z-0.100 F1200.000
G1 X-55.144 Y63.825 Z-0.100 F1200.000
G1 X-55.252 Y63.017 Z-0.100 F1200.000
G1 X-55.246 Y63.023 Z-0.100 F1200.000
G1 X-55.353 Y62.216 Z-0.100 F1200.000
G1 X-55.359 Y62.210 Z-0.100 F1200.000
G1 X-55.466 Y61.403 Z-0.100 F1200.000
G1 X-55.460 Y61.409 Z-0.100 F1200.000
G1 X-55.568 Y60.601 Z-0.100 F1200.000
G1 X-55.573 Y60.595 Z-0.100 F1200.000
G1 X-55.681 Y59.788 Z-0.100 F1200.000
G1 X-55.675 Y59.794 Z-0.100 F1200.000
G1 X-55.782 Y58.987 Z-0.100 F1200.000
G1 X-55.788 Y58.981 Z-0.100 F1200.000
G1 X-55.895 Y58.173 Z-0.100 F1200.000
G1 X-55.890 Y58.179 Z-0.100 F1200.000
G1 X-55.997 Y57.372 Z-0.100 F1200.000
G1 X-56.003 Y57.366 Z-0.100 F1200.000
G1 X-56.110 Y56.559 Z-0.100 F1200.000
G1 X-56.104 Y56.564 Z-0.100 F1200.000
G1 X-56.211 Y55.757 Z-0.100 F1200.000
G1 X-56.217 Y55.751 Z-0.100 F1200.000
G1 X-56.325 Y54.944 Z-0.100 F1200.000
G1 X-56.319 Y54.950 Z-0.100 F1200.000
G1 X-56.426 Y54.142 Z-0.100 F1200.000
G1 X-56.432 Y54.137 Z-0.100 F1200.000
G1 X-56.539 Y53.329 Z-0.100 F1200.000
G1 X-56.533 Y53.335 Z-0.100 F1200.000
G1 X-56.641 Y52.528 Z-0.100 F1200.000
G0 Z5.000
G0 Z5.000
G0 X-56.641 Y52.528
G0 X0.020 Y15.346
G0 X0.020 Y15.346 Z3.000
G1 X0.020 Y15.346 Z-0.100 F300.000
G1 X0.023 Y15.346 Z-0.100 F1200.000
G1 X0.023 Y16.046 Z-0.100 F1200.000
G1 X0.018 Y16.041 Z-0.100 F1200.000
G1 X0.018 Y16.741 Z-0.100 F1200.000
G1 X0.023 Y16.746 Z-0.100 F1200.000
G1 X0.023 Y17.446 Z-0.100 F1200.000
G1 X0.018 Y17.441 Z-0.100 F1200.000
G1 X0.018 Y18.141 Z-0.100 F1200.000
G1 X0.023 Y18.146 Z-0.100 F1200.000
G1 X0.023 Y18.846 Z-0.100 F1200.000
G1 X0.018 Y18.841 Z-0.100 F1200.000
G1 X0.018 Y19.541 Z-0.100 F1200.000
G1 X0.023 Y19.546 Z-0.100 F1200.000
G1 X0.023 Y20.246 Z-0.100 F1200.000
G1 X0.018 Y20.241 Z-0.100 F1200.000
G1 X0.018 Y20.941 Z-0.100 F1200.000
G1 X0.023 Y20.946 Z-0.100 F1200.000
G1 X0.023 Y21.646 Z-0.100 F1200.000
G1 X0.018 Y21.641 Z-0.100 F1200.000
G1 X0.018 Y22.341 Z-0.100 F1200.000
G1 X0.023 Y22.346 Z-0.100 F1200.000
G1 X0.023 Y23.046 Z-0.100 F1200.000
G1 X0.018 Y23.041 Z-0.100 F1200.000
G1 X0.018 Y23.741 Z-0.100 F1200.000
G1 X0.023 Y23.746 Z-0.100 F1200.000
G1 X0.023 Y24.446 Z-0.100 F1200.000
G1 X0.018 Y24.441 Z-0.100 F1200.000
G1 X0.018 Y25.141 Z-0.100 F1200.000
G1 X0.023 Y25.146 Z-0.100 F1200.000
G1 X0.023 Y25.846 Z-0.100 F1200.000
G1 X0.018 Y25.841 Z-0.100 F1200.000
G1 X0.018 Y26.541 Z-0.100 F1200.000
G1 X0.023 Y26.546 Z-0.100 F1200.000
G1 X0.023 Y27.247 Z-0.100 F1200.000
G1 X0.018 Y27.242 Z-0.100 F1200.000
G1 X0.018 Y27.942 Z-0.100 F1200.000
G1 X0.023 Y27.947 Z-0.100 F1200.000
G1 X0.023 Y28.647 Z-0.100 F1200.000
G1 X0.018 Y28.642 Z-0.100 F1200.000
G1 X0.018 Y29.342 Z-0.100 F1200.000
G1 X0.023 Y29.347 Z-0.100 F1200.000
G1 X0.023 Y30.047 Z-0.100 F1200.000
G1 X0.018 Y30.042 Z-0.100 F1200.000
G1 X0.018 Y30.742 Z-0.100 F1200.000
G1 X0.023 Y30.747 Z-0.100 F1200.000
G1 X0.023 Y31.447 Z-0.100 F1200.000
G1 X0.018 Y31.442 Z-0.100 F1200.000
G1 X0.018 Y32.142 Z-0.100 F1200.000
G1 X0.023 Y32.147 Z-0.100 F1200.000
G1 X0.023 Y32.847 Z-0.100 F1200.000
G1 X0.018 Y32.842 Z-0.100 F1200.000
G1 X0.018 Y33.542 Z-0.100 F1200.000
G1 X0.023 Y33.547 Z-0.100 F1200.000
G1 X0.023 Y34.247 Z-0.100 F1200.000
G1 X0.018 Y34.242 Z-0.100 F1200.000
G1 X0.018 Y34.942 Z-0.100 F1200.000
G1 X0.023 Y34.947 Z-0.100 F1200.000
G1 X0.023 Y35.647 Z-0.100 F1200.000
G1 X0.018 Y35.642 Z-0.100 F1200.000
G1 X0.018 Y36.342 Z-0.100 F1200.000
G1 X0.023 Y36.347 Z-0.100 F1200.000
G1 X0.023 Y37.047 Z-0.100 F1200.000
G1 X0.018 Y37.042 Z-0.100 F1200.000
G1 X0.018 Y37.742 Z-0.100 F1200.000
G1 X0.023 Y37.747 Z-0.100 F1200.000
G1 X0.023 Y38.447 Z-0.100 F1200.000
G1 X0.018 Y38.442 Z-0.100 F1200.000
G1 X0.018 Y39.142 Z-0.100 F1200.000
G1 X0.023 Y39.147 Z-0.100 F1200.000
G1 X0.023 Y39.847 Z-0.100 F1200.000
G1 X0.018 Y39.842 Z-0.100 F1200.000
G1 X0.018 Y40.542 Z-0.100 F1200.000
G1 X0.023 Y40.547 Z-0.100 F1200.000
G1 X0.023 Y41.247 Z-0.100 F1200.000
G1 X0.018 Y41.242 Z-0.100 F1200.000
G1 X0.018 Y41.942 Z-0.100 F1200.000
G1 X0.023 Y41.947 Z-0.100 F1200.000
G1 X0.023 Y42.647 Z-0.100 F1200.000
G1 X0.018 Y42.642 Z-0.100 F1200.000
G1 X0.018 Y43.342 Z-0.100 F1200.000
G1 X0.023 Y43.347 Z-0.100 F1200.000
G1 X0.023 Y44.047 Z-0.100 F1200.000
G1 X0.018 Y44.042 Z-0.100 F1200.000
G1 X0.018 Y44.742 Z-0.100 F1200.000
G1 X0.023 Y44.747 Z-0.100 F1200.000
G1 X0.023 Y45.447 Z-0.100 F1200.000
G1 X0.018 Y45.442 Z-0.100 F1200.000
G1 X0.018 Y46.142 Z-0.100 F1200.000
G1 X0.023 Y46.147 Z-0.100 F1200.000
G1 X0.023 Y46.848 Z-0.100 F1200.000
G1 X0.018 Y46.843 Z-0.100 F1200.000
G1 X0.018 Y47.543 Z-0.100 F1200.000
G1 X0.023 Y47.548 Z-0.100 F1200.000
G1 X0.023 Y48.248 Z-0.100 F1200.000
G1 X0.018 Y48.243 Z-0.100 F1200.000
G1 X0.018 Y48.943 Z-0.100 F1200.000
G1 X0.023 Y48.948 Z-0.100 F1200.000
G1 X0.023 Y49.648 Z-0.100 F1200.000
G1 X0.018 Y49.643 Z-0.100 F1200.000
G1 X0.018 Y50.343 Z-0.100 F1200.000
G1 X0.023 Y50.348 Z-0.100 F1200.000
G1 X0.023 Y51.048 Z-0.100 F1200.000
G1 X0.018 Y51.043 Z-0.100 F1200.000
G1 X0.018 Y51.743 Z-0.100 F1200.000
G1 X0.023 Y51.748 Z-0.100 F1200.000
G1 X0.023 Y52.448 Z-0.100 F1200.000
G1 X0.018 Y52.443 Z-0.100 F1200.000
G1 X0.018 Y53.143 Z-0.100 F1200.000
G1 X0.023 Y53.148 Z-0.100 F1200.000
G1 X0.023 Y53.848 Z-0.100 F1200.000
G1 X0.018 Y53.843 Z-0.100 F1200.000
G1 X0.018 Y54.543 Z-0.100 F1200.000
G1 X0.023 Y54.548 Z-0.100 F1200.000
G1 X0.023 Y55.248 Z-0.100 F1200.000
G1 X0.018 Y55.243 Z-0.100 F1200.000
G1 X0.018 Y55.943 Z-0.100 F1200.000
G1 X0.023 Y55.948 Z-0.100 F1200.000
G1 X0.023 Y56.648 Z-0.100 F1200.000
G1 X0.018 Y56.643 Z-0.100 F1200.000
G1 X0.018 Y57.343 Z-0.100 F1200.000
G1 X0.023 Y57.348 Z-0.100 F1200.000
G1 X0.023 Y58.048 Z-0.100 F1200.000
G1 X0.018 Y58.043 Z-0.100 F1200.000
G1 X0.018 Y58.743 Z-0.100 F1200.000
G1 X0.023 Y58.748 Z-0.100 F1200.000
G1 X0.023 Y59.448 Z-0.100 F1200.000
G1 X0.018 Y59.443 Z-0.100 F1200.000
G1 X0.018 Y60.143 Z-0.100 F1200.000
G1 X0.023 Y60.148 Z-0.100 F1200.000
G1 X0.023 Y60.848 Z-0.100 F1200.000
G1 X0.018 Y60.843 Z-0.100 F1200.000
G1 X0.018 Y61.543 Z-0.100 F1200.000
G1 X0.023 Y61.548 Z-0.100 F1200.000
G1 X0.023 Y62.248 Z-0.100 F1200.000
G1 X0.018 Y62.243 Z-0.100 F1200.000
G1 X0.018 Y62.943 Z-0.100 F1200.000
G1 X0.023 Y62.948 Z-0.100 F1200.000
G1 X0.023 Y63.648 Z-0.100 F1200.000
G1 X0.018 Y63.643 Z-0.100 F1200.000
G1 X0.018 Y64.343 Z-0.100 F1200.000
G1 X0.023 Y64.348 Z-0.100 F1200.000
G1 X0.023 Y65.048 Z-0.100 F1200.000
G1 X0.018 Y65.043 Z-0.100 F1200.000
G1 X0.018 Y65.743 Z-0.100 F1200.000
G1 X0.023 Y65.748 Z-0.100 F1200.000
G1 X0.023 Y66.449 Z-0.100 F1200.000
G1 X0.018 Y66.444 Z-0.100 F1200.000
G1 X0.018 Y67.144 Z-0.100 F1200.000
G1 X0.023 Y67.149 Z-0.100 F1200.000
G1 X0.023 Y67.849 Z-0.100 F1200.000
G1 X0.018 Y67.844 Z-0.100 F1200.000
G1 X0.018 Y68.544 Z-0.100 F1200.000
G1 X0.023 Y68.549 Z-0.100 F1200.000
G1 X0.023 Y69.249 Z-0.100 F1200.000
G1 X0.018 Y69.244 Z-0.100 F1200.000
G1 X0.018 Y69.944 Z-0.100 F1200.000
G1 X0.023 Y69.949 Z-0.100 F1200.000
G1 X0.023 Y70.649 Z-0.100 F1200.000
G1 X0.018 Y70.644 Z-0.100 F1200.000
G1 X0.018 Y71.344 Z-0.100 F1200.000
G1 X0.023 Y71.349 Z-0.100 F1200.000
G1 X0.023 Y72.049 Z-0.100 F1200.000
G1 X0.018 Y72.044 Z-0.100 F1200.000
G1 X0.018 Y72.744 Z-0.100 F1200.000
G1 X0.023 Y72.749 Z-0.100 F1200.000
G1 X0.023 Y73.449 Z-0.100 F1200.000
G1 X0.018 Y73.444 Z-0.100 F1200.000
G1 X0.018 Y74.144 Z-0.100 F1200.000
G1 X0.023 Y74.149 Z-0.100 F1200.000
G1 X0.023 Y74.849 Z-0.100 F1200.000
G1 X0.018 Y74.844 Z-0.100 F1200.000
G1 X0.018 Y75.544 Z-0.100 F1200.000
G1 X0.023 Y75.549 Z-0.100 F1200.000
G1 X0.023 Y76.249 Z-0.100 F1200.000
G1 X0.018 Y76.244 Z-0.100 F1200.000
G1 X0.018 Y76.944 Z-0.100 F1200.000
G1 X0.023 Y76.949 Z-0.100 F1200.000
G1 X0.023 Y77.649 Z-0.100 F1200.000
G1 X0.018 Y77.644 Z-0.100 F1200.000
G1 X0.018 Y78.344 Z-0.100 F1200.000
G1 X0.023 Y78.349 Z-0.100 F1200.000
G1 X0.023 Y79.049 Z-0.100 F1200.000
G1 X0.018 Y79.044 Z-0.100 F1200.000
G1 X0.018 Y79.744 Z-0.100 F1200.000
G1 X0.023 Y79.749 Z-0.100 F1200.000
G1 X0.023 Y80.449 Z-0.100 F1200.000
G1 X0.018 Y80.444 Z-0.100 F1200.000
G1 X0.018 Y81.144 Z-0.100 F1200.000
G1 X0.023 Y81.149 Z-0.100 F1200.000
G1 X0.023 Y81.849 Z-0.100 F1200.000
G1 X0.018 Y81.844 Z-0.100 F1200.000
G1 X0.018 Y82.544 Z-0.100 F1200.000
G1 X0.023 Y82.549 Z-0.100 F1200.000
G1 X0.023 Y83.249 Z-0.100 F1200.000
G1 X0.018 Y83.244 Z-0.100 F1200.000
G1 X0.018 Y83.944 Z-0.100 F1200.000
G1 X0.023 Y83.949 Z-0.100 F1200.000
G1 X0.023 Y84.649 Z-0.100 F1200.000
G1 X0.018 Y84.644 Z-0.100 F1200.000
G1 X0.018 Y85.344 Z-0.100 F1200.000
G1 X0.023 Y85.349 Z-0.100 F1200.000
G1 X0.023 Y86.050 Z-0.100 F1200.000
G1 X0.018 Y86.045 Z-0.100 F1200.000
G1 X0.018 Y86.745 Z-0.100 F1200.000
G1 X0.023 Y86.750 Z-0.100 F1200.000
G1 X0.023 Y87.450 Z-0.100 F1200.000
G1 X0.018 Y87.445 Z-0.100 F1200.000
G1 X0.018 Y88.145 Z-0.100 F1200.000
G1 X0.023 Y88.150 Z-0.100 F1200.000
G1 X0.023 Y88.850 Z-0.100 F1200.000
G1 X0.018 Y88.845 Z-0.100 F1200.000
G1 X0.018 Y89.545 Z-0.100 F1200.000
G1 X0.023 Y89.550 Z-0.100 F1200.000
G1 X0.023 Y90.250 Z-0.100 F1200.000
G1 X0.018 Y90.245 Z-0.100 F1200.000
G1 X0.018 Y90.945 Z-0.100 F1200.000
G1 X0.023 Y90.950 Z-0.100 F1200.000
G1 X0.023 Y91.650 Z-0.100 F1200.000
G1 X0.018 Y91.645 Z-0.100 F1200.000
G1 X0.018 Y92.345 Z-0.100 F1200.000
G1 X0.023 Y92.350 Z-0.100 F1200.000
G1 X0.023 Y93.050 Z-0.100 F1200.000
G1 X0.018 Y93.045 Z-0.100 F1200.000
G1 X0.018 Y93.745 Z-0.100 F1200.000
G1 X0.023 Y93.750 Z-0.100 F1200.000
G1 X0.023 Y94.450 Z-0.100 F1200.000
G1 X0.018 Y94.445 Z-0.100 F1200.000
G1 X0.018 Y95.145 Z-0.100 F1200.000
G1 X0.023 Y95.150 Z-0.100 F1200.000
G1 X0.023 Y95.850 Z-0.100 F1200.000
G1 X0.018 Y95.845 Z-0.100 F1200.000
G1 X0.018 Y96.545 Z-0.100 F1200.000
G1 X0.023 Y96.550 Z-0.100 F1200.000
G1 X0.023 Y97.250 Z-0.100 F1200.000
G1 X0.018 Y97.245 Z-0.100 F1200.000
G1 X0.018 Y97.945 Z-0.100 F1200.000
G1 X0.023 Y97.950 Z-0.100 F1200.000
G1 X0.023 Y98.650 Z-0.100 F1200.000
G1 X0.018 Y98.645 Z-0.100 F1200.000
G1 X0.018 Y99.345 Z-0.100 F1200.000
G1 X0.023 Y99.350 Z-0.100 F1200.000
G1 X0.023 Y100.050 Z-0.100 F1200.000
G1 X0.018 Y100.045 Z-0.100 F1200.000
G1 X0.018 Y100.745 Z-0.100 F1200.000
G1 X0.023 Y100.750 Z-0.100 F1200.000
G1 X0.023 Y101.450 Z-0.100 F1200.000
G1 X0.018 Y101.445 Z-0.100 F1200.000
G1 X0.018 Y102.145 Z-0.100 F1200.000
G1 X0.023 Y102.150 Z-0.100 F1200.000
G1 X0.023 Y102.850 Z-0.100 F1200.000
G1 X0.018 Y102.845 Z-0.100 F1200.000
G1 X0.018 Y103.545 Z-0.100 F1200.000
G1 X0.023 Y103.550 Z-0.100 F1200.000
G1 X0.023 Y104.250 Z-0.100 F1200.000
G1 X0.018 Y104.245 Z-0.100 F1200.000
G1 X0.018 Y104.945 Z-0.100 F1200.000
G1 X0.023 Y104.950 Z-0.100 F1200.000
G1 X0.023 Y105.651 Z-0.100 F1200.000
G1 X0.018 Y105.646 Z-0.100 F1200.000
G1 X0.018 Y106.346 Z-0.100 F1200.000
G1 X0.023 Y106.351 Z-0.100 F1200.000
G1 X0.023 Y107.051 Z-0.100 F1200.000
G1 X0.018 Y107.046 Z-0.100 F1200.000
G1 X0.018 Y107.746 Z-0.100 F1200.000
G1 X0.023 Y107.751 Z-0.100 F1200.000
G1 X0.023 Y108.451 Z-0.100 F1200.000
G1 X0.018 Y108.446 Z-0.100 F1200.000
G1 X0.018 Y109.146 Z-0.100 F1200.000
G1 X0.023 Y109.151 Z-0.100 F1200.000
G1 X0.023 Y109.851 Z-0.100 F1200.000
G1 X0.018 Y109.846 Z-0.100 F1200.000
G1 X0.018 Y110.546 Z-0.100 F1200.000
G1 X0.023 Y110.551 Z-0.100 F1200.000
G1 X0.023 Y111.251 Z-0.100 F1200.000
G1 X0.018 Y111.246 Z-0.100 F1200.000
G1 X0.018 Y111.946 Z-0.100 F1200.000
G1 X0.023 Y111.951 Z-0.100 F1200.000
G1 X0.023 Y112.651 Z-0.100 F1200.000
G1 X0.018 Y112.646 Z-0.100 F1200.000
G1 X0.018 Y113.346 Z-0.100 F1200.000
G1 X0.023 Y113.351 Z-0.100 F1200.000
G1 X0.023 Y114.051 Z-0.100 F1200.000
G1 X0.018 Y114.046 Z-0.100 F1200.000
G1 X0.018 Y114.746 Z-0.100 F1200.000
G1 X0.023 Y114.751 Z-0.100 F1200.000
G1 X0.023 Y115.451 Z-0.100 F1200.000
G1 X0.018 Y115.446 Z-0.100 F1200.000
G1 X0.018 Y116.146 Z-0.100 F1200.000
G1 X0.023 Y116.151 Z-0.100 F1200.000
G1 X0.023 Y116.851 Z-0.100 F1200.000
G1 X0.018 Y116.846 Z-0.100 F1200.000
G1 X0.018 Y117.546 Z-0.100 F1200.000
G1 X0.023 Y117.551 Z-0.100 F1200.000
G1 X0.023 Y118.251 Z-0.100 F1200.000
G1 X0.018 Y118.246 Z-0.100 F1200.000
G1 X0.018 Y118.946 Z-0.100 F1200.000
G1 X0.023 Y118.951 Z-0.100 F1200.000
G1 X0.023 Y119.651 Z-0.100 F1200.000
G1 X0.018 Y119.646 Z-0.100 F1200.000
G1 X0.018 Y120.346 Z-0.100 F1200.000
G1 X0.023 Y120.351 Z-0.100 F1200.000
G1 X0.023 Y121.051 Z-0.100 F1200.000
G1 X0.018 Y121.046 Z-0.100 F1200.000
G1 X0.018 Y121.746 Z-0.100 F1200.000
G1 X0.023 Y121.751 Z-0.100 F1200.000
G1 X0.023 Y122.451 Z-0.100 F1200.000
G1 X0.018 Y122.446 Z-0.100 F1200.000
G1 X0.018 Y123.146 Z-0.100 F1200.000
G1 X0.023 Y123.151 Z-0.100 F1200.000
G1 X0.023 Y123.851 Z-0.100 F1200.000
G1 X0.018 Y123.846 Z-0.100 F1200.000
G1 X0.018 Y124.546 Z-0.100 F1200.000
G1 X0.023 Y124.551 Z-0.100 F1200.000
G1 X0.023 Y125.252 Z-0.100 F1200.000
G1 X0.018 Y125.247 Z-0.100 F1200.000
G1 X0.018 Y125.947 Z-0.100 F1200.000
G1 X0.023 Y125.952 Z-0.100 F1200.000
G1 X0.023 Y126.652 Z-0.100 F1200.000
G1 X0.018 Y126.647 Z-0.100 F1200.000
G1 X0.018 Y127.347 Z-0.100 F1200.000
G1 X0.023 Y127.352 Z-0.100 F1200.000
G1 X0.023 Y128.052 Z-0.100 F1200.000
G1 X0.018 Y128.047 Z-0.100 F1200.000
G1 X0.018 Y128.747 Z-0.100 F1200.000
G1 X0.023 Y128.752 Z-0.100 F1200.000
G1 X0.023 Y129.452 Z-0.100 F1200.000
G1 X0.018 Y129.447 Z-0.100 F1200.000
G1 X0.018 Y130.147 Z-0.100 F1200.000
G1 X0.023 Y130.152 Z-0.100 F1200.000
G1 X0.023 Y130.852 Z-0.100 F1200.000
G1 X0.018 Y130.847 Z-0.100 F1200.000
G1 X0.018 Y131.547 Z-0.100 F1200.000
G1 X0.023 Y131.552 Z-0.100 F1200.000
G1 X0.023 Y132.252 Z-0.100 F1200.000
G1 X0.018 Y132.247 Z-0.100 F1200.000
G1 X0.018 Y132.947 Z-0.100 F1200.000
G1 X0.023 Y132.952 Z-0.100 F1200.000
G1 X0.023 Y133.652 Z-0.100 F1200.000
G1 X0.018 Y133.647 Z-0.100 F1200.000
G1 X0.018 Y134.347 Z-0.100 F1200.000
G1 X0.023 Y134.352 Z-0.100 F1200.000
G1 X0.023 Y135.052 Z-0.100 F1200.000
G1 X0.018 Y135.047 Z-0.100 F1200.000
G1 X0.018 Y135.747 Z-0.100 F1200.000
G1 X0.023 Y135.752 Z-0.100 F1200.000
G1 X0.023 Y136.452 Z-0.100 F1200.000
G1 X0.018 Y136.447 Z-0.100 F1200.000
G1 X0.018 Y137.147 Z-0.100 F1200.000
G1 X0.023 Y137.152 Z-0.100 F1200.000
G1 X0.023 Y137.852 Z-0.100 F1200.000
G1 X0.018 Y137.847 Z-0.100 F1200.000
G1 X0.018 Y138.547 Z-0.100 F1200.000
G1 X0.023 Y138.552 Z-0.100 F1200.000
G1 X0.023 Y139.252 Z-0.100 F1200.000
G1 X0.018 Y139.247 Z-0.100 F1200.000
G1 X0.018 Y139.947 Z-0.100 F1200.000
G1 X0.023 Y139.952 Z-0.100 F1200.000
G1 X0.023 Y140.652 Z-0.100 F1200.000
G1 X0.018 Y140.647 Z-0.100 F1200.000
G1 X0.018 Y141.347 Z-0.100 F1200.000
G1 X0.023 Y141.352 Z-0.100 F1200.000
G1 X0.023 Y142.052 Z-0.100 F1200.000
G1 X0.018 Y142.047 Z-0.100 F1200.000
G1 X0.018 Y142.747 Z-0.100 F1200.000
G1 X0.023 Y142.752 Z-0.100 F1200.000
G1 X0.023 Y143.452 Z-0.100 F1200.000
G1 X0.018 Y143.447 Z-0.100 F1200.000
G1 X0.018 Y144.147 Z-0.100 F1200.000
G1 X0.023 Y144.152 Z-0.100 F1200.000
G1 X0.023 Y144.853 Z-0.100 F1200.000
G1 X0.018 Y144.848 Z-0.100 F1200.000
G1 X0.018 Y145.548 Z-0.100 F1200.000
G1 X0.023 Y145.553 Z-0.100 F1200.000
G1 X0.023 Y146.253 Z-0.100 F1200.000
G1 X0.018 Y146.248 Z-0.100 F1200.000
G1 X0.018 Y146.948 Z-0.100 F1200.000
G1 X0.023 Y146.953 Z-0.100 F1200.000
G1 X0.023 Y147.653 Z-0.100 F1200.000
G1 X0.018 Y147.648 Z-0.100 F1200.000
G1 X0.018 Y148.348 Z-0.100 F1200.000
G1 X0.023 Y148.353 Z-0.100 F1200.000
G1 X0.023 Y149.053 Z-0.100 F1200.000
G1 X0.018 Y149.048 Z-0.100 F1200.000
G1 X0.018 Y149.748 Z-0.100 F1200.000
G1 X0.023 Y149.753 Z-0.100 F1200.000
G1 X0.023 Y150.453 Z-0.100 F1200.000
G1 X0.018 Y150.448 Z-0.100 F1200.000
G1 X0.018 Y151.148 Z-0.100 F1200.000
G1 X0.023 Y151.153 Z-0.100 F1200.000
G1 X0.023 Y151.853 Z-0.100 F1200.000
G1 X0.018 Y151.848 Z-0.100 F1200.000
G1 X0.018 Y152.548 Z-0.100 F1200.000
G1 X0.023 Y152.553 Z-0.100 F1200.000
G1 X0.023 Y153.253 Z-0.100 F1200.000
G1 X0.018 Y153.248 Z-0.100 F1200.000
G1 X0.018 Y153.948 Z-0.100 F1200.000
G1 X0.023 Y153.953 Z-0.100 F1200.000
G1 X0.023 Y154.653 Z-0.100 F1200.000
G1 X0.018 Y154.648 Z-0.100 F1200.000
G1 X0.018 Y155.348 Z-0.100 F1200.000
G1 X0.023 Y155.353 Z-0.100 F1200.000
G1 X0.023 Y156.053 Z-0.100 F1200.000
G1 X0.018 Y156.048 Z-0.100 F1200.000
G1 X0.018 Y156.748 Z-0.100 F1200.000
G1 X0.023 Y156.753 Z-0.100 F1200.000
G1 X0.023 Y157.453 Z-0.100 F1200.000
G1 X0.018 Y157.448 Z-0.100 F1200.000
G1 X0.018 Y158.148 Z-0.100 F1200.000
G1 X0.023 Y158.153 Z-0.100 F1200.000
G1 X0.023 Y158.853 Z-0.100 F1200.000
G1 X0.018 Y158.848 Z-0.100 F1200.000
G1 X0.018 Y159.548 Z-0.100 F1200.000
G1 X0.023 Y159.553 Z-0.100 F1200.000
G1 X0.023 Y160.253 Z-0.100 F1200.000
G1 X0.018 Y160.248 Z-0.100 F1200.000
G1 X0.018 Y160.948 Z-0.100 F1200.000
G1 X0.023 Y160.953 Z-0.100 F1200.000
G1 X0.023 Y161.653 Z-0.100 F1200.000
G1 X0.018 Y161.648 Z-0.100 F1200.000
G1 X0.018 Y162.348 Z-0.100 F1200.000
G1 X0.023 Y162.353 Z-0.100 F1200.000
G1 X0.023 Y163.053 Z-0.100 F1200.000
G1 X0.018 Y163.048 Z-0.100 F1200.000
G1 X0.018 Y163.748 Z-0.100 F1200.000
G1 X0.023 Y163.753 Z-0.100 F1200.000
G1 X0.023 Y164.454 Z-0.100 F1200.000
G1 X0.018 Y164.449 Z-0.100 F1200.000
G1 X0.018 Y165.149 Z-0.100 F1200.000
G1 X0.023 Y165.154 Z-0.100 F1200.000
G1 X0.023 Y165.854 Z-0.100 F1200.000
G1 X0.018 Y165.849 Z-0.100 F1200.000
G1 X0.018 Y166.549 Z-0.100 F1200.000
G1 X0.023 Y166.554 Z-0.100 F1200.000
G1 X0.023 Y167.254 Z-0.100 F1200.000
G1 X0.018 Y167.249 Z-0.100 F1200.000
G1 X0.018 Y167.949 Z-0.100 F1200.000
G1 X0.023 Y167.954 Z-0.100 F1200.000
G1 X0.023 Y168.654 Z-0.100 F1200.000
G1 X0.018 Y168.649 Z-0.100 F1200.000
G1 X0.018 Y169.349 Z-0.100 F1200.000
G1 X0.023 Y169.354 Z-0.100 F1200.000
G1 X0.023 Y170.054 Z-0.100 F1200.000
G1 X0.018 Y170.049 Z-0.100 F1200.000
G1 X0.018 Y170.749 Z-0.100 F1200.000
G1 X0.023 Y170.754 Z-0.100 F1200.000
G1 X0.023 Y171.454 Z-0.100 F1200.000
G1 X0.018 Y171.449 Z-0.100 F1200.000
G1 X0.018 Y172.149 Z-0.100 F1200.000
G1 X0.023 Y172.154 Z-0.100 F1200.000
G1 X0.023 Y172.854 Z-0.100 F1200.000
G1 X0.018 Y172.849 Z-0.100 F1200.000
G1 X0.018 Y173.549 Z-0.100 F1200.000
G1 X0.023 Y173.554 Z-0.100 F1200.000
G1 X0.023 Y174.254 Z-0.100 F1200.000
G1 X0.018 Y174.249 Z-0.100 F1200.000
G1 X0.018 Y174.949 Z-0.100 F1200.000
G1 X0.023 Y174.954 Z-0.100 F1200.000
G1 X0.023 Y175.654 Z-0.100 F1200.000
G1 X0.018 Y175.649 Z-0.100 F1200.000
G1 X0.018 Y176.349 Z-0.100 F1200.000
G1 X0.023 Y176.354 Z-0.100 F1200.000
G1 X0.023 Y177.054 Z-0.100 F1200.000
G1 X0.018 Y177.049 Z-0.100 F1200.000
G1 X0.018 Y177.749 Z-0.100 F1200.000
G1 X0.023 Y177.754 Z-0.100 F1200.000
G1 X0.023 Y178.454 Z-0.100 F1200.000
G1 X0.018 Y178.449 Z-0.100 F1200.000
G1 X0.018 Y179.149 Z-0.100 F1200.000
G1 X0.023 Y179.154 Z-0.100 F1200.000
G1 X0.023 Y179.854 Z-0.100 F1200.000
G1 X0.018 Y179.849 Z-0.100 F1200.000
G1 X0.018 Y180.549 Z-0.100 F1200.000
G1 X0.023 Y180.554 Z-0.100 F1200.000
G1 X0.023 Y181.254 Z-0.100 F1200.000
G1 X0.018 Y181.249 Z-0.100 F1200.000
G1 X0.018 Y181.949 Z-0.100 F1200.000
G1 X0.023 Y181.954 Z-0.100 F1200.000
G1 X0.023 Y182.654 Z-0.100 F1200.000
G1 X0.018 Y182.649 Z-0.100 F1200.000
G1 X0.018 Y183.349 Z-0.100 F1200.000
G1 X0.023 Y183.354 Z-0.100 F1200.000
G1 X0.023 Y184.055 Z-0.100 F1200.000
G1 X0.018 Y184.050 Z-0.100 F1200.000
G1 X0.018 Y184.750 Z-0.100 F1200.000
G1 X0.023 Y184.755 Z-0.100 F1200.000
G1 X0.023 Y185.455 Z-0.100 F1200.000
G1 X0.018 Y185.450 Z-0.100 F1200.000
G1 X0.018 Y186.150 Z-0.100 F1200.000
G1 X0.023 Y186.155 Z-0.100 F1200.000
G1 X0.023 Y186.855 Z-0.100 F1200.000
G1 X0.018 Y186.850 Z-0.100 F1200.000
G1 X0.018 Y187.550 Z-0.100 F1200.000
G1 X0.023 Y187.555 Z-0.100 F1200.000
G1 X0.023 Y188.255 Z-0.100 F1200.000
G1 X0.018 Y188.250 Z-0.100 F1200.000
G1 X0.018 Y188.950 Z-0.100 F1200.000
G1 X0.023 Y188.955 Z-0.100 F1200.000
G1 X0.023 Y189.655 Z-0.100 F1200.000
G1 X0.018 Y189.650 Z-0.100 F1200.000
G1 X0.018 Y190.350 Z-0.100 F1200.000
G1 X0.023 Y190.355 Z-0.100 F1200.000
G1 X0.023 Y191.055 Z-0.100 F1200.000
G1 X0.018 Y191.050 Z-0.100 F1200.000
G1 X0.018 Y191.750 Z-0.100 F1200.000
G1 X0.023 Y191.755 Z-0.100 F1200.000
G1 X0.023 Y192.455 Z-0.100 F1200.000
G1 X0.018 Y192.450 Z-0.100 F1200.000
G1 X0.018 Y193.150 Z-0.100 F1200.000
G1 X0.023 Y193.155 Z-0.100 F1200.000
G1 X0.023 Y193.855 Z-0.100 F1200.000
G1 X0.018 Y193.850 Z-0.100 F1200.000
G1 X0.018 Y194.550 Z-0.100 F1200.000
G1 X0.023 Y194.555 Z-0.100 F1200.000
G1 X0.023 Y195.255 Z-0.100 F1200.000
G1 X0.018 Y195.250 Z-0.100 F1200.000
G1 X0.018 Y195.950 Z-0.100 F1200.000
G1 X0.023 Y195.955 Z-0.100 F1200.000
G1 X0.023 Y196.655 Z-0.100 F1200.000
G1 X0.018 Y196.650 Z-0.100 F1200.000
G1 X0.018 Y197.350 Z-0.100 F1200.000
G1 X0.023 Y197.355 Z-0.100 F1200.000
G1 X0.023 Y198.055 Z-0.100 F1200.000
G1 X0.018 Y198.050 Z-0.100 F1200.000
G1 X0.018 Y198.750 Z-0.100 F1200.000
G1 X0.023 Y198.755 Z-0.100 F1200.000
G1 X0.023 Y199.455 Z-0.100 F1200.000
G1 X0.018 Y199.450 Z-0.100 F1200.000
G1 X0.018 Y200.150 Z-0.100 F1200.000
G1 X0.023 Y200.155 Z-0.100 F1200.000
G1 X0.023 Y200.855 Z-0.100 F1200.000
G1 X0.018 Y200.850 Z-0.100 F1200.000
G1 X0.018 Y201.550 Z-0.100 F1200.000
G1 X0.023 Y201.555 Z-0.100 F1200.000
G1 X0.023 Y202.255 Z-0.100 F1200.000
G1 X0.018 Y202.250 Z-0.100 F1200.000
G1 X0.018 Y202.950 Z-0.100 F1200.000
G1 X0.023 Y202.955 Z-0.100 F1200.000
G1 X0.023 Y203.656 Z-0.100 F1200.000
G1 X0.018 Y203.651 Z-0.100 F1200.000
G1 X0.018 Y204.351 Z-0.100 F1200.000
G1 X0.023 Y204.356 Z-0.100 F1200.000
G1 X0.023 Y205.056 Z-0.100 F1200.000
G1 X0.018 Y205.051 Z-0.100 F1200.000
G1 X0.018 Y205.751 Z-0.100 F1200.000
G1 X0.023 Y205.756 Z-0.100 F1200.000
G1 X0.023 Y206.456 Z-0.100 F1200.000
G1 X0.018 Y206.451 Z-0.100 F1200.000
G1 X0.018 Y207.151 Z-0.100 F1200.000
G1 X0.023 Y207.156 Z-0.100 F1200.000
G1 X0.023 Y207.856 Z-0.100 F1200.000
G1 X0.018 Y207.851 Z-0.100 F1200.000
G1 X0.018 Y208.551 Z-0.100 F1200.000
G1 X0.023 Y208.556 Z-0.100 F1200.000
G1 X0.023 Y209.256 Z-0.100 F1200.000
G1 X0.018 Y209.251 Z-0.100 F1200.000
G1 X0.018 Y209.951 Z-0.100 F1200.000
G1 X0.023 Y209.956 Z-0.100 F1200.000
G1 X0.023 Y210.656 Z-0.100 F1200.000
G1 X0.018 Y210.651 Z-0.100 F1200.000
G1 X0.018 Y211.351 Z-0.100 F1200.000
G1 X0.023 Y211.356 Z-0.100 F1200.000
G1 X0.023 Y212.056 Z-0.100 F1200.000
G1 X0.018 Y212.051 Z-0.100 F1200.000
G1 X0.018 Y212.751 Z-0.100 F1200.000
G1 X0.023 Y212.756 Z-0.100 F1200.000
G1 X0.023 Y213.456 Z-0.100 F1200.000
G1 X0.018 Y213.451 Z-0.100 F1200.000
G1 X0.018 Y214.151 Z-0.100 F1200.000
G1 X0.023 Y214.156 Z-0.100 F1200.000
G1 X0.023 Y214.856 Z-0.100 F1200.000
G1 X0.018 Y214.851 Z-0.100 F1200.000
G1 X0.018 Y215.551 Z-0.100 F1200.000
G1 X0.023 Y215.556 Z-0.100 F1200.000
G1 X0.023 Y216.256 Z-0.100 F1200.000
G1 X0.018 Y216.251 Z-0.100 F1200.000
G1 X0.018 Y216.951 Z-0.100 F1200.000
G1 X0.023 Y216.956 Z-0.100 F1200.000
G1 X0.023 Y217.656 Z-0.100 F1200.000
G1 X0.018 Y217.651 Z-0.100 F1200.000
G1 X0.018 Y218.351 Z-0.100 F1200.000
G1 X0.023 Y218.356 Z-0.100 F1200.000
G1 X0.023 Y219.056 Z-0.100 F1200.000
G1 X0.018 Y219.051 Z-0.100 F1200.000
G1 X0.018 Y219.751 Z-0.100 F1200.000
G1 X0.023 Y219.756 Z-0.100 F1200.000
G1 X0.023 Y220.456 Z-0.100 F1200.000
G1 X0.018 Y220.451 Z-0.100 F1200.000
G1 X0.018 Y221.151 Z-0.100 F1200.000
G1 X0.023 Y221.156 Z-0.100 F1200.000
G1 X0.023 Y221.856 Z-0.100 F1200.000
G1 X0.018 Y221.851 Z-0.100 F1200.000
G1 X0.018 Y222.551 Z-0.100 F1200.000
G1 X0.023 Y222.556 Z-0.100 F1200.000
G1 X0.023 Y223.257 Z-0.100 F1200.000
G1 X0.018 Y223.252 Z-0.100 F1200.000
G1 X0.018 Y223.952 Z-0.100 F1200.000
G1 X0.023 Y223.957 Z-0.100 F1200.000
G1 X0.023 Y224.657 Z-0.100 F1200.000
G1 X0.018 Y224.652 Z-0.100 F1200.000
G1 X0.018 Y225.352 Z-0.100 F1200.000
G1 X0.023 Y225.357 Z-0.100 F1200.000
G1 X0.023 Y226.057 Z-0.100 F1200.000
G1 X0.018 Y226.052 Z-0.100 F1200.000
G1 X0.018 Y226.752 Z-0.100 F1200.000
G1 X0.023 Y226.757 Z-0.100 F1200.000
G1 X0.023 Y227.457 Z-0.100 F1200.000
G1 X0.018 Y227.452 Z-0.100 F1200.000
G1 X0.018 Y228.152 Z-0.100 F1200.000
G1 X0.023 Y228.157 Z-0.100 F1200.000
G1 X0.023 Y228.857 Z-0.100 F1200.000
G1 X0.018 Y228.852 Z-0.100 F1200.000
G1 X0.018 Y229.552 Z-0.100 F1200.000
G1 X0.023 Y229.557 Z-0.100 F1200.000
G1 X0.023 Y230.257 Z-0.100 F1200.000
G1 X0.018 Y230.252 Z-0.100 F1200.000
G1 X0.018 Y230.952 Z-0.100 F1200.000
G1 X0.023 Y230.957 Z-0.100 F1200.000
G1 X0.023 Y231.657 Z-0.100 F1200.000
G1 X0.018 Y231.652 Z-0.100 F1200.000
G1 X0.018 Y232.352 Z-0.100 F1200.000
G1 X0.023 Y232.357 Z-0.100 F1200.000
G1 X0.023 Y233.057 Z-0.100 F1200.000
G1 X0.018 Y233.052 Z-0.100 F1200.000
G1 X0.018 Y233.752 Z-0.100 F1200.000
G1 X0.023 Y233.757 Z-0.100 F1200.000
G1 X0.023 Y234.457 Z-0.100 F1200.000
G1 X0.018 Y234.452 Z-0.100 F1200.000
G1 X0.018 Y235.152 Z-0.100 F1200.000
G1 X0.023 Y235.157 Z-0.100 F1200.000
G1 X0.023 Y235.857 Z-0.100 F1200.000
G1 X0.018 Y235.852 Z-0.100 F1200.000
G1 X0.018 Y236.552 Z-0.100 F1200.000
G1 X0.023 Y236.557 Z-0.100 F1200.000
G1 X0.023 Y237.257 Z-0.100 F1200.000
G1 X0.018 Y237.252 Z-0.100 F1200.000
G1 X0.018 Y237.952 Z-0.100 F1200.000
G1 X0.023 Y237.957 Z-0.100 F1200.000
G1 X0.023 Y238.657 Z-0.100 F1200.000
G1 X0.018 Y238.652 Z-0.100 F1200.000
G1 X0.018 Y239.352 Z-0.100 F1200.000
G1 X0.023 Y239.357 Z-0.100 F1200.000
G1 X0.023 Y240.057 Z-0.100 F1200.000
G1 X0.018 Y240.052 Z-0.100 F1200.000
G1 X0.018 Y240.752 Z-0.100 F1200.000
G1 X0.023 Y240.757 Z-0.100 F1200.000
G1 X0.023 Y241.457 Z-0.100 F1200.000
G1 X0.018 Y241.452 Z-0.100 F1200.000
G1 X0.018 Y242.152 Z-0.100 F1200.000
G1 X0.023 Y242.157 Z-0.100 F1200.000
G1 X0.023 Y242.858 Z-0.100 F1200.000
G1 X0.018 Y242.853 Z-0.100 F1200.000
G1 X0.018 Y243.553 Z-0.100 F1200.000
G1 X0.023 Y243.558 Z-0.100 F1200.000
G1 X0.023 Y244.258 Z-0.100 F1200.000
G1 X0.018 Y244.253 Z-0.100 F1200.000
G1 X0.018 Y244.953 Z-0.100 F1200.000
G1 X0.023 Y244.958 Z-0.100 F1200.000
G1 X0.023 Y245.658 Z-0.100 F1200.000
G1 X0.018 Y245.653 Z-0.100 F1200.000
G1 X0.018 Y246.353 Z-0.100 F1200.000
G1 X0.023 Y246.358 Z-0.100 F1200.000
G1 X0.023 Y247.058 Z-0.100 F1200.000
G1 X0.018 Y247.053 Z-0.100 F1200.000
G1 X0.018 Y247.753 Z-0.100 F1200.000
G1 X0.023 Y247.758 Z-0.100 F1200.000
G1 X0.023 Y248.458 Z-0.100 F1200.000
G1 X0.018 Y248.453 Z-0.100 F1200.000
G1 X0.018 Y249.153 Z-0.100 F1200.000
G1 X0.023 Y249.158 Z-0.100 F1200.000
G1 X0.023 Y249.858 Z-0.100 F1200.000
G1 X0.018 Y249.853 Z-0.100 F1200.000
G1 X0.018 Y250.553 Z-0.100 F1200.000
G1 X0.023 Y250.558 Z-0.100 F1200.000
G1 X0.023 Y251.258 Z-0.100 F1200.000
G1 X0.018 Y251.253 Z-0.100 F1200.000
G1 X0.018 Y251.953 Z-0.100 F1200.000
G1 X0.023 Y251.958 Z-0.100 F1200.000
G1 X0.023 Y252.658 Z-0.100 F1200.000
G1 X0.018 Y252.653 Z-0.100 F1200.000
G1 X0.018 Y253.353 Z-0.100 F1200.000
G1 X0.023 Y253.358 Z-0.100 F1200.000
G1 X0.023 Y254.058 Z-0.100 F1200.000
G1 X0.018 Y254.053 Z-0.100 F1200.000
G1 X0.018 Y254.753 Z-0.100 F1200.000
G1 X0.023 Y254.758 Z-0.100 F1200.000
G1 X0.023 Y255.458 Z-0.100 F1200.000
G1 X0.018 Y255.453 Z-0.100 F1200.000
G1 X0.018 Y256.153 Z-0.100 F1200.000
G1 X0.023 Y256.158 Z-0.100 F1200.000
G1 X0.023 Y256.858 Z-0.100 F1200.000
G1 X0.023 Y257.159 Z-0.100 F1200.000
G2 X0.018 Y257.159 Z-0.100 I-0.002 J0.059 K0.000 F1200.000
G1 X0.018 Y256.853 Z-0.100 F1200.000
G1 X0.023 Y256.858 Z-0.100 F1200.000
G0 Z5.000
G0 Z5.000
G0 X0.023 Y256.858
G0 X8.394 Y273.568
G0 X8.394 Y273.568 Z3.000
G1 X8.394 Y273.568 Z-0.100 F300.000
G2 X8.391 Y273.572 Z-0.100 I0.050 J0.031 K0.000 F1200.000
G1 X6.778 Y272.653 Z-0.100 F1200.000
G1 X6.765 Y272.639 Z-0.100 F1200.000
G1 X5.136 Y271.710 Z-0.100 F1200.000
G1 X5.149 Y271.724 Z-0.100 F1200.000
G1 X3.520 Y270.795 Z-0.100 F1200.000
G1 X3.507 Y270.781 Z-0.100 F1200.000
G1 X1.878 Y269.852 Z-0.100 F1200.000
G1 X1.891 Y269.866 Z-0.100 F1200.000
G1 X0.262 Y268.937 Z-0.100 F1200.000
G1 X0.249 Y268.923 Z-0.100 F1200.000
G1 X-1.380 Y267.995 Z-0.100 F1200.000
G1 X-1.367 Y268.008 Z-0.100 F1200.000
G1 X-2.996 Y267.079 Z-0.100 F1200.000
G1 X-3.009 Y267.066 Z-0.100 F1200.000
G1 X-4.638 Y266.137 Z-0.100 F1200.000
G1 X-4.625 Y266.150 Z-0.100 F1200.000
G1 X-6.254 Y265.221 Z-0.100 F1200.000
G1 X-6.267 Y265.208 Z-0.100 F1200.000
G1 X-7.896 Y264.279 Z-0.100 F1200.000
G1 X-7.882 Y264.292 Z-0.100 F1200.000
G1 X-9.511 Y263.363 Z-0.100 F1200.000
G1 X-9.525 Y263.350 Z-0.100 F1200.000
G1 X-11.154 Y262.421 Z-0.100 F1200.000
G1 X-11.140 Y262.434 Z-0.100 F1200.000
G1 X-12.769 Y261.505 Z-0.100 F1200.000
G1 X-12.783 Y261.492 Z-0.100 F1200.000
G1 X-14.412 Y260.563 Z-0.100 F1200.000
G1 X-14.398 Y260.577 Z-0.100 F1200.000
G1 X-16.027 Y259.648 Z-0.100 F1200.000
G1 X-16.041 Y259.634 Z-0.100 F1200.000
G1 X-17.670 Y258.705 Z-0.100 F1200.000
G1 X-17.656 Y258.719 Z-0.100 F1200.000
G1 X-19.285 Y257.790 Z-0.100 F1200.000
G1 X-19.299 Y257.776 Z-0.100 F1200.000
G1 X-20.928 Y256.847 Z-0.100 F1200.000
G1 X-20.914 Y256.861 Z-0.100 F1200.000
G1 X-22.543 Y255.932 Z-0.100 F1200.000
G1 X-22.557 Y255.919 Z-0.100 F1200.000
G1 X-24.185 Y254.990 Z-0.100 F1200.000
G1 X-24.172 Y255.003 Z-0.100 F1200.000
G1 X-25.801 Y254.074 Z-0.100 F1200.000
G1 X-25.814 Y254.061 Z-0.100 F1200.000
G1 X-27.443 Y253.132 Z-0.100 F1200.000
G1 X-27.430 Y253.145 Z-0.100 F1200.000
G1 X-29.059 Y252.216 Z-0.100 F1200.000
G1 X-29.072 Y252.203 Z-0.100 F1200.000
G1 X-30.701 Y251.274 Z-0.100 F1200.000
G1 X-30.688 Y251.287 Z-0.100 F1200.000
G1 X-32.317 Y250.358 Z-0.100 F1200.000
G1 X-32.330 Y250.345 Z-0.100 F1200.000
G1 X-33.959 Y249.416 Z-0.100 F1200.000
G1 X-33.946 Y249.429 Z-0.100 F1200.000
G1 X-35.575 Y248.500 Z-0.100 F1200.000
G1 X-35.588 Y248.487 Z-0.100 F1200.000
G1 X-37.217 Y247.558 Z-0.100 F1200.000
G1 X-37.204 Y247.572 Z-0.100 F1200.000
G1 X-38.833 Y246.643 Z-0.100 F1200.000
G1 X-38.846 Y246.629 Z-0.100 F1200.000
G1 X-40.475 Y245.700 Z-0.100 F1200.000
G1 X-40.462 Y245.714 Z-0.100 F1200.000
G1 X-42.091 Y244.785 Z-0.100 F1200.000
G1 X-42.104 Y244.771 Z-0.100 F1200.000
G1 X-43.733 Y243.842 Z-0.100 F1200.000
G1 X-43.720 Y243.856 Z-0.100 F1200.000
G1 X-45.349 Y242.927 Z-0.100 F1200.000
G1 X-45.362 Y242.914 Z-0.100 F1200.000
G1 X-46.991 Y241.985 Z-0.100 F1200.000
G1 X-46.978 Y241.998 Z-0.100 F1200.000
G1 X-48.607 Y241.069 Z-0.100 F1200.000
G1 X-48.620 Y241.056 Z-0.100 F1200.000
G1 X-50.249 Y240.127 Z-0.100 F1200.000
G1 X-50.236 Y240.140 Z-0.100 F1200.000
G1 X-51.864 Y239.211 Z-0.100 F1200.000
G1 X-51.878 Y239.198 Z-0.100 F1200.000
G1 X-53.507 Y238.269 Z-0.100 F1200.000
G1 X-53.493 Y238.282 Z-0.100 F1200.000
G1 X-55.122 Y237.353 Z-0.100 F1200.000
G1 X-55.136 Y237.340 Z-0.100 F1200.000
G1 X-56.765 Y236.411 Z-0.100 F1200.000
G1 X-56.751 Y236.424 Z-0.100 F1200.000
G1 X-58.380 Y235.496 Z-0.100 F1200.000
G1 X-58.394 Y235.482 Z-0.100 F1200.000
G1 X-60.023 Y234.553 Z-0.100 F1200.000
G1 X-60.009 Y234.567 Z-0.100 F1200.000
G1 X-61.638 Y233.638 Z-0.100 F1200.000
G1 X-61.652 Y233.624 Z-0.100 F1200.000
G1 X-63.281 Y232.695 Z-0.100 F1200.000
G1 X-63.267 Y232.709 Z-0.100 F1200.000
G1 X-64.896 Y231.780 Z-0.100 F1200.000
G1 X-64.910 Y231.766 Z-0.100 F1200.000
G1 X-66.539 Y230.837 Z-0.100 F1200.000
G1 X-66.525 Y230.851 Z-0.100 F1200.000
G1 X-68.154 Y229.922 Z-0.100 F1200.000
G1 X-68.167 Y229.909 Z-0.100 F1200.000
G1 X-69.796 Y228.980 Z-0.100 F1200.000
G1 X-69.783 Y228.993 Z-0.100 F1200.000
G1 X-71.412 Y228.064 Z-0.100 F1200.000
G1 X-71.425 Y228.051 Z-0.100 F1200.000
G1 X-73.054 Y227.122 Z-0.100 F1200.000
G1 X-73.041 Y227.135 Z-0.100 F1200.000
G1 X-74.670 Y226.206 Z-0.100 F1200.000
G1 X-74.683 Y226.193 Z-0.100 F1200.000
G1 X-76.312 Y225.264 Z-0.100 F1200.000
G1 X-76.299 Y225.277 Z-0.100 F1200.000
G1 X-77.928 Y224.348 Z-0.100 F1200.000
G1 X-77.941 Y224.335 Z-0.100 F1200.000
G1 X-79.570 Y223.406 Z-0.100 F1200.000
G1 X-79.557 Y223.419 Z-0.100 F1200.000
G1 X-81.186 Y222.491 Z-0.100 F1200.000
G1 X-81.199 Y222.477 Z-0.100 F1200.000
G1 X-82.828 Y221.548 Z-0.100 F1200.000
G1 X-82.815 Y221.562 Z-0.100 F1200.000
G1 X-84.444 Y220.633 Z-0.100 F1200.000
G1 X-84.457 Y220.619 Z-0.100 F1200.000
G1 X-86.086 Y219.690 Z-0.100 F1200.000
G1 X-86.073 Y219.704 Z-0.100 F1200.000
G1 X-87.702 Y218.775 Z-0.100 F1200.000
G1 X-87.715 Y218.761 Z-0.100 F1200.000
G1 X-89.344 Y217.833 Z-0.100 F1200.000
G1 X-89.331 Y217.846 Z-0.100 F1200.000
G1 X-90.960 Y216.917 Z-0.100 F1200.000
G1 X-90.973 Y216.904 Z-0.100 F1200.000
G1 X-92.602 Y215.975 Z-0.100 F1200.000
G1 X-92.589 Y215.988 Z-0.100 F1200.000
G1 X-94.218 Y215.059 Z-0.100 F1200.000
G1 X-94.231 Y215.046 Z-0.100 F1200.000
G1 X-95.860 Y214.117 Z-0.100 F1200.000
G1 X-95.846 Y214.130 Z-0.100 F1200.000
G1 X-97.475 Y213.201 Z-0.100 F1200.000
G1 X-97.489 Y213.188 Z-0.100 F1200.000
G1 X-99.118 Y212.259 Z-0.100 F1200.000
G1 X-99.104 Y212.272 Z-0.100 F1200.000
G1 X-100.733 Y211.343 Z-0.100 F1200.000
G1 X-100.747 Y211.330 Z-0.100 F1200.000
G1 X-102.376 Y210.401 Z-0.100 F1200.000
G1 X-102.362 Y210.414 Z-0.100 F1200.000
G1 X-103.991 Y209.486 Z-0.100 F1200.000
G1 X-104.005 Y209.472 Z-0.100 F1200.000
G1 X-105.634 Y208.543 Z-0.100 F1200.000
G1 X-105.620 Y208.557 Z-0.100 F1200.000
G1 X-107.249 Y207.628 Z-0.100 F1200.000
G1 X-107.263 Y207.614 Z-0.100 F1200.000
G1 X-108.892 Y206.685 Z-0.100 F1200.000
G1 X-108.878 Y206.699 Z-0.100 F1200.000
G1 X-110.507 Y205.770 Z-0.100 F1200.000
G1 X-110.521 Y205.756 Z-0.100 F1200.000
G1 X-112.149 Y204.828 Z-0.100 F1200.000
G1 X-112.136 Y204.841 Z-0.100 F1200.000
G1 X-113.765 Y203.912 Z-0.100 F1200.000
G1 X-113.778 Y203.899 Z-0.100 F1200.000
G1 X-115.407 Y202.970 Z-0.100 F1200.000
G1 X-115.394 Y202.983 Z-0.100 F1200.000
G1 X-117.023 Y202.054 Z-0.100 F1200.000
G1 X-117.036 Y202.041 Z-0.100 F1200.000
G1 X-118.665 Y201.112 Z-0.100 F1200.000
G1 X-118.652 Y201.125 Z-0.100 F1200.000
G1 X-120.281 Y200.196 Z-0.100 F1200.000
G1 X-120.294 Y200.183 Z-0.100 F1200.000
G1 X-121.923 Y199.254 Z-0.100 F1200.000
G1 X-121.910 Y199.267 Z-0.100 F1200.000
G1 X-123.539 Y198.338 Z-0.100 F1200.000
G1 X-123.552 Y198.325 Z-0.100 F1200.000
G1 X-125.181 Y197.396 Z-0.100 F1200.000
G1 X-125.168 Y197.409 Z-0.100 F1200.000
G1 X-126.797 Y196.481 Z-0.100 F1200.000
G1 X-126.810 Y196.467 Z-0.100 F1200.000
G1 X-128.439 Y195.538 Z-0.100 F1200.000
G1 X-128.426 Y195.552 Z-0.100 F1200.000
G1 X-130.055 Y194.623 Z-0.100 F1200.000
G1 X-130.068 Y194.609 Z-0.100 F1200.000
G1 X-131.697 Y193.680 Z-0.100 F1200.000
G1 X-131.684 Y193.694 Z-0.100 F1200.000
G1 X-133.313 Y192.765 Z-0.100 F1200.000
G1 X-133.326 Y192.751 Z-0.100 F1200.000
G1 X-134.955 Y191.823 Z-0.100 F1200.000
G1 X-134.942 Y191.836 Z-0.100 F1200.000
G1 X-136.571 Y190.907 Z-0.100 F1200.000
G1 X-136.584 Y190.894 Z-0.100 F1200.000
G1 X-138.213 Y189.965 Z-0.100 F1200.000
G1 X-138.200 Y189.978 Z-0.100 F1200.000
G1 X-139.828 Y189.049 Z-0.100 F1200.000
G1 X-139.842 Y189.036 Z-0.100 F1200.000
G1 X-141.471 Y188.107 Z-0.100 F1200.000
G1 X-141.457 Y188.120 Z-0.100 F1200.000
G1 X-143.086 Y187.191 Z-0.100 F1200.000
G1 X-143.100 Y187.178 Z-0.100 F1200.000
G1 X-144.729 Y186.249 Z-0.100 F1200.000
G1 X-144.715 Y186.262 Z-0.100 F1200.000
G1 X-146.344 Y185.333 Z-0.100 F1200.000
G1 X-146.358 Y185.320 Z-0.100 F1200.000
G1 X-147.987 Y184.391 Z-0.100 F1200.000
G1 X-147.973 Y184.405 Z-0.100 F1200.000
G1 X-149.602 Y183.476 Z-0.100 F1200.000
G1 X-149.616 Y183.462 Z-0.100 F1200.000
G1 X-151.245 Y182.533 Z-0.100 F1200.000
G1 X-151.231 Y182.547 Z-0.100 F1200.000
G1 X-152.860 Y181.618 Z-0.100 F1200.000
G1 X-152.874 Y181.604 Z-0.100 F1200.000
G1 X-154.503 Y180.675 Z-0.100 F1200.000
G1 X-154.489 Y180.689 Z-0.100 F1200.000
G1 X-156.118 Y179.760 Z-0.100 F1200.000
G1 X-156.131 Y179.746 Z-0.100 F1200.000
G1 X-157.760 Y178.818 Z-0.100 F1200.000
G1 X-157.747 Y178.831 Z-0.100 F1200.000
G1 X-159.376 Y177.902 Z-0.100 F1200.000
G1 X-159.389 Y177.889 Z-0.100 F1200.000
G1 X-161.018 Y176.960 Z-0.100 F1200.000
G1 X-161.005 Y176.973 Z-0.100 F1200.000
G1 X-162.634 Y176.044 Z-0.100 F1200.000
G1 X-162.647 Y176.031 Z-0.100 F1200.000
G1 X-164.276 Y175.102 Z-0.100 F1200.000
G1 X-164.263 Y175.115 Z-0.100 F1200.000
G1 X-165.892 Y174.186 Z-0.100 F1200.000
G1 X-165.905 Y174.173 Z-0.100 F1200.000
G1 X-167.534 Y173.244 Z-0.100 F1200.000
G1 X-167.521 Y173.257 Z-0.100 F1200.000
G1 X-169.150 Y172.328 Z-0.100 F1200.000
G1 X-169.163 Y172.315 Z-0.100 F1200.000
G1 X-170.792 Y171.386 Z-0.100 F1200.000
G1 X-170.779 Y171.400 Z-0.100 F1200.000
G1 X-172.365 Y170.495 Z-0.100 F1200.000
G2 X-172.362 Y170.491 Z-0.100 I-0.050 J-0.031 K0.000 F1200.000
G1 X-170.792 Y171.386 Z-0.100 F1200.000
G0 Z5.000
G0 Z5.000
G0 X-170.792 Y171.386
G0 X27.670 Y269.494
G0 X27.670 Y269.494 Z3.000
G1 X27.670 Y269.494 Z-0.100 F300.000
G3 X27.669 Y269.533 Z-0.100 I-0.015 J0.019 K0.000 F1200.000
G3 X27.670 Y269.494 Z-0.100 I0.000 J-0.019 K0.000 F1200.000
G1 X27.754 Y268.879 Z-0.100 F1200.000
G1 X27.758 Y268.883 Z-0.100 F1200.000
G1 X27.842 Y268.267 Z-0.100 F1200.000
G1 X27.838 Y268.263 Z-0.100 F1200.000
G1 X27.922 Y267.647 Z-0.100 F1200.000
G1 X27.927 Y267.651 Z-0.100 F1200.000
G1 X28.011 Y267.035 Z-0.100 F1200.000
G1 X28.006 Y267.031 Z-0.100 F1200.000
G1 X28.090 Y266.415 Z-0.100 F1200.000
G1 X28.095 Y266.420 Z-0.100 F1200.000
G1 X28.179 Y265.804 Z-0.100 F1200.000
G1 X28.175 Y265.799 Z-0.100 F1200.000
G1 X28.259 Y265.183 Z-0.100 F1200.000
G1 X28.263 Y265.188 Z-0.100 F1200.000
G1 X28.347 Y264.572 Z-0.100 F1200.000
G1 X28.343 Y264.568 Z-0.100 F1200.000
G1 X28.427 Y263.952 Z-0.100 F1200.000
G1 X28.432 Y263.956 Z-0.100 F1200.000
G1 X28.516 Y263.340 Z-0.100 F1200.000
G1 X28.511 Y263.336 Z-0.100 F1200.000
G1 X28.596 Y262.720 Z-0.100 F1200.000
G1 X28.600 Y262.725 Z-0.100 F1200.000
G1 X28.684 Y262.109 Z-0.100 F1200.000
G1 X28.680 Y262.104 Z-0.100 F1200.000
G1 X28.764 Y261.488 Z-0.100 F1200.000
G1 X28.768 Y261.493 Z-0.100 F1200.000
G1 X28.853 Y260.877 Z-0.100 F1200.000
G1 X28.848 Y260.873 Z-0.100 F1200.000
G1 X28.932 Y260.257 Z-0.100 F1200.000
G1 X28.937 Y260.261 Z-0.100 F1200.000
G1 X29.021 Y259.645 Z-0.100 F1200.000
G1 X29.016 Y259.641 Z-0.100 F1200.000
G1 X29.101 Y259.025 Z-0.100 F1200.000
G1 X29.105 Y259.029 Z-0.100 F1200.000
G1 X29.189 Y258.414 Z-0.100 F1200.000
G1 X29.185 Y258.409 Z-0.100 F1200.000
G1 X29.269 Y257.793 Z-0.100 F1200.000
G1 X29.273 Y257.798 Z-0.100 F1200.000
G1 X29.358 Y257.182 Z-0.100 F1200.000
G1 X29.353 Y257.177 Z-0.100 F1200.000
G1 X29.437 Y256.562 Z-0.100 F1200.000
G1 X29.442 Y256.566 Z-0.100 F1200.000
G1 X29.526 Y255.950 Z-0.100 F1200.000
G1 X29.522 Y255.946 Z-0.100 F1200.000
G1 X29.606 Y255.330 Z-0.100 F1200.000
G1 X29.610 Y255.334 Z-0.100 F1200.000
G1 X29.694 Y254.718 Z-0.100 F1200.000
G1 X29.690 Y254.714 Z-0.100 F1200.000
G1 X29.774 Y254.098 Z-0.100 F1200.000
G1 X29.779 Y254.103 Z-0.100 F1200.000
G1 X29.863 Y253.487 Z-0.100 F1200.000
G1 X29.858 Y253.482 Z-0.100 F1200.000
G1 X29.942 Y252.866 Z-0.100 F1200.000
G1 X29.947 Y252.871 Z-0.100 F1200.000
G1 X30.031 Y252.255 Z-0.100 F1200.000
G1 X30.027 Y252.251 Z-0.100 F1200.000
G1 X30.111 Y251.635 Z-0.100 F1200.000
G1 X30.115 Y251.639 Z-0.100 F1200.000
G1 X30.199 Y251.023 Z-0.100 F1200.000
G1 X30.195 Y251.019 Z-0.100 F1200.000
G1 X30.279 Y250.403 Z-0.100 F1200.000
G1 X30.284 Y250.407 Z-0.100 F1200.000
G1 X30.368 Y249.792 Z-0.100 F1200.000
G1 X30.363 Y249.787 Z-0.100 F1200.000
G1 X30.448 Y249.171 Z-0.100 F1200.000
G1 X30.452 Y249.176 Z-0.100 F1200.000
G1 X30.536 Y248.560 Z-0.100 F1200.000
G1 X30.532 Y248.555 Z-0.100 F1200.000
G1 X30.616 Y247.940 Z-0.100 F1200.000
G1 X30.620 Y247.944 Z-0.100 F1200.000
G1 X30.705 Y247.328 Z-0.100 F1200.000
G1 X30.700 Y247.324 Z-0.100 F1200.000
G1 X30.784 Y246.708 Z-0.100 F1200.000
G1 X30.789 Y246.712 Z-0.100 F1200.000
G1 X30.873 Y246.096 Z-0.100 F1200.000
G1 X30.868 Y246.092 Z-0.100 F1200.000
G1 X30.953 Y245.476 Z-0.100 F1200.000
G1 X30.957 Y245.481 Z-0.100 F1200.000
G1 X31.041 Y244.865 Z-0.100 F1200.000
G1 X31.037 Y244.860 Z-0.100 F1200.000
G1 X31.121 Y244.244 Z-0.100 F1200.000
G1 X31.125 Y244.249 Z-0.100 F1200.000
G1 X31.210 Y243.633 Z-0.100 F1200.000
G1 X31.205 Y243.629 Z-0.100 F1200.000
G1 X31.289 Y243.013 Z-0.100 F1200.000
G1 X31.294 Y243.017 Z-0.100 F1200.000
G1 X31.378 Y242.401 Z-0.100 F1200.000
G1 X31.374 Y242.397 Z-0.100 F1200.000
G1 X31.458 Y241.781 Z-0.100 F1200.000
G1 X31.462 Y241.786 Z-0.100 F1200.000
G1 X31.546 Y241.170 Z-0.100 F1200.000
G1 X31.542 Y241.165 Z-0.100 F1200.000
G1 X31.626 Y240.549 Z-0.100 F1200.000
G1 X31.631 Y240.554 Z-0.100 F1200.000
G1 X31.715 Y239.938 Z-0.100 F1200.000
G1 X31.710 Y239.934 Z-0.100 F1200.000
G1 X31.794 Y239.318 Z-0.100 F1200.000
G1 X31.799 Y239.322 Z-0.100 F1200.000
G1 X31.883 Y238.706 Z-0.100 F1200.000
