(Exported by FreeCAD)
(Post Processor: grbl_post)
(Output Time:2024-02-04 12:46:26.158145)
(Begin preamble)
G17 G90
G21
(Begin operation: TC: 0.5mm_droite)
(Path: TC: 0.5mm_droite)
(TC: 0.5mm_droite)
(Begin toolchange)
( M6 T2 )
M3 S24000
(Finish operation: TC: 0.5mm_droite)
(Begin operation: Fixture)
(Path: Fixture)
G54
(Finish operation: Fixture)
(Begin operation: Frettes002)
(Path: Frettes002)
(Frettes002)
(Frettes002)
(Tool type: endmill)
(Compensated Tool Path. Diameter: 0.5)
(Sample interval: 1.0)
(Step over %: 100.0)
()
G0 Z12.000
(Beginning of Multi-pass layers.)
(Layer 0 begins)
(Begin step 0.)
G0 X32.003 Y445.231
(part 1)
G1 X32.003 Y445.231 Z6.853 F200.000
G1 X31.868 Y445.295 Z6.853 F200.000
G1 X24.268 Y445.295 Z6.853 F200.000
G1 X24.093 Y445.237 Z6.853 F200.000
G1 X24.279 Y445.231 Z6.853 F200.000
G1 X32.003 Y445.231 Z6.853 F200.000
(--Break)
G0 Z10.000
G0 X-8.084 Y445.231
(part 3)
G1 X-8.084 Y445.231 Z6.853 F200.000
G1 X-8.257 Y445.295 Z6.853 F200.000
G1 X-32.057 Y445.295 Z6.853 F200.000
G1 X-32.191 Y445.231 Z6.853 F200.000
G1 X-8.084 Y445.231 Z6.853 F200.000
(--Break)
G0 Z10.000
G0 X25.714 Y36.450
(part 5)
G1 X25.714 Y36.450 Z6.853 F200.000
G1 X25.579 Y36.514 Z6.853 F200.000
G1 X-25.821 Y36.514 Z6.853 F200.000
G1 X-25.849 Y36.450 Z6.853 F200.000
G1 X25.714 Y36.450 Z6.853 F200.000
(--Break)
G0 Z10.000
G0 X-26.432 Y70.884
(part 7)
G1 X-26.432 Y70.884 Z6.853 F200.000
G1 X-26.232 Y70.884 Z6.853 F200.000
G1 X26.168 Y70.884 Z6.853 F200.000
G1 X26.184 Y70.948 Z6.853 F200.000
G1 X-26.416 Y70.948 Z6.853 F200.000
G1 X-26.432 Y70.884 Z6.853 F200.000
(--Break)
G0 Z10.000
G0 X26.743 Y103.385
(part 9)
G1 X26.743 Y103.385 Z6.853 F200.000
G1 X26.609 Y103.449 Z6.853 F200.000
G1 X-26.791 Y103.449 Z6.853 F200.000
G1 X-26.932 Y103.391 Z6.853 F200.000
G1 X-26.739 Y103.385 Z6.853 F200.000
G1 X26.743 Y103.385 Z6.853 F200.000
(--Break)
G0 Z10.000
G0 X27.215 Y134.062
(part 11)
G1 X27.215 Y134.062 Z6.853 F200.000
G1 X27.081 Y134.126 Z6.853 F200.000
G1 X-27.319 Y134.126 Z6.853 F200.000
G1 X-27.354 Y134.062 Z6.853 F200.000
G1 X27.215 Y134.062 Z6.853 F200.000
(--Break)
G0 Z10.000
G0 X27.661 Y163.018
(part 13)
G1 X27.661 Y163.018 Z6.853 F200.000
G1 X27.526 Y163.082 Z6.853 F200.000
G1 X-27.674 Y163.082 Z6.853 F200.000
G1 X-27.850 Y163.059 Z6.853 F200.000
G1 X-27.691 Y163.018 Z6.853 F200.000
G1 X27.661 Y163.018 Z6.853 F200.000
(--Break)
G0 Z10.000
G0 X28.081 Y190.348
(part 15)
G1 X28.081 Y190.348 Z6.853 F200.000
G1 X27.947 Y190.412 Z6.853 F200.000
G1 X-28.253 Y190.412 Z6.853 F200.000
G1 X-28.152 Y190.348 Z6.853 F200.000
G1 X28.081 Y190.348 Z6.853 F200.000
(--Break)
G0 Z10.000
G0 X28.478 Y216.144
(part 17)
G1 X28.478 Y216.144 Z6.853 F200.000
G1 X28.344 Y216.208 Z6.853 F200.000
G1 X-28.656 Y216.208 Z6.853 F200.000
G1 X-28.543 Y216.144 Z6.853 F200.000
G1 X28.478 Y216.144 Z6.853 F200.000
(--Break)
G0 Z10.000
G0 X28.853 Y240.493
(part 19)
G1 X28.853 Y240.493 Z6.853 F200.000
G1 X28.718 Y240.557 Z6.853 F200.000
G1 X-28.882 Y240.557 Z6.853 F200.000
G1 X-29.042 Y240.518 Z6.853 F200.000
G1 X-28.867 Y240.493 Z6.853 F200.000
G1 X28.853 Y240.493 Z6.853 F200.000
(--Break)
G0 Z10.000
G0 X29.206 Y263.475
(part 21)
G1 X29.206 Y263.475 Z6.853 F200.000
G1 X29.072 Y263.539 Z6.853 F200.000
G1 X-29.328 Y263.539 Z6.853 F200.000
G1 X-29.327 Y263.475 Z6.853 F200.000
G1 X29.206 Y263.475 Z6.853 F200.000
(--Break)
G0 Z10.000
G0 X29.540 Y285.167
(part 23)
G1 X29.540 Y285.167 Z6.853 F200.000
G1 X29.406 Y285.231 Z6.853 F200.000
G1 X-29.594 Y285.231 Z6.853 F200.000
G1 X-29.729 Y285.167 Z6.853 F200.000
G1 X29.540 Y285.167 Z6.853 F200.000
(--Break)
G0 Z10.000
G0 X29.855 Y305.642
(part 25)
G1 X29.855 Y305.642 Z6.853 F200.000
G1 X29.721 Y305.706 Z6.853 F200.000
G1 X-29.879 Y305.706 Z6.853 F200.000
G1 X-30.044 Y305.672 Z6.853 F200.000
G1 X-29.874 Y305.642 Z6.853 F200.000
G1 X29.855 Y305.642 Z6.853 F200.000
(--Break)
G0 Z10.000
G0 X30.152 Y324.968
(part 27)
G1 X30.152 Y324.968 Z6.853 F200.000
G1 X30.018 Y325.032 Z6.853 F200.000
G1 X-30.182 Y325.032 Z6.853 F200.000
G1 X-30.337 Y324.987 Z6.853 F200.000
G1 X-30.157 Y324.968 Z6.853 F200.000
G1 X30.152 Y324.968 Z6.853 F200.000
(--Break)
G0 Z10.000
G0 X30.433 Y343.209
(part 29)
G1 X30.433 Y343.209 Z6.853 F200.000
G1 X30.299 Y343.273 Z6.853 F200.000
G1 X-30.501 Y343.273 Z6.853 F200.000
G1 X-30.607 Y343.209 Z6.853 F200.000
G1 X30.433 Y343.209 Z6.853 F200.000
(--Break)
G0 Z10.000
G0 X30.698 Y360.426
(part 31)
G1 X30.698 Y360.426 Z6.853 F200.000
G1 X30.563 Y360.490 Z6.853 F200.000
G1 X-30.837 Y360.490 Z6.853 F200.000
G1 X-30.802 Y360.426 Z6.853 F200.000
G1 X30.698 Y360.426 Z6.853 F200.000
(--Break)
G0 Z10.000
G0 X30.948 Y376.677
(part 33)
G1 X30.948 Y376.677 Z6.853 F200.000
G1 X30.813 Y376.741 Z6.853 F200.000
G1 X-30.987 Y376.741 Z6.853 F200.000
G1 X-31.137 Y376.692 Z6.853 F200.000
G1 X-30.952 Y376.677 Z6.853 F200.000
G1 X30.948 Y376.677 Z6.853 F200.000
(--Break)
G0 Z10.000
G0 X-31.373 Y392.016
(part 35)
G1 X-31.373 Y392.016 Z6.853 F200.000
G1 X-31.173 Y392.016 Z6.853 F200.000
G1 X31.027 Y392.016 Z6.853 F200.000
G1 X31.185 Y392.059 Z6.853 F200.000
G1 X31.006 Y392.080 Z6.853 F200.000
G1 X-31.194 Y392.080 Z6.853 F200.000
G1 X-31.373 Y392.060 Z6.853 F200.000
G1 X-31.373 Y392.016 Z6.853 F200.000
(--Break)
G0 Z10.000
G0 X31.407 Y406.494
(part 37)
G1 X31.407 Y406.494 Z6.853 F200.000
G1 X31.272 Y406.558 Z6.853 F200.000
G1 X-31.528 Y406.558 Z6.853 F200.000
G1 X-31.528 Y406.494 Z6.853 F200.000
G1 X31.407 Y406.494 Z6.853 F200.000
(--Break)
G0 Z10.000
G0 X31.617 Y420.159
(part 39)
G1 X31.617 Y420.159 Z6.853 F200.000
G1 X31.482 Y420.223 Z6.853 F200.000
G1 X-31.718 Y420.223 Z6.853 F200.000
G1 X-31.759 Y420.159 Z6.853 F200.000
G1 X31.617 Y420.159 Z6.853 F200.000
(--Break)
G0 Z10.000
G0 X-32.004 Y433.057
(part 41)
G1 X-32.004 Y433.057 Z6.853 F200.000
G1 X-31.604 Y433.057 Z6.853 F200.000
G1 X31.796 Y433.057 Z6.853 F200.000
G1 X31.700 Y433.121 Z6.853 F200.000
G1 X-31.900 Y433.121 Z6.853 F200.000
G1 X-32.004 Y433.057 Z6.853 F200.000
(End of step 0.)
(End of layer 0)
(Layer 1 begins)
(Layer transition)
G0 Z10.000
G0 X32.003 Y445.231
(Begin step 0.)
G0 X32.003 Y445.231
(part 1)
G1 X32.003 Y445.231 Z6.706 F200.000
G1 X31.868 Y445.295 Z6.706 F200.000
G1 X24.268 Y445.295 Z6.706 F200.000
G1 X24.093 Y445.237 Z6.706 F200.000
G1 X24.279 Y445.231 Z6.706 F200.000
G1 X32.003 Y445.231 Z6.706 F200.000
(--Break)
G0 Z10.000
G0 X-8.084 Y445.231
(part 3)
G1 X-8.084 Y445.231 Z6.706 F200.000
G1 X-8.257 Y445.295 Z6.706 F200.000
G1 X-32.057 Y445.295 Z6.706 F200.000
G1 X-32.191 Y445.231 Z6.706 F200.000
G1 X-8.084 Y445.231 Z6.706 F200.000
(--Break)
G0 Z10.000
G0 X25.714 Y36.450
(part 5)
G1 X25.714 Y36.450 Z6.706 F200.000
G1 X25.579 Y36.514 Z6.706 F200.000
G1 X-25.821 Y36.514 Z6.706 F200.000
G1 X-25.849 Y36.450 Z6.706 F200.000
G1 X25.714 Y36.450 Z6.706 F200.000
(--Break)
G0 Z10.000
G0 X-26.432 Y70.884
(part 7)
G1 X-26.432 Y70.884 Z6.706 F200.000
G1 X-26.232 Y70.884 Z6.706 F200.000
G1 X26.168 Y70.884 Z6.706 F200.000
G1 X26.184 Y70.948 Z6.706 F200.000
G1 X-26.416 Y70.948 Z6.706 F200.000
G1 X-26.432 Y70.884 Z6.706 F200.000
(--Break)
G0 Z10.000
G0 X26.743 Y103.385
(part 9)
G1 X26.743 Y103.385 Z6.706 F200.000
G1 X26.609 Y103.449 Z6.706 F200.000
G1 X-26.791 Y103.449 Z6.706 F200.000
G1 X-26.932 Y103.391 Z6.706 F200.000
G1 X-26.739 Y103.385 Z6.706 F200.000
G1 X26.743 Y103.385 Z6.706 F200.000
(--Break)
G0 Z10.000
G0 X27.215 Y134.062
(part 11)
G1 X27.215 Y134.062 Z6.706 F200.000
G1 X27.081 Y134.126 Z6.706 F200.000
G1 X-27.319 Y134.126 Z6.706 F200.000
G1 X-27.354 Y134.062 Z6.706 F200.000
G1 X27.215 Y134.062 Z6.706 F200.000
(--Break)
G0 Z10.000
G0 X27.661 Y163.018
(part 13)
G1 X27.661 Y163.018 Z6.706 F200.000
G1 X27.526 Y163.082 Z6.706 F200.000
G1 X-27.674 Y163.082 Z6.706 F200.000
G1 X-27.850 Y163.059 Z6.706 F200.000
G1 X-27.691 Y163.018 Z6.706 F200.000
G1 X27.661 Y163.018 Z6.706 F200.000
(--Break)
G0 Z10.000
G0 X28.081 Y190.348
(part 15)
G1 X28.081 Y190.348 Z6.706 F200.000
G1 X27.947 Y190.412 Z6.706 F200.000
G1 X-28.253 Y190.412 Z6.706 F200.000
G1 X-28.152 Y190.348 Z6.706 F200.000
G1 X28.081 Y190.348 Z6.706 F200.000
(--Break)
G0 Z10.000
G0 X28.478 Y216.144
(part 17)
G1 X28.478 Y216.144 Z6.706 F200.000
G1 X28.344 Y216.208 Z6.706 F200.000
G1 X-28.656 Y216.208 Z6.706 F200.000
G1 X-28.543 Y216.144 Z6.706 F200.000
G1 X28.478 Y216.144 Z6.706 F200.000
(--Break)
G0 Z10.000
G0 X28.853 Y240.493
(part 19)
G1 X28.853 Y240.493 Z6.706 F200.000
G1 X28.718 Y240.557 Z6.706 F200.000
G1 X-28.882 Y240.557 Z6.706 F200.000
G1 X-29.042 Y240.518 Z6.706 F200.000
G1 X-28.867 Y240.493 Z6.706 F200.000
G1 X28.853 Y240.493 Z6.706 F200.000
(--Break)
G0 Z10.000
G0 X29.206 Y263.475
(part 21)
G1 X29.206 Y263.475 Z6.706 F200.000
G1 X29.072 Y263.539 Z6.706 F200.000
G1 X-29.328 Y263.539 Z6.706 F200.000
G1 X-29.327 Y263.475 Z6.706 F200.000
G1 X29.206 Y263.475 Z6.706 F200.000
(--Break)
G0 Z10.000
G0 X29.540 Y285.167
(part 23)
G1 X29.540 Y285.167 Z6.706 F200.000
G1 X29.406 Y285.231 Z6.706 F200.000
G1 X-29.594 Y285.231 Z6.706 F200.000
G1 X-29.729 Y285.167 Z6.706 F200.000
G1 X29.540 Y285.167 Z6.706 F200.000
(--Break)
G0 Z10.000
G0 X29.855 Y305.642
(part 25)
G1 X29.855 Y305.642 Z6.706 F200.000
G1 X29.721 Y305.706 Z6.706 F200.000
G1 X-29.879 Y305.706 Z6.706 F200.000
G1 X-30.044 Y305.672 Z6.706 F200.000
G1 X-29.874 Y305.642 Z6.706 F200.000
G1 X29.855 Y305.642 Z6.706 F200.000
(--Break)
G0 Z10.000
G0 X30.152 Y324.968
(part 27)
G1 X30.152 Y324.968 Z6.706 F200.000
G1 X30.018 Y325.032 Z6.706 F200.000
G1 X-30.182 Y325.032 Z6.706 F200.000
G1 X-30.337 Y324.987 Z6.706 F200.000
G1 X-30.157 Y324.968 Z6.706 F200.000
G1 X30.152 Y324.968 Z6.706 F200.000
(--Break)
G0 Z10.000
G0 X30.433 Y343.209
(part 29)
G1 X30.433 Y343.209 Z6.706 F200.000
G1 X30.299 Y343.273 Z6.706 F200.000
G1 X-30.501 Y343.273 Z6.706 F200.000
G1 X-30.607 Y343.209 Z6.706 F200.000
G1 X30.433 Y343.209 Z6.706 F200.000
(--Break)
G0 Z10.000
G0 X30.698 Y360.426
(part 31)
G1 X30.698 Y360.426 Z6.706 F200.000
G1 X30.563 Y360.490 Z6.706 F200.000
G1 X-30.837 Y360.490 Z6.706 F200.000
G1 X-30.802 Y360.426 Z6.706 F200.000
G1 X30.698 Y360.426 Z6.706 F200.000
(--Break)
G0 Z10.000
G0 X30.948 Y376.677
(part 33)
G1 X30.948 Y376.677 Z6.706 F200.000
G1 X30.813 Y376.741 Z6.706 F200.000
G1 X-30.987 Y376.741 Z6.706 F200.000
G1 X-31.137 Y376.692 Z6.706 F200.000
G1 X-30.952 Y376.677 Z6.706 F200.000
G1 X30.948 Y376.677 Z6.706 F200.000
(--Break)
G0 Z10.000
G0 X-31.373 Y392.016
(part 35)
G1 X-31.373 Y392.016 Z6.706 F200.000
G1 X-31.173 Y392.016 Z6.706 F200.000
G1 X31.027 Y392.016 Z6.706 F200.000
G1 X31.185 Y392.059 Z6.706 F200.000
G1 X31.006 Y392.080 Z6.706 F200.000
G1 X-31.194 Y392.080 Z6.706 F200.000
G1 X-31.373 Y392.060 Z6.706 F200.000
G1 X-31.373 Y392.016 Z6.706 F200.000
(--Break)
G0 Z10.000
G0 X31.407 Y406.494
(part 37)
G1 X31.407 Y406.494 Z6.706 F200.000
G1 X31.272 Y406.558 Z6.706 F200.000
G1 X-31.528 Y406.558 Z6.706 F200.000
G1 X-31.528 Y406.494 Z6.706 F200.000
G1 X31.407 Y406.494 Z6.706 F200.000
(--Break)
G0 Z10.000
G0 X31.617 Y420.159
(part 39)
G1 X31.617 Y420.159 Z6.706 F200.000
G1 X31.482 Y420.223 Z6.706 F200.000
G1 X-31.718 Y420.223 Z6.706 F200.000
G1 X-31.759 Y420.159 Z6.706 F200.000
G1 X31.617 Y420.159 Z6.706 F200.000
(--Break)
G0 Z10.000
G0 X-32.004 Y433.057
(part 41)
G1 X-32.004 Y433.057 Z6.706 F200.000
G1 X-31.604 Y433.057 Z6.706 F200.000
G1 X31.796 Y433.057 Z6.706 F200.000
G1 X31.700 Y433.121 Z6.706 F200.000
G1 X-31.900 Y433.121 Z6.706 F200.000
G1 X-32.004 Y433.057 Z6.706 F200.000
(End of step 0.)
(End of layer 1)
(Layer 2 begins)
(Layer transition)
G0 Z10.000
G0 X32.003 Y445.231
(Begin step 0.)
G0 X32.003 Y445.231
(part 1)
G1 X32.003 Y445.231 Z6.559 F200.000
G1 X31.868 Y445.295 Z6.559 F200.000
G1 X24.268 Y445.295 Z6.559 F200.000
G1 X24.093 Y445.237 Z6.559 F200.000
G1 X24.279 Y445.231 Z6.559 F200.000
G1 X32.003 Y445.231 Z6.559 F200.000
(--Break)
G0 Z10.000
G0 X-8.084 Y445.231
(part 3)
G1 X-8.084 Y445.231 Z6.559 F200.000
G1 X-8.257 Y445.295 Z6.559 F200.000
G1 X-32.057 Y445.295 Z6.559 F200.000
G1 X-32.191 Y445.231 Z6.559 F200.000
G1 X-8.084 Y445.231 Z6.559 F200.000
(--Break)
G0 Z10.000
G0 X25.714 Y36.450
(part 5)
G1 X25.714 Y36.450 Z6.559 F200.000
G1 X25.579 Y36.514 Z6.559 F200.000
G1 X-25.821 Y36.514 Z6.559 F200.000
G1 X-25.849 Y36.450 Z6.559 F200.000
G1 X25.714 Y36.450 Z6.559 F200.000
(--Break)
G0 Z10.000
G0 X-26.432 Y70.884
(part 7)
G1 X-26.432 Y70.884 Z6.559 F200.000
G1 X-26.232 Y70.884 Z6.559 F200.000
G1 X26.168 Y70.884 Z6.559 F200.000
G1 X26.184 Y70.948 Z6.559 F200.000
G1 X-26.416 Y70.948 Z6.559 F200.000
G1 X-26.432 Y70.884 Z6.559 F200.000
(--Break)
G0 Z10.000
G0 X26.743 Y103.385
(part 9)
G1 X26.743 Y103.385 Z6.559 F200.000
G1 X26.609 Y103.449 Z6.559 F200.000
G1 X-26.791 Y103.449 Z6.559 F200.000
G1 X-26.932 Y103.391 Z6.559 F200.000
G1 X-26.739 Y103.385 Z6.559 F200.000
G1 X26.743 Y103.385 Z6.559 F200.000
(--Break)
G0 Z10.000
G0 X27.215 Y134.062
(part 11)
G1 X27.215 Y134.062 Z6.559 F200.000
G1 X27.081 Y134.126 Z6.559 F200.000
G1 X-27.319 Y134.126 Z6.559 F200.000
G1 X-27.354 Y134.062 Z6.559 F200.000
G1 X27.215 Y134.062 Z6.559 F200.000
(--Break)
G0 Z10.000
G0 X27.661 Y163.018
(part 13)
G1 X27.661 Y163.018 Z6.559 F200.000
G1 X27.526 Y163.082 Z6.559 F200.000
G1 X-27.674 Y163.082 Z6.559 F200.000
G1 X-27.850 Y163.059 Z6.559 F200.000
G1 X-27.691 Y163.018 Z6.559 F200.000
G1 X27.661 Y163.018 Z6.559 F200.000
(--Break)
G0 Z10.000
G0 X28.081 Y190.348
(part 15)
G1 X28.081 Y190.348 Z6.559 F200.000
G1 X27.947 Y190.412 Z6.559 F200.000
G1 X-28.253 Y190.412 Z6.559 F200.000
G1 X-28.152 Y190.348 Z6.559 F200.000
G1 X28.081 Y190.348 Z6.559 F200.000
(--Break)
G0 Z10.000
G0 X28.478 Y216.144
(part 17)
G1 X28.478 Y216.144 Z6.559 F200.000
G1 X28.344 Y216.208 Z6.559 F200.000
G1 X-28.656 Y216.208 Z6.559 F200.000
G1 X-28.543 Y216.144 Z6.559 F200.000
G1 X28.478 Y216.144 Z6.559 F200.000
(--Break)
G0 Z10.000
G0 X28.853 Y240.493
(part 19)
G1 X28.853 Y240.493 Z6.559 F200.000
G1 X28.718 Y240.557 Z6.559 F200.000
G1 X-28.882 Y240.557 Z6.559 F200.000
G1 X-29.042 Y240.518 Z6.559 F200.000
G1 X-28.867 Y240.493 Z6.559 F200.000
G1 X28.853 Y240.493 Z6.559 F200.000
(--Break)
G0 Z10.000
G0 X29.206 Y263.475
(part 21)
G1 X29.206 Y263.475 Z6.559 F200.000
G1 X29.072 Y263.539 Z6.559 F200.000
G1 X-29.328 Y263.539 Z6.559 F200.000
G1 X-29.327 Y263.475 Z6.559 F200.000
G1 X29.206 Y263.475 Z6.559 F200.000
(--Break)
G0 Z10.000
G0 X29.540 Y285.167
(part 23)
G1 X29.540 Y285.167 Z6.559 F200.000
G1 X29.406 Y285.231 Z6.559 F200.000
G1 X-29.594 Y285.231 Z6.559 F200.000
G1 X-29.729 Y285.167 Z6.559 F200.000
G1 X29.540 Y285.167 Z6.559 F200.000
(--Break)
G0 Z10.000
G0 X29.855 Y305.642
(part 25)
G1 X29.855 Y305.642 Z6.559 F200.000
G1 X29.721 Y305.706 Z6.559 F200.000
G1 X-29.879 Y305.706 Z6.559 F200.000
G1 X-30.044 Y305.672 Z6.559 F200.000
G1 X-29.874 Y305.642 Z6.559 F200.000
G1 X29.855 Y305.642 Z6.559 F200.000
(--Break)
G0 Z10.000
G0 X30.152 Y324.968
(part 27)
G1 X30.152 Y324.968 Z6.559 F200.000
G1 X30.018 Y325.032 Z6.559 F200.000
G1 X-30.182 Y325.032 Z6.559 F200.000
G1 X-30.337 Y324.987 Z6.559 F200.000
G1 X-30.157 Y324.968 Z6.559 F200.000
G1 X30.152 Y324.968 Z6.559 F200.000
(--Break)
G0 Z10.000
G0 X30.433 Y343.209
(part 29)
G1 X30.433 Y343.209 Z6.559 F200.000
G1 X30.299 Y343.273 Z6.559 F200.000
G1 X-30.501 Y343.273 Z6.559 F200.000
G1 X-30.607 Y343.209 Z6.559 F200.000
G1 X30.433 Y343.209 Z6.559 F200.000
(--Break)
G0 Z10.000
G0 X30.698 Y360.426
(part 31)
G1 X30.698 Y360.426 Z6.559 F200.000
G1 X30.563 Y360.490 Z6.559 F200.000
G1 X-30.837 Y360.490 Z6.559 F200.000
G1 X-30.802 Y360.426 Z6.559 F200.000
G1 X30.698 Y360.426 Z6.559 F200.000
(--Break)
G0 Z10.000
G0 X30.948 Y376.677
(part 33)
G1 X30.948 Y376.677 Z6.559 F200.000
G1 X30.813 Y376.741 Z6.559 F200.000
G1 X-30.987 Y376.741 Z6.559 F200.000
G1 X-31.137 Y376.692 Z6.559 F200.000
G1 X-30.952 Y376.677 Z6.559 F200.000
G1 X30.948 Y376.677 Z6.559 F200.000
(--Break)
G0 Z10.000
G0 X-31.373 Y392.016
(part 35)
G1 X-31.373 Y392.016 Z6.559 F200.000
G1 X-31.173 Y392.016 Z6.559 F200.000
G1 X31.027 Y392.016 Z6.559 F200.000
G1 X31.185 Y392.059 Z6.559 F200.000
G1 X31.006 Y392.080 Z6.559 F200.000
G1 X-31.194 Y392.080 Z6.559 F200.000
G1 X-31.373 Y392.060 Z6.559 F200.000
G1 X-31.373 Y392.016 Z6.559 F200.000
(--Break)
G0 Z10.000
G0 X31.407 Y406.494
(part 37)
G1 X31.407 Y406.494 Z6.559 F200.000
G1 X31.272 Y406.558 Z6.559 F200.000
G1 X-31.528 Y406.558 Z6.559 F200.000
G1 X-31.528 Y406.494 Z6.559 F200.000
G1 X31.407 Y406.494 Z6.559 F200.000
(--Break)
G0 Z10.000
G0 X31.617 Y420.159
(part 39)
G1 X31.617 Y420.159 Z6.559 F200.000
G1 X31.482 Y420.223 Z6.559 F200.000
G1 X-31.718 Y420.223 Z6.559 F200.000
G1 X-31.759 Y420.159 Z6.559 F200.000
G1 X31.617 Y420.159 Z6.559 F200.000
(--Break)
G0 Z10.000
G0 X-32.004 Y433.057
(part 41)
G1 X-32.004 Y433.057 Z6.559 F200.000
G1 X-31.604 Y433.057 Z6.559 F200.000
G1 X31.796 Y433.057 Z6.559 F200.000
G1 X31.700 Y433.121 Z6.559 F200.000
G1 X-31.900 Y433.121 Z6.559 F200.000
G1 X-32.004 Y433.057 Z6.559 F200.000
(End of step 0.)
(End of layer 2)
(Layer 3 begins)
(Layer transition)
G0 Z10.000
G0 X32.003 Y445.231
(Begin step 0.)
G0 X32.003 Y445.231
(part 1)
G1 X32.003 Y445.231 Z6.412 F200.000
G1 X31.868 Y445.295 Z6.412 F200.000
G1 X24.268 Y445.295 Z6.412 F200.000
G1 X24.093 Y445.237 Z6.412 F200.000
G1 X24.279 Y445.231 Z6.412 F200.000
G1 X32.003 Y445.231 Z6.412 F200.000
(--Break)
G0 Z10.000
G0 X-8.084 Y445.231
(part 3)
G1 X-8.084 Y445.231 Z6.412 F200.000
G1 X-8.257 Y445.295 Z6.412 F200.000
G1 X-32.057 Y445.295 Z6.412 F200.000
G1 X-32.191 Y445.231 Z6.412 F200.000
G1 X-8.084 Y445.231 Z6.412 F200.000
(--Break)
G0 Z10.000
G0 X25.714 Y36.450
(part 5)
G1 X25.714 Y36.450 Z6.412 F200.000
G1 X25.579 Y36.514 Z6.412 F200.000
G1 X-25.821 Y36.514 Z6.412 F200.000
G1 X-25.849 Y36.450 Z6.412 F200.000
G1 X25.714 Y36.450 Z6.412 F200.000
(--Break)
G0 Z10.000
G0 X-26.432 Y70.884
(part 7)
G1 X-26.432 Y70.884 Z6.412 F200.000
G1 X-26.232 Y70.884 Z6.412 F200.000
G1 X26.168 Y70.884 Z6.412 F200.000
G1 X26.184 Y70.948 Z6.412 F200.000
G1 X-26.416 Y70.948 Z6.412 F200.000
G1 X-26.432 Y70.884 Z6.412 F200.000
(--Break)
G0 Z10.000
G0 X26.743 Y103.385
(part 9)
G1 X26.743 Y103.385 Z6.412 F200.000
G1 X26.609 Y103.449 Z6.412 F200.000
G1 X-26.791 Y103.449 Z6.412 F200.000
G1 X-26.932 Y103.391 Z6.412 F200.000
G1 X-26.739 Y103.385 Z6.412 F200.000
G1 X26.743 Y103.385 Z6.412 F200.000
(--Break)
G0 Z10.000
G0 X27.215 Y134.062
(part 11)
G1 X27.215 Y134.062 Z6.412 F200.000
G1 X27.081 Y134.126 Z6.412 F200.000
G1 X-27.319 Y134.126 Z6.412 F200.000
G1 X-27.354 Y134.062 Z6.412 F200.000
G1 X27.215 Y134.062 Z6.412 F200.000
(--Break)
G0 Z10.000
G0 X27.661 Y163.018
(part 13)
G1 X27.661 Y163.018 Z6.412 F200.000
G1 X27.526 Y163.082 Z6.412 F200.000
G1 X-27.674 Y163.082 Z6.412 F200.000
G1 X-27.850 Y163.059 Z6.412 F200.000
G1 X-27.691 Y163.018 Z6.412 F200.000
G1 X27.661 Y163.018 Z6.412 F200.000
(--Break)
G0 Z10.000
G0 X28.081 Y190.348
(part 15)
G1 X28.081 Y190.348 Z6.412 F200.000
G1 X27.947 Y190.412 Z6.412 F200.000
G1 X-28.253 Y190.412 Z6.412 F200.000
G1 X-28.152 Y190.348 Z6.412 F200.000
G1 X28.081 Y190.348 Z6.412 F200.000
(--Break)
G0 Z10.000
G0 X28.478 Y216.144
(part 17)
G1 X28.478 Y216.144 Z6.412 F200.000
G1 X28.344 Y216.208 Z6.412 F200.000
G1 X-28.656 Y216.208 Z6.412 F200.000
G1 X-28.543 Y216.144 Z6.412 F200.000
G1 X28.478 Y216.144 Z6.412 F200.000
(--Break)
G0 Z10.000
G0 X28.853 Y240.493
(part 19)
G1 X28.853 Y240.493 Z6.412 F200.000
G1 X28.718 Y240.557 Z6.412 F200.000
G1 X-28.882 Y240.557 Z6.412 F200.000
G1 X-29.042 Y240.518 Z6.412 F200.000
G1 X-28.867 Y240.493 Z6.412 F200.000
G1 X28.853 Y240.493 Z6.412 F200.000
(--Break)
G0 Z10.000
G0 X29.206 Y263.475
(part 21)
G1 X29.206 Y263.475 Z6.412 F200.000
G1 X29.072 Y263.539 Z6.412 F200.000
G1 X-29.328 Y263.539 Z6.412 F200.000
G1 X-29.327 Y263.475 Z6.412 F200.000
G1 X29.206 Y263.475 Z6.412 F200.000
(--Break)
G0 Z10.000
G0 X29.540 Y285.167
(part 23)
G1 X29.540 Y285.167 Z6.412 F200.000
G1 X29.406 Y285.231 Z6.412 F200.000
G1 X-29.594 Y285.231 Z6.412 F200.000
G1 X-29.729 Y285.167 Z6.412 F200.000
G1 X29.540 Y285.167 Z6.412 F200.000
(--Break)
G0 Z10.000
G0 X29.855 Y305.642
(part 25)
G1 X29.855 Y305.642 Z6.412 F200.000
G1 X29.721 Y305.706 Z6.412 F200.000
G1 X-29.879 Y305.706 Z6.412 F200.000
G1 X-30.044 Y305.672 Z6.412 F200.000
G1 X-29.874 Y305.642 Z6.412 F200.000
G1 X29.855 Y305.642 Z6.412 F200.000
(--Break)
G0 Z10.000
G0 X30.152 Y324.968
(part 27)
G1 X30.152 Y324.968 Z6.412 F200.000
G1 X30.018 Y325.032 Z6.412 F200.000
G1 X-30.182 Y325.032 Z6.412 F200.000
G1 X-30.337 Y324.987 Z6.412 F200.000
G1 X-30.157 Y324.968 Z6.412 F200.000
G1 X30.152 Y324.968 Z6.412 F200.000
(--Break)
G0 Z10.000
G0 X30.433 Y343.209
(part 29)
G1 X30.433 Y343.209 Z6.412 F200.000
G1 X30.299 Y343.273 Z6.412 F200.000
G1 X-30.501 Y343.273 Z6.412 F200.000
G1 X-30.607 Y343.209 Z6.412 F200.000
G1 X30.433 Y343.209 Z6.412 F200.000
(--Break)
G0 Z10.000
G0 X30.698 Y360.426
(part 31)
G1 X30.698 Y360.426 Z6.412 F200.000
G1 X30.563 Y360.490 Z6.412 F200.000
G1 X-30.837 Y360.490 Z6.412 F200.000
G1 X-30.802 Y360.426 Z6.412 F200.000
G1 X30.698 Y360.426 Z6.412 F200.000
(--Break)
G0 Z10.000
G0 X30.948 Y376.677
(part 33)
G1 X30.948 Y376.677 Z6.412 F200.000
G1 X30.813 Y376.741 Z6.412 F200.000
G1 X-30.987 Y376.741 Z6.412 F200.000
G1 X-31.137 Y376.692 Z6.412 F200.000
G1 X-30.952 Y376.677 Z6.412 F200.000
G1 X30.948 Y376.677 Z6.412 F200.000
(--Break)
G0 Z10.000
G0 X-31.373 Y392.016
(part 35)
G1 X-31.373 Y392.016 Z6.412 F200.000
G1 X-31.173 Y392.016 Z6.412 F200.000
G1 X31.027 Y392.016 Z6.412 F200.000
G1 X31.185 Y392.059 Z6.412 F200.000
G1 X31.006 Y392.080 Z6.412 F200.000
G1 X-31.194 Y392.080 Z6.412 F200.000
G1 X-31.373 Y392.060 Z6.412 F200.000
G1 X-31.373 Y392.016 Z6.412 F200.000
(--Break)
G0 Z10.000
G0 X31.407 Y406.494
(part 37)
G1 X31.407 Y406.494 Z6.412 F200.000
G1 X31.272 Y406.558 Z6.412 F200.000
G1 X-31.528 Y406.558 Z6.412 F200.000
G1 X-31.528 Y406.494 Z6.412 F200.000
G1 X31.407 Y406.494 Z6.412 F200.000
(--Break)
G0 Z10.000
G0 X31.617 Y420.159
(part 39)
G1 X31.617 Y420.159 Z6.412 F200.000
G1 X31.482 Y420.223 Z6.412 F200.000
G1 X-31.718 Y420.223 Z6.412 F200.000
G1 X-31.759 Y420.159 Z6.412 F200.000
G1 X31.617 Y420.159 Z6.412 F200.000
(--Break)
G0 Z10.000
G0 X-32.004 Y433.057
(part 41)
G1 X-32.004 Y433.057 Z6.412 F200.000
G1 X-31.604 Y433.057 Z6.412 F200.000
G1 X31.796 Y433.057 Z6.412 F200.000
G1 X31.700 Y433.121 Z6.412 F200.000
G1 X-31.900 Y433.121 Z6.412 F200.000
G1 X-32.004 Y433.057 Z6.412 F200.000
(End of step 0.)
(End of layer 3)
(Layer 4 begins)
(Layer transition)
G0 Z10.000
G0 X32.003 Y445.231
(Begin step 0.)
G0 X32.003 Y445.231
(part 1)
G1 X32.003 Y445.231 Z6.265 F200.000
G1 X31.868 Y445.295 Z6.265 F200.000
G1 X24.268 Y445.295 Z6.265 F200.000
G1 X24.093 Y445.237 Z6.265 F200.000
G1 X24.279 Y445.231 Z6.265 F200.000
G1 X32.003 Y445.231 Z6.265 F200.000
(--Break)
G0 Z10.000
G0 X-8.084 Y445.231
(part 3)
G1 X-8.084 Y445.231 Z6.265 F200.000
G1 X-8.257 Y445.295 Z6.265 F200.000
G1 X-32.057 Y445.295 Z6.265 F200.000
G1 X-32.191 Y445.231 Z6.265 F200.000
G1 X-8.084 Y445.231 Z6.265 F200.000
(--Break)
G0 Z10.000
G0 X25.714 Y36.450
(part 5)
G1 X25.714 Y36.450 Z6.265 F200.000
G1 X25.579 Y36.514 Z6.265 F200.000
G1 X-25.821 Y36.514 Z6.265 F200.000
G1 X-25.849 Y36.450 Z6.265 F200.000
G1 X25.714 Y36.450 Z6.265 F200.000
(--Break)
G0 Z10.000
G0 X-26.432 Y70.884
(part 7)
G1 X-26.432 Y70.884 Z6.265 F200.000
G1 X-26.232 Y70.884 Z6.265 F200.000
G1 X26.168 Y70.884 Z6.265 F200.000
G1 X26.184 Y70.948 Z6.265 F200.000
G1 X-26.416 Y70.948 Z6.265 F200.000
G1 X-26.432 Y70.884 Z6.265 F200.000
(--Break)
G0 Z10.000
G0 X26.743 Y103.385
(part 9)
G1 X26.743 Y103.385 Z6.265 F200.000
G1 X26.609 Y103.449 Z6.265 F200.000
G1 X-26.791 Y103.449 Z6.265 F200.000
G1 X-26.932 Y103.391 Z6.265 F200.000
G1 X-26.739 Y103.385 Z6.265 F200.000
G1 X26.743 Y103.385 Z6.265 F200.000
(--Break)
G0 Z10.000
G0 X27.215 Y134.062
(part 11)
G1 X27.215 Y134.062 Z6.265 F200.000
G1 X27.081 Y134.126 Z6.265 F200.000
G1 X-27.319 Y134.126 Z6.265 F200.000
G1 X-27.354 Y134.062 Z6.265 F200.000
G1 X27.215 Y134.062 Z6.265 F200.000
(--Break)
G0 Z10.000
G0 X27.661 Y163.018
(part 13)
G1 X27.661 Y163.018 Z6.265 F200.000
G1 X27.526 Y163.082 Z6.265 F200.000
G1 X-27.674 Y163.082 Z6.265 F200.000
G1 X-27.850 Y163.059 Z6.265 F200.000
G1 X-27.691 Y163.018 Z6.265 F200.000
G1 X27.661 Y163.018 Z6.265 F200.000
(--Break)
G0 Z10.000
G0 X28.081 Y190.348
(part 15)
G1 X28.081 Y190.348 Z6.265 F200.000
G1 X27.947 Y190.412 Z6.265 F200.000
G1 X-28.253 Y190.412 Z6.265 F200.000
G1 X-28.152 Y190.348 Z6.265 F200.000
G1 X28.081 Y190.348 Z6.265 F200.000
(--Break)
G0 Z10.000
G0 X28.478 Y216.144
(part 17)
G1 X28.478 Y216.144 Z6.265 F200.000
G1 X28.344 Y216.208 Z6.265 F200.000
G1 X-28.656 Y216.208 Z6.265 F200.000
G1 X-28.543 Y216.144 Z6.265 F200.000
G1 X28.478 Y216.144 Z6.265 F200.000
(--Break)
G0 Z10.000
G0 X28.853 Y240.493
(part 19)
G1 X28.853 Y240.493 Z6.265 F200.000
G1 X28.718 Y240.557 Z6.265 F200.000
G1 X-28.882 Y240.557 Z6.265 F200.000
G1 X-29.042 Y240.518 Z6.265 F200.000
G1 X-28.867 Y240.493 Z6.265 F200.000
G1 X28.853 Y240.493 Z6.265 F200.000
(--Break)
G0 Z10.000
G0 X29.206 Y263.475
(part 21)
G1 X29.206 Y263.475 Z6.265 F200.000
G1 X29.072 Y263.539 Z6.265 F200.000
G1 X-29.328 Y263.539 Z6.265 F200.000
G1 X-29.327 Y263.475 Z6.265 F200.000
G1 X29.206 Y263.475 Z6.265 F200.000
(--Break)
G0 Z10.000
G0 X29.540 Y285.167
(part 23)
G1 X29.540 Y285.167 Z6.265 F200.000
G1 X29.406 Y285.231 Z6.265 F200.000
G1 X-29.594 Y285.231 Z6.265 F200.000
G1 X-29.729 Y285.167 Z6.265 F200.000
G1 X29.540 Y285.167 Z6.265 F200.000
(--Break)
G0 Z10.000
G0 X29.855 Y305.642
(part 25)
G1 X29.855 Y305.642 Z6.265 F200.000
G1 X29.721 Y305.706 Z6.265 F200.000
G1 X-29.879 Y305.706 Z6.265 F200.000
G1 X-30.044 Y305.672 Z6.265 F200.000
G1 X-29.874 Y305.642 Z6.265 F200.000
G1 X29.855 Y305.642 Z6.265 F200.000
(--Break)
G0 Z10.000
G0 X30.152 Y324.968
(part 27)
G1 X30.152 Y324.968 Z6.265 F200.000
G1 X30.018 Y325.032 Z6.265 F200.000
G1 X-30.182 Y325.032 Z6.265 F200.000
G1 X-30.337 Y324.987 Z6.265 F200.000
G1 X-30.157 Y324.968 Z6.265 F200.000
G1 X30.152 Y324.968 Z6.265 F200.000
(--Break)
G0 Z10.000
G0 X30.433 Y343.209
(part 29)
G1 X30.433 Y343.209 Z6.265 F200.000
G1 X30.299 Y343.273 Z6.265 F200.000
G1 X-30.501 Y343.273 Z6.265 F200.000
G1 X-30.607 Y343.209 Z6.265 F200.000
G1 X30.433 Y343.209 Z6.265 F200.000
(--Break)
G0 Z10.000
G0 X30.698 Y360.426
(part 31)
G1 X30.698 Y360.426 Z6.265 F200.000
G1 X30.563 Y360.490 Z6.265 F200.000
G1 X-30.837 Y360.490 Z6.265 F200.000
G1 X-30.802 Y360.426 Z6.265 F200.000
G1 X30.698 Y360.426 Z6.265 F200.000
(--Break)
G0 Z10.000
G0 X30.948 Y376.677
(part 33)
G1 X30.948 Y376.677 Z6.265 F200.000
G1 X30.813 Y376.741 Z6.265 F200.000
G1 X-30.987 Y376.741 Z6.265 F200.000
G1 X-31.137 Y376.692 Z6.265 F200.000
G1 X-30.952 Y376.677 Z6.265 F200.000
G1 X30.948 Y376.677 Z6.265 F200.000
(--Break)
G0 Z10.000
G0 X-31.373 Y392.016
(part 35)
G1 X-31.373 Y392.016 Z6.265 F200.000
G1 X-31.173 Y392.016 Z6.265 F200.000
G1 X31.027 Y392.016 Z6.265 F200.000
G1 X31.185 Y392.059 Z6.265 F200.000
G1 X31.006 Y392.080 Z6.265 F200.000
G1 X-31.194 Y392.080 Z6.265 F200.000
G1 X-31.373 Y392.060 Z6.265 F200.000
G1 X-31.373 Y392.016 Z6.265 F200.000
(--Break)
G0 Z10.000
G0 X31.407 Y406.494
(part 37)
G1 X31.407 Y406.494 Z6.265 F200.000
G1 X31.272 Y406.558 Z6.265 F200.000
G1 X-31.528 Y406.558 Z6.265 F200.000
G1 X-31.528 Y406.494 Z6.265 F200.000
G1 X31.407 Y406.494 Z6.265 F200.000
(--Break)
G0 Z10.000
G0 X31.617 Y420.159
(part 39)
G1 X31.617 Y420.159 Z6.265 F200.000
G1 X31.482 Y420.223 Z6.265 F200.000
G1 X-31.718 Y420.223 Z6.265 F200.000
G1 X-31.759 Y420.159 Z6.265 F200.000
G1 X31.617 Y420.159 Z6.265 F200.000
(--Break)
G0 Z10.000
G0 X-32.004 Y433.057
(part 41)
G1 X-32.004 Y433.057 Z6.265 F200.000
G1 X-31.604 Y433.057 Z6.265 F200.000
G1 X31.796 Y433.057 Z6.265 F200.000
G1 X31.700 Y433.121 Z6.265 F200.000
G1 X-31.900 Y433.121 Z6.265 F200.000
G1 X-32.004 Y433.057 Z6.265 F200.000
(End of step 0.)
(End of layer 4)
(Layer 5 begins)
(Layer transition)
G0 Z10.000
G0 X32.003 Y445.231
(Begin step 0.)
G0 X32.003 Y445.231
(part 1)
G1 X32.003 Y445.231 Z6.118 F200.000
G1 X31.868 Y445.295 Z6.118 F200.000
G1 X24.268 Y445.295 Z6.118 F200.000
G1 X24.093 Y445.237 Z6.118 F200.000
G1 X24.279 Y445.231 Z6.118 F200.000
G1 X32.003 Y445.231 Z6.118 F200.000
(--Break)
G0 Z10.000
G0 X-8.084 Y445.231
(part 3)
G1 X-8.084 Y445.231 Z6.118 F200.000
G1 X-8.257 Y445.295 Z6.118 F200.000
G1 X-32.057 Y445.295 Z6.118 F200.000
G1 X-32.191 Y445.231 Z6.118 F200.000
G1 X-8.084 Y445.231 Z6.118 F200.000
(--Break)
G0 Z10.000
G0 X25.714 Y36.450
(part 5)
G1 X25.714 Y36.450 Z6.118 F200.000
G1 X25.579 Y36.514 Z6.118 F200.000
G1 X-25.821 Y36.514 Z6.118 F200.000
G1 X-25.849 Y36.450 Z6.118 F200.000
G1 X25.714 Y36.450 Z6.118 F200.000
(--Break)
G0 Z10.000
G0 X-26.432 Y70.884
(part 7)
G1 X-26.432 Y70.884 Z6.118 F200.000
G1 X-26.232 Y70.884 Z6.118 F200.000
G1 X26.168 Y70.884 Z6.118 F200.000
G1 X26.184 Y70.948 Z6.118 F200.000
G1 X-26.416 Y70.948 Z6.118 F200.000
G1 X-26.432 Y70.884 Z6.118 F200.000
(--Break)
G0 Z10.000
G0 X26.743 Y103.385
(part 9)
G1 X26.743 Y103.385 Z6.118 F200.000
G1 X26.609 Y103.449 Z6.118 F200.000
G1 X-26.791 Y103.449 Z6.118 F200.000
G1 X-26.932 Y103.391 Z6.118 F200.000
G1 X-26.739 Y103.385 Z6.118 F200.000
G1 X26.743 Y103.385 Z6.118 F200.000
(--Break)
G0 Z10.000
G0 X27.215 Y134.062
(part 11)
G1 X27.215 Y134.062 Z6.118 F200.000
G1 X27.081 Y134.126 Z6.118 F200.000
G1 X-27.319 Y134.126 Z6.118 F200.000
G1 X-27.354 Y134.062 Z6.118 F200.000
G1 X27.215 Y134.062 Z6.118 F200.000
(--Break)
G0 Z10.000
G0 X27.661 Y163.018
(part 13)
G1 X27.661 Y163.018 Z6.118 F200.000
G1 X27.526 Y163.082 Z6.118 F200.000
G1 X-27.674 Y163.082 Z6.118 F200.000
G1 X-27.850 Y163.059 Z6.118 F200.000
G1 X-27.691 Y163.018 Z6.118 F200.000
G1 X27.661 Y163.018 Z6.118 F200.000
(--Break)
G0 Z10.000
G0 X28.081 Y190.348
(part 15)
G1 X28.081 Y190.348 Z6.118 F200.000
G1 X27.947 Y190.412 Z6.118 F200.000
G1 X-28.253 Y190.412 Z6.118 F200.000
G1 X-28.152 Y190.348 Z6.118 F200.000
G1 X28.081 Y190.348 Z6.118 F200.000
(--Break)
G0 Z10.000
G0 X28.478 Y216.144
(part 17)
G1 X28.478 Y216.144 Z6.118 F200.000
G1 X28.344 Y216.208 Z6.118 F200.000
G1 X-28.656 Y216.208 Z6.118 F200.000
G1 X-28.543 Y216.144 Z6.118 F200.000
G1 X28.478 Y216.144 Z6.118 F200.000
(--Break)
G0 Z10.000
G0 X28.853 Y240.493
(part 19)
G1 X28.853 Y240.493 Z6.118 F200.000
G1 X28.718 Y240.557 Z6.118 F200.000
G1 X-28.882 Y240.557 Z6.118 F200.000
G1 X-29.042 Y240.518 Z6.118 F200.000
G1 X-28.867 Y240.493 Z6.118 F200.000
G1 X28.853 Y240.493 Z6.118 F200.000
(--Break)
G0 Z10.000
G0 X29.206 Y263.475
(part 21)
G1 X29.206 Y263.475 Z6.118 F200.000
G1 X29.072 Y263.539 Z6.118 F200.000
G1 X-29.328 Y263.539 Z6.118 F200.000
G1 X-29.327 Y263.475 Z6.118 F200.000
G1 X29.206 Y263.475 Z6.118 F200.000
(--Break)
G0 Z10.000
G0 X29.540 Y285.167
(part 23)
G1 X29.540 Y285.167 Z6.118 F200.000
G1 X29.406 Y285.231 Z6.118 F200.000
G1 X-29.594 Y285.231 Z6.118 F200.000
G1 X-29.729 Y285.167 Z6.118 F200.000
G1 X29.540 Y285.167 Z6.118 F200.000
(--Break)
G0 Z10.000
G0 X29.855 Y305.642
(part 25)
G1 X29.855 Y305.642 Z6.118 F200.000
G1 X29.721 Y305.706 Z6.118 F200.000
G1 X-29.879 Y305.706 Z6.118 F200.000
G1 X-30.044 Y305.672 Z6.118 F200.000
G1 X-29.874 Y305.642 Z6.118 F200.000
G1 X29.855 Y305.642 Z6.118 F200.000
(--Break)
G0 Z10.000
G0 X30.152 Y324.968
(part 27)
G1 X30.152 Y324.968 Z6.118 F200.000
G1 X30.018 Y325.032 Z6.118 F200.000
G1 X-30.182 Y325.032 Z6.118 F200.000
G1 X-30.337 Y324.987 Z6.118 F200.000
G1 X-30.157 Y324.968 Z6.118 F200.000
G1 X30.152 Y324.968 Z6.118 F200.000
(--Break)
G0 Z10.000
G0 X30.433 Y343.209
(part 29)
G1 X30.433 Y343.209 Z6.118 F200.000
G1 X30.299 Y343.273 Z6.118 F200.000
G1 X-30.501 Y343.273 Z6.118 F200.000
G1 X-30.607 Y343.209 Z6.118 F200.000
G1 X30.433 Y343.209 Z6.118 F200.000
(--Break)
G0 Z10.000
G0 X30.698 Y360.426
(part 31)
G1 X30.698 Y360.426 Z6.118 F200.000
G1 X30.563 Y360.490 Z6.118 F200.000
G1 X-30.837 Y360.490 Z6.118 F200.000
G1 X-30.802 Y360.426 Z6.118 F200.000
G1 X30.698 Y360.426 Z6.118 F200.000
(--Break)
G0 Z10.000
G0 X30.948 Y376.677
(part 33)
G1 X30.948 Y376.677 Z6.118 F200.000
G1 X30.813 Y376.741 Z6.118 F200.000
G1 X-30.987 Y376.741 Z6.118 F200.000
G1 X-31.137 Y376.692 Z6.118 F200.000
G1 X-30.952 Y376.677 Z6.118 F200.000
G1 X30.948 Y376.677 Z6.118 F200.000
(--Break)
G0 Z10.000
G0 X-31.373 Y392.016
(part 35)
G1 X-31.373 Y392.016 Z6.118 F200.000
G1 X-31.173 Y392.016 Z6.118 F200.000
G1 X31.027 Y392.016 Z6.118 F200.000
G1 X31.185 Y392.059 Z6.118 F200.000
G1 X31.006 Y392.080 Z6.118 F200.000
G1 X-31.194 Y392.080 Z6.118 F200.000
G1 X-31.373 Y392.060 Z6.118 F200.000
G1 X-31.373 Y392.016 Z6.118 F200.000
(--Break)
G0 Z10.000
G0 X31.407 Y406.494
(part 37)
G1 X31.407 Y406.494 Z6.118 F200.000
G1 X31.272 Y406.558 Z6.118 F200.000
G1 X-31.528 Y406.558 Z6.118 F200.000
G1 X-31.528 Y406.494 Z6.118 F200.000
G1 X31.407 Y406.494 Z6.118 F200.000
(--Break)
G0 Z10.000
G0 X31.617 Y420.159
(part 39)
G1 X31.617 Y420.159 Z6.118 F200.000
G1 X31.482 Y420.223 Z6.118 F200.000
G1 X-31.718 Y420.223 Z6.118 F200.000
G1 X-31.759 Y420.159 Z6.118 F200.000
G1 X31.617 Y420.159 Z6.118 F200.000
(--Break)
G0 Z10.000
G0 X-32.004 Y433.057
(part 41)
G1 X-32.004 Y433.057 Z6.118 F200.000
G1 X-31.604 Y433.057 Z6.118 F200.000
G1 X31.796 Y433.057 Z6.118 F200.000
G1 X31.700 Y433.121 Z6.118 F200.000
G1 X-31.900 Y433.121 Z6.118 F200.000
G1 X-32.004 Y433.057 Z6.118 F200.000
(End of step 0.)
(End of layer 5)
(Layer 6 begins)
(Layer transition)
G0 Z10.000
G0 X32.003 Y445.231
(Begin step 0.)
G0 X32.003 Y445.231
(part 1)
G1 X32.003 Y445.231 Z5.971 F200.000
G1 X31.868 Y445.295 Z5.971 F200.000
G1 X24.268 Y445.295 Z5.971 F200.000
G1 X24.093 Y445.237 Z5.971 F200.000
G1 X24.279 Y445.231 Z5.971 F200.000
G1 X32.003 Y445.231 Z5.971 F200.000
(--Break)
G0 Z10.000
G0 X-8.084 Y445.231
(part 3)
G1 X-8.084 Y445.231 Z5.971 F200.000
G1 X-8.257 Y445.295 Z5.971 F200.000
G1 X-32.057 Y445.295 Z5.971 F200.000
G1 X-32.191 Y445.231 Z5.971 F200.000
G1 X-8.084 Y445.231 Z5.971 F200.000
(--Break)
G0 Z10.000
G0 X25.714 Y36.450
(part 5)
G1 X25.714 Y36.450 Z5.971 F200.000
G1 X25.579 Y36.514 Z5.971 F200.000
G1 X-25.821 Y36.514 Z5.971 F200.000
G1 X-25.849 Y36.450 Z5.971 F200.000
G1 X25.714 Y36.450 Z5.971 F200.000
(--Break)
G0 Z10.000
G0 X-26.432 Y70.884
(part 7)
G1 X-26.432 Y70.884 Z5.971 F200.000
G1 X-26.232 Y70.884 Z5.971 F200.000
G1 X26.168 Y70.884 Z5.971 F200.000
G1 X26.184 Y70.948 Z5.971 F200.000
G1 X-26.416 Y70.948 Z5.971 F200.000
G1 X-26.432 Y70.884 Z5.971 F200.000
(--Break)
G0 Z10.000
G0 X26.743 Y103.385
(part 9)
G1 X26.743 Y103.385 Z5.971 F200.000
G1 X26.609 Y103.449 Z5.971 F200.000
G1 X-26.791 Y103.449 Z5.971 F200.000
G1 X-26.932 Y103.391 Z5.971 F200.000
G1 X-26.739 Y103.385 Z5.971 F200.000
G1 X26.743 Y103.385 Z5.971 F200.000
(--Break)
G0 Z10.000
G0 X27.215 Y134.062
(part 11)
G1 X27.215 Y134.062 Z5.971 F200.000
G1 X27.081 Y134.126 Z5.971 F200.000
G1 X-27.319 Y134.126 Z5.971 F200.000
G1 X-27.354 Y134.062 Z5.971 F200.000
G1 X27.215 Y134.062 Z5.971 F200.000
(--Break)
G0 Z10.000
G0 X27.661 Y163.018
(part 13)
G1 X27.661 Y163.018 Z5.971 F200.000
G1 X27.526 Y163.082 Z5.971 F200.000
G1 X-27.674 Y163.082 Z5.971 F200.000
G1 X-27.850 Y163.059 Z5.971 F200.000
G1 X-27.691 Y163.018 Z5.971 F200.000
G1 X27.661 Y163.018 Z5.971 F200.000
(--Break)
G0 Z10.000
G0 X28.081 Y190.348
(part 15)
G1 X28.081 Y190.348 Z5.971 F200.000
G1 X27.947 Y190.412 Z5.971 F200.000
G1 X-28.253 Y190.412 Z5.971 F200.000
G1 X-28.152 Y190.348 Z5.971 F200.000
G1 X28.081 Y190.348 Z5.971 F200.000
(--Break)
G0 Z10.000
G0 X28.478 Y216.144
(part 17)
G1 X28.478 Y216.144 Z5.971 F200.000
G1 X28.344 Y216.208 Z5.971 F200.000
G1 X-28.656 Y216.208 Z5.971 F200.000
G1 X-28.543 Y216.144 Z5.971 F200.000
G1 X28.478 Y216.144 Z5.971 F200.000
(--Break)
G0 Z10.000
G0 X28.853 Y240.493
(part 19)
G1 X28.853 Y240.493 Z5.971 F200.000
G1 X28.718 Y240.557 Z5.971 F200.000
G1 X-28.882 Y240.557 Z5.971 F200.000
G1 X-29.042 Y240.518 Z5.971 F200.000
G1 X-28.867 Y240.493 Z5.971 F200.000
G1 X28.853 Y240.493 Z5.971 F200.000
(--Break)
G0 Z10.000
G0 X29.206 Y263.475
(part 21)
G1 X29.206 Y263.475 Z5.971 F200.000
G1 X29.072 Y263.539 Z5.971 F200.000
G1 X-29.328 Y263.539 Z5.971 F200.000
G1 X-29.327 Y263.475 Z5.971 F200.000
G1 X29.206 Y263.475 Z5.971 F200.000
(--Break)
G0 Z10.000
G0 X29.540 Y285.167
(part 23)
G1 X29.540 Y285.167 Z5.971 F200.000
G1 X29.406 Y285.231 Z5.971 F200.000
G1 X-29.594 Y285.231 Z5.971 F200.000
G1 X-29.729 Y285.167 Z5.971 F200.000
G1 X29.540 Y285.167 Z5.971 F200.000
(--Break)
G0 Z10.000
G0 X29.855 Y305.642
(part 25)
G1 X29.855 Y305.642 Z5.971 F200.000
G1 X29.721 Y305.706 Z5.971 F200.000
G1 X-29.879 Y305.706 Z5.971 F200.000
G1 X-30.044 Y305.672 Z5.971 F200.000
G1 X-29.874 Y305.642 Z5.971 F200.000
G1 X29.855 Y305.642 Z5.971 F200.000
(--Break)
G0 Z10.000
G0 X30.152 Y324.968
(part 27)
G1 X30.152 Y324.968 Z5.971 F200.000
G1 X30.018 Y325.032 Z5.971 F200.000
G1 X-30.182 Y325.032 Z5.971 F200.000
G1 X-30.337 Y324.987 Z5.971 F200.000
G1 X-30.157 Y324.968 Z5.971 F200.000
G1 X30.152 Y324.968 Z5.971 F200.000
(--Break)
G0 Z10.000
G0 X30.433 Y343.209
(part 29)
G1 X30.433 Y343.209 Z5.971 F200.000
G1 X30.299 Y343.273 Z5.971 F200.000
G1 X-30.501 Y343.273 Z5.971 F200.000
G1 X-30.607 Y343.209 Z5.971 F200.000
G1 X30.433 Y343.209 Z5.971 F200.000
(--Break)
G0 Z10.000
G0 X30.698 Y360.426
(part 31)
G1 X30.698 Y360.426 Z5.971 F200.000
G1 X30.563 Y360.490 Z5.971 F200.000
G1 X-30.837 Y360.490 Z5.971 F200.000
G1 X-30.802 Y360.426 Z5.971 F200.000
G1 X30.698 Y360.426 Z5.971 F200.000
(--Break)
G0 Z10.000
G0 X30.948 Y376.677
(part 33)
G1 X30.948 Y376.677 Z5.971 F200.000
G1 X30.813 Y376.741 Z5.971 F200.000
G1 X-30.987 Y376.741 Z5.971 F200.000
G1 X-31.137 Y376.692 Z5.971 F200.000
G1 X-30.952 Y376.677 Z5.971 F200.000
G1 X30.948 Y376.677 Z5.971 F200.000
(--Break)
G0 Z10.000
G0 X-31.373 Y392.016
(part 35)
G1 X-31.373 Y392.016 Z5.971 F200.000
G1 X-31.173 Y392.016 Z5.971 F200.000
G1 X31.027 Y392.016 Z5.971 F200.000
G1 X31.185 Y392.059 Z5.971 F200.000
G1 X31.006 Y392.080 Z5.971 F200.000
G1 X-31.194 Y392.080 Z5.971 F200.000
G1 X-31.373 Y392.060 Z5.971 F200.000
G1 X-31.373 Y392.016 Z5.971 F200.000
(--Break)
G0 Z10.000
G0 X31.407 Y406.494
(part 37)
G1 X31.407 Y406.494 Z5.971 F200.000
G1 X31.272 Y406.558 Z5.971 F200.000
G1 X-31.528 Y406.558 Z5.971 F200.000
G1 X-31.528 Y406.494 Z5.971 F200.000
G1 X31.407 Y406.494 Z5.971 F200.000
(--Break)
G0 Z10.000
G0 X31.617 Y420.159
(part 39)
G1 X31.617 Y420.159 Z5.971 F200.000
G1 X31.482 Y420.223 Z5.971 F200.000
G1 X-31.718 Y420.223 Z5.971 F200.000
G1 X-31.759 Y420.159 Z5.971 F200.000
G1 X31.617 Y420.159 Z5.971 F200.000
(--Break)
G0 Z10.000
G0 X-32.004 Y433.057
(part 41)
G1 X-32.004 Y433.057 Z5.971 F200.000
G1 X-31.604 Y433.057 Z5.971 F200.000
G1 X31.796 Y433.057 Z5.971 F200.000
G1 X31.700 Y433.121 Z5.971 F200.000
G1 X-31.900 Y433.121 Z5.971 F200.000
G1 X-32.004 Y433.057 Z5.971 F200.000
(End of step 0.)
(End of layer 6)
(Layer 7 begins)
(Layer transition)
G0 Z10.000
G0 X32.003 Y445.231
(Begin step 0.)
G0 X32.003 Y445.231
(part 1)
G1 X32.003 Y445.231 Z5.824 F200.000
G1 X31.868 Y445.295 Z5.824 F200.000
G1 X24.268 Y445.295 Z5.824 F200.000
G1 X24.093 Y445.237 Z5.824 F200.000
G1 X24.279 Y445.231 Z5.824 F200.000
G1 X32.003 Y445.231 Z5.824 F200.000
(--Break)
G0 Z10.000
G0 X-8.084 Y445.231
(part 3)
G1 X-8.084 Y445.231 Z5.824 F200.000
G1 X-8.257 Y445.295 Z5.824 F200.000
G1 X-32.057 Y445.295 Z5.824 F200.000
G1 X-32.191 Y445.231 Z5.824 F200.000
G1 X-8.084 Y445.231 Z5.824 F200.000
(--Break)
G0 Z10.000
G0 X25.714 Y36.450
(part 5)
G1 X25.714 Y36.450 Z5.824 F200.000
G1 X25.579 Y36.514 Z5.824 F200.000
G1 X-25.821 Y36.514 Z5.824 F200.000
G1 X-25.849 Y36.450 Z5.824 F200.000
G1 X25.714 Y36.450 Z5.824 F200.000
(--Break)
G0 Z10.000
G0 X-26.432 Y70.884
(part 7)
G1 X-26.432 Y70.884 Z5.824 F200.000
G1 X-26.232 Y70.884 Z5.824 F200.000
G1 X26.168 Y70.884 Z5.824 F200.000
G1 X26.184 Y70.948 Z5.824 F200.000
G1 X-26.416 Y70.948 Z5.824 F200.000
G1 X-26.432 Y70.884 Z5.824 F200.000
(--Break)
G0 Z10.000
G0 X26.743 Y103.385
(part 9)
G1 X26.743 Y103.385 Z5.824 F200.000
G1 X26.609 Y103.449 Z5.824 F200.000
G1 X-26.791 Y103.449 Z5.824 F200.000
G1 X-26.932 Y103.391 Z5.824 F200.000
G1 X-26.739 Y103.385 Z5.824 F200.000
G1 X26.743 Y103.385 Z5.824 F200.000
(--Break)
G0 Z10.000
G0 X27.215 Y134.062
(part 11)
G1 X27.215 Y134.062 Z5.824 F200.000
G1 X27.081 Y134.126 Z5.824 F200.000
G1 X-27.319 Y134.126 Z5.824 F200.000
G1 X-27.354 Y134.062 Z5.824 F200.000
G1 X27.215 Y134.062 Z5.824 F200.000
(--Break)
G0 Z10.000
G0 X27.661 Y163.018
(part 13)
G1 X27.661 Y163.018 Z5.824 F200.000
G1 X27.526 Y163.082 Z5.824 F200.000
G1 X-27.674 Y163.082 Z5.824 F200.000
G1 X-27.850 Y163.059 Z5.824 F200.000
G1 X-27.691 Y163.018 Z5.824 F200.000
G1 X27.661 Y163.018 Z5.824 F200.000
(--Break)
G0 Z10.000
G0 X28.081 Y190.348
(part 15)
G1 X28.081 Y190.348 Z5.824 F200.000
G1 X27.947 Y190.412 Z5.824 F200.000
G1 X-28.253 Y190.412 Z5.824 F200.000
G1 X-28.152 Y190.348 Z5.824 F200.000
G1 X28.081 Y190.348 Z5.824 F200.000
(--Break)
G0 Z10.000
G0 X28.478 Y216.144
(part 17)
G1 X28.478 Y216.144 Z5.824 F200.000
G1 X28.344 Y216.208 Z5.824 F200.000
G1 X-28.656 Y216.208 Z5.824 F200.000
G1 X-28.543 Y216.144 Z5.824 F200.000
G1 X28.478 Y216.144 Z5.824 F200.000
(--Break)
G0 Z10.000
G0 X28.853 Y240.493
(part 19)
G1 X28.853 Y240.493 Z5.824 F200.000
G1 X28.718 Y240.557 Z5.824 F200.000
G1 X-28.882 Y240.557 Z5.824 F200.000
G1 X-29.042 Y240.518 Z5.824 F200.000
G1 X-28.867 Y240.493 Z5.824 F200.000
G1 X28.853 Y240.493 Z5.824 F200.000
(--Break)
G0 Z10.000
G0 X29.206 Y263.475
(part 21)
G1 X29.206 Y263.475 Z5.824 F200.000
G1 X29.072 Y263.539 Z5.824 F200.000
G1 X-29.328 Y263.539 Z5.824 F200.000
G1 X-29.327 Y263.475 Z5.824 F200.000
G1 X29.206 Y263.475 Z5.824 F200.000
(--Break)
G0 Z10.000
G0 X29.540 Y285.167
(part 23)
G1 X29.540 Y285.167 Z5.824 F200.000
G1 X29.406 Y285.231 Z5.824 F200.000
G1 X-29.594 Y285.231 Z5.824 F200.000
G1 X-29.729 Y285.167 Z5.824 F200.000
G1 X29.540 Y285.167 Z5.824 F200.000
(--Break)
G0 Z10.000
G0 X29.855 Y305.642
(part 25)
G1 X29.855 Y305.642 Z5.824 F200.000
G1 X29.721 Y305.706 Z5.824 F200.000
G1 X-29.879 Y305.706 Z5.824 F200.000
G1 X-30.044 Y305.672 Z5.824 F200.000
G1 X-29.874 Y305.642 Z5.824 F200.000
G1 X29.855 Y305.642 Z5.824 F200.000
(--Break)
G0 Z10.000
G0 X30.152 Y324.968
(part 27)
G1 X30.152 Y324.968 Z5.824 F200.000
G1 X30.018 Y325.032 Z5.824 F200.000
G1 X-30.182 Y325.032 Z5.824 F200.000
G1 X-30.337 Y324.987 Z5.824 F200.000
G1 X-30.157 Y324.968 Z5.824 F200.000
G1 X30.152 Y324.968 Z5.824 F200.000
(--Break)
G0 Z10.000
G0 X30.433 Y343.209
(part 29)
G1 X30.433 Y343.209 Z5.824 F200.000
G1 X30.299 Y343.273 Z5.824 F200.000
G1 X-30.501 Y343.273 Z5.824 F200.000
G1 X-30.607 Y343.209 Z5.824 F200.000
G1 X30.433 Y343.209 Z5.824 F200.000
(--Break)
G0 Z10.000
G0 X30.698 Y360.426
(part 31)
G1 X30.698 Y360.426 Z5.824 F200.000
G1 X30.563 Y360.490 Z5.824 F200.000
G1 X-30.837 Y360.490 Z5.824 F200.000
G1 X-30.802 Y360.426 Z5.824 F200.000
G1 X30.698 Y360.426 Z5.824 F200.000
(--Break)
G0 Z10.000
G0 X30.948 Y376.677
(part 33)
G1 X30.948 Y376.677 Z5.824 F200.000
G1 X30.813 Y376.741 Z5.824 F200.000
G1 X-30.987 Y376.741 Z5.824 F200.000
G1 X-31.137 Y376.692 Z5.824 F200.000
G1 X-30.952 Y376.677 Z5.824 F200.000
G1 X30.948 Y376.677 Z5.824 F200.000
(--Break)
G0 Z10.000
G0 X-31.373 Y392.016
(part 35)
G1 X-31.373 Y392.016 Z5.824 F200.000
G1 X-31.173 Y392.016 Z5.824 F200.000
G1 X31.027 Y392.016 Z5.824 F200.000
G1 X31.185 Y392.059 Z5.824 F200.000
G1 X31.006 Y392.080 Z5.824 F200.000
G1 X-31.194 Y392.080 Z5.824 F200.000
G1 X-31.373 Y392.060 Z5.824 F200.000
G1 X-31.373 Y392.016 Z5.824 F200.000
(--Break)
G0 Z10.000
G0 X31.407 Y406.494
(part 37)
G1 X31.407 Y406.494 Z5.824 F200.000
G1 X31.272 Y406.558 Z5.824 F200.000
G1 X-31.528 Y406.558 Z5.824 F200.000
G1 X-31.528 Y406.494 Z5.824 F200.000
G1 X31.407 Y406.494 Z5.824 F200.000
(--Break)
G0 Z10.000
G0 X31.617 Y420.159
(part 39)
G1 X31.617 Y420.159 Z5.824 F200.000
G1 X31.482 Y420.223 Z5.824 F200.000
G1 X-31.718 Y420.223 Z5.824 F200.000
G1 X-31.759 Y420.159 Z5.824 F200.000
G1 X31.617 Y420.159 Z5.824 F200.000
(--Break)
G0 Z10.000
G0 X-32.004 Y433.057
(part 41)
G1 X-32.004 Y433.057 Z5.824 F200.000
G1 X-31.604 Y433.057 Z5.824 F200.000
G1 X31.796 Y433.057 Z5.824 F200.000
G1 X31.700 Y433.121 Z5.824 F200.000
G1 X-31.900 Y433.121 Z5.824 F200.000
G1 X-32.004 Y433.057 Z5.824 F200.000
(End of step 0.)
(End of layer 7)
(Layer 8 begins)
(Layer transition)
G0 Z10.000
G0 X32.003 Y445.231
(Begin step 0.)
G0 X32.003 Y445.231
(part 1)
G1 X32.003 Y445.231 Z5.676 F200.000
G1 X31.868 Y445.295 Z5.676 F200.000
G1 X24.268 Y445.295 Z5.676 F200.000
G1 X24.093 Y445.237 Z5.676 F200.000
G1 X24.279 Y445.231 Z5.676 F200.000
G1 X32.003 Y445.231 Z5.676 F200.000
(--Break)
G0 Z10.000
G0 X-8.084 Y445.231
(part 3)
G1 X-8.084 Y445.231 Z5.676 F200.000
G1 X-8.257 Y445.295 Z5.676 F200.000
G1 X-32.057 Y445.295 Z5.676 F200.000
G1 X-32.191 Y445.231 Z5.676 F200.000
G1 X-8.084 Y445.231 Z5.676 F200.000
(--Break)
G0 Z10.000
G0 X25.714 Y36.450
(part 5)
G1 X25.714 Y36.450 Z5.676 F200.000
G1 X25.579 Y36.514 Z5.676 F200.000
G1 X-25.821 Y36.514 Z5.676 F200.000
G1 X-25.849 Y36.450 Z5.676 F200.000
G1 X25.714 Y36.450 Z5.676 F200.000
(--Break)
G0 Z10.000
G0 X-26.432 Y70.884
(part 7)
G1 X-26.432 Y70.884 Z5.676 F200.000
G1 X-26.232 Y70.884 Z5.676 F200.000
G1 X26.168 Y70.884 Z5.676 F200.000
G1 X26.184 Y70.948 Z5.676 F200.000
G1 X-26.416 Y70.948 Z5.676 F200.000
G1 X-26.432 Y70.884 Z5.676 F200.000
(--Break)
G0 Z10.000
G0 X26.743 Y103.385
(part 9)
G1 X26.743 Y103.385 Z5.676 F200.000
G1 X26.609 Y103.449 Z5.676 F200.000
G1 X-26.791 Y103.449 Z5.676 F200.000
G1 X-26.932 Y103.391 Z5.676 F200.000
G1 X-26.739 Y103.385 Z5.676 F200.000
G1 X26.743 Y103.385 Z5.676 F200.000
(--Break)
G0 Z10.000
G0 X27.215 Y134.062
(part 11)
G1 X27.215 Y134.062 Z5.676 F200.000
G1 X27.081 Y134.126 Z5.676 F200.000
G1 X-27.319 Y134.126 Z5.676 F200.000
G1 X-27.354 Y134.062 Z5.676 F200.000
G1 X27.215 Y134.062 Z5.676 F200.000
(--Break)
G0 Z10.000
G0 X27.661 Y163.018
(part 13)
G1 X27.661 Y163.018 Z5.676 F200.000
G1 X27.526 Y163.082 Z5.676 F200.000
G1 X-27.674 Y163.082 Z5.676 F200.000
G1 X-27.850 Y163.059 Z5.676 F200.000
G1 X-27.691 Y163.018 Z5.676 F200.000
G1 X27.661 Y163.018 Z5.676 F200.000
(--Break)
G0 Z10.000
G0 X28.081 Y190.348
(part 15)
G1 X28.081 Y190.348 Z5.676 F200.000
G1 X27.947 Y190.412 Z5.676 F200.000
G1 X-28.253 Y190.412 Z5.676 F200.000
G1 X-28.152 Y190.348 Z5.676 F200.000
G1 X28.081 Y190.348 Z5.676 F200.000
(--Break)
G0 Z10.000
G0 X28.478 Y216.144
(part 17)
G1 X28.478 Y216.144 Z5.676 F200.000
G1 X28.344 Y216.208 Z5.676 F200.000
G1 X-28.656 Y216.208 Z5.676 F200.000
G1 X-28.543 Y216.144 Z5.676 F200.000
G1 X28.478 Y216.144 Z5.676 F200.000
(--Break)
G0 Z10.000
G0 X28.853 Y240.493
(part 19)
G1 X28.853 Y240.493 Z5.676 F200.000
G1 X28.718 Y240.557 Z5.676 F200.000
G1 X-28.882 Y240.557 Z5.676 F200.000
G1 X-29.042 Y240.518 Z5.676 F200.000
G1 X-28.867 Y240.493 Z5.676 F200.000
G1 X28.853 Y240.493 Z5.676 F200.000
(--Break)
G0 Z10.000
G0 X29.206 Y263.475
(part 21)
G1 X29.206 Y263.475 Z5.676 F200.000
G1 X29.072 Y263.539 Z5.676 F200.000
G1 X-29.328 Y263.539 Z5.676 F200.000
G1 X-29.327 Y263.475 Z5.676 F200.000
G1 X29.206 Y263.475 Z5.676 F200.000
(--Break)
G0 Z10.000
G0 X29.540 Y285.167
(part 23)
G1 X29.540 Y285.167 Z5.676 F200.000
G1 X29.406 Y285.231 Z5.676 F200.000
G1 X-29.594 Y285.231 Z5.676 F200.000
G1 X-29.729 Y285.167 Z5.676 F200.000
G1 X29.540 Y285.167 Z5.676 F200.000
(--Break)
G0 Z10.000
G0 X29.855 Y305.642
(part 25)
G1 X29.855 Y305.642 Z5.676 F200.000
G1 X29.721 Y305.706 Z5.676 F200.000
G1 X-29.879 Y305.706 Z5.676 F200.000
G1 X-30.044 Y305.672 Z5.676 F200.000
G1 X-29.874 Y305.642 Z5.676 F200.000
G1 X29.855 Y305.642 Z5.676 F200.000
(--Break)
G0 Z10.000
G0 X30.152 Y324.968
(part 27)
G1 X30.152 Y324.968 Z5.676 F200.000
G1 X30.018 Y325.032 Z5.676 F200.000
G1 X-30.182 Y325.032 Z5.676 F200.000
G1 X-30.337 Y324.987 Z5.676 F200.000
G1 X-30.157 Y324.968 Z5.676 F200.000
G1 X30.152 Y324.968 Z5.676 F200.000
(--Break)
G0 Z10.000
G0 X30.433 Y343.209
(part 29)
G1 X30.433 Y343.209 Z5.676 F200.000
G1 X30.299 Y343.273 Z5.676 F200.000
G1 X-30.501 Y343.273 Z5.676 F200.000
G1 X-30.607 Y343.209 Z5.676 F200.000
G1 X30.433 Y343.209 Z5.676 F200.000
(--Break)
G0 Z10.000
G0 X30.698 Y360.426
(part 31)
G1 X30.698 Y360.426 Z5.676 F200.000
G1 X30.563 Y360.490 Z5.676 F200.000
G1 X-30.837 Y360.490 Z5.676 F200.000
G1 X-30.802 Y360.426 Z5.676 F200.000
G1 X30.698 Y360.426 Z5.676 F200.000
(--Break)
G0 Z10.000
G0 X30.948 Y376.677
(part 33)
G1 X30.948 Y376.677 Z5.676 F200.000
G1 X30.813 Y376.741 Z5.676 F200.000
G1 X-30.987 Y376.741 Z5.676 F200.000
G1 X-31.137 Y376.692 Z5.676 F200.000
G1 X-30.952 Y376.677 Z5.676 F200.000
G1 X30.948 Y376.677 Z5.676 F200.000
(--Break)
G0 Z10.000
G0 X-31.373 Y392.016
(part 35)
G1 X-31.373 Y392.016 Z5.676 F200.000
G1 X-31.173 Y392.016 Z5.676 F200.000
G1 X31.027 Y392.016 Z5.676 F200.000
G1 X31.185 Y392.059 Z5.676 F200.000
G1 X31.006 Y392.080 Z5.676 F200.000
G1 X-31.194 Y392.080 Z5.676 F200.000
G1 X-31.373 Y392.060 Z5.676 F200.000
G1 X-31.373 Y392.016 Z5.676 F200.000
(--Break)
G0 Z10.000
G0 X31.407 Y406.494
(part 37)
G1 X31.407 Y406.494 Z5.676 F200.000
G1 X31.272 Y406.558 Z5.676 F200.000
G1 X-31.528 Y406.558 Z5.676 F200.000
G1 X-31.528 Y406.494 Z5.676 F200.000
G1 X31.407 Y406.494 Z5.676 F200.000
(--Break)
G0 Z10.000
G0 X31.617 Y420.159
(part 39)
G1 X31.617 Y420.159 Z5.676 F200.000
G1 X31.482 Y420.223 Z5.676 F200.000
G1 X-31.718 Y420.223 Z5.676 F200.000
G1 X-31.759 Y420.159 Z5.676 F200.000
G1 X31.617 Y420.159 Z5.676 F200.000
(--Break)
G0 Z10.000
G0 X-32.004 Y433.057
(part 41)
G1 X-32.004 Y433.057 Z5.676 F200.000
G1 X-31.604 Y433.057 Z5.676 F200.000
G1 X31.796 Y433.057 Z5.676 F200.000
G1 X31.700 Y433.121 Z5.676 F200.000
G1 X-31.900 Y433.121 Z5.676 F200.000
G1 X-32.004 Y433.057 Z5.676 F200.000
(End of step 0.)
(End of layer 8)
(Layer 9 begins)
(Layer transition)
G0 Z10.000
G0 X32.003 Y445.231
(Begin step 0.)
G0 X32.003 Y445.231
(part 1)
G1 X32.003 Y445.231 Z5.529 F200.000
G1 X31.868 Y445.295 Z5.529 F200.000
G1 X24.268 Y445.295 Z5.529 F200.000
G1 X24.093 Y445.237 Z5.529 F200.000
G1 X24.279 Y445.231 Z5.529 F200.000
G1 X32.003 Y445.231 Z5.529 F200.000
(--Break)
G0 Z10.000
G0 X-8.084 Y445.231
(part 3)
G1 X-8.084 Y445.231 Z5.529 F200.000
G1 X-8.257 Y445.295 Z5.529 F200.000
G1 X-32.057 Y445.295 Z5.529 F200.000
G1 X-32.191 Y445.231 Z5.529 F200.000
G1 X-8.084 Y445.231 Z5.529 F200.000
(--Break)
G0 Z10.000
G0 X25.714 Y36.450
(part 5)
G1 X25.714 Y36.450 Z5.529 F200.000
G1 X25.579 Y36.514 Z5.529 F200.000
G1 X-25.821 Y36.514 Z5.529 F200.000
G1 X-25.849 Y36.450 Z5.529 F200.000
G1 X25.714 Y36.450 Z5.529 F200.000
(--Break)
G0 Z10.000
G0 X-26.432 Y70.884
(part 7)
G1 X-26.432 Y70.884 Z5.529 F200.000
G1 X-26.232 Y70.884 Z5.529 F200.000
G1 X26.168 Y70.884 Z5.529 F200.000
G1 X26.184 Y70.948 Z5.529 F200.000
G1 X-26.416 Y70.948 Z5.529 F200.000
G1 X-26.432 Y70.884 Z5.529 F200.000
(--Break)
G0 Z10.000
G0 X26.743 Y103.385
(part 9)
G1 X26.743 Y103.385 Z5.529 F200.000
G1 X26.609 Y103.449 Z5.529 F200.000
G1 X-26.791 Y103.449 Z5.529 F200.000
G1 X-26.932 Y103.391 Z5.529 F200.000
G1 X-26.739 Y103.385 Z5.529 F200.000
G1 X26.743 Y103.385 Z5.529 F200.000
(--Break)
G0 Z10.000
G0 X27.215 Y134.062
(part 11)
G1 X27.215 Y134.062 Z5.529 F200.000
G1 X27.081 Y134.126 Z5.529 F200.000
G1 X-27.319 Y134.126 Z5.529 F200.000
G1 X-27.354 Y134.062 Z5.529 F200.000
G1 X27.215 Y134.062 Z5.529 F200.000
(--Break)
G0 Z10.000
G0 X27.661 Y163.018
(part 13)
G1 X27.661 Y163.018 Z5.529 F200.000
G1 X27.526 Y163.082 Z5.529 F200.000
G1 X-27.674 Y163.082 Z5.529 F200.000
G1 X-27.850 Y163.059 Z5.529 F200.000
G1 X-27.691 Y163.018 Z5.529 F200.000
G1 X27.661 Y163.018 Z5.529 F200.000
(--Break)
G0 Z10.000
G0 X28.081 Y190.348
(part 15)
G1 X28.081 Y190.348 Z5.529 F200.000
G1 X27.947 Y190.412 Z5.529 F200.000
G1 X-28.253 Y190.412 Z5.529 F200.000
G1 X-28.152 Y190.348 Z5.529 F200.000
G1 X28.081 Y190.348 Z5.529 F200.000
(--Break)
G0 Z10.000
G0 X28.478 Y216.144
(part 17)
G1 X28.478 Y216.144 Z5.529 F200.000
G1 X28.344 Y216.208 Z5.529 F200.000
G1 X-28.656 Y216.208 Z5.529 F200.000
G1 X-28.543 Y216.144 Z5.529 F200.000
G1 X28.478 Y216.144 Z5.529 F200.000
(--Break)
G0 Z10.000
G0 X28.853 Y240.493
(part 19)
G1 X28.853 Y240.493 Z5.529 F200.000
G1 X28.718 Y240.557 Z5.529 F200.000
G1 X-28.882 Y240.557 Z5.529 F200.000
G1 X-29.042 Y240.518 Z5.529 F200.000
G1 X-28.867 Y240.493 Z5.529 F200.000
G1 X28.853 Y240.493 Z5.529 F200.000
(--Break)
G0 Z10.000
G0 X29.206 Y263.475
(part 21)
G1 X29.206 Y263.475 Z5.529 F200.000
G1 X29.072 Y263.539 Z5.529 F200.000
G1 X-29.328 Y263.539 Z5.529 F200.000
G1 X-29.327 Y263.475 Z5.529 F200.000
G1 X29.206 Y263.475 Z5.529 F200.000
(--Break)
G0 Z10.000
G0 X29.540 Y285.167
(part 23)
G1 X29.540 Y285.167 Z5.529 F200.000
G1 X29.406 Y285.231 Z5.529 F200.000
G1 X-29.594 Y285.231 Z5.529 F200.000
G1 X-29.729 Y285.167 Z5.529 F200.000
G1 X29.540 Y285.167 Z5.529 F200.000
(--Break)
G0 Z10.000
G0 X29.855 Y305.642
(part 25)
G1 X29.855 Y305.642 Z5.529 F200.000
G1 X29.721 Y305.706 Z5.529 F200.000
G1 X-29.879 Y305.706 Z5.529 F200.000
G1 X-30.044 Y305.672 Z5.529 F200.000
G1 X-29.874 Y305.642 Z5.529 F200.000
G1 X29.855 Y305.642 Z5.529 F200.000
(--Break)
G0 Z10.000
G0 X30.152 Y324.968
(part 27)
G1 X30.152 Y324.968 Z5.529 F200.000
G1 X30.018 Y325.032 Z5.529 F200.000
G1 X-30.182 Y325.032 Z5.529 F200.000
G1 X-30.337 Y324.987 Z5.529 F200.000
G1 X-30.157 Y324.968 Z5.529 F200.000
G1 X30.152 Y324.968 Z5.529 F200.000
(--Break)
G0 Z10.000
G0 X30.433 Y343.209
(part 29)
G1 X30.433 Y343.209 Z5.529 F200.000
G1 X30.299 Y343.273 Z5.529 F200.000
G1 X-30.501 Y343.273 Z5.529 F200.000
G1 X-30.607 Y343.209 Z5.529 F200.000
G1 X30.433 Y343.209 Z5.529 F200.000
(--Break)
G0 Z10.000
G0 X30.698 Y360.426
(part 31)
G1 X30.698 Y360.426 Z5.529 F200.000
G1 X30.563 Y360.490 Z5.529 F200.000
G1 X-30.837 Y360.490 Z5.529 F200.000
G1 X-30.802 Y360.426 Z5.529 F200.000
G1 X30.698 Y360.426 Z5.529 F200.000
(--Break)
G0 Z10.000
G0 X30.948 Y376.677
(part 33)
G1 X30.948 Y376.677 Z5.529 F200.000
G1 X30.813 Y376.741 Z5.529 F200.000
G1 X-30.987 Y376.741 Z5.529 F200.000
G1 X-31.137 Y376.692 Z5.529 F200.000
G1 X-30.952 Y376.677 Z5.529 F200.000
G1 X30.948 Y376.677 Z5.529 F200.000
(--Break)
G0 Z10.000
G0 X-31.373 Y392.016
(part 35)
G1 X-31.373 Y392.016 Z5.529 F200.000
G1 X-31.173 Y392.016 Z5.529 F200.000
G1 X31.027 Y392.016 Z5.529 F200.000
G1 X31.185 Y392.059 Z5.529 F200.000
G1 X31.006 Y392.080 Z5.529 F200.000
G1 X-31.194 Y392.080 Z5.529 F200.000
G1 X-31.373 Y392.060 Z5.529 F200.000
G1 X-31.373 Y392.016 Z5.529 F200.000
(--Break)
G0 Z10.000
G0 X31.407 Y406.494
(part 37)
G1 X31.407 Y406.494 Z5.529 F200.000
G1 X31.272 Y406.558 Z5.529 F200.000
G1 X-31.528 Y406.558 Z5.529 F200.000
G1 X-31.528 Y406.494 Z5.529 F200.000
G1 X31.407 Y406.494 Z5.529 F200.000
(--Break)
G0 Z10.000
G0 X31.617 Y420.159
(part 39)
G1 X31.617 Y420.159 Z5.529 F200.000
G1 X31.482 Y420.223 Z5.529 F200.000
G1 X-31.718 Y420.223 Z5.529 F200.000
G1 X-31.759 Y420.159 Z5.529 F200.000
G1 X31.617 Y420.159 Z5.529 F200.000
(--Break)
G0 Z10.000
G0 X-32.004 Y433.057
(part 41)
G1 X-32.004 Y433.057 Z5.529 F200.000
G1 X-31.604 Y433.057 Z5.529 F200.000
G1 X31.796 Y433.057 Z5.529 F200.000
G1 X31.700 Y433.121 Z5.529 F200.000
G1 X-31.900 Y433.121 Z5.529 F200.000
G1 X-32.004 Y433.057 Z5.529 F200.000
(End of step 0.)
(End of layer 9)
(Layer 10 begins)
(Layer transition)
G0 Z10.000
G0 X32.003 Y445.231
(Begin step 0.)
G0 X32.003 Y445.231
(part 1)
G1 X32.003 Y445.231 Z5.382 F200.000
G1 X31.868 Y445.295 Z5.382 F200.000
G1 X24.268 Y445.295 Z5.382 F200.000
G1 X24.093 Y445.237 Z5.382 F200.000
G1 X24.279 Y445.231 Z5.382 F200.000
G1 X32.003 Y445.231 Z5.382 F200.000
(--Break)
G0 Z10.000
G0 X-8.084 Y445.231
(part 3)
G1 X-8.084 Y445.231 Z5.382 F200.000
G1 X-8.257 Y445.295 Z5.382 F200.000
G1 X-32.057 Y445.295 Z5.382 F200.000
G1 X-32.191 Y445.231 Z5.382 F200.000
G1 X-8.084 Y445.231 Z5.382 F200.000
(--Break)
G0 Z10.000
G0 X25.714 Y36.450
(part 5)
G1 X25.714 Y36.450 Z5.382 F200.000
G1 X25.579 Y36.514 Z5.382 F200.000
G1 X-25.821 Y36.514 Z5.382 F200.000
G1 X-25.849 Y36.450 Z5.382 F200.000
G1 X25.714 Y36.450 Z5.382 F200.000
(--Break)
G0 Z10.000
G0 X-26.432 Y70.884
(part 7)
G1 X-26.432 Y70.884 Z5.382 F200.000
G1 X-26.232 Y70.884 Z5.382 F200.000
G1 X26.168 Y70.884 Z5.382 F200.000
G1 X26.184 Y70.948 Z5.382 F200.000
G1 X-26.416 Y70.948 Z5.382 F200.000
G1 X-26.432 Y70.884 Z5.382 F200.000
(--Break)
G0 Z10.000
G0 X26.743 Y103.385
(part 9)
G1 X26.743 Y103.385 Z5.382 F200.000
G1 X26.609 Y103.449 Z5.382 F200.000
G1 X-26.791 Y103.449 Z5.382 F200.000
G1 X-26.932 Y103.391 Z5.382 F200.000
G1 X-26.739 Y103.385 Z5.382 F200.000
G1 X26.743 Y103.385 Z5.382 F200.000
(--Break)
G0 Z10.000
G0 X27.215 Y134.062
(part 11)
G1 X27.215 Y134.062 Z5.382 F200.000
G1 X27.081 Y134.126 Z5.382 F200.000
G1 X-27.319 Y134.126 Z5.382 F200.000
G1 X-27.354 Y134.062 Z5.382 F200.000
G1 X27.215 Y134.062 Z5.382 F200.000
(--Break)
G0 Z10.000
G0 X27.661 Y163.018
(part 13)
G1 X27.661 Y163.018 Z5.382 F200.000
G1 X27.526 Y163.082 Z5.382 F200.000
G1 X-27.674 Y163.082 Z5.382 F200.000
G1 X-27.850 Y163.059 Z5.382 F200.000
G1 X-27.691 Y163.018 Z5.382 F200.000
G1 X27.661 Y163.018 Z5.382 F200.000
(--Break)
G0 Z10.000
G0 X28.081 Y190.348
(part 15)
G1 X28.081 Y190.348 Z5.382 F200.000
G1 X27.947 Y190.412 Z5.382 F200.000
G1 X-28.253 Y190.412 Z5.382 F200.000
G1 X-28.152 Y190.348 Z5.382 F200.000
G1 X28.081 Y190.348 Z5.382 F200.000
(--Break)
G0 Z10.000
G0 X28.478 Y216.144
(part 17)
G1 X28.478 Y216.144 Z5.382 F200.000
G1 X28.344 Y216.208 Z5.382 F200.000
G1 X-28.656 Y216.208 Z5.382 F200.000
G1 X-28.543 Y216.144 Z5.382 F200.000
G1 X28.478 Y216.144 Z5.382 F200.000
(--Break)
G0 Z10.000
G0 X28.853 Y240.493
(part 19)
G1 X28.853 Y240.493 Z5.382 F200.000
G1 X28.718 Y240.557 Z5.382 F200.000
G1 X-28.882 Y240.557 Z5.382 F200.000
G1 X-29.042 Y240.518 Z5.382 F200.000
G1 X-28.867 Y240.493 Z5.382 F200.000
G1 X28.853 Y240.493 Z5.382 F200.000
(--Break)
G0 Z10.000
G0 X29.206 Y263.475
(part 21)
G1 X29.206 Y263.475 Z5.382 F200.000
G1 X29.072 Y263.539 Z5.382 F200.000
G1 X-29.328 Y263.539 Z5.382 F200.000
G1 X-29.327 Y263.475 Z5.382 F200.000
G1 X29.206 Y263.475 Z5.382 F200.000
(--Break)
G0 Z10.000
G0 X29.540 Y285.167
(part 23)
G1 X29.540 Y285.167 Z5.382 F200.000
G1 X29.406 Y285.231 Z5.382 F200.000
G1 X-29.594 Y285.231 Z5.382 F200.000
G1 X-29.729 Y285.167 Z5.382 F200.000
G1 X29.540 Y285.167 Z5.382 F200.000
(--Break)
G0 Z10.000
G0 X29.855 Y305.642
(part 25)
G1 X29.855 Y305.642 Z5.382 F200.000
G1 X29.721 Y305.706 Z5.382 F200.000
G1 X-29.879 Y305.706 Z5.382 F200.000
G1 X-30.044 Y305.672 Z5.382 F200.000
G1 X-29.874 Y305.642 Z5.382 F200.000
G1 X29.855 Y305.642 Z5.382 F200.000
(--Break)
G0 Z10.000
G0 X30.152 Y324.968
(part 27)
G1 X30.152 Y324.968 Z5.382 F200.000
G1 X30.018 Y325.032 Z5.382 F200.000
G1 X-30.182 Y325.032 Z5.382 F200.000
G1 X-30.337 Y324.987 Z5.382 F200.000
G1 X-30.157 Y324.968 Z5.382 F200.000
G1 X30.152 Y324.968 Z5.382 F200.000
(--Break)
G0 Z10.000
G0 X30.433 Y343.209
(part 29)
G1 X30.433 Y343.209 Z5.382 F200.000
G1 X30.299 Y343.273 Z5.382 F200.000
G1 X-30.501 Y343.273 Z5.382 F200.000
G1 X-30.607 Y343.209 Z5.382 F200.000
G1 X30.433 Y343.209 Z5.382 F200.000
(--Break)
G0 Z10.000
G0 X30.698 Y360.426
(part 31)
G1 X30.698 Y360.426 Z5.382 F200.000
G1 X30.563 Y360.490 Z5.382 F200.000
G1 X-30.837 Y360.490 Z5.382 F200.000
G1 X-30.802 Y360.426 Z5.382 F200.000
G1 X30.698 Y360.426 Z5.382 F200.000
(--Break)
G0 Z10.000
G0 X30.948 Y376.677
(part 33)
G1 X30.948 Y376.677 Z5.382 F200.000
G1 X30.813 Y376.741 Z5.382 F200.000
G1 X-30.987 Y376.741 Z5.382 F200.000
G1 X-31.137 Y376.692 Z5.382 F200.000
G1 X-30.952 Y376.677 Z5.382 F200.000
G1 X30.948 Y376.677 Z5.382 F200.000
(--Break)
G0 Z10.000
G0 X-31.373 Y392.016
(part 35)
G1 X-31.373 Y392.016 Z5.382 F200.000
G1 X-31.173 Y392.016 Z5.382 F200.000
G1 X31.027 Y392.016 Z5.382 F200.000
G1 X31.185 Y392.059 Z5.382 F200.000
G1 X31.006 Y392.080 Z5.382 F200.000
G1 X-31.194 Y392.080 Z5.382 F200.000
G1 X-31.373 Y392.060 Z5.382 F200.000
G1 X-31.373 Y392.016 Z5.382 F200.000
(--Break)
G0 Z10.000
G0 X31.407 Y406.494
(part 37)
G1 X31.407 Y406.494 Z5.382 F200.000
G1 X31.272 Y406.558 Z5.382 F200.000
G1 X-31.528 Y406.558 Z5.382 F200.000
G1 X-31.528 Y406.494 Z5.382 F200.000
G1 X31.407 Y406.494 Z5.382 F200.000
(--Break)
G0 Z10.000
G0 X31.617 Y420.159
(part 39)
G1 X31.617 Y420.159 Z5.382 F200.000
G1 X31.482 Y420.223 Z5.382 F200.000
G1 X-31.718 Y420.223 Z5.382 F200.000
G1 X-31.759 Y420.159 Z5.382 F200.000
G1 X31.617 Y420.159 Z5.382 F200.000
(--Break)
G0 Z10.000
G0 X-32.004 Y433.057
(part 41)
G1 X-32.004 Y433.057 Z5.382 F200.000
G1 X-31.604 Y433.057 Z5.382 F200.000
G1 X31.796 Y433.057 Z5.382 F200.000
G1 X31.700 Y433.121 Z5.382 F200.000
G1 X-31.900 Y433.121 Z5.382 F200.000
G1 X-32.004 Y433.057 Z5.382 F200.000
(End of step 0.)
(End of layer 10)
(Layer 11 begins)
(Layer transition)
G0 Z10.000
G0 X32.003 Y445.231
(Begin step 0.)
G0 X32.003 Y445.231
(part 1)
G1 X32.003 Y445.231 Z5.235 F200.000
G1 X31.868 Y445.295 Z5.235 F200.000
G1 X24.268 Y445.295 Z5.235 F200.000
G1 X24.093 Y445.237 Z5.235 F200.000
G1 X24.279 Y445.231 Z5.235 F200.000
G1 X32.003 Y445.231 Z5.235 F200.000
(--Break)
G0 Z10.000
G0 X-8.084 Y445.231
(part 3)
G1 X-8.084 Y445.231 Z5.235 F200.000
G1 X-8.257 Y445.295 Z5.235 F200.000
G1 X-32.057 Y445.295 Z5.235 F200.000
G1 X-32.191 Y445.231 Z5.235 F200.000
G1 X-8.084 Y445.231 Z5.235 F200.000
(--Break)
G0 Z10.000
G0 X25.714 Y36.450
(part 5)
G1 X25.714 Y36.450 Z5.235 F200.000
G1 X25.579 Y36.514 Z5.235 F200.000
G1 X-25.821 Y36.514 Z5.235 F200.000
G1 X-25.849 Y36.450 Z5.235 F200.000
G1 X25.714 Y36.450 Z5.235 F200.000
(--Break)
G0 Z10.000
G0 X-26.432 Y70.884
(part 7)
G1 X-26.432 Y70.884 Z5.235 F200.000
G1 X-26.232 Y70.884 Z5.235 F200.000
G1 X26.168 Y70.884 Z5.235 F200.000
G1 X26.184 Y70.948 Z5.235 F200.000
G1 X-26.416 Y70.948 Z5.235 F200.000
G1 X-26.432 Y70.884 Z5.235 F200.000
(--Break)
G0 Z10.000
G0 X26.743 Y103.385
(part 9)
G1 X26.743 Y103.385 Z5.235 F200.000
G1 X26.609 Y103.449 Z5.235 F200.000
G1 X-26.791 Y103.449 Z5.235 F200.000
G1 X-26.932 Y103.391 Z5.235 F200.000
G1 X-26.739 Y103.385 Z5.235 F200.000
G1 X26.743 Y103.385 Z5.235 F200.000
(--Break)
G0 Z10.000
G0 X27.215 Y134.062
(part 11)
G1 X27.215 Y134.062 Z5.235 F200.000
G1 X27.081 Y134.126 Z5.235 F200.000
G1 X-27.319 Y134.126 Z5.235 F200.000
G1 X-27.354 Y134.062 Z5.235 F200.000
G1 X27.215 Y134.062 Z5.235 F200.000
(--Break)
G0 Z10.000
G0 X27.661 Y163.018
(part 13)
G1 X27.661 Y163.018 Z5.235 F200.000
G1 X27.526 Y163.082 Z5.235 F200.000
G1 X-27.674 Y163.082 Z5.235 F200.000
G1 X-27.850 Y163.059 Z5.235 F200.000
G1 X-27.691 Y163.018 Z5.235 F200.000
G1 X27.661 Y163.018 Z5.235 F200.000
(--Break)
G0 Z10.000
G0 X28.081 Y190.348
(part 15)
G1 X28.081 Y190.348 Z5.235 F200.000
G1 X27.947 Y190.412 Z5.235 F200.000
G1 X-28.253 Y190.412 Z5.235 F200.000
G1 X-28.152 Y190.348 Z5.235 F200.000
G1 X28.081 Y190.348 Z5.235 F200.000
(--Break)
G0 Z10.000
G0 X28.478 Y216.144
(part 17)
G1 X28.478 Y216.144 Z5.235 F200.000
G1 X28.344 Y216.208 Z5.235 F200.000
G1 X-28.656 Y216.208 Z5.235 F200.000
G1 X-28.543 Y216.144 Z5.235 F200.000
G1 X28.478 Y216.144 Z5.235 F200.000
(--Break)
G0 Z10.000
G0 X28.853 Y240.493
(part 19)
G1 X28.853 Y240.493 Z5.235 F200.000
G1 X28.718 Y240.557 Z5.235 F200.000
G1 X-28.882 Y240.557 Z5.235 F200.000
G1 X-29.042 Y240.518 Z5.235 F200.000
G1 X-28.867 Y240.493 Z5.235 F200.000
G1 X28.853 Y240.493 Z5.235 F200.000
(--Break)
G0 Z10.000
G0 X29.206 Y263.475
(part 21)
G1 X29.206 Y263.475 Z5.235 F200.000
G1 X29.072 Y263.539 Z5.235 F200.000
G1 X-29.328 Y263.539 Z5.235 F200.000
G1 X-29.327 Y263.475 Z5.235 F200.000
G1 X29.206 Y263.475 Z5.235 F200.000
(--Break)
G0 Z10.000
G0 X29.540 Y285.167
(part 23)
G1 X29.540 Y285.167 Z5.235 F200.000
G1 X29.406 Y285.231 Z5.235 F200.000
G1 X-29.594 Y285.231 Z5.235 F200.000
G1 X-29.729 Y285.167 Z5.235 F200.000
G1 X29.540 Y285.167 Z5.235 F200.000
(--Break)
G0 Z10.000
G0 X29.855 Y305.642
(part 25)
G1 X29.855 Y305.642 Z5.235 F200.000
G1 X29.721 Y305.706 Z5.235 F200.000
G1 X-29.879 Y305.706 Z5.235 F200.000
G1 X-30.044 Y305.672 Z5.235 F200.000
G1 X-29.874 Y305.642 Z5.235 F200.000
G1 X29.855 Y305.642 Z5.235 F200.000
(--Break)
G0 Z10.000
G0 X30.152 Y324.968
(part 27)
G1 X30.152 Y324.968 Z5.235 F200.000
G1 X30.018 Y325.032 Z5.235 F200.000
G1 X-30.182 Y325.032 Z5.235 F200.000
G1 X-30.337 Y324.987 Z5.235 F200.000
G1 X-30.157 Y324.968 Z5.235 F200.000
G1 X30.152 Y324.968 Z5.235 F200.000
(--Break)
G0 Z10.000
G0 X30.433 Y343.209
(part 29)
G1 X30.433 Y343.209 Z5.235 F200.000
G1 X30.299 Y343.273 Z5.235 F200.000
G1 X-30.501 Y343.273 Z5.235 F200.000
G1 X-30.607 Y343.209 Z5.235 F200.000
G1 X30.433 Y343.209 Z5.235 F200.000
(--Break)
G0 Z10.000
G0 X30.698 Y360.426
(part 31)
G1 X30.698 Y360.426 Z5.235 F200.000
G1 X30.563 Y360.490 Z5.235 F200.000
G1 X-30.837 Y360.490 Z5.235 F200.000
G1 X-30.802 Y360.426 Z5.235 F200.000
G1 X30.698 Y360.426 Z5.235 F200.000
(--Break)
G0 Z10.000
G0 X30.948 Y376.677
(part 33)
G1 X30.948 Y376.677 Z5.235 F200.000
G1 X30.813 Y376.741 Z5.235 F200.000
G1 X-30.987 Y376.741 Z5.235 F200.000
G1 X-31.137 Y376.692 Z5.235 F200.000
G1 X-30.952 Y376.677 Z5.235 F200.000
G1 X30.948 Y376.677 Z5.235 F200.000
(--Break)
G0 Z10.000
G0 X-31.373 Y392.016
(part 35)
G1 X-31.373 Y392.016 Z5.235 F200.000
G1 X-31.173 Y392.016 Z5.235 F200.000
G1 X31.027 Y392.016 Z5.235 F200.000
G1 X31.185 Y392.059 Z5.235 F200.000
G1 X31.006 Y392.080 Z5.235 F200.000
G1 X-31.194 Y392.080 Z5.235 F200.000
G1 X-31.373 Y392.060 Z5.235 F200.000
G1 X-31.373 Y392.016 Z5.235 F200.000
(--Break)
G0 Z10.000
G0 X31.407 Y406.494
(part 37)
G1 X31.407 Y406.494 Z5.235 F200.000
G1 X31.272 Y406.558 Z5.235 F200.000
G1 X-31.528 Y406.558 Z5.235 F200.000
G1 X-31.528 Y406.494 Z5.235 F200.000
G1 X31.407 Y406.494 Z5.235 F200.000
(--Break)
G0 Z10.000
G0 X31.617 Y420.159
(part 39)
G1 X31.617 Y420.159 Z5.235 F200.000
G1 X31.482 Y420.223 Z5.235 F200.000
G1 X-31.718 Y420.223 Z5.235 F200.000
G1 X-31.759 Y420.159 Z5.235 F200.000
G1 X31.617 Y420.159 Z5.235 F200.000
(--Break)
G0 Z10.000
G0 X-32.004 Y433.057
(part 41)
G1 X-32.004 Y433.057 Z5.235 F200.000
G1 X-31.604 Y433.057 Z5.235 F200.000
G1 X31.796 Y433.057 Z5.235 F200.000
G1 X31.700 Y433.121 Z5.235 F200.000
G1 X-31.900 Y433.121 Z5.235 F200.000
G1 X-32.004 Y433.057 Z5.235 F200.000
(End of step 0.)
(End of layer 11)
(Layer 12 begins)
(Layer transition)
G0 Z10.000
G0 X32.003 Y445.231
(Begin step 0.)
G0 X32.003 Y445.231
(part 1)
G1 X32.003 Y445.231 Z5.088 F200.000
G1 X31.868 Y445.295 Z5.088 F200.000
G1 X24.268 Y445.295 Z5.088 F200.000
G1 X24.093 Y445.237 Z5.088 F200.000
G1 X24.279 Y445.231 Z5.088 F200.000
G1 X32.003 Y445.231 Z5.088 F200.000
(--Break)
G0 Z10.000
G0 X-8.084 Y445.231
(part 3)
G1 X-8.084 Y445.231 Z5.088 F200.000
G1 X-8.257 Y445.295 Z5.088 F200.000
G1 X-32.057 Y445.295 Z5.088 F200.000
G1 X-32.191 Y445.231 Z5.088 F200.000
G1 X-8.084 Y445.231 Z5.088 F200.000
(--Break)
G0 Z10.000
G0 X25.714 Y36.450
(part 5)
G1 X25.714 Y36.450 Z5.088 F200.000
G1 X25.579 Y36.514 Z5.088 F200.000
G1 X4.821 Y36.514 Z5.088 F200.000
G1 X0.868 Y36.514 Z5.099 F200.000
G1 X-2.098 Y36.514 Z5.097 F200.000
G1 X-5.063 Y36.514 Z5.088 F200.000
G1 X-25.821 Y36.514 Z5.088 F200.000
G1 X-25.849 Y36.450 Z5.088 F200.000
G1 X-5.026 Y36.450 Z5.088 F200.000
G1 X-1.059 Y36.450 Z5.099 F200.000
G1 X1.915 Y36.450 Z5.097 F200.000
G1 X4.890 Y36.450 Z5.088 F200.000
G1 X25.714 Y36.450 Z5.088 F200.000
(--Break)
G0 Z10.000
G0 X-26.432 Y70.884
(part 7)
G1 X-26.432 Y70.884 Z5.088 F200.000
G1 X-26.232 Y70.884 Z5.088 F200.000
G1 X-5.192 Y70.884 Z5.088 F200.000
G1 X-0.292 Y70.884 Z5.100 F200.000
G1 X2.648 Y70.884 Z5.096 F200.000
G1 X4.608 Y70.884 Z5.088 F200.000
G1 X26.168 Y70.884 Z5.088 F200.000
G1 X26.184 Y70.948 Z5.088 F200.000
G1 X4.350 Y70.948 Z5.088 F200.000
G1 X0.381 Y70.948 Z5.100 F200.000
G1 X-2.597 Y70.948 Z5.096 F200.000
G1 X-4.582 Y70.948 Z5.088 F200.000
G1 X-26.416 Y70.948 Z5.088 F200.000
G1 X-26.432 Y70.884 Z5.088 F200.000
(--Break)
G0 Z10.000
G0 X26.743 Y103.385
(part 9)
G1 X26.743 Y103.385 Z5.088 F200.000
G1 X26.609 Y103.449 Z5.088 F200.000
G1 X4.697 Y103.449 Z5.088 F200.000
G1 X2.705 Y103.449 Z5.095 F200.000
G1 X-0.283 Y103.449 Z5.100 F200.000
G1 X-5.263 Y103.449 Z5.088 F200.000
G1 X-26.791 Y103.449 Z5.088 F200.000
G1 X-26.932 Y103.391 Z5.088 F200.000
G1 X-26.739 Y103.385 Z5.088 F200.000
G1 X-4.950 Y103.385 Z5.088 F200.000
G1 X0.002 Y103.385 Z5.100 F200.000
G1 X4.954 Y103.385 Z5.088 F200.000
G1 X26.743 Y103.385 Z5.088 F200.000
(--Break)
G0 Z10.000
G0 X27.215 Y134.062
(part 11)
G1 X27.215 Y134.062 Z5.088 F200.000
G1 X27.081 Y134.126 Z5.088 F200.000
G1 X4.332 Y134.126 Z5.088 F200.000
G1 X0.375 Y134.126 Z5.100 F200.000
G1 X-2.592 Y134.126 Z5.096 F200.000
G1 X-4.570 Y134.126 Z5.088 F200.000
G1 X-27.319 Y134.126 Z5.088 F200.000
G1 X-27.354 Y134.062 Z5.088 F200.000
G1 X-4.534 Y134.062 Z5.088 F200.000
G1 X-0.566 Y134.062 Z5.100 F200.000
G1 X2.411 Y134.062 Z5.096 F200.000
G1 X4.395 Y134.062 Z5.088 F200.000
G1 X27.215 Y134.062 Z5.088 F200.000
(--Break)
G0 Z10.000
G0 X27.661 Y163.018
(part 13)
G1 X27.661 Y163.018 Z5.088 F200.000
G1 X27.526 Y163.082 Z5.088 F200.000
G1 X4.855 Y163.082 Z5.088 F200.000
G1 X0.912 Y163.082 Z5.099 F200.000
G1 X-2.045 Y163.082 Z5.098 F200.000
G1 X-5.002 Y163.082 Z5.088 F200.000
G1 X-27.674 Y163.082 Z5.088 F200.000
G1 X-27.850 Y163.059 Z5.088 F200.000
G1 X-27.691 Y163.018 Z5.088 F200.000
G1 X-4.957 Y163.018 Z5.088 F200.000
G1 X-1.003 Y163.018 Z5.099 F200.000
G1 X1.962 Y163.018 Z5.097 F200.000
G1 X4.927 Y163.018 Z5.088 F200.000
G1 X27.661 Y163.018 Z5.088 F200.000
(--Break)
G0 Z10.000
G0 X28.081 Y190.348
(part 15)
G1 X28.081 Y190.348 Z5.088 F200.000
G1 X27.947 Y190.412 Z5.088 F200.000
G1 X4.373 Y190.412 Z5.088 F200.000
G1 X1.407 Y190.412 Z5.099 F200.000
G1 X0.419 Y190.412 Z5.099 F200.000
G1 X-1.559 Y190.412 Z5.099 F200.000
G1 X-4.525 Y190.412 Z5.088 F200.000
G1 X-28.253 Y190.412 Z5.088 F200.000
G1 X-28.152 Y190.348 Z5.088 F200.000
G1 X-5.462 Y190.348 Z5.088 F200.000
G1 X-0.529 Y190.348 Z5.099 F200.000
G1 X1.444 Y190.348 Z5.099 F200.000
G1 X4.404 Y190.348 Z5.088 F200.000
G1 X28.081 Y190.348 Z5.088 F200.000
(--Break)
G0 Z10.000
G0 X28.478 Y216.144
(part 17)
G1 X28.478 Y216.144 Z5.088 F200.000
G1 X28.344 Y216.208 Z5.088 F200.000
G1 X4.344 Y216.208 Z5.088 F200.000
G1 X1.344 Y216.208 Z5.099 F200.000
G1 X0.344 Y216.208 Z5.099 F200.000
G1 X-1.656 Y216.208 Z5.099 F200.000
G1 X-4.656 Y216.208 Z5.088 F200.000
G1 X-28.656 Y216.208 Z5.088 F200.000
G1 X-28.543 Y216.144 Z5.088 F200.000
G1 X-4.948 Y216.144 Z5.088 F200.000
G1 X-1.015 Y216.144 Z5.099 F200.000
G1 X1.934 Y216.144 Z5.097 F200.000
G1 X4.883 Y216.144 Z5.088 F200.000
G1 X28.478 Y216.144 Z5.088 F200.000
(--Break)
G0 Z10.000
G0 X28.853 Y240.493
(part 19)
G1 X28.853 Y240.493 Z5.088 F200.000
G1 X28.718 Y240.557 Z5.088 F200.000
G1 X4.992 Y240.557 Z5.088 F200.000
G1 X0.011 Y240.557 Z5.100 F200.000
G1 X-4.971 Y240.557 Z5.088 F200.000
G1 X-28.882 Y240.557 Z5.088 F200.000
G1 X-29.042 Y240.518 Z5.088 F200.000
G1 X-28.867 Y240.493 Z5.088 F200.000
G1 X-4.983 Y240.493 Z5.088 F200.000
G1 X-0.007 Y240.493 Z5.100 F200.000
G1 X4.969 Y240.493 Z5.088 F200.000
G1 X28.853 Y240.493 Z5.088 F200.000
(--Break)
G0 Z10.000
G0 X29.206 Y263.475
(part 21)
G1 X29.206 Y263.475 Z5.088 F200.000
G1 X29.072 Y263.539 Z5.088 F200.000
G1 X4.326 Y263.539 Z5.088 F200.000
G1 X0.367 Y263.539 Z5.100 F200.000
G1 X-2.603 Y263.539 Z5.096 F200.000
G1 X-4.582 Y263.539 Z5.088 F200.000
G1 X-29.328 Y263.539 Z5.088 F200.000
G1 X-29.327 Y263.475 Z5.088 F200.000
G1 X-4.525 Y263.475 Z5.088 F200.000
G1 X-0.557 Y263.475 Z5.100 F200.000
G1 X2.420 Y263.475 Z5.096 F200.000
G1 X4.404 Y263.475 Z5.088 F200.000
G1 X29.206 Y263.475 Z5.088 F200.000
(--Break)
G0 Z10.000
G0 X29.540 Y285.167
(part 23)
G1 X29.540 Y285.167 Z5.088 F200.000
G1 X29.406 Y285.231 Z5.088 F200.000
G1 X4.406 Y285.231 Z5.088 F200.000
G1 X0.406 Y285.231 Z5.100 F200.000
G1 X-2.594 Y285.231 Z5.096 F200.000
G1 X-4.594 Y285.231 Z5.088 F200.000
G1 X-29.594 Y285.231 Z5.088 F200.000
G1 X-29.729 Y285.167 Z5.088 F200.000
G1 X-5.086 Y285.167 Z5.088 F200.000
G1 X-0.157 Y285.167 Z5.100 F200.000
G1 X4.771 Y285.167 Z5.088 F200.000
G1 X29.540 Y285.167 Z5.088 F200.000
(--Break)
G0 Z10.000
G0 X29.855 Y305.642
(part 25)
G1 X29.855 Y305.642 Z5.088 F200.000
G1 X29.721 Y305.706 Z5.088 F200.000
G1 X4.871 Y305.706 Z5.088 F200.000
G1 X-0.094 Y305.706 Z5.100 F200.000
G1 X-5.058 Y305.706 Z5.088 F200.000
G1 X-29.879 Y305.706 Z5.088 F200.000
G1 X-30.044 Y305.672 Z5.088 F200.000
G1 X-29.874 Y305.642 Z5.088 F200.000
G1 X-4.987 Y305.642 Z5.088 F200.000
G1 X-0.009 Y305.642 Z5.100 F200.000
G1 X4.968 Y305.642 Z5.088 F200.000
G1 X29.855 Y305.642 Z5.088 F200.000
(--Break)
G0 Z10.000
G0 X30.152 Y324.968
(part 27)
G1 X30.152 Y324.968 Z5.088 F200.000
G1 X30.018 Y325.032 Z5.088 F200.000
G1 X4.359 Y325.032 Z5.088 F200.000
G1 X1.398 Y325.032 Z5.099 F200.000
G1 X-1.562 Y325.032 Z5.099 F200.000
G1 X-4.523 Y325.032 Z5.088 F200.000
G1 X-30.182 Y325.032 Z5.088 F200.000
G1 X-30.337 Y324.987 Z5.088 F200.000
G1 X-30.157 Y324.968 Z5.088 F200.000
G1 X-5.440 Y324.968 Z5.088 F200.000
G1 X-1.485 Y324.968 Z5.099 F200.000
G1 X1.481 Y324.968 Z5.099 F200.000
G1 X4.447 Y324.968 Z5.088 F200.000
G1 X30.152 Y324.968 Z5.088 F200.000
(--Break)
G0 Z10.000
G0 X30.433 Y343.209
(part 29)
G1 X30.433 Y343.209 Z5.088 F200.000
G1 X30.299 Y343.273 Z5.088 F200.000
G1 X4.481 Y343.273 Z5.088 F200.000
G1 X1.502 Y343.273 Z5.099 F200.000
G1 X-0.484 Y343.273 Z5.099 F200.000
G1 X-5.449 Y343.273 Z5.088 F200.000
G1 X-30.501 Y343.273 Z5.088 F200.000
G1 X-30.607 Y343.209 Z5.088 F200.000
G1 X-4.699 Y343.209 Z5.088 F200.000
G1 X-1.709 Y343.209 Z5.099 F200.000
G1 X0.284 Y343.209 Z5.099 F200.000
G1 X5.266 Y343.209 Z5.088 F200.000
G1 X30.433 Y343.209 Z5.088 F200.000
(--Break)
G0 Z10.000
G0 X30.698 Y360.426
(part 31)
G1 X30.698 Y360.426 Z5.088 F200.000
G1 X30.563 Y360.490 Z5.088 F200.000
G1 X4.815 Y360.490 Z5.088 F200.000
G1 X0.854 Y360.490 Z5.099 F200.000
G1 X-2.117 Y360.490 Z5.097 F200.000
G1 X-5.088 Y360.490 Z5.088 F200.000
G1 X-30.837 Y360.490 Z5.088 F200.000
G1 X-30.802 Y360.426 Z5.088 F200.000
G1 X-5.012 Y360.426 Z5.088 F200.000
G1 X-1.044 Y360.426 Z5.099 F200.000
G1 X1.932 Y360.426 Z5.097 F200.000
G1 X4.908 Y360.426 Z5.088 F200.000
G1 X30.698 Y360.426 Z5.088 F200.000
(--Break)
G0 Z10.000
G0 X30.948 Y376.677
(part 33)
G1 X30.948 Y376.677 Z5.088 F200.000
G1 X30.813 Y376.741 Z5.088 F200.000
G1 X4.897 Y376.741 Z5.088 F200.000
G1 X0.910 Y376.741 Z5.099 F200.000
G1 X-2.080 Y376.741 Z5.097 F200.000
G1 X-5.070 Y376.741 Z5.088 F200.000
G1 X-30.987 Y376.741 Z5.088 F200.000
G1 X-31.137 Y376.692 Z5.088 F200.000
G1 X-30.952 Y376.677 Z5.088 F200.000
G1 X-4.994 Y376.677 Z5.088 F200.000
G1 X-1.000 Y376.677 Z5.099 F200.000
G1 X1.995 Y376.677 Z5.097 F200.000
G1 X4.990 Y376.677 Z5.088 F200.000
G1 X30.948 Y376.677 Z5.088 F200.000
(--Break)
G0 Z10.000
G0 X-31.373 Y392.016
(part 35)
G1 X-31.373 Y392.016 Z5.088 F200.000
G1 X-31.173 Y392.016 Z5.088 F200.000
G1 X-5.345 Y392.016 Z5.088 F200.000
G1 X-1.413 Y392.016 Z5.099 F200.000
G1 X1.536 Y392.016 Z5.099 F200.000
G1 X4.485 Y392.016 Z5.088 F200.000
G1 X31.027 Y392.016 Z5.088 F200.000
G1 X31.185 Y392.059 Z5.088 F200.000
G1 X31.006 Y392.080 Z5.088 F200.000
G1 X4.349 Y392.080 Z5.088 F200.000
G1 X1.387 Y392.080 Z5.099 F200.000
G1 X0.400 Y392.080 Z5.099 F200.000
G1 X-1.575 Y392.080 Z5.099 F200.000
G1 X-4.537 Y392.080 Z5.088 F200.000
G1 X-31.194 Y392.080 Z5.088 F200.000
G1 X-31.373 Y392.060 Z5.088 F200.000
G1 X-31.373 Y392.016 Z5.088 F200.000
(--Break)
G0 Z10.000
G0 X31.407 Y406.494
(part 37)
G1 X31.407 Y406.494 Z5.088 F200.000
G1 X31.272 Y406.558 Z5.088 F200.000
G1 X4.358 Y406.558 Z5.088 F200.000
G1 X0.371 Y406.558 Z5.100 F200.000
G1 X-2.620 Y406.558 Z5.096 F200.000
G1 X-4.614 Y406.558 Z5.088 F200.000
G1 X-31.528 Y406.558 Z5.088 F200.000
G1 X-31.528 Y406.494 Z5.088 F200.000
G1 X-4.556 Y406.494 Z5.088 F200.000
G1 X-0.560 Y406.494 Z5.100 F200.000
G1 X2.437 Y406.494 Z5.096 F200.000
G1 X4.435 Y406.494 Z5.088 F200.000
G1 X31.407 Y406.494 Z5.088 F200.000
(--Break)
G0 Z10.000
G0 X31.617 Y420.159
(part 39)
G1 X31.617 Y420.159 Z5.088 F200.000
G1 X31.482 Y420.223 Z5.088 F200.000
G1 X4.820 Y420.223 Z5.088 F200.000
G1 X-0.118 Y420.223 Z5.100 F200.000
G1 X-5.055 Y420.223 Z5.088 F200.000
G1 X-31.718 Y420.223 Z5.088 F200.000
G1 X-31.759 Y420.159 Z5.088 F200.000
G1 X-5.022 Y420.159 Z5.088 F200.000
G1 X-0.071 Y420.159 Z5.100 F200.000
G1 X4.880 Y420.159 Z5.088 F200.000
G1 X31.617 Y420.159 Z5.088 F200.000
(--Break)
G0 Z10.000
G0 X-32.004 Y433.057
(part 41)
G1 X-32.004 Y433.057 Z5.088 F200.000
G1 X-31.604 Y433.057 Z5.088 F200.000
G1 X-4.834 Y433.057 Z5.088 F200.000
G1 X-2.854 Y433.057 Z5.096 F200.000
G1 X0.116 Y433.057 Z5.100 F200.000
G1 X5.066 Y433.057 Z5.088 F200.000
G1 X31.796 Y433.057 Z5.088 F200.000
G1 X31.700 Y433.121 Z5.088 F200.000
G1 X4.869 Y433.121 Z5.088 F200.000
G1 X-0.100 Y433.121 Z5.100 F200.000
G1 X-5.069 Y433.121 Z5.088 F200.000
G1 X-31.900 Y433.121 Z5.088 F200.000
G1 X-32.004 Y433.057 Z5.088 F200.000
(End of step 0.)
(End of layer 12)
(Layer 13 begins)
(Layer transition)
G0 Z10.000
G0 X32.003 Y445.231
(Begin step 0.)
G0 X32.003 Y445.231
(part 1)
G1 X32.003 Y445.231 Z4.941 F200.000
G1 X31.868 Y445.295 Z4.941 F200.000
G1 X24.268 Y445.295 Z4.941 F200.000
G1 X24.093 Y445.237 Z4.941 F200.000
G1 X24.279 Y445.231 Z4.941 F200.000
G1 X32.003 Y445.231 Z4.941 F200.000
(--Break)
G0 Z10.000
G0 X-8.084 Y445.231
(part 3)
G1 X-8.084 Y445.231 Z5.061 F200.000
G1 X-8.257 Y445.295 Z5.059 F200.000
G1 X-11.232 Y445.295 Z5.022 F200.000
G1 X-13.216 Y445.295 Z4.991 F200.000
G1 X-15.199 Y445.295 Z4.955 F200.000
G1 X-16.191 Y445.295 Z4.941 F200.000
G1 X-32.057 Y445.295 Z4.941 F200.000
G1 X-32.191 Y445.231 Z4.941 F200.000
G1 X-16.330 Y445.231 Z4.941 F200.000
G1 X-15.338 Y445.231 Z4.952 F200.000
G1 X-13.356 Y445.231 Z4.989 F200.000
G1 X-11.373 Y445.231 Z5.020 F200.000
G1 X-8.084 Y445.231 Z5.061 F200.000
(--Break)
G0 Z10.000
G0 X25.714 Y36.450
(part 5)
G1 X25.714 Y36.450 Z4.941 F200.000
G1 X25.579 Y36.514 Z4.941 F200.000
G1 X15.695 Y36.514 Z4.941 F200.000
G1 X11.741 Y36.514 Z5.011 F200.000
G1 X9.764 Y36.514 Z5.039 F200.000
G1 X6.798 Y36.514 Z5.071 F200.000
G1 X3.833 Y36.514 Z5.090 F200.000
G1 X1.856 Y36.514 Z5.098 F200.000
G1 X-1.109 Y36.514 Z5.099 F200.000
G1 X-4.075 Y36.514 Z5.090 F200.000
G1 X-7.040 Y36.514 Z5.070 F200.000
G1 X-8.029 Y36.514 Z5.060 F200.000
G1 X-10.005 Y36.514 Z5.039 F200.000
G1 X-11.982 Y36.514 Z5.010 F200.000
G1 X-15.936 Y36.514 Z4.941 F200.000
G1 X-25.821 Y36.514 Z4.941 F200.000
G1 X-25.849 Y36.450 Z4.941 F200.000
G1 X-15.933 Y36.450 Z4.941 F200.000
G1 X-11.967 Y36.450 Z5.010 F200.000
G1 X-9.984 Y36.450 Z5.039 F200.000
G1 X-8.001 Y36.450 Z5.061 F200.000
G1 X-7.009 Y36.450 Z5.071 F200.000
G1 X-4.034 Y36.450 Z5.090 F200.000
G1 X-1.059 Y36.450 Z5.099 F200.000
G1 X1.915 Y36.450 Z5.097 F200.000
G1 X3.899 Y36.450 Z5.090 F200.000
G1 X6.873 Y36.450 Z5.070 F200.000
G1 X9.848 Y36.450 Z5.038 F200.000
G1 X11.831 Y36.450 Z5.010 F200.000
G1 X15.798 Y36.450 Z4.941 F200.000
G1 X25.714 Y36.450 Z4.941 F200.000
(--Break)
G0 Z10.000
G0 X-26.432 Y70.884
(part 7)
G1 X-26.432 Y70.884 Z4.941 F200.000
G1 X-26.232 Y70.884 Z4.941 F200.000
G1 X-15.972 Y70.884 Z4.941 F200.000
G1 X-11.072 Y70.884 Z5.024 F200.000
G1 X-8.132 Y70.884 Z5.060 F200.000
G1 X-5.192 Y70.884 Z5.084 F200.000
G1 X-3.232 Y70.884 Z5.094 F200.000
G1 X-0.292 Y70.884 Z5.100 F200.000
G1 X3.628 Y70.884 Z5.091 F200.000
G1 X5.588 Y70.884 Z5.080 F200.000
G1 X7.548 Y70.884 Z5.063 F200.000
G1 X11.468 Y70.884 Z5.015 F200.000
G1 X13.428 Y70.884 Z4.984 F200.000
G1 X15.388 Y70.884 Z4.947 F200.000
G1 X16.368 Y70.884 Z4.941 F200.000
G1 X26.168 Y70.884 Z4.941 F200.000
G1 X26.184 Y70.948 Z4.941 F200.000
G1 X16.260 Y70.948 Z4.941 F200.000
G1 X15.267 Y70.948 Z4.949 F200.000
G1 X13.282 Y70.948 Z4.987 F200.000
G1 X11.298 Y70.948 Z5.018 F200.000
G1 X8.320 Y70.948 Z5.056 F200.000
G1 X5.343 Y70.948 Z5.082 F200.000
G1 X3.358 Y70.948 Z5.093 F200.000
G1 X-0.612 Y70.948 Z5.100 F200.000
G1 X-2.597 Y70.948 Z5.096 F200.000
G1 X-5.574 Y70.948 Z5.082 F200.000
G1 X-8.551 Y70.948 Z5.055 F200.000
G1 X-11.529 Y70.948 Z5.017 F200.000
G1 X-13.514 Y70.948 Z4.986 F200.000
G1 X-15.499 Y70.948 Z4.948 F200.000
G1 X-16.491 Y70.948 Z4.941 F200.000
G1 X-26.416 Y70.948 Z4.941 F200.000
G1 X-26.432 Y70.884 Z4.941 F200.000
(--Break)
G0 Z10.000
G0 X26.743 Y103.385
(part 9)
G1 X26.743 Y103.385 Z4.941 F200.000
G1 X26.609 Y103.449 Z4.941 F200.000
G1 X15.653 Y103.449 Z4.941 F200.000
G1 X13.661 Y103.449 Z4.980 F200.000
G1 X11.669 Y103.449 Z5.012 F200.000
G1 X7.685 Y103.449 Z5.062 F200.000
G1 X5.693 Y103.449 Z5.080 F200.000
G1 X3.701 Y103.449 Z5.091 F200.000
G1 X-0.283 Y103.449 Z5.100 F200.000
G1 X-3.271 Y103.449 Z5.094 F200.000
G1 X-6.259 Y103.449 Z5.076 F200.000
G1 X-8.251 Y103.449 Z5.059 F200.000
G1 X-11.239 Y103.449 Z5.022 F200.000
G1 X-15.223 Y103.449 Z4.954 F200.000
G1 X-16.219 Y103.449 Z4.941 F200.000
G1 X-26.791 Y103.449 Z4.941 F200.000
G1 X-26.932 Y103.391 Z4.941 F200.000
G1 X-26.739 Y103.385 Z4.941 F200.000
G1 X-15.844 Y103.385 Z4.941 F200.000
G1 X-13.863 Y103.385 Z4.980 F200.000
G1 X-11.882 Y103.385 Z5.012 F200.000
G1 X-7.921 Y103.385 Z5.062 F200.000
G1 X-5.940 Y103.385 Z5.079 F200.000
G1 X-2.969 Y103.385 Z5.095 F200.000
G1 X0.002 Y103.385 Z5.100 F200.000
G1 X2.974 Y103.385 Z5.095 F200.000
G1 X5.945 Y103.385 Z5.077 F200.000
G1 X7.926 Y103.385 Z5.060 F200.000
G1 X10.897 Y103.385 Z5.024 F200.000
G1 X15.849 Y103.385 Z4.941 F200.000
G1 X26.743 Y103.385 Z4.941 F200.000
(--Break)
G0 Z10.000
G0 X27.215 Y134.062
(part 11)
G1 X27.215 Y134.062 Z4.941 F200.000
G1 X27.081 Y134.126 Z4.941 F200.000
G1 X16.201 Y134.126 Z4.941 F200.000
G1 X15.212 Y134.126 Z4.950 F200.000
G1 X11.255 Y134.126 Z5.019 F200.000
G1 X8.288 Y134.126 Z5.056 F200.000
G1 X5.321 Y134.126 Z5.082 F200.000
G1 X3.343 Y134.126 Z5.093 F200.000
G1 X-0.614 Y134.126 Z5.100 F200.000
G1 X-3.581 Y134.126 Z5.092 F200.000
G1 X-5.559 Y134.126 Z5.082 F200.000
G1 X-8.526 Y134.126 Z5.056 F200.000
G1 X-11.494 Y134.126 Z5.018 F200.000
G1 X-15.450 Y134.126 Z4.949 F200.000
G1 X-16.439 Y134.126 Z4.941 F200.000
G1 X-27.319 Y134.126 Z4.941 F200.000
G1 X-27.354 Y134.062 Z4.941 F200.000
G1 X-16.440 Y134.062 Z4.941 F200.000
G1 X-15.448 Y134.062 Z4.949 F200.000
G1 X-11.480 Y134.062 Z5.018 F200.000
G1 X-8.503 Y134.062 Z5.056 F200.000
G1 X-5.527 Y134.062 Z5.082 F200.000
G1 X-3.542 Y134.062 Z5.093 F200.000
G1 X-0.566 Y134.062 Z5.100 F200.000
G1 X3.403 Y134.062 Z5.092 F200.000
G1 X5.387 Y134.062 Z5.082 F200.000
G1 X8.364 Y134.062 Z5.056 F200.000
G1 X11.341 Y134.062 Z5.018 F200.000
G1 X15.309 Y134.062 Z4.948 F200.000
G1 X16.301 Y134.062 Z4.941 F200.000
G1 X27.215 Y134.062 Z4.941 F200.000
(--Break)
G0 Z10.000
G0 X27.661 Y163.018
(part 13)
G1 X27.661 Y163.018 Z4.941 F200.000
G1 X27.526 Y163.082 Z4.941 F200.000
G1 X15.698 Y163.082 Z4.941 F200.000
G1 X11.755 Y163.082 Z5.011 F200.000
G1 X9.783 Y163.082 Z5.039 F200.000
G1 X6.826 Y163.082 Z5.071 F200.000
G1 X3.869 Y163.082 Z5.091 F200.000
G1 X1.898 Y163.082 Z5.097 F200.000
G1 X-1.059 Y163.082 Z5.099 F200.000
G1 X-5.002 Y163.082 Z5.085 F200.000
G1 X-6.974 Y163.082 Z5.071 F200.000
G1 X-8.945 Y163.082 Z5.051 F200.000
G1 X-11.902 Y163.082 Z5.012 F200.000
G1 X-14.859 Y163.082 Z4.961 F200.000
G1 X-15.845 Y163.082 Z4.941 F200.000
G1 X-27.674 Y163.082 Z4.941 F200.000
G1 X-27.850 Y163.059 Z4.941 F200.000
G1 X-27.691 Y163.018 Z4.941 F200.000
G1 X-15.830 Y163.018 Z4.942 F200.000
G1 X-14.841 Y163.018 Z4.962 F200.000
G1 X-11.876 Y163.018 Z5.012 F200.000
G1 X-8.911 Y163.018 Z5.051 F200.000
G1 X-6.934 Y163.018 Z5.071 F200.000
G1 X-4.957 Y163.018 Z5.085 F200.000
G1 X-1.003 Y163.018 Z5.099 F200.000
G1 X1.962 Y163.018 Z5.097 F200.000
G1 X3.939 Y163.018 Z5.090 F200.000
G1 X6.904 Y163.018 Z5.070 F200.000
G1 X9.869 Y163.018 Z5.038 F200.000
G1 X11.846 Y163.018 Z5.010 F200.000
G1 X15.800 Y163.018 Z4.941 F200.000
G1 X27.661 Y163.018 Z4.941 F200.000
(--Break)
G0 Z10.000
G0 X28.081 Y190.348
(part 15)
G1 X28.081 Y190.348 Z4.941 F200.000
G1 X27.947 Y190.412 Z4.941 F200.000
G1 X16.237 Y190.412 Z4.941 F200.000
G1 X15.249 Y190.412 Z4.950 F200.000
G1 X12.283 Y190.412 Z5.003 F200.000
G1 X10.305 Y190.412 Z5.032 F200.000
G1 X7.339 Y190.412 Z5.066 F200.000
G1 X4.373 Y190.412 Z5.088 F200.000
G1 X1.407 Y190.412 Z5.099 F200.000
G1 X0.419 Y190.412 Z5.099 F200.000
G1 X-1.559 Y190.412 Z5.099 F200.000
G1 X-4.525 Y190.412 Z5.088 F200.000
G1 X-7.491 Y190.412 Z5.066 F200.000
G1 X-10.457 Y190.412 Z5.032 F200.000
G1 X-12.434 Y190.412 Z5.004 F200.000
G1 X-15.400 Y190.412 Z4.951 F200.000
G1 X-16.389 Y190.412 Z4.941 F200.000
G1 X-28.253 Y190.412 Z4.941 F200.000
G1 X-28.152 Y190.348 Z4.941 F200.000
G1 X-16.314 Y190.348 Z4.941 F200.000
G1 X-15.327 Y190.348 Z4.953 F200.000
G1 X-12.367 Y190.348 Z5.005 F200.000
G1 X-10.394 Y190.348 Z5.033 F200.000
G1 X-7.435 Y190.348 Z5.067 F200.000
G1 X-4.475 Y190.348 Z5.089 F200.000
G1 X-1.515 Y190.348 Z5.099 F200.000
G1 X1.444 Y190.348 Z5.099 F200.000
G1 X3.417 Y190.348 Z5.092 F200.000
G1 X4.404 Y190.348 Z5.088 F200.000
G1 X7.364 Y190.348 Z5.065 F200.000
G1 X10.323 Y190.348 Z5.031 F200.000
G1 X12.296 Y190.348 Z5.003 F200.000
G1 X15.256 Y190.348 Z4.950 F200.000
G1 X16.243 Y190.348 Z4.941 F200.000
G1 X28.081 Y190.348 Z4.941 F200.000
(--Break)
G0 Z10.000
G0 X28.478 Y216.144
(part 17)
G1 X28.478 Y216.144 Z4.941 F200.000
G1 X28.344 Y216.208 Z4.941 F200.000
G1 X16.344 Y216.208 Z4.941 F200.000
G1 X15.344 Y216.208 Z4.948 F200.000
G1 X12.344 Y216.208 Z5.002 F200.000
G1 X10.344 Y216.208 Z5.031 F200.000
G1 X7.344 Y216.208 Z5.066 F200.000
G1 X4.344 Y216.208 Z5.088 F200.000
G1 X1.344 Y216.208 Z5.099 F200.000
G1 X0.344 Y216.208 Z5.099 F200.000
G1 X-1.656 Y216.208 Z5.099 F200.000
G1 X-4.656 Y216.208 Z5.087 F200.000
G1 X-7.656 Y216.208 Z5.064 F200.000
G1 X-9.656 Y216.208 Z5.043 F200.000
G1 X-12.656 Y216.208 Z5.000 F200.000
G1 X-15.656 Y216.208 Z4.946 F200.000
G1 X-16.656 Y216.208 Z4.941 F200.000
G1 X-28.656 Y216.208 Z4.941 F200.000
G1 X-28.543 Y216.144 Z4.941 F200.000
G1 X-15.762 Y216.144 Z4.944 F200.000
G1 X-12.813 Y216.144 Z4.998 F200.000
G1 X-9.864 Y216.144 Z5.040 F200.000
G1 X-7.897 Y216.144 Z5.062 F200.000
G1 X-4.948 Y216.144 Z5.085 F200.000
G1 X-1.015 Y216.144 Z5.099 F200.000
G1 X1.934 Y216.144 Z5.097 F200.000
G1 X3.900 Y216.144 Z5.090 F200.000
G1 X6.849 Y216.144 Z5.070 F200.000
G1 X9.799 Y216.144 Z5.039 F200.000
G1 X11.765 Y216.144 Z5.011 F200.000
G1 X15.698 Y216.144 Z4.941 F200.000
G1 X28.478 Y216.144 Z4.941 F200.000
(--Break)
G0 Z10.000
G0 X28.853 Y240.493
(part 19)
G1 X28.853 Y240.493 Z4.941 F200.000
G1 X28.718 Y240.557 Z4.941 F200.000
G1 X15.952 Y240.557 Z4.941 F200.000
G1 X10.970 Y240.557 Z5.023 F200.000
G1 X7.981 Y240.557 Z5.060 F200.000
G1 X4.992 Y240.557 Z5.084 F200.000
G1 X3.000 Y240.557 Z5.094 F200.000
G1 X0.011 Y240.557 Z5.100 F200.000
G1 X-2.978 Y240.557 Z5.095 F200.000
G1 X-5.967 Y240.557 Z5.079 F200.000
G1 X-7.960 Y240.557 Z5.061 F200.000
G1 X-10.948 Y240.557 Z5.026 F200.000
G1 X-13.937 Y240.557 Z4.978 F200.000
G1 X-15.930 Y240.557 Z4.941 F200.000
G1 X-28.882 Y240.557 Z4.941 F200.000
G1 X-29.042 Y240.518 Z4.941 F200.000
G1 X-28.867 Y240.493 Z4.941 F200.000
G1 X-15.930 Y240.493 Z4.941 F200.000
G1 X-13.939 Y240.493 Z4.978 F200.000
G1 X-10.954 Y240.493 Z5.026 F200.000
G1 X-7.968 Y240.493 Z5.061 F200.000
G1 X-5.978 Y240.493 Z5.079 F200.000
G1 X-2.992 Y240.493 Z5.095 F200.000
G1 X-0.007 Y240.493 Z5.100 F200.000
G1 X2.979 Y240.493 Z5.094 F200.000
G1 X4.969 Y240.493 Z5.084 F200.000
G1 X7.954 Y240.493 Z5.060 F200.000
G1 X10.940 Y240.493 Z5.023 F200.000
G1 X15.916 Y240.493 Z4.941 F200.000
G1 X28.853 Y240.493 Z4.941 F200.000
(--Break)
G0 Z10.000
G0 X29.206 Y263.475
(part 21)
G1 X29.206 Y263.475 Z4.941 F200.000
G1 X29.072 Y263.539 Z4.941 F200.000
G1 X16.204 Y263.539 Z4.941 F200.000
G1 X15.214 Y263.539 Z4.950 F200.000
G1 X13.235 Y263.539 Z4.987 F200.000
G1 X11.255 Y263.539 Z5.019 F200.000
G1 X8.285 Y263.539 Z5.057 F200.000
G1 X5.316 Y263.539 Z5.082 F200.000
G1 X3.336 Y263.539 Z5.093 F200.000
G1 X0.367 Y263.539 Z5.100 F200.000
G1 X-3.593 Y263.539 Z5.092 F200.000
G1 X-5.572 Y263.539 Z5.082 F200.000
G1 X-8.542 Y263.539 Z5.056 F200.000
G1 X-11.511 Y263.539 Z5.018 F200.000
G1 X-13.491 Y263.539 Z4.986 F200.000
G1 X-15.471 Y263.539 Z4.949 F200.000
G1 X-16.460 Y263.539 Z4.941 F200.000
G1 X-29.328 Y263.539 Z4.941 F200.000
G1 X-29.327 Y263.475 Z4.941 F200.000
G1 X-16.430 Y263.475 Z4.941 F200.000
G1 X-15.438 Y263.475 Z4.949 F200.000
G1 X-13.454 Y263.475 Z4.987 F200.000
G1 X-11.470 Y263.475 Z5.018 F200.000
G1 X-8.493 Y263.475 Z5.056 F200.000
G1 X-5.517 Y263.475 Z5.082 F200.000
G1 X-2.541 Y263.475 Z5.096 F200.000
G1 X-0.557 Y263.475 Z5.100 F200.000
G1 X3.412 Y263.475 Z5.092 F200.000
G1 X5.396 Y263.475 Z5.082 F200.000
G1 X8.372 Y263.475 Z5.055 F200.000
G1 X11.349 Y263.475 Z5.017 F200.000
G1 X13.333 Y263.475 Z4.986 F200.000
G1 X15.317 Y263.475 Z4.948 F200.000
G1 X16.309 Y263.475 Z4.941 F200.000
G1 X29.206 Y263.475 Z4.941 F200.000
(--Break)
G0 Z10.000
G0 X29.540 Y285.167
(part 23)
G1 X29.540 Y285.167 Z4.941 F200.000
G1 X29.406 Y285.231 Z4.941 F200.000
G1 X16.406 Y285.231 Z4.941 F200.000
G1 X15.406 Y285.231 Z4.946 F200.000
G1 X13.406 Y285.231 Z4.984 F200.000
G1 X11.406 Y285.231 Z5.016 F200.000
G1 X8.406 Y285.231 Z5.055 F200.000
G1 X5.406 Y285.231 Z5.082 F200.000
G1 X3.406 Y285.231 Z5.092 F200.000
G1 X-0.594 Y285.231 Z5.100 F200.000
G1 X-2.594 Y285.231 Z5.096 F200.000
G1 X-5.594 Y285.231 Z5.082 F200.000
G1 X-8.594 Y285.231 Z5.055 F200.000
G1 X-11.594 Y285.231 Z5.016 F200.000
G1 X-13.594 Y285.231 Z4.984 F200.000
G1 X-15.594 Y285.231 Z4.946 F200.000
G1 X-16.594 Y285.231 Z4.941 F200.000
G1 X-29.594 Y285.231 Z4.941 F200.000
G1 X-29.729 Y285.167 Z4.941 F200.000
G1 X-15.929 Y285.167 Z4.941 F200.000
G1 X-13.957 Y285.167 Z4.978 F200.000
G1 X-11.000 Y285.167 Z5.025 F200.000
G1 X-8.043 Y285.167 Z5.060 F200.000
G1 X-6.071 Y285.167 Z5.078 F200.000
G1 X-3.114 Y285.167 Z5.095 F200.000
G1 X-0.157 Y285.167 Z5.100 F200.000
G1 X2.800 Y285.167 Z5.095 F200.000
G1 X5.757 Y285.167 Z5.079 F200.000
G1 X7.729 Y285.167 Z5.062 F200.000
G1 X11.671 Y285.167 Z5.012 F200.000
G1 X13.643 Y285.167 Z4.980 F200.000
G1 X15.614 Y285.167 Z4.942 F200.000
G1 X29.540 Y285.167 Z4.941 F200.000
(--Break)
G0 Z10.000
G0 X29.855 Y305.642
(part 25)
G1 X29.855 Y305.642 Z4.941 F200.000
G1 X29.721 Y305.706 Z4.941 F200.000
G1 X15.792 Y305.706 Z4.941 F200.000
G1 X13.806 Y305.706 Z4.978 F200.000
G1 X10.828 Y305.706 Z5.025 F200.000
G1 X7.849 Y305.706 Z5.060 F200.000
G1 X5.863 Y305.706 Z5.078 F200.000
G1 X2.885 Y305.706 Z5.095 F200.000
G1 X-0.094 Y305.706 Z5.100 F200.000
G1 X-3.072 Y305.706 Z5.095 F200.000
G1 X-6.051 Y305.706 Z5.078 F200.000
G1 X-8.037 Y305.706 Z5.060 F200.000
G1 X-11.015 Y305.706 Z5.025 F200.000
G1 X-13.994 Y305.706 Z4.978 F200.000
G1 X-15.979 Y305.706 Z4.941 F200.000
G1 X-29.879 Y305.706 Z4.941 F200.000
G1 X-30.044 Y305.672 Z4.941 F200.000
G1 X-29.874 Y305.642 Z4.941 F200.000
G1 X-15.937 Y305.642 Z4.941 F200.000
G1 X-11.955 Y305.642 Z5.011 F200.000
G1 X-7.973 Y305.642 Z5.061 F200.000
G1 X-5.982 Y305.642 Z5.079 F200.000
G1 X-2.996 Y305.642 Z5.095 F200.000
G1 X-0.009 Y305.642 Z5.100 F200.000
G1 X2.977 Y305.642 Z5.095 F200.000
G1 X5.964 Y305.642 Z5.077 F200.000
G1 X7.955 Y305.642 Z5.059 F200.000
G1 X10.941 Y305.642 Z5.023 F200.000
G1 X15.918 Y305.642 Z4.941 F200.000
G1 X29.855 Y305.642 Z4.941 F200.000
(--Break)
G0 Z10.000
G0 X30.152 Y324.968
(part 27)
G1 X30.152 Y324.968 Z4.941 F200.000
G1 X30.018 Y325.032 Z4.941 F200.000
G1 X16.201 Y325.032 Z4.941 F200.000
G1 X15.215 Y325.032 Z4.951 F200.000
G1 X12.254 Y325.032 Z5.004 F200.000
G1 X11.267 Y325.032 Z5.018 F200.000
G1 X9.293 Y325.032 Z5.045 F200.000
G1 X7.320 Y325.032 Z5.066 F200.000
G1 X3.372 Y325.032 Z5.092 F200.000
G1 X1.398 Y325.032 Z5.099 F200.000
G1 X-1.562 Y325.032 Z5.099 F200.000
G1 X-4.523 Y325.032 Z5.088 F200.000
G1 X-6.497 Y325.032 Z5.074 F200.000
G1 X-9.458 Y325.032 Z5.045 F200.000
G1 X-12.418 Y325.032 Z5.004 F200.000
G1 X-15.379 Y325.032 Z4.951 F200.000
G1 X-16.366 Y325.032 Z4.941 F200.000
G1 X-30.182 Y325.032 Z4.941 F200.000
G1 X-30.337 Y324.987 Z4.941 F200.000
G1 X-30.157 Y324.968 Z4.941 F200.000
G1 X-16.315 Y324.968 Z4.941 F200.000
G1 X-15.327 Y324.968 Z4.952 F200.000
G1 X-12.361 Y324.968 Z5.005 F200.000
G1 X-9.395 Y324.968 Z5.046 F200.000
G1 X-7.417 Y324.968 Z5.067 F200.000
G1 X-4.451 Y324.968 Z5.089 F200.000
G1 X-1.485 Y324.968 Z5.099 F200.000
G1 X1.481 Y324.968 Z5.099 F200.000
G1 X4.447 Y324.968 Z5.087 F200.000
G1 X6.424 Y324.968 Z5.074 F200.000
G1 X9.390 Y324.968 Z5.044 F200.000
G1 X12.356 Y324.968 Z5.002 F200.000
G1 X15.322 Y324.968 Z4.948 F200.000
G1 X16.311 Y324.968 Z4.941 F200.000
G1 X30.152 Y324.968 Z4.941 F200.000
(--Break)
G0 Z10.000
G0 X30.433 Y343.209
(part 29)
G1 X30.433 Y343.209 Z4.941 F200.000
G1 X30.299 Y343.273 Z4.941 F200.000
G1 X16.397 Y343.273 Z4.941 F200.000
G1 X15.404 Y343.273 Z4.947 F200.000
G1 X12.425 Y343.273 Z5.001 F200.000
G1 X9.446 Y343.273 Z5.043 F200.000
G1 X6.467 Y343.273 Z5.073 F200.000
G1 X4.481 Y343.273 Z5.087 F200.000
G1 X1.502 Y343.273 Z5.099 F200.000
G1 X-1.477 Y343.273 Z5.099 F200.000
G1 X-4.456 Y343.273 Z5.089 F200.000
G1 X-7.435 Y343.273 Z5.066 F200.000
G1 X-9.421 Y343.273 Z5.045 F200.000
G1 X-12.400 Y343.273 Z5.005 F200.000
G1 X-15.379 Y343.273 Z4.951 F200.000
G1 X-16.372 Y343.273 Z4.941 F200.000
G1 X-30.501 Y343.273 Z4.941 F200.000
G1 X-30.607 Y343.209 Z4.941 F200.000
G1 X-16.657 Y343.209 Z4.941 F200.000
G1 X-15.660 Y343.209 Z4.945 F200.000
G1 X-11.674 Y343.209 Z5.015 F200.000
G1 X-9.681 Y343.209 Z5.043 F200.000
G1 X-7.688 Y343.209 Z5.064 F200.000
G1 X-3.702 Y343.209 Z5.092 F200.000
G1 X-1.709 Y343.209 Z5.099 F200.000
G1 X0.284 Y343.209 Z5.099 F200.000
G1 X1.280 Y343.209 Z5.099 F200.000
G1 X4.270 Y343.209 Z5.089 F200.000
G1 X7.259 Y343.209 Z5.066 F200.000
G1 X10.249 Y343.209 Z5.032 F200.000
G1 X12.242 Y343.209 Z5.004 F200.000
G1 X15.231 Y343.209 Z4.950 F200.000
G1 X16.228 Y343.209 Z4.941 F200.000
G1 X30.433 Y343.209 Z4.941 F200.000
(--Break)
G0 Z10.000
G0 X30.698 Y360.426
(part 31)
G1 X30.698 Y360.426 Z4.941 F200.000
G1 X30.563 Y360.490 Z4.941 F200.000
G1 X15.709 Y360.490 Z4.941 F200.000
G1 X11.747 Y360.490 Z5.011 F200.000
G1 X9.767 Y360.490 Z5.039 F200.000
G1 X7.786 Y360.490 Z5.061 F200.000
G1 X6.796 Y360.490 Z5.071 F200.000
G1 X3.825 Y360.490 Z5.091 F200.000
G1 X0.854 Y360.490 Z5.099 F200.000
G1 X-2.117 Y360.490 Z5.097 F200.000
G1 X-4.098 Y360.490 Z5.090 F200.000
G1 X-7.069 Y360.490 Z5.070 F200.000
G1 X-10.040 Y360.490 Z5.038 F200.000
G1 X-12.020 Y360.490 Z5.010 F200.000
G1 X-15.982 Y360.490 Z4.941 F200.000
G1 X-30.837 Y360.490 Z4.941 F200.000
G1 X-30.802 Y360.426 Z4.941 F200.000
G1 X-15.923 Y360.426 Z4.941 F200.000
G1 X-11.955 Y360.426 Z5.011 F200.000
G1 X-9.971 Y360.426 Z5.039 F200.000
G1 X-7.988 Y360.426 Z5.061 F200.000
G1 X-6.996 Y360.426 Z5.071 F200.000
G1 X-4.020 Y360.426 Z5.091 F200.000
G1 X-1.044 Y360.426 Z5.099 F200.000
G1 X1.932 Y360.426 Z5.097 F200.000
G1 X3.916 Y360.426 Z5.090 F200.000
G1 X6.891 Y360.426 Z5.070 F200.000
G1 X9.867 Y360.426 Z5.038 F200.000
G1 X11.851 Y360.426 Z5.010 F200.000
G1 X15.819 Y360.426 Z4.941 F200.000
G1 X30.698 Y360.426 Z4.941 F200.000
(--Break)
G0 Z10.000
G0 X30.948 Y376.677
(part 33)
G1 X30.948 Y376.677 Z4.941 F200.000
G1 X30.813 Y376.741 Z4.941 F200.000
G1 X15.862 Y376.741 Z4.941 F200.000
G1 X11.875 Y376.741 Z5.009 F200.000
G1 X9.881 Y376.741 Z5.038 F200.000
G1 X6.891 Y376.741 Z5.070 F200.000
G1 X3.901 Y376.741 Z5.090 F200.000
G1 X1.907 Y376.741 Z5.097 F200.000
G1 X-1.083 Y376.741 Z5.099 F200.000
G1 X-4.074 Y376.741 Z5.090 F200.000
G1 X-7.064 Y376.741 Z5.070 F200.000
G1 X-8.061 Y376.741 Z5.060 F200.000
G1 X-10.054 Y376.741 Z5.038 F200.000
G1 X-12.048 Y376.741 Z5.009 F200.000
G1 X-16.035 Y376.741 Z4.941 F200.000
G1 X-30.987 Y376.741 Z4.941 F200.000
G1 X-31.137 Y376.692 Z4.941 F200.000
G1 X-30.952 Y376.677 Z4.941 F200.000
G1 X-15.976 Y376.677 Z4.941 F200.000
G1 X-11.983 Y376.677 Z5.010 F200.000
G1 X-9.986 Y376.677 Z5.039 F200.000
G1 X-7.989 Y376.677 Z5.061 F200.000
G1 X-6.991 Y376.677 Z5.071 F200.000
G1 X-3.996 Y376.677 Z5.091 F200.000
G1 X-1.000 Y376.677 Z5.099 F200.000
G1 X1.995 Y376.677 Z5.097 F200.000
G1 X3.991 Y376.677 Z5.090 F200.000
G1 X6.987 Y376.677 Z5.069 F200.000
G1 X9.982 Y376.677 Z5.036 F200.000
G1 X11.979 Y376.677 Z5.008 F200.000
G1 X15.972 Y376.677 Z4.941 F200.000
G1 X30.948 Y376.677 Z4.941 F200.000
(--Break)
G0 Z10.000
G0 X-31.373 Y392.016
(part 35)
G1 X-31.373 Y392.016 Z4.941 F200.000
G1 X-31.173 Y392.016 Z4.941 F200.000
G1 X-16.159 Y392.016 Z4.941 F200.000
G1 X-12.227 Y392.016 Z5.007 F200.000
G1 X-10.261 Y392.016 Z5.035 F200.000
G1 X-7.312 Y392.016 Z5.068 F200.000
G1 X-4.362 Y392.016 Z5.089 F200.000
G1 X-2.396 Y392.016 Z5.096 F200.000
G1 X1.536 Y392.016 Z5.099 F200.000
G1 X4.485 Y392.016 Z5.087 F200.000
G1 X7.434 Y392.016 Z5.065 F200.000
G1 X10.383 Y392.016 Z5.030 F200.000
G1 X12.349 Y392.016 Z5.002 F200.000
G1 X15.299 Y392.016 Z4.949 F200.000
G1 X16.282 Y392.016 Z4.941 F200.000
G1 X31.027 Y392.016 Z4.941 F200.000
G1 X31.185 Y392.059 Z4.941 F200.000
G1 X31.006 Y392.080 Z4.941 F200.000
G1 X16.196 Y392.080 Z4.941 F200.000
G1 X15.209 Y392.080 Z4.951 F200.000
G1 X12.247 Y392.080 Z5.004 F200.000
G1 X10.273 Y392.080 Z5.032 F200.000
G1 X7.311 Y392.080 Z5.066 F200.000
G1 X4.349 Y392.080 Z5.088 F200.000
G1 X3.361 Y392.080 Z5.092 F200.000
G1 X1.387 Y392.080 Z5.099 F200.000
G1 X-1.575 Y392.080 Z5.099 F200.000
G1 X-4.537 Y392.080 Z5.088 F200.000
G1 X-7.499 Y392.080 Z5.066 F200.000
G1 X-10.461 Y392.080 Z5.032 F200.000
G1 X-12.435 Y392.080 Z5.004 F200.000
G1 X-15.397 Y392.080 Z4.951 F200.000
G1 X-16.385 Y392.080 Z4.941 F200.000
G1 X-31.194 Y392.080 Z4.941 F200.000
G1 X-31.373 Y392.060 Z4.941 F200.000
G1 X-31.373 Y392.016 Z4.941 F200.000
(--Break)
G0 Z10.000
G0 X31.407 Y406.494
(part 37)
G1 X31.407 Y406.494 Z4.941 F200.000
G1 X31.272 Y406.558 Z4.941 F200.000
G1 X16.320 Y406.558 Z4.941 F200.000
G1 X15.323 Y406.558 Z4.948 F200.000
G1 X13.329 Y406.558 Z4.986 F200.000
G1 X10.339 Y406.558 Z5.031 F200.000
G1 X7.348 Y406.558 Z5.065 F200.000
G1 X5.355 Y406.558 Z5.082 F200.000
G1 X3.361 Y406.558 Z5.092 F200.000
G1 X-0.626 Y406.558 Z5.100 F200.000
G1 X-2.620 Y406.558 Z5.096 F200.000
G1 X-5.610 Y406.558 Z5.082 F200.000
G1 X-8.601 Y406.558 Z5.055 F200.000
G1 X-11.591 Y406.558 Z5.016 F200.000
G1 X-13.585 Y406.558 Z4.985 F200.000
G1 X-15.579 Y406.558 Z4.947 F200.000
G1 X-16.575 Y406.558 Z4.941 F200.000
G1 X-31.528 Y406.558 Z4.941 F200.000
G1 X-31.528 Y406.494 Z4.941 F200.000
G1 X-16.544 Y406.494 Z4.941 F200.000
G1 X-15.545 Y406.494 Z4.947 F200.000
G1 X-13.547 Y406.494 Z4.986 F200.000
G1 X-11.549 Y406.494 Z5.017 F200.000
G1 X-8.552 Y406.494 Z5.055 F200.000
G1 X-5.555 Y406.494 Z5.082 F200.000
G1 X-2.558 Y406.494 Z5.096 F200.000
G1 X-0.560 Y406.494 Z5.100 F200.000
G1 X3.436 Y406.494 Z5.092 F200.000
G1 X5.434 Y406.494 Z5.082 F200.000
G1 X7.431 Y406.494 Z5.064 F200.000
G1 X11.427 Y406.494 Z5.016 F200.000
G1 X13.425 Y406.494 Z4.984 F200.000
G1 X15.423 Y406.494 Z4.946 F200.000
G1 X16.422 Y406.494 Z4.941 F200.000
G1 X31.407 Y406.494 Z4.941 F200.000
(--Break)
G0 Z10.000
G0 X31.617 Y420.159
(part 39)
G1 X31.617 Y420.159 Z4.941 F200.000
G1 X31.482 Y420.223 Z4.941 F200.000
G1 X15.682 Y420.223 Z4.941 F200.000
G1 X13.707 Y420.223 Z4.979 F200.000
G1 X10.745 Y420.223 Z5.026 F200.000
G1 X7.782 Y420.223 Z5.061 F200.000
G1 X5.807 Y420.223 Z5.079 F200.000
G1 X2.845 Y420.223 Z5.095 F200.000
G1 X-0.118 Y420.223 Z5.100 F200.000
G1 X-3.080 Y420.223 Z5.095 F200.000
G1 X-6.043 Y420.223 Z5.078 F200.000
G1 X-8.018 Y420.223 Z5.061 F200.000
G1 X-10.980 Y420.223 Z5.026 F200.000
G1 X-13.943 Y420.223 Z4.978 F200.000
G1 X-15.918 Y420.223 Z4.941 F200.000
G1 X-31.718 Y420.223 Z4.941 F200.000
G1 X-31.759 Y420.159 Z4.941 F200.000
G1 X-15.915 Y420.159 Z4.941 F200.000
G1 X-13.934 Y420.159 Z4.978 F200.000
G1 X-10.964 Y420.159 Z5.026 F200.000
G1 X-7.993 Y420.159 Z5.061 F200.000
G1 X-6.013 Y420.159 Z5.078 F200.000
G1 X-3.042 Y420.159 Z5.095 F200.000
G1 X-0.071 Y420.159 Z5.100 F200.000
G1 X2.900 Y420.159 Z5.095 F200.000
G1 X5.870 Y420.159 Z5.078 F200.000
G1 X7.851 Y420.159 Z5.061 F200.000
G1 X10.822 Y420.159 Z5.025 F200.000
G1 X13.792 Y420.159 Z4.977 F200.000
G1 X15.773 Y420.159 Z4.941 F200.000
G1 X31.617 Y420.159 Z4.941 F200.000
(--Break)
G0 Z10.000
G0 X-32.004 Y433.057
(part 41)
G1 X-32.004 Y433.057 Z4.941 F200.000
G1 X-31.604 Y433.057 Z4.941 F200.000
G1 X-16.714 Y433.057 Z4.941 F200.000
G1 X-15.724 Y433.057 Z4.944 F200.000
G1 X-13.744 Y433.057 Z4.982 F200.000
G1 X-11.764 Y433.057 Z5.014 F200.000
G1 X-7.804 Y433.057 Z5.063 F200.000
G1 X-5.824 Y433.057 Z5.080 F200.000
G1 X-3.844 Y433.057 Z5.091 F200.000
G1 X0.116 Y433.057 Z5.100 F200.000
G1 X3.086 Y433.057 Z5.094 F200.000
G1 X5.066 Y433.057 Z5.084 F200.000
G1 X8.036 Y433.057 Z5.059 F200.000
G1 X11.006 Y433.057 Z5.023 F200.000
G1 X14.966 Y433.057 Z4.955 F200.000
G1 X15.956 Y433.057 Z4.941 F200.000
G1 X31.796 Y433.057 Z4.941 F200.000
G1 X31.700 Y433.121 Z4.941 F200.000
G1 X15.800 Y433.121 Z4.941 F200.000
G1 X10.831 Y433.121 Z5.025 F200.000
G1 X7.850 Y433.121 Z5.061 F200.000
G1 X5.863 Y433.121 Z5.078 F200.000
G1 X2.881 Y433.121 Z5.095 F200.000
G1 X-0.100 Y433.121 Z5.100 F200.000
G1 X-3.081 Y433.121 Z5.095 F200.000
