(Exported by FreeCAD)
(Post Processor: grbl_post)
(Output Time:2024-01-07 20:50:53.271671)
(Begin preamble)
G17 G90
G21
(Begin operation: TC: 0.5mm_droite)
(Path: TC: 0.5mm_droite)
(TC: 0.5mm_droite)
(Begin toolchange)
( M6 T2 )
M3 S24000
(Finish operation: TC: 0.5mm_droite)
(Begin operation: Fixture)
(Path: Fixture)
G54
(Finish operation: Fixture)
(Begin operation: Frettes001)
(Path: Frettes001)
(Frettes001)
G0 Z12.000
G0 X29.715 Y420.226
G0 Z10.000
G1 X29.715 Y420.226 Z6.853 F60.000
G1 X-29.715 Y420.226 Z6.853 F200.000
G1 X-29.714 Y420.156 Z6.853 F200.000
G1 X29.714 Y420.156 Z6.853 F200.000
G1 X29.715 Y420.226 Z6.853 F200.000
G0 Z12.000
G0 X29.505 Y406.561 Z12.000
G0 X29.505 Y406.561 Z10.000
G1 X29.505 Y406.561 Z6.853 F60.000
G1 X-29.505 Y406.561 Z6.853 F200.000
G1 X-29.504 Y406.491 Z6.853 F200.000
G1 X29.504 Y406.491 Z6.853 F200.000
G1 X29.505 Y406.561 Z6.853 F200.000
G0 Z12.000
G0 X29.282 Y392.083 Z12.000
G0 X29.282 Y392.083 Z10.000
G1 X29.282 Y392.083 Z6.853 F60.000
G1 X-29.282 Y392.083 Z6.853 F200.000
G1 X-29.281 Y392.013 Z6.853 F200.000
G1 X29.281 Y392.013 Z6.853 F200.000
G1 X29.282 Y392.083 Z6.853 F200.000
G0 Z12.000
G0 X28.531 Y343.276 Z12.000
G0 X28.531 Y343.276 Z10.000
G1 X28.531 Y343.276 Z6.853 F60.000
G1 X-28.531 Y343.276 Z6.853 F200.000
G1 X-28.530 Y343.206 Z6.853 F200.000
G1 X28.530 Y343.206 Z6.853 F200.000
G1 X28.531 Y343.276 Z6.853 F200.000
G0 Z12.000
G0 X28.250 Y325.035 Z12.000
G0 X28.250 Y325.035 Z10.000
G1 X28.250 Y325.035 Z6.853 F60.000
G1 X-28.246 Y325.035 Z6.853 F200.000
G1 X-28.246 Y324.965 Z6.853 F200.000
G1 X28.249 Y324.965 Z6.853 F200.000
G1 X28.250 Y325.035 Z6.853 F200.000
G0 Z12.000
G0 X27.953 Y305.709 Z12.000
G0 X27.953 Y305.709 Z10.000
G1 X27.953 Y305.709 Z6.853 F60.000
G1 X-27.953 Y305.709 Z6.853 F200.000
G1 X-27.952 Y305.639 Z6.853 F200.000
G1 X27.952 Y305.639 Z6.853 F200.000
G1 X27.953 Y305.709 Z6.853 F200.000
G0 Z12.000
G0 X27.638 Y285.234 Z12.000
G0 X27.638 Y285.234 Z10.000
G1 X27.638 Y285.234 Z6.853 F60.000
G1 X-27.638 Y285.234 Z6.853 F200.000
G1 X-27.637 Y285.164 Z6.853 F200.000
G1 X27.637 Y285.164 Z6.853 F200.000
G1 X27.638 Y285.234 Z6.853 F200.000
G0 Z12.000
G0 X27.304 Y263.542 Z12.000
G0 X27.304 Y263.542 Z10.000
G1 X27.304 Y263.542 Z6.853 F60.000
G1 X-27.304 Y263.542 Z6.853 F200.000
G1 X-27.303 Y263.472 Z6.853 F200.000
G1 X27.303 Y263.472 Z6.853 F200.000
G1 X27.304 Y263.542 Z6.853 F200.000
G0 Z12.000
G0 X26.951 Y240.560 Z12.000
G0 X26.951 Y240.560 Z10.000
G1 X26.951 Y240.560 Z6.853 F60.000
G1 X-26.951 Y240.560 Z6.853 F200.000
G1 X-26.950 Y240.490 Z6.853 F200.000
G1 X26.950 Y240.490 Z6.853 F200.000
G1 X26.951 Y240.560 Z6.853 F200.000
G0 Z12.000
G0 X26.576 Y216.211 Z12.000
G0 X26.576 Y216.211 Z10.000
G1 X26.576 Y216.211 Z6.853 F60.000
G1 X-26.576 Y216.211 Z6.853 F200.000
G1 X-26.575 Y216.141 Z6.853 F200.000
G1 X26.575 Y216.141 Z6.853 F200.000
G1 X26.576 Y216.211 Z6.853 F200.000
G0 Z12.000
G0 X25.313 Y134.129 Z12.000
G0 X25.313 Y134.129 Z10.000
G1 X25.313 Y134.129 Z6.853 F60.000
G1 X-25.313 Y134.129 Z6.853 F200.000
G1 X-25.312 Y134.059 Z6.853 F200.000
G1 X25.312 Y134.059 Z6.853 F200.000
G1 X25.313 Y134.129 Z6.853 F200.000
G0 Z12.000
G0 X24.842 Y103.452 Z12.000
G0 X24.842 Y103.452 Z10.000
G1 X24.842 Y103.452 Z6.853 F60.000
G1 X-24.842 Y103.452 Z6.853 F200.000
G1 X-24.840 Y103.382 Z6.853 F200.000
G1 X24.840 Y103.382 Z6.853 F200.000
G1 X24.842 Y103.452 Z6.853 F200.000
G0 Z12.000
G0 X24.341 Y70.951 Z12.000
G0 X24.341 Y70.951 Z10.000
G1 X24.341 Y70.951 Z6.853 F60.000
G1 X-24.342 Y70.951 Z6.853 F200.000
G1 X-24.340 Y70.881 Z6.853 F200.000
G1 X24.340 Y70.881 Z6.853 F200.000
G1 X24.341 Y70.951 Z6.853 F200.000
G1 X24.341 Y70.951 Z6.706 F60.000
G1 X-24.342 Y70.951 Z6.706 F200.000
G1 X-24.340 Y70.881 Z6.706 F200.000
G1 X24.340 Y70.881 Z6.706 F200.000
G1 X24.341 Y70.951 Z6.706 F200.000
G0 Z12.000
G0 Y103.382 Z12.000
G0 Y103.382 Z10.000
G1 X24.341 Y103.382 Z6.706 F60.000
G1 X24.840 Y103.382 Z6.706 F200.000
G1 X24.842 Y103.452 Z6.706 F200.000
G1 X-24.842 Y103.452 Z6.706 F200.000
G1 X-24.840 Y103.382 Z6.706 F200.000
G1 X24.341 Y103.382 Z6.706 F200.000
G0 Z12.000
G0 Y134.059 Z12.000
G0 Y134.059 Z10.000
G1 X24.341 Y134.059 Z6.706 F60.000
G1 X25.312 Y134.059 Z6.706 F200.000
G1 X25.313 Y134.129 Z6.706 F200.000
G1 X-25.313 Y134.129 Z6.706 F200.000
G1 X-25.312 Y134.059 Z6.706 F200.000
G1 X24.341 Y134.059 Z6.706 F200.000
G0 Z12.000
G0 Y216.141 Z12.000
G0 Y216.141 Z10.000
G1 X24.341 Y216.141 Z6.706 F60.000
G1 X26.575 Y216.141 Z6.706 F200.000
G1 X26.576 Y216.211 Z6.706 F200.000
G1 X-26.576 Y216.211 Z6.706 F200.000
G1 X-26.575 Y216.141 Z6.706 F200.000
G1 X24.341 Y216.141 Z6.706 F200.000
G0 Z12.000
G0 Y240.490 Z12.000
G0 Y240.490 Z10.000
G1 X24.341 Y240.490 Z6.706 F60.000
G1 X26.950 Y240.490 Z6.706 F200.000
G1 X26.951 Y240.560 Z6.706 F200.000
G1 X-26.951 Y240.560 Z6.706 F200.000
G1 X-26.950 Y240.490 Z6.706 F200.000
G1 X24.341 Y240.490 Z6.706 F200.000
G0 Z12.000
G0 Y263.472 Z12.000
G0 Y263.472 Z10.000
G1 X24.341 Y263.472 Z6.706 F60.000
G1 X27.303 Y263.472 Z6.706 F200.000
G1 X27.304 Y263.542 Z6.706 F200.000
G1 X-27.304 Y263.542 Z6.706 F200.000
G1 X-27.303 Y263.472 Z6.706 F200.000
G1 X24.341 Y263.472 Z6.706 F200.000
G0 Z12.000
G0 Y285.164 Z12.000
G0 Y285.164 Z10.000
G1 X24.341 Y285.164 Z6.706 F60.000
G1 X27.637 Y285.164 Z6.706 F200.000
G1 X27.638 Y285.234 Z6.706 F200.000
G1 X-27.638 Y285.234 Z6.706 F200.000
G1 X-27.637 Y285.164 Z6.706 F200.000
G1 X24.341 Y285.164 Z6.706 F200.000
G0 Z12.000
G0 Y305.639 Z12.000
G0 Y305.639 Z10.000
G1 X24.341 Y305.639 Z6.706 F60.000
G1 X27.952 Y305.639 Z6.706 F200.000
G1 X27.953 Y305.709 Z6.706 F200.000
G1 X-27.953 Y305.709 Z6.706 F200.000
G1 X-27.952 Y305.639 Z6.706 F200.000
G1 X24.341 Y305.639 Z6.706 F200.000
G0 Z12.000
G0 Y324.965 Z12.000
G0 Y324.965 Z10.000
G1 X24.341 Y324.965 Z6.706 F60.000
G1 X28.249 Y324.965 Z6.706 F200.000
G1 X28.250 Y325.035 Z6.706 F200.000
G1 X-28.246 Y325.035 Z6.706 F200.000
G1 X-28.246 Y324.965 Z6.706 F200.000
G1 X24.341 Y324.965 Z6.706 F200.000
G0 Z12.000
G0 Y343.206 Z12.000
G0 Y343.206 Z10.000
G1 X24.341 Y343.206 Z6.706 F60.000
G1 X28.530 Y343.206 Z6.706 F200.000
G1 X28.531 Y343.276 Z6.706 F200.000
G1 X-28.531 Y343.276 Z6.706 F200.000
G1 X-28.530 Y343.206 Z6.706 F200.000
G1 X24.341 Y343.206 Z6.706 F200.000
G0 Z12.000
G0 Y392.013 Z12.000
G0 Y392.013 Z10.000
G1 X24.341 Y392.013 Z6.706 F60.000
G1 X29.281 Y392.013 Z6.706 F200.000
G1 X29.282 Y392.083 Z6.706 F200.000
G1 X-29.282 Y392.083 Z6.706 F200.000
G1 X-29.281 Y392.013 Z6.706 F200.000
G1 X24.341 Y392.013 Z6.706 F200.000
G0 Z12.000
G0 Y406.491 Z12.000
G0 Y406.491 Z10.000
G1 X24.341 Y406.491 Z6.706 F60.000
G1 X29.504 Y406.491 Z6.706 F200.000
G1 X29.505 Y406.561 Z6.706 F200.000
G1 X-29.505 Y406.561 Z6.706 F200.000
G1 X-29.504 Y406.491 Z6.706 F200.000
G1 X24.341 Y406.491 Z6.706 F200.000
G0 Z12.000
G0 Y420.156 Z12.000
G0 Y420.156 Z10.000
G1 X24.341 Y420.156 Z6.706 F60.000
G1 X29.714 Y420.156 Z6.706 F200.000
G1 X29.715 Y420.226 Z6.706 F200.000
G1 X-29.715 Y420.226 Z6.706 F200.000
G1 X-29.714 Y420.156 Z6.706 F200.000
G1 X24.341 Y420.156 Z6.706 F200.000
G1 X24.341 Y420.156 Z6.559 F60.000
G1 X29.714 Y420.156 Z6.559 F200.000
G1 X29.715 Y420.226 Z6.559 F200.000
G1 X-29.715 Y420.226 Z6.559 F200.000
G1 X-29.714 Y420.156 Z6.559 F200.000
G1 X24.341 Y420.156 Z6.559 F200.000
G0 Z12.000
G0 X24.341 Y406.561 Z12.000
G0 X24.341 Y406.561 Z10.000
G1 X24.341 Y406.561 Z6.559 F60.000
G1 X-29.505 Y406.561 Z6.559 F200.000
G1 X-29.504 Y406.491 Z6.559 F200.000
G1 X29.504 Y406.491 Z6.559 F200.000
G1 X29.505 Y406.561 Z6.559 F200.000
G1 X24.341 Y406.561 Z6.559 F200.000
G0 Z12.000
G0 X24.342 Y392.083 Z12.000
G0 X24.342 Y392.083 Z10.000
G1 X24.342 Y392.083 Z6.559 F60.000
G1 X-29.282 Y392.083 Z6.559 F200.000
G1 X-29.281 Y392.013 Z6.559 F200.000
G1 X29.281 Y392.013 Z6.559 F200.000
G1 X29.282 Y392.083 Z6.559 F200.000
G1 X24.342 Y392.083 Z6.559 F200.000
G0 Z12.000
G0 X24.342 Y343.276 Z12.000
G0 X24.342 Y343.276 Z10.000
G1 X24.342 Y343.276 Z6.559 F60.000
G1 X-28.531 Y343.276 Z6.559 F200.000
G1 X-28.530 Y343.206 Z6.559 F200.000
G1 X28.530 Y343.206 Z6.559 F200.000
G1 X28.531 Y343.276 Z6.559 F200.000
G1 X24.342 Y343.276 Z6.559 F200.000
G0 Z12.000
G0 X24.342 Y325.035 Z12.000
G0 X24.342 Y325.035 Z10.000
G1 X24.342 Y325.035 Z6.559 F60.000
G1 X-28.246 Y325.035 Z6.559 F200.000
G1 X-28.246 Y324.965 Z6.559 F200.000
G1 X28.249 Y324.965 Z6.559 F200.000
G1 X28.250 Y325.035 Z6.559 F200.000
G1 X24.342 Y325.035 Z6.559 F200.000
G0 Z12.000
G0 X24.342 Y305.709 Z12.000
G0 X24.342 Y305.709 Z10.000
G1 X24.342 Y305.709 Z6.559 F60.000
G1 X-27.953 Y305.709 Z6.559 F200.000
G1 X-27.952 Y305.639 Z6.559 F200.000
G1 X27.952 Y305.639 Z6.559 F200.000
G1 X27.953 Y305.709 Z6.559 F200.000
G1 X24.342 Y305.709 Z6.559 F200.000
G0 Z12.000
G0 X24.342 Y285.234 Z12.000
G0 X24.342 Y285.234 Z10.000
G1 X24.342 Y285.234 Z6.559 F60.000
G1 X-27.638 Y285.234 Z6.559 F200.000
G1 X-27.637 Y285.164 Z6.559 F200.000
G1 X27.637 Y285.164 Z6.559 F200.000
G1 X27.638 Y285.234 Z6.559 F200.000
G1 X24.342 Y285.234 Z6.559 F200.000
G0 Z12.000
G0 X24.342 Y263.542 Z12.000
G0 X24.342 Y263.542 Z10.000
G1 X24.342 Y263.542 Z6.559 F60.000
G1 X-27.304 Y263.542 Z6.559 F200.000
G1 X-27.303 Y263.472 Z6.559 F200.000
G1 X27.303 Y263.472 Z6.559 F200.000
G1 X27.304 Y263.542 Z6.559 F200.000
G1 X24.342 Y263.542 Z6.559 F200.000
G0 Z12.000
G0 X24.342 Y240.560 Z12.000
G0 X24.342 Y240.560 Z10.000
G1 X24.342 Y240.560 Z6.559 F60.000
G1 X-26.951 Y240.560 Z6.559 F200.000
G1 X-26.950 Y240.490 Z6.559 F200.000
G1 X26.950 Y240.490 Z6.559 F200.000
G1 X26.951 Y240.560 Z6.559 F200.000
G1 X24.342 Y240.560 Z6.559 F200.000
G0 Z12.000
G0 Y216.211 Z12.000
G0 Y216.211 Z10.000
G1 X24.342 Y216.211 Z6.559 F60.000
G1 X-26.576 Y216.211 Z6.559 F200.000
G1 X-26.575 Y216.141 Z6.559 F200.000
G1 X26.575 Y216.141 Z6.559 F200.000
G1 X26.576 Y216.211 Z6.559 F200.000
G1 X24.342 Y216.211 Z6.559 F200.000
G0 Z12.000
G0 X24.342 Y134.129 Z12.000
G0 X24.342 Y134.129 Z10.000
G1 X24.342 Y134.129 Z6.559 F60.000
G1 X-25.313 Y134.129 Z6.559 F200.000
G1 X-25.312 Y134.059 Z6.559 F200.000
G1 X25.312 Y134.059 Z6.559 F200.000
G1 X25.313 Y134.129 Z6.559 F200.000
G1 X24.342 Y134.129 Z6.559 F200.000
G0 Z12.000
G0 Y103.452 Z12.000
G0 Y103.452 Z10.000
G1 X24.342 Y103.452 Z6.559 F60.000
G1 X-24.842 Y103.452 Z6.559 F200.000
G1 X-24.840 Y103.382 Z6.559 F200.000
G1 X24.840 Y103.382 Z6.559 F200.000
G1 X24.842 Y103.452 Z6.559 F200.000
G1 X24.342 Y103.452 Z6.559 F200.000
G0 Z12.000
G0 X24.341 Y70.951 Z12.000
G0 X24.341 Y70.951 Z10.000
G1 X24.341 Y70.951 Z6.559 F60.000
G1 X-24.342 Y70.951 Z6.559 F200.000
G1 X-24.340 Y70.881 Z6.559 F200.000
G1 X24.340 Y70.881 Z6.559 F200.000
G1 X24.341 Y70.951 Z6.559 F200.000
G0 Z12.000
G0 X23.812 Y36.517 Z12.000
G0 X23.812 Y36.517 Z10.000
G1 X23.812 Y36.517 Z6.559 F60.000
G1 X-23.812 Y36.517 Z6.559 F200.000
G1 X-23.811 Y36.447 Z6.559 F200.000
G1 X23.811 Y36.447 Z6.559 F200.000
G1 X23.812 Y36.517 Z6.559 F200.000
G1 X23.812 Y36.517 Z6.412 F60.000
G1 X-23.812 Y36.517 Z6.412 F200.000
G1 X-23.811 Y36.447 Z6.412 F200.000
G1 X23.811 Y36.447 Z6.412 F200.000
G1 X23.812 Y36.517 Z6.412 F200.000
G0 Z12.000
G0 Y70.881 Z12.000
G0 Y70.881 Z10.000
G1 X23.812 Y70.881 Z6.412 F60.000
G1 X24.340 Y70.881 Z6.412 F200.000
G1 X24.341 Y70.951 Z6.412 F200.000
G1 X-24.342 Y70.951 Z6.412 F200.000
G1 X-24.340 Y70.881 Z6.412 F200.000
G1 X23.812 Y70.881 Z6.412 F200.000
G0 Z12.000
G0 Y103.382 Z12.000
G0 Y103.382 Z10.000
G1 X23.812 Y103.382 Z6.412 F60.000
G1 X24.840 Y103.382 Z6.412 F200.000
G1 X24.842 Y103.452 Z6.412 F200.000
G1 X-24.842 Y103.452 Z6.412 F200.000
G1 X-24.840 Y103.382 Z6.412 F200.000
G1 X23.812 Y103.382 Z6.412 F200.000
G0 Z12.000
G0 Y134.059 Z12.000
G0 Y134.059 Z10.000
G1 X23.812 Y134.059 Z6.412 F60.000
G1 X25.312 Y134.059 Z6.412 F200.000
G1 X25.313 Y134.129 Z6.412 F200.000
G1 X-25.313 Y134.129 Z6.412 F200.000
G1 X-25.312 Y134.059 Z6.412 F200.000
G1 X23.812 Y134.059 Z6.412 F200.000
G0 Z12.000
G0 Y163.015 Z12.000
G0 Y163.015 Z10.000
G1 X23.812 Y163.015 Z6.412 F60.000
G1 X25.758 Y163.015 Z6.412 F200.000
G1 X25.759 Y163.085 Z6.412 F200.000
G1 X-25.759 Y163.085 Z6.412 F200.000
G1 X-25.758 Y163.015 Z6.412 F200.000
G1 X23.812 Y163.015 Z6.412 F200.000
G0 Z12.000
G0 Y190.345 Z12.000
G0 Y190.345 Z10.000
G1 X23.812 Y190.345 Z6.412 F60.000
G1 X26.178 Y190.345 Z6.412 F200.000
G1 X26.179 Y190.415 Z6.412 F200.000
G1 X-26.179 Y190.415 Z6.412 F200.000
G1 X-26.178 Y190.345 Z6.412 F200.000
G1 X23.812 Y190.345 Z6.412 F200.000
G0 Z12.000
G0 Y216.141 Z12.000
G0 Y216.141 Z10.000
G1 X23.812 Y216.141 Z6.412 F60.000
G1 X26.575 Y216.141 Z6.412 F200.000
G1 X26.576 Y216.211 Z6.412 F200.000
G1 X-26.576 Y216.211 Z6.412 F200.000
G1 X-26.575 Y216.141 Z6.412 F200.000
G1 X23.812 Y216.141 Z6.412 F200.000
G0 Z12.000
G0 Y240.490 Z12.000
G0 Y240.490 Z10.000
G1 X23.812 Y240.490 Z6.412 F60.000
G1 X26.950 Y240.490 Z6.412 F200.000
G1 X26.951 Y240.560 Z6.412 F200.000
G1 X-26.951 Y240.560 Z6.412 F200.000
G1 X-26.950 Y240.490 Z6.412 F200.000
G1 X23.812 Y240.490 Z6.412 F200.000
G0 Z12.000
G0 Y263.472 Z12.000
G0 Y263.472 Z10.000
G1 X23.812 Y263.472 Z6.412 F60.000
G1 X27.303 Y263.472 Z6.412 F200.000
G1 X27.304 Y263.542 Z6.412 F200.000
G1 X-27.304 Y263.542 Z6.412 F200.000
G1 X-27.303 Y263.472 Z6.412 F200.000
G1 X23.812 Y263.472 Z6.412 F200.000
G0 Z12.000
G0 Y285.164 Z12.000
G0 Y285.164 Z10.000
G1 X23.812 Y285.164 Z6.412 F60.000
G1 X27.637 Y285.164 Z6.412 F200.000
G1 X27.638 Y285.234 Z6.412 F200.000
G1 X-27.638 Y285.234 Z6.412 F200.000
G1 X-27.637 Y285.164 Z6.412 F200.000
G1 X23.812 Y285.164 Z6.412 F200.000
G0 Z12.000
G0 Y305.639 Z12.000
G0 Y305.639 Z10.000
G1 X23.812 Y305.639 Z6.412 F60.000
G1 X27.952 Y305.639 Z6.412 F200.000
G1 X27.953 Y305.709 Z6.412 F200.000
G1 X-27.953 Y305.709 Z6.412 F200.000
G1 X-27.952 Y305.639 Z6.412 F200.000
G1 X23.812 Y305.639 Z6.412 F200.000
G0 Z12.000
G0 Y324.965 Z12.000
G0 Y324.965 Z10.000
G1 X23.812 Y324.965 Z6.412 F60.000
G1 X28.249 Y324.965 Z6.412 F200.000
G1 X28.250 Y325.035 Z6.412 F200.000
G1 X-28.246 Y325.035 Z6.412 F200.000
G1 X-28.246 Y324.965 Z6.412 F200.000
G1 X23.812 Y324.965 Z6.412 F200.000
G0 Z12.000
G0 Y343.206 Z12.000
G0 Y343.206 Z10.000
G1 X23.812 Y343.206 Z6.412 F60.000
G1 X28.530 Y343.206 Z6.412 F200.000
G1 X28.531 Y343.276 Z6.412 F200.000
G1 X-28.531 Y343.276 Z6.412 F200.000
G1 X-28.530 Y343.206 Z6.412 F200.000
G1 X23.812 Y343.206 Z6.412 F200.000
G0 Z12.000
G0 Y376.674 Z12.000
G0 Y376.674 Z10.000
G1 X23.812 Y376.674 Z6.412 F60.000
G1 X29.045 Y376.674 Z6.412 F200.000
G1 X29.046 Y376.744 Z6.412 F200.000
G1 X-29.046 Y376.744 Z6.412 F200.000
G1 X-29.045 Y376.674 Z6.412 F200.000
G1 X23.812 Y376.674 Z6.412 F200.000
G0 Z12.000
G0 Y392.013 Z12.000
G0 Y392.013 Z10.000
G1 X23.812 Y392.013 Z6.412 F60.000
G1 X29.281 Y392.013 Z6.412 F200.000
G1 X29.282 Y392.083 Z6.412 F200.000
G1 X-29.282 Y392.083 Z6.412 F200.000
G1 X-29.281 Y392.013 Z6.412 F200.000
G1 X23.812 Y392.013 Z6.412 F200.000
G0 Z12.000
G0 Y406.491 Z12.000
G0 Y406.491 Z10.000
G1 X23.812 Y406.491 Z6.412 F60.000
G1 X29.504 Y406.491 Z6.412 F200.000
G1 X29.505 Y406.561 Z6.412 F200.000
G1 X-29.505 Y406.561 Z6.412 F200.000
G1 X-29.504 Y406.491 Z6.412 F200.000
G1 X23.812 Y406.491 Z6.412 F200.000
G0 Z12.000
G0 Y420.156 Z12.000
G0 Y420.156 Z10.000
G1 X23.812 Y420.156 Z6.412 F60.000
G1 X29.714 Y420.156 Z6.412 F200.000
G1 X29.715 Y420.226 Z6.412 F200.000
G1 X-29.715 Y420.226 Z6.412 F200.000
G1 X-29.714 Y420.156 Z6.412 F200.000
G1 X23.812 Y420.156 Z6.412 F200.000
G1 X23.812 Y420.156 Z6.265 F60.000
G1 X29.714 Y420.156 Z6.265 F200.000
G1 X29.715 Y420.226 Z6.265 F200.000
G1 X-29.715 Y420.226 Z6.265 F200.000
G1 X-29.714 Y420.156 Z6.265 F200.000
G1 X23.812 Y420.156 Z6.265 F200.000
G0 Z12.000
G0 X23.812 Y406.561 Z12.000
G0 X23.812 Y406.561 Z10.000
G1 X23.812 Y406.561 Z6.265 F60.000
G1 X-29.505 Y406.561 Z6.265 F200.000
G1 X-29.504 Y406.491 Z6.265 F200.000
G1 X29.504 Y406.491 Z6.265 F200.000
G1 X29.505 Y406.561 Z6.265 F200.000
G1 X23.812 Y406.561 Z6.265 F200.000
G0 Z12.000
G0 X23.812 Y392.083 Z12.000
G0 X23.812 Y392.083 Z10.000
G1 X23.812 Y392.083 Z6.265 F60.000
G1 X-29.282 Y392.083 Z6.265 F200.000
G1 X-29.281 Y392.013 Z6.265 F200.000
G1 X29.281 Y392.013 Z6.265 F200.000
G1 X29.282 Y392.083 Z6.265 F200.000
G1 X23.812 Y392.083 Z6.265 F200.000
G0 Z12.000
G0 Y376.744 Z12.000
G0 Y376.744 Z10.000
G1 X23.812 Y376.744 Z6.265 F60.000
G1 X-29.046 Y376.744 Z6.265 F200.000
G1 X-29.045 Y376.674 Z6.265 F200.000
G1 X29.045 Y376.674 Z6.265 F200.000
G1 X29.046 Y376.744 Z6.265 F200.000
G1 X23.812 Y376.744 Z6.265 F200.000
G0 Z12.000
G0 Y343.276 Z12.000
G0 Y343.276 Z10.000
G1 X23.812 Y343.276 Z6.265 F60.000
G1 X-28.531 Y343.276 Z6.265 F200.000
G1 X-28.530 Y343.206 Z6.265 F200.000
G1 X28.530 Y343.206 Z6.265 F200.000
G1 X28.531 Y343.276 Z6.265 F200.000
G1 X23.812 Y343.276 Z6.265 F200.000
G0 Z12.000
G0 X23.812 Y325.035 Z12.000
G0 X23.812 Y325.035 Z10.000
G1 X23.812 Y325.035 Z6.265 F60.000
G1 X-28.246 Y325.035 Z6.265 F200.000
G1 X-28.246 Y324.965 Z6.265 F200.000
G1 X28.249 Y324.965 Z6.265 F200.000
G1 X28.250 Y325.035 Z6.265 F200.000
G1 X23.812 Y325.035 Z6.265 F200.000
G0 Z12.000
G0 Y305.709 Z12.000
G0 Y305.709 Z10.000
G1 X23.812 Y305.709 Z6.265 F60.000
G1 X-27.953 Y305.709 Z6.265 F200.000
G1 X-27.952 Y305.639 Z6.265 F200.000
G1 X27.952 Y305.639 Z6.265 F200.000
G1 X27.953 Y305.709 Z6.265 F200.000
G1 X23.812 Y305.709 Z6.265 F200.000
G0 Z12.000
G0 X23.812 Y285.234 Z12.000
G0 X23.812 Y285.234 Z10.000
G1 X23.812 Y285.234 Z6.265 F60.000
G1 X-27.638 Y285.234 Z6.265 F200.000
G1 X-27.637 Y285.164 Z6.265 F200.000
G1 X27.637 Y285.164 Z6.265 F200.000
G1 X27.638 Y285.234 Z6.265 F200.000
G1 X23.812 Y285.234 Z6.265 F200.000
G0 Z12.000
G0 X23.812 Y263.542 Z12.000
G0 X23.812 Y263.542 Z10.000
G1 X23.812 Y263.542 Z6.265 F60.000
G1 X-27.304 Y263.542 Z6.265 F200.000
G1 X-27.303 Y263.472 Z6.265 F200.000
G1 X27.303 Y263.472 Z6.265 F200.000
G1 X27.304 Y263.542 Z6.265 F200.000
G1 X23.812 Y263.542 Z6.265 F200.000
G0 Z12.000
G0 X23.812 Y240.560 Z12.000
G0 X23.812 Y240.560 Z10.000
G1 X23.812 Y240.560 Z6.265 F60.000
G1 X-26.951 Y240.560 Z6.265 F200.000
G1 X-26.950 Y240.490 Z6.265 F200.000
G1 X26.950 Y240.490 Z6.265 F200.000
G1 X26.951 Y240.560 Z6.265 F200.000
G1 X23.812 Y240.560 Z6.265 F200.000
G0 Z12.000
G0 X23.812 Y216.211 Z12.000
G0 X23.812 Y216.211 Z10.000
G1 X23.812 Y216.211 Z6.265 F60.000
G1 X-26.576 Y216.211 Z6.265 F200.000
G1 X-26.575 Y216.141 Z6.265 F200.000
G1 X26.575 Y216.141 Z6.265 F200.000
G1 X26.576 Y216.211 Z6.265 F200.000
G1 X23.812 Y216.211 Z6.265 F200.000
G0 Z12.000
G0 X23.812 Y190.415 Z12.000
G0 X23.812 Y190.415 Z10.000
G1 X23.812 Y190.415 Z6.265 F60.000
G1 X-26.179 Y190.415 Z6.265 F200.000
G1 X-26.178 Y190.345 Z6.265 F200.000
G1 X26.178 Y190.345 Z6.265 F200.000
G1 X26.179 Y190.415 Z6.265 F200.000
G1 X23.812 Y190.415 Z6.265 F200.000
G0 Z12.000
G0 Y163.085 Z12.000
G0 Y163.085 Z10.000
G1 X23.812 Y163.085 Z6.265 F60.000
G1 X-25.759 Y163.085 Z6.265 F200.000
G1 X-25.758 Y163.015 Z6.265 F200.000
G1 X25.758 Y163.015 Z6.265 F200.000
G1 X25.759 Y163.085 Z6.265 F200.000
G1 X23.812 Y163.085 Z6.265 F200.000
G0 Z12.000
G0 X23.812 Y134.129 Z12.000
G0 X23.812 Y134.129 Z10.000
G1 X23.812 Y134.129 Z6.265 F60.000
G1 X-25.313 Y134.129 Z6.265 F200.000
G1 X-25.312 Y134.059 Z6.265 F200.000
G1 X25.312 Y134.059 Z6.265 F200.000
G1 X25.313 Y134.129 Z6.265 F200.000
G1 X23.812 Y134.129 Z6.265 F200.000
G0 Z12.000
G0 Y103.452 Z12.000
G0 Y103.452 Z10.000
G1 X23.812 Y103.452 Z6.265 F60.000
G1 X-24.842 Y103.452 Z6.265 F200.000
G1 X-24.840 Y103.382 Z6.265 F200.000
G1 X24.840 Y103.382 Z6.265 F200.000
G1 X24.842 Y103.452 Z6.265 F200.000
G1 X23.812 Y103.452 Z6.265 F200.000
G0 Z12.000
G0 Y70.951 Z12.000
G0 Y70.951 Z10.000
G1 X23.812 Y70.951 Z6.265 F60.000
G1 X-24.342 Y70.951 Z6.265 F200.000
G1 X-24.340 Y70.881 Z6.265 F200.000
G1 X24.340 Y70.881 Z6.265 F200.000
G1 X24.341 Y70.951 Z6.265 F200.000
G1 X23.812 Y70.951 Z6.265 F200.000
G0 Z12.000
G0 X23.812 Y36.517 Z12.000
G0 X23.812 Y36.517 Z10.000
G1 X23.812 Y36.517 Z6.265 F60.000
G1 X-23.812 Y36.517 Z6.265 F200.000
G1 X-23.811 Y36.447 Z6.265 F200.000
G1 X23.811 Y36.447 Z6.265 F200.000
G1 X23.812 Y36.517 Z6.265 F200.000
G1 X23.812 Y36.517 Z6.118 F60.000
G1 X-23.812 Y36.517 Z6.118 F200.000
G1 X-23.811 Y36.447 Z6.118 F200.000
G1 X23.811 Y36.447 Z6.118 F200.000
G1 X23.812 Y36.517 Z6.118 F200.000
G0 Z12.000
G0 Y70.881 Z12.000
G0 Y70.881 Z10.000
G1 X23.812 Y70.881 Z6.118 F60.000
G1 X24.340 Y70.881 Z6.118 F200.000
G1 X24.341 Y70.951 Z6.118 F200.000
G1 X-24.342 Y70.951 Z6.118 F200.000
G1 X-24.340 Y70.881 Z6.118 F200.000
G1 X23.812 Y70.881 Z6.118 F200.000
G0 Z12.000
G0 Y103.382 Z12.000
G0 Y103.382 Z10.000
G1 X23.812 Y103.382 Z6.118 F60.000
G1 X24.840 Y103.382 Z6.118 F200.000
G1 X24.842 Y103.452 Z6.118 F200.000
G1 X-24.842 Y103.452 Z6.118 F200.000
G1 X-24.840 Y103.382 Z6.118 F200.000
G1 X23.812 Y103.382 Z6.118 F200.000
G0 Z12.000
G0 Y134.059 Z12.000
G0 Y134.059 Z10.000
G1 X23.812 Y134.059 Z6.118 F60.000
G1 X25.312 Y134.059 Z6.118 F200.000
G1 X25.313 Y134.129 Z6.118 F200.000
G1 X-25.313 Y134.129 Z6.118 F200.000
G1 X-25.312 Y134.059 Z6.118 F200.000
G1 X23.812 Y134.059 Z6.118 F200.000
G0 Z12.000
G0 Y163.015 Z12.000
G0 Y163.015 Z10.000
G1 X23.812 Y163.015 Z6.118 F60.000
G1 X25.758 Y163.015 Z6.118 F200.000
G1 X25.759 Y163.085 Z6.118 F200.000
G1 X-25.759 Y163.085 Z6.118 F200.000
G1 X-25.758 Y163.015 Z6.118 F200.000
G1 X23.812 Y163.015 Z6.118 F200.000
G0 Z12.000
G0 Y190.345 Z12.000
G0 Y190.345 Z10.000
G1 X23.812 Y190.345 Z6.118 F60.000
G1 X26.178 Y190.345 Z6.118 F200.000
G1 X26.179 Y190.415 Z6.118 F200.000
G1 X-26.179 Y190.415 Z6.118 F200.000
G1 X-26.178 Y190.345 Z6.118 F200.000
G1 X23.812 Y190.345 Z6.118 F200.000
G0 Z12.000
G0 Y216.141 Z12.000
G0 Y216.141 Z10.000
G1 X23.812 Y216.141 Z6.118 F60.000
G1 X26.575 Y216.141 Z6.118 F200.000
G1 X26.576 Y216.211 Z6.118 F200.000
G1 X-26.576 Y216.211 Z6.118 F200.000
G1 X-26.575 Y216.141 Z6.118 F200.000
G1 X23.812 Y216.141 Z6.118 F200.000
G0 Z12.000
G0 Y240.490 Z12.000
G0 Y240.490 Z10.000
G1 X23.812 Y240.490 Z6.118 F60.000
G1 X26.950 Y240.490 Z6.118 F200.000
G1 X26.951 Y240.560 Z6.118 F200.000
G1 X-26.951 Y240.560 Z6.118 F200.000
G1 X-26.950 Y240.490 Z6.118 F200.000
G1 X23.812 Y240.490 Z6.118 F200.000
G0 Z12.000
G0 Y263.472 Z12.000
G0 Y263.472 Z10.000
G1 X23.812 Y263.472 Z6.118 F60.000
G1 X27.303 Y263.472 Z6.118 F200.000
G1 X27.304 Y263.542 Z6.118 F200.000
G1 X-27.304 Y263.542 Z6.118 F200.000
G1 X-27.303 Y263.472 Z6.118 F200.000
G1 X23.812 Y263.472 Z6.118 F200.000
G0 Z12.000
G0 Y285.164 Z12.000
G0 Y285.164 Z10.000
G1 X23.812 Y285.164 Z6.118 F60.000
G1 X27.637 Y285.164 Z6.118 F200.000
G1 X27.638 Y285.234 Z6.118 F200.000
G1 X-27.638 Y285.234 Z6.118 F200.000
G1 X-27.637 Y285.164 Z6.118 F200.000
G1 X23.812 Y285.164 Z6.118 F200.000
G0 Z12.000
G0 Y305.639 Z12.000
G0 Y305.639 Z10.000
G1 X23.812 Y305.639 Z6.118 F60.000
G1 X27.952 Y305.639 Z6.118 F200.000
G1 X27.953 Y305.709 Z6.118 F200.000
G1 X-27.953 Y305.709 Z6.118 F200.000
G1 X-27.952 Y305.639 Z6.118 F200.000
G1 X23.812 Y305.639 Z6.118 F200.000
G0 Z12.000
G0 Y324.965 Z12.000
G0 Y324.965 Z10.000
G1 X23.812 Y324.965 Z6.118 F60.000
G1 X28.249 Y324.965 Z6.118 F200.000
G1 X28.250 Y325.035 Z6.118 F200.000
G1 X-28.246 Y325.035 Z6.118 F200.000
G1 X-28.246 Y324.965 Z6.118 F200.000
G1 X23.812 Y324.965 Z6.118 F200.000
G0 Z12.000
G0 Y343.206 Z12.000
G0 Y343.206 Z10.000
G1 X23.812 Y343.206 Z6.118 F60.000
G1 X28.530 Y343.206 Z6.118 F200.000
G1 X28.531 Y343.276 Z6.118 F200.000
G1 X-28.531 Y343.276 Z6.118 F200.000
G1 X-28.530 Y343.206 Z6.118 F200.000
G1 X23.812 Y343.206 Z6.118 F200.000
G0 Z12.000
G0 Y376.674 Z12.000
G0 Y376.674 Z10.000
G1 X23.812 Y376.674 Z6.118 F60.000
G1 X29.045 Y376.674 Z6.118 F200.000
G1 X29.046 Y376.744 Z6.118 F200.000
G1 X-29.046 Y376.744 Z6.118 F200.000
G1 X-29.045 Y376.674 Z6.118 F200.000
G1 X23.812 Y376.674 Z6.118 F200.000
G0 Z12.000
G0 Y392.013 Z12.000
G0 Y392.013 Z10.000
G1 X23.812 Y392.013 Z6.118 F60.000
G1 X29.281 Y392.013 Z6.118 F200.000
G1 X29.282 Y392.083 Z6.118 F200.000
G1 X-29.282 Y392.083 Z6.118 F200.000
G1 X-29.281 Y392.013 Z6.118 F200.000
G1 X23.812 Y392.013 Z6.118 F200.000
G0 Z12.000
G0 Y406.491 Z12.000
G0 Y406.491 Z10.000
G1 X23.812 Y406.491 Z6.118 F60.000
G1 X29.504 Y406.491 Z6.118 F200.000
G1 X29.505 Y406.561 Z6.118 F200.000
G1 X-29.505 Y406.561 Z6.118 F200.000
G1 X-29.504 Y406.491 Z6.118 F200.000
G1 X23.812 Y406.491 Z6.118 F200.000
G0 Z12.000
G0 Y420.156 Z12.000
G0 Y420.156 Z10.000
G1 X23.812 Y420.156 Z6.118 F60.000
G1 X29.714 Y420.156 Z6.118 F200.000
G1 X29.715 Y420.226 Z6.118 F200.000
G1 X-29.715 Y420.226 Z6.118 F200.000
G1 X-29.714 Y420.156 Z6.118 F200.000
G1 X23.812 Y420.156 Z6.118 F200.000
G1 X23.812 Y420.156 Z5.971 F60.000
G1 X29.714 Y420.156 Z5.971 F200.000
G1 X29.715 Y420.226 Z5.971 F200.000
G1 X-29.715 Y420.226 Z5.971 F200.000
G1 X-29.714 Y420.156 Z5.971 F200.000
G1 X23.812 Y420.156 Z5.971 F200.000
G0 Z12.000
G0 X23.812 Y406.561 Z12.000
G0 X23.812 Y406.561 Z10.000
G1 X23.812 Y406.561 Z5.971 F60.000
G1 X-29.505 Y406.561 Z5.971 F200.000
G1 X-29.504 Y406.491 Z5.971 F200.000
G1 X29.504 Y406.491 Z5.971 F200.000
G1 X29.505 Y406.561 Z5.971 F200.000
G1 X23.812 Y406.561 Z5.971 F200.000
G0 Z12.000
G0 X23.812 Y392.083 Z12.000
G0 X23.812 Y392.083 Z10.000
G1 X23.812 Y392.083 Z5.971 F60.000
G1 X-29.282 Y392.083 Z5.971 F200.000
G1 X-29.281 Y392.013 Z5.971 F200.000
G1 X29.281 Y392.013 Z5.971 F200.000
G1 X29.282 Y392.083 Z5.971 F200.000
G1 X23.812 Y392.083 Z5.971 F200.000
G0 Z12.000
G0 Y376.744 Z12.000
G0 Y376.744 Z10.000
G1 X23.812 Y376.744 Z5.971 F60.000
G1 X-29.046 Y376.744 Z5.971 F200.000
G1 X-29.045 Y376.674 Z5.971 F200.000
G1 X29.045 Y376.674 Z5.971 F200.000
G1 X29.046 Y376.744 Z5.971 F200.000
G1 X23.812 Y376.744 Z5.971 F200.000
G0 Z12.000
G0 Y343.276 Z12.000
G0 Y343.276 Z10.000
G1 X23.812 Y343.276 Z5.971 F60.000
G1 X-28.531 Y343.276 Z5.971 F200.000
G1 X-28.530 Y343.206 Z5.971 F200.000
G1 X28.530 Y343.206 Z5.971 F200.000
G1 X28.531 Y343.276 Z5.971 F200.000
G1 X23.812 Y343.276 Z5.971 F200.000
G0 Z12.000
G0 X23.812 Y325.035 Z12.000
G0 X23.812 Y325.035 Z10.000
G1 X23.812 Y325.035 Z5.971 F60.000
G1 X-28.246 Y325.035 Z5.971 F200.000
G1 X-28.246 Y324.965 Z5.971 F200.000
G1 X28.249 Y324.965 Z5.971 F200.000
G1 X28.250 Y325.035 Z5.971 F200.000
G1 X23.812 Y325.035 Z5.971 F200.000
G0 Z12.000
G0 Y305.709 Z12.000
G0 Y305.709 Z10.000
G1 X23.812 Y305.709 Z5.971 F60.000
G1 X-27.953 Y305.709 Z5.971 F200.000
G1 X-27.952 Y305.639 Z5.971 F200.000
G1 X27.952 Y305.639 Z5.971 F200.000
G1 X27.953 Y305.709 Z5.971 F200.000
G1 X23.812 Y305.709 Z5.971 F200.000
G0 Z12.000
G0 X23.812 Y285.234 Z12.000
G0 X23.812 Y285.234 Z10.000
G1 X23.812 Y285.234 Z5.971 F60.000
G1 X-27.638 Y285.234 Z5.971 F200.000
G1 X-27.637 Y285.164 Z5.971 F200.000
G1 X27.637 Y285.164 Z5.971 F200.000
G1 X27.638 Y285.234 Z5.971 F200.000
G1 X23.812 Y285.234 Z5.971 F200.000
G0 Z12.000
G0 X23.812 Y263.542 Z12.000
G0 X23.812 Y263.542 Z10.000
G1 X23.812 Y263.542 Z5.971 F60.000
G1 X-27.304 Y263.542 Z5.971 F200.000
G1 X-27.303 Y263.472 Z5.971 F200.000
G1 X27.303 Y263.472 Z5.971 F200.000
G1 X27.304 Y263.542 Z5.971 F200.000
G1 X23.812 Y263.542 Z5.971 F200.000
G0 Z12.000
G0 X23.812 Y240.560 Z12.000
G0 X23.812 Y240.560 Z10.000
G1 X23.812 Y240.560 Z5.971 F60.000
G1 X-26.951 Y240.560 Z5.971 F200.000
G1 X-26.950 Y240.490 Z5.971 F200.000
G1 X26.950 Y240.490 Z5.971 F200.000
G1 X26.951 Y240.560 Z5.971 F200.000
G1 X23.812 Y240.560 Z5.971 F200.000
G0 Z12.000
G0 X23.812 Y216.211 Z12.000
G0 X23.812 Y216.211 Z10.000
G1 X23.812 Y216.211 Z5.971 F60.000
G1 X-26.576 Y216.211 Z5.971 F200.000
G1 X-26.575 Y216.141 Z5.971 F200.000
G1 X26.575 Y216.141 Z5.971 F200.000
G1 X26.576 Y216.211 Z5.971 F200.000
G1 X23.812 Y216.211 Z5.971 F200.000
G0 Z12.000
G0 X23.812 Y190.415 Z12.000
G0 X23.812 Y190.415 Z10.000
G1 X23.812 Y190.415 Z5.971 F60.000
G1 X-26.179 Y190.415 Z5.971 F200.000
G1 X-26.178 Y190.345 Z5.971 F200.000
G1 X26.178 Y190.345 Z5.971 F200.000
G1 X26.179 Y190.415 Z5.971 F200.000
G1 X23.812 Y190.415 Z5.971 F200.000
G0 Z12.000
G0 Y163.085 Z12.000
G0 Y163.085 Z10.000
G1 X23.812 Y163.085 Z5.971 F60.000
G1 X-25.759 Y163.085 Z5.971 F200.000
G1 X-25.758 Y163.015 Z5.971 F200.000
G1 X25.758 Y163.015 Z5.971 F200.000
G1 X25.759 Y163.085 Z5.971 F200.000
G1 X23.812 Y163.085 Z5.971 F200.000
G0 Z12.000
G0 X23.812 Y134.129 Z12.000
G0 X23.812 Y134.129 Z10.000
G1 X23.812 Y134.129 Z5.971 F60.000
G1 X-25.313 Y134.129 Z5.971 F200.000
G1 X-25.312 Y134.059 Z5.971 F200.000
G1 X25.312 Y134.059 Z5.971 F200.000
G1 X25.313 Y134.129 Z5.971 F200.000
G1 X23.812 Y134.129 Z5.971 F200.000
G0 Z12.000
G0 Y103.452 Z12.000
G0 Y103.452 Z10.000
G1 X23.812 Y103.452 Z5.971 F60.000
G1 X-24.842 Y103.452 Z5.971 F200.000
G1 X-24.840 Y103.382 Z5.971 F200.000
G1 X24.840 Y103.382 Z5.971 F200.000
G1 X24.842 Y103.452 Z5.971 F200.000
G1 X23.812 Y103.452 Z5.971 F200.000
G0 Z12.000
G0 Y70.951 Z12.000
G0 Y70.951 Z10.000
G1 X23.812 Y70.951 Z5.971 F60.000
G1 X-24.342 Y70.951 Z5.971 F200.000
G1 X-24.340 Y70.881 Z5.971 F200.000
G1 X24.340 Y70.881 Z5.971 F200.000
G1 X24.341 Y70.951 Z5.971 F200.000
G1 X23.812 Y70.951 Z5.971 F200.000
G0 Z12.000
G0 X23.812 Y36.517 Z12.000
G0 X23.812 Y36.517 Z10.000
G1 X23.812 Y36.517 Z5.971 F60.000
G1 X-23.812 Y36.517 Z5.971 F200.000
G1 X-23.811 Y36.447 Z5.971 F200.000
G1 X23.811 Y36.447 Z5.971 F200.000
G1 X23.812 Y36.517 Z5.971 F200.000
G1 X23.812 Y36.517 Z5.824 F60.000
G1 X-23.812 Y36.517 Z5.824 F200.000
G1 X-23.811 Y36.447 Z5.824 F200.000
G1 X23.811 Y36.447 Z5.824 F200.000
G1 X23.812 Y36.517 Z5.824 F200.000
G0 Z12.000
G0 Y70.881 Z12.000
G0 Y70.881 Z10.000
G1 X23.812 Y70.881 Z5.824 F60.000
G1 X24.340 Y70.881 Z5.824 F200.000
G1 X24.341 Y70.951 Z5.824 F200.000
G1 X-24.342 Y70.951 Z5.824 F200.000
G1 X-24.340 Y70.881 Z5.824 F200.000
G1 X23.812 Y70.881 Z5.824 F200.000
G0 Z12.000
G0 Y103.382 Z12.000
G0 Y103.382 Z10.000
G1 X23.812 Y103.382 Z5.824 F60.000
G1 X24.840 Y103.382 Z5.824 F200.000
G1 X24.842 Y103.452 Z5.824 F200.000
G1 X-24.842 Y103.452 Z5.824 F200.000
G1 X-24.840 Y103.382 Z5.824 F200.000
G1 X23.812 Y103.382 Z5.824 F200.000
G0 Z12.000
G0 Y134.059 Z12.000
G0 Y134.059 Z10.000
G1 X23.812 Y134.059 Z5.824 F60.000
G1 X25.312 Y134.059 Z5.824 F200.000
G1 X25.313 Y134.129 Z5.824 F200.000
G1 X-25.313 Y134.129 Z5.824 F200.000
G1 X-25.312 Y134.059 Z5.824 F200.000
G1 X23.812 Y134.059 Z5.824 F200.000
G0 Z12.000
G0 Y163.015 Z12.000
G0 Y163.015 Z10.000
G1 X23.812 Y163.015 Z5.824 F60.000
G1 X25.758 Y163.015 Z5.824 F200.000
G1 X25.759 Y163.085 Z5.824 F200.000
G1 X-25.759 Y163.085 Z5.824 F200.000
G1 X-25.758 Y163.015 Z5.824 F200.000
G1 X23.812 Y163.015 Z5.824 F200.000
G0 Z12.000
G0 Y190.345 Z12.000
G0 Y190.345 Z10.000
G1 X23.812 Y190.345 Z5.824 F60.000
G1 X26.178 Y190.345 Z5.824 F200.000
G1 X26.179 Y190.415 Z5.824 F200.000
G1 X-26.179 Y190.415 Z5.824 F200.000
G1 X-26.178 Y190.345 Z5.824 F200.000
G1 X23.812 Y190.345 Z5.824 F200.000
G0 Z12.000
G0 Y216.141 Z12.000
G0 Y216.141 Z10.000
G1 X23.812 Y216.141 Z5.824 F60.000
G1 X26.575 Y216.141 Z5.824 F200.000
G1 X26.576 Y216.211 Z5.824 F200.000
G1 X-26.576 Y216.211 Z5.824 F200.000
G1 X-26.575 Y216.141 Z5.824 F200.000
G1 X23.812 Y216.141 Z5.824 F200.000
G0 Z12.000
G0 Y240.490 Z12.000
G0 Y240.490 Z10.000
G1 X23.812 Y240.490 Z5.824 F60.000
G1 X26.950 Y240.490 Z5.824 F200.000
G1 X26.951 Y240.560 Z5.824 F200.000
G1 X-26.951 Y240.560 Z5.824 F200.000
G1 X-26.950 Y240.490 Z5.824 F200.000
G1 X23.812 Y240.490 Z5.824 F200.000
G0 Z12.000
G0 Y263.472 Z12.000
G0 Y263.472 Z10.000
G1 X23.812 Y263.472 Z5.824 F60.000
G1 X27.303 Y263.472 Z5.824 F200.000
G1 X27.304 Y263.542 Z5.824 F200.000
G1 X-27.304 Y263.542 Z5.824 F200.000
G1 X-27.303 Y263.472 Z5.824 F200.000
G1 X23.812 Y263.472 Z5.824 F200.000
G0 Z12.000
G0 Y285.164 Z12.000
G0 Y285.164 Z10.000
G1 X23.812 Y285.164 Z5.824 F60.000
G1 X27.637 Y285.164 Z5.824 F200.000
G1 X27.638 Y285.234 Z5.824 F200.000
G1 X-27.638 Y285.234 Z5.824 F200.000
G1 X-27.637 Y285.164 Z5.824 F200.000
G1 X23.812 Y285.164 Z5.824 F200.000
G0 Z12.000
G0 Y305.639 Z12.000
G0 Y305.639 Z10.000
G1 X23.812 Y305.639 Z5.824 F60.000
G1 X27.952 Y305.639 Z5.824 F200.000
G1 X27.953 Y305.709 Z5.824 F200.000
G1 X-27.953 Y305.709 Z5.824 F200.000
G1 X-27.952 Y305.639 Z5.824 F200.000
G1 X23.812 Y305.639 Z5.824 F200.000
G0 Z12.000
G0 Y324.965 Z12.000
G0 Y324.965 Z10.000
G1 X23.812 Y324.965 Z5.824 F60.000
G1 X28.249 Y324.965 Z5.824 F200.000
G1 X28.250 Y325.035 Z5.824 F200.000
G1 X-28.246 Y325.035 Z5.824 F200.000
G1 X-28.246 Y324.965 Z5.824 F200.000
G1 X23.812 Y324.965 Z5.824 F200.000
G0 Z12.000
G0 Y343.206 Z12.000
G0 Y343.206 Z10.000
G1 X23.812 Y343.206 Z5.824 F60.000
G1 X28.530 Y343.206 Z5.824 F200.000
G1 X28.531 Y343.276 Z5.824 F200.000
G1 X-28.531 Y343.276 Z5.824 F200.000
G1 X-28.530 Y343.206 Z5.824 F200.000
G1 X23.812 Y343.206 Z5.824 F200.000
G0 Z12.000
G0 Y376.674 Z12.000
G0 Y376.674 Z10.000
G1 X23.812 Y376.674 Z5.824 F60.000
G1 X29.045 Y376.674 Z5.824 F200.000
G1 X29.046 Y376.744 Z5.824 F200.000
G1 X-29.046 Y376.744 Z5.824 F200.000
G1 X-29.045 Y376.674 Z5.824 F200.000
G1 X23.812 Y376.674 Z5.824 F200.000
G0 Z12.000
G0 Y392.013 Z12.000
G0 Y392.013 Z10.000
G1 X23.812 Y392.013 Z5.824 F60.000
G1 X29.281 Y392.013 Z5.824 F200.000
G1 X29.282 Y392.083 Z5.824 F200.000
G1 X-29.282 Y392.083 Z5.824 F200.000
G1 X-29.281 Y392.013 Z5.824 F200.000
G1 X23.812 Y392.013 Z5.824 F200.000
G0 Z12.000
G0 Y406.491 Z12.000
G0 Y406.491 Z10.000
G1 X23.812 Y406.491 Z5.824 F60.000
G1 X29.504 Y406.491 Z5.824 F200.000
G1 X29.505 Y406.561 Z5.824 F200.000
G1 X-29.505 Y406.561 Z5.824 F200.000
G1 X-29.504 Y406.491 Z5.824 F200.000
G1 X23.812 Y406.491 Z5.824 F200.000
G0 Z12.000
G0 Y420.156 Z12.000
G0 Y420.156 Z10.000
G1 X23.812 Y420.156 Z5.824 F60.000
G1 X29.714 Y420.156 Z5.824 F200.000
G1 X29.715 Y420.226 Z5.824 F200.000
G1 X-29.715 Y420.226 Z5.824 F200.000
G1 X-29.714 Y420.156 Z5.824 F200.000
G1 X23.812 Y420.156 Z5.824 F200.000
G1 X23.812 Y420.156 Z5.676 F60.000
G1 X29.714 Y420.156 Z5.676 F200.000
G1 X29.715 Y420.226 Z5.676 F200.000
G1 X-29.715 Y420.226 Z5.676 F200.000
G1 X-29.714 Y420.156 Z5.676 F200.000
G1 X23.812 Y420.156 Z5.676 F200.000
G0 Z12.000
G0 X23.812 Y406.561 Z12.000
G0 X23.812 Y406.561 Z10.000
G1 X23.812 Y406.561 Z5.676 F60.000
G1 X-29.505 Y406.561 Z5.676 F200.000
G1 X-29.504 Y406.491 Z5.676 F200.000
G1 X29.504 Y406.491 Z5.676 F200.000
G1 X29.505 Y406.561 Z5.676 F200.000
G1 X23.812 Y406.561 Z5.676 F200.000
G0 Z12.000
G0 X23.812 Y392.083 Z12.000
G0 X23.812 Y392.083 Z10.000
G1 X23.812 Y392.083 Z5.676 F60.000
G1 X-29.282 Y392.083 Z5.676 F200.000
G1 X-29.281 Y392.013 Z5.676 F200.000
G1 X29.281 Y392.013 Z5.676 F200.000
G1 X29.282 Y392.083 Z5.676 F200.000
G1 X23.812 Y392.083 Z5.676 F200.000
G0 Z12.000
G0 Y376.744 Z12.000
G0 Y376.744 Z10.000
G1 X23.812 Y376.744 Z5.676 F60.000
G1 X-29.046 Y376.744 Z5.676 F200.000
G1 X-29.045 Y376.674 Z5.676 F200.000
G1 X29.045 Y376.674 Z5.676 F200.000
G1 X29.046 Y376.744 Z5.676 F200.000
G1 X23.812 Y376.744 Z5.676 F200.000
G0 Z12.000
G0 Y343.276 Z12.000
G0 Y343.276 Z10.000
G1 X23.812 Y343.276 Z5.676 F60.000
G1 X-28.531 Y343.276 Z5.676 F200.000
G1 X-28.530 Y343.206 Z5.676 F200.000
G1 X28.530 Y343.206 Z5.676 F200.000
G1 X28.531 Y343.276 Z5.676 F200.000
G1 X23.812 Y343.276 Z5.676 F200.000
G0 Z12.000
G0 X23.812 Y325.035 Z12.000
G0 X23.812 Y325.035 Z10.000
G1 X23.812 Y325.035 Z5.676 F60.000
G1 X-28.246 Y325.035 Z5.676 F200.000
G1 X-28.246 Y324.965 Z5.676 F200.000
G1 X28.249 Y324.965 Z5.676 F200.000
G1 X28.250 Y325.035 Z5.676 F200.000
G1 X23.812 Y325.035 Z5.676 F200.000
G0 Z12.000
G0 Y305.709 Z12.000
G0 Y305.709 Z10.000
G1 X23.812 Y305.709 Z5.676 F60.000
G1 X-27.953 Y305.709 Z5.676 F200.000
G1 X-27.952 Y305.639 Z5.676 F200.000
G1 X27.952 Y305.639 Z5.676 F200.000
G1 X27.953 Y305.709 Z5.676 F200.000
G1 X23.812 Y305.709 Z5.676 F200.000
G0 Z12.000
G0 X23.812 Y285.234 Z12.000
G0 X23.812 Y285.234 Z10.000
G1 X23.812 Y285.234 Z5.676 F60.000
G1 X-27.638 Y285.234 Z5.676 F200.000
G1 X-27.637 Y285.164 Z5.676 F200.000
G1 X27.637 Y285.164 Z5.676 F200.000
G1 X27.638 Y285.234 Z5.676 F200.000
G1 X23.812 Y285.234 Z5.676 F200.000
G0 Z12.000
G0 X23.812 Y263.542 Z12.000
G0 X23.812 Y263.542 Z10.000
G1 X23.812 Y263.542 Z5.676 F60.000
G1 X-27.304 Y263.542 Z5.676 F200.000
G1 X-27.303 Y263.472 Z5.676 F200.000
G1 X27.303 Y263.472 Z5.676 F200.000
G1 X27.304 Y263.542 Z5.676 F200.000
G1 X23.812 Y263.542 Z5.676 F200.000
G0 Z12.000
G0 X23.812 Y240.560 Z12.000
G0 X23.812 Y240.560 Z10.000
G1 X23.812 Y240.560 Z5.676 F60.000
G1 X-26.951 Y240.560 Z5.676 F200.000
G1 X-26.950 Y240.490 Z5.676 F200.000
G1 X26.950 Y240.490 Z5.676 F200.000
G1 X26.951 Y240.560 Z5.676 F200.000
G1 X23.812 Y240.560 Z5.676 F200.000
G0 Z12.000
G0 X23.812 Y216.211 Z12.000
G0 X23.812 Y216.211 Z10.000
G1 X23.812 Y216.211 Z5.676 F60.000
G1 X-26.576 Y216.211 Z5.676 F200.000
G1 X-26.575 Y216.141 Z5.676 F200.000
G1 X26.575 Y216.141 Z5.676 F200.000
G1 X26.576 Y216.211 Z5.676 F200.000
G1 X23.812 Y216.211 Z5.676 F200.000
G0 Z12.000
G0 X23.812 Y190.415 Z12.000
G0 X23.812 Y190.415 Z10.000
G1 X23.812 Y190.415 Z5.676 F60.000
G1 X-26.179 Y190.415 Z5.676 F200.000
G1 X-26.178 Y190.345 Z5.676 F200.000
G1 X26.178 Y190.345 Z5.676 F200.000
G1 X26.179 Y190.415 Z5.676 F200.000
G1 X23.812 Y190.415 Z5.676 F200.000
G0 Z12.000
G0 Y163.085 Z12.000
G0 Y163.085 Z10.000
G1 X23.812 Y163.085 Z5.676 F60.000
G1 X-25.759 Y163.085 Z5.676 F200.000
G1 X-25.758 Y163.015 Z5.676 F200.000
G1 X25.758 Y163.015 Z5.676 F200.000
G1 X25.759 Y163.085 Z5.676 F200.000
G1 X23.812 Y163.085 Z5.676 F200.000
G0 Z12.000
G0 X23.812 Y134.129 Z12.000
G0 X23.812 Y134.129 Z10.000
G1 X23.812 Y134.129 Z5.676 F60.000
G1 X-25.313 Y134.129 Z5.676 F200.000
G1 X-25.312 Y134.059 Z5.676 F200.000
G1 X25.312 Y134.059 Z5.676 F200.000
G1 X25.313 Y134.129 Z5.676 F200.000
G1 X23.812 Y134.129 Z5.676 F200.000
G0 Z12.000
G0 Y103.452 Z12.000
G0 Y103.452 Z10.000
G1 X23.812 Y103.452 Z5.676 F60.000
G1 X-24.842 Y103.452 Z5.676 F200.000
G1 X-24.840 Y103.382 Z5.676 F200.000
G1 X24.840 Y103.382 Z5.676 F200.000
G1 X24.842 Y103.452 Z5.676 F200.000
G1 X23.812 Y103.452 Z5.676 F200.000
G0 Z12.000
G0 Y70.951 Z12.000
G0 Y70.951 Z10.000
G1 X23.812 Y70.951 Z5.676 F60.000
G1 X-24.342 Y70.951 Z5.676 F200.000
G1 X-24.340 Y70.881 Z5.676 F200.000
G1 X24.340 Y70.881 Z5.676 F200.000
G1 X24.341 Y70.951 Z5.676 F200.000
G1 X23.812 Y70.951 Z5.676 F200.000
G0 Z12.000
G0 X23.812 Y36.517 Z12.000
G0 X23.812 Y36.517 Z10.000
G1 X23.812 Y36.517 Z5.676 F60.000
G1 X-23.812 Y36.517 Z5.676 F200.000
G1 X-23.811 Y36.447 Z5.676 F200.000
G1 X23.811 Y36.447 Z5.676 F200.000
G1 X23.812 Y36.517 Z5.676 F200.000
G1 X23.812 Y36.517 Z5.529 F60.000
G1 X-23.812 Y36.517 Z5.529 F200.000
G1 X-23.811 Y36.447 Z5.529 F200.000
G1 X23.811 Y36.447 Z5.529 F200.000
G1 X23.812 Y36.517 Z5.529 F200.000
G0 Z12.000
G0 Y70.881 Z12.000
G0 Y70.881 Z10.000
G1 X23.812 Y70.881 Z5.529 F60.000
G1 X24.340 Y70.881 Z5.529 F200.000
G1 X24.341 Y70.951 Z5.529 F200.000
G1 X-24.342 Y70.951 Z5.529 F200.000
G1 X-24.340 Y70.881 Z5.529 F200.000
G1 X23.812 Y70.881 Z5.529 F200.000
G0 Z12.000
G0 Y103.382 Z12.000
G0 Y103.382 Z10.000
G1 X23.812 Y103.382 Z5.529 F60.000
G1 X24.840 Y103.382 Z5.529 F200.000
G1 X24.842 Y103.452 Z5.529 F200.000
G1 X-24.842 Y103.452 Z5.529 F200.000
G1 X-24.840 Y103.382 Z5.529 F200.000
G1 X23.812 Y103.382 Z5.529 F200.000
G0 Z12.000
G0 Y134.059 Z12.000
G0 Y134.059 Z10.000
G1 X23.812 Y134.059 Z5.529 F60.000
G1 X25.312 Y134.059 Z5.529 F200.000
G1 X25.313 Y134.129 Z5.529 F200.000
G1 X-25.313 Y134.129 Z5.529 F200.000
G1 X-25.312 Y134.059 Z5.529 F200.000
G1 X23.812 Y134.059 Z5.529 F200.000
G0 Z12.000
G0 Y163.015 Z12.000
G0 Y163.015 Z10.000
G1 X23.812 Y163.015 Z5.529 F60.000
G1 X25.758 Y163.015 Z5.529 F200.000
G1 X25.759 Y163.085 Z5.529 F200.000
G1 X-25.759 Y163.085 Z5.529 F200.000
G1 X-25.758 Y163.015 Z5.529 F200.000
G1 X23.812 Y163.015 Z5.529 F200.000
G0 Z12.000
G0 Y190.345 Z12.000
G0 Y190.345 Z10.000
G1 X23.812 Y190.345 Z5.529 F60.000
G1 X26.178 Y190.345 Z5.529 F200.000
G1 X26.179 Y190.415 Z5.529 F200.000
G1 X-26.179 Y190.415 Z5.529 F200.000
G1 X-26.178 Y190.345 Z5.529 F200.000
G1 X23.812 Y190.345 Z5.529 F200.000
G0 Z12.000
G0 Y216.141 Z12.000
G0 Y216.141 Z10.000
G1 X23.812 Y216.141 Z5.529 F60.000
G1 X26.575 Y216.141 Z5.529 F200.000
G1 X26.576 Y216.211 Z5.529 F200.000
G1 X-26.576 Y216.211 Z5.529 F200.000
G1 X-26.575 Y216.141 Z5.529 F200.000
G1 X23.812 Y216.141 Z5.529 F200.000
G0 Z12.000
G0 Y240.490 Z12.000
G0 Y240.490 Z10.000
G1 X23.812 Y240.490 Z5.529 F60.000
G1 X26.950 Y240.490 Z5.529 F200.000
G1 X26.951 Y240.560 Z5.529 F200.000
G1 X-26.951 Y240.560 Z5.529 F200.000
G1 X-26.950 Y240.490 Z5.529 F200.000
G1 X23.812 Y240.490 Z5.529 F200.000
G0 Z12.000
G0 Y263.472 Z12.000
G0 Y263.472 Z10.000
G1 X23.812 Y263.472 Z5.529 F60.000
G1 X27.303 Y263.472 Z5.529 F200.000
G1 X27.304 Y263.542 Z5.529 F200.000
G1 X-27.304 Y263.542 Z5.529 F200.000
G1 X-27.303 Y263.472 Z5.529 F200.000
G1 X23.812 Y263.472 Z5.529 F200.000
G0 Z12.000
G0 Y285.164 Z12.000
G0 Y285.164 Z10.000
G1 X23.812 Y285.164 Z5.529 F60.000
G1 X27.637 Y285.164 Z5.529 F200.000
G1 X27.638 Y285.234 Z5.529 F200.000
G1 X-27.638 Y285.234 Z5.529 F200.000
G1 X-27.637 Y285.164 Z5.529 F200.000
G1 X23.812 Y285.164 Z5.529 F200.000
G0 Z12.000
G0 Y305.639 Z12.000
G0 Y305.639 Z10.000
G1 X23.812 Y305.639 Z5.529 F60.000
G1 X27.952 Y305.639 Z5.529 F200.000
G1 X27.953 Y305.709 Z5.529 F200.000
G1 X-27.953 Y305.709 Z5.529 F200.000
G1 X-27.952 Y305.639 Z5.529 F200.000
G1 X23.812 Y305.639 Z5.529 F200.000
G0 Z12.000
G0 Y324.965 Z12.000
G0 Y324.965 Z10.000
G1 X23.812 Y324.965 Z5.529 F60.000
G1 X28.249 Y324.965 Z5.529 F200.000
G1 X28.250 Y325.035 Z5.529 F200.000
G1 X-28.246 Y325.035 Z5.529 F200.000
G1 X-28.246 Y324.965 Z5.529 F200.000
G1 X23.812 Y324.965 Z5.529 F200.000
G0 Z12.000
G0 Y343.206 Z12.000
G0 Y343.206 Z10.000
G1 X23.812 Y343.206 Z5.529 F60.000
G1 X28.530 Y343.206 Z5.529 F200.000
G1 X28.531 Y343.276 Z5.529 F200.000
G1 X-28.531 Y343.276 Z5.529 F200.000
G1 X-28.530 Y343.206 Z5.529 F200.000
G1 X23.812 Y343.206 Z5.529 F200.000
G0 Z12.000
G0 Y376.674 Z12.000
G0 Y376.674 Z10.000
G1 X23.812 Y376.674 Z5.529 F60.000
G1 X29.045 Y376.674 Z5.529 F200.000
G1 X29.046 Y376.744 Z5.529 F200.000
G1 X-29.046 Y376.744 Z5.529 F200.000
G1 X-29.045 Y376.674 Z5.529 F200.000
G1 X23.812 Y376.674 Z5.529 F200.000
G0 Z12.000
G0 Y392.013 Z12.000
G0 Y392.013 Z10.000
G1 X23.812 Y392.013 Z5.529 F60.000
G1 X29.281 Y392.013 Z5.529 F200.000
G1 X29.282 Y392.083 Z5.529 F200.000
G1 X-29.282 Y392.083 Z5.529 F200.000
G1 X-29.281 Y392.013 Z5.529 F200.000
G1 X23.812 Y392.013 Z5.529 F200.000
G0 Z12.000
G0 Y406.491 Z12.000
G0 Y406.491 Z10.000
G1 X23.812 Y406.491 Z5.529 F60.000
G1 X29.504 Y406.491 Z5.529 F200.000
G1 X29.505 Y406.561 Z5.529 F200.000
G1 X-29.505 Y406.561 Z5.529 F200.000
G1 X-29.504 Y406.491 Z5.529 F200.000
G1 X23.812 Y406.491 Z5.529 F200.000
G0 Z12.000
G0 Y420.156 Z12.000
G0 Y420.156 Z10.000
G1 X23.812 Y420.156 Z5.529 F60.000
G1 X29.714 Y420.156 Z5.529 F200.000
G1 X29.715 Y420.226 Z5.529 F200.000
G1 X-29.715 Y420.226 Z5.529 F200.000
G1 X-29.714 Y420.156 Z5.529 F200.000
G1 X23.812 Y420.156 Z5.529 F200.000
G1 X23.812 Y420.156 Z5.382 F60.000
G1 X29.714 Y420.156 Z5.382 F200.000
G1 X29.715 Y420.226 Z5.382 F200.000
G1 X-29.715 Y420.226 Z5.382 F200.000
G1 X-29.714 Y420.156 Z5.382 F200.000
G1 X23.812 Y420.156 Z5.382 F200.000
G0 Z12.000
G0 X23.812 Y406.561 Z12.000
G0 X23.812 Y406.561 Z10.000
G1 X23.812 Y406.561 Z5.382 F60.000
G1 X-29.505 Y406.561 Z5.382 F200.000
G1 X-29.504 Y406.491 Z5.382 F200.000
G1 X29.504 Y406.491 Z5.382 F200.000
G1 X29.505 Y406.561 Z5.382 F200.000
G1 X23.812 Y406.561 Z5.382 F200.000
G0 Z12.000
G0 X23.812 Y392.083 Z12.000
G0 X23.812 Y392.083 Z10.000
G1 X23.812 Y392.083 Z5.382 F60.000
G1 X-29.282 Y392.083 Z5.382 F200.000
G1 X-29.281 Y392.013 Z5.382 F200.000
G1 X29.281 Y392.013 Z5.382 F200.000
G1 X29.282 Y392.083 Z5.382 F200.000
G1 X23.812 Y392.083 Z5.382 F200.000
G0 Z12.000
G0 Y376.744 Z12.000
G0 Y376.744 Z10.000
G1 X23.812 Y376.744 Z5.382 F60.000
G1 X-29.046 Y376.744 Z5.382 F200.000
G1 X-29.045 Y376.674 Z5.382 F200.000
G1 X29.045 Y376.674 Z5.382 F200.000
G1 X29.046 Y376.744 Z5.382 F200.000
G1 X23.812 Y376.744 Z5.382 F200.000
G0 Z12.000
G0 Y343.276 Z12.000
G0 Y343.276 Z10.000
G1 X23.812 Y343.276 Z5.382 F60.000
G1 X-28.531 Y343.276 Z5.382 F200.000
G1 X-28.530 Y343.206 Z5.382 F200.000
G1 X28.530 Y343.206 Z5.382 F200.000
G1 X28.531 Y343.276 Z5.382 F200.000
G1 X23.812 Y343.276 Z5.382 F200.000
G0 Z12.000
G0 X23.812 Y325.035 Z12.000
G0 X23.812 Y325.035 Z10.000
G1 X23.812 Y325.035 Z5.382 F60.000
G1 X-28.246 Y325.035 Z5.382 F200.000
G1 X-28.246 Y324.965 Z5.382 F200.000
G1 X28.249 Y324.965 Z5.382 F200.000
G1 X28.250 Y325.035 Z5.382 F200.000
G1 X23.812 Y325.035 Z5.382 F200.000
G0 Z12.000
G0 Y305.709 Z12.000
G0 Y305.709 Z10.000
G1 X23.812 Y305.709 Z5.382 F60.000
G1 X-27.953 Y305.709 Z5.382 F200.000
G1 X-27.952 Y305.639 Z5.382 F200.000
G1 X27.952 Y305.639 Z5.382 F200.000
G1 X27.953 Y305.709 Z5.382 F200.000
G1 X23.812 Y305.709 Z5.382 F200.000
G0 Z12.000
G0 X23.812 Y285.234 Z12.000
G0 X23.812 Y285.234 Z10.000
G1 X23.812 Y285.234 Z5.382 F60.000
G1 X-27.638 Y285.234 Z5.382 F200.000
G1 X-27.637 Y285.164 Z5.382 F200.000
G1 X27.637 Y285.164 Z5.382 F200.000
G1 X27.638 Y285.234 Z5.382 F200.000
G1 X23.812 Y285.234 Z5.382 F200.000
G0 Z12.000
G0 X23.812 Y263.542 Z12.000
G0 X23.812 Y263.542 Z10.000
G1 X23.812 Y263.542 Z5.382 F60.000
G1 X-27.304 Y263.542 Z5.382 F200.000
G1 X-27.303 Y263.472 Z5.382 F200.000
G1 X27.303 Y263.472 Z5.382 F200.000
G1 X27.304 Y263.542 Z5.382 F200.000
G1 X23.812 Y263.542 Z5.382 F200.000
G0 Z12.000
G0 X23.812 Y240.560 Z12.000
G0 X23.812 Y240.560 Z10.000
G1 X23.812 Y240.560 Z5.382 F60.000
G1 X-26.951 Y240.560 Z5.382 F200.000
G1 X-26.950 Y240.490 Z5.382 F200.000
G1 X26.950 Y240.490 Z5.382 F200.000
G1 X26.951 Y240.560 Z5.382 F200.000
G1 X23.812 Y240.560 Z5.382 F200.000
G0 Z12.000
G0 X23.812 Y216.211 Z12.000
G0 X23.812 Y216.211 Z10.000
G1 X23.812 Y216.211 Z5.382 F60.000
G1 X-26.576 Y216.211 Z5.382 F200.000
G1 X-26.575 Y216.141 Z5.382 F200.000
G1 X26.575 Y216.141 Z5.382 F200.000
G1 X26.576 Y216.211 Z5.382 F200.000
G1 X23.812 Y216.211 Z5.382 F200.000
G0 Z12.000
G0 X23.812 Y190.415 Z12.000
G0 X23.812 Y190.415 Z10.000
G1 X23.812 Y190.415 Z5.382 F60.000
G1 X-26.179 Y190.415 Z5.382 F200.000
G1 X-26.178 Y190.345 Z5.382 F200.000
G1 X26.178 Y190.345 Z5.382 F200.000
G1 X26.179 Y190.415 Z5.382 F200.000
G1 X23.812 Y190.415 Z5.382 F200.000
G0 Z12.000
G0 Y163.085 Z12.000
G0 Y163.085 Z10.000
G1 X23.812 Y163.085 Z5.382 F60.000
G1 X-25.759 Y163.085 Z5.382 F200.000
G1 X-25.758 Y163.015 Z5.382 F200.000
G1 X25.758 Y163.015 Z5.382 F200.000
G1 X25.759 Y163.085 Z5.382 F200.000
G1 X23.812 Y163.085 Z5.382 F200.000
G0 Z12.000
G0 X23.812 Y134.129 Z12.000
G0 X23.812 Y134.129 Z10.000
G1 X23.812 Y134.129 Z5.382 F60.000
G1 X-25.313 Y134.129 Z5.382 F200.000
G1 X-25.312 Y134.059 Z5.382 F200.000
G1 X25.312 Y134.059 Z5.382 F200.000
G1 X25.313 Y134.129 Z5.382 F200.000
G1 X23.812 Y134.129 Z5.382 F200.000
G0 Z12.000
G0 Y103.452 Z12.000
G0 Y103.452 Z10.000
G1 X23.812 Y103.452 Z5.382 F60.000
G1 X-24.842 Y103.452 Z5.382 F200.000
G1 X-24.840 Y103.382 Z5.382 F200.000
G1 X24.840 Y103.382 Z5.382 F200.000
G1 X24.842 Y103.452 Z5.382 F200.000
G1 X23.812 Y103.452 Z5.382 F200.000
G0 Z12.000
G0 Y70.951 Z12.000
G0 Y70.951 Z10.000
G1 X23.812 Y70.951 Z5.382 F60.000
G1 X-24.342 Y70.951 Z5.382 F200.000
G1 X-24.340 Y70.881 Z5.382 F200.000
G1 X24.340 Y70.881 Z5.382 F200.000
G1 X24.341 Y70.951 Z5.382 F200.000
G1 X23.812 Y70.951 Z5.382 F200.000
G0 Z12.000
G0 X23.812 Y36.517 Z12.000
G0 X23.812 Y36.517 Z10.000
G1 X23.812 Y36.517 Z5.382 F60.000
G1 X-23.812 Y36.517 Z5.382 F200.000
G1 X-23.811 Y36.447 Z5.382 F200.000
G1 X23.811 Y36.447 Z5.382 F200.000
G1 X23.812 Y36.517 Z5.382 F200.000
G1 X23.812 Y36.517 Z5.235 F60.000
G1 X-23.812 Y36.517 Z5.235 F200.000
G1 X-23.811 Y36.447 Z5.235 F200.000
G1 X23.811 Y36.447 Z5.235 F200.000
G1 X23.812 Y36.517 Z5.235 F200.000
G0 Z12.000
G0 Y70.881 Z12.000
G0 Y70.881 Z10.000
G1 X23.812 Y70.881 Z5.235 F60.000
G1 X24.340 Y70.881 Z5.235 F200.000
G1 X24.341 Y70.951 Z5.235 F200.000
G1 X-24.342 Y70.951 Z5.235 F200.000
G1 X-24.340 Y70.881 Z5.235 F200.000
G1 X23.812 Y70.881 Z5.235 F200.000
G0 Z12.000
G0 Y103.382 Z12.000
G0 Y103.382 Z10.000
G1 X23.812 Y103.382 Z5.235 F60.000
G1 X24.840 Y103.382 Z5.235 F200.000
G1 X24.842 Y103.452 Z5.235 F200.000
G1 X-24.842 Y103.452 Z5.235 F200.000
G1 X-24.840 Y103.382 Z5.235 F200.000
G1 X23.812 Y103.382 Z5.235 F200.000
G0 Z12.000
G0 Y134.059 Z12.000
G0 Y134.059 Z10.000
G1 X23.812 Y134.059 Z5.235 F60.000
G1 X25.312 Y134.059 Z5.235 F200.000
G1 X25.313 Y134.129 Z5.235 F200.000
G1 X-25.313 Y134.129 Z5.235 F200.000
G1 X-25.312 Y134.059 Z5.235 F200.000
G1 X23.812 Y134.059 Z5.235 F200.000
G0 Z12.000
G0 Y163.015 Z12.000
G0 Y163.015 Z10.000
G1 X23.812 Y163.015 Z5.235 F60.000
G1 X25.758 Y163.015 Z5.235 F200.000
G1 X25.759 Y163.085 Z5.235 F200.000
G1 X-25.759 Y163.085 Z5.235 F200.000
G1 X-25.758 Y163.015 Z5.235 F200.000
G1 X23.812 Y163.015 Z5.235 F200.000
G0 Z12.000
G0 Y190.345 Z12.000
G0 Y190.345 Z10.000
G1 X23.812 Y190.345 Z5.235 F60.000
G1 X26.178 Y190.345 Z5.235 F200.000
G1 X26.179 Y190.415 Z5.235 F200.000
G1 X-26.179 Y190.415 Z5.235 F200.000
G1 X-26.178 Y190.345 Z5.235 F200.000
G1 X23.812 Y190.345 Z5.235 F200.000
G0 Z12.000
G0 Y216.141 Z12.000
G0 Y216.141 Z10.000
G1 X23.812 Y216.141 Z5.235 F60.000
G1 X26.575 Y216.141 Z5.235 F200.000
G1 X26.576 Y216.211 Z5.235 F200.000
G1 X-26.576 Y216.211 Z5.235 F200.000
G1 X-26.575 Y216.141 Z5.235 F200.000
G1 X23.812 Y216.141 Z5.235 F200.000
G0 Z12.000
G0 Y240.490 Z12.000
G0 Y240.490 Z10.000
G1 X23.812 Y240.490 Z5.235 F60.000
G1 X26.950 Y240.490 Z5.235 F200.000
G1 X26.951 Y240.560 Z5.235 F200.000
G1 X-26.951 Y240.560 Z5.235 F200.000
G1 X-26.950 Y240.490 Z5.235 F200.000
G1 X23.812 Y240.490 Z5.235 F200.000
G0 Z12.000
G0 Y263.472 Z12.000
G0 Y263.472 Z10.000
G1 X23.812 Y263.472 Z5.235 F60.000
G1 X27.303 Y263.472 Z5.235 F200.000
G1 X27.304 Y263.542 Z5.235 F200.000
G1 X-27.304 Y263.542 Z5.235 F200.000
G1 X-27.303 Y263.472 Z5.235 F200.000
G1 X23.812 Y263.472 Z5.235 F200.000
G0 Z12.000
G0 Y285.164 Z12.000
G0 Y285.164 Z10.000
G1 X23.812 Y285.164 Z5.235 F60.000
G1 X27.637 Y285.164 Z5.235 F200.000
G1 X27.638 Y285.234 Z5.235 F200.000
G1 X-27.638 Y285.234 Z5.235 F200.000
G1 X-27.637 Y285.164 Z5.235 F200.000
G1 X23.812 Y285.164 Z5.235 F200.000
G0 Z12.000
G0 Y305.639 Z12.000
G0 Y305.639 Z10.000
G1 X23.812 Y305.639 Z5.235 F60.000
G1 X27.952 Y305.639 Z5.235 F200.000
G1 X27.953 Y305.709 Z5.235 F200.000
G1 X-27.953 Y305.709 Z5.235 F200.000
G1 X-27.952 Y305.639 Z5.235 F200.000
G1 X23.812 Y305.639 Z5.235 F200.000
G0 Z12.000
G0 Y324.965 Z12.000
G0 Y324.965 Z10.000
G1 X23.812 Y324.965 Z5.235 F60.000
G1 X28.249 Y324.965 Z5.235 F200.000
G1 X28.250 Y325.035 Z5.235 F200.000
G1 X-28.246 Y325.035 Z5.235 F200.000
G1 X-28.246 Y324.965 Z5.235 F200.000
G1 X23.812 Y324.965 Z5.235 F200.000
G0 Z12.000
G0 Y343.206 Z12.000
G0 Y343.206 Z10.000
G1 X23.812 Y343.206 Z5.235 F60.000
G1 X28.530 Y343.206 Z5.235 F200.000
G1 X28.531 Y343.276 Z5.235 F200.000
G1 X-28.531 Y343.276 Z5.235 F200.000
G1 X-28.530 Y343.206 Z5.235 F200.000
G1 X23.812 Y343.206 Z5.235 F200.000
G0 Z12.000
G0 Y376.674 Z12.000
G0 Y376.674 Z10.000
G1 X23.812 Y376.674 Z5.235 F60.000
G1 X29.045 Y376.674 Z5.235 F200.000
G1 X29.046 Y376.744 Z5.235 F200.000
G1 X-29.046 Y376.744 Z5.235 F200.000
G1 X-29.045 Y376.674 Z5.235 F200.000
G1 X23.812 Y376.674 Z5.235 F200.000
G0 Z12.000
G0 Y392.013 Z12.000
G0 Y392.013 Z10.000
G1 X23.812 Y392.013 Z5.235 F60.000
G1 X29.281 Y392.013 Z5.235 F200.000
G1 X29.282 Y392.083 Z5.235 F200.000
G1 X-29.282 Y392.083 Z5.235 F200.000
G1 X-29.281 Y392.013 Z5.235 F200.000
G1 X23.812 Y392.013 Z5.235 F200.000
G0 Z12.000
G0 Y406.491 Z12.000
G0 Y406.491 Z10.000
G1 X23.812 Y406.491 Z5.235 F60.000
G1 X29.504 Y406.491 Z5.235 F200.000
G1 X29.505 Y406.561 Z5.235 F200.000
G1 X-29.505 Y406.561 Z5.235 F200.000
G1 X-29.504 Y406.491 Z5.235 F200.000
G1 X23.812 Y406.491 Z5.235 F200.000
G0 Z12.000
G0 Y420.156 Z12.000
G0 Y420.156 Z10.000
G1 X23.812 Y420.156 Z5.235 F60.000
G1 X29.714 Y420.156 Z5.235 F200.000
G1 X29.715 Y420.226 Z5.235 F200.000
G1 X-29.715 Y420.226 Z5.235 F200.000
G1 X-29.714 Y420.156 Z5.235 F200.000
G1 X23.812 Y420.156 Z5.235 F200.000
G1 X23.812 Y420.156 Z5.088 F60.000
G1 X29.714 Y420.156 Z5.088 F200.000
G1 X29.715 Y420.226 Z5.088 F200.000
G1 X4.484 Y420.226 Z5.088 F200.000
G1 X4.484 Y420.156 Z5.088 F200.000
G1 X23.812 Y420.156 Z5.088 F200.000
G0 Z12.000
G0 X23.812 Y406.561 Z12.000
G0 X23.812 Y406.561 Z10.000
G1 X23.812 Y406.561 Z5.088 F60.000
G1 X4.484 Y406.561 Z5.088 F200.000
G1 X4.484 Y406.491 Z5.088 F200.000
G1 X29.504 Y406.491 Z5.088 F200.000
G1 X29.505 Y406.561 Z5.088 F200.000
G1 X23.812 Y406.561 Z5.088 F200.000
G0 Z12.000
G0 X23.812 Y392.083 Z12.000
G0 X23.812 Y392.083 Z10.000
G1 X23.812 Y392.083 Z5.088 F60.000
G1 X4.484 Y392.083 Z5.088 F200.000
G1 X4.484 Y392.013 Z5.088 F200.000
G1 X29.281 Y392.013 Z5.088 F200.000
G1 X29.282 Y392.083 Z5.088 F200.000
G1 X23.812 Y392.083 Z5.088 F200.000
G0 Z12.000
G0 Y376.744 Z12.000
G0 Y376.744 Z10.000
G1 X23.812 Y376.744 Z5.088 F60.000
G1 X4.484 Y376.744 Z5.088 F200.000
G1 X4.484 Y376.674 Z5.088 F200.000
G1 X29.045 Y376.674 Z5.088 F200.000
G1 X29.046 Y376.744 Z5.088 F200.000
G1 X23.812 Y376.744 Z5.088 F200.000
G0 Z12.000
G0 X-4.484 Z12.000
G0 X-4.484 Z10.000
G1 X-4.484 Y376.744 Z5.088 F60.000
G1 X-29.046 Y376.744 Z5.088 F200.000
G1 X-29.045 Y376.674 Z5.088 F200.000
G1 X-4.484 Y376.674 Z5.088 F200.000
G1 X-4.484 Y376.744 Z5.088 F200.000
G0 Z12.000
G0 Y392.013 Z12.000
G0 Y392.013 Z10.000
G1 X-4.484 Y392.013 Z5.088 F60.000
G1 X-4.484 Y392.083 Z5.088 F200.000
G1 X-29.282 Y392.083 Z5.088 F200.000
G1 X-29.281 Y392.013 Z5.088 F200.000
G1 X-4.484 Y392.013 Z5.088 F200.000
G0 Z12.000
G0 Y406.491 Z12.000
G0 Y406.491 Z10.000
G1 X-4.484 Y406.491 Z5.088 F60.000
G1 X-4.484 Y406.561 Z5.088 F200.000
G1 X-29.505 Y406.561 Z5.088 F200.000
G1 X-29.504 Y406.491 Z5.088 F200.000
G1 X-4.484 Y406.491 Z5.088 F200.000
G0 Z12.000
G0 Y420.156 Z12.000
G0 Y420.156 Z10.000
G1 X-4.484 Y420.156 Z5.088 F60.000
G1 X-4.484 Y420.226 Z5.088 F200.000
G1 X-29.715 Y420.226 Z5.088 F200.000
G1 X-29.714 Y420.156 Z5.088 F200.000
G1 X-4.484 Y420.156 Z5.088 F200.000
G0 Z12.000
G0 Y343.276 Z12.000
G0 Y343.276 Z10.000
G1 X-4.484 Y343.276 Z5.088 F60.000
G1 X-28.531 Y343.276 Z5.088 F200.000
G1 X-28.530 Y343.206 Z5.088 F200.000
G1 X-4.484 Y343.206 Z5.088 F200.000
G1 X-4.484 Y343.276 Z5.088 F200.000
G0 Z12.000
G0 X4.484 Z12.000
G0 X4.484 Z10.000
G1 X4.484 Y343.276 Z5.088 F60.000
G1 X4.484 Y343.206 Z5.088 F200.000
G1 X28.530 Y343.206 Z5.088 F200.000
G1 X28.531 Y343.276 Z5.088 F200.000
G1 X4.484 Y343.276 Z5.088 F200.000
G0 Z12.000
G0 Y325.035 Z12.000
G0 Y325.035 Z10.000
G1 X4.484 Y325.035 Z5.088 F60.000
G1 X4.484 Y324.965 Z5.088 F200.000
G1 X28.249 Y324.965 Z5.088 F200.000
G1 X28.250 Y325.035 Z5.088 F200.000
G1 X4.484 Y325.035 Z5.088 F200.000
G0 Z12.000
G0 X-4.484 Y325.035 Z12.000
G0 X-4.484 Y325.035 Z10.000
G1 X-4.484 Y325.035 Z5.088 F60.000
G1 X-28.246 Y325.035 Z5.088 F200.000
G1 X-28.246 Y324.965 Z5.088 F200.000
G1 X-4.484 Y324.965 Z5.088 F200.000
G1 X-4.484 Y325.035 Z5.088 F200.000
G0 Z12.000
G0 Y305.709 Z12.000
G0 Y305.709 Z10.000
G1 X-4.484 Y305.709 Z5.088 F60.000
G1 X-27.953 Y305.709 Z5.088 F200.000
G1 X-27.952 Y305.639 Z5.088 F200.000
G1 X-4.484 Y305.639 Z5.088 F200.000
G1 X-4.484 Y305.709 Z5.088 F200.000
G0 Z12.000
G0 X4.484 Z12.000
G0 X4.484 Z10.000
G1 X4.484 Y305.709 Z5.088 F60.000
G1 X4.484 Y305.639 Z5.088 F200.000
G1 X27.952 Y305.639 Z5.088 F200.000
G1 X27.953 Y305.709 Z5.088 F200.000
G1 X4.484 Y305.709 Z5.088 F200.000
G0 Z12.000
G0 Y285.234 Z12.000
G0 Y285.234 Z10.000
G1 X4.484 Y285.234 Z5.088 F60.000
G1 X4.484 Y285.164 Z5.088 F200.000
G1 X27.637 Y285.164 Z5.088 F200.000
G1 X27.638 Y285.234 Z5.088 F200.000
G1 X4.484 Y285.234 Z5.088 F200.000
G0 Z12.000
G0 X-4.484 Y285.234 Z12.000
G0 X-4.484 Y285.234 Z10.000
G1 X-4.484 Y285.234 Z5.088 F60.000
G1 X-27.638 Y285.234 Z5.088 F200.000
G1 X-27.637 Y285.164 Z5.088 F200.000
G1 X-4.484 Y285.164 Z5.088 F200.000
G1 X-4.484 Y285.234 Z5.088 F200.000
G0 Z12.000
G0 Y263.542 Z12.000
G0 Y263.542 Z10.000
G1 X-4.484 Y263.542 Z5.088 F60.000
G1 X-27.304 Y263.542 Z5.088 F200.000
G1 X-27.303 Y263.472 Z5.088 F200.000
G1 X-4.484 Y263.472 Z5.088 F200.000
G1 X-4.484 Y263.542 Z5.088 F200.000
G0 Z12.000
G0 X4.484 Y263.542 Z12.000
G0 X4.484 Y263.542 Z10.000
G1 X4.484 Y263.542 Z5.088 F60.000
G1 X4.484 Y263.472 Z5.088 F200.000
G1 X27.303 Y263.472 Z5.088 F200.000
G1 X27.304 Y263.542 Z5.088 F200.000
G1 X4.484 Y263.542 Z5.088 F200.000
G0 Z12.000
G0 Y240.560 Z12.000
G0 Y240.560 Z10.000
G1 X4.484 Y240.560 Z5.088 F60.000
G1 X4.484 Y240.490 Z5.088 F200.000
G1 X26.950 Y240.490 Z5.088 F200.000
G1 X26.951 Y240.560 Z5.088 F200.000
G1 X4.484 Y240.560 Z5.088 F200.000
G0 Z12.000
G0 X-4.484 Y240.560 Z12.000
G0 X-4.484 Y240.560 Z10.000
G1 X-4.484 Y240.560 Z5.088 F60.000
G1 X-26.951 Y240.560 Z5.088 F200.000
G1 X-26.950 Y240.490 Z5.088 F200.000
G1 X-4.484 Y240.490 Z5.088 F200.000
G1 X-4.484 Y240.560 Z5.088 F200.000
G0 Z12.000
G0 Y216.211 Z12.000
G0 Y216.211 Z10.000
G1 X-4.484 Y216.211 Z5.088 F60.000
G1 X-26.576 Y216.211 Z5.088 F200.000
G1 X-26.575 Y216.141 Z5.088 F200.000
G1 X-4.484 Y216.141 Z5.088 F200.000
G1 X-4.484 Y216.211 Z5.088 F200.000
G0 Z12.000
G0 X4.484 Y216.211 Z12.000
G0 X4.484 Y216.211 Z10.000
G1 X4.484 Y216.211 Z5.088 F60.000
G1 X4.484 Y216.141 Z5.088 F200.000
G1 X26.575 Y216.141 Z5.088 F200.000
G1 X26.576 Y216.211 Z5.088 F200.000
G1 X4.484 Y216.211 Z5.088 F200.000
G0 Z12.000
G0 Y190.415 Z12.000
G0 Y190.415 Z10.000
G1 X4.484 Y190.415 Z5.088 F60.000
G1 X4.484 Y190.345 Z5.088 F200.000
G1 X26.178 Y190.345 Z5.088 F200.000
G1 X26.179 Y190.415 Z5.088 F200.000
G1 X4.484 Y190.415 Z5.088 F200.000
G0 Z12.000
G0 X-4.484 Y190.415 Z12.000
G0 X-4.484 Y190.415 Z10.000
G1 X-4.484 Y190.415 Z5.088 F60.000
G1 X-26.179 Y190.415 Z5.088 F200.000
G1 X-26.178 Y190.345 Z5.088 F200.000
G1 X-4.484 Y190.345 Z5.088 F200.000
G1 X-4.484 Y190.415 Z5.088 F200.000
G0 Z12.000
G0 Y163.085 Z12.000
G0 Y163.085 Z10.000
G1 X-4.484 Y163.085 Z5.088 F60.000
G1 X-25.759 Y163.085 Z5.088 F200.000
G1 X-25.758 Y163.015 Z5.088 F200.000
G1 X-4.484 Y163.015 Z5.088 F200.000
G1 X-4.484 Y163.085 Z5.088 F200.000
G0 Z12.000
G0 X4.484 Z12.000
G0 X4.484 Z10.000
G1 X4.484 Y163.085 Z5.088 F60.000
G1 X4.484 Y163.015 Z5.088 F200.000
G1 X25.758 Y163.015 Z5.088 F200.000
G1 X25.759 Y163.085 Z5.088 F200.000
G1 X4.484 Y163.085 Z5.088 F200.000
G0 Z12.000
G0 Y134.129 Z12.000
G0 Y134.129 Z10.000
G1 X4.484 Y134.129 Z5.088 F60.000
G1 X4.484 Y134.059 Z5.088 F200.000
G1 X25.312 Y134.059 Z5.088 F200.000
G1 X25.313 Y134.129 Z5.088 F200.000
G1 X4.484 Y134.129 Z5.088 F200.000
G0 Z12.000
G0 X-4.484 Y134.129 Z12.000
G0 X-4.484 Y134.129 Z10.000
G1 X-4.484 Y134.129 Z5.088 F60.000
G1 X-25.313 Y134.129 Z5.088 F200.000
G1 X-25.312 Y134.059 Z5.088 F200.000
G1 X-4.484 Y134.059 Z5.088 F200.000
G1 X-4.484 Y134.129 Z5.088 F200.000
G0 Z12.000
G0 Y103.452 Z12.000
G0 Y103.452 Z10.000
G1 X-4.484 Y103.452 Z5.088 F60.000
G1 X-24.842 Y103.452 Z5.088 F200.000
G1 X-24.840 Y103.382 Z5.088 F200.000
G1 X-4.484 Y103.382 Z5.088 F200.000
G1 X-4.484 Y103.452 Z5.088 F200.000
G0 Z12.000
G0 X4.484 Z12.000
G0 X4.484 Z10.000
G1 X4.484 Y103.452 Z5.088 F60.000
G1 X4.484 Y103.382 Z5.088 F200.000
G1 X24.840 Y103.382 Z5.088 F200.000
G1 X24.842 Y103.452 Z5.088 F200.000
G1 X4.484 Y103.452 Z5.088 F200.000
G0 Z12.000
G0 Y70.951 Z12.000
G0 Y70.951 Z10.000
G1 X4.484 Y70.951 Z5.088 F60.000
G1 X4.484 Y70.881 Z5.088 F200.000
G1 X24.340 Y70.881 Z5.088 F200.000
G1 X24.341 Y70.951 Z5.088 F200.000
G1 X4.484 Y70.951 Z5.088 F200.000
G0 Z12.000
G0 X-4.484 Z12.000
G0 X-4.484 Z10.000
G1 X-4.484 Y70.951 Z5.088 F60.000
G1 X-24.342 Y70.951 Z5.088 F200.000
G1 X-24.340 Y70.881 Z5.088 F200.000
G1 X-4.484 Y70.881 Z5.088 F200.000
G1 X-4.484 Y70.951 Z5.088 F200.000
G0 Z12.000
G0 Y36.517 Z12.000
G0 Y36.517 Z10.000
G1 X-4.484 Y36.517 Z5.088 F60.000
G1 X-23.812 Y36.517 Z5.088 F200.000
G1 X-23.811 Y36.447 Z5.088 F200.000
G1 X-4.484 Y36.447 Z5.088 F200.000
G1 X-4.484 Y36.517 Z5.088 F200.000
G0 Z12.000
G0 X4.484 Y36.517 Z12.000
G0 X4.484 Y36.517 Z10.000
G1 X4.484 Y36.517 Z5.088 F60.000
G1 X4.484 Y36.447 Z5.088 F200.000
G1 X23.811 Y36.447 Z5.088 F200.000
G1 X23.812 Y36.517 Z5.088 F200.000
G1 X4.484 Y36.517 Z5.088 F200.000
G0 Z12.000
G0 X15.807 Y36.517 Z12.000
G0 X15.807 Y36.517 Z10.000
G1 X15.807 Y36.517 Z4.941 F60.000
G1 X15.807 Y36.447 Z4.941 F200.000
G1 X23.811 Y36.447 Z4.941 F200.000
G1 X23.812 Y36.517 Z4.941 F200.000
G1 X15.807 Y36.517 Z4.941 F200.000
G0 Z12.000
G0 X-15.807 Y36.517 Z12.000
G0 X-15.807 Y36.517 Z10.000
G1 X-15.807 Y36.517 Z4.941 F60.000
G1 X-23.812 Y36.517 Z4.941 F200.000
G1 X-23.811 Y36.447 Z4.941 F200.000
G1 X-15.807 Y36.447 Z4.941 F200.000
G1 X-15.807 Y36.517 Z4.941 F200.000
G0 Z12.000
G0 Y70.881 Z12.000
G0 Y70.881 Z10.000
G1 X-15.807 Y70.881 Z4.941 F60.000
G1 X-15.807 Y70.951 Z4.941 F200.000
G1 X-24.342 Y70.951 Z4.941 F200.000
G1 X-24.340 Y70.881 Z4.941 F200.000
G1 X-15.807 Y70.881 Z4.941 F200.000
G0 Z12.000
G0 X15.807 Z12.000
G0 X15.807 Z10.000
G1 X15.807 Y70.881 Z4.941 F60.000
G1 X24.340 Y70.881 Z4.941 F200.000
G1 X24.341 Y70.951 Z4.941 F200.000
G1 X15.807 Y70.951 Z4.941 F200.000
G1 X15.807 Y70.881 Z4.941 F200.000
G0 Z12.000
G0 Y103.382 Z12.000
G0 Y103.382 Z10.000
G1 X15.807 Y103.382 Z4.941 F60.000
G1 X24.840 Y103.382 Z4.941 F200.000
G1 X24.842 Y103.452 Z4.941 F200.000
G1 X15.807 Y103.452 Z4.941 F200.000
G1 X15.807 Y103.382 Z4.941 F200.000
G0 Z12.000
G0 Y134.059 Z12.000
G0 Y134.059 Z10.000
G1 X15.807 Y134.059 Z4.941 F60.000
G1 X25.312 Y134.059 Z4.941 F200.000
G1 X25.313 Y134.129 Z4.941 F200.000
G1 X15.807 Y134.129 Z4.941 F200.000
G1 X15.807 Y134.059 Z4.941 F200.000
G0 Z12.000
G0 Y163.015 Z12.000
G0 Y163.015 Z10.000
G1 X15.807 Y163.015 Z4.941 F60.000
G1 X25.758 Y163.015 Z4.941 F200.000
G1 X25.759 Y163.085 Z4.941 F200.000
G1 X15.807 Y163.085 Z4.941 F200.000
G1 X15.807 Y163.015 Z4.941 F200.000
G0 Z12.000
G0 Y190.345 Z12.000
G0 Y190.345 Z10.000
G1 X15.807 Y190.345 Z4.941 F60.000
G1 X26.178 Y190.345 Z4.941 F200.000
G1 X26.179 Y190.415 Z4.941 F200.000
G1 X15.807 Y190.415 Z4.941 F200.000
G1 X15.807 Y190.345 Z4.941 F200.000
G0 Z12.000
G0 Y216.141 Z12.000
G0 Y216.141 Z10.000
G1 X15.807 Y216.141 Z4.941 F60.000
G1 X26.575 Y216.141 Z4.941 F200.000
G1 X26.576 Y216.211 Z4.941 F200.000
G1 X15.807 Y216.211 Z4.941 F200.000
G1 X15.807 Y216.141 Z4.941 F200.000
G0 Z12.000
G0 Y240.490 Z12.000
G0 Y240.490 Z10.000
G1 X15.807 Y240.490 Z4.941 F60.000
G1 X26.950 Y240.490 Z4.941 F200.000
G1 X26.951 Y240.560 Z4.941 F200.000
G1 X15.807 Y240.560 Z4.941 F200.000
G1 X15.807 Y240.490 Z4.941 F200.000
G0 Z12.000
G0 Y263.472 Z12.000
G0 Y263.472 Z10.000
G1 X15.807 Y263.472 Z4.941 F60.000
G1 X27.303 Y263.472 Z4.941 F200.000
G1 X27.304 Y263.542 Z4.941 F200.000
G1 X15.807 Y263.542 Z4.941 F200.000
G1 X15.807 Y263.472 Z4.941 F200.000
G0 Z12.000
G0 Y285.164 Z12.000
G0 Y285.164 Z10.000
G1 X15.807 Y285.164 Z4.941 F60.000
G1 X27.637 Y285.164 Z4.941 F200.000
G1 X27.638 Y285.234 Z4.941 F200.000
G1 X15.807 Y285.234 Z4.941 F200.000
G1 X15.807 Y285.164 Z4.941 F200.000
G0 Z12.000
G0 Y305.639 Z12.000
G0 Y305.639 Z10.000
G1 X15.807 Y305.639 Z4.941 F60.000
G1 X27.952 Y305.639 Z4.941 F200.000
G1 X27.953 Y305.709 Z4.941 F200.000
G1 X15.807 Y305.709 Z4.941 F200.000
G1 X15.807 Y305.639 Z4.941 F200.000
G0 Z12.000
G0 Y324.965 Z12.000
G0 Y324.965 Z10.000
G1 X15.807 Y324.965 Z4.941 F60.000
G1 X28.249 Y324.965 Z4.941 F200.000
G1 X28.250 Y325.035 Z4.941 F200.000
G1 X15.807 Y325.035 Z4.941 F200.000
G1 X15.807 Y324.965 Z4.941 F200.000
G0 Z12.000
G0 Y343.206 Z12.000
G0 Y343.206 Z10.000
G1 X15.807 Y343.206 Z4.941 F60.000
G1 X28.530 Y343.206 Z4.941 F200.000
G1 X28.531 Y343.276 Z4.941 F200.000
G1 X15.807 Y343.276 Z4.941 F200.000
G1 X15.807 Y343.206 Z4.941 F200.000
G0 Z12.000
G0 X-15.807 Z12.000
G0 X-15.807 Z10.000
G1 X-15.807 Y343.206 Z4.941 F60.000
G1 X-15.807 Y343.276 Z4.941 F200.000
G1 X-28.531 Y343.276 Z4.941 F200.000
G1 X-28.530 Y343.206 Z4.941 F200.000
G1 X-15.807 Y343.206 Z4.941 F200.000
G0 Z12.000
G0 Y325.035 Z12.000
G0 Y325.035 Z10.000
G1 X-15.807 Y325.035 Z4.941 F60.000
G1 X-28.246 Y325.035 Z4.941 F200.000
G1 X-28.246 Y324.965 Z4.941 F200.000
G1 X-15.807 Y324.965 Z4.941 F200.000
G1 X-15.807 Y325.035 Z4.941 F200.000
G0 Z12.000
G0 Y305.709 Z12.000
G0 Y305.709 Z10.000
G1 X-15.807 Y305.709 Z4.941 F60.000
G1 X-27.953 Y305.709 Z4.941 F200.000
G1 X-27.952 Y305.639 Z4.941 F200.000
G1 X-15.807 Y305.639 Z4.941 F200.000
G1 X-15.807 Y305.709 Z4.941 F200.000
G0 Z12.000
G0 Y285.234 Z12.000
G0 Y285.234 Z10.000
G1 X-15.807 Y285.234 Z4.941 F60.000
G1 X-27.638 Y285.234 Z4.941 F200.000
G1 X-27.637 Y285.164 Z4.941 F200.000
G1 X-15.807 Y285.164 Z4.941 F200.000
G1 X-15.807 Y285.234 Z4.941 F200.000
G0 Z12.000
G0 Y263.542 Z12.000
G0 Y263.542 Z10.000
G1 X-15.807 Y263.542 Z4.941 F60.000
G1 X-27.304 Y263.542 Z4.941 F200.000
G1 X-27.303 Y263.472 Z4.941 F200.000
G1 X-15.807 Y263.472 Z4.941 F200.000
G1 X-15.807 Y263.542 Z4.941 F200.000
G0 Z12.000
G0 Y240.560 Z12.000
G0 Y240.560 Z10.000
G1 X-15.807 Y240.560 Z4.941 F60.000
G1 X-26.951 Y240.560 Z4.941 F200.000
G1 X-26.950 Y240.490 Z4.941 F200.000
G1 X-15.807 Y240.490 Z4.941 F200.000
G1 X-15.807 Y240.560 Z4.941 F200.000
G0 Z12.000
G0 Y216.211 Z12.000
G0 Y216.211 Z10.000
G1 X-15.807 Y216.211 Z4.941 F60.000
G1 X-26.576 Y216.211 Z4.941 F200.000
G1 X-26.575 Y216.141 Z4.941 F200.000
G1 X-15.807 Y216.141 Z4.941 F200.000
G1 X-15.807 Y216.211 Z4.941 F200.000
G0 Z12.000
G0 Y190.415 Z12.000
G0 Y190.415 Z10.000
G1 X-15.807 Y190.415 Z4.941 F60.000
G1 X-26.179 Y190.415 Z4.941 F200.000
G1 X-26.178 Y190.345 Z4.941 F200.000
G1 X-15.807 Y190.345 Z4.941 F200.000
G1 X-15.807 Y190.415 Z4.941 F200.000
G0 Z12.000
G0 Y163.085 Z12.000
G0 Y163.085 Z10.000
G1 X-15.807 Y163.085 Z4.941 F60.000
G1 X-25.759 Y163.085 Z4.941 F200.000
G1 X-25.758 Y163.015 Z4.941 F200.000
G1 X-15.807 Y163.015 Z4.941 F200.000
G1 X-15.807 Y163.085 Z4.941 F200.000
G0 Z12.000
G0 Y134.129 Z12.000
G0 Y134.129 Z10.000
G1 X-15.807 Y134.129 Z4.941 F60.000
G1 X-25.313 Y134.129 Z4.941 F200.000
G1 X-25.312 Y134.059 Z4.941 F200.000
G1 X-15.807 Y134.059 Z4.941 F200.000
G1 X-15.807 Y134.129 Z4.941 F200.000
G0 Z12.000
G0 Y103.452 Z12.000
G0 Y103.452 Z10.000
G1 X-15.807 Y103.452 Z4.941 F60.000
G1 X-24.842 Y103.452 Z4.941 F200.000
G1 X-24.840 Y103.382 Z4.941 F200.000
G1 X-15.807 Y103.382 Z4.941 F200.000
G1 X-15.807 Y103.452 Z4.941 F200.000
G0 Z12.000
G0 Y376.674 Z12.000
G0 Y376.674 Z10.000
G1 X-15.807 Y376.674 Z4.941 F60.000
G1 X-15.807 Y376.744 Z4.941 F200.000
G1 X-29.046 Y376.744 Z4.941 F200.000
G1 X-29.045 Y376.674 Z4.941 F200.000
G1 X-15.807 Y376.674 Z4.941 F200.000
G0 Z12.000
G0 Y392.013 Z12.000
G0 Y392.013 Z10.000
G1 X-15.807 Y392.013 Z4.941 F60.000
G1 X-15.807 Y392.083 Z4.941 F200.000
G1 X-29.282 Y392.083 Z4.941 F200.000
G1 X-29.281 Y392.013 Z4.941 F200.000
G1 X-15.807 Y392.013 Z4.941 F200.000
G0 Z12.000
G0 Y406.491 Z12.000
G0 Y406.491 Z10.000
G1 X-15.807 Y406.491 Z4.941 F60.000
G1 X-15.807 Y406.561 Z4.941 F200.000
G1 X-29.505 Y406.561 Z4.941 F200.000
G1 X-29.504 Y406.491 Z4.941 F200.000
G1 X-15.807 Y406.491 Z4.941 F200.000
G0 Z12.000
G0 Y420.156 Z12.000
G0 Y420.156 Z10.000
G1 X-15.807 Y420.156 Z4.941 F60.000
G1 X-15.807 Y420.226 Z4.941 F200.000
G1 X-29.715 Y420.226 Z4.941 F200.000
G1 X-29.714 Y420.156 Z4.941 F200.000
G1 X-15.807 Y420.156 Z4.941 F200.000
G0 Z12.000
G0 X15.807 Z12.000
G0 X15.807 Z10.000
G1 X15.807 Y420.156 Z4.941 F60.000
G1 X29.714 Y420.156 Z4.941 F200.000
G1 X29.715 Y420.226 Z4.941 F200.000
G1 X15.807 Y420.226 Z4.941 F200.000
G1 X15.807 Y420.156 Z4.941 F200.000
G0 Z12.000
G0 Y406.561 Z12.000
G0 Y406.561 Z10.000
G1 X15.807 Y406.561 Z4.941 F60.000
G1 X15.807 Y406.491 Z4.941 F200.000
G1 X29.504 Y406.491 Z4.941 F200.000
G1 X29.505 Y406.561 Z4.941 F200.000
G1 X15.807 Y406.561 Z4.941 F200.000
G0 Z12.000
G0 Y392.083 Z12.000
G0 Y392.083 Z10.000
G1 X15.807 Y392.083 Z4.941 F60.000
G1 X15.807 Y392.013 Z4.941 F200.000
G1 X29.281 Y392.013 Z4.941 F200.000
G1 X29.282 Y392.083 Z4.941 F200.000
G1 X15.807 Y392.083 Z4.941 F200.000
G0 Z12.000
G0 Y376.744 Z12.000
G0 Y376.744 Z10.000
G1 X15.807 Y376.744 Z4.941 F60.000
G1 X15.807 Y376.674 Z4.941 F200.000
G1 X29.045 Y376.674 Z4.941 F200.000
G1 X29.046 Y376.744 Z4.941 F200.000
G1 X15.807 Y376.744 Z4.941 F200.000
G0 Z12.000
G0 X21.839 Z12.000
G0 X21.839 Z10.000
G1 X21.839 Y376.744 Z4.794 F60.000
G1 X21.839 Y376.674 Z4.794 F200.000
G1 X29.045 Y376.674 Z4.794 F200.000
G1 X29.046 Y376.744 Z4.794 F200.000
G1 X21.839 Y376.744 Z4.794 F200.000
G0 Z12.000
G0 Y392.013 Z12.000
G0 Y392.013 Z10.000
G1 X21.839 Y392.013 Z4.794 F60.000
G1 X29.281 Y392.013 Z4.794 F200.000
G1 X29.282 Y392.083 Z4.794 F200.000
G1 X21.839 Y392.083 Z4.794 F200.000
G1 X21.839 Y392.013 Z4.794 F200.000
G0 Z12.000
G0 Y406.491 Z12.000
G0 Y406.491 Z10.000
G1 X21.839 Y406.491 Z4.794 F60.000
G1 X29.504 Y406.491 Z4.794 F200.000
G1 X29.505 Y406.561 Z4.794 F200.000
G1 X21.839 Y406.561 Z4.794 F200.000
G1 X21.839 Y406.491 Z4.794 F200.000
G0 Z12.000
G0 Y420.156 Z12.000
G0 Y420.156 Z10.000
G1 X21.839 Y420.156 Z4.794 F60.000
G1 X29.714 Y420.156 Z4.794 F200.000
G1 X29.715 Y420.226 Z4.794 F200.000
G1 X21.839 Y420.226 Z4.794 F200.000
G1 X21.839 Y420.156 Z4.794 F200.000
G0 Z12.000
G0 X-21.839 Z12.000
G0 X-21.839 Z10.000
G1 X-21.839 Y420.156 Z4.794 F60.000
G1 X-21.839 Y420.226 Z4.794 F200.000
G1 X-29.715 Y420.226 Z4.794 F200.000
G1 X-29.714 Y420.156 Z4.794 F200.000
G1 X-21.839 Y420.156 Z4.794 F200.000
G0 Z12.000
G0 Y406.561 Z12.000
G0 Y406.561 Z10.000
G1 X-21.839 Y406.561 Z4.794 F60.000
G1 X-29.505 Y406.561 Z4.794 F200.000
G1 X-29.504 Y406.491 Z4.794 F200.000
G1 X-21.839 Y406.491 Z4.794 F200.000
G1 X-21.839 Y406.561 Z4.794 F200.000
G0 Z12.000
G0 Y392.083 Z12.000
G0 Y392.083 Z10.000
G1 X-21.839 Y392.083 Z4.794 F60.000
G1 X-29.282 Y392.083 Z4.794 F200.000
G1 X-29.281 Y392.013 Z4.794 F200.000
G1 X-21.839 Y392.013 Z4.794 F200.000
G1 X-21.839 Y392.083 Z4.794 F200.000
G0 Z12.000
G0 Y376.744 Z12.000
G0 Y376.744 Z10.000
G1 X-21.839 Y376.744 Z4.794 F60.000
G1 X-29.046 Y376.744 Z4.794 F200.000
G1 X-29.045 Y376.674 Z4.794 F200.000
G1 X-21.839 Y376.674 Z4.794 F200.000
G1 X-21.839 Y376.744 Z4.794 F200.000
G0 Z12.000
G0 Y343.276 Z12.000
G0 Y343.276 Z10.000
G1 X-21.839 Y343.276 Z4.794 F60.000
G1 X-28.531 Y343.276 Z4.794 F200.000
G1 X-28.530 Y343.206 Z4.794 F200.000
G1 X-21.839 Y343.206 Z4.794 F200.000
G1 X-21.839 Y343.276 Z4.794 F200.000
G0 Z12.000
G0 Y325.035 Z12.000
G0 Y325.035 Z10.000
G1 X-21.839 Y325.035 Z4.794 F60.000
G1 X-28.246 Y325.035 Z4.794 F200.000
G1 X-28.246 Y324.965 Z4.794 F200.000
G1 X-21.839 Y324.965 Z4.794 F200.000
G1 X-21.839 Y325.035 Z4.794 F200.000
G0 Z12.000
G0 Y305.709 Z12.000
G0 Y305.709 Z10.000
G1 X-21.839 Y305.709 Z4.794 F60.000
G1 X-27.953 Y305.709 Z4.794 F200.000
G1 X-27.952 Y305.639 Z4.794 F200.000
G1 X-21.839 Y305.639 Z4.794 F200.000
G1 X-21.839 Y305.709 Z4.794 F200.000
G0 Z12.000
G0 Y285.234 Z12.000
G0 Y285.234 Z10.000
G1 X-21.839 Y285.234 Z4.794 F60.000
G1 X-27.638 Y285.234 Z4.794 F200.000
G1 X-27.637 Y285.164 Z4.794 F200.000
G1 X-21.839 Y285.164 Z4.794 F200.000
G1 X-21.839 Y285.234 Z4.794 F200.000
G0 Z12.000
G0 Y263.542 Z12.000
G0 Y263.542 Z10.000
G1 X-21.839 Y263.542 Z4.794 F60.000
G1 X-27.304 Y263.542 Z4.794 F200.000
G1 X-27.303 Y263.472 Z4.794 F200.000
G1 X-21.839 Y263.472 Z4.794 F200.000
G1 X-21.839 Y263.542 Z4.794 F200.000
G0 Z12.000
G0 Y240.560 Z12.000
G0 Y240.560 Z10.000
G1 X-21.839 Y240.560 Z4.794 F60.000
G1 X-26.951 Y240.560 Z4.794 F200.000
G1 X-26.950 Y240.490 Z4.794 F200.000
G1 X-21.839 Y240.490 Z4.794 F200.000
G1 X-21.839 Y240.560 Z4.794 F200.000
G0 Z12.000
G0 Y216.211 Z12.000
G0 Y216.211 Z10.000
G1 X-21.839 Y216.211 Z4.794 F60.000
G1 X-26.576 Y216.211 Z4.794 F200.000
G1 X-26.575 Y216.141 Z4.794 F200.000
G1 X-21.839 Y216.141 Z4.794 F200.000
G1 X-21.839 Y216.211 Z4.794 F200.000
G0 Z12.000
G0 Y190.415 Z12.000
G0 Y190.415 Z10.000
G1 X-21.839 Y190.415 Z4.794 F60.000
G1 X-26.179 Y190.415 Z4.794 F200.000
G1 X-26.178 Y190.345 Z4.794 F200.000
G1 X-21.839 Y190.345 Z4.794 F200.000
G1 X-21.839 Y190.415 Z4.794 F200.000
G0 Z12.000
G0 Y163.085 Z12.000
G0 Y163.085 Z10.000
G1 X-21.839 Y163.085 Z4.794 F60.000
G1 X-25.759 Y163.085 Z4.794 F200.000
G1 X-25.758 Y163.015 Z4.794 F200.000
G1 X-21.839 Y163.015 Z4.794 F200.000
G1 X-21.839 Y163.085 Z4.794 F200.000
G0 Z12.000
G0 Y134.129 Z12.000
G0 Y134.129 Z10.000
G1 X-21.839 Y134.129 Z4.794 F60.000
G1 X-25.313 Y134.129 Z4.794 F200.000
G1 X-25.312 Y134.059 Z4.794 F200.000
G1 X-21.839 Y134.059 Z4.794 F200.000
G1 X-21.839 Y134.129 Z4.794 F200.000
G0 Z12.000
G0 Y103.452 Z12.000
G0 Y103.452 Z10.000
G1 X-21.839 Y103.452 Z4.794 F60.000
G1 X-24.842 Y103.452 Z4.794 F200.000
G1 X-24.840 Y103.382 Z4.794 F200.000
G1 X-21.839 Y103.382 Z4.794 F200.000
G1 X-21.839 Y103.452 Z4.794 F200.000
G0 Z12.000
G0 Y70.951 Z12.000
G0 Y70.951 Z10.000
G1 X-21.839 Y70.951 Z4.794 F60.000
G1 X-24.342 Y70.951 Z4.794 F200.000
G1 X-24.340 Y70.881 Z4.794 F200.000
G1 X-21.839 Y70.881 Z4.794 F200.000
G1 X-21.839 Y70.951 Z4.794 F200.000
G0 Z12.000
G0 Y36.517 Z12.000
G0 Y36.517 Z10.000
G1 X-21.839 Y36.517 Z4.794 F60.000
G1 X-23.812 Y36.517 Z4.794 F200.000
G1 X-23.811 Y36.447 Z4.794 F200.000
G1 X-21.839 Y36.447 Z4.794 F200.000
G1 X-21.839 Y36.517 Z4.794 F200.000
G0 Z12.000
G0 X21.839 Y36.517 Z12.000
G0 X21.839 Y36.517 Z10.000
G1 X21.839 Y36.517 Z4.794 F60.000
G1 X21.839 Y36.447 Z4.794 F200.000
G1 X23.811 Y36.447 Z4.794 F200.000
G1 X23.812 Y36.517 Z4.794 F200.000
G1 X21.839 Y36.517 Z4.794 F200.000
G0 Z12.000
G0 Y70.881 Z12.000
G0 Y70.881 Z10.000
G1 X21.839 Y70.881 Z4.794 F60.000
G1 X24.340 Y70.881 Z4.794 F200.000
G1 X24.341 Y70.951 Z4.794 F200.000
G1 X21.839 Y70.951 Z4.794 F200.000
G1 X21.839 Y70.881 Z4.794 F200.000
G0 Z12.000
G0 Y103.382 Z12.000
G0 Y103.382 Z10.000
G1 X21.839 Y103.382 Z4.794 F60.000
G1 X24.840 Y103.382 Z4.794 F200.000
G1 X24.842 Y103.452 Z4.794 F200.000
G1 X21.839 Y103.452 Z4.794 F200.000
G1 X21.839 Y103.382 Z4.794 F200.000
G0 Z12.000
G0 Y134.059 Z12.000
G0 Y134.059 Z10.000
G1 X21.839 Y134.059 Z4.794 F60.000
G1 X25.312 Y134.059 Z4.794 F200.000
G1 X25.313 Y134.129 Z4.794 F200.000
G1 X21.839 Y134.129 Z4.794 F200.000
G1 X21.839 Y134.059 Z4.794 F200.000
G0 Z12.000
G0 Y163.015 Z12.000
G0 Y163.015 Z10.000
G1 X21.839 Y163.015 Z4.794 F60.000
G1 X25.758 Y163.015 Z4.794 F200.000
G1 X25.759 Y163.085 Z4.794 F200.000
G1 X21.839 Y163.085 Z4.794 F200.000
G1 X21.839 Y163.015 Z4.794 F200.000
G0 Z12.000
G0 Y190.345 Z12.000
G0 Y190.345 Z10.000
G1 X21.839 Y190.345 Z4.794 F60.000
G1 X26.178 Y190.345 Z4.794 F200.000
G1 X26.179 Y190.415 Z4.794 F200.000
G1 X21.839 Y190.415 Z4.794 F200.000
G1 X21.839 Y190.345 Z4.794 F200.000
G0 Z12.000
G0 Y216.141 Z12.000
G0 Y216.141 Z10.000
G1 X21.839 Y216.141 Z4.794 F60.000
G1 X26.575 Y216.141 Z4.794 F200.000
G1 X26.576 Y216.211 Z4.794 F200.000
G1 X21.839 Y216.211 Z4.794 F200.000
G1 X21.839 Y216.141 Z4.794 F200.000
G0 Z12.000
G0 Y240.490 Z12.000
G0 Y240.490 Z10.000
G1 X21.839 Y240.490 Z4.794 F60.000
G1 X26.950 Y240.490 Z4.794 F200.000
G1 X26.951 Y240.560 Z4.794 F200.000
G1 X21.839 Y240.560 Z4.794 F200.000
G1 X21.839 Y240.490 Z4.794 F200.000
G0 Z12.000
G0 Y263.472 Z12.000
G0 Y263.472 Z10.000
G1 X21.839 Y263.472 Z4.794 F60.000
G1 X27.303 Y263.472 Z4.794 F200.000
G1 X27.304 Y263.542 Z4.794 F200.000
G1 X21.839 Y263.542 Z4.794 F200.000
G1 X21.839 Y263.472 Z4.794 F200.000
G0 Z12.000
G0 Y285.164 Z12.000
G0 Y285.164 Z10.000
G1 X21.839 Y285.164 Z4.794 F60.000
G1 X27.637 Y285.164 Z4.794 F200.000
G1 X27.638 Y285.234 Z4.794 F200.000
G1 X21.839 Y285.234 Z4.794 F200.000
G1 X21.839 Y285.164 Z4.794 F200.000
G0 Z12.000
G0 Y305.639 Z12.000
G0 Y305.639 Z10.000
G1 X21.839 Y305.639 Z4.794 F60.000
G1 X27.952 Y305.639 Z4.794 F200.000
G1 X27.953 Y305.709 Z4.794 F200.000
G1 X21.839 Y305.709 Z4.794 F200.000
G1 X21.839 Y305.639 Z4.794 F200.000
G0 Z12.000
G0 Y324.965 Z12.000
G0 Y324.965 Z10.000
G1 X21.839 Y324.965 Z4.794 F60.000
G1 X28.249 Y324.965 Z4.794 F200.000
G1 X28.250 Y325.035 Z4.794 F200.000
G1 X21.839 Y325.035 Z4.794 F200.000
G1 X21.839 Y324.965 Z4.794 F200.000
G0 Z12.000
G0 Y343.206 Z12.000
G0 Y343.206 Z10.000
G1 X21.839 Y343.206 Z4.794 F60.000
G1 X28.530 Y343.206 Z4.794 F200.000
G1 X28.531 Y343.276 Z4.794 F200.000
G1 X21.839 Y343.276 Z4.794 F200.000
G1 X21.839 Y343.206 Z4.794 F200.000
G0 Z12.000
G0 X26.519 Z12.000
G0 X26.519 Z10.000
G1 X26.519 Y343.206 Z4.647 F60.000
G1 X28.530 Y343.206 Z4.647 F200.000
G1 X28.531 Y343.276 Z4.647 F200.000
G1 X26.519 Y343.276 Z4.647 F200.000
G1 X26.519 Y343.206 Z4.647 F200.000
G0 Z12.000
G0 Y325.035 Z12.000
G0 Y325.035 Z10.000
G1 X26.519 Y325.035 Z4.647 F60.000
G1 X26.519 Y324.965 Z4.647 F200.000
G1 X28.249 Y324.965 Z4.647 F200.000
G1 X28.250 Y325.035 Z4.647 F200.000
G1 X26.519 Y325.035 Z4.647 F200.000
G0 Z12.000
G0 Y305.709 Z12.000
G0 Y305.709 Z10.000
G1 X26.519 Y305.709 Z4.647 F60.000
G1 X26.519 Y305.639 Z4.647 F200.000
G1 X27.952 Y305.639 Z4.647 F200.000
G1 X27.953 Y305.709 Z4.647 F200.000
G1 X26.519 Y305.709 Z4.647 F200.000
G0 Z12.000
G0 Y285.234 Z12.000
G0 Y285.234 Z10.000
G1 X26.519 Y285.234 Z4.647 F60.000
G1 X26.519 Y285.164 Z4.647 F200.000
G1 X27.637 Y285.164 Z4.647 F200.000
G1 X27.638 Y285.234 Z4.647 F200.000
G1 X26.519 Y285.234 Z4.647 F200.000
G0 Z12.000
G0 Y263.542 Z12.000
G0 Y263.542 Z10.000
G1 X26.519 Y263.542 Z4.647 F60.000
G1 X26.519 Y263.472 Z4.647 F200.000
G1 X27.303 Y263.472 Z4.647 F200.000
G1 X27.304 Y263.542 Z4.647 F200.000
G1 X26.519 Y263.542 Z4.647 F200.000
G0 Z12.000
G0 Y240.560 Z12.000
G0 Y240.560 Z10.000
G1 X26.519 Y240.560 Z4.647 F60.000
G1 X26.519 Y240.490 Z4.647 F200.000
G1 X26.950 Y240.490 Z4.647 F200.000
G1 X26.951 Y240.560 Z4.647 F200.000
G1 X26.519 Y240.560 Z4.647 F200.000
G0 Z12.000
G0 X26.548 Y216.221 Z12.000
G0 X26.548 Y216.221 Z10.000
G1 X26.548 Y216.221 Z4.647 F60.000
G3 X26.519 Y216.141 Z4.647 I0.000 J-0.045 K0.000 F200.000
G3 X26.576 Y216.211 Z4.647 I0.028 J0.035 K0.000 F200.000
G3 X26.548 Y216.221 Z4.647 I-0.028 J-0.035 K0.000 F200.000
G0 Z12.000
G0 X-26.503 Y216.176 Z12.000
G0 X-26.503 Y216.176 Z10.000
G1 X-26.503 Y216.176 Z4.647 F60.000
G3 X-26.576 Y216.211 Z4.647 I-0.045 J-0.000 K0.000 F200.000
G3 X-26.519 Y216.141 Z4.647 I0.029 J-0.035 K0.000 F200.000
G3 X-26.503 Y216.176 Z4.647 I-0.028 J0.035 K0.000 F200.000
G0 Z12.000
G0 X-26.519 Y240.490 Z12.000
G0 X-26.519 Y240.490 Z10.000
G1 X-26.519 Y240.490 Z4.647 F60.000
G1 X-26.519 Y240.560 Z4.647 F200.000
G1 X-26.951 Y240.560 Z4.647 F200.000
G1 X-26.950 Y240.490 Z4.647 F200.000
G1 X-26.519 Y240.490 Z4.647 F200.000
G0 Z12.000
G0 Y263.472 Z12.000
G0 Y263.472 Z10.000
G1 X-26.519 Y263.472 Z4.647 F60.000
G1 X-26.519 Y263.542 Z4.647 F200.000
G1 X-27.304 Y263.542 Z4.647 F200.000
G1 X-27.303 Y263.472 Z4.647 F200.000
G1 X-26.519 Y263.472 Z4.647 F200.000
G0 Z12.000
G0 Y285.164 Z12.000
G0 Y285.164 Z10.000
G1 X-26.519 Y285.164 Z4.647 F60.000
G1 X-26.519 Y285.234 Z4.647 F200.000
G1 X-27.638 Y285.234 Z4.647 F200.000
G1 X-27.637 Y285.164 Z4.647 F200.000
G1 X-26.519 Y285.164 Z4.647 F200.000
G0 Z12.000
G0 Y305.639 Z12.000
G0 Y305.639 Z10.000
G1 X-26.519 Y305.639 Z4.647 F60.000
G1 X-26.519 Y305.709 Z4.647 F200.000
G1 X-27.953 Y305.709 Z4.647 F200.000
G1 X-27.952 Y305.639 Z4.647 F200.000
G1 X-26.519 Y305.639 Z4.647 F200.000
G0 Z12.000
G0 Y324.965 Z12.000
G0 Y324.965 Z10.000
G1 X-26.519 Y324.965 Z4.647 F60.000
G1 X-26.519 Y325.035 Z4.647 F200.000
G1 X-28.246 Y325.035 Z4.647 F200.000
G1 X-28.246 Y324.965 Z4.647 F200.000
G1 X-26.519 Y324.965 Z4.647 F200.000
G0 Z12.000
G0 Y343.206 Z12.000
G0 Y343.206 Z10.000
G1 X-26.519 Y343.206 Z4.647 F60.000
G1 X-26.519 Y343.276 Z4.647 F200.000
G1 X-28.531 Y343.276 Z4.647 F200.000
G1 X-28.530 Y343.206 Z4.647 F200.000
G1 X-26.519 Y343.206 Z4.647 F200.000
G0 Z12.000
G0 Y376.674 Z12.000
G0 Y376.674 Z10.000
G1 X-26.519 Y376.674 Z4.647 F60.000
G1 X-26.519 Y376.744 Z4.647 F200.000
G1 X-29.046 Y376.744 Z4.647 F200.000
G1 X-29.045 Y376.674 Z4.647 F200.000
G1 X-26.519 Y376.674 Z4.647 F200.000
G0 Z12.000
G0 Y392.013 Z12.000
G0 Y392.013 Z10.000
G1 X-26.519 Y392.013 Z4.647 F60.000
G1 X-26.519 Y392.083 Z4.647 F200.000
G1 X-29.282 Y392.083 Z4.647 F200.000
G1 X-29.281 Y392.013 Z4.647 F200.000
G1 X-26.519 Y392.013 Z4.647 F200.000
G0 Z12.000
G0 Y406.491 Z12.000
G0 Y406.491 Z10.000
G1 X-26.519 Y406.491 Z4.647 F60.000
G1 X-26.519 Y406.561 Z4.647 F200.000
G1 X-29.505 Y406.561 Z4.647 F200.000
G1 X-29.504 Y406.491 Z4.647 F200.000
G1 X-26.519 Y406.491 Z4.647 F200.000
G0 Z12.000
G0 Y420.156 Z12.000
G0 Y420.156 Z10.000
G1 X-26.519 Y420.156 Z4.647 F60.000
G1 X-26.519 Y420.226 Z4.647 F200.000
G1 X-29.715 Y420.226 Z4.647 F200.000
G1 X-29.714 Y420.156 Z4.647 F200.000
G1 X-26.519 Y420.156 Z4.647 F200.000
G0 Z12.000
G0 X26.519 Z12.000
G0 X26.519 Z10.000
G1 X26.519 Y420.156 Z4.647 F60.000
G1 X29.714 Y420.156 Z4.647 F200.000
G1 X29.715 Y420.226 Z4.647 F200.000
G1 X26.519 Y420.226 Z4.647 F200.000
G1 X26.519 Y420.156 Z4.647 F200.000
G0 Z12.000
G0 Y406.561 Z12.000
G0 Y406.561 Z10.000
G1 X26.519 Y406.561 Z4.647 F60.000
G1 X26.519 Y406.491 Z4.647 F200.000
G1 X29.504 Y406.491 Z4.647 F200.000
G1 X29.505 Y406.561 Z4.647 F200.000
G1 X26.519 Y406.561 Z4.647 F200.000
G0 Z12.000
G0 Y392.083 Z12.000
G0 Y392.083 Z10.000
G1 X26.519 Y392.083 Z4.647 F60.000
G1 X26.519 Y392.013 Z4.647 F200.000
G1 X29.281 Y392.013 Z4.647 F200.000
G1 X29.282 Y392.083 Z4.647 F200.000
G1 X26.519 Y392.083 Z4.647 F200.000
G0 Z12.000
G0 Y376.744 Z12.000
G0 Y376.744 Z10.000
G1 X26.519 Y376.744 Z4.647 F60.000
G1 X26.519 Y376.674 Z4.647 F200.000
G1 X29.045 Y376.674 Z4.647 F200.000
G1 X29.046 Y376.744 Z4.647 F200.000
G1 X26.519 Y376.744 Z4.647 F200.000
G0 Z12.000
G0 Z12.000
(Finish operation: Frettes001)
(Begin operation: Frettes002)
(Path: Frettes002)
(Frettes002)
(Frettes002)
(Tool type: endmill)
(Compensated Tool Path. Diameter: 0.5)
(Sample interval: 1.0)
(Step over %: 100.0)
()
G0 Z12.000
(Beginning of Multi-pass layers.)
(Layer 0 begins)
(Begin step 0.)
G0 X30.097 Y445.231
(part 1)
G1 X30.097 Y445.231 Z6.853 F200.000
G1 X29.962 Y445.295 Z6.853 F200.000
G1 X24.362 Y445.295 Z6.853 F200.000
G1 X24.187 Y445.237 Z6.853 F200.000
G1 X24.373 Y445.231 Z6.853 F200.000
G1 X30.097 Y445.231 Z6.853 F200.000
(--Break)
G0 Z10.000
G0 X-7.989 Y445.231
(part 3)
G1 X-7.989 Y445.231 Z6.853 F200.000
G1 X-8.163 Y445.295 Z6.853 F200.000
G1 X-29.963 Y445.295 Z6.853 F200.000
G1 X-30.096 Y445.231 Z6.853 F200.000
G1 X-7.989 Y445.231 Z6.853 F200.000
(--Break)
G0 Z10.000
G0 X28.792 Y360.426
(part 5)
G1 X28.792 Y360.426 Z6.853 F200.000
G1 X28.658 Y360.490 Z6.853 F200.000
G1 X-28.742 Y360.490 Z6.853 F200.000
G1 X-28.708 Y360.426 Z6.853 F200.000
G1 X28.792 Y360.426 Z6.853 F200.000
(--Break)
G0 Z10.000
G0 X29.910 Y433.057
(part 7)
G1 X29.910 Y433.057 Z6.853 F200.000
G1 X29.775 Y433.121 Z6.853 F200.000
G1 X-29.825 Y433.121 Z6.853 F200.000
G1 X-29.860 Y433.057 Z6.853 F200.000
G1 X29.910 Y433.057 Z6.853 F200.000
(End of step 0.)
(End of layer 0)
(Layer 1 begins)
(Layer transition)
G0 Z10.000
G0 X30.097 Y445.231
(Begin step 0.)
G0 X30.097 Y445.231
(part 1)
G1 X30.097 Y445.231 Z6.706 F200.000
G1 X29.962 Y445.295 Z6.706 F200.000
G1 X24.362 Y445.295 Z6.706 F200.000
G1 X24.187 Y445.237 Z6.706 F200.000
G1 X24.373 Y445.231 Z6.706 F200.000
G1 X30.097 Y445.231 Z6.706 F200.000
(--Break)
G0 Z10.000
G0 X-7.989 Y445.231
(part 3)
G1 X-7.989 Y445.231 Z6.706 F200.000
G1 X-8.163 Y445.295 Z6.706 F200.000
G1 X-29.963 Y445.295 Z6.706 F200.000
G1 X-30.096 Y445.231 Z6.706 F200.000
G1 X-7.989 Y445.231 Z6.706 F200.000
(--Break)
G0 Z10.000
G0 X28.792 Y360.426
(part 5)
G1 X28.792 Y360.426 Z6.706 F200.000
G1 X28.658 Y360.490 Z6.706 F200.000
G1 X-28.742 Y360.490 Z6.706 F200.000
G1 X-28.708 Y360.426 Z6.706 F200.000
G1 X28.792 Y360.426 Z6.706 F200.000
(--Break)
G0 Z10.000
G0 X29.910 Y433.057
(part 7)
G1 X29.910 Y433.057 Z6.706 F200.000
G1 X29.775 Y433.121 Z6.706 F200.000
G1 X-29.825 Y433.121 Z6.706 F200.000
G1 X-29.860 Y433.057 Z6.706 F200.000
G1 X29.910 Y433.057 Z6.706 F200.000
(End of step 0.)
(End of layer 1)
(Layer 2 begins)
(Layer transition)
G0 Z10.000
G0 X30.097 Y445.231
(Begin step 0.)
G0 X30.097 Y445.231
(part 1)
G1 X30.097 Y445.231 Z6.559 F200.000
G1 X29.962 Y445.295 Z6.559 F200.000
G1 X24.362 Y445.295 Z6.559 F200.000
G1 X24.187 Y445.237 Z6.559 F200.000
G1 X24.373 Y445.231 Z6.559 F200.000
G1 X30.097 Y445.231 Z6.559 F200.000
(--Break)
G0 Z10.000
G0 X-7.989 Y445.231
(part 3)
G1 X-7.989 Y445.231 Z6.559 F200.000
G1 X-8.163 Y445.295 Z6.559 F200.000
G1 X-29.963 Y445.295 Z6.559 F200.000
G1 X-30.096 Y445.231 Z6.559 F200.000
G1 X-7.989 Y445.231 Z6.559 F200.000
(--Break)
G0 Z10.000
G0 X28.792 Y360.426
(part 5)
G1 X28.792 Y360.426 Z6.559 F200.000
G1 X28.658 Y360.490 Z6.559 F200.000
G1 X-28.742 Y360.490 Z6.559 F200.000
G1 X-28.708 Y360.426 Z6.559 F200.000
G1 X28.792 Y360.426 Z6.559 F200.000
(--Break)
G0 Z10.000
G0 X29.910 Y433.057
(part 7)
G1 X29.910 Y433.057 Z6.559 F200.000
G1 X29.775 Y433.121 Z6.559 F200.000
G1 X-29.825 Y433.121 Z6.559 F200.000
G1 X-29.860 Y433.057 Z6.559 F200.000
G1 X29.910 Y433.057 Z6.559 F200.000
(End of step 0.)
(End of layer 2)
(Layer 3 begins)
(Layer transition)
G0 Z10.000
G0 X30.097 Y445.231
(Begin step 0.)
G0 X30.097 Y445.231
(part 1)
G1 X30.097 Y445.231 Z6.412 F200.000
G1 X29.962 Y445.295 Z6.412 F200.000
G1 X24.362 Y445.295 Z6.412 F200.000
G1 X24.187 Y445.237 Z6.412 F200.000
G1 X24.373 Y445.231 Z6.412 F200.000
G1 X30.097 Y445.231 Z6.412 F200.000
(--Break)
G0 Z10.000
G0 X-7.989 Y445.231
(part 3)
G1 X-7.989 Y445.231 Z6.412 F200.000
G1 X-8.163 Y445.295 Z6.412 F200.000
G1 X-29.963 Y445.295 Z6.412 F200.000
G1 X-30.096 Y445.231 Z6.412 F200.000
G1 X-7.989 Y445.231 Z6.412 F200.000
(--Break)
G0 Z10.000
G0 X28.792 Y360.426
(part 5)
G1 X28.792 Y360.426 Z6.412 F200.000
G1 X28.658 Y360.490 Z6.412 F200.000
G1 X-28.742 Y360.490 Z6.412 F200.000
G1 X-28.708 Y360.426 Z6.412 F200.000
G1 X28.792 Y360.426 Z6.412 F200.000
(--Break)
G0 Z10.000
G0 X29.910 Y433.057
(part 7)
G1 X29.910 Y433.057 Z6.412 F200.000
G1 X29.775 Y433.121 Z6.412 F200.000
G1 X-29.825 Y433.121 Z6.412 F200.000
G1 X-29.860 Y433.057 Z6.412 F200.000
G1 X29.910 Y433.057 Z6.412 F200.000
(End of step 0.)
(End of layer 3)
(Layer 4 begins)
(Layer transition)
G0 Z10.000
G0 X30.097 Y445.231
(Begin step 0.)
G0 X30.097 Y445.231
(part 1)
G1 X30.097 Y445.231 Z6.265 F200.000
G1 X29.962 Y445.295 Z6.265 F200.000
G1 X24.362 Y445.295 Z6.265 F200.000
G1 X24.187 Y445.237 Z6.265 F200.000
G1 X24.373 Y445.231 Z6.265 F200.000
G1 X30.097 Y445.231 Z6.265 F200.000
(--Break)
G0 Z10.000
G0 X-7.989 Y445.231
(part 3)
G1 X-7.989 Y445.231 Z6.265 F200.000
G1 X-8.163 Y445.295 Z6.265 F200.000
G1 X-29.963 Y445.295 Z6.265 F200.000
G1 X-30.096 Y445.231 Z6.265 F200.000
G1 X-7.989 Y445.231 Z6.265 F200.000
(--Break)
G0 Z10.000
G0 X28.792 Y360.426
(part 5)
G1 X28.792 Y360.426 Z6.265 F200.000
G1 X28.658 Y360.490 Z6.265 F200.000
G1 X-28.742 Y360.490 Z6.265 F200.000
G1 X-28.708 Y360.426 Z6.265 F200.000
G1 X28.792 Y360.426 Z6.265 F200.000
(--Break)
G0 Z10.000
G0 X29.910 Y433.057
(part 7)
G1 X29.910 Y433.057 Z6.265 F200.000
G1 X29.775 Y433.121 Z6.265 F200.000
G1 X-29.825 Y433.121 Z6.265 F200.000
G1 X-29.860 Y433.057 Z6.265 F200.000
G1 X29.910 Y433.057 Z6.265 F200.000
(End of step 0.)
(End of layer 4)
(Layer 5 begins)
(Layer transition)
G0 Z10.000
G0 X30.097 Y445.231
(Begin step 0.)
G0 X30.097 Y445.231
(part 1)
G1 X30.097 Y445.231 Z6.118 F200.000
G1 X29.962 Y445.295 Z6.118 F200.000
G1 X24.362 Y445.295 Z6.118 F200.000
G1 X24.187 Y445.237 Z6.118 F200.000
G1 X24.373 Y445.231 Z6.118 F200.000
G1 X30.097 Y445.231 Z6.118 F200.000
(--Break)
G0 Z10.000
G0 X-7.989 Y445.231
(part 3)
G1 X-7.989 Y445.231 Z6.118 F200.000
G1 X-8.163 Y445.295 Z6.118 F200.000
G1 X-29.963 Y445.295 Z6.118 F200.000
G1 X-30.096 Y445.231 Z6.118 F200.000
G1 X-7.989 Y445.231 Z6.118 F200.000
(--Break)
G0 Z10.000
G0 X28.792 Y360.426
(part 5)
G1 X28.792 Y360.426 Z6.118 F200.000
G1 X28.658 Y360.490 Z6.118 F200.000
G1 X-28.742 Y360.490 Z6.118 F200.000
G1 X-28.708 Y360.426 Z6.118 F200.000
G1 X28.792 Y360.426 Z6.118 F200.000
(--Break)
G0 Z10.000
G0 X29.910 Y433.057
(part 7)
G1 X29.910 Y433.057 Z6.118 F200.000
G1 X29.775 Y433.121 Z6.118 F200.000
G1 X-29.825 Y433.121 Z6.118 F200.000
G1 X-29.860 Y433.057 Z6.118 F200.000
G1 X29.910 Y433.057 Z6.118 F200.000
(End of step 0.)
(End of layer 5)
(Layer 6 begins)
(Layer transition)
G0 Z10.000
G0 X30.097 Y445.231
(Begin step 0.)
G0 X30.097 Y445.231
(part 1)
G1 X30.097 Y445.231 Z5.971 F200.000
G1 X29.962 Y445.295 Z5.971 F200.000
G1 X24.362 Y445.295 Z5.971 F200.000
G1 X24.187 Y445.237 Z5.971 F200.000
G1 X24.373 Y445.231 Z5.971 F200.000
G1 X30.097 Y445.231 Z5.971 F200.000
(--Break)
G0 Z10.000
G0 X-7.989 Y445.231
(part 3)
G1 X-7.989 Y445.231 Z5.971 F200.000
G1 X-8.163 Y445.295 Z5.971 F200.000
G1 X-29.963 Y445.295 Z5.971 F200.000
G1 X-30.096 Y445.231 Z5.971 F200.000
G1 X-7.989 Y445.231 Z5.971 F200.000
(--Break)
G0 Z10.000
G0 X28.792 Y360.426
(part 5)
G1 X28.792 Y360.426 Z5.971 F200.000
G1 X28.658 Y360.490 Z5.971 F200.000
G1 X-28.742 Y360.490 Z5.971 F200.000
G1 X-28.708 Y360.426 Z5.971 F200.000
G1 X28.792 Y360.426 Z5.971 F200.000
(--Break)
G0 Z10.000
G0 X29.910 Y433.057
(part 7)
G1 X29.910 Y433.057 Z5.971 F200.000
G1 X29.775 Y433.121 Z5.971 F200.000
G1 X-29.825 Y433.121 Z5.971 F200.000
G1 X-29.860 Y433.057 Z5.971 F200.000
G1 X29.910 Y433.057 Z5.971 F200.000
(End of step 0.)
(End of layer 6)
(Layer 7 begins)
(Layer transition)
G0 Z10.000
G0 X30.097 Y445.231
(Begin step 0.)
G0 X30.097 Y445.231
(part 1)
G1 X30.097 Y445.231 Z5.824 F200.000
G1 X29.962 Y445.295 Z5.824 F200.000
G1 X24.362 Y445.295 Z5.824 F200.000
G1 X24.187 Y445.237 Z5.824 F200.000
G1 X24.373 Y445.231 Z5.824 F200.000
G1 X30.097 Y445.231 Z5.824 F200.000
(--Break)
G0 Z10.000
G0 X-7.989 Y445.231
(part 3)
G1 X-7.989 Y445.231 Z5.824 F200.000
G1 X-8.163 Y445.295 Z5.824 F200.000
G1 X-29.963 Y445.295 Z5.824 F200.000
G1 X-30.096 Y445.231 Z5.824 F200.000
G1 X-7.989 Y445.231 Z5.824 F200.000
(--Break)
G0 Z10.000
G0 X28.792 Y360.426
(part 5)
G1 X28.792 Y360.426 Z5.824 F200.000
G1 X28.658 Y360.490 Z5.824 F200.000
G1 X-28.742 Y360.490 Z5.824 F200.000
G1 X-28.708 Y360.426 Z5.824 F200.000
G1 X28.792 Y360.426 Z5.824 F200.000
(--Break)
G0 Z10.000
G0 X29.910 Y433.057
(part 7)
G1 X29.910 Y433.057 Z5.824 F200.000
G1 X29.775 Y433.121 Z5.824 F200.000
G1 X-29.825 Y433.121 Z5.824 F200.000
G1 X-29.860 Y433.057 Z5.824 F200.000
G1 X29.910 Y433.057 Z5.824 F200.000
(End of step 0.)
(End of layer 7)
(Layer 8 begins)
(Layer transition)
G0 Z10.000
G0 X30.097 Y445.231
(Begin step 0.)
G0 X30.097 Y445.231
(part 1)
G1 X30.097 Y445.231 Z5.676 F200.000
G1 X29.962 Y445.295 Z5.676 F200.000
G1 X24.362 Y445.295 Z5.676 F200.000
G1 X24.187 Y445.237 Z5.676 F200.000
G1 X24.373 Y445.231 Z5.676 F200.000
G1 X30.097 Y445.231 Z5.676 F200.000
(--Break)
G0 Z10.000
G0 X-7.989 Y445.231
(part 3)
G1 X-7.989 Y445.231 Z5.676 F200.000
G1 X-8.163 Y445.295 Z5.676 F200.000
G1 X-29.963 Y445.295 Z5.676 F200.000
G1 X-30.096 Y445.231 Z5.676 F200.000
G1 X-7.989 Y445.231 Z5.676 F200.000
(--Break)
G0 Z10.000
G0 X28.792 Y360.426
(part 5)
G1 X28.792 Y360.426 Z5.676 F200.000
G1 X28.658 Y360.490 Z5.676 F200.000
G1 X-28.742 Y360.490 Z5.676 F200.000
G1 X-28.708 Y360.426 Z5.676 F200.000
G1 X28.792 Y360.426 Z5.676 F200.000
(--Break)
G0 Z10.000
G0 X29.910 Y433.057
(part 7)
G1 X29.910 Y433.057 Z5.676 F200.000
G1 X29.775 Y433.121 Z5.676 F200.000
G1 X-29.825 Y433.121 Z5.676 F200.000
G1 X-29.860 Y433.057 Z5.676 F200.000
G1 X29.910 Y433.057 Z5.676 F200.000
(End of step 0.)
(End of layer 8)
(Layer 9 begins)
(Layer transition)
G0 Z10.000
G0 X30.097 Y445.231
(Begin step 0.)
G0 X30.097 Y445.231
(part 1)
G1 X30.097 Y445.231 Z5.529 F200.000
G1 X29.962 Y445.295 Z5.529 F200.000
G1 X24.362 Y445.295 Z5.529 F200.000
G1 X24.187 Y445.237 Z5.529 F200.000
G1 X24.373 Y445.231 Z5.529 F200.000
G1 X30.097 Y445.231 Z5.529 F200.000
(--Break)
G0 Z10.000
G0 X-7.989 Y445.231
(part 3)
G1 X-7.989 Y445.231 Z5.529 F200.000
G1 X-8.163 Y445.295 Z5.529 F200.000
G1 X-29.963 Y445.295 Z5.529 F200.000
G1 X-30.096 Y445.231 Z5.529 F200.000
G1 X-7.989 Y445.231 Z5.529 F200.000
(--Break)
G0 Z10.000
G0 X28.792 Y360.426
(part 5)
G1 X28.792 Y360.426 Z5.529 F200.000
G1 X28.658 Y360.490 Z5.529 F200.000
G1 X-28.742 Y360.490 Z5.529 F200.000
G1 X-28.708 Y360.426 Z5.529 F200.000
G1 X28.792 Y360.426 Z5.529 F200.000
(--Break)
G0 Z10.000
G0 X29.910 Y433.057
(part 7)
G1 X29.910 Y433.057 Z5.529 F200.000
G1 X29.775 Y433.121 Z5.529 F200.000
G1 X-29.825 Y433.121 Z5.529 F200.000
G1 X-29.860 Y433.057 Z5.529 F200.000
G1 X29.910 Y433.057 Z5.529 F200.000
(End of step 0.)
(End of layer 9)
(Layer 10 begins)
(Layer transition)
G0 Z10.000
G0 X30.097 Y445.231
(Begin step 0.)
G0 X30.097 Y445.231
(part 1)
G1 X30.097 Y445.231 Z5.382 F200.000
G1 X29.962 Y445.295 Z5.382 F200.000
G1 X24.362 Y445.295 Z5.382 F200.000
G1 X24.187 Y445.237 Z5.382 F200.000
G1 X24.373 Y445.231 Z5.382 F200.000
G1 X30.097 Y445.231 Z5.382 F200.000
(--Break)
G0 Z10.000
G0 X-7.989 Y445.231
(part 3)
G1 X-7.989 Y445.231 Z5.382 F200.000
G1 X-8.163 Y445.295 Z5.382 F200.000
G1 X-29.963 Y445.295 Z5.382 F200.000
G1 X-30.096 Y445.231 Z5.382 F200.000
G1 X-7.989 Y445.231 Z5.382 F200.000
(--Break)
G0 Z10.000
G0 X28.792 Y360.426
(part 5)
G1 X28.792 Y360.426 Z5.382 F200.000
G1 X28.658 Y360.490 Z5.382 F200.000
G1 X-28.742 Y360.490 Z5.382 F200.000
G1 X-28.708 Y360.426 Z5.382 F200.000
G1 X28.792 Y360.426 Z5.382 F200.000
(--Break)
G0 Z10.000
G0 X29.910 Y433.057
(part 7)
G1 X29.910 Y433.057 Z5.382 F200.000
G1 X29.775 Y433.121 Z5.382 F200.000
G1 X-29.825 Y433.121 Z5.382 F200.000
G1 X-29.860 Y433.057 Z5.382 F200.000
G1 X29.910 Y433.057 Z5.382 F200.000
(End of step 0.)
(End of layer 10)
(Layer 11 begins)
(Layer transition)
G0 Z10.000
G0 X30.097 Y445.231
(Begin step 0.)
G0 X30.097 Y445.231
(part 1)
G1 X30.097 Y445.231 Z5.235 F200.000
G1 X29.962 Y445.295 Z5.235 F200.000
G1 X24.362 Y445.295 Z5.235 F200.000
G1 X24.187 Y445.237 Z5.235 F200.000
G1 X24.373 Y445.231 Z5.235 F200.000
G1 X30.097 Y445.231 Z5.235 F200.000
(--Break)
G0 Z10.000
G0 X-7.989 Y445.231
(part 3)
G1 X-7.989 Y445.231 Z5.235 F200.000
G1 X-8.163 Y445.295 Z5.235 F200.000
G1 X-29.963 Y445.295 Z5.235 F200.000
G1 X-30.096 Y445.231 Z5.235 F200.000
G1 X-7.989 Y445.231 Z5.235 F200.000
(--Break)
G0 Z10.000
G0 X28.792 Y360.426
(part 5)
G1 X28.792 Y360.426 Z5.235 F200.000
G1 X28.658 Y360.490 Z5.235 F200.000
G1 X-28.742 Y360.490 Z5.235 F200.000
G1 X-28.708 Y360.426 Z5.235 F200.000
G1 X28.792 Y360.426 Z5.235 F200.000
(--Break)
G0 Z10.000
G0 X29.910 Y433.057
(part 7)
G1 X29.910 Y433.057 Z5.235 F200.000
G1 X29.775 Y433.121 Z5.235 F200.000
G1 X-29.825 Y433.121 Z5.235 F200.000
G1 X-29.860 Y433.057 Z5.235 F200.000
G1 X29.910 Y433.057 Z5.235 F200.000
(End of step 0.)
(End of layer 11)
(Layer 12 begins)
(Layer transition)
G0 Z10.000
G0 X30.097 Y445.231
(Begin step 0.)
G0 X30.097 Y445.231
(part 1)
G1 X30.097 Y445.231 Z5.100 F200.000
G1 X29.962 Y445.295 Z5.100 F200.000
G1 X24.362 Y445.295 Z5.100 F200.000
G1 X24.187 Y445.237 Z5.100 F200.000
G1 X24.373 Y445.231 Z5.100 F200.000
G1 X30.097 Y445.231 Z5.100 F200.000
(--Break)
G0 Z10.000
G0 X-7.989 Y445.231
(part 3)
G1 X-7.989 Y445.231 Z5.100 F200.000
G1 X-8.163 Y445.295 Z5.100 F200.000
G1 X-29.963 Y445.295 Z5.100 F200.000
G1 X-30.096 Y445.231 Z5.100 F200.000
G1 X-7.989 Y445.231 Z5.100 F200.000
(--Break)
G0 Z10.000
G0 X28.792 Y360.426
(part 5)
G1 X28.792 Y360.426 Z5.100 F200.000
G1 X28.658 Y360.490 Z5.100 F200.000
G1 X-28.742 Y360.490 Z5.100 F200.000
G1 X-28.708 Y360.426 Z5.100 F200.000
G1 X28.792 Y360.426 Z5.100 F200.000
(--Break)
G0 Z10.000
G0 X29.910 Y433.057
(part 7)
G1 X29.910 Y433.057 Z5.100 F200.000
G1 X29.775 Y433.121 Z5.100 F200.000
G1 X-29.825 Y433.121 Z5.100 F200.000
G1 X-29.860 Y433.057 Z5.100 F200.000
G1 X29.910 Y433.057 Z5.100 F200.000
(End of step 0.)
(End of layer 12)
G0 Z12.000
(Finish operation: Frettes002)
(Begin postamble)
M5
G17 G90
M2
