(Exported by FreeCAD)
(Post Processor: grbl_post)
(Output Time:2024-01-01 14:35:40.879236)
(Begin preamble)
G17 G90
G21
(Begin operation: TC: 3.175 Z1 UP Helicoidale007)
(Path: TC: 3.175 Z1 UP Helicoidale007)
(TC: 3.175 Z1 UP Helicoidale007)
(Begin toolchange)
( M6 T1 )
M3 S24000
(Finish operation: TC: 3.175 Z1 UP Helicoidale007)
(Begin operation: Fixture)
(Path: Fixture)
G54
(Finish operation: Fixture)
(Begin operation: Profil)
(Path: Profil)
(Profil)
(Compensated Tool Path. Diameter: 3.17)
G0 Z12.240
G0 X34.464 Y459.634
G0 Z10.240
G1 X34.464 Y459.634 Z5.415 F500.000
G2 X35.179 Y458.284 Z5.415 I-0.870 J-1.325 K0.000 F2000.000
G1 X27.760 Y-0.016 Z5.415 F2000.000
G2 X26.176 Y-1.575 Z5.415 I-1.585 J0.026 K0.000 F2000.000
G1 X-26.613 Y-1.575 Z5.415 F2000.000
G2 X-28.197 Y-0.015 Z5.415 I-0.000 J1.585 K0.000 F2000.000
G1 X-35.179 Y458.285 Z5.415 F2000.000
G2 X-34.352 Y459.702 Z5.415 I1.585 J0.024 K0.000 F2000.000
G2 X-29.270 Y460.691 Z5.415 I5.772 J-16.108 K0.000 F2000.000
G2 X-22.293 Y459.592 Z5.415 I1.014 J-16.259 K0.000 F2000.000
G2 X-17.885 Y457.110 Z5.415 I-6.702 J-17.064 K0.000 F2000.000
G2 X-11.747 Y451.620 Z5.415 I-23.754 J-32.734 K0.000 F2000.000
G3 X-6.894 Y446.678 Z5.415 I518.836 J504.514 K0.000 F2000.000
G1 X-6.680 Y446.375 Z5.415 F2000.000
G2 X-6.334 Y446.129 Z5.415 I-0.365 J-0.880 K0.000 F2000.000
G3 X-2.068 Y442.437 Z5.415 I27.962 J27.995 K0.000 F2000.000
G3 X3.116 Y439.486 Z5.415 I12.326 J15.623 K0.000 F2000.000
G3 X11.691 Y439.091 Z5.415 I4.874 J12.525 K0.000 F2000.000
G3 X15.930 Y440.939 Z5.415 I-6.111 J19.799 K0.000 F2000.000
G3 X22.407 Y446.117 Z5.415 I-16.477 J27.250 K0.000 F2000.000
G3 X22.901 Y446.623 Z5.415 I-0.451 J0.934 K0.000 F2000.000
G3 X25.732 Y449.841 Z5.415 I-48.459 J45.493 K0.000 F2000.000
G3 X32.246 Y459.143 Z5.415 I-64.561 J52.143 K0.000 F2000.000
G2 X34.464 Y459.634 Z5.415 I1.348 J-0.833 K0.000 F2000.000
G1 X34.464 Y459.634 Z3.830 F500.000
G2 X35.179 Y458.284 Z3.830 I-0.870 J-1.325 K0.000 F2000.000
G1 X27.760 Y-0.016 Z3.830 F2000.000
G2 X26.176 Y-1.575 Z3.830 I-1.585 J0.026 K0.000 F2000.000
G1 X-26.613 Y-1.575 Z3.830 F2000.000
G2 X-28.197 Y-0.015 Z3.830 I-0.000 J1.585 K0.000 F2000.000
G1 X-35.179 Y458.285 Z3.830 F2000.000
G2 X-34.352 Y459.702 Z3.830 I1.585 J0.024 K0.000 F2000.000
G2 X-29.270 Y460.691 Z3.830 I5.772 J-16.108 K0.000 F2000.000
G2 X-22.293 Y459.592 Z3.830 I1.014 J-16.259 K0.000 F2000.000
G2 X-17.885 Y457.110 Z3.830 I-6.702 J-17.064 K0.000 F2000.000
G2 X-11.747 Y451.620 Z3.830 I-23.754 J-32.734 K0.000 F2000.000
G3 X-6.894 Y446.678 Z3.830 I518.836 J504.514 K0.000 F2000.000
G1 X-6.680 Y446.375 Z3.830 F2000.000
G2 X-6.334 Y446.129 Z3.830 I-0.365 J-0.880 K0.000 F2000.000
G3 X-2.068 Y442.437 Z3.830 I27.962 J27.995 K0.000 F2000.000
G3 X3.116 Y439.486 Z3.830 I12.326 J15.623 K0.000 F2000.000
G3 X11.691 Y439.091 Z3.830 I4.874 J12.525 K0.000 F2000.000
G3 X15.930 Y440.939 Z3.830 I-6.111 J19.799 K0.000 F2000.000
G3 X22.407 Y446.117 Z3.830 I-16.477 J27.250 K0.000 F2000.000
G3 X22.901 Y446.623 Z3.830 I-0.451 J0.934 K0.000 F2000.000
G3 X25.732 Y449.841 Z3.830 I-48.459 J45.493 K0.000 F2000.000
G3 X32.246 Y459.143 Z3.830 I-64.561 J52.143 K0.000 F2000.000
G2 X34.464 Y459.634 Z3.830 I1.348 J-0.833 K0.000 F2000.000
G1 X34.464 Y459.634 Z2.245 F500.000
G2 X35.179 Y458.284 Z2.245 I-0.870 J-1.325 K0.000 F2000.000
G1 X27.760 Y-0.016 Z2.245 F2000.000
G2 X26.176 Y-1.575 Z2.245 I-1.585 J0.026 K0.000 F2000.000
G1 X-26.613 Y-1.575 Z2.245 F2000.000
G2 X-28.197 Y-0.015 Z2.245 I-0.000 J1.585 K0.000 F2000.000
G1 X-35.179 Y458.285 Z2.245 F2000.000
G2 X-34.352 Y459.702 Z2.245 I1.585 J0.024 K0.000 F2000.000
G2 X-29.270 Y460.691 Z2.245 I5.772 J-16.108 K0.000 F2000.000
G2 X-22.293 Y459.592 Z2.245 I1.014 J-16.259 K0.000 F2000.000
G2 X-17.885 Y457.110 Z2.245 I-6.702 J-17.064 K0.000 F2000.000
G2 X-11.747 Y451.620 Z2.245 I-23.754 J-32.734 K0.000 F2000.000
G3 X-6.894 Y446.678 Z2.245 I518.836 J504.514 K0.000 F2000.000
G1 X-6.680 Y446.375 Z2.245 F2000.000
G2 X-6.334 Y446.129 Z2.245 I-0.365 J-0.880 K0.000 F2000.000
G3 X-2.068 Y442.437 Z2.245 I27.962 J27.995 K0.000 F2000.000
G3 X3.116 Y439.486 Z2.245 I12.326 J15.623 K0.000 F2000.000
G3 X11.691 Y439.091 Z2.245 I4.874 J12.525 K0.000 F2000.000
G3 X15.930 Y440.939 Z2.245 I-6.111 J19.799 K0.000 F2000.000
G3 X22.407 Y446.117 Z2.245 I-16.477 J27.250 K0.000 F2000.000
G3 X22.901 Y446.623 Z2.245 I-0.451 J0.934 K0.000 F2000.000
G3 X25.732 Y449.841 Z2.245 I-48.459 J45.493 K0.000 F2000.000
G3 X32.246 Y459.143 Z2.245 I-64.561 J52.143 K0.000 F2000.000
G2 X34.464 Y459.634 Z2.245 I1.348 J-0.833 K0.000 F2000.000
G1 X34.464 Y459.634 Z0.660 F500.000
G2 X35.179 Y458.284 Z0.660 I-0.870 J-1.325 K0.000 F2000.000
G1 X27.760 Y-0.016 Z0.660 F2000.000
G2 X26.176 Y-1.575 Z0.660 I-1.585 J0.026 K0.000 F2000.000
G1 X-26.613 Y-1.575 Z0.660 F2000.000
G2 X-28.197 Y-0.015 Z0.660 I-0.000 J1.585 K0.000 F2000.000
G1 X-35.179 Y458.285 Z0.660 F2000.000
G2 X-34.352 Y459.702 Z0.660 I1.585 J0.024 K0.000 F2000.000
G2 X-29.270 Y460.691 Z0.660 I5.772 J-16.108 K0.000 F2000.000
G2 X-22.293 Y459.592 Z0.660 I1.014 J-16.259 K0.000 F2000.000
G2 X-17.885 Y457.110 Z0.660 I-6.702 J-17.064 K0.000 F2000.000
G2 X-11.747 Y451.620 Z0.660 I-23.754 J-32.734 K0.000 F2000.000
G3 X-6.894 Y446.678 Z0.660 I518.836 J504.514 K0.000 F2000.000
G1 X-6.680 Y446.375 Z0.660 F2000.000
G2 X-6.334 Y446.129 Z0.660 I-0.365 J-0.880 K0.000 F2000.000
G3 X-2.068 Y442.437 Z0.660 I27.962 J27.995 K0.000 F2000.000
G3 X3.116 Y439.486 Z0.660 I12.326 J15.623 K0.000 F2000.000
G3 X11.691 Y439.091 Z0.660 I4.874 J12.525 K0.000 F2000.000
G3 X15.930 Y440.939 Z0.660 I-6.111 J19.799 K0.000 F2000.000
G3 X22.407 Y446.117 Z0.660 I-16.477 J27.250 K0.000 F2000.000
G3 X22.901 Y446.623 Z0.660 I-0.451 J0.934 K0.000 F2000.000
G3 X25.732 Y449.841 Z0.660 I-48.459 J45.493 K0.000 F2000.000
G3 X32.246 Y459.143 Z0.660 I-64.561 J52.143 K0.000 F2000.000
G2 X34.464 Y459.634 Z0.660 I1.348 J-0.833 K0.000 F2000.000
G1 X34.464 Y459.634 Z0.000 F500.000
G2 X35.179 Y458.284 Z0.000 I-0.870 J-1.325 K0.000 F2000.000
G1 X27.760 Y-0.016 Z0.000 F2000.000
G2 X26.176 Y-1.575 Z0.000 I-1.585 J0.026 K0.000 F2000.000
G1 X-26.613 Y-1.575 Z0.000 F2000.000
G2 X-28.197 Y-0.015 Z0.000 I-0.000 J1.585 K0.000 F2000.000
G1 X-35.179 Y458.285 Z0.000 F2000.000
G2 X-34.352 Y459.702 Z0.000 I1.585 J0.024 K0.000 F2000.000
G2 X-29.270 Y460.691 Z0.000 I5.772 J-16.108 K0.000 F2000.000
G2 X-22.293 Y459.592 Z0.000 I1.014 J-16.259 K0.000 F2000.000
G2 X-17.885 Y457.110 Z0.000 I-6.702 J-17.064 K0.000 F2000.000
G2 X-11.747 Y451.620 Z0.000 I-23.754 J-32.734 K0.000 F2000.000
G3 X-6.894 Y446.678 Z0.000 I518.836 J504.514 K0.000 F2000.000
G1 X-6.680 Y446.375 Z0.000 F2000.000
G2 X-6.334 Y446.129 Z0.000 I-0.365 J-0.880 K0.000 F2000.000
G3 X-2.068 Y442.437 Z0.000 I27.962 J27.995 K0.000 F2000.000
G3 X3.116 Y439.486 Z0.000 I12.326 J15.623 K0.000 F2000.000
G3 X11.691 Y439.091 Z0.000 I4.874 J12.525 K0.000 F2000.000
G3 X15.930 Y440.939 Z0.000 I-6.111 J19.799 K0.000 F2000.000
G3 X22.407 Y446.117 Z0.000 I-16.477 J27.250 K0.000 F2000.000
G3 X22.901 Y446.623 Z0.000 I-0.451 J0.934 K0.000 F2000.000
G3 X25.732 Y449.841 Z0.000 I-48.459 J45.493 K0.000 F2000.000
G3 X32.246 Y459.143 Z0.000 I-64.561 J52.143 K0.000 F2000.000
G2 X34.464 Y459.634 Z0.000 I1.348 J-0.833 K0.000 F2000.000
G0 Z12.240
G0 Z12.240
(Finish operation: Profil)
(Begin postamble)
M5
G17 G90
M2
