(Exported by FreeCAD)
(Post Processor: grbl_post)
(Output Time:2024-01-02 13:07:54.265364)
(Begin preamble)
G17 G90
G21
(Begin operation: TC: 3.175 Z1 UP Helicoidale007)
(Path: TC: 3.175 Z1 UP Helicoidale007)
(TC: 3.175 Z1 UP Helicoidale007)
(Begin toolchange)
( M6 T1 )
M3 S24000
(Finish operation: TC: 3.175 Z1 UP Helicoidale007)
(Begin operation: Fixture)
(Path: Fixture)
G54
(Finish operation: Fixture)
(Begin operation: Profile)
(Path: Profile)
(Profile)
(Compensated Tool Path. Diameter: 3.17)
G0 Z5.000
G0 X34.527 Y459.625
G0 Z3.000
G1 X34.527 Y459.625 Z-2.113 F500.000
G2 X35.243 Y458.274 Z-2.113 I-0.869 J-1.325 K0.000 F2000.000
G1 X27.824 Y-0.026 Z-2.113 F2000.000
G2 X26.239 Y-1.585 Z-2.113 I-1.585 J0.026 K0.000 F2000.000
G1 X-26.549 Y-1.585 Z-2.113 F2000.000
G2 X-28.134 Y-0.024 Z-2.113 I-0.000 J1.585 K0.000 F2000.000
G1 X-35.115 Y458.276 Z-2.113 F2000.000
G2 X-34.296 Y459.688 Z-2.113 I1.585 J0.024 K0.000 F2000.000
G2 X-29.692 Y460.653 Z-2.113 I5.637 J-15.435 K0.000 F2000.000
G2 X-19.858 Y458.445 Z-2.113 I1.452 J-16.536 K0.000 F2000.000
G2 X-14.106 Y454.039 Z-2.113 I-18.128 J-29.620 K0.000 F2000.000
G2 X-6.256 Y446.106 Z-2.113 I-516.468 J-518.936 K0.000 F2000.000
G3 X-1.781 Y442.272 Z-2.113 I27.423 J27.480 K0.000 F2000.000
G3 X3.374 Y439.416 Z-2.113 I11.681 J15.002 K0.000 F2000.000
G3 X11.220 Y438.942 Z-2.113 I4.694 J12.532 K0.000 F2000.000
G3 X18.249 Y442.404 Z-2.113 I-5.789 J20.617 K0.000 F2000.000
G3 X23.711 Y447.404 Z-2.113 I-24.346 J32.082 K0.000 F2000.000
G3 X32.312 Y459.138 Z-2.113 I-57.463 J51.143 K0.000 F2000.000
G2 X34.527 Y459.625 Z-2.113 I1.345 J-0.838 K0.000 F2000.000
G1 X34.527 Y459.625 Z-4.227 F500.000
G2 X35.243 Y458.274 Z-4.227 I-0.869 J-1.325 K0.000 F2000.000
G1 X27.824 Y-0.026 Z-4.227 F2000.000
G2 X26.239 Y-1.585 Z-4.227 I-1.585 J0.026 K0.000 F2000.000
G1 X-26.549 Y-1.585 Z-4.227 F2000.000
G2 X-28.134 Y-0.024 Z-4.227 I-0.000 J1.585 K0.000 F2000.000
G1 X-35.115 Y458.276 Z-4.227 F2000.000
G2 X-34.296 Y459.688 Z-4.227 I1.585 J0.024 K0.000 F2000.000
G2 X-29.692 Y460.653 Z-4.227 I5.637 J-15.435 K0.000 F2000.000
G2 X-19.858 Y458.445 Z-4.227 I1.452 J-16.536 K0.000 F2000.000
G2 X-14.106 Y454.039 Z-4.227 I-18.128 J-29.620 K0.000 F2000.000
G2 X-6.256 Y446.106 Z-4.227 I-516.468 J-518.936 K0.000 F2000.000
G3 X-1.781 Y442.272 Z-4.227 I27.423 J27.480 K0.000 F2000.000
G3 X3.374 Y439.416 Z-4.227 I11.681 J15.002 K0.000 F2000.000
G3 X11.220 Y438.942 Z-4.227 I4.694 J12.532 K0.000 F2000.000
G3 X18.249 Y442.404 Z-4.227 I-5.789 J20.617 K0.000 F2000.000
G3 X23.711 Y447.404 Z-4.227 I-24.346 J32.082 K0.000 F2000.000
G3 X32.312 Y459.138 Z-4.227 I-57.463 J51.143 K0.000 F2000.000
G2 X34.527 Y459.625 Z-4.227 I1.345 J-0.838 K0.000 F2000.000
G1 X34.527 Y459.625 Z-6.340 F500.000
G2 X35.243 Y458.274 Z-6.340 I-0.869 J-1.325 K0.000 F2000.000
G1 X27.824 Y-0.026 Z-6.340 F2000.000
G2 X26.239 Y-1.585 Z-6.340 I-1.585 J0.026 K0.000 F2000.000
G1 X-26.549 Y-1.585 Z-6.340 F2000.000
G2 X-28.134 Y-0.024 Z-6.340 I-0.000 J1.585 K0.000 F2000.000
G1 X-35.115 Y458.276 Z-6.340 F2000.000
G2 X-34.296 Y459.688 Z-6.340 I1.585 J0.024 K0.000 F2000.000
G2 X-29.692 Y460.653 Z-6.340 I5.637 J-15.435 K0.000 F2000.000
G2 X-19.858 Y458.445 Z-6.340 I1.452 J-16.536 K0.000 F2000.000
G2 X-14.106 Y454.039 Z-6.340 I-18.128 J-29.620 K0.000 F2000.000
G2 X-6.256 Y446.106 Z-6.340 I-516.468 J-518.936 K0.000 F2000.000
G3 X-1.781 Y442.272 Z-6.340 I27.423 J27.480 K0.000 F2000.000
G3 X3.374 Y439.416 Z-6.340 I11.681 J15.002 K0.000 F2000.000
G3 X11.220 Y438.942 Z-6.340 I4.694 J12.532 K0.000 F2000.000
G3 X18.249 Y442.404 Z-6.340 I-5.789 J20.617 K0.000 F2000.000
G3 X23.711 Y447.404 Z-6.340 I-24.346 J32.082 K0.000 F2000.000
G3 X32.312 Y459.138 Z-6.340 I-57.463 J51.143 K0.000 F2000.000
G2 X34.527 Y459.625 Z-6.340 I1.345 J-0.838 K0.000 F2000.000
G1 X34.527 Y459.625 Z-7.000 F500.000
G2 X35.243 Y458.274 Z-7.000 I-0.869 J-1.325 K0.000 F2000.000
G1 X27.824 Y-0.026 Z-7.000 F2000.000
G2 X26.239 Y-1.585 Z-7.000 I-1.585 J0.026 K0.000 F2000.000
G1 X-26.549 Y-1.585 Z-7.000 F2000.000
G2 X-28.134 Y-0.024 Z-7.000 I-0.000 J1.585 K0.000 F2000.000
G1 X-35.115 Y458.276 Z-7.000 F2000.000
G2 X-34.296 Y459.688 Z-7.000 I1.585 J0.024 K0.000 F2000.000
G2 X-29.692 Y460.653 Z-7.000 I5.637 J-15.435 K0.000 F2000.000
G2 X-19.858 Y458.445 Z-7.000 I1.452 J-16.536 K0.000 F2000.000
G2 X-14.106 Y454.039 Z-7.000 I-18.128 J-29.620 K0.000 F2000.000
G2 X-6.256 Y446.106 Z-7.000 I-516.468 J-518.936 K0.000 F2000.000
G3 X-1.781 Y442.272 Z-7.000 I27.423 J27.480 K0.000 F2000.000
G3 X3.374 Y439.416 Z-7.000 I11.681 J15.002 K0.000 F2000.000
G3 X11.220 Y438.942 Z-7.000 I4.694 J12.532 K0.000 F2000.000
G3 X18.249 Y442.404 Z-7.000 I-5.789 J20.617 K0.000 F2000.000
G3 X23.711 Y447.404 Z-7.000 I-24.346 J32.082 K0.000 F2000.000
G3 X32.312 Y459.138 Z-7.000 I-57.463 J51.143 K0.000 F2000.000
G2 X34.527 Y459.625 Z-7.000 I1.345 J-0.838 K0.000 F2000.000
G0 Z5.000
G0 Z5.000
(Finish operation: Profile)
(Begin postamble)
M5
G17 G90
M2
