(Exported by FreeCAD)
(Post Processor: script_module)
(Output Time:2025-01-01 14:59:10.677850)
(Begin preamble)
G17 G90
G21
(Begin operation: 1.5 z003)
(Path: 1.5 z003)
(1.5 z003)
(Begin toolchange)
( M6 T3 )
M3 S24000
(Finish operation: 1.5 z003)
(Begin operation: Fixture)
(Path: Fixture)
G54
(Finish operation: Fixture)
(Begin operation: Pocket_Shape)
(Path: Pocket_Shape)
(Pocket_Shape)
G0 Z17.300
G0 X39.998 Y6.248
G0 Z15.300
G1 X39.998 Y6.248 Z10.800 F1000.000
G1 X39.975 Y6.250 Z10.800 F2500.000
G1 X39.350 Y6.250 Z10.800 F2500.000
G1 X39.350 Y4.250 Z10.800 F2500.000
G1 X39.975 Y4.250 Z10.800 F2500.000
G1 X39.998 Y4.252 Z10.800 F2500.000
G1 X40.000 Y4.275 Z10.800 F2500.000
G1 X40.000 Y6.225 Z10.800 F2500.000
G1 X39.998 Y6.248 Z10.800 F2500.000
G0 Z17.300
G0 X35.622 Y6.250 Z17.300
G0 X35.622 Y6.250 Z15.300
G1 X35.622 Y6.250 Z10.800 F1000.000
G1 X-35.622 Y6.250 Z10.800 F2500.000
G3 X-35.295 Y6.180 Z10.800 I0.327 J0.724 K0.000 F2500.000
G1 X35.295 Y6.180 Z10.800 F2500.000
G3 X35.622 Y6.250 Z10.800 I0.005 J0.778 K0.000 F2500.000
G0 Z17.300
G0 X-39.350 Y6.250 Z17.300
G0 X-39.350 Y6.250 Z15.300
G1 X-39.350 Y6.250 Z10.800 F1000.000
G1 X-39.975 Y6.250 Z10.800 F2500.000
G1 X-39.998 Y6.248 Z10.800 F2500.000
G1 X-40.000 Y6.225 Z10.800 F2500.000
G1 X-40.000 Y4.275 Z10.800 F2500.000
G1 X-39.998 Y4.252 Z10.800 F2500.000
G1 X-39.975 Y4.250 Z10.800 F2500.000
G1 X-39.350 Y4.250 Z10.800 F2500.000
G1 X-39.350 Y6.250 Z10.800 F2500.000
G0 Z17.300
G0 Y6.250 Z17.300
G0 Y6.250 Z15.300
G1 X-39.350 Y6.250 Z9.300 F1000.000
G1 X-39.975 Y6.250 Z9.300 F2500.000
G1 X-39.998 Y6.248 Z9.300 F2500.000
G1 X-40.000 Y6.225 Z9.300 F2500.000
G1 X-40.000 Y4.275 Z9.300 F2500.000
G1 X-39.998 Y4.252 Z9.300 F2500.000
G1 X-39.975 Y4.250 Z9.300 F2500.000
G1 X39.975 Y4.250 Z9.300 F2500.000
G1 X39.998 Y4.252 Z9.300 F2500.000
G1 X40.000 Y4.275 Z9.300 F2500.000
G1 X40.000 Y6.225 Z9.300 F2500.000
G1 X39.998 Y6.248 Z9.300 F2500.000
G1 X39.975 Y6.250 Z9.300 F2500.000
G1 X-39.350 Y6.250 Z9.300 F2500.000
G0 Z17.300
G0 X-39.250 Y5.500 Z17.300
G0 X-39.250 Y5.500 Z15.300
G1 X-39.250 Y5.500 Z9.300 F1000.000
G1 X-39.250 Y5.000 Z9.300 F2500.000
G1 X39.250 Y5.000 Z9.300 F2500.000
G1 X39.250 Y5.500 Z9.300 F2500.000
G1 X-39.250 Y5.500 Z9.300 F2500.000
G1 X-39.250 Y5.500 Z7.800 F1000.000
G1 X-39.250 Y5.000 Z7.800 F2500.000
G1 X39.250 Y5.000 Z7.800 F2500.000
G1 X39.250 Y5.500 Z7.800 F2500.000
G1 X-39.250 Y5.500 Z7.800 F2500.000
G0 Z17.300
G0 X-40.000 Y5.500 Z17.300
G0 X-40.000 Y5.500 Z15.300
G1 X-40.000 Y5.500 Z7.800 F1000.000
G1 X-40.000 Y4.275 Z7.800 F2500.000
G1 X-39.998 Y4.252 Z7.800 F2500.000
G1 X-39.975 Y4.250 Z7.800 F2500.000
G1 X39.975 Y4.250 Z7.800 F2500.000
G1 X39.998 Y4.252 Z7.800 F2500.000
G1 X40.000 Y4.275 Z7.800 F2500.000
G1 X40.000 Y6.225 Z7.800 F2500.000
G1 X39.998 Y6.248 Z7.800 F2500.000
G1 X39.975 Y6.250 Z7.800 F2500.000
G1 X-39.975 Y6.250 Z7.800 F2500.000
G1 X-39.998 Y6.248 Z7.800 F2500.000
G1 X-40.000 Y6.225 Z7.800 F2500.000
G1 X-40.000 Y5.500 Z7.800 F2500.000
G1 X-40.000 Y5.500 Z6.800 F1000.000
G1 X-40.000 Y4.275 Z6.800 F2500.000
G1 X-39.998 Y4.252 Z6.800 F2500.000
G1 X-39.975 Y4.250 Z6.800 F2500.000
G1 X39.975 Y4.250 Z6.800 F2500.000
G1 X39.998 Y4.252 Z6.800 F2500.000
G1 X40.000 Y4.275 Z6.800 F2500.000
G1 X40.000 Y6.225 Z6.800 F2500.000
G1 X39.998 Y6.248 Z6.800 F2500.000
G1 X39.975 Y6.250 Z6.800 F2500.000
G1 X-39.975 Y6.250 Z6.800 F2500.000
G1 X-39.998 Y6.248 Z6.800 F2500.000
G1 X-40.000 Y6.225 Z6.800 F2500.000
G1 X-40.000 Y5.500 Z6.800 F2500.000
G0 Z17.300
G0 X-39.250 Y5.500 Z17.300
G0 X-39.250 Y5.500 Z15.300
G1 X-39.250 Y5.500 Z6.800 F1000.000
G1 X-39.250 Y5.000 Z6.800 F2500.000
G1 X39.250 Y5.000 Z6.800 F2500.000
G1 X39.250 Y5.500 Z6.800 F2500.000
G1 X-39.250 Y5.500 Z6.800 F2500.000
G0 Z17.300
G0 Z17.300
(Finish operation: Pocket_Shape)
(Begin operation: Pocket_Shape001)
(Path: Pocket_Shape001)
(Pocket_Shape001)
G0 Z17.300
G0 X39.997 Y19.882
G0 Z15.300
G1 X39.997 Y19.882 Z8.550 F1000.000
G1 X39.975 Y19.884 Z8.550 F2500.000
G1 X-39.975 Y19.884 Z8.550 F2500.000
G1 X-39.998 Y19.882 Z8.550 F2500.000
G1 X-40.000 Y19.859 Z8.550 F2500.000
G2 X-40.001 Y18.667 Z8.550 I-43.861 J-0.576 K0.000 F2500.000
G3 X-39.964 Y18.632 Z8.550 I0.037 J0.002 K0.000 F2500.000
G1 X-39.893 Y18.634 Z8.550 F2500.000
G1 X39.947 Y18.633 Z8.550 F2500.000
G3 X39.994 Y18.646 Z8.550 I0.014 J0.039 K0.000 F2500.000
G3 X39.997 Y19.882 Z8.550 I-9.025 J0.642 K0.000 F2500.000
G0 Z17.300
G0 X39.638 Y19.509 Z17.300
G0 X39.638 Y19.509 Z15.300
G1 X39.638 Y19.509 Z8.550 F1000.000
G1 X-39.625 Y19.509 Z8.550 F2500.000
G1 X-39.625 Y19.009 Z8.550 F2500.000
G1 X39.636 Y19.007 Z8.550 F2500.000
G3 X39.638 Y19.509 Z8.550 I-6.966 J0.274 K0.000 F2500.000
G1 X39.638 Y19.509 Z7.800 F1000.000
G1 X-39.625 Y19.509 Z7.800 F2500.000
G1 X-39.625 Y19.009 Z7.800 F2500.000
G1 X39.636 Y19.007 Z7.800 F2500.000
G3 X39.638 Y19.509 Z7.800 I-6.966 J0.274 K0.000 F2500.000
G0 Z17.300
G0 X39.638 Y19.884 Z17.300
G0 X39.638 Y19.884 Z15.300
G1 X39.638 Y19.884 Z7.800 F1000.000
G1 X-39.975 Y19.884 Z7.800 F2500.000
G1 X-39.998 Y19.882 Z7.800 F2500.000
G1 X-40.000 Y19.859 Z7.800 F2500.000
G2 X-40.001 Y18.667 Z7.800 I-43.861 J-0.576 K0.000 F2500.000
G3 X-39.964 Y18.632 Z7.800 I0.037 J0.002 K0.000 F2500.000
G1 X-39.893 Y18.634 Z7.800 F2500.000
G1 X39.947 Y18.633 Z7.800 F2500.000
G3 X39.994 Y18.646 Z7.800 I0.014 J0.039 K0.000 F2500.000
G3 X39.997 Y19.882 Z7.800 I-9.025 J0.642 K0.000 F2500.000
G1 X39.975 Y19.884 Z7.800 F2500.000
G1 X39.638 Y19.884 Z7.800 F2500.000
G0 Z17.300
G0 Z17.300
(Finish operation: Pocket_Shape001)
(Begin operation: Pocket_Shape002)
(Path: Pocket_Shape002)
(Pocket_Shape002)
G0 Z17.300
G0 X39.989 Y29.992
G0 Z15.300
G1 X39.989 Y29.992 Z8.800 F1000.000
G3 X39.965 Y30.002 Z8.800 I-0.025 J-0.027 K0.000 F2500.000
G1 X39.893 Y30.000 Z8.800 F2500.000
G1 X-39.914 Y30.000 Z8.800 F2500.000
G3 X-39.981 Y29.997 Z8.800 I-0.029 J-0.104 K0.000 F2500.000
G3 X-39.994 Y29.986 Z8.800 I0.015 J-0.031 K0.000 F2500.000
G3 X-39.997 Y28.752 Z8.800 I9.089 J-0.639 K0.000 F2500.000
G1 X-39.975 Y28.750 Z8.800 F2500.000
G1 X39.975 Y28.750 Z8.800 F2500.000
G1 X39.998 Y28.752 Z8.800 F2500.000
G1 X40.000 Y28.775 Z8.800 F2500.000
G2 X40.001 Y29.967 Z8.800 I56.449 J0.569 K0.000 F2500.000
G3 X39.989 Y29.992 Z8.800 I-0.036 J-0.002 K0.000 F2500.000
G0 Z17.300
G0 X39.625 Y29.625 Z17.300
G0 X39.625 Y29.625 Z15.300
G1 X39.625 Y29.625 Z8.800 F1000.000
G1 X-39.636 Y29.625 Z8.800 F2500.000
G3 X-39.638 Y29.125 Z8.800 I6.981 J-0.272 K0.000 F2500.000
G1 X39.625 Y29.125 Z8.800 F2500.000
G1 X39.625 Y29.625 Z8.800 F2500.000
G0 Z17.300
G0 Z17.300
(Finish operation: Pocket_Shape002)
(Begin postamble)
M5
G17 G90
M2
