(Exported by FreeCAD)
(Post Processor: script_module)
(Output Time:2025-01-01 01:49:17.532791)
(Begin preamble)
G17 G90
G21
(Begin operation: 1.5 z003)
(Path: 1.5 z003)
(1.5 z003)
(Begin toolchange)
( M6 T3 )
M3 S24000
(Finish operation: 1.5 z003)
(Begin operation: Fixture)
(Path: Fixture)
G54
(Finish operation: Fixture)
(Begin operation: Pocket_Shape)
(Path: Pocket_Shape)
(Pocket_Shape)
G0 Z17.300
G0 X39.998 Y5.248
G0 Z15.300
G1 X39.998 Y5.248 Z10.800 F1000.000
G1 X39.975 Y5.250 Z10.800 F2500.000
G1 X39.350 Y5.250 Z10.800 F2500.000
G1 X39.350 Y3.750 Z10.800 F2500.000
G1 X39.975 Y3.750 Z10.800 F2500.000
G1 X39.998 Y3.752 Z10.800 F2500.000
G1 X40.000 Y3.775 Z10.800 F2500.000
G1 X40.000 Y5.225 Z10.800 F2500.000
G1 X39.998 Y5.248 Z10.800 F2500.000
G0 Z17.300
G0 X-39.350 Y5.250 Z17.300
G0 X-39.350 Y5.250 Z15.300
G1 X-39.350 Y5.250 Z10.800 F1000.000
G1 X-39.975 Y5.250 Z10.800 F2500.000
G1 X-39.998 Y5.248 Z10.800 F2500.000
G1 X-40.000 Y5.225 Z10.800 F2500.000
G1 X-40.000 Y3.775 Z10.800 F2500.000
G1 X-39.998 Y3.752 Z10.800 F2500.000
G1 X-39.975 Y3.750 Z10.800 F2500.000
G1 X-39.350 Y3.750 Z10.800 F2500.000
G1 X-39.350 Y5.250 Z10.800 F2500.000
G0 Z17.300
G0 Y5.250 Z17.300
G0 Y5.250 Z15.300
G1 X-39.350 Y5.250 Z9.300 F1000.000
G1 X-39.975 Y5.250 Z9.300 F2500.000
G1 X-39.998 Y5.248 Z9.300 F2500.000
G1 X-40.000 Y5.225 Z9.300 F2500.000
G1 X-40.000 Y3.775 Z9.300 F2500.000
G1 X-39.998 Y3.752 Z9.300 F2500.000
G1 X-39.975 Y3.750 Z9.300 F2500.000
G1 X39.975 Y3.750 Z9.300 F2500.000
G1 X39.998 Y3.752 Z9.300 F2500.000
G1 X40.000 Y3.775 Z9.300 F2500.000
G1 X40.000 Y5.225 Z9.300 F2500.000
G1 X39.998 Y5.248 Z9.300 F2500.000
G1 X39.975 Y5.250 Z9.300 F2500.000
G1 X-39.350 Y5.250 Z9.300 F2500.000
G0 Z17.300
G0 X-39.350 Y4.875 Z17.300
G0 X-39.350 Y4.875 Z15.300
G1 X-39.350 Y4.875 Z9.300 F1000.000
G1 X-39.625 Y4.875 Z9.300 F2500.000
G1 X-39.625 Y4.125 Z9.300 F2500.000
G1 X39.625 Y4.125 Z9.300 F2500.000
G1 X39.625 Y4.875 Z9.300 F2500.000
G1 X-39.350 Y4.875 Z9.300 F2500.000
G1 X-39.350 Y4.875 Z7.800 F1000.000
G1 X-39.625 Y4.875 Z7.800 F2500.000
G1 X-39.625 Y4.125 Z7.800 F2500.000
G1 X39.625 Y4.125 Z7.800 F2500.000
G1 X39.625 Y4.875 Z7.800 F2500.000
G1 X-39.350 Y4.875 Z7.800 F2500.000
G0 Z17.300
G0 X-39.350 Y5.250 Z17.300
G0 X-39.350 Y5.250 Z15.300
G1 X-39.350 Y5.250 Z7.800 F1000.000
G1 X-39.975 Y5.250 Z7.800 F2500.000
G1 X-39.998 Y5.248 Z7.800 F2500.000
G1 X-40.000 Y5.225 Z7.800 F2500.000
G1 X-40.000 Y3.775 Z7.800 F2500.000
G1 X-39.998 Y3.752 Z7.800 F2500.000
G1 X-39.975 Y3.750 Z7.800 F2500.000
G1 X39.975 Y3.750 Z7.800 F2500.000
G1 X39.998 Y3.752 Z7.800 F2500.000
G1 X40.000 Y3.775 Z7.800 F2500.000
G1 X40.000 Y5.225 Z7.800 F2500.000
G1 X39.998 Y5.248 Z7.800 F2500.000
G1 X39.975 Y5.250 Z7.800 F2500.000
G1 X-39.350 Y5.250 Z7.800 F2500.000
G1 X-39.350 Y5.250 Z7.300 F1000.000
G1 X-39.975 Y5.250 Z7.300 F2500.000
G1 X-39.998 Y5.248 Z7.300 F2500.000
G1 X-40.000 Y5.225 Z7.300 F2500.000
G1 X-40.000 Y3.775 Z7.300 F2500.000
G1 X-39.998 Y3.752 Z7.300 F2500.000
G1 X-39.975 Y3.750 Z7.300 F2500.000
G1 X39.975 Y3.750 Z7.300 F2500.000
G1 X39.998 Y3.752 Z7.300 F2500.000
G1 X40.000 Y3.775 Z7.300 F2500.000
G1 X40.000 Y5.225 Z7.300 F2500.000
G1 X39.998 Y5.248 Z7.300 F2500.000
G1 X39.975 Y5.250 Z7.300 F2500.000
G1 X-39.350 Y5.250 Z7.300 F2500.000
G0 Z17.300
G0 X-39.350 Y4.875 Z17.300
G0 X-39.350 Y4.875 Z15.300
G1 X-39.350 Y4.875 Z7.300 F1000.000
G1 X-39.625 Y4.875 Z7.300 F2500.000
G1 X-39.625 Y4.125 Z7.300 F2500.000
G1 X39.625 Y4.125 Z7.300 F2500.000
G1 X39.625 Y4.875 Z7.300 F2500.000
G1 X-39.350 Y4.875 Z7.300 F2500.000
G0 Z17.300
G0 Z17.300
(Finish operation: Pocket_Shape)
(Begin operation: Pocket_Shape001)
(Path: Pocket_Shape001)
(Pocket_Shape001)
G0 Z17.300
G0 X39.997 Y19.907
G0 Z15.300
G1 X39.997 Y19.907 Z8.550 F1000.000
G1 X39.975 Y19.908 Z8.550 F2500.000
G1 X-39.975 Y19.909 Z8.550 F2500.000
G1 X-39.998 Y19.907 Z8.550 F2500.000
G1 X-40.000 Y19.884 Z8.550 F2500.000
G2 X-40.001 Y18.692 Z8.550 I-43.861 J-0.576 K0.000 F2500.000
G3 X-39.964 Y18.657 Z8.550 I0.037 J0.002 K0.000 F2500.000
G1 X-39.893 Y18.659 Z8.550 F2500.000
G1 X39.947 Y18.657 Z8.550 F2500.000
G3 X39.994 Y18.671 Z8.550 I0.014 J0.039 K0.000 F2500.000
G3 X39.997 Y19.907 Z8.550 I-9.025 J0.642 K0.000 F2500.000
G0 Z17.300
G0 X39.638 Y19.533 Z17.300
G0 X39.638 Y19.533 Z15.300
G1 X39.638 Y19.533 Z8.550 F1000.000
G1 X-39.625 Y19.534 Z8.550 F2500.000
G1 X-39.625 Y19.034 Z8.550 F2500.000
G1 X39.636 Y19.032 Z8.550 F2500.000
G3 X39.638 Y19.533 Z8.550 I-6.966 J0.274 K0.000 F2500.000
G1 X39.638 Y19.533 Z7.800 F1000.000
G1 X-39.625 Y19.534 Z7.800 F2500.000
G1 X-39.625 Y19.034 Z7.800 F2500.000
G1 X39.636 Y19.032 Z7.800 F2500.000
G3 X39.638 Y19.533 Z7.800 I-6.966 J0.274 K0.000 F2500.000
G0 Z17.300
G0 X39.638 Y19.908 Z17.300
G0 X39.638 Y19.908 Z15.300
G1 X39.638 Y19.908 Z7.800 F1000.000
G1 X-39.975 Y19.909 Z7.800 F2500.000
G1 X-39.998 Y19.907 Z7.800 F2500.000
G1 X-40.000 Y19.884 Z7.800 F2500.000
G2 X-40.001 Y18.692 Z7.800 I-43.861 J-0.576 K0.000 F2500.000
G3 X-39.964 Y18.657 Z7.800 I0.037 J0.002 K0.000 F2500.000
G1 X-39.893 Y18.659 Z7.800 F2500.000
G1 X39.947 Y18.657 Z7.800 F2500.000
G3 X39.994 Y18.671 Z7.800 I0.014 J0.039 K0.000 F2500.000
G3 X39.997 Y19.907 Z7.800 I-9.025 J0.642 K0.000 F2500.000
G1 X39.975 Y19.908 Z7.800 F2500.000
G1 X39.638 Y19.908 Z7.800 F2500.000
G0 Z17.300
G0 Z17.300
(Finish operation: Pocket_Shape001)
(Begin operation: Pocket_Shape002)
(Path: Pocket_Shape002)
(Pocket_Shape002)
G0 Z17.300
G0 X39.989 Y29.992
G0 Z15.300
G1 X39.989 Y29.992 Z8.800 F1000.000
G3 X39.965 Y30.002 Z8.800 I-0.025 J-0.027 K0.000 F2500.000
G1 X39.893 Y30.000 Z8.800 F2500.000
G1 X-39.914 Y30.000 Z8.800 F2500.000
G3 X-39.981 Y29.997 Z8.800 I-0.029 J-0.104 K0.000 F2500.000
G3 X-39.994 Y29.986 Z8.800 I0.015 J-0.031 K0.000 F2500.000
G3 X-39.997 Y28.752 Z8.800 I9.089 J-0.639 K0.000 F2500.000
G1 X-39.975 Y28.750 Z8.800 F2500.000
G1 X39.975 Y28.750 Z8.800 F2500.000
G1 X39.998 Y28.752 Z8.800 F2500.000
G1 X40.000 Y28.775 Z8.800 F2500.000
G2 X40.001 Y29.967 Z8.800 I56.449 J0.569 K0.000 F2500.000
G3 X39.989 Y29.992 Z8.800 I-0.036 J-0.002 K0.000 F2500.000
G0 Z17.300
G0 X39.625 Y29.625 Z17.300
G0 X39.625 Y29.625 Z15.300
G1 X39.625 Y29.625 Z8.800 F1000.000
G1 X-39.636 Y29.625 Z8.800 F2500.000
G3 X-39.638 Y29.125 Z8.800 I6.981 J-0.272 K0.000 F2500.000
G1 X39.625 Y29.125 Z8.800 F2500.000
G1 X39.625 Y29.625 Z8.800 F2500.000
G0 Z17.300
G0 Z17.300
(Finish operation: Pocket_Shape002)
(Begin postamble)
M5
G17 G90
M2
