(Exported by FreeCAD)
(Post Processor: script_module)
(Output Time:2024-12-31 18:25:46.409230)
(Begin preamble)
G17 G90
G21
(Begin operation: TC: 3.0 ball Q3.2)
(Path: TC: 3.0 ball Q3.2)
(TC: 3.0 ball Q3.2)
(Begin toolchange)
( M6 T15 )
M3 S24000
(Finish operation: TC: 3.0 ball Q3.2)
(Begin operation: Fixture)
(Path: Fixture)
G54
(Finish operation: Fixture)
(Begin operation: Pocket3D)
(Path: Pocket3D)
(Pocket3D)
G0 Z17.500
G0 X38.498 Y26.498
G0 Z15.500
G1 X38.498 Y26.498 Z12.250 F1000.000
G1 X38.465 Y26.500 Z12.250 F2000.000
G1 X-38.465 Y26.500 Z12.250 F2000.000
G1 X-38.498 Y26.498 Z12.250 F2000.000
G1 X-38.500 Y26.465 Z12.250 F2000.000
G1 X-38.500 Y22.134 Z12.250 F2000.000
G1 X-38.498 Y22.101 Z12.250 F2000.000
G1 X-38.465 Y22.099 Z12.250 F2000.000
G1 X38.465 Y22.100 Z12.250 F2000.000
G1 X38.498 Y22.101 Z12.250 F2000.000
G1 X38.500 Y22.134 Z12.250 F2000.000
G1 X38.500 Y26.465 Z12.250 F2000.000
G1 X38.498 Y26.498 Z12.250 F2000.000
G1 X37.900 Y25.900 Z12.250 F1000.000
G1 X-37.900 Y25.900 Z12.250 F2000.000
G1 X-37.900 Y22.700 Z12.250 F2000.000
G1 X37.900 Y22.700 Z12.250 F2000.000
G1 X37.900 Y25.900 Z12.250 F2000.000
G1 X37.300 Y25.300 Z12.250 F1000.000
G1 X-37.300 Y25.300 Z12.250 F2000.000
G1 X-37.300 Y23.300 Z12.250 F2000.000
G1 X37.300 Y23.300 Z12.250 F2000.000
G1 X37.300 Y25.300 Z12.250 F2000.000
G1 X36.700 Y24.700 Z12.250 F1000.000
G1 X-36.700 Y24.700 Z12.250 F2000.000
G1 X-36.700 Y23.900 Z12.250 F2000.000
G1 X36.700 Y23.900 Z12.250 F2000.000
G1 X36.700 Y24.700 Z12.250 F2000.000
G0 Z17.500
G0 Y12.100 Z17.500
G0 Y12.100 Z15.500
G1 X36.700 Y12.100 Z12.250 F1000.000
G1 X-38.464 Y12.100 Z12.250 F2000.000
G1 X-38.484 Y12.099 Z12.250 F2000.000
G3 X-38.498 Y10.502 Z12.250 I10.617 J-0.891 K0.000 F2000.000
G1 X-38.465 Y10.500 Z12.250 F2000.000
G1 X38.464 Y10.500 Z12.250 F2000.000
G1 X38.485 Y10.501 Z12.250 F2000.000
G3 X38.498 Y12.098 Z12.250 I-10.625 J0.890 K0.000 F2000.000
G1 X38.465 Y12.100 Z12.250 F2000.000
G1 X36.700 Y12.100 Z12.250 F2000.000
G1 X36.700 Y11.500 Z12.250 F1000.000
G1 X-37.917 Y11.500 Z12.250 F2000.000
G3 X-37.920 Y11.100 Z12.250 I6.017 J-0.243 K0.000 F2000.000
G1 X37.917 Y11.100 Z12.250 F2000.000
G3 X37.920 Y11.500 Z12.250 I-6.020 J0.242 K0.000 F2000.000
G1 X36.700 Y11.500 Z12.250 F2000.000
G1 X36.700 Y11.500 Z12.000 F1000.000
G1 X-37.917 Y11.500 Z12.000 F2000.000
G3 X-37.920 Y11.100 Z12.000 I6.017 J-0.243 K0.000 F2000.000
G1 X37.917 Y11.100 Z12.000 F2000.000
G3 X37.920 Y11.500 Z12.000 I-6.020 J0.242 K0.000 F2000.000
G1 X36.700 Y11.500 Z12.000 F2000.000
G1 X36.700 Y12.100 Z12.000 F1000.000
G1 X-38.464 Y12.100 Z12.000 F2000.000
G1 X-38.484 Y12.099 Z12.000 F2000.000
G3 X-38.498 Y10.502 Z12.000 I10.617 J-0.891 K0.000 F2000.000
G1 X-38.465 Y10.500 Z12.000 F2000.000
G1 X38.464 Y10.500 Z12.000 F2000.000
G1 X38.485 Y10.501 Z12.000 F2000.000
G3 X38.498 Y12.098 Z12.000 I-10.625 J0.890 K0.000 F2000.000
G1 X38.465 Y12.100 Z12.000 F2000.000
G1 X36.700 Y12.100 Z12.000 F2000.000
G0 Z17.500
G0 X36.700 Y22.100 Z17.500
G0 X36.700 Y22.100 Z15.500
G1 X36.700 Y22.100 Z12.000 F1000.000
G1 X38.465 Y22.100 Z12.000 F2000.000
G1 X38.498 Y22.101 Z12.000 F2000.000
G1 X38.500 Y22.134 Z12.000 F2000.000
G1 X38.500 Y26.465 Z12.000 F2000.000
G1 X38.498 Y26.498 Z12.000 F2000.000
G1 X38.465 Y26.500 Z12.000 F2000.000
G1 X-38.465 Y26.500 Z12.000 F2000.000
G1 X-38.498 Y26.498 Z12.000 F2000.000
G1 X-38.500 Y26.465 Z12.000 F2000.000
G1 X-38.500 Y22.134 Z12.000 F2000.000
G1 X-38.498 Y22.101 Z12.000 F2000.000
G1 X-38.465 Y22.099 Z12.000 F2000.000
G1 X36.700 Y22.100 Z12.000 F2000.000
G1 X36.700 Y22.700 Z12.000 F1000.000
G1 X37.900 Y22.700 Z12.000 F2000.000
G1 X37.900 Y25.900 Z12.000 F2000.000
G1 X-37.900 Y25.900 Z12.000 F2000.000
G1 X-37.900 Y22.700 Z12.000 F2000.000
G1 X36.700 Y22.700 Z12.000 F2000.000
G1 X36.700 Y23.300 Z12.000 F1000.000
G1 X37.300 Y23.300 Z12.000 F2000.000
G1 X37.300 Y25.300 Z12.000 F2000.000
G1 X-37.300 Y25.300 Z12.000 F2000.000
G1 X-37.300 Y23.300 Z12.000 F2000.000
G1 X36.700 Y23.300 Z12.000 F2000.000
G1 X36.700 Y23.900 Z12.000 F1000.000
G1 X36.700 Y24.700 Z12.000 F2000.000
G1 X-36.700 Y24.700 Z12.000 F2000.000
G1 X-36.700 Y23.900 Z12.000 F2000.000
G1 X36.700 Y23.900 Z12.000 F2000.000
G1 X36.700 Y23.900 Z11.750 F1000.000
G1 X36.700 Y24.700 Z11.750 F2000.000
G1 X-36.700 Y24.700 Z11.750 F2000.000
G1 X-36.700 Y23.900 Z11.750 F2000.000
G1 X36.700 Y23.900 Z11.750 F2000.000
G1 X36.700 Y23.300 Z11.750 F1000.000
G1 X37.300 Y23.300 Z11.750 F2000.000
G1 X37.300 Y25.300 Z11.750 F2000.000
G1 X-37.300 Y25.300 Z11.750 F2000.000
G1 X-37.300 Y23.300 Z11.750 F2000.000
G1 X36.700 Y23.300 Z11.750 F2000.000
G1 X36.700 Y22.700 Z11.750 F1000.000
G1 X37.900 Y22.700 Z11.750 F2000.000
G1 X37.900 Y25.900 Z11.750 F2000.000
G1 X-37.900 Y25.900 Z11.750 F2000.000
G1 X-37.900 Y22.700 Z11.750 F2000.000
G1 X36.700 Y22.700 Z11.750 F2000.000
G1 X36.700 Y22.100 Z11.750 F1000.000
G1 X38.465 Y22.100 Z11.750 F2000.000
G1 X38.498 Y22.101 Z11.750 F2000.000
G1 X38.500 Y22.134 Z11.750 F2000.000
G1 X38.500 Y26.465 Z11.750 F2000.000
G1 X38.498 Y26.498 Z11.750 F2000.000
G1 X38.465 Y26.500 Z11.750 F2000.000
G1 X-38.465 Y26.500 Z11.750 F2000.000
G1 X-38.498 Y26.498 Z11.750 F2000.000
G1 X-38.500 Y26.465 Z11.750 F2000.000
G1 X-38.500 Y22.134 Z11.750 F2000.000
G1 X-38.498 Y22.101 Z11.750 F2000.000
G1 X-38.465 Y22.099 Z11.750 F2000.000
G1 X36.700 Y22.100 Z11.750 F2000.000
G0 Z17.500
G0 Y12.100 Z17.500
G0 Y12.100 Z15.500
G1 X36.700 Y12.100 Z11.750 F1000.000
G1 X-38.464 Y12.100 Z11.750 F2000.000
G1 X-38.484 Y12.099 Z11.750 F2000.000
G3 X-38.498 Y10.502 Z11.750 I10.617 J-0.891 K0.000 F2000.000
G1 X-38.465 Y10.500 Z11.750 F2000.000
G1 X38.464 Y10.500 Z11.750 F2000.000
G1 X38.485 Y10.501 Z11.750 F2000.000
G3 X38.498 Y12.098 Z11.750 I-10.625 J0.890 K0.000 F2000.000
G1 X38.465 Y12.100 Z11.750 F2000.000
G1 X36.700 Y12.100 Z11.750 F2000.000
G1 X36.700 Y11.500 Z11.750 F1000.000
G1 X-37.917 Y11.500 Z11.750 F2000.000
G3 X-37.920 Y11.100 Z11.750 I6.017 J-0.243 K0.000 F2000.000
G1 X37.917 Y11.100 Z11.750 F2000.000
G3 X37.920 Y11.500 Z11.750 I-6.020 J0.242 K0.000 F2000.000
G1 X36.700 Y11.500 Z11.750 F2000.000
G1 X36.700 Y11.500 Z11.500 F1000.000
G1 X-37.917 Y11.500 Z11.500 F2000.000
G3 X-37.920 Y11.100 Z11.500 I6.017 J-0.243 K0.000 F2000.000
G1 X37.917 Y11.100 Z11.500 F2000.000
G3 X37.920 Y11.500 Z11.500 I-6.020 J0.242 K0.000 F2000.000
G1 X36.700 Y11.500 Z11.500 F2000.000
G1 X36.700 Y12.100 Z11.500 F1000.000
G1 X-38.464 Y12.100 Z11.500 F2000.000
G1 X-38.484 Y12.099 Z11.500 F2000.000
G3 X-38.498 Y10.502 Z11.500 I10.617 J-0.891 K0.000 F2000.000
G1 X-38.465 Y10.500 Z11.500 F2000.000
G1 X38.464 Y10.500 Z11.500 F2000.000
G1 X38.485 Y10.501 Z11.500 F2000.000
G3 X38.498 Y12.098 Z11.500 I-10.625 J0.890 K0.000 F2000.000
G1 X38.465 Y12.100 Z11.500 F2000.000
G1 X36.700 Y12.100 Z11.500 F2000.000
G0 Z17.500
G0 X36.700 Y22.100 Z17.500
G0 X36.700 Y22.100 Z15.500
G1 X36.700 Y22.100 Z11.500 F1000.000
G1 X38.465 Y22.100 Z11.500 F2000.000
G1 X38.498 Y22.101 Z11.500 F2000.000
G1 X38.500 Y22.134 Z11.500 F2000.000
G1 X38.500 Y26.465 Z11.500 F2000.000
G1 X38.498 Y26.498 Z11.500 F2000.000
G1 X38.465 Y26.500 Z11.500 F2000.000
G1 X-38.465 Y26.500 Z11.500 F2000.000
G1 X-38.498 Y26.498 Z11.500 F2000.000
G1 X-38.500 Y26.465 Z11.500 F2000.000
G1 X-38.500 Y22.134 Z11.500 F2000.000
G1 X-38.498 Y22.101 Z11.500 F2000.000
G1 X-38.465 Y22.099 Z11.500 F2000.000
G1 X36.700 Y22.100 Z11.500 F2000.000
G1 X36.700 Y22.700 Z11.500 F1000.000
G1 X37.900 Y22.700 Z11.500 F2000.000
G1 X37.900 Y25.900 Z11.500 F2000.000
G1 X-37.900 Y25.900 Z11.500 F2000.000
G1 X-37.900 Y22.700 Z11.500 F2000.000
G1 X36.700 Y22.700 Z11.500 F2000.000
G1 X36.700 Y23.300 Z11.500 F1000.000
G1 X37.300 Y23.300 Z11.500 F2000.000
G1 X37.300 Y25.300 Z11.500 F2000.000
G1 X-37.300 Y25.300 Z11.500 F2000.000
G1 X-37.300 Y23.300 Z11.500 F2000.000
G1 X36.700 Y23.300 Z11.500 F2000.000
G1 X36.700 Y23.900 Z11.500 F1000.000
G1 X36.700 Y24.700 Z11.500 F2000.000
G1 X-36.700 Y24.700 Z11.500 F2000.000
G1 X-36.700 Y23.900 Z11.500 F2000.000
G1 X36.700 Y23.900 Z11.500 F2000.000
G1 X36.700 Y23.900 Z11.250 F1000.000
G1 X36.700 Y24.700 Z11.250 F2000.000
G1 X-36.700 Y24.700 Z11.250 F2000.000
G1 X-36.700 Y23.900 Z11.250 F2000.000
G1 X36.700 Y23.900 Z11.250 F2000.000
G1 X36.700 Y23.300 Z11.250 F1000.000
G1 X37.300 Y23.300 Z11.250 F2000.000
G1 X37.300 Y25.300 Z11.250 F2000.000
G1 X-37.300 Y25.300 Z11.250 F2000.000
G1 X-37.300 Y23.300 Z11.250 F2000.000
G1 X36.700 Y23.300 Z11.250 F2000.000
G1 X36.700 Y22.700 Z11.250 F1000.000
G1 X37.900 Y22.700 Z11.250 F2000.000
G1 X37.900 Y25.900 Z11.250 F2000.000
G1 X-37.900 Y25.900 Z11.250 F2000.000
G1 X-37.900 Y22.700 Z11.250 F2000.000
G1 X36.700 Y22.700 Z11.250 F2000.000
G1 X36.700 Y22.100 Z11.250 F1000.000
G1 X38.465 Y22.100 Z11.250 F2000.000
G1 X38.498 Y22.101 Z11.250 F2000.000
G1 X38.500 Y22.134 Z11.250 F2000.000
G1 X38.500 Y26.465 Z11.250 F2000.000
G1 X38.498 Y26.498 Z11.250 F2000.000
G1 X38.465 Y26.500 Z11.250 F2000.000
G1 X-38.465 Y26.500 Z11.250 F2000.000
G1 X-38.498 Y26.498 Z11.250 F2000.000
G1 X-38.500 Y26.465 Z11.250 F2000.000
G1 X-38.500 Y22.134 Z11.250 F2000.000
G1 X-38.498 Y22.101 Z11.250 F2000.000
G1 X-38.465 Y22.099 Z11.250 F2000.000
G1 X36.700 Y22.100 Z11.250 F2000.000
G0 Z17.500
G0 Y12.100 Z17.500
G0 Y12.100 Z15.500
G1 X36.700 Y12.100 Z11.250 F1000.000
G1 X-38.464 Y12.100 Z11.250 F2000.000
G1 X-38.484 Y12.099 Z11.250 F2000.000
G3 X-38.498 Y10.502 Z11.250 I10.617 J-0.891 K0.000 F2000.000
G1 X-38.465 Y10.500 Z11.250 F2000.000
G1 X38.464 Y10.500 Z11.250 F2000.000
G1 X38.485 Y10.501 Z11.250 F2000.000
G3 X38.498 Y12.098 Z11.250 I-10.625 J0.890 K0.000 F2000.000
G1 X38.465 Y12.100 Z11.250 F2000.000
G1 X36.700 Y12.100 Z11.250 F2000.000
G1 X36.700 Y11.500 Z11.250 F1000.000
G1 X-37.917 Y11.500 Z11.250 F2000.000
G3 X-37.920 Y11.100 Z11.250 I6.017 J-0.243 K0.000 F2000.000
G1 X37.917 Y11.100 Z11.250 F2000.000
G3 X37.920 Y11.500 Z11.250 I-6.020 J0.242 K0.000 F2000.000
G1 X36.700 Y11.500 Z11.250 F2000.000
G1 X36.700 Y11.500 Z11.000 F1000.000
G1 X-37.917 Y11.500 Z11.000 F2000.000
G3 X-37.920 Y11.100 Z11.000 I6.017 J-0.243 K0.000 F2000.000
G1 X37.917 Y11.100 Z11.000 F2000.000
G3 X37.920 Y11.500 Z11.000 I-6.020 J0.242 K0.000 F2000.000
G1 X36.700 Y11.500 Z11.000 F2000.000
G1 X36.700 Y12.100 Z11.000 F1000.000
G1 X-38.464 Y12.100 Z11.000 F2000.000
G1 X-38.484 Y12.099 Z11.000 F2000.000
G3 X-38.498 Y10.502 Z11.000 I10.617 J-0.891 K0.000 F2000.000
G1 X-38.465 Y10.500 Z11.000 F2000.000
G1 X38.464 Y10.500 Z11.000 F2000.000
G1 X38.485 Y10.501 Z11.000 F2000.000
G3 X38.498 Y12.098 Z11.000 I-10.625 J0.890 K0.000 F2000.000
G1 X38.465 Y12.100 Z11.000 F2000.000
G1 X36.700 Y12.100 Z11.000 F2000.000
G0 Z17.500
G0 X36.700 Y22.100 Z17.500
G0 X36.700 Y22.100 Z15.500
G1 X36.700 Y22.100 Z11.000 F1000.000
G1 X38.465 Y22.100 Z11.000 F2000.000
G1 X38.498 Y22.101 Z11.000 F2000.000
G1 X38.500 Y22.134 Z11.000 F2000.000
G1 X38.500 Y26.465 Z11.000 F2000.000
G1 X38.498 Y26.498 Z11.000 F2000.000
G1 X38.465 Y26.500 Z11.000 F2000.000
G1 X-38.465 Y26.500 Z11.000 F2000.000
G1 X-38.498 Y26.498 Z11.000 F2000.000
G1 X-38.500 Y26.465 Z11.000 F2000.000
G1 X-38.500 Y22.134 Z11.000 F2000.000
G1 X-38.498 Y22.101 Z11.000 F2000.000
G1 X-38.465 Y22.099 Z11.000 F2000.000
G1 X36.700 Y22.100 Z11.000 F2000.000
G1 X36.700 Y22.700 Z11.000 F1000.000
G1 X37.900 Y22.700 Z11.000 F2000.000
G1 X37.900 Y25.900 Z11.000 F2000.000
G1 X-37.900 Y25.900 Z11.000 F2000.000
G1 X-37.900 Y22.700 Z11.000 F2000.000
G1 X36.700 Y22.700 Z11.000 F2000.000
G1 X36.700 Y23.300 Z11.000 F1000.000
G1 X37.300 Y23.300 Z11.000 F2000.000
G1 X37.300 Y25.300 Z11.000 F2000.000
G1 X-37.300 Y25.300 Z11.000 F2000.000
G1 X-37.300 Y23.300 Z11.000 F2000.000
G1 X36.700 Y23.300 Z11.000 F2000.000
G1 X36.700 Y23.900 Z11.000 F1000.000
G1 X36.700 Y24.700 Z11.000 F2000.000
G1 X-36.700 Y24.700 Z11.000 F2000.000
G1 X-36.700 Y23.900 Z11.000 F2000.000
G1 X36.700 Y23.900 Z11.000 F2000.000
G1 X36.700 Y24.050 Z10.750 F1000.000
G1 X-37.900 Y24.050 Z10.750 F2000.000
G1 X-37.900 Y22.700 Z10.750 F2000.000
G1 X37.900 Y22.700 Z10.750 F2000.000
G1 X37.900 Y24.050 Z10.750 F2000.000
G1 X36.700 Y24.050 Z10.750 F2000.000
G1 X36.700 Y24.650 Z10.750 F1000.000
G1 X-38.465 Y24.650 Z10.750 F2000.000
G1 X-38.498 Y24.648 Z10.750 F2000.000
G1 X-38.500 Y24.615 Z10.750 F2000.000
G1 X-38.500 Y22.134 Z10.750 F2000.000
G1 X-38.498 Y22.101 Z10.750 F2000.000
G1 X-38.465 Y22.100 Z10.750 F2000.000
G1 X38.465 Y22.100 Z10.750 F2000.000
G1 X38.498 Y22.101 Z10.750 F2000.000
G1 X38.500 Y22.134 Z10.750 F2000.000
G1 X38.500 Y24.615 Z10.750 F2000.000
G1 X38.498 Y24.648 Z10.750 F2000.000
G1 X38.465 Y24.650 Z10.750 F2000.000
G1 X36.700 Y24.650 Z10.750 F2000.000
G1 X36.700 Y23.450 Z10.750 F1000.000
G1 X-37.300 Y23.450 Z10.750 F2000.000
G1 X-37.300 Y23.300 Z10.750 F2000.000
G1 X37.300 Y23.300 Z10.750 F2000.000
G1 X37.300 Y23.450 Z10.750 F2000.000
G1 X36.700 Y23.450 Z10.750 F2000.000
G0 Z17.500
G0 Y12.100 Z17.500
G0 Y12.100 Z15.500
G1 X36.700 Y12.100 Z10.750 F1000.000
G1 X-38.464 Y12.100 Z10.750 F2000.000
G1 X-38.485 Y12.099 Z10.750 F2000.000
G3 X-38.509 Y10.959 Z10.750 I8.488 J-0.746 K0.000 F2000.000
G2 X-38.521 Y10.718 Z10.750 I-2.167 J-0.015 K0.000 F2000.000
G3 X-38.486 Y10.678 Z10.750 I0.039 J-0.002 K0.000 F2000.000
G1 X-38.456 Y10.676 Z10.750 F2000.000
G1 X38.464 Y10.676 Z10.750 F2000.000
G1 X38.486 Y10.677 Z10.750 F2000.000
G3 X38.509 Y11.816 Z10.750 I-8.491 J0.745 K0.000 F2000.000
G2 X38.521 Y12.057 Z10.750 I2.167 J0.015 K0.000 F2000.000
G3 X38.486 Y12.098 Z10.750 I-0.039 J0.002 K0.000 F2000.000
G1 X38.456 Y12.100 Z10.750 F2000.000
G1 X36.700 Y12.100 Z10.750 F2000.000
G1 X36.700 Y11.500 Z10.750 F1000.000
G1 X-37.915 Y11.500 Z10.750 F2000.000
G3 X-37.917 Y11.276 Z10.750 I3.055 J-0.131 K0.000 F2000.000
G1 X37.915 Y11.276 Z10.750 F2000.000
G3 X37.917 Y11.500 Z10.750 I-3.056 J0.131 K0.000 F2000.000
G1 X36.700 Y11.500 Z10.750 F2000.000
G1 X36.700 Y11.500 Z10.500 F1000.000
G1 X-37.914 Y11.500 Z10.500 F2000.000
G1 X-37.915 Y11.451 Z10.500 F2000.000
G1 X37.914 Y11.451 Z10.500 F2000.000
G1 X37.915 Y11.500 Z10.500 F2000.000
G1 X36.700 Y11.500 Z10.500 F2000.000
G1 X36.700 Y12.100 Z10.500 F1000.000
G1 X-38.464 Y12.100 Z10.500 F2000.000
G1 X-38.486 Y12.099 Z10.500 F2000.000
G3 X-38.508 Y11.091 Z10.500 I7.318 J-0.659 K0.000 F2000.000
G2 X-38.515 Y10.883 Z10.500 I-2.299 J-0.020 K0.000 F2000.000
G3 X-38.489 Y10.853 Z10.500 I0.029 J-0.001 K0.000 F2000.000
G1 X-38.458 Y10.851 Z10.500 F2000.000
G1 X38.464 Y10.851 Z10.500 F2000.000
G1 X38.486 Y10.852 Z10.500 F2000.000
G3 X38.508 Y11.860 Z10.500 I-7.320 J0.658 K0.000 F2000.000
G2 X38.515 Y12.068 Z10.500 I2.299 J0.020 K0.000 F2000.000
G3 X38.489 Y12.098 Z10.500 I-0.029 J0.001 K0.000 F2000.000
G1 X38.458 Y12.100 Z10.500 F2000.000
G1 X36.700 Y12.100 Z10.500 F2000.000
G0 Z17.500
G0 Y22.100 Z17.500
G0 Y22.100 Z15.500
G1 X36.700 Y22.100 Z10.500 F1000.000
G1 X38.465 Y22.100 Z10.500 F2000.000
G1 X38.478 Y22.100 Z10.500 F2000.000
G3 X38.503 Y22.793 Z10.500 I-1.964 J0.418 K0.000 F2000.000
G3 X38.495 Y22.798 Z10.500 I-0.008 J-0.004 K0.000 F2000.000
G1 X38.461 Y22.800 Z10.500 F2000.000
G1 X-38.465 Y22.800 Z10.500 F2000.000
G1 X-38.478 Y22.799 Z10.500 F2000.000
G3 X-38.503 Y22.107 Z10.500 I1.962 J-0.418 K0.000 F2000.000
G3 X-38.496 Y22.101 Z10.500 I0.008 J0.004 K0.000 F2000.000
G1 X-38.461 Y22.100 Z10.500 F2000.000
G1 X36.700 Y22.100 Z10.500 F2000.000
G0 Z17.500
G0 Y12.100 Z17.500
G0 Y12.100 Z15.500
G1 X36.700 Y12.100 Z10.250 F1000.000
G1 X-38.465 Y12.100 Z10.250 F2000.000
G1 X-38.476 Y12.099 Z10.250 F2000.000
G3 X-38.512 Y11.325 Z10.250 I2.098 J-0.486 K0.000 F2000.000
G2 X-38.510 Y11.049 Z10.250 I-2.010 J-0.151 K0.000 F2000.000
G3 X-38.492 Y11.029 Z10.250 I0.020 J0.000 K0.000 F2000.000
G1 X-38.461 Y11.027 Z10.250 F2000.000
G1 X38.465 Y11.027 Z10.250 F2000.000
G1 X38.476 Y11.028 Z10.250 F2000.000
G3 X38.512 Y11.802 Z10.250 I-2.097 J0.485 K0.000 F2000.000
G2 X38.510 Y12.078 Z10.250 I2.009 J0.151 K0.000 F2000.000
G3 X38.492 Y12.098 Z10.250 I-0.020 J-0.000 K0.000 F2000.000
G1 X38.461 Y12.100 Z10.250 F2000.000
G1 X36.700 Y12.100 Z10.250 F2000.000
G1 X36.700 Y12.100 Z10.000 F1000.000
G1 X-38.465 Y12.100 Z10.000 F2000.000
G1 X-38.477 Y12.099 Z10.000 F2000.000
G3 X-38.509 Y11.441 Z10.000 I1.785 J-0.417 K0.000 F2000.000
G2 X-38.506 Y11.216 Z10.000 I-2.221 J-0.145 K0.000 F2000.000
G3 X-38.495 Y11.205 Z10.000 I0.012 J0.000 K0.000 F2000.000
G1 X-38.461 Y11.203 Z10.000 F2000.000
G1 X38.465 Y11.203 Z10.000 F2000.000
G1 X38.477 Y11.203 Z10.000 F2000.000
G3 X38.509 Y11.862 Z10.000 I-1.784 J0.416 K0.000 F2000.000
G2 X38.506 Y12.086 Z10.000 I2.220 J0.146 K0.000 F2000.000
G3 X38.495 Y12.098 Z10.000 I-0.012 J-0.000 K0.000 F2000.000
G1 X38.461 Y12.100 Z10.000 F2000.000
G1 X36.700 Y12.100 Z10.000 F2000.000
G1 X36.700 Y12.100 Z9.750 F1000.000
G1 X-38.465 Y12.100 Z9.750 F2000.000
G1 X-38.477 Y12.099 Z9.750 F2000.000
G3 X-38.509 Y11.460 Z9.750 I1.751 J-0.408 K0.000 F2000.000
G3 X-38.503 Y11.387 Z9.750 I0.193 J-0.021 K0.000 F2000.000
G3 X-38.495 Y11.380 Z9.750 I0.009 J0.003 K0.000 F2000.000
G1 X-38.461 Y11.379 Z9.750 F2000.000
G1 X38.465 Y11.379 Z9.750 F2000.000
G1 X38.477 Y11.379 Z9.750 F2000.000
G3 X38.510 Y12.018 Z9.750 I-1.751 J0.408 K0.000 F2000.000
G3 X38.503 Y12.091 Z9.750 I-0.192 J0.021 K0.000 F2000.000
G3 X38.495 Y12.098 Z9.750 I-0.009 J-0.003 K0.000 F2000.000
G1 X38.461 Y12.100 Z9.750 F2000.000
G1 X36.700 Y12.100 Z9.750 F2000.000
G1 X36.700 Y12.100 Z9.500 F1000.000
G1 X-38.465 Y12.100 Z9.500 F2000.000
G1 X-38.479 Y12.099 Z9.500 F2000.000
G3 X-38.511 Y11.573 Z9.500 I1.751 J-0.370 K0.000 F2000.000
G3 X-38.491 Y11.556 Z9.500 I0.023 J0.006 K0.000 F2000.000
G1 X-38.459 Y11.554 Z9.500 F2000.000
G1 X38.465 Y11.554 Z9.500 F2000.000
G1 X38.480 Y11.555 Z9.500 F2000.000
G3 X38.511 Y12.081 Z9.500 I-1.751 J0.369 K0.000 F2000.000
G3 X38.491 Y12.098 Z9.500 I-0.023 J-0.006 K0.000 F2000.000
G1 X38.459 Y12.100 Z9.500 F2000.000
G1 X36.700 Y12.100 Z9.500 F2000.000
G1 X36.700 Y12.100 Z9.250 F1000.000
G1 X-38.465 Y12.100 Z9.250 F2000.000
G1 X-38.498 Y12.098 Z9.250 F2000.000
G2 X-38.528 Y11.798 Z9.250 I-2.525 J0.096 K0.000 F2000.000
G3 X-38.447 Y11.730 Z9.250 I0.070 J0.001 K0.000 F2000.000
G1 X38.465 Y11.730 Z9.250 F2000.000
G1 X38.498 Y11.731 Z9.250 F2000.000
G2 X38.528 Y12.031 Z9.250 I2.525 J-0.094 K0.000 F2000.000
G3 X38.447 Y12.100 Z9.250 I-0.070 J-0.001 K0.000 F2000.000
G1 X36.700 Y12.100 Z9.250 F2000.000
G1 X36.700 Y12.100 Z9.000 F1000.000
G1 X-38.456 Y12.100 Z9.000 F2000.000
G3 X-38.520 Y12.062 Z9.000 I-0.017 J-0.045 K0.000 F2000.000
G3 X-38.508 Y11.974 Z9.000 I0.323 J-0.000 K0.000 F2000.000
G1 X-38.498 Y11.907 Z9.000 F2000.000
G1 X-38.465 Y11.906 Z9.000 F2000.000
G1 X38.456 Y11.906 Z9.000 F2000.000
G3 X38.520 Y11.947 Z9.000 I0.017 J0.044 K0.000 F2000.000
G2 X38.498 Y12.098 Z9.000 I56.947 J8.357 K0.000 F2000.000
G1 X38.465 Y12.100 Z9.000 F2000.000
G1 X36.700 Y12.100 Z9.000 F2000.000
G1 X36.700 Y12.100 Z8.750 F1000.000
G1 X-38.460 Y12.100 Z8.750 F2000.000
G3 X-38.496 Y12.096 Z8.750 I-0.015 J-0.034 K0.000 F2000.000
G3 X-38.491 Y12.083 Z8.750 I0.005 J-0.005 K0.000 F2000.000
G1 X-38.460 Y12.081 Z8.750 F2000.000
G1 X38.460 Y12.081 Z8.750 F2000.000
G3 X38.496 Y12.085 Z8.750 I0.015 J0.034 K0.000 F2000.000
G3 X38.491 Y12.098 Z8.750 I-0.005 J0.005 K0.000 F2000.000
G1 X38.460 Y12.100 Z8.750 F2000.000
G1 X36.700 Y12.100 Z8.750 F2000.000
G0 Z17.500
(Finish operation: Pocket3D)
(Begin postamble)
M5
G17 G90
M2
