(Exported by FreeCAD)
(Post Processor: grbl_post)
(Output Time:2024-01-02 19:10:51.911441)
(Begin preamble)
G17 G90
G21
(Begin operation: TC: 3.175 Z1 UP Helicoidale007)
(Path: TC: 3.175 Z1 UP Helicoidale007)
(TC: 3.175 Z1 UP Helicoidale007)
(Begin toolchange)
( M6 T1 )
M3 S24000
(Finish operation: TC: 3.175 Z1 UP Helicoidale007)
(Begin operation: Fixture)
(Path: Fixture)
G54
(Finish operation: Fixture)
(Begin operation: Profile)
(Path: Profile)
(Profile)
(Compensated Tool Path. Diameter: 3.17)
G0 Z12.300
G0 X34.527 Y459.625
G0 Z10.300
G1 X34.527 Y459.625 Z4.887 F500.000
G2 X35.243 Y458.274 Z4.887 I-0.869 J-1.325 K0.000 F2000.000
G1 X27.824 Y-0.026 Z4.887 F2000.000
G2 X26.239 Y-1.585 Z4.887 I-1.585 J0.026 K0.000 F2000.000
G1 X-26.549 Y-1.585 Z4.887 F2000.000
G2 X-28.134 Y-0.024 Z4.887 I-0.000 J1.585 K0.000 F2000.000
G1 X-35.115 Y458.276 Z4.887 F2000.000
G2 X-34.296 Y459.688 Z4.887 I1.585 J0.024 K0.000 F2000.000
G2 X-29.692 Y460.653 Z4.887 I5.637 J-15.435 K0.000 F2000.000
G2 X-19.858 Y458.445 Z4.887 I1.452 J-16.536 K0.000 F2000.000
G2 X-13.015 Y452.974 Z4.887 I-18.932 J-30.692 K0.000 F2000.000
G3 X-6.256 Y446.106 Z4.887 I16164.263 J15901.484 K0.000 F2000.000
G3 X-1.781 Y442.272 Z4.887 I27.423 J27.480 K0.000 F2000.000
G3 X3.374 Y439.416 Z4.887 I11.681 J15.002 K0.000 F2000.000
G3 X11.220 Y438.942 Z4.887 I4.694 J12.532 K0.000 F2000.000
G3 X18.249 Y442.404 Z4.887 I-5.789 J20.617 K0.000 F2000.000
G3 X23.711 Y447.404 Z4.887 I-24.346 J32.082 K0.000 F2000.000
G3 X32.312 Y459.138 Z4.887 I-57.463 J51.143 K0.000 F2000.000
G2 X34.527 Y459.625 Z4.887 I1.345 J-0.838 K0.000 F2000.000
G1 X34.527 Y459.625 Z2.773 F500.000
G2 X35.243 Y458.274 Z2.773 I-0.869 J-1.325 K0.000 F2000.000
G1 X27.824 Y-0.026 Z2.773 F2000.000
G2 X26.239 Y-1.585 Z2.773 I-1.585 J0.026 K0.000 F2000.000
G1 X-26.549 Y-1.585 Z2.773 F2000.000
G2 X-28.134 Y-0.024 Z2.773 I-0.000 J1.585 K0.000 F2000.000
G1 X-35.115 Y458.276 Z2.773 F2000.000
G2 X-34.296 Y459.688 Z2.773 I1.585 J0.024 K0.000 F2000.000
G2 X-29.692 Y460.653 Z2.773 I5.637 J-15.435 K0.000 F2000.000
G2 X-19.858 Y458.445 Z2.773 I1.452 J-16.536 K0.000 F2000.000
G2 X-13.015 Y452.974 Z2.773 I-18.932 J-30.692 K0.000 F2000.000
G3 X-6.256 Y446.106 Z2.773 I16164.263 J15901.484 K0.000 F2000.000
G3 X-1.781 Y442.272 Z2.773 I27.423 J27.480 K0.000 F2000.000
G3 X3.374 Y439.416 Z2.773 I11.681 J15.002 K0.000 F2000.000
G3 X11.220 Y438.942 Z2.773 I4.694 J12.532 K0.000 F2000.000
G3 X18.249 Y442.404 Z2.773 I-5.789 J20.617 K0.000 F2000.000
G3 X23.711 Y447.404 Z2.773 I-24.346 J32.082 K0.000 F2000.000
G3 X32.312 Y459.138 Z2.773 I-57.463 J51.143 K0.000 F2000.000
G2 X34.527 Y459.625 Z2.773 I1.345 J-0.838 K0.000 F2000.000
G1 X34.527 Y459.625 Z0.660 F500.000
G2 X35.243 Y458.274 Z0.660 I-0.869 J-1.325 K0.000 F2000.000
G1 X27.824 Y-0.026 Z0.660 F2000.000
G2 X26.239 Y-1.585 Z0.660 I-1.585 J0.026 K0.000 F2000.000
G1 X-26.549 Y-1.585 Z0.660 F2000.000
G2 X-28.134 Y-0.024 Z0.660 I-0.000 J1.585 K0.000 F2000.000
G1 X-35.115 Y458.276 Z0.660 F2000.000
G2 X-34.296 Y459.688 Z0.660 I1.585 J0.024 K0.000 F2000.000
G2 X-29.692 Y460.653 Z0.660 I5.637 J-15.435 K0.000 F2000.000
G2 X-19.858 Y458.445 Z0.660 I1.452 J-16.536 K0.000 F2000.000
G2 X-13.015 Y452.974 Z0.660 I-18.932 J-30.692 K0.000 F2000.000
G3 X-6.256 Y446.106 Z0.660 I16164.263 J15901.484 K0.000 F2000.000
G3 X-1.781 Y442.272 Z0.660 I27.423 J27.480 K0.000 F2000.000
G3 X3.374 Y439.416 Z0.660 I11.681 J15.002 K0.000 F2000.000
G3 X11.220 Y438.942 Z0.660 I4.694 J12.532 K0.000 F2000.000
G3 X18.249 Y442.404 Z0.660 I-5.789 J20.617 K0.000 F2000.000
G3 X23.711 Y447.404 Z0.660 I-24.346 J32.082 K0.000 F2000.000
G3 X32.312 Y459.138 Z0.660 I-57.463 J51.143 K0.000 F2000.000
G2 X34.527 Y459.625 Z0.660 I1.345 J-0.838 K0.000 F2000.000
G1 X34.527 Y459.625 Z0.000 F500.000
G2 X35.243 Y458.274 Z0.000 I-0.869 J-1.325 K0.000 F2000.000
G1 X27.824 Y-0.026 Z0.000 F2000.000
G2 X26.239 Y-1.585 Z0.000 I-1.585 J0.026 K0.000 F2000.000
G1 X-26.549 Y-1.585 Z0.000 F2000.000
G2 X-28.134 Y-0.024 Z0.000 I-0.000 J1.585 K0.000 F2000.000
G1 X-35.115 Y458.276 Z0.000 F2000.000
G2 X-34.296 Y459.688 Z0.000 I1.585 J0.024 K0.000 F2000.000
G2 X-29.692 Y460.653 Z0.000 I5.637 J-15.435 K0.000 F2000.000
G2 X-19.858 Y458.445 Z0.000 I1.452 J-16.536 K0.000 F2000.000
G2 X-13.015 Y452.974 Z0.000 I-18.932 J-30.692 K0.000 F2000.000
G3 X-6.256 Y446.106 Z0.000 I16164.263 J15901.484 K0.000 F2000.000
G3 X-1.781 Y442.272 Z0.000 I27.423 J27.480 K0.000 F2000.000
G3 X3.374 Y439.416 Z0.000 I11.681 J15.002 K0.000 F2000.000
G3 X11.220 Y438.942 Z0.000 I4.694 J12.532 K0.000 F2000.000
G3 X18.249 Y442.404 Z0.000 I-5.789 J20.617 K0.000 F2000.000
G3 X23.711 Y447.404 Z0.000 I-24.346 J32.082 K0.000 F2000.000
G3 X32.312 Y459.138 Z0.000 I-57.463 J51.143 K0.000 F2000.000
G2 X34.527 Y459.625 Z0.000 I1.345 J-0.838 K0.000 F2000.000
G0 Z12.300
G0 Z12.300
(Finish operation: Profile)
(Begin postamble)
M5
G17 G90
M2
