(Exported by FreeCAD)
(Post Processor: script_module)
(Output Time:2024-08-11 19:39:42.128168)
(Begin preamble)
G17 G90
G21
(Begin operation: TC: 0.5mm_droite001)
(Path: TC: 0.5mm_droite001)
(TC: 0.5mm_droite001)
(Begin toolchange)
( M6 T2 )
M3 S24000
(Finish operation: TC: 0.5mm_droite001)
(Begin operation: Fixture)
(Path: Fixture)
G54
(Finish operation: Fixture)
(Begin operation: Pocket_Shape002)
(Path: Pocket_Shape002)
(Pocket_Shape002)
G0 Z5.000
G0 X0.000 Y0.000
G0 X-39.304 Y-31.173
G0 X-39.304 Y-31.173 Z3.000
G1 X-39.304 Y-31.173 Z-0.125 F60.000
G3 X-39.475 Y-30.989 Z-0.125 I-1.266 J-1.004 K0.000 F150.000
G3 X-39.511 Y-31.303 Z-0.125 I0.331 J-0.198 K0.000 F150.000
G2 X-39.513 Y-31.416 Z-0.125 I-0.401 J-0.050 K0.000 F150.000
G3 X-39.479 Y-31.561 Z-0.125 I0.302 J-0.005 K0.000 F150.000
G1 X-39.329 Y-31.411 Z-0.125 F150.000
G2 X-39.252 Y-31.307 Z-0.125 I0.169 J-0.046 K0.000 F150.000
G3 X-39.251 Y-31.243 Z-0.125 I-0.045 J0.033 K0.000 F150.000
G3 X-39.304 Y-31.173 Z-0.125 I-1.318 J-0.934 K0.000 F150.000
G1 X-39.363 Y-31.219 Z-0.125 F60.000
G3 X-39.447 Y-31.122 Z-0.125 I-1.058 J-0.833 K0.000 F150.000
G3 X-39.438 Y-31.287 Z-0.125 I0.308 J-0.067 K0.000 F150.000
G2 X-39.438 Y-31.414 Z-0.125 I-0.447 J-0.063 K0.000 F150.000
G3 X-39.365 Y-31.312 Z-0.125 I-0.126 J0.168 K0.000 F150.000
G2 X-39.325 Y-31.269 Z-0.125 I0.196 J-0.141 K0.000 F150.000
G3 X-39.363 Y-31.219 Z-0.125 I-1.096 J-0.783 K0.000 F150.000
G1 X-39.363 Y-31.219 Z-0.250 F60.000
G3 X-39.447 Y-31.122 Z-0.250 I-1.058 J-0.833 K0.000 F150.000
G3 X-39.438 Y-31.287 Z-0.250 I0.308 J-0.067 K0.000 F150.000
G2 X-39.438 Y-31.414 Z-0.250 I-0.447 J-0.063 K0.000 F150.000
G3 X-39.365 Y-31.312 Z-0.250 I-0.126 J0.168 K0.000 F150.000
G2 X-39.325 Y-31.269 Z-0.250 I0.196 J-0.141 K0.000 F150.000
G3 X-39.363 Y-31.219 Z-0.250 I-1.096 J-0.783 K0.000 F150.000
G1 X-39.304 Y-31.172 Z-0.250 F60.000
G3 X-39.475 Y-30.989 Z-0.250 I-1.265 J-1.004 K0.000 F150.000
G3 X-39.511 Y-31.303 Z-0.250 I0.331 J-0.198 K0.000 F150.000
G2 X-39.513 Y-31.416 Z-0.250 I-0.401 J-0.050 K0.000 F150.000
G3 X-39.479 Y-31.561 Z-0.250 I0.302 J-0.005 K0.000 F150.000
G1 X-39.329 Y-31.411 Z-0.250 F150.000
G2 X-39.252 Y-31.307 Z-0.250 I0.169 J-0.046 K0.000 F150.000
G3 X-39.251 Y-31.243 Z-0.250 I-0.045 J0.033 K0.000 F150.000
G3 X-39.304 Y-31.172 Z-0.250 I-1.318 J-0.934 K0.000 F150.000
G1 X-39.304 Y-31.172 Z-0.375 F60.000
G3 X-39.475 Y-30.989 Z-0.375 I-1.265 J-1.004 K0.000 F150.000
G3 X-39.511 Y-31.303 Z-0.375 I0.331 J-0.198 K0.000 F150.000
G2 X-39.513 Y-31.416 Z-0.375 I-0.401 J-0.050 K0.000 F150.000
G3 X-39.479 Y-31.561 Z-0.375 I0.302 J-0.005 K0.000 F150.000
G1 X-39.329 Y-31.411 Z-0.375 F150.000
G2 X-39.252 Y-31.307 Z-0.375 I0.169 J-0.046 K0.000 F150.000
G3 X-39.251 Y-31.243 Z-0.375 I-0.045 J0.033 K0.000 F150.000
G3 X-39.304 Y-31.172 Z-0.375 I-1.318 J-0.934 K0.000 F150.000
G1 X-39.363 Y-31.219 Z-0.375 F60.000
G3 X-39.447 Y-31.122 Z-0.375 I-1.058 J-0.833 K0.000 F150.000
G3 X-39.438 Y-31.287 Z-0.375 I0.308 J-0.067 K0.000 F150.000
G2 X-39.438 Y-31.414 Z-0.375 I-0.447 J-0.063 K0.000 F150.000
G3 X-39.365 Y-31.312 Z-0.375 I-0.126 J0.168 K0.000 F150.000
G2 X-39.325 Y-31.269 Z-0.375 I0.196 J-0.141 K0.000 F150.000
G3 X-39.363 Y-31.219 Z-0.375 I-1.096 J-0.783 K0.000 F150.000
G1 X-39.363 Y-31.219 Z-0.500 F60.000
G3 X-39.447 Y-31.122 Z-0.500 I-1.058 J-0.833 K0.000 F150.000
G3 X-39.438 Y-31.287 Z-0.500 I0.308 J-0.067 K0.000 F150.000
G2 X-39.438 Y-31.414 Z-0.500 I-0.447 J-0.063 K0.000 F150.000
G3 X-39.365 Y-31.312 Z-0.500 I-0.126 J0.168 K0.000 F150.000
G2 X-39.325 Y-31.269 Z-0.500 I0.196 J-0.141 K0.000 F150.000
G3 X-39.363 Y-31.219 Z-0.500 I-1.096 J-0.783 K0.000 F150.000
G1 X-39.304 Y-31.172 Z-0.500 F60.000
G3 X-39.475 Y-30.989 Z-0.500 I-1.265 J-1.004 K0.000 F150.000
G3 X-39.511 Y-31.303 Z-0.500 I0.331 J-0.198 K0.000 F150.000
G2 X-39.513 Y-31.416 Z-0.500 I-0.401 J-0.050 K0.000 F150.000
G3 X-39.479 Y-31.561 Z-0.500 I0.302 J-0.005 K0.000 F150.000
G1 X-39.329 Y-31.411 Z-0.500 F150.000
G2 X-39.252 Y-31.307 Z-0.500 I0.169 J-0.046 K0.000 F150.000
G3 X-39.251 Y-31.243 Z-0.500 I-0.045 J0.033 K0.000 F150.000
G3 X-39.304 Y-31.172 Z-0.500 I-1.318 J-0.934 K0.000 F150.000
G1 X-39.304 Y-31.172 Z-0.625 F60.000
G3 X-39.475 Y-30.989 Z-0.625 I-1.265 J-1.004 K0.000 F150.000
G3 X-39.511 Y-31.303 Z-0.625 I0.331 J-0.198 K0.000 F150.000
G2 X-39.513 Y-31.416 Z-0.625 I-0.401 J-0.050 K0.000 F150.000
G3 X-39.479 Y-31.561 Z-0.625 I0.302 J-0.005 K0.000 F150.000
G1 X-39.329 Y-31.411 Z-0.625 F150.000
G2 X-39.252 Y-31.307 Z-0.625 I0.169 J-0.046 K0.000 F150.000
G3 X-39.251 Y-31.243 Z-0.625 I-0.045 J0.033 K0.000 F150.000
G3 X-39.304 Y-31.172 Z-0.625 I-1.318 J-0.934 K0.000 F150.000
G1 X-39.363 Y-31.219 Z-0.625 F60.000
G3 X-39.447 Y-31.122 Z-0.625 I-1.058 J-0.834 K0.000 F150.000
G3 X-39.438 Y-31.287 Z-0.625 I0.308 J-0.067 K0.000 F150.000
G2 X-39.438 Y-31.414 Z-0.625 I-0.447 J-0.063 K0.000 F150.000
G3 X-39.365 Y-31.312 Z-0.625 I-0.126 J0.168 K0.000 F150.000
G2 X-39.325 Y-31.269 Z-0.625 I0.196 J-0.141 K0.000 F150.000
G3 X-39.363 Y-31.219 Z-0.625 I-1.096 J-0.783 K0.000 F150.000
G1 X-39.363 Y-31.219 Z-0.750 F60.000
G3 X-39.447 Y-31.122 Z-0.750 I-1.058 J-0.834 K0.000 F150.000
G3 X-39.438 Y-31.287 Z-0.750 I0.308 J-0.067 K0.000 F150.000
G2 X-39.438 Y-31.414 Z-0.750 I-0.447 J-0.063 K0.000 F150.000
G3 X-39.365 Y-31.312 Z-0.750 I-0.126 J0.168 K0.000 F150.000
G2 X-39.325 Y-31.269 Z-0.750 I0.196 J-0.141 K0.000 F150.000
G3 X-39.363 Y-31.219 Z-0.750 I-1.096 J-0.783 K0.000 F150.000
G1 X-39.304 Y-31.172 Z-0.750 F60.000
G3 X-39.475 Y-30.989 Z-0.750 I-1.265 J-1.004 K0.000 F150.000
G3 X-39.511 Y-31.303 Z-0.750 I0.331 J-0.198 K0.000 F150.000
G2 X-39.513 Y-31.416 Z-0.750 I-0.401 J-0.050 K0.000 F150.000
G3 X-39.479 Y-31.561 Z-0.750 I0.302 J-0.005 K0.000 F150.000
G1 X-39.329 Y-31.411 Z-0.750 F150.000
G2 X-39.252 Y-31.307 Z-0.750 I0.169 J-0.046 K0.000 F150.000
G3 X-39.251 Y-31.243 Z-0.750 I-0.045 J0.033 K0.000 F150.000
G3 X-39.304 Y-31.172 Z-0.750 I-1.318 J-0.934 K0.000 F150.000
G1 X-39.304 Y-31.172 Z-0.875 F60.000
G3 X-39.475 Y-30.989 Z-0.875 I-1.265 J-1.004 K0.000 F150.000
G3 X-39.511 Y-31.303 Z-0.875 I0.331 J-0.198 K0.000 F150.000
G2 X-39.513 Y-31.416 Z-0.875 I-0.401 J-0.050 K0.000 F150.000
G3 X-39.479 Y-31.561 Z-0.875 I0.302 J-0.005 K0.000 F150.000
G1 X-39.329 Y-31.411 Z-0.875 F150.000
G2 X-39.252 Y-31.307 Z-0.875 I0.169 J-0.046 K0.000 F150.000
G3 X-39.251 Y-31.243 Z-0.875 I-0.045 J0.033 K0.000 F150.000
G3 X-39.304 Y-31.172 Z-0.875 I-1.318 J-0.934 K0.000 F150.000
G1 X-39.363 Y-31.219 Z-0.875 F60.000
G3 X-39.447 Y-31.122 Z-0.875 I-1.058 J-0.834 K0.000 F150.000
G3 X-39.438 Y-31.287 Z-0.875 I0.308 J-0.067 K0.000 F150.000
G2 X-39.438 Y-31.414 Z-0.875 I-0.447 J-0.063 K0.000 F150.000
G3 X-39.365 Y-31.312 Z-0.875 I-0.126 J0.168 K0.000 F150.000
G2 X-39.325 Y-31.269 Z-0.875 I0.196 J-0.141 K0.000 F150.000
G3 X-39.363 Y-31.219 Z-0.875 I-1.096 J-0.783 K0.000 F150.000
G1 X-39.363 Y-31.219 Z-1.000 F60.000
G3 X-39.447 Y-31.122 Z-1.000 I-1.058 J-0.834 K0.000 F150.000
G3 X-39.438 Y-31.287 Z-1.000 I0.308 J-0.067 K0.000 F150.000
G2 X-39.438 Y-31.414 Z-1.000 I-0.447 J-0.063 K0.000 F150.000
G3 X-39.365 Y-31.312 Z-1.000 I-0.126 J0.168 K0.000 F150.000
G2 X-39.325 Y-31.269 Z-1.000 I0.196 J-0.141 K0.000 F150.000
G3 X-39.363 Y-31.219 Z-1.000 I-1.096 J-0.783 K0.000 F150.000
G1 X-39.304 Y-31.172 Z-1.000 F60.000
G3 X-39.475 Y-30.989 Z-1.000 I-1.265 J-1.005 K0.000 F150.000
G3 X-39.511 Y-31.303 Z-1.000 I0.331 J-0.198 K0.000 F150.000
G2 X-39.513 Y-31.416 Z-1.000 I-0.401 J-0.050 K0.000 F150.000
G3 X-39.479 Y-31.561 Z-1.000 I0.302 J-0.005 K0.000 F150.000
G1 X-39.329 Y-31.411 Z-1.000 F150.000
G2 X-39.252 Y-31.307 Z-1.000 I0.169 J-0.046 K0.000 F150.000
G3 X-39.251 Y-31.243 Z-1.000 I-0.045 J0.033 K0.000 F150.000
G3 X-39.304 Y-31.172 Z-1.000 I-1.318 J-0.934 K0.000 F150.000
G1 X-39.304 Y-31.172 Z-1.125 F60.000
G3 X-39.475 Y-30.989 Z-1.125 I-1.265 J-1.005 K0.000 F150.000
G3 X-39.511 Y-31.303 Z-1.125 I0.331 J-0.198 K0.000 F150.000
G2 X-39.513 Y-31.416 Z-1.125 I-0.401 J-0.050 K0.000 F150.000
G3 X-39.479 Y-31.561 Z-1.125 I0.302 J-0.005 K0.000 F150.000
G1 X-39.329 Y-31.411 Z-1.125 F150.000
G2 X-39.252 Y-31.307 Z-1.125 I0.169 J-0.046 K0.000 F150.000
G3 X-39.251 Y-31.243 Z-1.125 I-0.045 J0.033 K0.000 F150.000
G3 X-39.304 Y-31.172 Z-1.125 I-1.318 J-0.934 K0.000 F150.000
G1 X-39.364 Y-31.218 Z-1.125 F60.000
G3 X-39.447 Y-31.122 Z-1.125 I-1.057 J-0.834 K0.000 F150.000
G3 X-39.438 Y-31.287 Z-1.125 I0.308 J-0.067 K0.000 F150.000
G2 X-39.438 Y-31.414 Z-1.125 I-0.447 J-0.063 K0.000 F150.000
G3 X-39.365 Y-31.312 Z-1.125 I-0.126 J0.168 K0.000 F150.000
G2 X-39.325 Y-31.269 Z-1.125 I0.196 J-0.141 K0.000 F150.000
G3 X-39.364 Y-31.218 Z-1.125 I-1.096 J-0.783 K0.000 F150.000
G1 X-39.364 Y-31.218 Z-1.250 F60.000
G3 X-39.447 Y-31.122 Z-1.250 I-1.057 J-0.834 K0.000 F150.000
G3 X-39.438 Y-31.287 Z-1.250 I0.308 J-0.067 K0.000 F150.000
G2 X-39.438 Y-31.414 Z-1.250 I-0.447 J-0.063 K0.000 F150.000
G3 X-39.365 Y-31.312 Z-1.250 I-0.126 J0.168 K0.000 F150.000
G2 X-39.325 Y-31.269 Z-1.250 I0.196 J-0.141 K0.000 F150.000
G3 X-39.364 Y-31.218 Z-1.250 I-1.096 J-0.783 K0.000 F150.000
G1 X-39.305 Y-31.172 Z-1.250 F60.000
G3 X-39.475 Y-30.989 Z-1.250 I-1.265 J-1.005 K0.000 F150.000
G3 X-39.511 Y-31.303 Z-1.250 I0.331 J-0.198 K0.000 F150.000
G2 X-39.513 Y-31.416 Z-1.250 I-0.401 J-0.050 K0.000 F150.000
G3 X-39.479 Y-31.561 Z-1.250 I0.302 J-0.005 K0.000 F150.000
G1 X-39.329 Y-31.411 Z-1.250 F150.000
G2 X-39.252 Y-31.307 Z-1.250 I0.169 J-0.046 K0.000 F150.000
G3 X-39.251 Y-31.243 Z-1.250 I-0.045 J0.033 K0.000 F150.000
G3 X-39.305 Y-31.172 Z-1.250 I-1.318 J-0.934 K0.000 F150.000
G1 X-39.305 Y-31.172 Z-1.375 F60.000
G3 X-39.475 Y-30.989 Z-1.375 I-1.265 J-1.005 K0.000 F150.000
G3 X-39.511 Y-31.303 Z-1.375 I0.331 J-0.198 K0.000 F150.000
G2 X-39.513 Y-31.416 Z-1.375 I-0.401 J-0.050 K0.000 F150.000
G3 X-39.479 Y-31.561 Z-1.375 I0.302 J-0.005 K0.000 F150.000
G1 X-39.329 Y-31.411 Z-1.375 F150.000
G2 X-39.252 Y-31.307 Z-1.375 I0.169 J-0.046 K0.000 F150.000
G3 X-39.251 Y-31.243 Z-1.375 I-0.045 J0.033 K0.000 F150.000
G3 X-39.305 Y-31.172 Z-1.375 I-1.318 J-0.934 K0.000 F150.000
G1 X-39.364 Y-31.218 Z-1.375 F60.000
G3 X-39.447 Y-31.122 Z-1.375 I-1.057 J-0.834 K0.000 F150.000
G3 X-39.438 Y-31.287 Z-1.375 I0.308 J-0.067 K0.000 F150.000
G2 X-39.438 Y-31.414 Z-1.375 I-0.447 J-0.063 K0.000 F150.000
G3 X-39.365 Y-31.312 Z-1.375 I-0.126 J0.168 K0.000 F150.000
G2 X-39.325 Y-31.269 Z-1.375 I0.196 J-0.141 K0.000 F150.000
G3 X-39.364 Y-31.218 Z-1.375 I-1.096 J-0.783 K0.000 F150.000
G1 X-39.364 Y-31.218 Z-1.500 F60.000
G3 X-39.447 Y-31.122 Z-1.500 I-1.057 J-0.834 K0.000 F150.000
G3 X-39.438 Y-31.287 Z-1.500 I0.308 J-0.067 K0.000 F150.000
G2 X-39.438 Y-31.414 Z-1.500 I-0.447 J-0.063 K0.000 F150.000
G3 X-39.365 Y-31.312 Z-1.500 I-0.126 J0.168 K0.000 F150.000
G2 X-39.325 Y-31.269 Z-1.500 I0.196 J-0.141 K0.000 F150.000
G3 X-39.364 Y-31.218 Z-1.500 I-1.096 J-0.783 K0.000 F150.000
G1 X-39.305 Y-31.171 Z-1.500 F60.000
G3 X-39.475 Y-30.989 Z-1.500 I-1.265 J-1.005 K0.000 F150.000
G3 X-39.511 Y-31.303 Z-1.500 I0.331 J-0.198 K0.000 F150.000
G2 X-39.513 Y-31.416 Z-1.500 I-0.401 J-0.050 K0.000 F150.000
G3 X-39.479 Y-31.561 Z-1.500 I0.302 J-0.005 K0.000 F150.000
G1 X-39.329 Y-31.411 Z-1.500 F150.000
G2 X-39.252 Y-31.307 Z-1.500 I0.169 J-0.046 K0.000 F150.000
G3 X-39.251 Y-31.243 Z-1.500 I-0.045 J0.033 K0.000 F150.000
G3 X-39.305 Y-31.171 Z-1.500 I-1.318 J-0.934 K0.000 F150.000
G1 X-39.305 Y-31.171 Z-1.625 F60.000
G3 X-39.475 Y-30.989 Z-1.625 I-1.265 J-1.005 K0.000 F150.000
G3 X-39.511 Y-31.303 Z-1.625 I0.331 J-0.198 K0.000 F150.000
G2 X-39.513 Y-31.416 Z-1.625 I-0.401 J-0.050 K0.000 F150.000
G3 X-39.479 Y-31.561 Z-1.625 I0.302 J-0.005 K0.000 F150.000
G1 X-39.329 Y-31.411 Z-1.625 F150.000
G2 X-39.252 Y-31.307 Z-1.625 I0.169 J-0.046 K0.000 F150.000
G3 X-39.251 Y-31.243 Z-1.625 I-0.045 J0.033 K0.000 F150.000
G3 X-39.305 Y-31.171 Z-1.625 I-1.318 J-0.934 K0.000 F150.000
G1 X-39.364 Y-31.218 Z-1.625 F60.000
G3 X-39.447 Y-31.122 Z-1.625 I-1.057 J-0.834 K0.000 F150.000
G3 X-39.438 Y-31.287 Z-1.625 I0.308 J-0.067 K0.000 F150.000
G2 X-39.438 Y-31.414 Z-1.625 I-0.447 J-0.063 K0.000 F150.000
G3 X-39.365 Y-31.312 Z-1.625 I-0.126 J0.168 K0.000 F150.000
G2 X-39.325 Y-31.269 Z-1.625 I0.196 J-0.141 K0.000 F150.000
G3 X-39.364 Y-31.218 Z-1.625 I-1.096 J-0.783 K0.000 F150.000
G1 X-39.364 Y-31.218 Z-1.750 F60.000
G3 X-39.447 Y-31.122 Z-1.750 I-1.057 J-0.834 K0.000 F150.000
G3 X-39.438 Y-31.287 Z-1.750 I0.308 J-0.067 K0.000 F150.000
G2 X-39.438 Y-31.414 Z-1.750 I-0.447 J-0.063 K0.000 F150.000
G3 X-39.365 Y-31.312 Z-1.750 I-0.126 J0.168 K0.000 F150.000
G2 X-39.325 Y-31.269 Z-1.750 I0.196 J-0.141 K0.000 F150.000
G3 X-39.364 Y-31.218 Z-1.750 I-1.096 J-0.783 K0.000 F150.000
G1 X-39.305 Y-31.171 Z-1.750 F60.000
G3 X-39.475 Y-30.989 Z-1.750 I-1.264 J-1.005 K0.000 F150.000
G3 X-39.511 Y-31.303 Z-1.750 I0.331 J-0.198 K0.000 F150.000
G2 X-39.513 Y-31.416 Z-1.750 I-0.401 J-0.050 K0.000 F150.000
G3 X-39.479 Y-31.561 Z-1.750 I0.302 J-0.005 K0.000 F150.000
G1 X-39.329 Y-31.411 Z-1.750 F150.000
G2 X-39.252 Y-31.307 Z-1.750 I0.169 J-0.046 K0.000 F150.000
G3 X-39.251 Y-31.243 Z-1.750 I-0.045 J0.033 K0.000 F150.000
G3 X-39.305 Y-31.171 Z-1.750 I-1.318 J-0.934 K0.000 F150.000
G1 X-39.305 Y-31.171 Z-1.875 F60.000
G3 X-39.475 Y-30.989 Z-1.875 I-1.264 J-1.005 K0.000 F150.000
G3 X-39.511 Y-31.303 Z-1.875 I0.331 J-0.198 K0.000 F150.000
G2 X-39.513 Y-31.416 Z-1.875 I-0.401 J-0.050 K0.000 F150.000
G3 X-39.479 Y-31.561 Z-1.875 I0.302 J-0.005 K0.000 F150.000
G1 X-39.329 Y-31.411 Z-1.875 F150.000
G2 X-39.252 Y-31.307 Z-1.875 I0.169 J-0.046 K0.000 F150.000
G3 X-39.251 Y-31.243 Z-1.875 I-0.045 J0.033 K0.000 F150.000
G3 X-39.305 Y-31.171 Z-1.875 I-1.318 J-0.934 K0.000 F150.000
G1 X-39.364 Y-31.218 Z-1.875 F60.000
G3 X-39.447 Y-31.122 Z-1.875 I-1.057 J-0.835 K0.000 F150.000
G3 X-39.438 Y-31.287 Z-1.875 I0.308 J-0.067 K0.000 F150.000
G2 X-39.438 Y-31.414 Z-1.875 I-0.447 J-0.063 K0.000 F150.000
G3 X-39.365 Y-31.312 Z-1.875 I-0.126 J0.168 K0.000 F150.000
G2 X-39.325 Y-31.269 Z-1.875 I0.196 J-0.141 K0.000 F150.000
G3 X-39.364 Y-31.218 Z-1.875 I-1.096 J-0.783 K0.000 F150.000
G1 X-39.364 Y-31.218 Z-2.000 F60.000
G3 X-39.447 Y-31.122 Z-2.000 I-1.057 J-0.835 K0.000 F150.000
G3 X-39.438 Y-31.287 Z-2.000 I0.308 J-0.067 K0.000 F150.000
G2 X-39.438 Y-31.414 Z-2.000 I-0.447 J-0.063 K0.000 F150.000
G3 X-39.365 Y-31.312 Z-2.000 I-0.126 J0.168 K0.000 F150.000
G2 X-39.325 Y-31.269 Z-2.000 I0.196 J-0.141 K0.000 F150.000
G3 X-39.364 Y-31.218 Z-2.000 I-1.096 J-0.783 K0.000 F150.000
G1 X-39.305 Y-31.171 Z-2.000 F60.000
G3 X-39.475 Y-30.989 Z-2.000 I-1.264 J-1.005 K0.000 F150.000
G3 X-39.511 Y-31.303 Z-2.000 I0.331 J-0.198 K0.000 F150.000
G2 X-39.513 Y-31.416 Z-2.000 I-0.401 J-0.050 K0.000 F150.000
G3 X-39.479 Y-31.561 Z-2.000 I0.302 J-0.005 K0.000 F150.000
G1 X-39.329 Y-31.411 Z-2.000 F150.000
G2 X-39.252 Y-31.307 Z-2.000 I0.169 J-0.046 K0.000 F150.000
G3 X-39.251 Y-31.243 Z-2.000 I-0.045 J0.033 K0.000 F150.000
G3 X-39.305 Y-31.171 Z-2.000 I-1.318 J-0.934 K0.000 F150.000
G0 Z5.000
G0 X-40.114 Y-30.373 Z5.000
G0 X-40.114 Y-30.373 Z3.000
G1 X-40.114 Y-30.373 Z-0.125 F60.000
G2 X-40.349 Y-30.154 Z-0.125 I17.679 J19.170 K0.000 F150.000
G3 X-40.415 Y-30.153 Z-0.125 I-0.034 J-0.046 K0.000 F150.000
G3 X-40.671 Y-30.378 Z-0.125 I0.927 J-1.313 K0.000 F150.000
G3 X-40.493 Y-30.421 Z-0.125 I0.162 J0.278 K0.000 F150.000
G3 X-40.114 Y-30.373 Z-0.125 I0.121 J0.569 K0.000 F150.000
G1 X-40.255 Y-30.344 Z-0.125 F60.000
G2 X-40.384 Y-30.224 Z-0.125 I9.716 J10.542 K0.000 F150.000
G3 X-40.529 Y-30.343 Z-0.125 I0.758 J-1.071 K0.000 F150.000
G3 X-40.333 Y-30.357 Z-0.125 I0.157 J0.857 K0.000 F150.000
G3 X-40.255 Y-30.344 Z-0.125 I-0.007 J0.297 K0.000 F150.000
G1 X-40.255 Y-30.344 Z-0.250 F60.000
G2 X-40.384 Y-30.224 Z-0.250 I9.716 J10.542 K0.000 F150.000
G3 X-40.529 Y-30.343 Z-0.250 I0.758 J-1.071 K0.000 F150.000
G3 X-40.333 Y-30.357 Z-0.250 I0.157 J0.857 K0.000 F150.000
G3 X-40.255 Y-30.344 Z-0.250 I-0.007 J0.297 K0.000 F150.000
G1 X-40.204 Y-30.290 Z-0.250 F60.000
G2 X-40.349 Y-30.154 Z-0.250 I17.769 J19.087 K0.000 F150.000
G3 X-40.415 Y-30.153 Z-0.250 I-0.034 J-0.046 K0.000 F150.000
G3 X-40.671 Y-30.378 Z-0.250 I0.927 J-1.313 K0.000 F150.000
G3 X-40.493 Y-30.421 Z-0.250 I0.162 J0.278 K0.000 F150.000
G3 X-40.114 Y-30.373 Z-0.250 I0.121 J0.569 K0.000 F150.000
G2 X-40.204 Y-30.290 Z-0.250 I17.679 J19.170 K0.000 F150.000
G1 X-40.204 Y-30.290 Z-0.375 F60.000
G2 X-40.349 Y-30.154 Z-0.375 I17.769 J19.087 K0.000 F150.000
G3 X-40.415 Y-30.153 Z-0.375 I-0.034 J-0.046 K0.000 F150.000
G3 X-40.671 Y-30.378 Z-0.375 I0.927 J-1.313 K0.000 F150.000
G3 X-40.493 Y-30.421 Z-0.375 I0.162 J0.278 K0.000 F150.000
G3 X-40.114 Y-30.373 Z-0.375 I0.121 J0.569 K0.000 F150.000
G2 X-40.204 Y-30.290 Z-0.375 I17.679 J19.170 K0.000 F150.000
G1 X-40.255 Y-30.344 Z-0.375 F60.000
G2 X-40.384 Y-30.224 Z-0.375 I9.716 J10.542 K0.000 F150.000
G3 X-40.529 Y-30.343 Z-0.375 I0.758 J-1.071 K0.000 F150.000
G3 X-40.333 Y-30.357 Z-0.375 I0.157 J0.857 K0.000 F150.000
G3 X-40.255 Y-30.344 Z-0.375 I-0.007 J0.297 K0.000 F150.000
G1 X-40.255 Y-30.344 Z-0.500 F60.000
G2 X-40.384 Y-30.224 Z-0.500 I9.716 J10.542 K0.000 F150.000
G3 X-40.529 Y-30.343 Z-0.500 I0.758 J-1.071 K0.000 F150.000
G3 X-40.333 Y-30.357 Z-0.500 I0.157 J0.857 K0.000 F150.000
G3 X-40.255 Y-30.344 Z-0.500 I-0.007 J0.297 K0.000 F150.000
G1 X-40.204 Y-30.290 Z-0.500 F60.000
G2 X-40.349 Y-30.154 Z-0.500 I17.769 J19.087 K0.000 F150.000
G3 X-40.415 Y-30.153 Z-0.500 I-0.034 J-0.046 K0.000 F150.000
G3 X-40.671 Y-30.378 Z-0.500 I0.927 J-1.313 K0.000 F150.000
G3 X-40.493 Y-30.421 Z-0.500 I0.162 J0.278 K0.000 F150.000
G3 X-40.114 Y-30.373 Z-0.500 I0.121 J0.569 K0.000 F150.000
G2 X-40.204 Y-30.290 Z-0.500 I17.679 J19.170 K0.000 F150.000
G1 X-40.204 Y-30.290 Z-0.625 F60.000
G2 X-40.349 Y-30.154 Z-0.625 I17.769 J19.087 K0.000 F150.000
G3 X-40.415 Y-30.153 Z-0.625 I-0.034 J-0.046 K0.000 F150.000
G3 X-40.671 Y-30.378 Z-0.625 I0.927 J-1.313 K0.000 F150.000
G3 X-40.493 Y-30.421 Z-0.625 I0.162 J0.278 K0.000 F150.000
G3 X-40.114 Y-30.373 Z-0.625 I0.121 J0.569 K0.000 F150.000
G2 X-40.204 Y-30.290 Z-0.625 I17.679 J19.170 K0.000 F150.000
G1 X-40.255 Y-30.344 Z-0.625 F60.000
G2 X-40.384 Y-30.224 Z-0.625 I9.716 J10.542 K0.000 F150.000
G3 X-40.529 Y-30.343 Z-0.625 I0.758 J-1.071 K0.000 F150.000
G3 X-40.333 Y-30.357 Z-0.625 I0.157 J0.857 K0.000 F150.000
G3 X-40.255 Y-30.344 Z-0.625 I-0.007 J0.297 K0.000 F150.000
G1 X-40.255 Y-30.344 Z-0.750 F60.000
G2 X-40.384 Y-30.224 Z-0.750 I9.716 J10.542 K0.000 F150.000
G3 X-40.529 Y-30.343 Z-0.750 I0.758 J-1.071 K0.000 F150.000
G3 X-40.333 Y-30.357 Z-0.750 I0.157 J0.857 K0.000 F150.000
G3 X-40.255 Y-30.344 Z-0.750 I-0.007 J0.297 K0.000 F150.000
G1 X-40.204 Y-30.290 Z-0.750 F60.000
G2 X-40.349 Y-30.154 Z-0.750 I17.769 J19.087 K0.000 F150.000
G3 X-40.415 Y-30.153 Z-0.750 I-0.034 J-0.046 K0.000 F150.000
G3 X-40.671 Y-30.378 Z-0.750 I0.927 J-1.313 K0.000 F150.000
G3 X-40.493 Y-30.421 Z-0.750 I0.162 J0.278 K0.000 F150.000
G3 X-40.114 Y-30.373 Z-0.750 I0.121 J0.569 K0.000 F150.000
G2 X-40.204 Y-30.290 Z-0.750 I17.679 J19.170 K0.000 F150.000
G1 X-40.204 Y-30.290 Z-0.875 F60.000
G2 X-40.349 Y-30.154 Z-0.875 I17.769 J19.087 K0.000 F150.000
G3 X-40.415 Y-30.153 Z-0.875 I-0.034 J-0.046 K0.000 F150.000
G3 X-40.671 Y-30.378 Z-0.875 I0.927 J-1.313 K0.000 F150.000
G3 X-40.493 Y-30.421 Z-0.875 I0.162 J0.278 K0.000 F150.000
G3 X-40.114 Y-30.373 Z-0.875 I0.121 J0.569 K0.000 F150.000
G2 X-40.204 Y-30.290 Z-0.875 I17.679 J19.170 K0.000 F150.000
G1 X-40.255 Y-30.344 Z-0.875 F60.000
G2 X-40.384 Y-30.224 Z-0.875 I9.716 J10.542 K0.000 F150.000
G3 X-40.529 Y-30.343 Z-0.875 I0.758 J-1.071 K0.000 F150.000
G3 X-40.333 Y-30.357 Z-0.875 I0.157 J0.857 K0.000 F150.000
G3 X-40.255 Y-30.344 Z-0.875 I-0.007 J0.297 K0.000 F150.000
G1 X-40.255 Y-30.344 Z-1.000 F60.000
G2 X-40.384 Y-30.224 Z-1.000 I9.716 J10.542 K0.000 F150.000
G3 X-40.529 Y-30.343 Z-1.000 I0.758 J-1.071 K0.000 F150.000
G3 X-40.333 Y-30.357 Z-1.000 I0.157 J0.857 K0.000 F150.000
G3 X-40.255 Y-30.344 Z-1.000 I-0.007 J0.297 K0.000 F150.000
G1 X-40.204 Y-30.290 Z-1.000 F60.000
G2 X-40.349 Y-30.154 Z-1.000 I17.769 J19.087 K0.000 F150.000
G3 X-40.415 Y-30.153 Z-1.000 I-0.034 J-0.046 K0.000 F150.000
G3 X-40.671 Y-30.378 Z-1.000 I0.927 J-1.313 K0.000 F150.000
G3 X-40.493 Y-30.421 Z-1.000 I0.162 J0.278 K0.000 F150.000
G3 X-40.114 Y-30.373 Z-1.000 I0.121 J0.569 K0.000 F150.000
G2 X-40.204 Y-30.290 Z-1.000 I17.679 J19.170 K0.000 F150.000
G1 X-40.204 Y-30.290 Z-1.125 F60.000
G2 X-40.349 Y-30.154 Z-1.125 I17.769 J19.087 K0.000 F150.000
G3 X-40.415 Y-30.153 Z-1.125 I-0.034 J-0.046 K0.000 F150.000
G3 X-40.671 Y-30.378 Z-1.125 I0.927 J-1.313 K0.000 F150.000
G3 X-40.493 Y-30.421 Z-1.125 I0.162 J0.278 K0.000 F150.000
G3 X-40.114 Y-30.373 Z-1.125 I0.121 J0.569 K0.000 F150.000
G2 X-40.204 Y-30.290 Z-1.125 I17.679 J19.170 K0.000 F150.000
G1 X-40.255 Y-30.344 Z-1.125 F60.000
G2 X-40.384 Y-30.224 Z-1.125 I9.716 J10.542 K0.000 F150.000
G3 X-40.529 Y-30.343 Z-1.125 I0.758 J-1.071 K0.000 F150.000
G3 X-40.333 Y-30.357 Z-1.125 I0.157 J0.857 K0.000 F150.000
G3 X-40.255 Y-30.344 Z-1.125 I-0.007 J0.297 K0.000 F150.000
G1 X-40.255 Y-30.344 Z-1.250 F60.000
G2 X-40.384 Y-30.224 Z-1.250 I9.716 J10.542 K0.000 F150.000
G3 X-40.529 Y-30.343 Z-1.250 I0.758 J-1.071 K0.000 F150.000
G3 X-40.333 Y-30.357 Z-1.250 I0.157 J0.857 K0.000 F150.000
G3 X-40.255 Y-30.344 Z-1.250 I-0.007 J0.297 K0.000 F150.000
G1 X-40.204 Y-30.290 Z-1.250 F60.000
G2 X-40.349 Y-30.154 Z-1.250 I17.769 J19.087 K0.000 F150.000
G3 X-40.415 Y-30.153 Z-1.250 I-0.034 J-0.046 K0.000 F150.000
G3 X-40.671 Y-30.378 Z-1.250 I0.927 J-1.313 K0.000 F150.000
G3 X-40.493 Y-30.421 Z-1.250 I0.162 J0.278 K0.000 F150.000
G3 X-40.114 Y-30.373 Z-1.250 I0.121 J0.569 K0.000 F150.000
G2 X-40.204 Y-30.290 Z-1.250 I17.679 J19.170 K0.000 F150.000
G1 X-40.204 Y-30.290 Z-1.375 F60.000
G2 X-40.349 Y-30.154 Z-1.375 I17.769 J19.087 K0.000 F150.000
G3 X-40.415 Y-30.153 Z-1.375 I-0.034 J-0.046 K0.000 F150.000
G3 X-40.671 Y-30.378 Z-1.375 I0.927 J-1.313 K0.000 F150.000
G3 X-40.493 Y-30.421 Z-1.375 I0.162 J0.278 K0.000 F150.000
G3 X-40.114 Y-30.373 Z-1.375 I0.121 J0.569 K0.000 F150.000
G2 X-40.204 Y-30.290 Z-1.375 I17.679 J19.170 K0.000 F150.000
G1 X-40.255 Y-30.344 Z-1.375 F60.000
G2 X-40.384 Y-30.224 Z-1.375 I9.716 J10.542 K0.000 F150.000
G3 X-40.529 Y-30.343 Z-1.375 I0.758 J-1.071 K0.000 F150.000
G3 X-40.333 Y-30.357 Z-1.375 I0.157 J0.857 K0.000 F150.000
G3 X-40.255 Y-30.344 Z-1.375 I-0.007 J0.297 K0.000 F150.000
G1 X-40.255 Y-30.344 Z-1.500 F60.000
G2 X-40.384 Y-30.224 Z-1.500 I9.716 J10.542 K0.000 F150.000
G3 X-40.529 Y-30.343 Z-1.500 I0.758 J-1.071 K0.000 F150.000
G3 X-40.333 Y-30.357 Z-1.500 I0.157 J0.857 K0.000 F150.000
G3 X-40.255 Y-30.344 Z-1.500 I-0.007 J0.297 K0.000 F150.000
G1 X-40.204 Y-30.290 Z-1.500 F60.000
G2 X-40.349 Y-30.154 Z-1.500 I17.769 J19.087 K0.000 F150.000
G3 X-40.415 Y-30.153 Z-1.500 I-0.034 J-0.046 K0.000 F150.000
G3 X-40.671 Y-30.378 Z-1.500 I0.927 J-1.313 K0.000 F150.000
G3 X-40.493 Y-30.421 Z-1.500 I0.162 J0.278 K0.000 F150.000
G3 X-40.114 Y-30.373 Z-1.500 I0.121 J0.569 K0.000 F150.000
G2 X-40.204 Y-30.290 Z-1.500 I17.679 J19.170 K0.000 F150.000
G1 X-40.204 Y-30.290 Z-1.625 F60.000
G2 X-40.349 Y-30.154 Z-1.625 I17.769 J19.087 K0.000 F150.000
G3 X-40.415 Y-30.153 Z-1.625 I-0.034 J-0.046 K0.000 F150.000
G3 X-40.671 Y-30.378 Z-1.625 I0.927 J-1.313 K0.000 F150.000
G3 X-40.493 Y-30.421 Z-1.625 I0.162 J0.278 K0.000 F150.000
G3 X-40.114 Y-30.373 Z-1.625 I0.121 J0.569 K0.000 F150.000
G2 X-40.204 Y-30.290 Z-1.625 I17.679 J19.170 K0.000 F150.000
G1 X-40.255 Y-30.344 Z-1.625 F60.000
G2 X-40.384 Y-30.224 Z-1.625 I9.716 J10.542 K0.000 F150.000
G3 X-40.529 Y-30.343 Z-1.625 I0.758 J-1.071 K0.000 F150.000
G3 X-40.333 Y-30.357 Z-1.625 I0.157 J0.857 K0.000 F150.000
G3 X-40.255 Y-30.344 Z-1.625 I-0.007 J0.297 K0.000 F150.000
G1 X-40.255 Y-30.344 Z-1.750 F60.000
G2 X-40.384 Y-30.224 Z-1.750 I9.716 J10.542 K0.000 F150.000
G3 X-40.529 Y-30.343 Z-1.750 I0.758 J-1.071 K0.000 F150.000
G3 X-40.333 Y-30.357 Z-1.750 I0.157 J0.857 K0.000 F150.000
G3 X-40.255 Y-30.344 Z-1.750 I-0.007 J0.297 K0.000 F150.000
G1 X-40.204 Y-30.290 Z-1.750 F60.000
G2 X-40.349 Y-30.154 Z-1.750 I17.769 J19.087 K0.000 F150.000
G3 X-40.415 Y-30.153 Z-1.750 I-0.034 J-0.046 K0.000 F150.000
G3 X-40.671 Y-30.378 Z-1.750 I0.927 J-1.313 K0.000 F150.000
G3 X-40.493 Y-30.421 Z-1.750 I0.162 J0.278 K0.000 F150.000
G3 X-40.114 Y-30.373 Z-1.750 I0.121 J0.569 K0.000 F150.000
G2 X-40.204 Y-30.290 Z-1.750 I17.679 J19.170 K0.000 F150.000
G1 X-40.204 Y-30.290 Z-1.875 F60.000
G2 X-40.349 Y-30.154 Z-1.875 I17.769 J19.087 K0.000 F150.000
G3 X-40.415 Y-30.153 Z-1.875 I-0.034 J-0.046 K0.000 F150.000
G3 X-40.671 Y-30.378 Z-1.875 I0.927 J-1.313 K0.000 F150.000
G3 X-40.493 Y-30.421 Z-1.875 I0.162 J0.278 K0.000 F150.000
G3 X-40.114 Y-30.373 Z-1.875 I0.121 J0.569 K0.000 F150.000
G2 X-40.204 Y-30.290 Z-1.875 I17.679 J19.170 K0.000 F150.000
G1 X-40.255 Y-30.344 Z-1.875 F60.000
G2 X-40.384 Y-30.224 Z-1.875 I9.716 J10.542 K0.000 F150.000
G3 X-40.529 Y-30.343 Z-1.875 I0.758 J-1.071 K0.000 F150.000
G3 X-40.333 Y-30.357 Z-1.875 I0.157 J0.857 K0.000 F150.000
G3 X-40.255 Y-30.344 Z-1.875 I-0.007 J0.297 K0.000 F150.000
G1 X-40.255 Y-30.344 Z-2.000 F60.000
G2 X-40.384 Y-30.224 Z-2.000 I9.716 J10.542 K0.000 F150.000
G3 X-40.529 Y-30.343 Z-2.000 I0.758 J-1.071 K0.000 F150.000
G3 X-40.333 Y-30.357 Z-2.000 I0.157 J0.857 K0.000 F150.000
G3 X-40.255 Y-30.344 Z-2.000 I-0.007 J0.297 K0.000 F150.000
G1 X-40.204 Y-30.290 Z-2.000 F60.000
G2 X-40.349 Y-30.154 Z-2.000 I17.769 J19.087 K0.000 F150.000
G3 X-40.415 Y-30.153 Z-2.000 I-0.034 J-0.046 K0.000 F150.000
G3 X-40.671 Y-30.378 Z-2.000 I0.927 J-1.313 K0.000 F150.000
G3 X-40.493 Y-30.421 Z-2.000 I0.162 J0.278 K0.000 F150.000
G3 X-40.114 Y-30.373 Z-2.000 I0.121 J0.569 K0.000 F150.000
G2 X-40.204 Y-30.290 Z-2.000 I17.679 J19.170 K0.000 F150.000
G0 Z5.000
G0 X-43.343 Y-29.834 Z5.000
G0 X-43.343 Y-29.834 Z3.000
G1 X-43.343 Y-29.834 Z-0.125 F60.000
G3 X-43.353 Y-29.793 Z-0.125 I-0.057 J0.008 K0.000 F150.000
G3 X-43.576 Y-29.539 Z-0.125 I-1.325 J-0.939 K0.000 F150.000
G3 X-43.613 Y-29.852 Z-0.125 I0.331 J-0.198 K0.000 F150.000
G2 X-43.615 Y-29.965 Z-0.125 I-0.402 J-0.049 K0.000 F150.000
G3 X-43.581 Y-30.110 Z-0.125 I0.303 J-0.005 K0.000 F150.000
G1 X-43.430 Y-29.959 Z-0.125 F150.000
G2 X-43.354 Y-29.859 Z-0.125 I0.168 J-0.048 K0.000 F150.000
G3 X-43.343 Y-29.834 Z-0.125 I-0.047 J0.034 K0.000 F150.000
G1 X-43.426 Y-29.821 Z-0.125 F60.000
G3 X-43.548 Y-29.672 Z-0.125 I-1.109 J-0.792 K0.000 F150.000
G3 X-43.540 Y-29.837 Z-0.125 I0.307 J-0.066 K0.000 F150.000
G2 X-43.540 Y-29.963 Z-0.125 I-0.449 J-0.063 K0.000 F150.000
G3 X-43.464 Y-29.861 Z-0.125 I-0.133 J0.178 K0.000 F150.000
G2 X-43.426 Y-29.821 Z-0.125 I0.185 J-0.137 K0.000 F150.000
G1 X-43.426 Y-29.821 Z-0.250 F60.000
G3 X-43.548 Y-29.672 Z-0.250 I-1.109 J-0.792 K0.000 F150.000
G3 X-43.540 Y-29.837 Z-0.250 I0.307 J-0.066 K0.000 F150.000
G2 X-43.540 Y-29.963 Z-0.250 I-0.449 J-0.063 K0.000 F150.000
G3 X-43.464 Y-29.861 Z-0.250 I-0.133 J0.178 K0.000 F150.000
G2 X-43.426 Y-29.821 Z-0.250 I0.185 J-0.137 K0.000 F150.000
G1 X-43.377 Y-29.877 Z-0.250 F60.000
G2 X-43.354 Y-29.859 Z-0.250 I0.115 J-0.131 K0.000 F150.000
G3 X-43.353 Y-29.793 Z-0.250 I-0.047 J0.034 K0.000 F150.000
G3 X-43.576 Y-29.539 Z-0.250 I-1.325 J-0.939 K0.000 F150.000
G3 X-43.613 Y-29.852 Z-0.250 I0.331 J-0.198 K0.000 F150.000
G2 X-43.615 Y-29.965 Z-0.250 I-0.402 J-0.049 K0.000 F150.000
G3 X-43.581 Y-30.110 Z-0.250 I0.303 J-0.005 K0.000 F150.000
G1 X-43.430 Y-29.959 Z-0.250 F150.000
G2 X-43.377 Y-29.877 Z-0.250 I0.168 J-0.048 K0.000 F150.000
G1 X-43.377 Y-29.877 Z-0.375 F60.000
G2 X-43.354 Y-29.859 Z-0.375 I0.115 J-0.131 K0.000 F150.000
G3 X-43.353 Y-29.793 Z-0.375 I-0.047 J0.034 K0.000 F150.000
G3 X-43.576 Y-29.539 Z-0.375 I-1.325 J-0.939 K0.000 F150.000
G3 X-43.613 Y-29.852 Z-0.375 I0.331 J-0.198 K0.000 F150.000
G2 X-43.615 Y-29.965 Z-0.375 I-0.402 J-0.049 K0.000 F150.000
G3 X-43.581 Y-30.110 Z-0.375 I0.303 J-0.005 K0.000 F150.000
G1 X-43.430 Y-29.959 Z-0.375 F150.000
G2 X-43.377 Y-29.877 Z-0.375 I0.168 J-0.048 K0.000 F150.000
G1 X-43.426 Y-29.821 Z-0.375 F60.000
G3 X-43.548 Y-29.672 Z-0.375 I-1.109 J-0.792 K0.000 F150.000
G3 X-43.540 Y-29.837 Z-0.375 I0.307 J-0.066 K0.000 F150.000
G2 X-43.540 Y-29.963 Z-0.375 I-0.449 J-0.063 K0.000 F150.000
G3 X-43.464 Y-29.861 Z-0.375 I-0.133 J0.178 K0.000 F150.000
G2 X-43.426 Y-29.821 Z-0.375 I0.185 J-0.137 K0.000 F150.000
G1 X-43.426 Y-29.821 Z-0.500 F60.000
G3 X-43.548 Y-29.672 Z-0.500 I-1.109 J-0.792 K0.000 F150.000
G3 X-43.540 Y-29.837 Z-0.500 I0.307 J-0.066 K0.000 F150.000
G2 X-43.540 Y-29.963 Z-0.500 I-0.449 J-0.063 K0.000 F150.000
G3 X-43.464 Y-29.861 Z-0.500 I-0.133 J0.178 K0.000 F150.000
G2 X-43.426 Y-29.821 Z-0.500 I0.185 J-0.137 K0.000 F150.000
G1 X-43.377 Y-29.877 Z-0.500 F60.000
G2 X-43.354 Y-29.859 Z-0.500 I0.115 J-0.131 K0.000 F150.000
G3 X-43.353 Y-29.793 Z-0.500 I-0.047 J0.034 K0.000 F150.000
G3 X-43.576 Y-29.539 Z-0.500 I-1.325 J-0.939 K0.000 F150.000
G3 X-43.613 Y-29.852 Z-0.500 I0.331 J-0.198 K0.000 F150.000
G2 X-43.615 Y-29.965 Z-0.500 I-0.402 J-0.049 K0.000 F150.000
G3 X-43.581 Y-30.110 Z-0.500 I0.303 J-0.005 K0.000 F150.000
G1 X-43.430 Y-29.959 Z-0.500 F150.000
G2 X-43.377 Y-29.877 Z-0.500 I0.168 J-0.048 K0.000 F150.000
G1 X-43.377 Y-29.877 Z-0.625 F60.000
G2 X-43.354 Y-29.859 Z-0.625 I0.115 J-0.131 K0.000 F150.000
G3 X-43.353 Y-29.793 Z-0.625 I-0.047 J0.034 K0.000 F150.000
G3 X-43.576 Y-29.539 Z-0.625 I-1.325 J-0.939 K0.000 F150.000
G3 X-43.613 Y-29.852 Z-0.625 I0.331 J-0.198 K0.000 F150.000
G2 X-43.615 Y-29.965 Z-0.625 I-0.402 J-0.049 K0.000 F150.000
G3 X-43.581 Y-30.110 Z-0.625 I0.303 J-0.005 K0.000 F150.000
G1 X-43.430 Y-29.959 Z-0.625 F150.000
G2 X-43.377 Y-29.877 Z-0.625 I0.168 J-0.048 K0.000 F150.000
G1 X-43.426 Y-29.821 Z-0.625 F60.000
G3 X-43.548 Y-29.672 Z-0.625 I-1.109 J-0.792 K0.000 F150.000
G3 X-43.540 Y-29.837 Z-0.625 I0.307 J-0.066 K0.000 F150.000
G2 X-43.540 Y-29.963 Z-0.625 I-0.449 J-0.063 K0.000 F150.000
G3 X-43.464 Y-29.861 Z-0.625 I-0.133 J0.178 K0.000 F150.000
G2 X-43.426 Y-29.821 Z-0.625 I0.185 J-0.137 K0.000 F150.000
G1 X-43.426 Y-29.821 Z-0.750 F60.000
G3 X-43.548 Y-29.672 Z-0.750 I-1.109 J-0.792 K0.000 F150.000
G3 X-43.540 Y-29.837 Z-0.750 I0.307 J-0.066 K0.000 F150.000
G2 X-43.540 Y-29.963 Z-0.750 I-0.449 J-0.063 K0.000 F150.000
G3 X-43.464 Y-29.861 Z-0.750 I-0.133 J0.178 K0.000 F150.000
G2 X-43.426 Y-29.821 Z-0.750 I0.185 J-0.137 K0.000 F150.000
G1 X-43.377 Y-29.877 Z-0.750 F60.000
G2 X-43.354 Y-29.859 Z-0.750 I0.115 J-0.131 K0.000 F150.000
G3 X-43.353 Y-29.793 Z-0.750 I-0.047 J0.034 K0.000 F150.000
G3 X-43.576 Y-29.539 Z-0.750 I-1.325 J-0.939 K0.000 F150.000
G3 X-43.613 Y-29.852 Z-0.750 I0.331 J-0.198 K0.000 F150.000
G2 X-43.615 Y-29.965 Z-0.750 I-0.402 J-0.049 K0.000 F150.000
G3 X-43.581 Y-30.110 Z-0.750 I0.303 J-0.005 K0.000 F150.000
G1 X-43.430 Y-29.959 Z-0.750 F150.000
G2 X-43.377 Y-29.877 Z-0.750 I0.168 J-0.048 K0.000 F150.000
G1 X-43.377 Y-29.877 Z-0.875 F60.000
G2 X-43.354 Y-29.859 Z-0.875 I0.115 J-0.131 K0.000 F150.000
G3 X-43.353 Y-29.793 Z-0.875 I-0.047 J0.034 K0.000 F150.000
G3 X-43.576 Y-29.539 Z-0.875 I-1.325 J-0.939 K0.000 F150.000
G3 X-43.613 Y-29.852 Z-0.875 I0.331 J-0.198 K0.000 F150.000
G2 X-43.615 Y-29.965 Z-0.875 I-0.402 J-0.049 K0.000 F150.000
G3 X-43.581 Y-30.110 Z-0.875 I0.303 J-0.005 K0.000 F150.000
G1 X-43.430 Y-29.959 Z-0.875 F150.000
G2 X-43.377 Y-29.877 Z-0.875 I0.168 J-0.048 K0.000 F150.000
G1 X-43.426 Y-29.821 Z-0.875 F60.000
G3 X-43.548 Y-29.672 Z-0.875 I-1.109 J-0.792 K0.000 F150.000
G3 X-43.540 Y-29.837 Z-0.875 I0.307 J-0.066 K0.000 F150.000
G2 X-43.540 Y-29.963 Z-0.875 I-0.449 J-0.063 K0.000 F150.000
G3 X-43.464 Y-29.861 Z-0.875 I-0.133 J0.178 K0.000 F150.000
G2 X-43.426 Y-29.821 Z-0.875 I0.185 J-0.137 K0.000 F150.000
G1 X-43.426 Y-29.821 Z-1.000 F60.000
G3 X-43.548 Y-29.672 Z-1.000 I-1.109 J-0.792 K0.000 F150.000
G3 X-43.540 Y-29.837 Z-1.000 I0.307 J-0.066 K0.000 F150.000
G2 X-43.540 Y-29.963 Z-1.000 I-0.449 J-0.063 K0.000 F150.000
G3 X-43.464 Y-29.861 Z-1.000 I-0.133 J0.178 K0.000 F150.000
G2 X-43.426 Y-29.821 Z-1.000 I0.185 J-0.137 K0.000 F150.000
G1 X-43.377 Y-29.877 Z-1.000 F60.000
G2 X-43.354 Y-29.859 Z-1.000 I0.115 J-0.131 K0.000 F150.000
G3 X-43.353 Y-29.793 Z-1.000 I-0.047 J0.034 K0.000 F150.000
G3 X-43.576 Y-29.539 Z-1.000 I-1.325 J-0.939 K0.000 F150.000
G3 X-43.613 Y-29.852 Z-1.000 I0.331 J-0.198 K0.000 F150.000
G2 X-43.615 Y-29.965 Z-1.000 I-0.402 J-0.049 K0.000 F150.000
G3 X-43.581 Y-30.110 Z-1.000 I0.303 J-0.005 K0.000 F150.000
G1 X-43.430 Y-29.959 Z-1.000 F150.000
G2 X-43.377 Y-29.877 Z-1.000 I0.168 J-0.048 K0.000 F150.000
G1 X-43.377 Y-29.877 Z-1.125 F60.000
G2 X-43.354 Y-29.859 Z-1.125 I0.115 J-0.131 K0.000 F150.000
G3 X-43.353 Y-29.793 Z-1.125 I-0.047 J0.034 K0.000 F150.000
G3 X-43.576 Y-29.539 Z-1.125 I-1.325 J-0.939 K0.000 F150.000
G3 X-43.613 Y-29.852 Z-1.125 I0.331 J-0.198 K0.000 F150.000
G2 X-43.615 Y-29.965 Z-1.125 I-0.402 J-0.049 K0.000 F150.000
G3 X-43.581 Y-30.110 Z-1.125 I0.303 J-0.005 K0.000 F150.000
G1 X-43.430 Y-29.959 Z-1.125 F150.000
G2 X-43.377 Y-29.877 Z-1.125 I0.168 J-0.048 K0.000 F150.000
G1 X-43.426 Y-29.821 Z-1.125 F60.000
G3 X-43.548 Y-29.672 Z-1.125 I-1.109 J-0.792 K0.000 F150.000
G3 X-43.540 Y-29.837 Z-1.125 I0.307 J-0.066 K0.000 F150.000
G2 X-43.540 Y-29.963 Z-1.125 I-0.449 J-0.063 K0.000 F150.000
G3 X-43.464 Y-29.861 Z-1.125 I-0.133 J0.178 K0.000 F150.000
G2 X-43.426 Y-29.821 Z-1.125 I0.185 J-0.137 K0.000 F150.000
G1 X-43.426 Y-29.821 Z-1.250 F60.000
G3 X-43.548 Y-29.672 Z-1.250 I-1.109 J-0.792 K0.000 F150.000
G3 X-43.540 Y-29.837 Z-1.250 I0.307 J-0.066 K0.000 F150.000
G2 X-43.540 Y-29.963 Z-1.250 I-0.449 J-0.063 K0.000 F150.000
G3 X-43.464 Y-29.861 Z-1.250 I-0.133 J0.178 K0.000 F150.000
G2 X-43.426 Y-29.821 Z-1.250 I0.185 J-0.137 K0.000 F150.000
G1 X-43.377 Y-29.877 Z-1.250 F60.000
G2 X-43.354 Y-29.859 Z-1.250 I0.115 J-0.131 K0.000 F150.000
G3 X-43.353 Y-29.793 Z-1.250 I-0.047 J0.034 K0.000 F150.000
G3 X-43.576 Y-29.539 Z-1.250 I-1.325 J-0.939 K0.000 F150.000
G3 X-43.613 Y-29.852 Z-1.250 I0.331 J-0.198 K0.000 F150.000
G2 X-43.615 Y-29.965 Z-1.250 I-0.402 J-0.049 K0.000 F150.000
G3 X-43.581 Y-30.110 Z-1.250 I0.303 J-0.005 K0.000 F150.000
G1 X-43.430 Y-29.959 Z-1.250 F150.000
G2 X-43.377 Y-29.877 Z-1.250 I0.168 J-0.048 K0.000 F150.000
G1 X-43.377 Y-29.877 Z-1.375 F60.000
G2 X-43.354 Y-29.859 Z-1.375 I0.115 J-0.131 K0.000 F150.000
G3 X-43.353 Y-29.793 Z-1.375 I-0.047 J0.034 K0.000 F150.000
G3 X-43.576 Y-29.539 Z-1.375 I-1.325 J-0.939 K0.000 F150.000
G3 X-43.613 Y-29.852 Z-1.375 I0.331 J-0.198 K0.000 F150.000
G2 X-43.615 Y-29.965 Z-1.375 I-0.402 J-0.049 K0.000 F150.000
G3 X-43.581 Y-30.110 Z-1.375 I0.303 J-0.005 K0.000 F150.000
G1 X-43.430 Y-29.959 Z-1.375 F150.000
G2 X-43.377 Y-29.877 Z-1.375 I0.168 J-0.048 K0.000 F150.000
G1 X-43.426 Y-29.821 Z-1.375 F60.000
G3 X-43.548 Y-29.672 Z-1.375 I-1.109 J-0.792 K0.000 F150.000
G3 X-43.540 Y-29.837 Z-1.375 I0.307 J-0.066 K0.000 F150.000
G2 X-43.540 Y-29.963 Z-1.375 I-0.449 J-0.063 K0.000 F150.000
G3 X-43.464 Y-29.861 Z-1.375 I-0.133 J0.178 K0.000 F150.000
G2 X-43.426 Y-29.821 Z-1.375 I0.185 J-0.137 K0.000 F150.000
G1 X-43.426 Y-29.821 Z-1.500 F60.000
G3 X-43.548 Y-29.672 Z-1.500 I-1.109 J-0.792 K0.000 F150.000
G3 X-43.540 Y-29.837 Z-1.500 I0.307 J-0.066 K0.000 F150.000
G2 X-43.540 Y-29.963 Z-1.500 I-0.449 J-0.063 K0.000 F150.000
G3 X-43.464 Y-29.861 Z-1.500 I-0.133 J0.178 K0.000 F150.000
G2 X-43.426 Y-29.821 Z-1.500 I0.185 J-0.137 K0.000 F150.000
G1 X-43.377 Y-29.877 Z-1.500 F60.000
G2 X-43.354 Y-29.859 Z-1.500 I0.115 J-0.131 K0.000 F150.000
G3 X-43.353 Y-29.793 Z-1.500 I-0.047 J0.034 K0.000 F150.000
G3 X-43.576 Y-29.539 Z-1.500 I-1.325 J-0.939 K0.000 F150.000
G3 X-43.613 Y-29.852 Z-1.500 I0.331 J-0.198 K0.000 F150.000
G2 X-43.615 Y-29.965 Z-1.500 I-0.402 J-0.049 K0.000 F150.000
G3 X-43.581 Y-30.110 Z-1.500 I0.303 J-0.005 K0.000 F150.000
G1 X-43.430 Y-29.959 Z-1.500 F150.000
G2 X-43.377 Y-29.877 Z-1.500 I0.168 J-0.048 K0.000 F150.000
G1 X-43.377 Y-29.877 Z-1.625 F60.000
G2 X-43.354 Y-29.859 Z-1.625 I0.115 J-0.131 K0.000 F150.000
G3 X-43.353 Y-29.793 Z-1.625 I-0.047 J0.034 K0.000 F150.000
G3 X-43.576 Y-29.539 Z-1.625 I-1.325 J-0.939 K0.000 F150.000
G3 X-43.613 Y-29.852 Z-1.625 I0.331 J-0.198 K0.000 F150.000
G2 X-43.615 Y-29.965 Z-1.625 I-0.402 J-0.049 K0.000 F150.000
G3 X-43.581 Y-30.110 Z-1.625 I0.303 J-0.005 K0.000 F150.000
G1 X-43.430 Y-29.959 Z-1.625 F150.000
G2 X-43.377 Y-29.877 Z-1.625 I0.168 J-0.048 K0.000 F150.000
G1 X-43.426 Y-29.821 Z-1.625 F60.000
G3 X-43.548 Y-29.672 Z-1.625 I-1.109 J-0.792 K0.000 F150.000
G3 X-43.540 Y-29.837 Z-1.625 I0.307 J-0.066 K0.000 F150.000
G2 X-43.540 Y-29.963 Z-1.625 I-0.449 J-0.063 K0.000 F150.000
G3 X-43.464 Y-29.861 Z-1.625 I-0.133 J0.178 K0.000 F150.000
G2 X-43.426 Y-29.821 Z-1.625 I0.185 J-0.137 K0.000 F150.000
G1 X-43.426 Y-29.821 Z-1.750 F60.000
G3 X-43.548 Y-29.672 Z-1.750 I-1.109 J-0.792 K0.000 F150.000
G3 X-43.540 Y-29.837 Z-1.750 I0.307 J-0.066 K0.000 F150.000
G2 X-43.540 Y-29.963 Z-1.750 I-0.449 J-0.063 K0.000 F150.000
G3 X-43.464 Y-29.861 Z-1.750 I-0.133 J0.178 K0.000 F150.000
G2 X-43.426 Y-29.821 Z-1.750 I0.185 J-0.137 K0.000 F150.000
G1 X-43.377 Y-29.877 Z-1.750 F60.000
G2 X-43.354 Y-29.859 Z-1.750 I0.115 J-0.131 K0.000 F150.000
G3 X-43.353 Y-29.793 Z-1.750 I-0.047 J0.034 K0.000 F150.000
G3 X-43.576 Y-29.539 Z-1.750 I-1.325 J-0.939 K0.000 F150.000
G3 X-43.613 Y-29.852 Z-1.750 I0.331 J-0.198 K0.000 F150.000
G2 X-43.615 Y-29.965 Z-1.750 I-0.402 J-0.049 K0.000 F150.000
G3 X-43.581 Y-30.110 Z-1.750 I0.303 J-0.005 K0.000 F150.000
G1 X-43.430 Y-29.959 Z-1.750 F150.000
G2 X-43.377 Y-29.877 Z-1.750 I0.168 J-0.048 K0.000 F150.000
G1 X-43.377 Y-29.877 Z-1.875 F60.000
G2 X-43.354 Y-29.859 Z-1.875 I0.115 J-0.131 K0.000 F150.000
G3 X-43.353 Y-29.793 Z-1.875 I-0.047 J0.034 K0.000 F150.000
G3 X-43.576 Y-29.539 Z-1.875 I-1.325 J-0.939 K0.000 F150.000
G3 X-43.613 Y-29.852 Z-1.875 I0.331 J-0.198 K0.000 F150.000
G2 X-43.615 Y-29.965 Z-1.875 I-0.402 J-0.049 K0.000 F150.000
G3 X-43.581 Y-30.110 Z-1.875 I0.303 J-0.005 K0.000 F150.000
G1 X-43.430 Y-29.959 Z-1.875 F150.000
G2 X-43.377 Y-29.877 Z-1.875 I0.168 J-0.048 K0.000 F150.000
G1 X-43.426 Y-29.821 Z-1.875 F60.000
G3 X-43.548 Y-29.672 Z-1.875 I-1.109 J-0.792 K0.000 F150.000
G3 X-43.540 Y-29.837 Z-1.875 I0.307 J-0.066 K0.000 F150.000
G2 X-43.540 Y-29.963 Z-1.875 I-0.449 J-0.063 K0.000 F150.000
G3 X-43.464 Y-29.861 Z-1.875 I-0.133 J0.178 K0.000 F150.000
G2 X-43.426 Y-29.821 Z-1.875 I0.185 J-0.137 K0.000 F150.000
G1 X-43.426 Y-29.821 Z-2.000 F60.000
G3 X-43.548 Y-29.672 Z-2.000 I-1.109 J-0.792 K0.000 F150.000
G3 X-43.540 Y-29.837 Z-2.000 I0.307 J-0.066 K0.000 F150.000
G2 X-43.540 Y-29.963 Z-2.000 I-0.449 J-0.063 K0.000 F150.000
G3 X-43.464 Y-29.861 Z-2.000 I-0.133 J0.178 K0.000 F150.000
G2 X-43.426 Y-29.821 Z-2.000 I0.185 J-0.137 K0.000 F150.000
G1 X-43.377 Y-29.877 Z-2.000 F60.000
G2 X-43.354 Y-29.859 Z-2.000 I0.115 J-0.131 K0.000 F150.000
G3 X-43.353 Y-29.793 Z-2.000 I-0.047 J0.034 K0.000 F150.000
G3 X-43.576 Y-29.539 Z-2.000 I-1.325 J-0.939 K0.000 F150.000
G3 X-43.613 Y-29.852 Z-2.000 I0.331 J-0.198 K0.000 F150.000
G2 X-43.615 Y-29.965 Z-2.000 I-0.402 J-0.049 K0.000 F150.000
G3 X-43.581 Y-30.110 Z-2.000 I0.303 J-0.005 K0.000 F150.000
G1 X-43.430 Y-29.959 Z-2.000 F150.000
G2 X-43.377 Y-29.877 Z-2.000 I0.168 J-0.048 K0.000 F150.000
G0 Z5.000
G0 X-44.139 Y-28.999 Z5.000
G0 X-44.139 Y-28.999 Z3.000
G1 X-44.139 Y-28.999 Z-0.125 F60.000
G2 X-44.384 Y-28.770 Z-0.125 I15.403 J16.737 K0.000 F150.000
G3 X-44.450 Y-28.769 Z-0.125 I-0.034 J-0.046 K0.000 F150.000
G3 X-44.708 Y-28.996 Z-0.125 I0.938 J-1.324 K0.000 F150.000
G3 X-44.556 Y-29.034 Z-0.125 I0.143 J0.247 K0.000 F150.000
G2 X-44.355 Y-29.025 Z-0.125 I0.157 J-1.199 K0.000 F150.000
G3 X-44.139 Y-28.999 Z-0.125 I0.071 J0.322 K0.000 F150.000
G1 X-44.295 Y-28.956 Z-0.125 F60.000
G2 X-44.420 Y-28.840 Z-0.125 I7.805 J8.486 K0.000 F150.000
G3 X-44.564 Y-28.959 Z-0.125 I0.755 J-1.066 K0.000 F150.000
G1 X-44.556 Y-28.959 Z-0.125 F150.000
G2 X-44.347 Y-28.950 Z-0.125 I0.158 J-1.247 K0.000 F150.000
G1 X-44.295 Y-28.956 Z-0.125 F150.000
G1 X-44.295 Y-28.956 Z-0.250 F60.000
G2 X-44.420 Y-28.840 Z-0.250 I7.805 J8.486 K0.000 F150.000
G3 X-44.564 Y-28.959 Z-0.250 I0.755 J-1.066 K0.000 F150.000
G1 X-44.556 Y-28.959 Z-0.250 F150.000
G2 X-44.347 Y-28.950 Z-0.250 I0.158 J-1.247 K0.000 F150.000
G1 X-44.295 Y-28.956 Z-0.250 F150.000
G1 X-44.245 Y-28.901 Z-0.250 F60.000
G2 X-44.384 Y-28.770 Z-0.250 I15.509 J16.640 K0.000 F150.000
G3 X-44.450 Y-28.769 Z-0.250 I-0.034 J-0.046 K0.000 F150.000
G3 X-44.708 Y-28.996 Z-0.250 I0.938 J-1.324 K0.000 F150.000
G3 X-44.556 Y-29.034 Z-0.250 I0.143 J0.247 K0.000 F150.000
G2 X-44.355 Y-29.025 Z-0.250 I0.157 J-1.199 K0.000 F150.000
G3 X-44.139 Y-28.999 Z-0.250 I0.071 J0.322 K0.000 F150.000
G2 X-44.245 Y-28.901 Z-0.250 I15.403 J16.737 K0.000 F150.000
G1 X-44.245 Y-28.901 Z-0.375 F60.000
G2 X-44.384 Y-28.770 Z-0.375 I15.509 J16.640 K0.000 F150.000
G3 X-44.450 Y-28.769 Z-0.375 I-0.034 J-0.046 K0.000 F150.000
G3 X-44.708 Y-28.996 Z-0.375 I0.938 J-1.324 K0.000 F150.000
G3 X-44.556 Y-29.034 Z-0.375 I0.143 J0.247 K0.000 F150.000
G2 X-44.355 Y-29.025 Z-0.375 I0.157 J-1.199 K0.000 F150.000
G3 X-44.139 Y-28.999 Z-0.375 I0.071 J0.322 K0.000 F150.000
G2 X-44.245 Y-28.901 Z-0.375 I15.403 J16.737 K0.000 F150.000
G1 X-44.295 Y-28.956 Z-0.375 F60.000
G2 X-44.420 Y-28.840 Z-0.375 I7.805 J8.486 K0.000 F150.000
G3 X-44.564 Y-28.959 Z-0.375 I0.755 J-1.066 K0.000 F150.000
G1 X-44.556 Y-28.959 Z-0.375 F150.000
G2 X-44.347 Y-28.950 Z-0.375 I0.158 J-1.247 K0.000 F150.000
G1 X-44.295 Y-28.956 Z-0.375 F150.000
G1 X-44.295 Y-28.956 Z-0.500 F60.000
G2 X-44.420 Y-28.840 Z-0.500 I7.805 J8.486 K0.000 F150.000
G3 X-44.564 Y-28.959 Z-0.500 I0.755 J-1.066 K0.000 F150.000
G1 X-44.556 Y-28.959 Z-0.500 F150.000
G2 X-44.347 Y-28.950 Z-0.500 I0.158 J-1.247 K0.000 F150.000
G1 X-44.295 Y-28.956 Z-0.500 F150.000
G1 X-44.245 Y-28.901 Z-0.500 F60.000
G2 X-44.384 Y-28.770 Z-0.500 I15.509 J16.640 K0.000 F150.000
G3 X-44.450 Y-28.769 Z-0.500 I-0.034 J-0.046 K0.000 F150.000
G3 X-44.708 Y-28.996 Z-0.500 I0.938 J-1.324 K0.000 F150.000
G3 X-44.556 Y-29.034 Z-0.500 I0.143 J0.247 K0.000 F150.000
G2 X-44.355 Y-29.025 Z-0.500 I0.157 J-1.199 K0.000 F150.000
G3 X-44.139 Y-28.999 Z-0.500 I0.071 J0.322 K0.000 F150.000
G2 X-44.245 Y-28.901 Z-0.500 I15.403 J16.737 K0.000 F150.000
G1 X-44.245 Y-28.901 Z-0.625 F60.000
G2 X-44.384 Y-28.770 Z-0.625 I15.509 J16.640 K0.000 F150.000
G3 X-44.450 Y-28.769 Z-0.625 I-0.034 J-0.046 K0.000 F150.000
G3 X-44.708 Y-28.996 Z-0.625 I0.938 J-1.324 K0.000 F150.000
G3 X-44.556 Y-29.034 Z-0.625 I0.143 J0.247 K0.000 F150.000
G2 X-44.355 Y-29.025 Z-0.625 I0.157 J-1.199 K0.000 F150.000
G3 X-44.139 Y-28.999 Z-0.625 I0.071 J0.322 K0.000 F150.000
G2 X-44.245 Y-28.901 Z-0.625 I15.403 J16.737 K0.000 F150.000
G1 X-44.295 Y-28.956 Z-0.625 F60.000
G2 X-44.420 Y-28.840 Z-0.625 I7.805 J8.486 K0.000 F150.000
G3 X-44.564 Y-28.959 Z-0.625 I0.755 J-1.066 K0.000 F150.000
G1 X-44.556 Y-28.959 Z-0.625 F150.000
G2 X-44.347 Y-28.950 Z-0.625 I0.158 J-1.247 K0.000 F150.000
G1 X-44.295 Y-28.956 Z-0.625 F150.000
G1 X-44.295 Y-28.956 Z-0.750 F60.000
G2 X-44.420 Y-28.840 Z-0.750 I7.805 J8.486 K0.000 F150.000
G3 X-44.564 Y-28.959 Z-0.750 I0.755 J-1.066 K0.000 F150.000
G1 X-44.556 Y-28.959 Z-0.750 F150.000
G2 X-44.347 Y-28.950 Z-0.750 I0.158 J-1.247 K0.000 F150.000
G1 X-44.295 Y-28.956 Z-0.750 F150.000
G1 X-44.245 Y-28.901 Z-0.750 F60.000
G2 X-44.384 Y-28.770 Z-0.750 I15.509 J16.640 K0.000 F150.000
G3 X-44.450 Y-28.769 Z-0.750 I-0.034 J-0.046 K0.000 F150.000
G3 X-44.708 Y-28.996 Z-0.750 I0.938 J-1.324 K0.000 F150.000
G3 X-44.556 Y-29.034 Z-0.750 I0.143 J0.247 K0.000 F150.000
G2 X-44.355 Y-29.025 Z-0.750 I0.157 J-1.199 K0.000 F150.000
G3 X-44.139 Y-28.999 Z-0.750 I0.071 J0.322 K0.000 F150.000
G2 X-44.245 Y-28.901 Z-0.750 I15.403 J16.737 K0.000 F150.000
G1 X-44.245 Y-28.901 Z-0.875 F60.000
G2 X-44.384 Y-28.770 Z-0.875 I15.509 J16.640 K0.000 F150.000
G3 X-44.450 Y-28.769 Z-0.875 I-0.034 J-0.046 K0.000 F150.000
G3 X-44.708 Y-28.996 Z-0.875 I0.938 J-1.324 K0.000 F150.000
G3 X-44.556 Y-29.034 Z-0.875 I0.143 J0.247 K0.000 F150.000
G2 X-44.355 Y-29.025 Z-0.875 I0.157 J-1.199 K0.000 F150.000
G3 X-44.139 Y-28.999 Z-0.875 I0.071 J0.322 K0.000 F150.000
G2 X-44.245 Y-28.901 Z-0.875 I15.403 J16.737 K0.000 F150.000
G1 X-44.295 Y-28.956 Z-0.875 F60.000
G2 X-44.420 Y-28.840 Z-0.875 I7.805 J8.486 K0.000 F150.000
G3 X-44.564 Y-28.959 Z-0.875 I0.755 J-1.066 K0.000 F150.000
G1 X-44.556 Y-28.959 Z-0.875 F150.000
G2 X-44.347 Y-28.950 Z-0.875 I0.158 J-1.247 K0.000 F150.000
G1 X-44.295 Y-28.956 Z-0.875 F150.000
G1 X-44.295 Y-28.956 Z-1.000 F60.000
G2 X-44.420 Y-28.840 Z-1.000 I7.805 J8.486 K0.000 F150.000
G3 X-44.564 Y-28.959 Z-1.000 I0.755 J-1.066 K0.000 F150.000
G1 X-44.556 Y-28.959 Z-1.000 F150.000
G2 X-44.347 Y-28.950 Z-1.000 I0.158 J-1.247 K0.000 F150.000
G1 X-44.295 Y-28.956 Z-1.000 F150.000
G1 X-44.245 Y-28.901 Z-1.000 F60.000
G2 X-44.384 Y-28.770 Z-1.000 I15.509 J16.640 K0.000 F150.000
G3 X-44.450 Y-28.769 Z-1.000 I-0.034 J-0.046 K0.000 F150.000
G3 X-44.708 Y-28.996 Z-1.000 I0.938 J-1.324 K0.000 F150.000
G3 X-44.556 Y-29.034 Z-1.000 I0.143 J0.247 K0.000 F150.000
G2 X-44.355 Y-29.025 Z-1.000 I0.157 J-1.199 K0.000 F150.000
G3 X-44.139 Y-28.999 Z-1.000 I0.071 J0.322 K0.000 F150.000
G2 X-44.245 Y-28.901 Z-1.000 I15.403 J16.737 K0.000 F150.000
G1 X-44.245 Y-28.901 Z-1.125 F60.000
G2 X-44.384 Y-28.770 Z-1.125 I15.509 J16.640 K0.000 F150.000
G3 X-44.450 Y-28.769 Z-1.125 I-0.034 J-0.046 K0.000 F150.000
G3 X-44.708 Y-28.996 Z-1.125 I0.938 J-1.324 K0.000 F150.000
G3 X-44.556 Y-29.034 Z-1.125 I0.143 J0.247 K0.000 F150.000
G2 X-44.355 Y-29.025 Z-1.125 I0.157 J-1.199 K0.000 F150.000
G3 X-44.139 Y-28.999 Z-1.125 I0.071 J0.322 K0.000 F150.000
G2 X-44.245 Y-28.901 Z-1.125 I15.403 J16.737 K0.000 F150.000
G1 X-44.295 Y-28.956 Z-1.125 F60.000
G2 X-44.420 Y-28.840 Z-1.125 I7.805 J8.486 K0.000 F150.000
G3 X-44.564 Y-28.959 Z-1.125 I0.755 J-1.066 K0.000 F150.000
G1 X-44.556 Y-28.959 Z-1.125 F150.000
G2 X-44.347 Y-28.950 Z-1.125 I0.158 J-1.247 K0.000 F150.000
G1 X-44.295 Y-28.956 Z-1.125 F150.000
G1 X-44.295 Y-28.956 Z-1.250 F60.000
G2 X-44.420 Y-28.840 Z-1.250 I7.805 J8.486 K0.000 F150.000
G3 X-44.564 Y-28.959 Z-1.250 I0.755 J-1.066 K0.000 F150.000
G1 X-44.556 Y-28.959 Z-1.250 F150.000
G2 X-44.347 Y-28.950 Z-1.250 I0.158 J-1.247 K0.000 F150.000
G1 X-44.295 Y-28.956 Z-1.250 F150.000
G1 X-44.245 Y-28.901 Z-1.250 F60.000
G2 X-44.384 Y-28.770 Z-1.250 I15.509 J16.640 K0.000 F150.000
G3 X-44.450 Y-28.769 Z-1.250 I-0.034 J-0.046 K0.000 F150.000
G3 X-44.708 Y-28.996 Z-1.250 I0.938 J-1.324 K0.000 F150.000
G3 X-44.556 Y-29.034 Z-1.250 I0.143 J0.247 K0.000 F150.000
G2 X-44.355 Y-29.025 Z-1.250 I0.157 J-1.199 K0.000 F150.000
G3 X-44.139 Y-28.999 Z-1.250 I0.071 J0.322 K0.000 F150.000
G2 X-44.245 Y-28.901 Z-1.250 I15.403 J16.737 K0.000 F150.000
G1 X-44.245 Y-28.901 Z-1.375 F60.000
G2 X-44.384 Y-28.770 Z-1.375 I15.509 J16.640 K0.000 F150.000
G3 X-44.450 Y-28.769 Z-1.375 I-0.034 J-0.046 K0.000 F150.000
G3 X-44.708 Y-28.996 Z-1.375 I0.938 J-1.324 K0.000 F150.000
G3 X-44.556 Y-29.034 Z-1.375 I0.143 J0.247 K0.000 F150.000
G2 X-44.355 Y-29.025 Z-1.375 I0.157 J-1.199 K0.000 F150.000
G3 X-44.139 Y-28.999 Z-1.375 I0.071 J0.322 K0.000 F150.000
G2 X-44.245 Y-28.901 Z-1.375 I15.403 J16.737 K0.000 F150.000
G1 X-44.295 Y-28.956 Z-1.375 F60.000
G2 X-44.420 Y-28.840 Z-1.375 I7.805 J8.486 K0.000 F150.000
G3 X-44.564 Y-28.959 Z-1.375 I0.755 J-1.066 K0.000 F150.000
G1 X-44.556 Y-28.959 Z-1.375 F150.000
G2 X-44.347 Y-28.950 Z-1.375 I0.158 J-1.247 K0.000 F150.000
G1 X-44.295 Y-28.956 Z-1.375 F150.000
G1 X-44.295 Y-28.956 Z-1.500 F60.000
G2 X-44.420 Y-28.840 Z-1.500 I7.805 J8.486 K0.000 F150.000
G3 X-44.564 Y-28.959 Z-1.500 I0.755 J-1.066 K0.000 F150.000
G1 X-44.556 Y-28.959 Z-1.500 F150.000
G2 X-44.347 Y-28.950 Z-1.500 I0.158 J-1.247 K0.000 F150.000
G1 X-44.295 Y-28.956 Z-1.500 F150.000
G1 X-44.245 Y-28.901 Z-1.500 F60.000
G2 X-44.384 Y-28.770 Z-1.500 I15.509 J16.640 K0.000 F150.000
G3 X-44.450 Y-28.769 Z-1.500 I-0.034 J-0.046 K0.000 F150.000
G3 X-44.708 Y-28.996 Z-1.500 I0.938 J-1.324 K0.000 F150.000
G3 X-44.556 Y-29.034 Z-1.500 I0.143 J0.247 K0.000 F150.000
G2 X-44.355 Y-29.025 Z-1.500 I0.157 J-1.199 K0.000 F150.000
G3 X-44.139 Y-28.999 Z-1.500 I0.071 J0.322 K0.000 F150.000
G2 X-44.245 Y-28.901 Z-1.500 I15.403 J16.737 K0.000 F150.000
G1 X-44.245 Y-28.901 Z-1.625 F60.000
G2 X-44.384 Y-28.770 Z-1.625 I15.509 J16.640 K0.000 F150.000
G3 X-44.450 Y-28.769 Z-1.625 I-0.034 J-0.046 K0.000 F150.000
G3 X-44.708 Y-28.996 Z-1.625 I0.938 J-1.324 K0.000 F150.000
G3 X-44.556 Y-29.034 Z-1.625 I0.143 J0.247 K0.000 F150.000
G2 X-44.355 Y-29.025 Z-1.625 I0.157 J-1.199 K0.000 F150.000
G3 X-44.139 Y-28.999 Z-1.625 I0.071 J0.322 K0.000 F150.000
G2 X-44.245 Y-28.901 Z-1.625 I15.403 J16.737 K0.000 F150.000
G1 X-44.295 Y-28.956 Z-1.625 F60.000
G2 X-44.420 Y-28.840 Z-1.625 I7.805 J8.486 K0.000 F150.000
G3 X-44.564 Y-28.959 Z-1.625 I0.755 J-1.066 K0.000 F150.000
G1 X-44.556 Y-28.959 Z-1.625 F150.000
G2 X-44.347 Y-28.950 Z-1.625 I0.158 J-1.247 K0.000 F150.000
G1 X-44.295 Y-28.956 Z-1.625 F150.000
G1 X-44.295 Y-28.956 Z-1.750 F60.000
G2 X-44.420 Y-28.840 Z-1.750 I7.805 J8.486 K0.000 F150.000
G3 X-44.564 Y-28.959 Z-1.750 I0.755 J-1.066 K0.000 F150.000
G1 X-44.556 Y-28.959 Z-1.750 F150.000
G2 X-44.347 Y-28.950 Z-1.750 I0.158 J-1.247 K0.000 F150.000
G1 X-44.295 Y-28.956 Z-1.750 F150.000
G1 X-44.245 Y-28.901 Z-1.750 F60.000
G2 X-44.384 Y-28.770 Z-1.750 I15.509 J16.640 K0.000 F150.000
G3 X-44.450 Y-28.769 Z-1.750 I-0.034 J-0.046 K0.000 F150.000
G3 X-44.708 Y-28.996 Z-1.750 I0.938 J-1.324 K0.000 F150.000
G3 X-44.556 Y-29.034 Z-1.750 I0.143 J0.247 K0.000 F150.000
G2 X-44.355 Y-29.025 Z-1.750 I0.157 J-1.199 K0.000 F150.000
G3 X-44.139 Y-28.999 Z-1.750 I0.071 J0.322 K0.000 F150.000
G2 X-44.245 Y-28.901 Z-1.750 I15.403 J16.737 K0.000 F150.000
G1 X-44.245 Y-28.901 Z-1.875 F60.000
G2 X-44.384 Y-28.770 Z-1.875 I15.512 J16.644 K0.000 F150.000
G3 X-44.450 Y-28.769 Z-1.875 I-0.034 J-0.046 K0.000 F150.000
G3 X-44.707 Y-28.995 Z-1.875 I0.936 J-1.322 K0.000 F150.000
G3 X-44.555 Y-29.034 Z-1.875 I0.145 J0.250 K0.000 F150.000
G2 X-44.354 Y-29.025 Z-1.875 I0.157 J-1.217 K0.000 F150.000
G3 X-44.139 Y-28.999 Z-1.875 I0.070 J0.322 K0.000 F150.000
G2 X-44.245 Y-28.901 Z-1.875 I15.407 J16.741 K0.000 F150.000
G1 X-44.295 Y-28.956 Z-1.875 F60.000
G2 X-44.420 Y-28.840 Z-1.875 I7.816 J8.498 K0.000 F150.000
G3 X-44.564 Y-28.958 Z-1.875 I0.755 J-1.065 K0.000 F150.000
G1 X-44.555 Y-28.959 Z-1.875 F150.000
G2 X-44.346 Y-28.950 Z-1.875 I0.157 J-1.264 K0.000 F150.000
G1 X-44.295 Y-28.956 Z-1.875 F150.000
G1 X-44.295 Y-28.956 Z-2.000 F60.000
G2 X-44.420 Y-28.840 Z-2.000 I7.816 J8.498 K0.000 F150.000
G3 X-44.564 Y-28.958 Z-2.000 I0.755 J-1.065 K0.000 F150.000
G1 X-44.555 Y-28.959 Z-2.000 F150.000
G2 X-44.346 Y-28.950 Z-2.000 I0.157 J-1.264 K0.000 F150.000
G1 X-44.295 Y-28.956 Z-2.000 F150.000
G1 X-44.245 Y-28.901 Z-2.000 F60.000
G2 X-44.384 Y-28.770 Z-2.000 I15.512 J16.644 K0.000 F150.000
G3 X-44.450 Y-28.769 Z-2.000 I-0.034 J-0.046 K0.000 F150.000
G3 X-44.707 Y-28.995 Z-2.000 I0.936 J-1.322 K0.000 F150.000
G3 X-44.555 Y-29.034 Z-2.000 I0.145 J0.250 K0.000 F150.000
G2 X-44.354 Y-29.025 Z-2.000 I0.157 J-1.217 K0.000 F150.000
G3 X-44.139 Y-28.999 Z-2.000 I0.070 J0.322 K0.000 F150.000
G2 X-44.245 Y-28.901 Z-2.000 I15.407 J16.741 K0.000 F150.000
G0 Z5.000
G0 X-43.132 Y-32.847 Z5.000
G0 X-43.132 Y-32.847 Z3.000
G1 X-43.132 Y-32.847 Z-0.125 F60.000
G3 X-43.149 Y-32.855 Z-0.125 I0.016 J-0.055 K0.000 F150.000
G3 X-43.404 Y-33.079 Z-0.125 I0.932 J-1.320 K0.000 F150.000
G3 X-43.150 Y-33.108 Z-0.125 I0.166 J0.326 K0.000 F150.000
G2 X-43.032 Y-33.121 Z-0.125 I0.018 J-0.363 K0.000 F150.000
G3 X-42.836 Y-33.086 Z-0.125 I0.039 J0.349 K0.000 F150.000
G2 X-43.083 Y-32.856 Z-0.125 I14.989 J16.303 K0.000 F150.000
G3 X-43.132 Y-32.847 Z-0.125 I-0.034 J-0.046 K0.000 F150.000
G1 X-43.118 Y-32.926 Z-0.125 F60.000
G3 X-43.260 Y-33.042 Z-0.125 I0.746 J-1.054 K0.000 F150.000
G3 X-43.161 Y-33.034 Z-0.125 I0.021 J0.330 K0.000 F150.000
G2 X-43.024 Y-33.047 Z-0.125 I0.029 J-0.419 K0.000 F150.000
G1 X-42.988 Y-33.047 Z-0.125 F150.000
G2 X-43.118 Y-32.926 Z-0.125 I7.916 J8.616 K0.000 F150.000
G1 X-43.118 Y-32.926 Z-0.250 F60.000
G3 X-43.260 Y-33.042 Z-0.250 I0.746 J-1.054 K0.000 F150.000
G3 X-43.161 Y-33.034 Z-0.250 I0.021 J0.330 K0.000 F150.000
G2 X-43.024 Y-33.047 Z-0.250 I0.029 J-0.419 K0.000 F150.000
G1 X-42.988 Y-33.047 Z-0.250 F150.000
G2 X-43.118 Y-32.926 Z-0.250 I7.916 J8.616 K0.000 F150.000
G1 X-43.066 Y-32.871 Z-0.250 F60.000
G2 X-43.083 Y-32.856 Z-0.250 I15.220 J16.088 K0.000 F150.000
G3 X-43.149 Y-32.855 Z-0.250 I-0.034 J-0.046 K0.000 F150.000
G3 X-43.404 Y-33.079 Z-0.250 I0.932 J-1.320 K0.000 F150.000
G3 X-43.150 Y-33.108 Z-0.250 I0.166 J0.326 K0.000 F150.000
G2 X-43.032 Y-33.121 Z-0.250 I0.018 J-0.363 K0.000 F150.000
G3 X-42.836 Y-33.086 Z-0.250 I0.039 J0.349 K0.000 F150.000
G2 X-43.066 Y-32.871 Z-0.250 I14.989 J16.303 K0.000 F150.000
G1 X-43.066 Y-32.871 Z-0.375 F60.000
G2 X-43.083 Y-32.856 Z-0.375 I15.220 J16.088 K0.000 F150.000
G3 X-43.149 Y-32.855 Z-0.375 I-0.034 J-0.046 K0.000 F150.000
G3 X-43.404 Y-33.079 Z-0.375 I0.932 J-1.320 K0.000 F150.000
G3 X-43.150 Y-33.108 Z-0.375 I0.166 J0.326 K0.000 F150.000
G2 X-43.032 Y-33.121 Z-0.375 I0.018 J-0.363 K0.000 F150.000
G3 X-42.836 Y-33.086 Z-0.375 I0.039 J0.349 K0.000 F150.000
G2 X-43.066 Y-32.871 Z-0.375 I14.989 J16.303 K0.000 F150.000
G1 X-43.118 Y-32.926 Z-0.375 F60.000
G3 X-43.260 Y-33.042 Z-0.375 I0.746 J-1.054 K0.000 F150.000
G3 X-43.161 Y-33.034 Z-0.375 I0.021 J0.330 K0.000 F150.000
G2 X-43.024 Y-33.047 Z-0.375 I0.029 J-0.419 K0.000 F150.000
G1 X-42.988 Y-33.047 Z-0.375 F150.000
G2 X-43.118 Y-32.926 Z-0.375 I7.916 J8.616 K0.000 F150.000
G1 X-43.118 Y-32.926 Z-0.500 F60.000
G3 X-43.260 Y-33.042 Z-0.500 I0.746 J-1.054 K0.000 F150.000
G3 X-43.161 Y-33.034 Z-0.500 I0.021 J0.330 K0.000 F150.000
G2 X-43.024 Y-33.047 Z-0.500 I0.029 J-0.419 K0.000 F150.000
G1 X-42.988 Y-33.047 Z-0.500 F150.000
G2 X-43.118 Y-32.926 Z-0.500 I7.916 J8.616 K0.000 F150.000
G1 X-43.066 Y-32.871 Z-0.500 F60.000
G2 X-43.083 Y-32.856 Z-0.500 I15.220 J16.088 K0.000 F150.000
G3 X-43.149 Y-32.855 Z-0.500 I-0.034 J-0.046 K0.000 F150.000
G3 X-43.404 Y-33.079 Z-0.500 I0.932 J-1.320 K0.000 F150.000
G3 X-43.150 Y-33.108 Z-0.500 I0.166 J0.326 K0.000 F150.000
G2 X-43.032 Y-33.121 Z-0.500 I0.018 J-0.363 K0.000 F150.000
G3 X-42.836 Y-33.086 Z-0.500 I0.039 J0.349 K0.000 F150.000
G2 X-43.066 Y-32.871 Z-0.500 I14.989 J16.303 K0.000 F150.000
G1 X-43.066 Y-32.871 Z-0.625 F60.000
G2 X-43.083 Y-32.856 Z-0.625 I15.220 J16.088 K0.000 F150.000
G3 X-43.149 Y-32.855 Z-0.625 I-0.034 J-0.046 K0.000 F150.000
G3 X-43.404 Y-33.079 Z-0.625 I0.932 J-1.320 K0.000 F150.000
G3 X-43.150 Y-33.108 Z-0.625 I0.166 J0.326 K0.000 F150.000
G2 X-43.032 Y-33.121 Z-0.625 I0.018 J-0.363 K0.000 F150.000
G3 X-42.836 Y-33.086 Z-0.625 I0.039 J0.349 K0.000 F150.000
G2 X-43.066 Y-32.871 Z-0.625 I14.989 J16.303 K0.000 F150.000
G1 X-43.118 Y-32.926 Z-0.625 F60.000
G3 X-43.260 Y-33.042 Z-0.625 I0.746 J-1.054 K0.000 F150.000
G3 X-43.161 Y-33.034 Z-0.625 I0.021 J0.330 K0.000 F150.000
G2 X-43.024 Y-33.047 Z-0.625 I0.029 J-0.419 K0.000 F150.000
G1 X-42.988 Y-33.047 Z-0.625 F150.000
G2 X-43.118 Y-32.926 Z-0.625 I7.916 J8.616 K0.000 F150.000
G1 X-43.118 Y-32.926 Z-0.750 F60.000
G3 X-43.260 Y-33.042 Z-0.750 I0.746 J-1.054 K0.000 F150.000
G3 X-43.161 Y-33.034 Z-0.750 I0.021 J0.330 K0.000 F150.000
G2 X-43.024 Y-33.047 Z-0.750 I0.029 J-0.419 K0.000 F150.000
G1 X-42.988 Y-33.047 Z-0.750 F150.000
G2 X-43.118 Y-32.926 Z-0.750 I7.916 J8.616 K0.000 F150.000
G1 X-43.066 Y-32.871 Z-0.750 F60.000
G2 X-43.083 Y-32.856 Z-0.750 I15.220 J16.088 K0.000 F150.000
G3 X-43.149 Y-32.855 Z-0.750 I-0.034 J-0.046 K0.000 F150.000
G3 X-43.404 Y-33.079 Z-0.750 I0.932 J-1.320 K0.000 F150.000
G3 X-43.150 Y-33.108 Z-0.750 I0.166 J0.326 K0.000 F150.000
G2 X-43.032 Y-33.121 Z-0.750 I0.018 J-0.363 K0.000 F150.000
G3 X-42.836 Y-33.086 Z-0.750 I0.039 J0.349 K0.000 F150.000
G2 X-43.066 Y-32.871 Z-0.750 I14.989 J16.303 K0.000 F150.000
G1 X-43.066 Y-32.871 Z-0.875 F60.000
G2 X-43.083 Y-32.856 Z-0.875 I15.220 J16.088 K0.000 F150.000
G3 X-43.149 Y-32.855 Z-0.875 I-0.034 J-0.046 K0.000 F150.000
G3 X-43.404 Y-33.079 Z-0.875 I0.932 J-1.320 K0.000 F150.000
G3 X-43.150 Y-33.108 Z-0.875 I0.166 J0.326 K0.000 F150.000
G2 X-43.032 Y-33.121 Z-0.875 I0.018 J-0.363 K0.000 F150.000
G3 X-42.836 Y-33.086 Z-0.875 I0.039 J0.349 K0.000 F150.000
G2 X-43.066 Y-32.871 Z-0.875 I14.989 J16.303 K0.000 F150.000
G1 X-43.118 Y-32.926 Z-0.875 F60.000
G3 X-43.260 Y-33.042 Z-0.875 I0.746 J-1.054 K0.000 F150.000
G3 X-43.161 Y-33.034 Z-0.875 I0.021 J0.330 K0.000 F150.000
G2 X-43.024 Y-33.047 Z-0.875 I0.029 J-0.419 K0.000 F150.000
G1 X-42.988 Y-33.047 Z-0.875 F150.000
G2 X-43.118 Y-32.926 Z-0.875 I7.916 J8.616 K0.000 F150.000
G1 X-43.118 Y-32.926 Z-1.000 F60.000
G3 X-43.260 Y-33.042 Z-1.000 I0.746 J-1.054 K0.000 F150.000
G3 X-43.161 Y-33.034 Z-1.000 I0.021 J0.330 K0.000 F150.000
G2 X-43.024 Y-33.047 Z-1.000 I0.029 J-0.419 K0.000 F150.000
G1 X-42.988 Y-33.047 Z-1.000 F150.000
G2 X-43.118 Y-32.926 Z-1.000 I7.916 J8.616 K0.000 F150.000
G1 X-43.066 Y-32.871 Z-1.000 F60.000
G2 X-43.083 Y-32.856 Z-1.000 I15.220 J16.088 K0.000 F150.000
G3 X-43.149 Y-32.855 Z-1.000 I-0.034 J-0.046 K0.000 F150.000
G3 X-43.404 Y-33.079 Z-1.000 I0.932 J-1.320 K0.000 F150.000
G3 X-43.150 Y-33.108 Z-1.000 I0.166 J0.326 K0.000 F150.000
G2 X-43.032 Y-33.121 Z-1.000 I0.018 J-0.363 K0.000 F150.000
G3 X-42.836 Y-33.086 Z-1.000 I0.039 J0.349 K0.000 F150.000
G2 X-43.066 Y-32.871 Z-1.000 I14.989 J16.303 K0.000 F150.000
G1 X-43.066 Y-32.871 Z-1.125 F60.000
G2 X-43.083 Y-32.856 Z-1.125 I15.220 J16.088 K0.000 F150.000
G3 X-43.149 Y-32.855 Z-1.125 I-0.034 J-0.046 K0.000 F150.000
G3 X-43.404 Y-33.079 Z-1.125 I0.932 J-1.320 K0.000 F150.000
G3 X-43.150 Y-33.108 Z-1.125 I0.166 J0.326 K0.000 F150.000
G2 X-43.032 Y-33.121 Z-1.125 I0.018 J-0.363 K0.000 F150.000
G3 X-42.836 Y-33.086 Z-1.125 I0.039 J0.349 K0.000 F150.000
G2 X-43.066 Y-32.871 Z-1.125 I14.989 J16.303 K0.000 F150.000
G1 X-43.118 Y-32.926 Z-1.125 F60.000
G3 X-43.260 Y-33.042 Z-1.125 I0.746 J-1.054 K0.000 F150.000
G3 X-43.161 Y-33.034 Z-1.125 I0.021 J0.330 K0.000 F150.000
G2 X-43.024 Y-33.047 Z-1.125 I0.029 J-0.419 K0.000 F150.000
G1 X-42.988 Y-33.047 Z-1.125 F150.000
G2 X-43.118 Y-32.926 Z-1.125 I7.916 J8.616 K0.000 F150.000
G1 X-43.118 Y-32.926 Z-1.250 F60.000
G3 X-43.260 Y-33.042 Z-1.250 I0.746 J-1.054 K0.000 F150.000
G3 X-43.161 Y-33.034 Z-1.250 I0.021 J0.330 K0.000 F150.000
G2 X-43.024 Y-33.047 Z-1.250 I0.029 J-0.419 K0.000 F150.000
G1 X-42.988 Y-33.047 Z-1.250 F150.000
G2 X-43.118 Y-32.926 Z-1.250 I7.916 J8.616 K0.000 F150.000
G1 X-43.066 Y-32.871 Z-1.250 F60.000
G2 X-43.083 Y-32.856 Z-1.250 I15.220 J16.088 K0.000 F150.000
G3 X-43.149 Y-32.855 Z-1.250 I-0.034 J-0.046 K0.000 F150.000
G3 X-43.404 Y-33.079 Z-1.250 I0.932 J-1.320 K0.000 F150.000
G3 X-43.150 Y-33.108 Z-1.250 I0.166 J0.326 K0.000 F150.000
G2 X-43.032 Y-33.121 Z-1.250 I0.018 J-0.363 K0.000 F150.000
G3 X-42.836 Y-33.086 Z-1.250 I0.039 J0.349 K0.000 F150.000
G2 X-43.066 Y-32.871 Z-1.250 I14.989 J16.303 K0.000 F150.000
G1 X-43.066 Y-32.871 Z-1.375 F60.000
G2 X-43.083 Y-32.856 Z-1.375 I15.220 J16.088 K0.000 F150.000
G3 X-43.149 Y-32.855 Z-1.375 I-0.034 J-0.046 K0.000 F150.000
G3 X-43.404 Y-33.079 Z-1.375 I0.932 J-1.320 K0.000 F150.000
G3 X-43.150 Y-33.108 Z-1.375 I0.166 J0.326 K0.000 F150.000
G2 X-43.032 Y-33.121 Z-1.375 I0.018 J-0.363 K0.000 F150.000
G3 X-42.836 Y-33.086 Z-1.375 I0.039 J0.349 K0.000 F150.000
G2 X-43.066 Y-32.871 Z-1.375 I14.989 J16.303 K0.000 F150.000
G1 X-43.118 Y-32.926 Z-1.375 F60.000
G3 X-43.260 Y-33.042 Z-1.375 I0.746 J-1.054 K0.000 F150.000
G3 X-43.161 Y-33.034 Z-1.375 I0.021 J0.330 K0.000 F150.000
G2 X-43.024 Y-33.047 Z-1.375 I0.029 J-0.419 K0.000 F150.000
G1 X-42.988 Y-33.047 Z-1.375 F150.000
G2 X-43.118 Y-32.926 Z-1.375 I7.916 J8.616 K0.000 F150.000
G1 X-43.118 Y-32.926 Z-1.500 F60.000
G3 X-43.260 Y-33.042 Z-1.500 I0.746 J-1.054 K0.000 F150.000
G3 X-43.161 Y-33.034 Z-1.500 I0.021 J0.330 K0.000 F150.000
G2 X-43.024 Y-33.047 Z-1.500 I0.029 J-0.419 K0.000 F150.000
G1 X-42.988 Y-33.047 Z-1.500 F150.000
G2 X-43.118 Y-32.926 Z-1.500 I7.916 J8.616 K0.000 F150.000
G1 X-43.066 Y-32.871 Z-1.500 F60.000
G2 X-43.083 Y-32.856 Z-1.500 I15.220 J16.088 K0.000 F150.000
G3 X-43.149 Y-32.855 Z-1.500 I-0.034 J-0.046 K0.000 F150.000
G3 X-43.404 Y-33.079 Z-1.500 I0.932 J-1.320 K0.000 F150.000
G3 X-43.150 Y-33.108 Z-1.500 I0.166 J0.326 K0.000 F150.000
G2 X-43.032 Y-33.121 Z-1.500 I0.018 J-0.363 K0.000 F150.000
G3 X-42.836 Y-33.086 Z-1.500 I0.039 J0.349 K0.000 F150.000
G2 X-43.066 Y-32.871 Z-1.500 I14.989 J16.303 K0.000 F150.000
G1 X-43.066 Y-32.871 Z-1.625 F60.000
G2 X-43.083 Y-32.856 Z-1.625 I15.220 J16.088 K0.000 F150.000
G3 X-43.149 Y-32.855 Z-1.625 I-0.034 J-0.046 K0.000 F150.000
G3 X-43.404 Y-33.079 Z-1.625 I0.932 J-1.320 K0.000 F150.000
G3 X-43.150 Y-33.108 Z-1.625 I0.166 J0.326 K0.000 F150.000
G2 X-43.032 Y-33.121 Z-1.625 I0.018 J-0.363 K0.000 F150.000
G3 X-42.836 Y-33.086 Z-1.625 I0.039 J0.349 K0.000 F150.000
G2 X-43.066 Y-32.871 Z-1.625 I14.989 J16.303 K0.000 F150.000
G1 X-43.118 Y-32.926 Z-1.625 F60.000
G3 X-43.260 Y-33.042 Z-1.625 I0.746 J-1.054 K0.000 F150.000
G3 X-43.161 Y-33.034 Z-1.625 I0.021 J0.330 K0.000 F150.000
G2 X-43.024 Y-33.047 Z-1.625 I0.029 J-0.419 K0.000 F150.000
G1 X-42.988 Y-33.047 Z-1.625 F150.000
G2 X-43.118 Y-32.926 Z-1.625 I7.916 J8.616 K0.000 F150.000
G1 X-43.118 Y-32.926 Z-1.750 F60.000
G3 X-43.260 Y-33.042 Z-1.750 I0.746 J-1.054 K0.000 F150.000
G3 X-43.161 Y-33.034 Z-1.750 I0.021 J0.330 K0.000 F150.000
G2 X-43.024 Y-33.047 Z-1.750 I0.029 J-0.419 K0.000 F150.000
G1 X-42.988 Y-33.047 Z-1.750 F150.000
G2 X-43.118 Y-32.926 Z-1.750 I7.916 J8.616 K0.000 F150.000
G1 X-43.066 Y-32.871 Z-1.750 F60.000
G2 X-43.083 Y-32.856 Z-1.750 I15.220 J16.088 K0.000 F150.000
G3 X-43.149 Y-32.855 Z-1.750 I-0.034 J-0.046 K0.000 F150.000
G3 X-43.404 Y-33.079 Z-1.750 I0.932 J-1.320 K0.000 F150.000
G3 X-43.150 Y-33.108 Z-1.750 I0.166 J0.326 K0.000 F150.000
G2 X-43.032 Y-33.121 Z-1.750 I0.018 J-0.363 K0.000 F150.000
G3 X-42.836 Y-33.086 Z-1.750 I0.039 J0.349 K0.000 F150.000
G2 X-43.066 Y-32.871 Z-1.750 I14.989 J16.303 K0.000 F150.000
G1 X-43.066 Y-32.871 Z-1.875 F60.000
G2 X-43.083 Y-32.856 Z-1.875 I15.220 J16.088 K0.000 F150.000
G3 X-43.149 Y-32.855 Z-1.875 I-0.034 J-0.046 K0.000 F150.000
G3 X-43.404 Y-33.079 Z-1.875 I0.932 J-1.320 K0.000 F150.000
G3 X-43.150 Y-33.108 Z-1.875 I0.166 J0.326 K0.000 F150.000
G2 X-43.032 Y-33.121 Z-1.875 I0.018 J-0.363 K0.000 F150.000
G3 X-42.836 Y-33.086 Z-1.875 I0.039 J0.349 K0.000 F150.000
G2 X-43.066 Y-32.871 Z-1.875 I14.989 J16.303 K0.000 F150.000
G1 X-43.118 Y-32.926 Z-1.875 F60.000
G3 X-43.260 Y-33.042 Z-1.875 I0.746 J-1.054 K0.000 F150.000
G3 X-43.161 Y-33.034 Z-1.875 I0.021 J0.330 K0.000 F150.000
G2 X-43.024 Y-33.047 Z-1.875 I0.029 J-0.419 K0.000 F150.000
G1 X-42.988 Y-33.047 Z-1.875 F150.000
G2 X-43.118 Y-32.926 Z-1.875 I7.916 J8.616 K0.000 F150.000
G1 X-43.118 Y-32.926 Z-2.000 F60.000
G3 X-43.260 Y-33.042 Z-2.000 I0.746 J-1.054 K0.000 F150.000
G3 X-43.161 Y-33.034 Z-2.000 I0.021 J0.330 K0.000 F150.000
G2 X-43.024 Y-33.047 Z-2.000 I0.029 J-0.419 K0.000 F150.000
G1 X-42.988 Y-33.047 Z-2.000 F150.000
G2 X-43.118 Y-32.926 Z-2.000 I7.916 J8.616 K0.000 F150.000
G1 X-43.066 Y-32.871 Z-2.000 F60.000
G2 X-43.083 Y-32.856 Z-2.000 I15.220 J16.088 K0.000 F150.000
G3 X-43.149 Y-32.855 Z-2.000 I-0.034 J-0.046 K0.000 F150.000
G3 X-43.404 Y-33.079 Z-2.000 I0.932 J-1.320 K0.000 F150.000
G3 X-43.150 Y-33.108 Z-2.000 I0.166 J0.326 K0.000 F150.000
G2 X-43.032 Y-33.121 Z-2.000 I0.018 J-0.363 K0.000 F150.000
G3 X-42.836 Y-33.086 Z-2.000 I0.039 J0.349 K0.000 F150.000
G2 X-43.066 Y-32.871 Z-2.000 I14.989 J16.303 K0.000 F150.000
G0 Z5.000
G0 X-39.654 Y-33.623 Z5.000
G0 X-39.654 Y-33.623 Z3.000
G1 X-39.654 Y-33.623 Z-0.125 F60.000
G3 X-39.644 Y-33.823 Z-0.125 I0.377 J-0.083 K0.000 F150.000
G2 X-39.645 Y-33.935 Z-0.125 I-0.408 J-0.053 K0.000 F150.000
G3 X-39.611 Y-34.078 Z-0.125 I0.310 J-0.002 K0.000 F150.000
G1 X-39.462 Y-33.929 Z-0.125 F150.000
G2 X-39.385 Y-33.827 Z-0.125 I0.168 J-0.047 K0.000 F150.000
G3 X-39.384 Y-33.761 Z-0.125 I-0.046 J0.034 K0.000 F150.000
G3 X-39.608 Y-33.507 Z-0.125 I-1.315 J-0.930 K0.000 F150.000
G3 X-39.654 Y-33.623 Z-0.125 I0.331 J-0.198 K0.000 F150.000
G1 X-39.580 Y-33.641 Z-0.125 F60.000
G3 X-39.571 Y-33.807 Z-0.125 I0.307 J-0.067 K0.000 F150.000
G2 X-39.570 Y-33.931 Z-0.125 I-0.450 J-0.066 K0.000 F150.000
G3 X-39.496 Y-33.830 Z-0.125 I-0.127 J0.170 K0.000 F150.000
G2 X-39.458 Y-33.789 Z-0.125 I0.190 J-0.139 K0.000 F150.000
G3 X-39.580 Y-33.641 Z-0.125 I-1.099 J-0.783 K0.000 F150.000
G1 X-39.580 Y-33.641 Z-0.250 F60.000
G3 X-39.571 Y-33.807 Z-0.250 I0.307 J-0.067 K0.000 F150.000
G2 X-39.570 Y-33.931 Z-0.250 I-0.450 J-0.066 K0.000 F150.000
G3 X-39.496 Y-33.830 Z-0.250 I-0.127 J0.170 K0.000 F150.000
G2 X-39.458 Y-33.789 Z-0.250 I0.190 J-0.139 K0.000 F150.000
G3 X-39.580 Y-33.641 Z-0.250 I-1.099 J-0.783 K0.000 F150.000
G1 X-39.525 Y-33.589 Z-0.250 F60.000
G3 X-39.608 Y-33.507 Z-0.250 I-1.174 J-1.102 K0.000 F150.000
G3 X-39.644 Y-33.823 Z-0.250 I0.331 J-0.198 K0.000 F150.000
G2 X-39.645 Y-33.935 Z-0.250 I-0.408 J-0.053 K0.000 F150.000
G3 X-39.611 Y-34.078 Z-0.250 I0.310 J-0.002 K0.000 F150.000
G1 X-39.462 Y-33.929 Z-0.250 F150.000
G2 X-39.385 Y-33.827 Z-0.250 I0.168 J-0.047 K0.000 F150.000
G3 X-39.384 Y-33.761 Z-0.250 I-0.046 J0.034 K0.000 F150.000
G3 X-39.525 Y-33.589 Z-0.250 I-1.315 J-0.930 K0.000 F150.000
G1 X-39.525 Y-33.589 Z-0.375 F60.000
G3 X-39.608 Y-33.507 Z-0.375 I-1.174 J-1.102 K0.000 F150.000
G3 X-39.644 Y-33.823 Z-0.375 I0.331 J-0.198 K0.000 F150.000
G2 X-39.645 Y-33.935 Z-0.375 I-0.408 J-0.053 K0.000 F150.000
G3 X-39.611 Y-34.078 Z-0.375 I0.310 J-0.002 K0.000 F150.000
G1 X-39.462 Y-33.929 Z-0.375 F150.000
G2 X-39.385 Y-33.827 Z-0.375 I0.168 J-0.047 K0.000 F150.000
G3 X-39.384 Y-33.761 Z-0.375 I-0.046 J0.034 K0.000 F150.000
G3 X-39.525 Y-33.589 Z-0.375 I-1.315 J-0.930 K0.000 F150.000
G1 X-39.580 Y-33.641 Z-0.375 F60.000
G3 X-39.571 Y-33.807 Z-0.375 I0.307 J-0.067 K0.000 F150.000
G2 X-39.570 Y-33.931 Z-0.375 I-0.450 J-0.066 K0.000 F150.000
G3 X-39.496 Y-33.830 Z-0.375 I-0.127 J0.170 K0.000 F150.000
G2 X-39.458 Y-33.789 Z-0.375 I0.190 J-0.139 K0.000 F150.000
G3 X-39.580 Y-33.641 Z-0.375 I-1.099 J-0.783 K0.000 F150.000
G1 X-39.580 Y-33.641 Z-0.500 F60.000
G3 X-39.571 Y-33.807 Z-0.500 I0.307 J-0.067 K0.000 F150.000
G2 X-39.570 Y-33.931 Z-0.500 I-0.450 J-0.066 K0.000 F150.000
G3 X-39.496 Y-33.830 Z-0.500 I-0.127 J0.170 K0.000 F150.000
G2 X-39.458 Y-33.789 Z-0.500 I0.190 J-0.139 K0.000 F150.000
G3 X-39.580 Y-33.641 Z-0.500 I-1.099 J-0.783 K0.000 F150.000
G1 X-39.525 Y-33.589 Z-0.500 F60.000
G3 X-39.608 Y-33.507 Z-0.500 I-1.174 J-1.102 K0.000 F150.000
G3 X-39.644 Y-33.823 Z-0.500 I0.331 J-0.198 K0.000 F150.000
G2 X-39.645 Y-33.935 Z-0.500 I-0.408 J-0.053 K0.000 F150.000
G3 X-39.611 Y-34.078 Z-0.500 I0.310 J-0.002 K0.000 F150.000
G1 X-39.462 Y-33.929 Z-0.500 F150.000
G2 X-39.385 Y-33.827 Z-0.500 I0.168 J-0.047 K0.000 F150.000
G3 X-39.384 Y-33.761 Z-0.500 I-0.046 J0.034 K0.000 F150.000
G3 X-39.525 Y-33.589 Z-0.500 I-1.315 J-0.930 K0.000 F150.000
G1 X-39.525 Y-33.589 Z-0.625 F60.000
G3 X-39.608 Y-33.507 Z-0.625 I-1.174 J-1.102 K0.000 F150.000
G3 X-39.644 Y-33.823 Z-0.625 I0.331 J-0.198 K0.000 F150.000
G2 X-39.645 Y-33.935 Z-0.625 I-0.408 J-0.053 K0.000 F150.000
G3 X-39.611 Y-34.078 Z-0.625 I0.310 J-0.002 K0.000 F150.000
G1 X-39.462 Y-33.929 Z-0.625 F150.000
G2 X-39.385 Y-33.827 Z-0.625 I0.168 J-0.047 K0.000 F150.000
G3 X-39.384 Y-33.761 Z-0.625 I-0.046 J0.034 K0.000 F150.000
G3 X-39.525 Y-33.589 Z-0.625 I-1.315 J-0.930 K0.000 F150.000
G1 X-39.580 Y-33.641 Z-0.625 F60.000
G3 X-39.571 Y-33.807 Z-0.625 I0.307 J-0.067 K0.000 F150.000
G2 X-39.570 Y-33.931 Z-0.625 I-0.450 J-0.066 K0.000 F150.000
G3 X-39.496 Y-33.830 Z-0.625 I-0.127 J0.170 K0.000 F150.000
G2 X-39.458 Y-33.789 Z-0.625 I0.190 J-0.139 K0.000 F150.000
G3 X-39.580 Y-33.641 Z-0.625 I-1.099 J-0.783 K0.000 F150.000
G1 X-39.580 Y-33.641 Z-0.750 F60.000
G3 X-39.571 Y-33.807 Z-0.750 I0.307 J-0.067 K0.000 F150.000
G2 X-39.570 Y-33.931 Z-0.750 I-0.450 J-0.066 K0.000 F150.000
G3 X-39.496 Y-33.830 Z-0.750 I-0.127 J0.170 K0.000 F150.000
G2 X-39.458 Y-33.789 Z-0.750 I0.190 J-0.139 K0.000 F150.000
G3 X-39.580 Y-33.641 Z-0.750 I-1.099 J-0.783 K0.000 F150.000
G1 X-39.525 Y-33.589 Z-0.750 F60.000
G3 X-39.608 Y-33.507 Z-0.750 I-1.174 J-1.102 K0.000 F150.000
G3 X-39.644 Y-33.823 Z-0.750 I0.331 J-0.198 K0.000 F150.000
G2 X-39.645 Y-33.935 Z-0.750 I-0.408 J-0.053 K0.000 F150.000
G3 X-39.611 Y-34.078 Z-0.750 I0.310 J-0.002 K0.000 F150.000
G1 X-39.462 Y-33.929 Z-0.750 F150.000
G2 X-39.385 Y-33.827 Z-0.750 I0.168 J-0.047 K0.000 F150.000
G3 X-39.384 Y-33.761 Z-0.750 I-0.046 J0.034 K0.000 F150.000
G3 X-39.525 Y-33.589 Z-0.750 I-1.315 J-0.930 K0.000 F150.000
G1 X-39.525 Y-33.589 Z-0.875 F60.000
G3 X-39.608 Y-33.507 Z-0.875 I-1.174 J-1.102 K0.000 F150.000
G3 X-39.644 Y-33.823 Z-0.875 I0.331 J-0.198 K0.000 F150.000
G2 X-39.645 Y-33.935 Z-0.875 I-0.408 J-0.053 K0.000 F150.000
G3 X-39.611 Y-34.078 Z-0.875 I0.310 J-0.002 K0.000 F150.000
G1 X-39.462 Y-33.929 Z-0.875 F150.000
G2 X-39.385 Y-33.827 Z-0.875 I0.168 J-0.047 K0.000 F150.000
G3 X-39.384 Y-33.761 Z-0.875 I-0.046 J0.034 K0.000 F150.000
G3 X-39.525 Y-33.589 Z-0.875 I-1.315 J-0.930 K0.000 F150.000
G1 X-39.580 Y-33.641 Z-0.875 F60.000
G3 X-39.571 Y-33.807 Z-0.875 I0.307 J-0.067 K0.000 F150.000
G2 X-39.570 Y-33.931 Z-0.875 I-0.450 J-0.066 K0.000 F150.000
G3 X-39.496 Y-33.830 Z-0.875 I-0.127 J0.170 K0.000 F150.000
G2 X-39.458 Y-33.789 Z-0.875 I0.190 J-0.139 K0.000 F150.000
G3 X-39.580 Y-33.641 Z-0.875 I-1.099 J-0.783 K0.000 F150.000
G1 X-39.580 Y-33.641 Z-1.000 F60.000
G3 X-39.571 Y-33.807 Z-1.000 I0.307 J-0.067 K0.000 F150.000
G2 X-39.570 Y-33.931 Z-1.000 I-0.450 J-0.066 K0.000 F150.000
G3 X-39.496 Y-33.830 Z-1.000 I-0.127 J0.170 K0.000 F150.000
G2 X-39.458 Y-33.789 Z-1.000 I0.190 J-0.139 K0.000 F150.000
G3 X-39.580 Y-33.641 Z-1.000 I-1.099 J-0.783 K0.000 F150.000
G1 X-39.525 Y-33.589 Z-1.000 F60.000
G3 X-39.608 Y-33.507 Z-1.000 I-1.174 J-1.102 K0.000 F150.000
G3 X-39.644 Y-33.823 Z-1.000 I0.331 J-0.198 K0.000 F150.000
G2 X-39.645 Y-33.935 Z-1.000 I-0.408 J-0.053 K0.000 F150.000
G3 X-39.611 Y-34.078 Z-1.000 I0.310 J-0.002 K0.000 F150.000
G1 X-39.462 Y-33.929 Z-1.000 F150.000
G2 X-39.385 Y-33.827 Z-1.000 I0.168 J-0.047 K0.000 F150.000
G3 X-39.384 Y-33.761 Z-1.000 I-0.046 J0.034 K0.000 F150.000
G3 X-39.525 Y-33.589 Z-1.000 I-1.315 J-0.930 K0.000 F150.000
G1 X-39.525 Y-33.589 Z-1.125 F60.000
G3 X-39.608 Y-33.507 Z-1.125 I-1.174 J-1.102 K0.000 F150.000
G3 X-39.644 Y-33.823 Z-1.125 I0.331 J-0.198 K0.000 F150.000
G2 X-39.645 Y-33.935 Z-1.125 I-0.408 J-0.053 K0.000 F150.000
G3 X-39.611 Y-34.078 Z-1.125 I0.310 J-0.002 K0.000 F150.000
G1 X-39.462 Y-33.929 Z-1.125 F150.000
G2 X-39.385 Y-33.827 Z-1.125 I0.168 J-0.047 K0.000 F150.000
G3 X-39.384 Y-33.761 Z-1.125 I-0.046 J0.034 K0.000 F150.000
G3 X-39.525 Y-33.589 Z-1.125 I-1.315 J-0.930 K0.000 F150.000
G1 X-39.580 Y-33.641 Z-1.125 F60.000
G3 X-39.571 Y-33.807 Z-1.125 I0.307 J-0.067 K0.000 F150.000
G2 X-39.570 Y-33.931 Z-1.125 I-0.450 J-0.066 K0.000 F150.000
G3 X-39.496 Y-33.830 Z-1.125 I-0.127 J0.170 K0.000 F150.000
G2 X-39.458 Y-33.789 Z-1.125 I0.190 J-0.139 K0.000 F150.000
G3 X-39.580 Y-33.641 Z-1.125 I-1.099 J-0.783 K0.000 F150.000
G1 X-39.580 Y-33.641 Z-1.250 F60.000
G3 X-39.571 Y-33.807 Z-1.250 I0.307 J-0.067 K0.000 F150.000
G2 X-39.570 Y-33.931 Z-1.250 I-0.450 J-0.066 K0.000 F150.000
G3 X-39.496 Y-33.830 Z-1.250 I-0.127 J0.170 K0.000 F150.000
G2 X-39.458 Y-33.789 Z-1.250 I0.190 J-0.139 K0.000 F150.000
G3 X-39.580 Y-33.641 Z-1.250 I-1.099 J-0.783 K0.000 F150.000
G1 X-39.525 Y-33.589 Z-1.250 F60.000
G3 X-39.608 Y-33.507 Z-1.250 I-1.174 J-1.102 K0.000 F150.000
G3 X-39.644 Y-33.823 Z-1.250 I0.331 J-0.198 K0.000 F150.000
G2 X-39.645 Y-33.935 Z-1.250 I-0.408 J-0.053 K0.000 F150.000
G3 X-39.611 Y-34.078 Z-1.250 I0.310 J-0.002 K0.000 F150.000
G1 X-39.462 Y-33.929 Z-1.250 F150.000
G2 X-39.385 Y-33.827 Z-1.250 I0.168 J-0.047 K0.000 F150.000
G3 X-39.384 Y-33.761 Z-1.250 I-0.046 J0.034 K0.000 F150.000
G3 X-39.525 Y-33.589 Z-1.250 I-1.315 J-0.930 K0.000 F150.000
G1 X-39.525 Y-33.589 Z-1.375 F60.000
G3 X-39.608 Y-33.507 Z-1.375 I-1.174 J-1.102 K0.000 F150.000
G3 X-39.644 Y-33.823 Z-1.375 I0.331 J-0.198 K0.000 F150.000
G2 X-39.645 Y-33.935 Z-1.375 I-0.408 J-0.053 K0.000 F150.000
G3 X-39.611 Y-34.078 Z-1.375 I0.310 J-0.002 K0.000 F150.000
G1 X-39.462 Y-33.929 Z-1.375 F150.000
G2 X-39.385 Y-33.827 Z-1.375 I0.168 J-0.047 K0.000 F150.000
G3 X-39.384 Y-33.761 Z-1.375 I-0.046 J0.034 K0.000 F150.000
G3 X-39.525 Y-33.589 Z-1.375 I-1.315 J-0.930 K0.000 F150.000
G1 X-39.580 Y-33.641 Z-1.375 F60.000
G3 X-39.571 Y-33.807 Z-1.375 I0.307 J-0.067 K0.000 F150.000
G2 X-39.570 Y-33.931 Z-1.375 I-0.450 J-0.066 K0.000 F150.000
G3 X-39.496 Y-33.830 Z-1.375 I-0.127 J0.170 K0.000 F150.000
G2 X-39.458 Y-33.789 Z-1.375 I0.190 J-0.139 K0.000 F150.000
G3 X-39.580 Y-33.641 Z-1.375 I-1.099 J-0.783 K0.000 F150.000
G1 X-39.580 Y-33.641 Z-1.500 F60.000
G3 X-39.571 Y-33.807 Z-1.500 I0.307 J-0.067 K0.000 F150.000
G2 X-39.570 Y-33.931 Z-1.500 I-0.450 J-0.066 K0.000 F150.000
G3 X-39.496 Y-33.830 Z-1.500 I-0.127 J0.170 K0.000 F150.000
G2 X-39.458 Y-33.789 Z-1.500 I0.190 J-0.139 K0.000 F150.000
G3 X-39.580 Y-33.641 Z-1.500 I-1.099 J-0.783 K0.000 F150.000
G1 X-39.525 Y-33.589 Z-1.500 F60.000
G3 X-39.608 Y-33.507 Z-1.500 I-1.174 J-1.102 K0.000 F150.000
G3 X-39.644 Y-33.823 Z-1.500 I0.331 J-0.198 K0.000 F150.000
G2 X-39.645 Y-33.935 Z-1.500 I-0.408 J-0.053 K0.000 F150.000
G3 X-39.611 Y-34.078 Z-1.500 I0.310 J-0.002 K0.000 F150.000
G1 X-39.462 Y-33.929 Z-1.500 F150.000
G2 X-39.385 Y-33.827 Z-1.500 I0.168 J-0.047 K0.000 F150.000
G3 X-39.384 Y-33.761 Z-1.500 I-0.046 J0.034 K0.000 F150.000
G3 X-39.525 Y-33.589 Z-1.500 I-1.315 J-0.930 K0.000 F150.000
G1 X-39.525 Y-33.589 Z-1.625 F60.000
G3 X-39.608 Y-33.507 Z-1.625 I-1.174 J-1.102 K0.000 F150.000
G3 X-39.644 Y-33.823 Z-1.625 I0.331 J-0.198 K0.000 F150.000
G2 X-39.645 Y-33.935 Z-1.625 I-0.408 J-0.053 K0.000 F150.000
G3 X-39.611 Y-34.078 Z-1.625 I0.310 J-0.002 K0.000 F150.000
G1 X-39.462 Y-33.929 Z-1.625 F150.000
G2 X-39.385 Y-33.827 Z-1.625 I0.168 J-0.047 K0.000 F150.000
G3 X-39.384 Y-33.761 Z-1.625 I-0.046 J0.034 K0.000 F150.000
G3 X-39.525 Y-33.589 Z-1.625 I-1.315 J-0.930 K0.000 F150.000
G1 X-39.580 Y-33.641 Z-1.625 F60.000
G3 X-39.571 Y-33.807 Z-1.625 I0.307 J-0.067 K0.000 F150.000
G2 X-39.570 Y-33.931 Z-1.625 I-0.450 J-0.066 K0.000 F150.000
G3 X-39.496 Y-33.830 Z-1.625 I-0.127 J0.170 K0.000 F150.000
G2 X-39.458 Y-33.789 Z-1.625 I0.190 J-0.139 K0.000 F150.000
G3 X-39.580 Y-33.641 Z-1.625 I-1.099 J-0.783 K0.000 F150.000
G1 X-39.580 Y-33.641 Z-1.750 F60.000
G3 X-39.571 Y-33.807 Z-1.750 I0.307 J-0.067 K0.000 F150.000
G2 X-39.570 Y-33.931 Z-1.750 I-0.450 J-0.066 K0.000 F150.000
G3 X-39.496 Y-33.830 Z-1.750 I-0.127 J0.170 K0.000 F150.000
G2 X-39.458 Y-33.789 Z-1.750 I0.190 J-0.139 K0.000 F150.000
G3 X-39.580 Y-33.641 Z-1.750 I-1.099 J-0.783 K0.000 F150.000
G1 X-39.525 Y-33.589 Z-1.750 F60.000
G3 X-39.608 Y-33.507 Z-1.750 I-1.174 J-1.102 K0.000 F150.000
G3 X-39.644 Y-33.823 Z-1.750 I0.331 J-0.198 K0.000 F150.000
G2 X-39.645 Y-33.935 Z-1.750 I-0.408 J-0.053 K0.000 F150.000
G3 X-39.611 Y-34.078 Z-1.750 I0.310 J-0.002 K0.000 F150.000
G1 X-39.462 Y-33.929 Z-1.750 F150.000
G2 X-39.385 Y-33.827 Z-1.750 I0.168 J-0.047 K0.000 F150.000
G3 X-39.384 Y-33.761 Z-1.750 I-0.046 J0.034 K0.000 F150.000
G3 X-39.525 Y-33.589 Z-1.750 I-1.315 J-0.930 K0.000 F150.000
G1 X-39.525 Y-33.589 Z-1.875 F60.000
G3 X-39.608 Y-33.507 Z-1.875 I-1.174 J-1.102 K0.000 F150.000
G3 X-39.644 Y-33.823 Z-1.875 I0.331 J-0.198 K0.000 F150.000
G2 X-39.645 Y-33.935 Z-1.875 I-0.408 J-0.053 K0.000 F150.000
G3 X-39.611 Y-34.078 Z-1.875 I0.310 J-0.002 K0.000 F150.000
G1 X-39.462 Y-33.929 Z-1.875 F150.000
G2 X-39.385 Y-33.827 Z-1.875 I0.168 J-0.047 K0.000 F150.000
G3 X-39.384 Y-33.761 Z-1.875 I-0.046 J0.034 K0.000 F150.000
G3 X-39.525 Y-33.589 Z-1.875 I-1.315 J-0.930 K0.000 F150.000
G1 X-39.580 Y-33.641 Z-1.875 F60.000
G3 X-39.571 Y-33.807 Z-1.875 I0.307 J-0.067 K0.000 F150.000
G2 X-39.570 Y-33.931 Z-1.875 I-0.450 J-0.066 K0.000 F150.000
G3 X-39.496 Y-33.830 Z-1.875 I-0.127 J0.170 K0.000 F150.000
G2 X-39.458 Y-33.789 Z-1.875 I0.190 J-0.139 K0.000 F150.000
G3 X-39.580 Y-33.641 Z-1.875 I-1.099 J-0.783 K0.000 F150.000
G1 X-39.580 Y-33.641 Z-2.000 F60.000
G3 X-39.571 Y-33.807 Z-2.000 I0.307 J-0.067 K0.000 F150.000
G2 X-39.570 Y-33.931 Z-2.000 I-0.450 J-0.066 K0.000 F150.000
G3 X-39.496 Y-33.830 Z-2.000 I-0.127 J0.170 K0.000 F150.000
G2 X-39.458 Y-33.789 Z-2.000 I0.190 J-0.139 K0.000 F150.000
G3 X-39.580 Y-33.641 Z-2.000 I-1.099 J-0.783 K0.000 F150.000
G1 X-39.525 Y-33.589 Z-2.000 F60.000
G3 X-39.608 Y-33.507 Z-2.000 I-1.174 J-1.102 K0.000 F150.000
G3 X-39.644 Y-33.823 Z-2.000 I0.331 J-0.198 K0.000 F150.000
G2 X-39.645 Y-33.935 Z-2.000 I-0.408 J-0.053 K0.000 F150.000
G3 X-39.611 Y-34.078 Z-2.000 I0.310 J-0.002 K0.000 F150.000
G1 X-39.462 Y-33.929 Z-2.000 F150.000
G2 X-39.385 Y-33.827 Z-2.000 I0.168 J-0.047 K0.000 F150.000
G3 X-39.384 Y-33.761 Z-2.000 I-0.046 J0.034 K0.000 F150.000
G3 X-39.525 Y-33.589 Z-2.000 I-1.315 J-0.930 K0.000 F150.000
G0 Z5.000
G0 X-33.998 Y-39.517 Z5.000
G0 X-33.998 Y-39.517 Z3.000
G1 X-33.998 Y-39.517 Z-0.125 F60.000
G3 X-34.086 Y-39.605 Z-0.125 I1.129 J-1.211 K0.000 F150.000
G3 X-33.908 Y-39.648 Z-0.125 I0.163 J0.282 K0.000 F150.000
G3 X-33.529 Y-39.600 Z-0.125 I0.121 J0.569 K0.000 F150.000
G2 X-33.766 Y-39.380 Z-0.125 I8.073 J8.913 K0.000 F150.000
G3 X-33.830 Y-39.379 Z-0.125 I-0.032 J-0.045 K0.000 F150.000
G3 X-33.998 Y-39.517 Z-0.125 I0.961 J-1.348 K0.000 F150.000
G1 X-33.944 Y-39.570 Z-0.125 F60.000
G3 X-33.748 Y-39.584 Z-0.125 I0.157 J0.852 K0.000 F150.000
G3 X-33.671 Y-39.571 Z-0.125 I-0.007 J0.294 K0.000 F150.000
G2 X-33.800 Y-39.451 Z-0.125 I4.412 J4.879 K0.000 F150.000
G3 X-33.944 Y-39.570 Z-0.125 I0.782 J-1.093 K0.000 F150.000
G1 X-33.944 Y-39.570 Z-0.250 F60.000
G3 X-33.748 Y-39.584 Z-0.250 I0.157 J0.852 K0.000 F150.000
G3 X-33.671 Y-39.571 Z-0.250 I-0.007 J0.294 K0.000 F150.000
G2 X-33.800 Y-39.451 Z-0.250 I4.412 J4.879 K0.000 F150.000
G3 X-33.944 Y-39.570 Z-0.250 I0.782 J-1.093 K0.000 F150.000
G1 X-33.996 Y-39.515 Z-0.250 F60.000
G3 X-34.086 Y-39.605 Z-0.250 I1.127 J-1.213 K0.000 F150.000
G3 X-33.908 Y-39.648 Z-0.250 I0.163 J0.282 K0.000 F150.000
G3 X-33.529 Y-39.600 Z-0.250 I0.121 J0.569 K0.000 F150.000
G2 X-33.766 Y-39.380 Z-0.250 I8.073 J8.913 K0.000 F150.000
G3 X-33.830 Y-39.379 Z-0.250 I-0.032 J-0.045 K0.000 F150.000
G3 X-33.996 Y-39.515 Z-0.250 I0.961 J-1.348 K0.000 F150.000
G1 X-33.996 Y-39.515 Z-0.375 F60.000
G3 X-34.086 Y-39.605 Z-0.375 I1.127 J-1.213 K0.000 F150.000
G3 X-33.908 Y-39.648 Z-0.375 I0.163 J0.282 K0.000 F150.000
G3 X-33.529 Y-39.600 Z-0.375 I0.121 J0.569 K0.000 F150.000
G2 X-33.766 Y-39.380 Z-0.375 I8.073 J8.913 K0.000 F150.000
G3 X-33.830 Y-39.379 Z-0.375 I-0.032 J-0.045 K0.000 F150.000
G3 X-33.996 Y-39.515 Z-0.375 I0.961 J-1.348 K0.000 F150.000
G1 X-33.944 Y-39.570 Z-0.375 F60.000
G3 X-33.748 Y-39.584 Z-0.375 I0.157 J0.852 K0.000 F150.000
G3 X-33.671 Y-39.571 Z-0.375 I-0.007 J0.294 K0.000 F150.000
G2 X-33.800 Y-39.451 Z-0.375 I4.412 J4.879 K0.000 F150.000
G3 X-33.944 Y-39.570 Z-0.375 I0.782 J-1.093 K0.000 F150.000
G1 X-33.944 Y-39.570 Z-0.500 F60.000
G3 X-33.748 Y-39.584 Z-0.500 I0.157 J0.852 K0.000 F150.000
G3 X-33.671 Y-39.571 Z-0.500 I-0.007 J0.294 K0.000 F150.000
G2 X-33.800 Y-39.451 Z-0.500 I4.412 J4.879 K0.000 F150.000
G3 X-33.944 Y-39.570 Z-0.500 I0.782 J-1.093 K0.000 F150.000
G1 X-33.996 Y-39.515 Z-0.500 F60.000
G3 X-34.086 Y-39.605 Z-0.500 I1.127 J-1.213 K0.000 F150.000
G3 X-33.908 Y-39.648 Z-0.500 I0.163 J0.282 K0.000 F150.000
G3 X-33.529 Y-39.600 Z-0.500 I0.121 J0.569 K0.000 F150.000
G2 X-33.766 Y-39.380 Z-0.500 I8.073 J8.913 K0.000 F150.000
G3 X-33.830 Y-39.379 Z-0.500 I-0.032 J-0.045 K0.000 F150.000
G3 X-33.996 Y-39.515 Z-0.500 I0.961 J-1.348 K0.000 F150.000
G1 X-33.996 Y-39.515 Z-0.625 F60.000
G3 X-34.086 Y-39.605 Z-0.625 I1.127 J-1.213 K0.000 F150.000
G3 X-33.908 Y-39.648 Z-0.625 I0.163 J0.282 K0.000 F150.000
G3 X-33.529 Y-39.600 Z-0.625 I0.121 J0.569 K0.000 F150.000
G2 X-33.766 Y-39.380 Z-0.625 I8.073 J8.913 K0.000 F150.000
G3 X-33.830 Y-39.379 Z-0.625 I-0.032 J-0.045 K0.000 F150.000
G3 X-33.996 Y-39.515 Z-0.625 I0.961 J-1.348 K0.000 F150.000
G1 X-33.944 Y-39.570 Z-0.625 F60.000
G3 X-33.748 Y-39.584 Z-0.625 I0.157 J0.852 K0.000 F150.000
G3 X-33.671 Y-39.571 Z-0.625 I-0.007 J0.294 K0.000 F150.000
G2 X-33.800 Y-39.451 Z-0.625 I4.412 J4.879 K0.000 F150.000
G3 X-33.944 Y-39.570 Z-0.625 I0.782 J-1.093 K0.000 F150.000
G1 X-33.944 Y-39.570 Z-0.750 F60.000
G3 X-33.748 Y-39.584 Z-0.750 I0.157 J0.852 K0.000 F150.000
G3 X-33.671 Y-39.571 Z-0.750 I-0.007 J0.294 K0.000 F150.000
G2 X-33.800 Y-39.451 Z-0.750 I4.412 J4.879 K0.000 F150.000
G3 X-33.944 Y-39.570 Z-0.750 I0.782 J-1.093 K0.000 F150.000
G1 X-33.996 Y-39.515 Z-0.750 F60.000
G3 X-34.086 Y-39.605 Z-0.750 I1.127 J-1.213 K0.000 F150.000
G3 X-33.908 Y-39.648 Z-0.750 I0.163 J0.282 K0.000 F150.000
G3 X-33.529 Y-39.600 Z-0.750 I0.121 J0.569 K0.000 F150.000
G2 X-33.766 Y-39.380 Z-0.750 I8.073 J8.913 K0.000 F150.000
G3 X-33.830 Y-39.379 Z-0.750 I-0.032 J-0.045 K0.000 F150.000
G3 X-33.996 Y-39.515 Z-0.750 I0.961 J-1.348 K0.000 F150.000
G1 X-33.996 Y-39.515 Z-0.875 F60.000
G3 X-34.086 Y-39.605 Z-0.875 I1.127 J-1.213 K0.000 F150.000
G3 X-33.908 Y-39.648 Z-0.875 I0.163 J0.282 K0.000 F150.000
G3 X-33.529 Y-39.600 Z-0.875 I0.121 J0.569 K0.000 F150.000
G2 X-33.766 Y-39.380 Z-0.875 I8.073 J8.913 K0.000 F150.000
G3 X-33.830 Y-39.379 Z-0.875 I-0.032 J-0.045 K0.000 F150.000
G3 X-33.996 Y-39.515 Z-0.875 I0.961 J-1.348 K0.000 F150.000
G1 X-33.944 Y-39.570 Z-0.875 F60.000
G3 X-33.748 Y-39.584 Z-0.875 I0.157 J0.852 K0.000 F150.000
G3 X-33.671 Y-39.571 Z-0.875 I-0.007 J0.294 K0.000 F150.000
G2 X-33.800 Y-39.451 Z-0.875 I4.412 J4.879 K0.000 F150.000
G3 X-33.944 Y-39.570 Z-0.875 I0.782 J-1.093 K0.000 F150.000
G1 X-33.944 Y-39.570 Z-1.000 F60.000
G3 X-33.748 Y-39.584 Z-1.000 I0.157 J0.852 K0.000 F150.000
G3 X-33.671 Y-39.571 Z-1.000 I-0.007 J0.294 K0.000 F150.000
G2 X-33.800 Y-39.451 Z-1.000 I4.412 J4.879 K0.000 F150.000
G3 X-33.944 Y-39.570 Z-1.000 I0.782 J-1.093 K0.000 F150.000
G1 X-33.996 Y-39.515 Z-1.000 F60.000
G3 X-34.086 Y-39.605 Z-1.000 I1.127 J-1.213 K0.000 F150.000
G3 X-33.908 Y-39.648 Z-1.000 I0.163 J0.282 K0.000 F150.000
G3 X-33.529 Y-39.600 Z-1.000 I0.121 J0.569 K0.000 F150.000
G2 X-33.766 Y-39.380 Z-1.000 I8.073 J8.913 K0.000 F150.000
G3 X-33.830 Y-39.379 Z-1.000 I-0.032 J-0.045 K0.000 F150.000
G3 X-33.996 Y-39.515 Z-1.000 I0.961 J-1.348 K0.000 F150.000
G1 X-33.996 Y-39.515 Z-1.125 F60.000
G3 X-34.086 Y-39.605 Z-1.125 I1.127 J-1.213 K0.000 F150.000
G3 X-33.908 Y-39.648 Z-1.125 I0.163 J0.282 K0.000 F150.000
G3 X-33.529 Y-39.600 Z-1.125 I0.121 J0.569 K0.000 F150.000
G2 X-33.766 Y-39.380 Z-1.125 I8.073 J8.913 K0.000 F150.000
G3 X-33.830 Y-39.379 Z-1.125 I-0.032 J-0.045 K0.000 F150.000
G3 X-33.996 Y-39.515 Z-1.125 I0.961 J-1.348 K0.000 F150.000
G1 X-33.944 Y-39.570 Z-1.125 F60.000
G3 X-33.748 Y-39.584 Z-1.125 I0.157 J0.852 K0.000 F150.000
G3 X-33.671 Y-39.571 Z-1.125 I-0.007 J0.294 K0.000 F150.000
G2 X-33.800 Y-39.451 Z-1.125 I4.412 J4.879 K0.000 F150.000
G3 X-33.944 Y-39.570 Z-1.125 I0.782 J-1.093 K0.000 F150.000
G1 X-33.944 Y-39.570 Z-1.250 F60.000
G3 X-33.748 Y-39.584 Z-1.250 I0.157 J0.852 K0.000 F150.000
G3 X-33.671 Y-39.571 Z-1.250 I-0.007 J0.294 K0.000 F150.000
G2 X-33.800 Y-39.451 Z-1.250 I4.412 J4.879 K0.000 F150.000
G3 X-33.944 Y-39.570 Z-1.250 I0.782 J-1.093 K0.000 F150.000
G1 X-33.996 Y-39.515 Z-1.250 F60.000
G3 X-34.086 Y-39.605 Z-1.250 I1.127 J-1.213 K0.000 F150.000
G3 X-33.908 Y-39.648 Z-1.250 I0.163 J0.282 K0.000 F150.000
G3 X-33.529 Y-39.600 Z-1.250 I0.121 J0.569 K0.000 F150.000
G2 X-33.766 Y-39.380 Z-1.250 I8.073 J8.913 K0.000 F150.000
G3 X-33.830 Y-39.379 Z-1.250 I-0.032 J-0.045 K0.000 F150.000
G3 X-33.996 Y-39.515 Z-1.250 I0.961 J-1.348 K0.000 F150.000
G1 X-33.996 Y-39.515 Z-1.375 F60.000
G3 X-34.086 Y-39.605 Z-1.375 I1.127 J-1.213 K0.000 F150.000
G3 X-33.908 Y-39.648 Z-1.375 I0.163 J0.282 K0.000 F150.000
G3 X-33.529 Y-39.600 Z-1.375 I0.121 J0.569 K0.000 F150.000
G2 X-33.766 Y-39.380 Z-1.375 I8.073 J8.913 K0.000 F150.000
G3 X-33.830 Y-39.379 Z-1.375 I-0.032 J-0.045 K0.000 F150.000
G3 X-33.996 Y-39.515 Z-1.375 I0.961 J-1.348 K0.000 F150.000
G1 X-33.944 Y-39.570 Z-1.375 F60.000
G3 X-33.748 Y-39.584 Z-1.375 I0.157 J0.852 K0.000 F150.000
G3 X-33.671 Y-39.571 Z-1.375 I-0.007 J0.294 K0.000 F150.000
G2 X-33.800 Y-39.451 Z-1.375 I4.412 J4.879 K0.000 F150.000
G3 X-33.944 Y-39.570 Z-1.375 I0.782 J-1.093 K0.000 F150.000
G1 X-33.944 Y-39.570 Z-1.500 F60.000
G3 X-33.748 Y-39.584 Z-1.500 I0.157 J0.852 K0.000 F150.000
G3 X-33.671 Y-39.571 Z-1.500 I-0.007 J0.294 K0.000 F150.000
G2 X-33.800 Y-39.451 Z-1.500 I4.412 J4.879 K0.000 F150.000
G3 X-33.944 Y-39.570 Z-1.500 I0.782 J-1.093 K0.000 F150.000
G1 X-33.996 Y-39.515 Z-1.500 F60.000
G3 X-34.086 Y-39.605 Z-1.500 I1.127 J-1.213 K0.000 F150.000
G3 X-33.908 Y-39.648 Z-1.500 I0.163 J0.282 K0.000 F150.000
G3 X-33.529 Y-39.600 Z-1.500 I0.121 J0.569 K0.000 F150.000
G2 X-33.766 Y-39.380 Z-1.500 I8.073 J8.913 K0.000 F150.000
G3 X-33.830 Y-39.379 Z-1.500 I-0.032 J-0.045 K0.000 F150.000
G3 X-33.996 Y-39.515 Z-1.500 I0.961 J-1.348 K0.000 F150.000
G1 X-33.996 Y-39.515 Z-1.625 F60.000
G3 X-34.086 Y-39.605 Z-1.625 I1.127 J-1.213 K0.000 F150.000
G3 X-33.908 Y-39.648 Z-1.625 I0.163 J0.282 K0.000 F150.000
G3 X-33.529 Y-39.600 Z-1.625 I0.121 J0.569 K0.000 F150.000
G2 X-33.766 Y-39.380 Z-1.625 I8.073 J8.913 K0.000 F150.000
G3 X-33.830 Y-39.379 Z-1.625 I-0.032 J-0.045 K0.000 F150.000
G3 X-33.996 Y-39.515 Z-1.625 I0.961 J-1.348 K0.000 F150.000
G1 X-33.944 Y-39.570 Z-1.625 F60.000
G3 X-33.748 Y-39.584 Z-1.625 I0.157 J0.852 K0.000 F150.000
G3 X-33.671 Y-39.571 Z-1.625 I-0.007 J0.294 K0.000 F150.000
G2 X-33.800 Y-39.451 Z-1.625 I4.412 J4.879 K0.000 F150.000
G3 X-33.944 Y-39.570 Z-1.625 I0.782 J-1.093 K0.000 F150.000
G1 X-33.944 Y-39.570 Z-1.750 F60.000
G3 X-33.748 Y-39.584 Z-1.750 I0.157 J0.852 K0.000 F150.000
G3 X-33.671 Y-39.571 Z-1.750 I-0.007 J0.294 K0.000 F150.000
G2 X-33.800 Y-39.451 Z-1.750 I4.412 J4.879 K0.000 F150.000
G3 X-33.944 Y-39.570 Z-1.750 I0.782 J-1.093 K0.000 F150.000
G1 X-33.996 Y-39.515 Z-1.750 F60.000
G3 X-34.086 Y-39.605 Z-1.750 I1.127 J-1.213 K0.000 F150.000
G3 X-33.908 Y-39.648 Z-1.750 I0.163 J0.282 K0.000 F150.000
G3 X-33.529 Y-39.600 Z-1.750 I0.121 J0.569 K0.000 F150.000
G2 X-33.766 Y-39.380 Z-1.750 I8.073 J8.913 K0.000 F150.000
G3 X-33.830 Y-39.379 Z-1.750 I-0.032 J-0.045 K0.000 F150.000
G3 X-33.996 Y-39.515 Z-1.750 I0.961 J-1.348 K0.000 F150.000
G1 X-33.996 Y-39.515 Z-1.875 F60.000
G3 X-34.086 Y-39.605 Z-1.875 I1.127 J-1.213 K0.000 F150.000
G3 X-33.908 Y-39.648 Z-1.875 I0.163 J0.282 K0.000 F150.000
G3 X-33.529 Y-39.600 Z-1.875 I0.121 J0.569 K0.000 F150.000
G2 X-33.766 Y-39.380 Z-1.875 I8.073 J8.913 K0.000 F150.000
G3 X-33.830 Y-39.379 Z-1.875 I-0.032 J-0.045 K0.000 F150.000
G3 X-33.996 Y-39.515 Z-1.875 I0.961 J-1.348 K0.000 F150.000
G1 X-33.944 Y-39.570 Z-1.875 F60.000
G3 X-33.748 Y-39.584 Z-1.875 I0.157 J0.852 K0.000 F150.000
G3 X-33.671 Y-39.571 Z-1.875 I-0.007 J0.294 K0.000 F150.000
G2 X-33.800 Y-39.451 Z-1.875 I4.412 J4.879 K0.000 F150.000
G3 X-33.944 Y-39.570 Z-1.875 I0.782 J-1.093 K0.000 F150.000
G1 X-33.944 Y-39.570 Z-2.000 F60.000
G3 X-33.748 Y-39.584 Z-2.000 I0.157 J0.852 K0.000 F150.000
G3 X-33.671 Y-39.571 Z-2.000 I-0.007 J0.294 K0.000 F150.000
G2 X-33.800 Y-39.451 Z-2.000 I4.412 J4.879 K0.000 F150.000
G3 X-33.944 Y-39.570 Z-2.000 I0.782 J-1.093 K0.000 F150.000
G1 X-33.996 Y-39.515 Z-2.000 F60.000
G3 X-34.086 Y-39.605 Z-2.000 I1.127 J-1.213 K0.000 F150.000
G3 X-33.908 Y-39.648 Z-2.000 I0.163 J0.282 K0.000 F150.000
G3 X-33.529 Y-39.600 Z-2.000 I0.121 J0.569 K0.000 F150.000
G2 X-33.766 Y-39.380 Z-2.000 I8.073 J8.913 K0.000 F150.000
G3 X-33.830 Y-39.379 Z-2.000 I-0.032 J-0.045 K0.000 F150.000
G3 X-33.996 Y-39.515 Z-2.000 I0.961 J-1.348 K0.000 F150.000
G0 Z5.000
G0 X-31.411 Y-39.641 Z5.000
G0 X-31.411 Y-39.641 Z3.000
G1 X-31.411 Y-39.641 Z-0.125 F60.000
G3 X-31.234 Y-39.666 Z-0.125 I0.124 J0.231 K0.000 F150.000
G2 X-30.957 Y-39.680 Z-0.125 I0.056 J-1.652 K0.000 F150.000
G3 X-30.840 Y-39.647 Z-0.125 I-0.014 J0.272 K0.000 F150.000
G3 X-31.090 Y-39.415 Z-0.125 I-36.141 J-38.578 K0.000 F150.000
G3 X-31.159 Y-39.415 Z-0.125 I-0.035 J-0.049 K0.000 F150.000
G3 X-31.411 Y-39.641 Z-0.125 I1.142 J-1.529 K0.000 F150.000
G1 X-31.255 Y-39.592 Z-0.125 F60.000
G2 X-31.001 Y-39.600 Z-0.125 I0.078 J-1.677 K0.000 F150.000
G3 X-31.125 Y-39.484 Z-0.125 I-18.039 J-19.252 K0.000 F150.000
G3 X-31.255 Y-39.592 Z-0.125 I0.838 J-1.128 K0.000 F150.000
G1 X-31.255 Y-39.592 Z-0.250 F60.000
G2 X-31.001 Y-39.600 Z-0.250 I0.078 J-1.677 K0.000 F150.000
G3 X-31.125 Y-39.484 Z-0.250 I-18.039 J-19.252 K0.000 F150.000
G3 X-31.255 Y-39.592 Z-0.250 I0.838 J-1.128 K0.000 F150.000
G1 X-31.306 Y-39.536 Z-0.250 F60.000
G3 X-31.411 Y-39.641 Z-0.250 I1.288 J-1.408 K0.000 F150.000
G3 X-31.234 Y-39.666 Z-0.250 I0.124 J0.231 K0.000 F150.000
G2 X-30.957 Y-39.680 Z-0.250 I0.056 J-1.652 K0.000 F150.000
G3 X-30.840 Y-39.647 Z-0.250 I-0.014 J0.272 K0.000 F150.000
G3 X-31.090 Y-39.415 Z-0.250 I-36.141 J-38.578 K0.000 F150.000
G3 X-31.159 Y-39.415 Z-0.250 I-0.035 J-0.049 K0.000 F150.000
G3 X-31.306 Y-39.536 Z-0.250 I1.142 J-1.529 K0.000 F150.000
G1 X-31.306 Y-39.536 Z-0.375 F60.000
G3 X-31.411 Y-39.641 Z-0.375 I1.288 J-1.408 K0.000 F150.000
G3 X-31.234 Y-39.666 Z-0.375 I0.124 J0.231 K0.000 F150.000
G2 X-30.957 Y-39.680 Z-0.375 I0.056 J-1.652 K0.000 F150.000
G3 X-30.840 Y-39.647 Z-0.375 I-0.014 J0.272 K0.000 F150.000
G3 X-31.090 Y-39.415 Z-0.375 I-36.141 J-38.578 K0.000 F150.000
G3 X-31.159 Y-39.415 Z-0.375 I-0.035 J-0.049 K0.000 F150.000
G3 X-31.306 Y-39.536 Z-0.375 I1.142 J-1.529 K0.000 F150.000
G1 X-31.255 Y-39.592 Z-0.375 F60.000
G2 X-31.001 Y-39.600 Z-0.375 I0.078 J-1.677 K0.000 F150.000
G3 X-31.125 Y-39.484 Z-0.375 I-18.039 J-19.252 K0.000 F150.000
G3 X-31.255 Y-39.592 Z-0.375 I0.838 J-1.128 K0.000 F150.000
G1 X-31.255 Y-39.592 Z-0.500 F60.000
G2 X-31.001 Y-39.600 Z-0.500 I0.078 J-1.677 K0.000 F150.000
G3 X-31.125 Y-39.484 Z-0.500 I-18.039 J-19.252 K0.000 F150.000
G3 X-31.255 Y-39.592 Z-0.500 I0.838 J-1.128 K0.000 F150.000
G1 X-31.306 Y-39.536 Z-0.500 F60.000
G3 X-31.411 Y-39.641 Z-0.500 I1.288 J-1.408 K0.000 F150.000
G3 X-31.234 Y-39.666 Z-0.500 I0.124 J0.231 K0.000 F150.000
G2 X-30.957 Y-39.680 Z-0.500 I0.056 J-1.652 K0.000 F150.000
G3 X-30.840 Y-39.647 Z-0.500 I-0.014 J0.272 K0.000 F150.000
G3 X-31.090 Y-39.415 Z-0.500 I-36.141 J-38.578 K0.000 F150.000
G3 X-31.159 Y-39.415 Z-0.500 I-0.035 J-0.049 K0.000 F150.000
G3 X-31.306 Y-39.536 Z-0.500 I1.142 J-1.529 K0.000 F150.000
G1 X-31.306 Y-39.536 Z-0.625 F60.000
G3 X-31.411 Y-39.641 Z-0.625 I1.288 J-1.408 K0.000 F150.000
G3 X-31.234 Y-39.666 Z-0.625 I0.124 J0.231 K0.000 F150.000
G2 X-30.957 Y-39.680 Z-0.625 I0.056 J-1.652 K0.000 F150.000
G3 X-30.840 Y-39.647 Z-0.625 I-0.014 J0.272 K0.000 F150.000
G3 X-31.090 Y-39.415 Z-0.625 I-36.141 J-38.578 K0.000 F150.000
G3 X-31.159 Y-39.415 Z-0.625 I-0.035 J-0.049 K0.000 F150.000
G3 X-31.306 Y-39.536 Z-0.625 I1.142 J-1.529 K0.000 F150.000
G1 X-31.255 Y-39.592 Z-0.625 F60.000
G2 X-31.001 Y-39.600 Z-0.625 I0.078 J-1.677 K0.000 F150.000
G3 X-31.125 Y-39.484 Z-0.625 I-18.039 J-19.252 K0.000 F150.000
G3 X-31.255 Y-39.592 Z-0.625 I0.838 J-1.128 K0.000 F150.000
G1 X-31.255 Y-39.592 Z-0.750 F60.000
G2 X-31.001 Y-39.600 Z-0.750 I0.078 J-1.677 K0.000 F150.000
G3 X-31.125 Y-39.484 Z-0.750 I-18.039 J-19.252 K0.000 F150.000
G3 X-31.255 Y-39.592 Z-0.750 I0.838 J-1.128 K0.000 F150.000
G1 X-31.306 Y-39.536 Z-0.750 F60.000
G3 X-31.411 Y-39.641 Z-0.750 I1.288 J-1.408 K0.000 F150.000
G3 X-31.234 Y-39.666 Z-0.750 I0.124 J0.231 K0.000 F150.000
G2 X-30.957 Y-39.680 Z-0.750 I0.056 J-1.652 K0.000 F150.000
G3 X-30.840 Y-39.647 Z-0.750 I-0.014 J0.272 K0.000 F150.000
G3 X-31.090 Y-39.415 Z-0.750 I-36.141 J-38.578 K0.000 F150.000
G3 X-31.159 Y-39.415 Z-0.750 I-0.035 J-0.049 K0.000 F150.000
G3 X-31.306 Y-39.536 Z-0.750 I1.142 J-1.529 K0.000 F150.000
G1 X-31.306 Y-39.536 Z-0.875 F60.000
G3 X-31.411 Y-39.641 Z-0.875 I1.288 J-1.408 K0.000 F150.000
G3 X-31.234 Y-39.666 Z-0.875 I0.124 J0.231 K0.000 F150.000
G2 X-30.957 Y-39.680 Z-0.875 I0.056 J-1.652 K0.000 F150.000
G3 X-30.840 Y-39.647 Z-0.875 I-0.014 J0.272 K0.000 F150.000
G3 X-31.090 Y-39.415 Z-0.875 I-36.141 J-38.578 K0.000 F150.000
G3 X-31.159 Y-39.415 Z-0.875 I-0.035 J-0.049 K0.000 F150.000
G3 X-31.306 Y-39.536 Z-0.875 I1.142 J-1.529 K0.000 F150.000
G1 X-31.255 Y-39.592 Z-0.875 F60.000
G2 X-31.001 Y-39.600 Z-0.875 I0.078 J-1.677 K0.000 F150.000
G3 X-31.125 Y-39.484 Z-0.875 I-18.039 J-19.252 K0.000 F150.000
G3 X-31.255 Y-39.592 Z-0.875 I0.838 J-1.128 K0.000 F150.000
G1 X-31.255 Y-39.592 Z-1.000 F60.000
G2 X-31.001 Y-39.600 Z-1.000 I0.078 J-1.677 K0.000 F150.000
G3 X-31.125 Y-39.484 Z-1.000 I-18.039 J-19.252 K0.000 F150.000
G3 X-31.255 Y-39.592 Z-1.000 I0.838 J-1.128 K0.000 F150.000
G1 X-31.306 Y-39.536 Z-1.000 F60.000
G3 X-31.411 Y-39.641 Z-1.000 I1.288 J-1.408 K0.000 F150.000
G3 X-31.234 Y-39.666 Z-1.000 I0.124 J0.231 K0.000 F150.000
G2 X-30.957 Y-39.680 Z-1.000 I0.056 J-1.652 K0.000 F150.000
G3 X-30.840 Y-39.647 Z-1.000 I-0.014 J0.272 K0.000 F150.000
G3 X-31.090 Y-39.415 Z-1.000 I-36.141 J-38.578 K0.000 F150.000
G3 X-31.159 Y-39.415 Z-1.000 I-0.035 J-0.049 K0.000 F150.000
G3 X-31.306 Y-39.536 Z-1.000 I1.142 J-1.529 K0.000 F150.000
G1 X-31.306 Y-39.536 Z-1.125 F60.000
G3 X-31.411 Y-39.641 Z-1.125 I1.288 J-1.408 K0.000 F150.000
G3 X-31.234 Y-39.666 Z-1.125 I0.124 J0.231 K0.000 F150.000
G2 X-30.957 Y-39.680 Z-1.125 I0.056 J-1.652 K0.000 F150.000
G3 X-30.840 Y-39.647 Z-1.125 I-0.014 J0.272 K0.000 F150.000
G3 X-31.090 Y-39.415 Z-1.125 I-36.141 J-38.578 K0.000 F150.000
G3 X-31.159 Y-39.415 Z-1.125 I-0.035 J-0.049 K0.000 F150.000
G3 X-31.306 Y-39.536 Z-1.125 I1.142 J-1.529 K0.000 F150.000
G1 X-31.255 Y-39.592 Z-1.125 F60.000
G2 X-31.001 Y-39.600 Z-1.125 I0.078 J-1.677 K0.000 F150.000
G3 X-31.125 Y-39.484 Z-1.125 I-18.039 J-19.252 K0.000 F150.000
G3 X-31.255 Y-39.592 Z-1.125 I0.838 J-1.128 K0.000 F150.000
G1 X-31.255 Y-39.592 Z-1.250 F60.000
G2 X-31.001 Y-39.600 Z-1.250 I0.078 J-1.677 K0.000 F150.000
G3 X-31.125 Y-39.484 Z-1.250 I-18.039 J-19.252 K0.000 F150.000
G3 X-31.255 Y-39.592 Z-1.250 I0.838 J-1.128 K0.000 F150.000
G1 X-31.306 Y-39.536 Z-1.250 F60.000
G3 X-31.411 Y-39.641 Z-1.250 I1.288 J-1.408 K0.000 F150.000
G3 X-31.234 Y-39.666 Z-1.250 I0.124 J0.231 K0.000 F150.000
G2 X-30.957 Y-39.680 Z-1.250 I0.056 J-1.652 K0.000 F150.000
G3 X-30.840 Y-39.647 Z-1.250 I-0.014 J0.272 K0.000 F150.000
G3 X-31.090 Y-39.415 Z-1.250 I-36.141 J-38.578 K0.000 F150.000
G3 X-31.159 Y-39.415 Z-1.250 I-0.035 J-0.049 K0.000 F150.000
G3 X-31.306 Y-39.536 Z-1.250 I1.142 J-1.529 K0.000 F150.000
G1 X-31.306 Y-39.536 Z-1.375 F60.000
G3 X-31.411 Y-39.641 Z-1.375 I1.288 J-1.408 K0.000 F150.000
G3 X-31.234 Y-39.666 Z-1.375 I0.124 J0.231 K0.000 F150.000
G2 X-30.957 Y-39.680 Z-1.375 I0.056 J-1.652 K0.000 F150.000
G3 X-30.840 Y-39.647 Z-1.375 I-0.014 J0.272 K0.000 F150.000
G3 X-31.090 Y-39.415 Z-1.375 I-36.141 J-38.578 K0.000 F150.000
G3 X-31.159 Y-39.415 Z-1.375 I-0.035 J-0.049 K0.000 F150.000
G3 X-31.306 Y-39.536 Z-1.375 I1.142 J-1.529 K0.000 F150.000
G1 X-31.255 Y-39.592 Z-1.375 F60.000
G2 X-31.001 Y-39.600 Z-1.375 I0.078 J-1.677 K0.000 F150.000
G3 X-31.125 Y-39.484 Z-1.375 I-18.039 J-19.252 K0.000 F150.000
G3 X-31.255 Y-39.592 Z-1.375 I0.838 J-1.128 K0.000 F150.000
G1 X-31.255 Y-39.592 Z-1.500 F60.000
G2 X-31.001 Y-39.600 Z-1.500 I0.078 J-1.677 K0.000 F150.000
G3 X-31.125 Y-39.484 Z-1.500 I-18.039 J-19.252 K0.000 F150.000
G3 X-31.255 Y-39.592 Z-1.500 I0.838 J-1.128 K0.000 F150.000
G1 X-31.306 Y-39.536 Z-1.500 F60.000
G3 X-31.411 Y-39.641 Z-1.500 I1.288 J-1.408 K0.000 F150.000
G3 X-31.234 Y-39.666 Z-1.500 I0.124 J0.231 K0.000 F150.000
G2 X-30.957 Y-39.680 Z-1.500 I0.056 J-1.652 K0.000 F150.000
G3 X-30.840 Y-39.647 Z-1.500 I-0.014 J0.272 K0.000 F150.000
G3 X-31.090 Y-39.415 Z-1.500 I-36.141 J-38.578 K0.000 F150.000
G3 X-31.159 Y-39.415 Z-1.500 I-0.035 J-0.049 K0.000 F150.000
G3 X-31.306 Y-39.536 Z-1.500 I1.142 J-1.529 K0.000 F150.000
G1 X-31.306 Y-39.536 Z-1.625 F60.000
G3 X-31.411 Y-39.641 Z-1.625 I1.288 J-1.408 K0.000 F150.000
G3 X-31.234 Y-39.666 Z-1.625 I0.124 J0.231 K0.000 F150.000
G2 X-30.957 Y-39.680 Z-1.625 I0.056 J-1.652 K0.000 F150.000
G3 X-30.840 Y-39.647 Z-1.625 I-0.014 J0.272 K0.000 F150.000
G3 X-31.090 Y-39.415 Z-1.625 I-36.141 J-38.578 K0.000 F150.000
G3 X-31.159 Y-39.415 Z-1.625 I-0.035 J-0.049 K0.000 F150.000
G3 X-31.306 Y-39.536 Z-1.625 I1.142 J-1.529 K0.000 F150.000
G1 X-31.255 Y-39.592 Z-1.625 F60.000
G2 X-31.001 Y-39.600 Z-1.625 I0.078 J-1.677 K0.000 F150.000
G3 X-31.125 Y-39.484 Z-1.625 I-18.039 J-19.252 K0.000 F150.000
G3 X-31.255 Y-39.592 Z-1.625 I0.838 J-1.128 K0.000 F150.000
G1 X-31.255 Y-39.592 Z-1.750 F60.000
G2 X-31.001 Y-39.600 Z-1.750 I0.078 J-1.677 K0.000 F150.000
G3 X-31.125 Y-39.484 Z-1.750 I-18.039 J-19.252 K0.000 F150.000
G3 X-31.255 Y-39.592 Z-1.750 I0.838 J-1.128 K0.000 F150.000
G1 X-31.306 Y-39.536 Z-1.750 F60.000
G3 X-31.411 Y-39.641 Z-1.750 I1.288 J-1.408 K0.000 F150.000
G3 X-31.234 Y-39.666 Z-1.750 I0.124 J0.231 K0.000 F150.000
G2 X-30.957 Y-39.680 Z-1.750 I0.056 J-1.652 K0.000 F150.000
G3 X-30.840 Y-39.647 Z-1.750 I-0.014 J0.272 K0.000 F150.000
G3 X-31.090 Y-39.415 Z-1.750 I-36.141 J-38.578 K0.000 F150.000
G3 X-31.159 Y-39.415 Z-1.750 I-0.035 J-0.049 K0.000 F150.000
G3 X-31.306 Y-39.536 Z-1.750 I1.142 J-1.529 K0.000 F150.000
G1 X-31.306 Y-39.536 Z-1.875 F60.000
G3 X-31.411 Y-39.640 Z-1.875 I1.287 J-1.406 K0.000 F150.000
G3 X-31.232 Y-39.666 Z-1.875 I0.124 J0.232 K0.000 F150.000
G2 X-30.954 Y-39.678 Z-1.875 I0.066 J-1.620 K0.000 F150.000
G3 X-30.841 Y-39.646 Z-1.875 I-0.014 J0.267 K0.000 F150.000
G3 X-31.090 Y-39.415 Z-1.875 I-36.117 J-38.554 K0.000 F150.000
G3 X-31.159 Y-39.415 Z-1.875 I-0.035 J-0.049 K0.000 F150.000
G3 X-31.306 Y-39.536 Z-1.875 I1.140 J-1.528 K0.000 F150.000
G1 X-31.254 Y-39.592 Z-1.875 F60.000
G2 X-31.004 Y-39.597 Z-1.875 I0.090 J-1.652 K0.000 F150.000
G3 X-31.125 Y-39.484 Z-1.875 I-17.708 J-18.899 K0.000 F150.000
G3 X-31.254 Y-39.592 Z-1.875 I0.834 J-1.123 K0.000 F150.000
G1 X-31.254 Y-39.592 Z-2.000 F60.000
G2 X-31.004 Y-39.597 Z-2.000 I0.090 J-1.652 K0.000 F150.000
G3 X-31.125 Y-39.484 Z-2.000 I-17.708 J-18.899 K0.000 F150.000
G3 X-31.254 Y-39.592 Z-2.000 I0.834 J-1.123 K0.000 F150.000
G1 X-31.305 Y-39.536 Z-2.000 F60.000
G3 X-31.411 Y-39.640 Z-2.000 I1.286 J-1.407 K0.000 F150.000
G3 X-31.232 Y-39.666 Z-2.000 I0.124 J0.232 K0.000 F150.000
G2 X-30.954 Y-39.678 Z-2.000 I0.066 J-1.620 K0.000 F150.000
G3 X-30.841 Y-39.646 Z-2.000 I-0.014 J0.267 K0.000 F150.000
G3 X-31.090 Y-39.415 Z-2.000 I-36.117 J-38.554 K0.000 F150.000
G3 X-31.159 Y-39.415 Z-2.000 I-0.035 J-0.049 K0.000 F150.000
G3 X-31.305 Y-39.536 Z-2.000 I1.140 J-1.528 K0.000 F150.000
G0 Z5.000
G0 X-30.376 Y-40.087 Z5.000
G0 X-30.376 Y-40.087 Z3.000
G1 X-30.376 Y-40.087 Z-0.125 F60.000
G3 X-30.413 Y-40.401 Z-0.125 I0.331 J-0.198 K0.000 F150.000
G2 X-30.415 Y-40.514 Z-0.125 I-0.401 J-0.049 K0.000 F150.000
G3 X-30.381 Y-40.659 Z-0.125 I0.302 J-0.005 K0.000 F150.000
G1 X-30.231 Y-40.509 Z-0.125 F150.000
G2 X-30.153 Y-40.406 Z-0.125 I0.168 J-0.046 K0.000 F150.000
G3 X-30.153 Y-40.341 Z-0.125 I-0.045 J0.033 K0.000 F150.000
G3 X-30.376 Y-40.087 Z-0.125 I-1.320 J-0.935 K0.000 F150.000
G1 X-30.348 Y-40.221 Z-0.125 F60.000
G3 X-30.340 Y-40.385 Z-0.125 I0.307 J-0.066 K0.000 F150.000
G2 X-30.340 Y-40.512 Z-0.125 I-0.449 J-0.063 K0.000 F150.000
G3 X-30.266 Y-40.410 Z-0.125 I-0.127 J0.170 K0.000 F150.000
G2 X-30.227 Y-40.368 Z-0.125 I0.191 J-0.138 K0.000 F150.000
G3 X-30.348 Y-40.221 Z-0.125 I-1.096 J-0.783 K0.000 F150.000
G1 X-30.348 Y-40.221 Z-0.250 F60.000
G3 X-30.340 Y-40.385 Z-0.250 I0.307 J-0.066 K0.000 F150.000
G2 X-30.340 Y-40.512 Z-0.250 I-0.449 J-0.063 K0.000 F150.000
G3 X-30.266 Y-40.410 Z-0.250 I-0.127 J0.170 K0.000 F150.000
G2 X-30.227 Y-40.368 Z-0.250 I0.191 J-0.138 K0.000 F150.000
G3 X-30.348 Y-40.221 Z-0.250 I-1.096 J-0.783 K0.000 F150.000
G1 X-30.293 Y-40.169 Z-0.250 F60.000
G3 X-30.376 Y-40.087 Z-0.250 I-1.180 J-1.107 K0.000 F150.000
G3 X-30.413 Y-40.401 Z-0.250 I0.331 J-0.198 K0.000 F150.000
