(Exported by FreeCAD)
(Post Processor: script_module)
(Output Time:2024-09-28 18:05:21.396550)
(Begin preamble)
G17 G90
G21
(Begin operation: Fixture)
(Path: Fixture)
G54
(Finish operation: Fixture)
(Begin operation: TC: 1.5 z2 Q009)
(Path: TC: 1.5 z2 Q009)
(TC: 1.5 z2 Q009)
(Begin toolchange)
( M6 T4 )
M3 S24000
(Finish operation: TC: 1.5 z2 Q009)
(Begin operation: table)
(Path: table)
(table)
(Compensated Tool Path. Diameter: 1.48)
G0 Z5.000
G0 X126.306 Y110.027
G0 Z3.000
G1 X126.306 Y110.027 Z-0.740 F300.000
G2 X132.483 Y100.032 Z-0.740 I-65.694 J-47.506 K0.000 F2000.000
G2 X142.175 Y68.313 Z-0.740 I-84.743 J-43.234 K0.000 F2000.000
G2 X141.608 Y42.373 Z-0.740 I-89.262 J-11.025 K0.000 F2000.000
G2 X137.275 Y24.773 Z-0.740 I-135.669 J24.068 K0.000 F2000.000
G2 X131.048 Y6.961 Z-0.740 I-409.572 J133.201 K0.000 F2000.000
G3 X125.330 Y-9.651 Z-0.740 I272.689 J-103.152 K0.000 F2000.000
G3 X123.155 Y-17.890 Z-0.740 I97.114 J-30.047 K0.000 F2000.000
G3 X121.315 Y-30.309 Z-0.740 I81.533 J-18.425 K0.000 F2000.000
G3 X124.957 Y-57.379 Z-0.740 I68.911 J-4.508 K0.000 F2000.000
G3 X129.946 Y-68.946 Z-0.740 I81.500 J28.294 K0.000 F2000.000
G3 X140.223 Y-85.191 Z-0.740 I104.067 J54.463 K0.000 F2000.000
G2 X157.073 Y-112.871 Z-0.740 I-744.948 J-472.449 K0.000 F2000.000
G2 X167.165 Y-131.417 Z-0.740 I-301.692 J-176.180 K0.000 F2000.000
G2 X176.209 Y-151.251 Z-0.740 I-213.644 J-109.400 K0.000 F2000.000
G2 X182.338 Y-168.862 Z-0.740 I-174.907 J-70.745 K0.000 F2000.000
G2 X187.479 Y-194.879 Z-0.740 I-143.843 J-41.937 K0.000 F2000.000
G2 X181.900 Y-246.218 Z-0.740 I-123.175 J-12.588 K0.000 F2000.000
G2 X166.293 Y-279.120 Z-0.740 I-145.679 J48.951 K0.000 F2000.000
G2 X148.623 Y-300.141 Z-0.740 I-73.293 J43.671 K0.000 F2000.000
G2 X130.208 Y-312.779 Z-0.740 I-71.212 J84.024 K0.000 F2000.000
G2 X109.359 Y-322.055 Z-0.740 I-72.207 J134.235 K0.000 F2000.000
G2 X83.096 Y-329.488 Z-0.740 I-72.021 J204.352 K0.000 F2000.000
G2 X50.451 Y-334.667 Z-0.740 I-66.301 J312.458 K0.000 F2000.000
G2 X11.772 Y-337.052 Z-0.740 I-48.323 J468.793 K0.000 F2000.000
G2 X-35.456 Y-336.054 Z-0.740 I-12.462 J528.217 K0.000 F2000.000
G2 X-66.244 Y-332.734 Z-0.740 I22.302 J351.256 K0.000 F2000.000
G2 X-91.895 Y-327.557 Z-0.740 I37.253 J250.724 K0.000 F2000.000
G2 X-116.234 Y-319.579 Z-0.740 I43.417 J173.556 K0.000 F2000.000
G2 X-130.257 Y-312.912 Z-0.740 I48.643 J120.408 K0.000 F2000.000
G2 X-146.656 Y-301.921 Z-0.740 I53.565 J97.646 K0.000 F2000.000
G2 X-162.170 Y-285.425 Z-0.740 I54.628 J66.920 K0.000 F2000.000
G2 X-174.601 Y-264.113 Z-0.740 I135.392 J93.251 K0.000 F2000.000
G2 X-182.738 Y-243.538 Z-0.740 I122.762 J60.446 K0.000 F2000.000
G2 X-187.811 Y-198.059 Z-0.740 I118.631 J36.256 K0.000 F2000.000
G2 X-182.492 Y-168.994 Z-0.740 I146.996 J-11.881 K0.000 F2000.000
G2 X-173.100 Y-143.400 Z-0.740 I199.122 J-58.552 K0.000 F2000.000
G2 X-159.767 Y-116.960 Z-0.740 I305.430 J-137.434 K0.000 F2000.000
G2 X-141.102 Y-85.603 Z-0.740 I757.389 J-429.591 K0.000 F2000.000
G3 X-132.674 Y-73.122 Z-0.740 I-97.489 J74.926 K0.000 F2000.000
G3 X-125.095 Y-56.928 Z-0.740 I-74.293 J44.639 K0.000 F2000.000
G3 X-121.385 Y-30.157 Z-0.740 I-63.904 J22.499 K0.000 F2000.000
G3 X-123.189 Y-17.815 Z-0.740 I-82.020 J-5.690 K0.000 F2000.000
G3 X-126.856 Y-4.843 Z-0.740 I-124.638 J-28.232 K0.000 F2000.000
G3 X-131.911 Y9.337 Z-0.740 I-754.242 J-260.831 K0.000 F2000.000
G2 X-138.375 Y28.442 Z-0.740 I264.536 J100.150 K0.000 F2000.000
G2 X-141.598 Y42.438 Z-0.740 I111.565 J33.066 K0.000 F2000.000
G2 X-142.478 Y65.775 Z-0.740 I88.166 J15.008 K0.000 F2000.000
G2 X-135.643 Y93.194 Z-0.740 I97.581 J-9.763 K0.000 F2000.000
G2 X-116.420 Y121.326 Z-0.740 I74.805 J-30.483 K0.000 F2000.000
G2 X-97.290 Y135.197 Z-0.740 I65.651 J-70.412 K0.000 F2000.000
G2 X-78.033 Y143.719 Z-0.740 I61.580 J-113.125 K0.000 F2000.000
G2 X-53.990 Y150.106 Z-0.740 I57.522 J-168.097 K0.000 F2000.000
G2 X-24.373 Y153.902 Z-0.740 I47.452 J-252.784 K0.000 F2000.000
G2 X19.938 Y154.168 Z-0.740 I24.295 J-357.061 K0.000 F2000.000
G2 X46.360 Y151.428 Z-0.740 I-13.318 J-257.215 K0.000 F2000.000
G2 X71.787 Y145.736 Z-0.740 I-27.290 J-181.537 K0.000 F2000.000
G2 X94.870 Y136.473 Z-0.740 I-36.101 J-123.360 K0.000 F2000.000
G2 X110.647 Y126.310 Z-0.740 I-43.553 J-84.939 K0.000 F2000.000
G2 X126.306 Y110.027 Z-0.740 I-50.035 J-63.789 K0.000 F2000.000
G1 X126.306 Y110.027 Z-1.480 F300.000
G2 X132.483 Y100.032 Z-1.480 I-65.694 J-47.506 K0.000 F2000.000
G2 X142.175 Y68.313 Z-1.480 I-84.743 J-43.234 K0.000 F2000.000
G2 X141.608 Y42.373 Z-1.480 I-89.262 J-11.025 K0.000 F2000.000
G2 X137.275 Y24.773 Z-1.480 I-135.669 J24.068 K0.000 F2000.000
G2 X131.048 Y6.961 Z-1.480 I-409.572 J133.201 K0.000 F2000.000
G3 X125.330 Y-9.651 Z-1.480 I272.689 J-103.152 K0.000 F2000.000
G3 X123.155 Y-17.890 Z-1.480 I97.114 J-30.047 K0.000 F2000.000
G3 X121.315 Y-30.309 Z-1.480 I81.533 J-18.425 K0.000 F2000.000
G3 X124.957 Y-57.379 Z-1.480 I68.911 J-4.508 K0.000 F2000.000
G3 X129.946 Y-68.946 Z-1.480 I81.500 J28.294 K0.000 F2000.000
G3 X140.223 Y-85.191 Z-1.480 I104.067 J54.463 K0.000 F2000.000
G2 X157.073 Y-112.871 Z-1.480 I-744.948 J-472.449 K0.000 F2000.000
G2 X167.165 Y-131.417 Z-1.480 I-301.692 J-176.180 K0.000 F2000.000
G2 X176.209 Y-151.251 Z-1.480 I-213.644 J-109.400 K0.000 F2000.000
G2 X182.338 Y-168.862 Z-1.480 I-174.907 J-70.745 K0.000 F2000.000
G2 X187.479 Y-194.879 Z-1.480 I-143.843 J-41.937 K0.000 F2000.000
G2 X181.900 Y-246.218 Z-1.480 I-123.175 J-12.588 K0.000 F2000.000
G2 X166.293 Y-279.120 Z-1.480 I-145.679 J48.951 K0.000 F2000.000
G2 X148.623 Y-300.141 Z-1.480 I-73.293 J43.671 K0.000 F2000.000
G2 X130.208 Y-312.779 Z-1.480 I-71.212 J84.024 K0.000 F2000.000
G2 X109.359 Y-322.055 Z-1.480 I-72.207 J134.235 K0.000 F2000.000
G2 X83.096 Y-329.488 Z-1.480 I-72.021 J204.352 K0.000 F2000.000
G2 X50.451 Y-334.667 Z-1.480 I-66.301 J312.458 K0.000 F2000.000
G2 X11.772 Y-337.052 Z-1.480 I-48.323 J468.793 K0.000 F2000.000
G2 X-35.456 Y-336.054 Z-1.480 I-12.462 J528.217 K0.000 F2000.000
G2 X-66.244 Y-332.734 Z-1.480 I22.302 J351.256 K0.000 F2000.000
G2 X-91.895 Y-327.557 Z-1.480 I37.253 J250.724 K0.000 F2000.000
G2 X-116.234 Y-319.579 Z-1.480 I43.417 J173.556 K0.000 F2000.000
G2 X-130.257 Y-312.912 Z-1.480 I48.643 J120.408 K0.000 F2000.000
G2 X-146.656 Y-301.921 Z-1.480 I53.565 J97.646 K0.000 F2000.000
G2 X-162.170 Y-285.425 Z-1.480 I54.628 J66.920 K0.000 F2000.000
G2 X-174.601 Y-264.113 Z-1.480 I135.392 J93.251 K0.000 F2000.000
G2 X-182.738 Y-243.538 Z-1.480 I122.762 J60.446 K0.000 F2000.000
G2 X-187.811 Y-198.059 Z-1.480 I118.631 J36.256 K0.000 F2000.000
G2 X-182.492 Y-168.994 Z-1.480 I146.996 J-11.881 K0.000 F2000.000
G2 X-173.100 Y-143.400 Z-1.480 I199.122 J-58.552 K0.000 F2000.000
G2 X-159.767 Y-116.960 Z-1.480 I305.430 J-137.434 K0.000 F2000.000
G2 X-141.102 Y-85.603 Z-1.480 I757.389 J-429.591 K0.000 F2000.000
G3 X-132.674 Y-73.122 Z-1.480 I-97.489 J74.926 K0.000 F2000.000
G3 X-125.095 Y-56.928 Z-1.480 I-74.293 J44.639 K0.000 F2000.000
G3 X-121.385 Y-30.157 Z-1.480 I-63.904 J22.499 K0.000 F2000.000
G3 X-123.189 Y-17.815 Z-1.480 I-82.020 J-5.690 K0.000 F2000.000
G3 X-126.856 Y-4.843 Z-1.480 I-124.638 J-28.232 K0.000 F2000.000
G3 X-131.911 Y9.337 Z-1.480 I-754.242 J-260.831 K0.000 F2000.000
G2 X-138.375 Y28.442 Z-1.480 I264.536 J100.150 K0.000 F2000.000
G2 X-141.598 Y42.438 Z-1.480 I111.565 J33.066 K0.000 F2000.000
G2 X-142.478 Y65.775 Z-1.480 I88.166 J15.008 K0.000 F2000.000
G2 X-135.643 Y93.194 Z-1.480 I97.581 J-9.763 K0.000 F2000.000
G2 X-116.420 Y121.326 Z-1.480 I74.805 J-30.483 K0.000 F2000.000
G2 X-97.290 Y135.197 Z-1.480 I65.651 J-70.412 K0.000 F2000.000
G2 X-78.033 Y143.719 Z-1.480 I61.580 J-113.125 K0.000 F2000.000
G2 X-53.990 Y150.106 Z-1.480 I57.522 J-168.097 K0.000 F2000.000
G2 X-24.373 Y153.902 Z-1.480 I47.452 J-252.784 K0.000 F2000.000
G2 X19.938 Y154.168 Z-1.480 I24.295 J-357.061 K0.000 F2000.000
G2 X46.360 Y151.428 Z-1.480 I-13.318 J-257.215 K0.000 F2000.000
G2 X71.787 Y145.736 Z-1.480 I-27.290 J-181.537 K0.000 F2000.000
G2 X94.870 Y136.473 Z-1.480 I-36.101 J-123.360 K0.000 F2000.000
G2 X110.647 Y126.310 Z-1.480 I-43.553 J-84.939 K0.000 F2000.000
G2 X126.306 Y110.027 Z-1.480 I-50.035 J-63.789 K0.000 F2000.000
G1 X126.306 Y110.027 Z-2.220 F300.000
G2 X132.483 Y100.032 Z-2.220 I-65.694 J-47.506 K0.000 F2000.000
G2 X142.175 Y68.313 Z-2.220 I-84.743 J-43.234 K0.000 F2000.000
G2 X141.608 Y42.373 Z-2.220 I-89.262 J-11.025 K0.000 F2000.000
G2 X137.275 Y24.773 Z-2.220 I-135.669 J24.068 K0.000 F2000.000
G2 X131.048 Y6.961 Z-2.220 I-409.572 J133.201 K0.000 F2000.000
G3 X125.330 Y-9.651 Z-2.220 I272.689 J-103.152 K0.000 F2000.000
G3 X123.155 Y-17.890 Z-2.220 I97.114 J-30.047 K0.000 F2000.000
G3 X121.315 Y-30.309 Z-2.220 I81.533 J-18.425 K0.000 F2000.000
G3 X124.957 Y-57.379 Z-2.220 I68.911 J-4.508 K0.000 F2000.000
G3 X129.946 Y-68.946 Z-2.220 I81.500 J28.294 K0.000 F2000.000
G3 X140.223 Y-85.191 Z-2.220 I104.067 J54.463 K0.000 F2000.000
G2 X157.073 Y-112.871 Z-2.220 I-744.948 J-472.449 K0.000 F2000.000
G2 X167.165 Y-131.417 Z-2.220 I-301.692 J-176.180 K0.000 F2000.000
G2 X176.209 Y-151.251 Z-2.220 I-213.644 J-109.400 K0.000 F2000.000
G2 X182.338 Y-168.862 Z-2.220 I-174.907 J-70.745 K0.000 F2000.000
G2 X187.479 Y-194.879 Z-2.220 I-143.843 J-41.937 K0.000 F2000.000
G2 X181.900 Y-246.218 Z-2.220 I-123.175 J-12.588 K0.000 F2000.000
G2 X166.293 Y-279.120 Z-2.220 I-145.679 J48.951 K0.000 F2000.000
G2 X148.623 Y-300.141 Z-2.220 I-73.293 J43.671 K0.000 F2000.000
G2 X130.208 Y-312.779 Z-2.220 I-71.212 J84.024 K0.000 F2000.000
G2 X109.359 Y-322.055 Z-2.220 I-72.207 J134.235 K0.000 F2000.000
G2 X83.096 Y-329.488 Z-2.220 I-72.021 J204.352 K0.000 F2000.000
G2 X50.451 Y-334.667 Z-2.220 I-66.301 J312.458 K0.000 F2000.000
G2 X11.772 Y-337.052 Z-2.220 I-48.323 J468.793 K0.000 F2000.000
G2 X-35.456 Y-336.054 Z-2.220 I-12.462 J528.217 K0.000 F2000.000
G2 X-66.244 Y-332.734 Z-2.220 I22.302 J351.256 K0.000 F2000.000
G2 X-91.895 Y-327.557 Z-2.220 I37.253 J250.724 K0.000 F2000.000
G2 X-116.234 Y-319.579 Z-2.220 I43.417 J173.556 K0.000 F2000.000
G2 X-130.257 Y-312.912 Z-2.220 I48.643 J120.408 K0.000 F2000.000
G2 X-146.656 Y-301.921 Z-2.220 I53.565 J97.646 K0.000 F2000.000
G2 X-162.170 Y-285.425 Z-2.220 I54.628 J66.920 K0.000 F2000.000
G2 X-174.601 Y-264.113 Z-2.220 I135.392 J93.251 K0.000 F2000.000
G2 X-182.738 Y-243.538 Z-2.220 I122.762 J60.446 K0.000 F2000.000
G2 X-187.811 Y-198.059 Z-2.220 I118.631 J36.256 K0.000 F2000.000
G2 X-182.492 Y-168.994 Z-2.220 I146.996 J-11.881 K0.000 F2000.000
G2 X-173.100 Y-143.400 Z-2.220 I199.122 J-58.552 K0.000 F2000.000
G2 X-159.767 Y-116.960 Z-2.220 I305.430 J-137.434 K0.000 F2000.000
G2 X-141.102 Y-85.603 Z-2.220 I757.389 J-429.591 K0.000 F2000.000
G3 X-132.674 Y-73.122 Z-2.220 I-97.489 J74.926 K0.000 F2000.000
G3 X-125.095 Y-56.928 Z-2.220 I-74.293 J44.639 K0.000 F2000.000
G3 X-121.385 Y-30.157 Z-2.220 I-63.904 J22.499 K0.000 F2000.000
G3 X-123.189 Y-17.815 Z-2.220 I-82.020 J-5.690 K0.000 F2000.000
G3 X-126.856 Y-4.843 Z-2.220 I-124.638 J-28.232 K0.000 F2000.000
G3 X-131.911 Y9.337 Z-2.220 I-754.242 J-260.831 K0.000 F2000.000
G2 X-138.375 Y28.442 Z-2.220 I264.536 J100.150 K0.000 F2000.000
G2 X-141.598 Y42.438 Z-2.220 I111.565 J33.066 K0.000 F2000.000
G2 X-142.478 Y65.775 Z-2.220 I88.166 J15.008 K0.000 F2000.000
G2 X-135.643 Y93.194 Z-2.220 I97.581 J-9.763 K0.000 F2000.000
G2 X-116.420 Y121.326 Z-2.220 I74.805 J-30.483 K0.000 F2000.000
G2 X-97.290 Y135.197 Z-2.220 I65.651 J-70.412 K0.000 F2000.000
G2 X-78.033 Y143.719 Z-2.220 I61.580 J-113.125 K0.000 F2000.000
G2 X-53.990 Y150.106 Z-2.220 I57.522 J-168.097 K0.000 F2000.000
G2 X-24.373 Y153.902 Z-2.220 I47.452 J-252.784 K0.000 F2000.000
G2 X19.938 Y154.168 Z-2.220 I24.295 J-357.061 K0.000 F2000.000
G2 X46.360 Y151.428 Z-2.220 I-13.318 J-257.215 K0.000 F2000.000
G2 X71.787 Y145.736 Z-2.220 I-27.290 J-181.537 K0.000 F2000.000
G2 X94.870 Y136.473 Z-2.220 I-36.101 J-123.360 K0.000 F2000.000
G2 X110.647 Y126.310 Z-2.220 I-43.553 J-84.939 K0.000 F2000.000
G2 X126.306 Y110.027 Z-2.220 I-50.035 J-63.789 K0.000 F2000.000
G1 X126.306 Y110.027 Z-2.960 F300.000
G2 X132.483 Y100.032 Z-2.960 I-65.694 J-47.506 K0.000 F2000.000
G2 X142.175 Y68.313 Z-2.960 I-84.743 J-43.234 K0.000 F2000.000
G2 X141.608 Y42.373 Z-2.960 I-89.262 J-11.025 K0.000 F2000.000
G2 X137.275 Y24.773 Z-2.960 I-135.669 J24.068 K0.000 F2000.000
G2 X131.048 Y6.961 Z-2.960 I-409.572 J133.201 K0.000 F2000.000
G3 X125.330 Y-9.651 Z-2.960 I272.689 J-103.152 K0.000 F2000.000
G3 X123.155 Y-17.890 Z-2.960 I97.114 J-30.047 K0.000 F2000.000
G3 X121.315 Y-30.309 Z-2.960 I81.533 J-18.425 K0.000 F2000.000
G3 X124.957 Y-57.379 Z-2.960 I68.911 J-4.508 K0.000 F2000.000
G3 X129.946 Y-68.946 Z-2.960 I81.500 J28.294 K0.000 F2000.000
G3 X140.223 Y-85.191 Z-2.960 I104.067 J54.463 K0.000 F2000.000
G2 X157.073 Y-112.871 Z-2.960 I-744.948 J-472.449 K0.000 F2000.000
G2 X167.165 Y-131.417 Z-2.960 I-301.692 J-176.180 K0.000 F2000.000
G2 X176.209 Y-151.251 Z-2.960 I-213.644 J-109.400 K0.000 F2000.000
G2 X182.338 Y-168.862 Z-2.960 I-174.907 J-70.745 K0.000 F2000.000
G2 X187.479 Y-194.879 Z-2.960 I-143.843 J-41.937 K0.000 F2000.000
G2 X181.900 Y-246.218 Z-2.960 I-123.175 J-12.588 K0.000 F2000.000
G2 X166.293 Y-279.120 Z-2.960 I-145.679 J48.951 K0.000 F2000.000
G2 X148.623 Y-300.141 Z-2.960 I-73.293 J43.671 K0.000 F2000.000
G2 X130.208 Y-312.779 Z-2.960 I-71.212 J84.024 K0.000 F2000.000
G2 X109.359 Y-322.055 Z-2.960 I-72.207 J134.235 K0.000 F2000.000
G2 X83.096 Y-329.488 Z-2.960 I-72.021 J204.352 K0.000 F2000.000
G2 X50.451 Y-334.667 Z-2.960 I-66.301 J312.458 K0.000 F2000.000
G2 X11.772 Y-337.052 Z-2.960 I-48.323 J468.793 K0.000 F2000.000
G2 X-35.456 Y-336.054 Z-2.960 I-12.462 J528.217 K0.000 F2000.000
G2 X-66.244 Y-332.734 Z-2.960 I22.302 J351.256 K0.000 F2000.000
G2 X-91.895 Y-327.557 Z-2.960 I37.253 J250.724 K0.000 F2000.000
G2 X-116.234 Y-319.579 Z-2.960 I43.417 J173.556 K0.000 F2000.000
G2 X-130.257 Y-312.912 Z-2.960 I48.643 J120.408 K0.000 F2000.000
G2 X-146.656 Y-301.921 Z-2.960 I53.565 J97.646 K0.000 F2000.000
G2 X-162.170 Y-285.425 Z-2.960 I54.628 J66.920 K0.000 F2000.000
G2 X-174.601 Y-264.113 Z-2.960 I135.392 J93.251 K0.000 F2000.000
G2 X-182.738 Y-243.538 Z-2.960 I122.762 J60.446 K0.000 F2000.000
G2 X-187.811 Y-198.059 Z-2.960 I118.631 J36.256 K0.000 F2000.000
G2 X-182.492 Y-168.994 Z-2.960 I146.996 J-11.881 K0.000 F2000.000
G2 X-173.100 Y-143.400 Z-2.960 I199.122 J-58.552 K0.000 F2000.000
G2 X-159.767 Y-116.960 Z-2.960 I305.430 J-137.434 K0.000 F2000.000
G2 X-141.102 Y-85.603 Z-2.960 I757.389 J-429.591 K0.000 F2000.000
G3 X-132.674 Y-73.122 Z-2.960 I-97.489 J74.926 K0.000 F2000.000
G3 X-125.095 Y-56.928 Z-2.960 I-74.293 J44.639 K0.000 F2000.000
G3 X-121.385 Y-30.157 Z-2.960 I-63.904 J22.499 K0.000 F2000.000
G3 X-123.189 Y-17.815 Z-2.960 I-82.020 J-5.690 K0.000 F2000.000
G3 X-126.856 Y-4.843 Z-2.960 I-124.638 J-28.232 K0.000 F2000.000
G3 X-131.911 Y9.337 Z-2.960 I-754.242 J-260.831 K0.000 F2000.000
G2 X-138.375 Y28.442 Z-2.960 I264.536 J100.150 K0.000 F2000.000
G2 X-141.598 Y42.438 Z-2.960 I111.565 J33.066 K0.000 F2000.000
G2 X-142.478 Y65.775 Z-2.960 I88.166 J15.008 K0.000 F2000.000
G2 X-135.643 Y93.194 Z-2.960 I97.581 J-9.763 K0.000 F2000.000
G2 X-116.420 Y121.326 Z-2.960 I74.805 J-30.483 K0.000 F2000.000
G2 X-97.290 Y135.197 Z-2.960 I65.651 J-70.412 K0.000 F2000.000
G2 X-78.033 Y143.719 Z-2.960 I61.580 J-113.125 K0.000 F2000.000
G2 X-53.990 Y150.106 Z-2.960 I57.522 J-168.097 K0.000 F2000.000
G2 X-24.373 Y153.902 Z-2.960 I47.452 J-252.784 K0.000 F2000.000
G2 X19.938 Y154.168 Z-2.960 I24.295 J-357.061 K0.000 F2000.000
G2 X46.360 Y151.428 Z-2.960 I-13.318 J-257.215 K0.000 F2000.000
G2 X71.787 Y145.736 Z-2.960 I-27.290 J-181.537 K0.000 F2000.000
G2 X94.870 Y136.473 Z-2.960 I-36.101 J-123.360 K0.000 F2000.000
G2 X110.647 Y126.310 Z-2.960 I-43.553 J-84.939 K0.000 F2000.000
G2 X126.306 Y110.027 Z-2.960 I-50.035 J-63.789 K0.000 F2000.000
G1 X126.306 Y110.027 Z-3.700 F300.000
G2 X132.483 Y100.032 Z-3.700 I-65.694 J-47.506 K0.000 F2000.000
G2 X142.175 Y68.313 Z-3.700 I-84.743 J-43.234 K0.000 F2000.000
G2 X141.608 Y42.373 Z-3.700 I-89.262 J-11.025 K0.000 F2000.000
G2 X137.275 Y24.773 Z-3.700 I-135.669 J24.068 K0.000 F2000.000
G2 X131.048 Y6.961 Z-3.700 I-409.572 J133.201 K0.000 F2000.000
G3 X125.330 Y-9.651 Z-3.700 I272.689 J-103.152 K0.000 F2000.000
G3 X123.155 Y-17.890 Z-3.700 I97.114 J-30.047 K0.000 F2000.000
G3 X121.315 Y-30.309 Z-3.700 I81.533 J-18.425 K0.000 F2000.000
G3 X124.957 Y-57.379 Z-3.700 I68.911 J-4.508 K0.000 F2000.000
G3 X129.946 Y-68.946 Z-3.700 I81.500 J28.294 K0.000 F2000.000
G3 X140.223 Y-85.191 Z-3.700 I104.067 J54.463 K0.000 F2000.000
G2 X157.073 Y-112.871 Z-3.700 I-744.948 J-472.449 K0.000 F2000.000
G2 X167.165 Y-131.417 Z-3.700 I-301.692 J-176.180 K0.000 F2000.000
G2 X176.209 Y-151.251 Z-3.700 I-213.644 J-109.400 K0.000 F2000.000
G2 X182.338 Y-168.862 Z-3.700 I-174.907 J-70.745 K0.000 F2000.000
G2 X187.479 Y-194.879 Z-3.700 I-143.843 J-41.937 K0.000 F2000.000
G2 X181.900 Y-246.218 Z-3.700 I-123.175 J-12.588 K0.000 F2000.000
G2 X166.293 Y-279.120 Z-3.700 I-145.679 J48.951 K0.000 F2000.000
G2 X148.623 Y-300.141 Z-3.700 I-73.293 J43.671 K0.000 F2000.000
G2 X130.208 Y-312.779 Z-3.700 I-71.212 J84.024 K0.000 F2000.000
G2 X109.359 Y-322.055 Z-3.700 I-72.207 J134.235 K0.000 F2000.000
G2 X83.096 Y-329.488 Z-3.700 I-72.021 J204.352 K0.000 F2000.000
G2 X50.451 Y-334.667 Z-3.700 I-66.301 J312.458 K0.000 F2000.000
G2 X11.772 Y-337.052 Z-3.700 I-48.323 J468.793 K0.000 F2000.000
G2 X-35.456 Y-336.054 Z-3.700 I-12.462 J528.217 K0.000 F2000.000
G2 X-66.244 Y-332.734 Z-3.700 I22.302 J351.256 K0.000 F2000.000
G2 X-91.895 Y-327.557 Z-3.700 I37.253 J250.724 K0.000 F2000.000
G2 X-116.234 Y-319.579 Z-3.700 I43.417 J173.556 K0.000 F2000.000
G2 X-130.257 Y-312.912 Z-3.700 I48.643 J120.408 K0.000 F2000.000
G2 X-146.656 Y-301.921 Z-3.700 I53.565 J97.646 K0.000 F2000.000
G2 X-162.170 Y-285.425 Z-3.700 I54.628 J66.920 K0.000 F2000.000
G2 X-174.601 Y-264.113 Z-3.700 I135.392 J93.251 K0.000 F2000.000
G2 X-182.738 Y-243.538 Z-3.700 I122.762 J60.446 K0.000 F2000.000
G2 X-187.811 Y-198.059 Z-3.700 I118.631 J36.256 K0.000 F2000.000
G2 X-182.492 Y-168.994 Z-3.700 I146.996 J-11.881 K0.000 F2000.000
G2 X-173.100 Y-143.400 Z-3.700 I199.122 J-58.552 K0.000 F2000.000
G2 X-159.767 Y-116.960 Z-3.700 I305.430 J-137.434 K0.000 F2000.000
G2 X-141.102 Y-85.603 Z-3.700 I757.389 J-429.591 K0.000 F2000.000
G3 X-132.674 Y-73.122 Z-3.700 I-97.489 J74.926 K0.000 F2000.000
G3 X-125.095 Y-56.928 Z-3.700 I-74.293 J44.639 K0.000 F2000.000
G3 X-121.385 Y-30.157 Z-3.700 I-63.904 J22.499 K0.000 F2000.000
G3 X-123.189 Y-17.815 Z-3.700 I-82.020 J-5.690 K0.000 F2000.000
G3 X-126.856 Y-4.843 Z-3.700 I-124.638 J-28.232 K0.000 F2000.000
G3 X-131.911 Y9.337 Z-3.700 I-754.242 J-260.831 K0.000 F2000.000
G2 X-138.375 Y28.442 Z-3.700 I264.536 J100.150 K0.000 F2000.000
G2 X-141.598 Y42.438 Z-3.700 I111.565 J33.066 K0.000 F2000.000
G2 X-142.478 Y65.775 Z-3.700 I88.166 J15.008 K0.000 F2000.000
G2 X-135.643 Y93.194 Z-3.700 I97.581 J-9.763 K0.000 F2000.000
G2 X-116.420 Y121.326 Z-3.700 I74.805 J-30.483 K0.000 F2000.000
G2 X-97.290 Y135.197 Z-3.700 I65.651 J-70.412 K0.000 F2000.000
G2 X-78.033 Y143.719 Z-3.700 I61.580 J-113.125 K0.000 F2000.000
G2 X-53.990 Y150.106 Z-3.700 I57.522 J-168.097 K0.000 F2000.000
G2 X-24.373 Y153.902 Z-3.700 I47.452 J-252.784 K0.000 F2000.000
G2 X19.938 Y154.168 Z-3.700 I24.295 J-357.061 K0.000 F2000.000
G2 X46.360 Y151.428 Z-3.700 I-13.318 J-257.215 K0.000 F2000.000
G2 X71.787 Y145.736 Z-3.700 I-27.290 J-181.537 K0.000 F2000.000
G2 X94.870 Y136.473 Z-3.700 I-36.101 J-123.360 K0.000 F2000.000
G2 X110.647 Y126.310 Z-3.700 I-43.553 J-84.939 K0.000 F2000.000
G2 X126.306 Y110.027 Z-3.700 I-50.035 J-63.789 K0.000 F2000.000
G1 X126.306 Y110.027 Z-4.000 F300.000
G2 X132.483 Y100.032 Z-4.000 I-65.694 J-47.506 K0.000 F2000.000
G2 X142.175 Y68.313 Z-4.000 I-84.743 J-43.234 K0.000 F2000.000
G2 X141.608 Y42.373 Z-4.000 I-89.262 J-11.025 K0.000 F2000.000
G2 X137.275 Y24.773 Z-4.000 I-135.669 J24.068 K0.000 F2000.000
G2 X131.048 Y6.961 Z-4.000 I-409.572 J133.201 K0.000 F2000.000
G3 X125.330 Y-9.651 Z-4.000 I272.689 J-103.152 K0.000 F2000.000
G3 X123.155 Y-17.890 Z-4.000 I97.114 J-30.047 K0.000 F2000.000
G3 X121.315 Y-30.309 Z-4.000 I81.533 J-18.425 K0.000 F2000.000
G3 X124.957 Y-57.379 Z-4.000 I68.911 J-4.508 K0.000 F2000.000
G3 X129.946 Y-68.946 Z-4.000 I81.500 J28.294 K0.000 F2000.000
G3 X140.223 Y-85.191 Z-4.000 I104.067 J54.463 K0.000 F2000.000
G2 X157.073 Y-112.871 Z-4.000 I-744.948 J-472.449 K0.000 F2000.000
G2 X167.165 Y-131.417 Z-4.000 I-301.692 J-176.180 K0.000 F2000.000
G2 X176.209 Y-151.251 Z-4.000 I-213.644 J-109.400 K0.000 F2000.000
G2 X182.338 Y-168.862 Z-4.000 I-174.907 J-70.745 K0.000 F2000.000
G2 X187.479 Y-194.879 Z-4.000 I-143.843 J-41.937 K0.000 F2000.000
G2 X181.900 Y-246.218 Z-4.000 I-123.175 J-12.588 K0.000 F2000.000
G2 X166.293 Y-279.120 Z-4.000 I-145.679 J48.951 K0.000 F2000.000
G2 X148.623 Y-300.141 Z-4.000 I-73.293 J43.671 K0.000 F2000.000
G2 X130.208 Y-312.779 Z-4.000 I-71.212 J84.024 K0.000 F2000.000
G2 X109.359 Y-322.055 Z-4.000 I-72.207 J134.235 K0.000 F2000.000
G2 X83.096 Y-329.488 Z-4.000 I-72.021 J204.352 K0.000 F2000.000
G2 X50.451 Y-334.667 Z-4.000 I-66.301 J312.458 K0.000 F2000.000
G2 X11.772 Y-337.052 Z-4.000 I-48.323 J468.793 K0.000 F2000.000
G2 X-35.456 Y-336.054 Z-4.000 I-12.462 J528.217 K0.000 F2000.000
G2 X-66.244 Y-332.734 Z-4.000 I22.302 J351.256 K0.000 F2000.000
G2 X-91.895 Y-327.557 Z-4.000 I37.253 J250.724 K0.000 F2000.000
G2 X-116.234 Y-319.579 Z-4.000 I43.417 J173.556 K0.000 F2000.000
G2 X-130.257 Y-312.912 Z-4.000 I48.643 J120.408 K0.000 F2000.000
G2 X-146.656 Y-301.921 Z-4.000 I53.565 J97.646 K0.000 F2000.000
G2 X-162.170 Y-285.425 Z-4.000 I54.628 J66.920 K0.000 F2000.000
G2 X-174.601 Y-264.113 Z-4.000 I135.392 J93.251 K0.000 F2000.000
G2 X-182.738 Y-243.538 Z-4.000 I122.762 J60.446 K0.000 F2000.000
G2 X-187.811 Y-198.059 Z-4.000 I118.631 J36.256 K0.000 F2000.000
G2 X-182.492 Y-168.994 Z-4.000 I146.996 J-11.881 K0.000 F2000.000
G2 X-173.100 Y-143.400 Z-4.000 I199.122 J-58.552 K0.000 F2000.000
G2 X-159.767 Y-116.960 Z-4.000 I305.430 J-137.434 K0.000 F2000.000
G2 X-141.102 Y-85.603 Z-4.000 I757.389 J-429.591 K0.000 F2000.000
G3 X-132.674 Y-73.122 Z-4.000 I-97.489 J74.926 K0.000 F2000.000
G3 X-125.095 Y-56.928 Z-4.000 I-74.293 J44.639 K0.000 F2000.000
G3 X-121.385 Y-30.157 Z-4.000 I-63.904 J22.499 K0.000 F2000.000
G3 X-123.189 Y-17.815 Z-4.000 I-82.020 J-5.690 K0.000 F2000.000
G3 X-126.856 Y-4.843 Z-4.000 I-124.638 J-28.232 K0.000 F2000.000
G3 X-131.911 Y9.337 Z-4.000 I-754.242 J-260.831 K0.000 F2000.000
G2 X-138.375 Y28.442 Z-4.000 I264.536 J100.150 K0.000 F2000.000
G2 X-141.598 Y42.438 Z-4.000 I111.565 J33.066 K0.000 F2000.000
G2 X-142.478 Y65.775 Z-4.000 I88.166 J15.008 K0.000 F2000.000
G2 X-135.643 Y93.194 Z-4.000 I97.581 J-9.763 K0.000 F2000.000
G2 X-116.420 Y121.326 Z-4.000 I74.805 J-30.483 K0.000 F2000.000
G2 X-97.290 Y135.197 Z-4.000 I65.651 J-70.412 K0.000 F2000.000
G2 X-78.033 Y143.719 Z-4.000 I61.580 J-113.125 K0.000 F2000.000
G2 X-53.990 Y150.106 Z-4.000 I57.522 J-168.097 K0.000 F2000.000
G2 X-24.373 Y153.902 Z-4.000 I47.452 J-252.784 K0.000 F2000.000
G2 X19.938 Y154.168 Z-4.000 I24.295 J-357.061 K0.000 F2000.000
G2 X46.360 Y151.428 Z-4.000 I-13.318 J-257.215 K0.000 F2000.000
G2 X71.787 Y145.736 Z-4.000 I-27.290 J-181.537 K0.000 F2000.000
G2 X94.870 Y136.473 Z-4.000 I-36.101 J-123.360 K0.000 F2000.000
G2 X110.647 Y126.310 Z-4.000 I-43.553 J-84.939 K0.000 F2000.000
G2 X126.306 Y110.027 Z-4.000 I-50.035 J-63.789 K0.000 F2000.000
G0 Z5.000
G0 Z5.000
(Finish operation: table)
(Begin postamble)
M5
G17 G90
M2
