(Exported by FreeCAD)
(Post Processor: script_module)
(Output Time:2024-09-28 21:01:12.601084)
(Begin preamble)
G17 G90
G21
(Begin operation: 1.5 contours)
(Path: 1.5 contours)
(1.5 contours)
(Begin toolchange)
( M6 T3 )
M3 S24000
(Finish operation: 1.5 contours)
(Begin operation: Fixture)
(Path: Fixture)
G54
(Finish operation: Fixture)
(Begin operation: Pocket_Shape004)
(Path: Pocket_Shape004)
(Pocket_Shape004)
G0 Z9.000
G0 X32.704 Y32.704
G0 Z7.000
G1 X32.704 Y32.704 Z3.250 F800.000
G3 X-4.709 Y46.009 Z3.250 I-32.704 J-32.704 K0.000 F2500.000
G3 X-46.009 Y-4.709 Z3.250 I4.709 J-46.009 K0.000 F2500.000
G3 X4.709 Y-46.009 Z3.250 I46.009 J4.709 K0.000 F2500.000
G3 X32.704 Y32.704 Z3.250 I-4.709 J46.009 K0.000 F2500.000
G1 X32.279 Y32.279 Z3.250 F800.000
G3 X-4.648 Y45.412 Z3.250 I-32.279 J-32.279 K0.000 F2500.000
G3 X-45.412 Y-4.648 Z3.250 I4.648 J-45.412 K0.000 F2500.000
G3 X4.648 Y-45.412 Z3.250 I45.412 J4.648 K0.000 F2500.000
G3 X32.279 Y32.279 Z3.250 I-4.648 J45.412 K0.000 F2500.000
G1 X32.067 Y32.067 Z3.250 F800.000
G3 X3.874 Y45.184 Z3.250 I-32.067 J-32.067 K0.000 F2500.000
G3 X-3.874 Y-45.184 Z3.250 I-3.874 J-45.184 K0.000 F2500.000
G3 X32.067 Y32.067 Z3.250 I3.874 J45.184 K0.000 F2500.000
G1 X31.643 Y31.643 Z3.250 F800.000
G3 X3.811 Y44.587 Z3.250 I-31.643 J-31.643 K0.000 F2500.000
G3 X-3.811 Y-44.587 Z3.250 I-3.811 J-44.587 K0.000 F2500.000
G3 X31.643 Y31.643 Z3.250 I3.811 J44.587 K0.000 F2500.000
G1 X31.643 Y31.643 Z2.500 F800.000
G3 X3.811 Y44.587 Z2.500 I-31.643 J-31.643 K0.000 F2500.000
G3 X-3.811 Y-44.587 Z2.500 I-3.811 J-44.587 K0.000 F2500.000
G3 X31.643 Y31.643 Z2.500 I3.811 J44.587 K0.000 F2500.000
G1 X32.067 Y32.067 Z2.500 F800.000
G3 X3.874 Y45.184 Z2.500 I-32.067 J-32.067 K0.000 F2500.000
G3 X-3.874 Y-45.184 Z2.500 I-3.874 J-45.184 K0.000 F2500.000
G3 X32.067 Y32.067 Z2.500 I3.874 J45.184 K0.000 F2500.000
G1 X32.279 Y32.279 Z2.500 F800.000
G3 X-4.648 Y45.412 Z2.500 I-32.279 J-32.279 K0.000 F2500.000
G3 X-45.412 Y-4.648 Z2.500 I4.648 J-45.412 K0.000 F2500.000
G3 X4.648 Y-45.412 Z2.500 I45.412 J4.648 K0.000 F2500.000
G3 X32.279 Y32.279 Z2.500 I-4.648 J45.412 K0.000 F2500.000
G1 X32.704 Y32.704 Z2.500 F800.000
G3 X-4.709 Y46.009 Z2.500 I-32.704 J-32.704 K0.000 F2500.000
G3 X-46.009 Y-4.709 Z2.500 I4.709 J-46.009 K0.000 F2500.000
G3 X4.709 Y-46.009 Z2.500 I46.009 J4.709 K0.000 F2500.000
G3 X32.704 Y32.704 Z2.500 I-4.709 J46.009 K0.000 F2500.000
G1 X32.704 Y32.704 Z2.000 F800.000
G3 X-4.709 Y46.009 Z2.000 I-32.704 J-32.704 K0.000 F2500.000
G3 X-46.009 Y-4.709 Z2.000 I4.709 J-46.009 K0.000 F2500.000
G3 X4.709 Y-46.009 Z2.000 I46.009 J4.709 K0.000 F2500.000
G3 X32.704 Y32.704 Z2.000 I-4.709 J46.009 K0.000 F2500.000
G1 X32.279 Y32.279 Z2.000 F800.000
G3 X-4.648 Y45.412 Z2.000 I-32.279 J-32.279 K0.000 F2500.000
G3 X-45.412 Y-4.648 Z2.000 I4.648 J-45.412 K0.000 F2500.000
G3 X4.648 Y-45.412 Z2.000 I45.412 J4.648 K0.000 F2500.000
G3 X32.279 Y32.279 Z2.000 I-4.648 J45.412 K0.000 F2500.000
G1 X32.067 Y32.067 Z2.000 F800.000
G3 X3.874 Y45.184 Z2.000 I-32.067 J-32.067 K0.000 F2500.000
G3 X-3.874 Y-45.184 Z2.000 I-3.874 J-45.184 K0.000 F2500.000
G3 X32.067 Y32.067 Z2.000 I3.874 J45.184 K0.000 F2500.000
G1 X31.643 Y31.643 Z2.000 F800.000
G3 X3.811 Y44.587 Z2.000 I-31.643 J-31.643 K0.000 F2500.000
G3 X-3.811 Y-44.587 Z2.000 I-3.811 J-44.587 K0.000 F2500.000
G3 X31.643 Y31.643 Z2.000 I3.811 J44.587 K0.000 F2500.000
G0 Z9.000
G0 X31.643 Y31.643
G0 X49.674 Y49.674
G0 X49.674 Y49.674 Z7.000
G1 X49.674 Y49.674 Z3.250 F800.000
G3 X3.571 Y70.159 Z3.250 I-49.674 J-49.674 K0.000 F2500.000
G3 X-70.159 Y3.571 Z3.250 I-3.571 J-70.159 K0.000 F2500.000
G3 X-3.571 Y-70.159 Z3.250 I70.159 J-3.571 K0.000 F2500.000
G3 X49.674 Y49.674 Z3.250 I3.571 J70.159 K0.000 F2500.000
G1 X50.098 Y50.098 Z3.250 F800.000
G3 X3.611 Y70.758 Z3.250 I-50.098 J-50.098 K0.000 F2500.000
G3 X-70.758 Y3.611 Z3.250 I-3.611 J-70.758 K0.000 F2500.000
G3 X-3.611 Y-70.758 Z3.250 I70.758 J-3.611 K0.000 F2500.000
G3 X50.098 Y50.098 Z3.250 I3.611 J70.758 K0.000 F2500.000
G1 X50.381 Y50.381 Z3.250 F800.000
G3 X-5.884 Y71.006 Z3.250 I-50.381 J-50.381 K0.000 F2500.000
G3 X5.884 Y-71.006 Z3.250 I5.884 J-71.006 K0.000 F2500.000
G3 X50.381 Y50.381 Z3.250 I-5.884 J71.006 K0.000 F2500.000
G1 X50.806 Y50.806 Z3.250 F800.000
G3 X-5.933 Y71.604 Z3.250 I-50.806 J-50.806 K0.000 F2500.000
G3 X5.933 Y-71.604 Z3.250 I5.933 J-71.604 K0.000 F2500.000
G3 X50.806 Y50.806 Z3.250 I-5.933 J71.604 K0.000 F2500.000
G1 X50.806 Y50.806 Z2.500 F800.000
G3 X-5.933 Y71.604 Z2.500 I-50.806 J-50.806 K0.000 F2500.000
G3 X5.933 Y-71.604 Z2.500 I5.933 J-71.604 K0.000 F2500.000
G3 X50.806 Y50.806 Z2.500 I-5.933 J71.604 K0.000 F2500.000
G1 X50.381 Y50.381 Z2.500 F800.000
G3 X-5.884 Y71.006 Z2.500 I-50.381 J-50.381 K0.000 F2500.000
G3 X5.884 Y-71.006 Z2.500 I5.884 J-71.006 K0.000 F2500.000
G3 X50.381 Y50.381 Z2.500 I-5.884 J71.006 K0.000 F2500.000
G1 X50.098 Y50.098 Z2.500 F800.000
G3 X3.611 Y70.758 Z2.500 I-50.098 J-50.098 K0.000 F2500.000
G3 X-70.758 Y3.611 Z2.500 I-3.611 J-70.758 K0.000 F2500.000
G3 X-3.611 Y-70.758 Z2.500 I70.758 J-3.611 K0.000 F2500.000
G3 X50.098 Y50.098 Z2.500 I3.611 J70.758 K0.000 F2500.000
G1 X49.674 Y49.674 Z2.500 F800.000
G3 X3.571 Y70.159 Z2.500 I-49.674 J-49.674 K0.000 F2500.000
G3 X-70.159 Y3.571 Z2.500 I-3.571 J-70.159 K0.000 F2500.000
G3 X-3.571 Y-70.159 Z2.500 I70.159 J-3.571 K0.000 F2500.000
G3 X49.674 Y49.674 Z2.500 I3.571 J70.159 K0.000 F2500.000
G1 X49.674 Y49.674 Z2.000 F800.000
G3 X3.571 Y70.159 Z2.000 I-49.674 J-49.674 K0.000 F2500.000
G3 X-70.159 Y3.571 Z2.000 I-3.571 J-70.159 K0.000 F2500.000
G3 X-3.571 Y-70.159 Z2.000 I70.159 J-3.571 K0.000 F2500.000
G3 X49.674 Y49.674 Z2.000 I3.571 J70.159 K0.000 F2500.000
G1 X50.098 Y50.098 Z2.000 F800.000
G3 X3.611 Y70.758 Z2.000 I-50.098 J-50.098 K0.000 F2500.000
G3 X-70.758 Y3.611 Z2.000 I-3.611 J-70.758 K0.000 F2500.000
G3 X-3.611 Y-70.758 Z2.000 I70.758 J-3.611 K0.000 F2500.000
G3 X50.098 Y50.098 Z2.000 I3.611 J70.758 K0.000 F2500.000
G1 X50.381 Y50.381 Z2.000 F800.000
G3 X-5.884 Y71.006 Z2.000 I-50.381 J-50.381 K0.000 F2500.000
G3 X5.884 Y-71.006 Z2.000 I5.884 J-71.006 K0.000 F2500.000
G3 X50.381 Y50.381 Z2.000 I-5.884 J71.006 K0.000 F2500.000
G1 X50.806 Y50.806 Z2.000 F800.000
G3 X-5.933 Y71.604 Z2.000 I-50.806 J-50.806 K0.000 F2500.000
G3 X5.933 Y-71.604 Z2.000 I5.933 J-71.604 K0.000 F2500.000
G3 X50.806 Y50.806 Z2.000 I-5.933 J71.604 K0.000 F2500.000
G0 Z9.000
(Finish operation: Pocket_Shape004)
(Begin operation: Profile)
(Path: Profile)
(Profile)
(Compensated Tool Path. Diameter: 1.5)
G0 Z9.000
G0 X126.313 Y110.034
G0 Z7.000
G1 X126.313 Y110.034 Z3.000 F800.000
G2 X132.492 Y100.037 Z3.000 I-65.701 J-47.513 K0.000 F2500.000
G2 X142.185 Y68.314 Z3.000 I-84.751 J-43.239 K0.000 F2500.000
G2 X141.618 Y42.372 Z3.000 I-89.272 J-11.027 K0.000 F2500.000
G2 X137.285 Y24.770 Z3.000 I-135.678 J24.069 K0.000 F2500.000
G2 X131.057 Y6.958 Z3.000 I-409.575 J133.201 K0.000 F2500.000
G3 X125.339 Y-9.654 Z3.000 I272.680 J-103.149 K0.000 F2500.000
G3 X123.164 Y-17.892 Z3.000 I97.104 J-30.044 K0.000 F2500.000
G3 X121.325 Y-30.310 Z3.000 I81.523 J-18.422 K0.000 F2500.000
G3 X124.966 Y-57.376 Z3.000 I68.901 J-4.508 K0.000 F2500.000
G3 X129.955 Y-68.941 Z3.000 I81.490 J28.291 K0.000 F2500.000
G3 X140.231 Y-85.185 Z3.000 I104.059 J54.459 K0.000 F2500.000
G2 X157.082 Y-112.866 Z3.000 I-744.897 J-472.420 K0.000 F2500.000
G2 X167.174 Y-131.413 Z3.000 I-301.701 J-176.185 K0.000 F2500.000
G2 X176.218 Y-151.247 Z3.000 I-213.653 J-109.405 K0.000 F2500.000
G2 X182.348 Y-168.859 Z3.000 I-174.916 J-70.749 K0.000 F2500.000
G2 X187.489 Y-194.878 Z3.000 I-143.853 J-41.940 K0.000 F2500.000
G2 X181.910 Y-246.221 Z3.000 I-123.185 J-12.590 K0.000 F2500.000
G2 X166.302 Y-279.125 Z3.000 I-145.688 J48.954 K0.000 F2500.000
G2 X148.630 Y-300.148 Z3.000 I-73.301 J43.677 K0.000 F2500.000
G2 X130.213 Y-312.788 Z3.000 I-71.219 J84.032 K0.000 F2500.000
G2 X109.363 Y-322.064 Z3.000 I-72.212 J134.243 K0.000 F2500.000
G2 X83.099 Y-329.498 Z3.000 I-72.025 J204.361 K0.000 F2500.000
G2 X50.452 Y-334.677 Z3.000 I-66.303 J312.467 K0.000 F2500.000
G2 X11.772 Y-337.062 Z3.000 I-48.324 J468.803 K0.000 F2500.000
G2 X-35.456 Y-336.064 Z3.000 I-12.462 J528.227 K0.000 F2500.000
G2 X-66.245 Y-332.744 Z3.000 I22.303 J351.266 K0.000 F2500.000
G2 X-91.898 Y-327.567 Z3.000 I37.255 J250.735 K0.000 F2500.000
G2 X-116.238 Y-319.588 Z3.000 I43.419 J173.566 K0.000 F2500.000
G2 X-130.262 Y-312.921 Z3.000 I48.647 J120.417 K0.000 F2500.000
G2 X-146.663 Y-301.929 Z3.000 I53.570 J97.656 K0.000 F2500.000
G2 X-162.178 Y-285.431 Z3.000 I54.634 J66.928 K0.000 F2500.000
G2 X-174.610 Y-264.117 Z3.000 I135.400 J93.257 K0.000 F2500.000
G2 X-182.747 Y-243.541 Z3.000 I122.771 J60.451 K0.000 F2500.000
G2 X-187.821 Y-198.059 Z3.000 I118.640 J36.259 K0.000 F2500.000
G2 X-182.502 Y-168.992 Z3.000 I147.006 J-11.881 K0.000 F2500.000
G2 X-173.109 Y-143.396 Z3.000 I199.131 J-58.555 K0.000 F2500.000
G2 X-159.776 Y-116.955 Z3.000 I305.439 J-137.438 K0.000 F2500.000
G2 X-141.111 Y-85.598 Z3.000 I757.394 J-429.594 K0.000 F2500.000
G3 X-132.682 Y-73.117 Z3.000 I-97.495 J74.931 K0.000 F2500.000
G3 X-125.104 Y-56.925 Z3.000 I-74.284 J44.634 K0.000 F2500.000
G3 X-121.395 Y-30.158 Z3.000 I-63.895 J22.495 K0.000 F2500.000
G3 X-123.199 Y-17.817 Z3.000 I-82.010 J-5.689 K0.000 F2500.000
G3 X-126.866 Y-4.847 Z3.000 I-124.629 J-28.230 K0.000 F2500.000
G3 X-131.920 Y9.334 Z3.000 I-754.234 J-260.829 K0.000 F2500.000
G2 X-138.384 Y28.439 Z3.000 I264.545 J100.154 K0.000 F2500.000
G2 X-141.608 Y42.436 Z3.000 I111.575 J33.069 K0.000 F2500.000
G2 X-142.488 Y65.776 Z3.000 I88.176 J15.010 K0.000 F2500.000
G2 X-135.653 Y93.197 Z3.000 I97.591 J-9.763 K0.000 F2500.000
G2 X-116.427 Y121.333 Z3.000 I74.814 J-30.487 K0.000 F2500.000
G2 X-97.295 Y135.205 Z3.000 I65.658 J-70.419 K0.000 F2500.000
G2 X-78.037 Y143.729 Z3.000 I61.585 J-113.133 K0.000 F2500.000
G2 X-53.992 Y150.116 Z3.000 I57.525 J-168.106 K0.000 F2500.000
G2 X-24.374 Y153.912 Z3.000 I47.454 J-252.793 K0.000 F2500.000
G2 X19.938 Y154.178 Z3.000 I24.295 J-357.071 K0.000 F2500.000
G2 X46.362 Y151.438 Z3.000 I-13.318 J-257.225 K0.000 F2500.000
G2 X71.789 Y145.745 Z3.000 I-27.292 J-181.547 K0.000 F2500.000
G2 X94.874 Y136.482 Z3.000 I-36.104 J-123.370 K0.000 F2500.000
G2 X110.653 Y126.318 Z3.000 I-43.557 J-84.948 K0.000 F2500.000
G2 X126.313 Y110.034 Z3.000 I-50.041 J-63.797 K0.000 F2500.000
G1 X126.313 Y110.034 Z2.000 F800.000
G2 X132.492 Y100.037 Z2.000 I-65.701 J-47.513 K0.000 F2500.000
G2 X142.185 Y68.314 Z2.000 I-84.751 J-43.239 K0.000 F2500.000
G2 X141.618 Y42.372 Z2.000 I-89.272 J-11.027 K0.000 F2500.000
G2 X137.285 Y24.770 Z2.000 I-135.678 J24.069 K0.000 F2500.000
G2 X131.057 Y6.958 Z2.000 I-409.575 J133.201 K0.000 F2500.000
G3 X125.339 Y-9.654 Z2.000 I272.680 J-103.149 K0.000 F2500.000
G3 X123.164 Y-17.892 Z2.000 I97.104 J-30.044 K0.000 F2500.000
G3 X121.325 Y-30.310 Z2.000 I81.523 J-18.422 K0.000 F2500.000
G3 X124.966 Y-57.376 Z2.000 I68.901 J-4.508 K0.000 F2500.000
G3 X129.955 Y-68.941 Z2.000 I81.490 J28.291 K0.000 F2500.000
G3 X140.231 Y-85.185 Z2.000 I104.059 J54.459 K0.000 F2500.000
G2 X157.082 Y-112.866 Z2.000 I-744.897 J-472.420 K0.000 F2500.000
G2 X167.174 Y-131.413 Z2.000 I-301.701 J-176.185 K0.000 F2500.000
G2 X176.218 Y-151.247 Z2.000 I-213.653 J-109.405 K0.000 F2500.000
G2 X182.348 Y-168.859 Z2.000 I-174.916 J-70.749 K0.000 F2500.000
G2 X187.489 Y-194.878 Z2.000 I-143.853 J-41.940 K0.000 F2500.000
G2 X181.910 Y-246.221 Z2.000 I-123.185 J-12.590 K0.000 F2500.000
G2 X166.302 Y-279.125 Z2.000 I-145.688 J48.954 K0.000 F2500.000
G2 X148.630 Y-300.148 Z2.000 I-73.301 J43.677 K0.000 F2500.000
G2 X130.213 Y-312.788 Z2.000 I-71.219 J84.032 K0.000 F2500.000
G2 X109.363 Y-322.064 Z2.000 I-72.212 J134.243 K0.000 F2500.000
G2 X83.099 Y-329.498 Z2.000 I-72.025 J204.361 K0.000 F2500.000
G2 X50.452 Y-334.677 Z2.000 I-66.303 J312.467 K0.000 F2500.000
G2 X11.772 Y-337.062 Z2.000 I-48.324 J468.803 K0.000 F2500.000
G2 X-35.456 Y-336.064 Z2.000 I-12.462 J528.227 K0.000 F2500.000
G2 X-66.245 Y-332.744 Z2.000 I22.303 J351.266 K0.000 F2500.000
G2 X-91.898 Y-327.567 Z2.000 I37.255 J250.735 K0.000 F2500.000
G2 X-116.238 Y-319.588 Z2.000 I43.419 J173.566 K0.000 F2500.000
G2 X-130.262 Y-312.921 Z2.000 I48.647 J120.417 K0.000 F2500.000
G2 X-146.663 Y-301.929 Z2.000 I53.570 J97.656 K0.000 F2500.000
G2 X-162.178 Y-285.431 Z2.000 I54.634 J66.928 K0.000 F2500.000
G2 X-174.610 Y-264.117 Z2.000 I135.400 J93.257 K0.000 F2500.000
G2 X-182.747 Y-243.541 Z2.000 I122.771 J60.451 K0.000 F2500.000
G2 X-187.821 Y-198.059 Z2.000 I118.640 J36.259 K0.000 F2500.000
G2 X-182.502 Y-168.992 Z2.000 I147.006 J-11.881 K0.000 F2500.000
G2 X-173.109 Y-143.396 Z2.000 I199.131 J-58.555 K0.000 F2500.000
G2 X-159.776 Y-116.955 Z2.000 I305.439 J-137.438 K0.000 F2500.000
G2 X-141.111 Y-85.598 Z2.000 I757.394 J-429.594 K0.000 F2500.000
G3 X-132.682 Y-73.117 Z2.000 I-97.495 J74.931 K0.000 F2500.000
G3 X-125.104 Y-56.925 Z2.000 I-74.284 J44.634 K0.000 F2500.000
G3 X-121.395 Y-30.158 Z2.000 I-63.895 J22.495 K0.000 F2500.000
G3 X-123.199 Y-17.817 Z2.000 I-82.010 J-5.689 K0.000 F2500.000
G3 X-126.866 Y-4.847 Z2.000 I-124.629 J-28.230 K0.000 F2500.000
G3 X-131.920 Y9.334 Z2.000 I-754.234 J-260.829 K0.000 F2500.000
G2 X-138.384 Y28.439 Z2.000 I264.545 J100.154 K0.000 F2500.000
G2 X-141.608 Y42.436 Z2.000 I111.575 J33.069 K0.000 F2500.000
G2 X-142.488 Y65.776 Z2.000 I88.176 J15.010 K0.000 F2500.000
G2 X-135.653 Y93.197 Z2.000 I97.591 J-9.763 K0.000 F2500.000
G2 X-116.427 Y121.333 Z2.000 I74.814 J-30.487 K0.000 F2500.000
G2 X-97.295 Y135.205 Z2.000 I65.658 J-70.419 K0.000 F2500.000
G2 X-78.037 Y143.729 Z2.000 I61.585 J-113.133 K0.000 F2500.000
G2 X-53.992 Y150.116 Z2.000 I57.525 J-168.106 K0.000 F2500.000
G2 X-24.374 Y153.912 Z2.000 I47.454 J-252.793 K0.000 F2500.000
G2 X19.938 Y154.178 Z2.000 I24.295 J-357.071 K0.000 F2500.000
G2 X46.362 Y151.438 Z2.000 I-13.318 J-257.225 K0.000 F2500.000
G2 X71.789 Y145.745 Z2.000 I-27.292 J-181.547 K0.000 F2500.000
G2 X94.874 Y136.482 Z2.000 I-36.104 J-123.370 K0.000 F2500.000
G2 X110.653 Y126.318 Z2.000 I-43.557 J-84.948 K0.000 F2500.000
G2 X126.313 Y110.034 Z2.000 I-50.041 J-63.797 K0.000 F2500.000
G1 X126.313 Y110.034 Z1.000 F800.000
G2 X132.492 Y100.037 Z1.000 I-65.701 J-47.513 K0.000 F2500.000
G2 X142.185 Y68.314 Z1.000 I-84.751 J-43.239 K0.000 F2500.000
G2 X141.618 Y42.372 Z1.000 I-89.272 J-11.027 K0.000 F2500.000
G2 X137.285 Y24.770 Z1.000 I-135.678 J24.069 K0.000 F2500.000
G2 X131.057 Y6.958 Z1.000 I-409.575 J133.201 K0.000 F2500.000
G3 X125.339 Y-9.654 Z1.000 I272.680 J-103.149 K0.000 F2500.000
G3 X123.164 Y-17.892 Z1.000 I97.104 J-30.044 K0.000 F2500.000
G3 X121.325 Y-30.310 Z1.000 I81.523 J-18.422 K0.000 F2500.000
G3 X124.966 Y-57.376 Z1.000 I68.901 J-4.508 K0.000 F2500.000
G3 X129.955 Y-68.941 Z1.000 I81.490 J28.291 K0.000 F2500.000
G3 X140.231 Y-85.185 Z1.000 I104.059 J54.459 K0.000 F2500.000
G2 X157.082 Y-112.866 Z1.000 I-744.897 J-472.420 K0.000 F2500.000
G2 X167.174 Y-131.413 Z1.000 I-301.701 J-176.185 K0.000 F2500.000
G2 X176.218 Y-151.247 Z1.000 I-213.653 J-109.405 K0.000 F2500.000
G2 X182.348 Y-168.859 Z1.000 I-174.916 J-70.749 K0.000 F2500.000
G2 X187.489 Y-194.878 Z1.000 I-143.853 J-41.940 K0.000 F2500.000
G2 X181.910 Y-246.221 Z1.000 I-123.185 J-12.590 K0.000 F2500.000
G2 X166.302 Y-279.125 Z1.000 I-145.688 J48.954 K0.000 F2500.000
G2 X148.630 Y-300.148 Z1.000 I-73.301 J43.677 K0.000 F2500.000
G2 X130.213 Y-312.788 Z1.000 I-71.219 J84.032 K0.000 F2500.000
G2 X109.363 Y-322.064 Z1.000 I-72.212 J134.243 K0.000 F2500.000
G2 X83.099 Y-329.498 Z1.000 I-72.025 J204.361 K0.000 F2500.000
G2 X50.452 Y-334.677 Z1.000 I-66.303 J312.467 K0.000 F2500.000
G2 X11.772 Y-337.062 Z1.000 I-48.324 J468.803 K0.000 F2500.000
G2 X-35.456 Y-336.064 Z1.000 I-12.462 J528.227 K0.000 F2500.000
G2 X-66.245 Y-332.744 Z1.000 I22.303 J351.266 K0.000 F2500.000
G2 X-91.898 Y-327.567 Z1.000 I37.255 J250.735 K0.000 F2500.000
G2 X-116.238 Y-319.588 Z1.000 I43.419 J173.566 K0.000 F2500.000
G2 X-130.262 Y-312.921 Z1.000 I48.647 J120.417 K0.000 F2500.000
G2 X-146.663 Y-301.929 Z1.000 I53.570 J97.656 K0.000 F2500.000
G2 X-162.178 Y-285.431 Z1.000 I54.634 J66.928 K0.000 F2500.000
G2 X-174.610 Y-264.117 Z1.000 I135.400 J93.257 K0.000 F2500.000
G2 X-182.747 Y-243.541 Z1.000 I122.771 J60.451 K0.000 F2500.000
G2 X-187.821 Y-198.059 Z1.000 I118.640 J36.259 K0.000 F2500.000
G2 X-182.502 Y-168.992 Z1.000 I147.006 J-11.881 K0.000 F2500.000
G2 X-173.109 Y-143.396 Z1.000 I199.131 J-58.555 K0.000 F2500.000
G2 X-159.776 Y-116.955 Z1.000 I305.439 J-137.438 K0.000 F2500.000
G2 X-141.111 Y-85.598 Z1.000 I757.394 J-429.594 K0.000 F2500.000
G3 X-132.682 Y-73.117 Z1.000 I-97.495 J74.931 K0.000 F2500.000
G3 X-125.104 Y-56.925 Z1.000 I-74.284 J44.634 K0.000 F2500.000
G3 X-121.395 Y-30.158 Z1.000 I-63.895 J22.495 K0.000 F2500.000
G3 X-123.199 Y-17.817 Z1.000 I-82.010 J-5.689 K0.000 F2500.000
G3 X-126.866 Y-4.847 Z1.000 I-124.629 J-28.230 K0.000 F2500.000
G3 X-131.920 Y9.334 Z1.000 I-754.234 J-260.829 K0.000 F2500.000
G2 X-138.384 Y28.439 Z1.000 I264.545 J100.154 K0.000 F2500.000
G2 X-141.608 Y42.436 Z1.000 I111.575 J33.069 K0.000 F2500.000
G2 X-142.488 Y65.776 Z1.000 I88.176 J15.010 K0.000 F2500.000
G2 X-135.653 Y93.197 Z1.000 I97.591 J-9.763 K0.000 F2500.000
G2 X-116.427 Y121.333 Z1.000 I74.814 J-30.487 K0.000 F2500.000
G2 X-97.295 Y135.205 Z1.000 I65.658 J-70.419 K0.000 F2500.000
G2 X-78.037 Y143.729 Z1.000 I61.585 J-113.133 K0.000 F2500.000
G2 X-53.992 Y150.116 Z1.000 I57.525 J-168.106 K0.000 F2500.000
G2 X-24.374 Y153.912 Z1.000 I47.454 J-252.793 K0.000 F2500.000
G2 X19.938 Y154.178 Z1.000 I24.295 J-357.071 K0.000 F2500.000
G2 X46.362 Y151.438 Z1.000 I-13.318 J-257.225 K0.000 F2500.000
G2 X71.789 Y145.745 Z1.000 I-27.292 J-181.547 K0.000 F2500.000
G2 X94.874 Y136.482 Z1.000 I-36.104 J-123.370 K0.000 F2500.000
G2 X110.653 Y126.318 Z1.000 I-43.557 J-84.948 K0.000 F2500.000
G2 X126.313 Y110.034 Z1.000 I-50.041 J-63.797 K0.000 F2500.000
G1 X126.313 Y110.034 Z0.000 F800.000
G2 X132.492 Y100.037 Z0.000 I-65.701 J-47.513 K0.000 F2500.000
G2 X142.185 Y68.314 Z0.000 I-84.751 J-43.239 K0.000 F2500.000
G2 X141.618 Y42.372 Z0.000 I-89.272 J-11.027 K0.000 F2500.000
G2 X137.285 Y24.770 Z0.000 I-135.678 J24.069 K0.000 F2500.000
G2 X131.057 Y6.958 Z0.000 I-409.575 J133.201 K0.000 F2500.000
G3 X125.339 Y-9.654 Z0.000 I272.680 J-103.149 K0.000 F2500.000
G3 X123.164 Y-17.892 Z0.000 I97.104 J-30.044 K0.000 F2500.000
G3 X121.325 Y-30.310 Z0.000 I81.523 J-18.422 K0.000 F2500.000
G3 X124.966 Y-57.376 Z0.000 I68.901 J-4.508 K0.000 F2500.000
G3 X129.955 Y-68.941 Z0.000 I81.490 J28.291 K0.000 F2500.000
G3 X140.231 Y-85.185 Z0.000 I104.059 J54.459 K0.000 F2500.000
G2 X157.082 Y-112.866 Z0.000 I-744.897 J-472.420 K0.000 F2500.000
G2 X167.174 Y-131.413 Z0.000 I-301.701 J-176.185 K0.000 F2500.000
G2 X176.218 Y-151.247 Z0.000 I-213.653 J-109.405 K0.000 F2500.000
G2 X182.348 Y-168.859 Z0.000 I-174.916 J-70.749 K0.000 F2500.000
G2 X187.489 Y-194.878 Z0.000 I-143.853 J-41.940 K0.000 F2500.000
G2 X181.910 Y-246.221 Z0.000 I-123.185 J-12.590 K0.000 F2500.000
G2 X166.302 Y-279.125 Z0.000 I-145.688 J48.954 K0.000 F2500.000
G2 X148.630 Y-300.148 Z0.000 I-73.301 J43.677 K0.000 F2500.000
G2 X130.213 Y-312.788 Z0.000 I-71.219 J84.032 K0.000 F2500.000
G2 X109.363 Y-322.064 Z0.000 I-72.212 J134.243 K0.000 F2500.000
G2 X83.099 Y-329.498 Z0.000 I-72.025 J204.361 K0.000 F2500.000
G2 X50.452 Y-334.677 Z0.000 I-66.303 J312.467 K0.000 F2500.000
G2 X11.772 Y-337.062 Z0.000 I-48.324 J468.803 K0.000 F2500.000
G2 X-35.456 Y-336.064 Z0.000 I-12.462 J528.227 K0.000 F2500.000
G2 X-66.245 Y-332.744 Z0.000 I22.303 J351.266 K0.000 F2500.000
G2 X-91.898 Y-327.567 Z0.000 I37.255 J250.735 K0.000 F2500.000
G2 X-116.238 Y-319.588 Z0.000 I43.419 J173.566 K0.000 F2500.000
G2 X-130.262 Y-312.921 Z0.000 I48.647 J120.417 K0.000 F2500.000
G2 X-146.663 Y-301.929 Z0.000 I53.570 J97.656 K0.000 F2500.000
G2 X-162.178 Y-285.431 Z0.000 I54.634 J66.928 K0.000 F2500.000
G2 X-174.610 Y-264.117 Z0.000 I135.400 J93.257 K0.000 F2500.000
G2 X-182.747 Y-243.541 Z0.000 I122.771 J60.451 K0.000 F2500.000
G2 X-187.821 Y-198.059 Z0.000 I118.640 J36.259 K0.000 F2500.000
G2 X-182.502 Y-168.992 Z0.000 I147.006 J-11.881 K0.000 F2500.000
G2 X-173.109 Y-143.396 Z0.000 I199.131 J-58.555 K0.000 F2500.000
G2 X-159.776 Y-116.955 Z0.000 I305.439 J-137.438 K0.000 F2500.000
G2 X-141.111 Y-85.598 Z0.000 I757.394 J-429.594 K0.000 F2500.000
G3 X-132.682 Y-73.117 Z0.000 I-97.495 J74.931 K0.000 F2500.000
G3 X-125.104 Y-56.925 Z0.000 I-74.284 J44.634 K0.000 F2500.000
G3 X-121.395 Y-30.158 Z0.000 I-63.895 J22.495 K0.000 F2500.000
G3 X-123.199 Y-17.817 Z0.000 I-82.010 J-5.689 K0.000 F2500.000
G3 X-126.866 Y-4.847 Z0.000 I-124.629 J-28.230 K0.000 F2500.000
G3 X-131.920 Y9.334 Z0.000 I-754.234 J-260.829 K0.000 F2500.000
G2 X-138.384 Y28.439 Z0.000 I264.545 J100.154 K0.000 F2500.000
G2 X-141.608 Y42.436 Z0.000 I111.575 J33.069 K0.000 F2500.000
G2 X-142.488 Y65.776 Z0.000 I88.176 J15.010 K0.000 F2500.000
G2 X-135.653 Y93.197 Z0.000 I97.591 J-9.763 K0.000 F2500.000
G2 X-116.427 Y121.333 Z0.000 I74.814 J-30.487 K0.000 F2500.000
G2 X-97.295 Y135.205 Z0.000 I65.658 J-70.419 K0.000 F2500.000
G2 X-78.037 Y143.729 Z0.000 I61.585 J-113.133 K0.000 F2500.000
G2 X-53.992 Y150.116 Z0.000 I57.525 J-168.106 K0.000 F2500.000
G2 X-24.374 Y153.912 Z0.000 I47.454 J-252.793 K0.000 F2500.000
G2 X19.938 Y154.178 Z0.000 I24.295 J-357.071 K0.000 F2500.000
G2 X46.362 Y151.438 Z0.000 I-13.318 J-257.225 K0.000 F2500.000
G2 X71.789 Y145.745 Z0.000 I-27.292 J-181.547 K0.000 F2500.000
G2 X94.874 Y136.482 Z0.000 I-36.104 J-123.370 K0.000 F2500.000
G2 X110.653 Y126.318 Z0.000 I-43.557 J-84.948 K0.000 F2500.000
G2 X126.313 Y110.034 Z0.000 I-50.041 J-63.797 K0.000 F2500.000
G0 Z9.000
G0 Z9.000
(Finish operation: Profile)
(Begin operation: Profile001)
(Path: Profile001)
(Profile001)
(Compensated Tool Path. Diameter: 1.5)
G0 Z9.000
G0 X28.814 Y28.814
G0 Z7.000
G1 X28.814 Y28.814 Z3.000 F800.000
G2 X3.552 Y-40.595 Z3.000 I-28.814 J-28.814 K0.000 F2500.000
G2 X-40.595 Y-3.552 Z3.000 I-3.552 J40.595 K0.000 F2500.000
G2 X-3.552 Y40.595 Z3.000 I40.595 J3.552 K0.000 F2500.000
G2 X28.814 Y28.814 Z3.000 I3.552 J-40.595 K0.000 F2500.000
G1 X28.814 Y28.814 Z2.000 F800.000
G2 X3.552 Y-40.595 Z2.000 I-28.814 J-28.814 K0.000 F2500.000
G2 X-40.595 Y-3.552 Z2.000 I-3.552 J40.595 K0.000 F2500.000
G2 X-3.552 Y40.595 Z2.000 I40.595 J3.552 K0.000 F2500.000
G2 X28.814 Y28.814 Z2.000 I3.552 J-40.595 K0.000 F2500.000
G1 X28.814 Y28.814 Z1.000 F800.000
G2 X3.552 Y-40.595 Z1.000 I-28.814 J-28.814 K0.000 F2500.000
G2 X-40.595 Y-3.552 Z1.000 I-3.552 J40.595 K0.000 F2500.000
G2 X-3.552 Y40.595 Z1.000 I40.595 J3.552 K0.000 F2500.000
G2 X28.814 Y28.814 Z1.000 I3.552 J-40.595 K0.000 F2500.000
G1 X28.814 Y28.814 Z0.000 F800.000
G2 X3.552 Y-40.595 Z0.000 I-28.814 J-28.814 K0.000 F2500.000
G2 X-40.595 Y-3.552 Z0.000 I-3.552 J40.595 K0.000 F2500.000
G2 X-3.552 Y40.595 Z0.000 I40.595 J3.552 K0.000 F2500.000
G2 X28.814 Y28.814 Z0.000 I3.552 J-40.595 K0.000 F2500.000
G0 Z9.000
G0 Z9.000
(Finish operation: Profile001)
(Begin postamble)
M5
G17 G90
M2
