(Exported by FreeCAD)
(Post Processor: grbl_post)
(Output Time:2024-04-17 21:18:03.344920)
(Begin preamble)
G17 G90
G21
(Begin operation: TC: 3.175 Z1 UP Helicoidale007)
(Path: TC: 3.175 Z1 UP Helicoidale007)
(TC: 3.175 Z1 UP Helicoidale007)
(Begin toolchange)
( M6 T1 )
M3 S10000
(Finish operation: TC: 3.175 Z1 UP Helicoidale007)
(Begin operation: Fixture)
(Path: Fixture)
G54
(Finish operation: Fixture)
(Begin operation: RampEntryDressup)
(Path: RampEntryDressup)
G0 X0.000 Y0.000 Z5.000
G0 X127.373 Y446.238 Z5.000
G0 X127.373 Y446.238 Z3.000
G1 X128.375 Y444.795 Z1.986 F1200.000
G1 X129.344 Y443.330 Z0.972 F1200.000
G1 X128.375 Y444.795 Z-0.043 F1200.000
G1 X127.373 Y446.238 Z-1.057 F1200.000
G2 X133.568 Y435.951 Z-1.057 I-64.392 J-45.792 K0.000 F1200.000
G2 X142.244 Y408.766 Z-1.057 I-87.919 J-43.035 K0.000 F1200.000
G2 X142.548 Y379.990 Z-1.057 I-89.903 J-15.340 K0.000 F1200.000
G2 X138.592 Y362.715 Z-1.057 I-126.734 J19.934 K0.000 F1200.000
G2 X134.392 Y350.126 Z-1.057 I-282.401 J87.204 K0.000 F1200.000
G3 X129.719 Y337.250 Z-1.057 I1756.881 J-644.936 K0.000 F1200.000
G3 X125.240 Y323.394 Z-1.057 I164.275 J-60.760 K0.000 F1200.000
G3 X122.651 Y310.889 Z-1.057 I84.722 J-24.057 K0.000 F1200.000
G3 X124.372 Y283.915 Z-1.057 I67.071 J-9.265 K0.000 F1200.000
G3 X130.606 Y268.084 Z-1.057 I81.086 J22.792 K0.000 F1200.000
G3 X140.926 Y251.764 Z-1.057 I104.405 J54.598 K0.000 F1200.000
G2 X157.821 Y224.016 Z-1.057 I-741.181 J-470.294 K0.000 F1200.000
G2 X167.936 Y205.427 Z-1.057 I-302.435 J-176.617 K0.000 F1200.000
G2 X177.011 Y185.528 Z-1.057 I-214.428 J-109.802 K0.000 F1200.000
G2 X183.168 Y167.839 Z-1.057 I-175.731 J-71.081 K0.000 F1200.000
G2 X188.339 Y141.672 Z-1.057 I-144.668 J-42.183 K0.000 F1200.000
G2 X182.726 Y89.986 Z-1.057 I-124.015 J-12.683 K0.000 F1200.000
G2 X167.034 Y56.897 Z-1.057 I-146.475 J49.199 K0.000 F1200.000
G2 X149.214 Y35.694 Z-1.057 I-73.954 J44.065 K0.000 F1200.000
G2 X130.655 Y22.953 Z-1.057 I-71.753 J84.632 K0.000 F1200.000
G2 X109.681 Y13.620 Z-1.057 I-72.646 J135.016 K0.000 F1200.000
G2 X83.297 Y6.149 Z-1.057 I-72.388 J205.328 K0.000 F1200.000
G2 X50.537 Y0.947 Z-1.057 I-66.612 J313.713 K0.000 F1200.000
G2 X11.631 Y-1.457 Z-1.057 I-48.609 J470.715 K0.000 F1200.000
G1 X5.830 Y-1.554 Z-1.057 F1200.000
G2 X-36.419 Y-0.390 Z-1.057 I-7.041 J511.754 K0.000 F1200.000
G2 X-67.101 Y3.026 Z-1.057 I22.787 J344.169 K0.000 F1200.000
G2 X-92.568 Y8.291 Z-1.057 I37.746 J246.797 K0.000 F1200.000
G2 X-116.817 Y16.394 Z-1.057 I44.003 J172.027 K0.000 F1200.000
G2 X-138.554 Y27.883 Z-1.057 I47.516 J116.212 K0.000 F1200.000
G2 X-151.217 Y37.801 Z-1.057 I51.514 J78.810 K0.000 F1200.000
G2 X-165.705 Y55.349 Z-1.057 I57.311 J62.073 K0.000 F1200.000
G2 X-175.442 Y72.517 Z-1.057 I134.776 J87.789 K0.000 F1200.000
G2 X-183.590 Y93.036 Z-1.057 I121.398 J60.083 K0.000 F1200.000
G2 X-188.630 Y138.516 Z-1.057 I117.814 J36.074 K0.000 F1200.000
G2 X-183.236 Y167.602 Z-1.057 I146.581 J-12.141 K0.000 F1200.000
G2 X-173.769 Y193.165 Z-1.057 I198.238 J-58.880 K0.000 F1200.000
G2 X-160.459 Y219.343 Z-1.057 I300.177 J-136.152 K0.000 F1200.000
G2 X-140.949 Y251.671 Z-1.057 I699.949 J-400.359 K0.000 F1200.000
G3 X-131.698 Y265.990 Z-1.057 I-94.157 J70.980 K0.000 F1200.000
G3 X-124.993 Y281.720 Z-1.057 I-70.324 J39.272 K0.000 F1200.000
G3 X-122.142 Y306.223 Z-1.057 I-64.316 J19.901 K0.000 F1200.000
G3 X-123.995 Y318.534 Z-1.057 I-82.667 J-6.150 K0.000 F1200.000
G3 X-127.726 Y331.593 Z-1.057 I-127.073 J-29.242 K0.000 F1200.000
G3 X-132.119 Y343.934 Z-1.057 I-562.509 J-193.313 K0.000 F1200.000
G2 X-138.796 Y363.335 Z-1.057 I297.992 J113.402 K0.000 F1200.000
G2 X-142.229 Y377.584 Z-1.057 I115.338 J35.323 K0.000 F1200.000
G2 X-143.394 Y401.095 Z-1.057 I88.443 J16.169 K0.000 F1200.000
G2 X-136.798 Y428.770 Z-1.057 I97.497 J-8.614 K0.000 F1200.000
G2 X-116.036 Y458.741 Z-1.057 I74.263 J-29.269 K0.000 F1200.000
G2 X-96.535 Y472.127 Z-1.057 I63.433 J-71.514 K0.000 F1200.000
G2 X-76.816 Y480.213 Z-1.057 I59.210 J-116.302 K0.000 F1200.000
G2 X-51.812 Y486.169 Z-1.057 I56.205 J-180.499 K0.000 F1200.000
G2 X-25.189 Y489.230 Z-1.057 I45.602 J-279.283 K0.000 F1200.000
G2 X25.880 Y489.189 Z-1.057 I25.223 J-386.317 K0.000 F1200.000
G2 X52.457 Y486.129 Z-1.057 I-15.917 J-255.169 K0.000 F1200.000
G2 X74.140 Y481.188 Z-1.057 I-28.877 J-176.780 K0.000 F1200.000
G2 X94.355 Y473.443 Z-1.057 I-34.557 J-120.452 K0.000 F1200.000
G2 X110.259 Y463.755 Z-1.057 I-40.517 J-84.406 K0.000 F1200.000
G2 X127.373 Y446.238 Z-1.057 I-47.278 J-63.308 K0.000 F1200.000
G1 X127.843 Y445.569 Z-1.528 F1200.000
G1 X127.373 Y446.238 Z-2.000 F1200.000
G2 X133.568 Y435.951 Z-2.000 I-64.392 J-45.792 K0.000 F1200.000
G2 X142.244 Y408.766 Z-2.000 I-87.919 J-43.035 K0.000 F1200.000
G2 X142.548 Y379.990 Z-2.000 I-89.903 J-15.340 K0.000 F1200.000
G2 X138.592 Y362.715 Z-2.000 I-126.734 J19.934 K0.000 F1200.000
G2 X134.392 Y350.126 Z-2.000 I-282.401 J87.204 K0.000 F1200.000
G3 X129.719 Y337.250 Z-2.000 I1756.881 J-644.936 K0.000 F1200.000
G3 X125.240 Y323.394 Z-2.000 I164.275 J-60.760 K0.000 F1200.000
G3 X122.651 Y310.889 Z-2.000 I84.722 J-24.057 K0.000 F1200.000
G3 X124.372 Y283.915 Z-2.000 I67.071 J-9.265 K0.000 F1200.000
G3 X130.606 Y268.084 Z-2.000 I81.086 J22.792 K0.000 F1200.000
G3 X140.926 Y251.764 Z-2.000 I104.405 J54.598 K0.000 F1200.000
G2 X157.821 Y224.016 Z-2.000 I-741.181 J-470.294 K0.000 F1200.000
G2 X167.936 Y205.427 Z-2.000 I-302.435 J-176.617 K0.000 F1200.000
G2 X177.011 Y185.528 Z-2.000 I-214.428 J-109.802 K0.000 F1200.000
G2 X183.168 Y167.839 Z-2.000 I-175.731 J-71.081 K0.000 F1200.000
G2 X188.339 Y141.672 Z-2.000 I-144.668 J-42.183 K0.000 F1200.000
G2 X182.726 Y89.986 Z-2.000 I-124.015 J-12.683 K0.000 F1200.000
G2 X167.034 Y56.897 Z-2.000 I-146.475 J49.199 K0.000 F1200.000
G2 X149.214 Y35.694 Z-2.000 I-73.954 J44.065 K0.000 F1200.000
G2 X130.655 Y22.953 Z-2.000 I-71.753 J84.632 K0.000 F1200.000
G2 X109.681 Y13.620 Z-2.000 I-72.646 J135.016 K0.000 F1200.000
G2 X83.297 Y6.149 Z-2.000 I-72.388 J205.328 K0.000 F1200.000
G2 X50.537 Y0.947 Z-2.000 I-66.612 J313.713 K0.000 F1200.000
G2 X11.631 Y-1.457 Z-2.000 I-48.609 J470.715 K0.000 F1200.000
G1 X5.830 Y-1.554 Z-2.000 F1200.000
G2 X-36.419 Y-0.390 Z-2.000 I-7.041 J511.754 K0.000 F1200.000
G2 X-67.101 Y3.026 Z-2.000 I22.787 J344.169 K0.000 F1200.000
G2 X-92.568 Y8.291 Z-2.000 I37.746 J246.797 K0.000 F1200.000
G2 X-116.817 Y16.394 Z-2.000 I44.003 J172.027 K0.000 F1200.000
G2 X-138.554 Y27.883 Z-2.000 I47.516 J116.212 K0.000 F1200.000
G2 X-151.217 Y37.801 Z-2.000 I51.514 J78.810 K0.000 F1200.000
G2 X-165.705 Y55.349 Z-2.000 I57.311 J62.073 K0.000 F1200.000
G2 X-175.442 Y72.517 Z-2.000 I134.776 J87.789 K0.000 F1200.000
G2 X-183.590 Y93.036 Z-2.000 I121.398 J60.083 K0.000 F1200.000
G2 X-188.630 Y138.516 Z-2.000 I117.814 J36.074 K0.000 F1200.000
G2 X-183.236 Y167.602 Z-2.000 I146.581 J-12.141 K0.000 F1200.000
G2 X-173.769 Y193.165 Z-2.000 I198.238 J-58.880 K0.000 F1200.000
G2 X-160.459 Y219.343 Z-2.000 I300.177 J-136.152 K0.000 F1200.000
G2 X-140.949 Y251.671 Z-2.000 I699.949 J-400.359 K0.000 F1200.000
G3 X-131.698 Y265.990 Z-2.000 I-94.157 J70.980 K0.000 F1200.000
G3 X-124.993 Y281.720 Z-2.000 I-70.324 J39.272 K0.000 F1200.000
G3 X-122.142 Y306.223 Z-2.000 I-64.316 J19.901 K0.000 F1200.000
G3 X-123.995 Y318.534 Z-2.000 I-82.667 J-6.150 K0.000 F1200.000
G3 X-127.726 Y331.593 Z-2.000 I-127.073 J-29.242 K0.000 F1200.000
G3 X-132.119 Y343.934 Z-2.000 I-562.509 J-193.313 K0.000 F1200.000
G2 X-138.796 Y363.335 Z-2.000 I297.992 J113.402 K0.000 F1200.000
G2 X-142.229 Y377.584 Z-2.000 I115.338 J35.323 K0.000 F1200.000
G2 X-143.394 Y401.095 Z-2.000 I88.443 J16.169 K0.000 F1200.000
G2 X-136.798 Y428.770 Z-2.000 I97.497 J-8.614 K0.000 F1200.000
G2 X-116.036 Y458.741 Z-2.000 I74.263 J-29.269 K0.000 F1200.000
G2 X-96.535 Y472.127 Z-2.000 I63.433 J-71.514 K0.000 F1200.000
G2 X-76.816 Y480.213 Z-2.000 I59.210 J-116.302 K0.000 F1200.000
G2 X-51.812 Y486.169 Z-2.000 I56.205 J-180.499 K0.000 F1200.000
G2 X-25.189 Y489.230 Z-2.000 I45.602 J-279.283 K0.000 F1200.000
G2 X25.880 Y489.189 Z-2.000 I25.223 J-386.317 K0.000 F1200.000
G2 X52.457 Y486.129 Z-2.000 I-15.917 J-255.169 K0.000 F1200.000
G2 X74.140 Y481.188 Z-2.000 I-28.877 J-176.780 K0.000 F1200.000
G2 X94.355 Y473.443 Z-2.000 I-34.557 J-120.452 K0.000 F1200.000
G2 X110.259 Y463.755 Z-2.000 I-40.517 J-84.406 K0.000 F1200.000
G2 X127.373 Y446.238 Z-2.000 I-47.278 J-63.308 K0.000 F1200.000
G0 X127.373 Y446.238 Z5.000
(Finish operation: RampEntryDressup)
(Begin postamble)
M5
G17 G90
M2
