(Exported by FreeCAD)
(Post Processor: grbl_post)
(Output Time:2024-01-07 20:50:55.067605)
(Begin preamble)
G17 G90
G21
(Begin operation: TC: 6.35 Z2 Q635)
(Path: TC: 6.35 Z2 Q635)
(TC: 6.35 Z2 Q635)
(Begin toolchange)
( M6 T14 )
M3 S20000
(Finish operation: TC: 6.35 Z2 Q635)
(Begin operation: Fixture)
(Path: Fixture)
G54
(Finish operation: Fixture)
(Begin operation: Profile)
(Path: Profile)
(Profile)
(Compensated Tool Path. Diameter: 6.35)
G0 Z12.000
G0 X35.683 Y460.784
G0 Z10.000
G1 X35.683 Y460.784 Z4.883 F200.000
G2 X36.898 Y458.249 Z4.883 I-1.999 J-2.517 K0.000 F2000.000
G1 X29.480 Y-0.051 Z4.883 F2000.000
G2 X26.305 Y-3.175 Z4.883 I-3.175 J0.051 K0.000 F2000.000
G1 X-26.549 Y-3.175 Z4.883 F2000.000
G2 X-29.724 Y-0.048 Z4.883 I-0.000 J3.175 K0.000 F2000.000
G1 X-36.705 Y458.252 Z4.883 F2000.000
G2 X-34.871 Y461.178 Z4.883 I3.175 J0.048 K0.000 F2000.000
G2 X-31.057 Y462.104 Z4.883 I6.178 J-17.129 K0.000 F2000.000
G2 X-19.547 Y460.096 Z4.883 I2.770 J-18.111 K0.000 F2000.000
G2 X-13.957 Y456.050 Z4.883 I-16.221 J-28.294 K0.000 F2000.000
G2 X-6.738 Y448.826 Z4.883 I-122.363 J-129.508 K0.000 F2000.000
G3 X-0.006 Y442.946 Z4.883 I33.454 J31.506 K0.000 F2000.000
G3 X3.539 Y441.043 Z4.883 I9.327 J13.122 K0.000 F2000.000
G3 X10.301 Y440.367 Z4.883 I4.509 J10.945 K0.000 F2000.000
G3 X16.587 Y443.182 Z4.883 I-4.027 J17.421 K0.000 F2000.000
G3 X22.221 Y448.135 Z4.883 I-22.555 J31.335 K0.000 F2000.000
G3 X30.959 Y459.973 Z4.883 I-54.777 J49.576 K0.000 F2000.000
G2 X35.683 Y460.784 Z4.883 I2.724 J-1.706 K0.000 F2000.000
G1 X35.683 Y460.784 Z2.767 F200.000
G2 X36.898 Y458.249 Z2.767 I-1.999 J-2.517 K0.000 F2000.000
G1 X29.480 Y-0.051 Z2.767 F2000.000
G2 X26.305 Y-3.175 Z2.767 I-3.175 J0.051 K0.000 F2000.000
G1 X-26.549 Y-3.175 Z2.767 F2000.000
G2 X-29.724 Y-0.048 Z2.767 I-0.000 J3.175 K0.000 F2000.000
G1 X-36.705 Y458.252 Z2.767 F2000.000
G2 X-34.871 Y461.178 Z2.767 I3.175 J0.048 K0.000 F2000.000
G2 X-31.057 Y462.104 Z2.767 I6.178 J-17.129 K0.000 F2000.000
G2 X-19.547 Y460.096 Z2.767 I2.770 J-18.111 K0.000 F2000.000
G2 X-13.957 Y456.050 Z2.767 I-16.221 J-28.294 K0.000 F2000.000
G2 X-6.738 Y448.826 Z2.767 I-122.363 J-129.508 K0.000 F2000.000
G3 X-0.006 Y442.946 Z2.767 I33.454 J31.506 K0.000 F2000.000
G3 X3.539 Y441.043 Z2.767 I9.327 J13.122 K0.000 F2000.000
G3 X10.301 Y440.367 Z2.767 I4.509 J10.945 K0.000 F2000.000
G3 X16.587 Y443.182 Z2.767 I-4.027 J17.421 K0.000 F2000.000
G3 X22.221 Y448.135 Z2.767 I-22.555 J31.335 K0.000 F2000.000
G3 X30.959 Y459.973 Z2.767 I-54.777 J49.576 K0.000 F2000.000
G2 X35.683 Y460.784 Z2.767 I2.724 J-1.706 K0.000 F2000.000
G1 X35.683 Y460.784 Z0.650 F200.000
G2 X36.898 Y458.249 Z0.650 I-1.999 J-2.517 K0.000 F2000.000
G1 X29.480 Y-0.051 Z0.650 F2000.000
G2 X26.305 Y-3.175 Z0.650 I-3.175 J0.051 K0.000 F2000.000
G1 X-26.549 Y-3.175 Z0.650 F2000.000
G2 X-29.724 Y-0.048 Z0.650 I-0.000 J3.175 K0.000 F2000.000
G1 X-36.705 Y458.252 Z0.650 F2000.000
G2 X-34.871 Y461.178 Z0.650 I3.175 J0.048 K0.000 F2000.000
G2 X-31.057 Y462.104 Z0.650 I6.178 J-17.129 K0.000 F2000.000
G2 X-19.547 Y460.096 Z0.650 I2.770 J-18.111 K0.000 F2000.000
G2 X-13.957 Y456.050 Z0.650 I-16.221 J-28.294 K0.000 F2000.000
G2 X-6.738 Y448.826 Z0.650 I-122.363 J-129.508 K0.000 F2000.000
G3 X-0.006 Y442.946 Z0.650 I33.454 J31.506 K0.000 F2000.000
G3 X3.539 Y441.043 Z0.650 I9.327 J13.122 K0.000 F2000.000
G3 X10.301 Y440.367 Z0.650 I4.509 J10.945 K0.000 F2000.000
G3 X16.587 Y443.182 Z0.650 I-4.027 J17.421 K0.000 F2000.000
G3 X22.221 Y448.135 Z0.650 I-22.555 J31.335 K0.000 F2000.000
G3 X30.959 Y459.973 Z0.650 I-54.777 J49.576 K0.000 F2000.000
G2 X35.683 Y460.784 Z0.650 I2.724 J-1.706 K0.000 F2000.000
G1 X35.683 Y460.784 Z0.000 F200.000
G2 X36.898 Y458.249 Z0.000 I-1.999 J-2.517 K0.000 F2000.000
G1 X29.480 Y-0.051 Z0.000 F2000.000
G2 X26.305 Y-3.175 Z0.000 I-3.175 J0.051 K0.000 F2000.000
G1 X-26.549 Y-3.175 Z0.000 F2000.000
G2 X-29.724 Y-0.048 Z0.000 I-0.000 J3.175 K0.000 F2000.000
G1 X-36.705 Y458.252 Z0.000 F2000.000
G2 X-34.871 Y461.178 Z0.000 I3.175 J0.048 K0.000 F2000.000
G2 X-31.057 Y462.104 Z0.000 I6.178 J-17.129 K0.000 F2000.000
G2 X-19.547 Y460.096 Z0.000 I2.770 J-18.111 K0.000 F2000.000
G2 X-13.957 Y456.050 Z0.000 I-16.221 J-28.294 K0.000 F2000.000
G2 X-6.738 Y448.826 Z0.000 I-122.363 J-129.508 K0.000 F2000.000
G3 X-0.006 Y442.946 Z0.000 I33.454 J31.506 K0.000 F2000.000
G3 X3.539 Y441.043 Z0.000 I9.327 J13.122 K0.000 F2000.000
G3 X10.301 Y440.367 Z0.000 I4.509 J10.945 K0.000 F2000.000
G3 X16.587 Y443.182 Z0.000 I-4.027 J17.421 K0.000 F2000.000
G3 X22.221 Y448.135 Z0.000 I-22.555 J31.335 K0.000 F2000.000
G3 X30.959 Y459.973 Z0.000 I-54.777 J49.576 K0.000 F2000.000
G2 X35.683 Y460.784 Z0.000 I2.724 J-1.706 K0.000 F2000.000
G0 Z12.000
G0 Z12.000
(Finish operation: Profile)
(Begin postamble)
M5
G17 G90
M2
