(Exported by FreeCAD)
(Post Processor: grbl_post)
(Output Time:2024-02-04 12:46:29.076973)
(Begin preamble)
G17 G90
G21
(Begin operation: TC: 6.35 Z2 Q635)
(Path: TC: 6.35 Z2 Q635)
(TC: 6.35 Z2 Q635)
(Begin toolchange)
( M6 T14 )
M3 S20000
(Finish operation: TC: 6.35 Z2 Q635)
(Begin operation: Fixture)
(Path: Fixture)
G54
(Finish operation: Fixture)
(Begin operation: Profile)
(Path: Profile)
(Profile)
(Compensated Tool Path. Diameter: 6.35)
G0 Z12.000
G0 X35.541 Y460.784
G0 Z10.000
G1 X35.541 Y460.784 Z4.883 F200.000
G2 X36.738 Y458.249 Z4.883 I-1.977 J-2.484 K0.000 F2000.000
G1 X29.319 Y-0.051 Z4.883 F2000.000
G2 X26.145 Y-3.175 Z4.883 I-3.175 J0.051 K0.000 F2000.000
G1 X-26.643 Y-3.175 Z4.883 F2000.000
G2 X-29.818 Y-0.048 Z4.883 I0.000 J3.175 K0.000 F2000.000
G1 X-36.800 Y458.252 Z4.883 F2000.000
G2 X-34.952 Y461.185 Z4.883 I3.175 J0.048 K0.000 F2000.000
G2 X-27.867 Y462.280 Z4.883 I6.514 J-18.671 K0.000 F2000.000
G2 X-19.631 Y460.083 Z4.883 I-0.319 J-17.734 K0.000 F2000.000
G2 X-13.501 Y455.542 Z4.883 I-15.662 J-27.550 K0.000 F2000.000
G2 X-8.471 Y450.539 Z4.883 I-125.196 J-130.910 K0.000 F2000.000
G3 X-1.027 Y443.602 Z4.883 I46.150 J42.056 K0.000 F2000.000
G3 X3.716 Y440.946 Z4.883 I11.863 J15.620 K0.000 F2000.000
G3 X11.124 Y440.585 Z4.883 I4.252 J11.046 K0.000 F2000.000
G3 X16.974 Y443.526 Z4.883 I-5.979 J19.179 K0.000 F2000.000
G3 X23.427 Y449.563 Z4.883 I-24.225 J32.363 K0.000 F2000.000
G3 X30.870 Y459.982 Z4.883 I-62.296 J52.372 K0.000 F2000.000
G2 X35.541 Y460.784 Z4.883 I2.693 J-1.682 K0.000 F2000.000
G1 X35.541 Y460.784 Z2.767 F200.000
G2 X36.738 Y458.249 Z2.767 I-1.977 J-2.484 K0.000 F2000.000
G1 X29.319 Y-0.051 Z2.767 F2000.000
G2 X26.145 Y-3.175 Z2.767 I-3.175 J0.051 K0.000 F2000.000
G1 X-26.643 Y-3.175 Z2.767 F2000.000
G2 X-29.818 Y-0.048 Z2.767 I0.000 J3.175 K0.000 F2000.000
G1 X-36.800 Y458.252 Z2.767 F2000.000
G2 X-34.952 Y461.185 Z2.767 I3.175 J0.048 K0.000 F2000.000
G2 X-27.867 Y462.280 Z2.767 I6.514 J-18.671 K0.000 F2000.000
G2 X-19.631 Y460.083 Z2.767 I-0.319 J-17.734 K0.000 F2000.000
G2 X-13.501 Y455.542 Z2.767 I-15.662 J-27.550 K0.000 F2000.000
G2 X-8.471 Y450.539 Z2.767 I-125.196 J-130.910 K0.000 F2000.000
G3 X-1.027 Y443.602 Z2.767 I46.150 J42.056 K0.000 F2000.000
G3 X3.716 Y440.946 Z2.767 I11.863 J15.620 K0.000 F2000.000
G3 X11.124 Y440.585 Z2.767 I4.252 J11.046 K0.000 F2000.000
G3 X16.974 Y443.526 Z2.767 I-5.979 J19.179 K0.000 F2000.000
G3 X23.427 Y449.563 Z2.767 I-24.225 J32.363 K0.000 F2000.000
G3 X30.870 Y459.982 Z2.767 I-62.296 J52.372 K0.000 F2000.000
G2 X35.541 Y460.784 Z2.767 I2.693 J-1.682 K0.000 F2000.000
G1 X35.541 Y460.784 Z0.650 F200.000
G2 X36.738 Y458.249 Z0.650 I-1.977 J-2.484 K0.000 F2000.000
G1 X29.319 Y-0.051 Z0.650 F2000.000
G2 X26.145 Y-3.175 Z0.650 I-3.175 J0.051 K0.000 F2000.000
G1 X-26.643 Y-3.175 Z0.650 F2000.000
G2 X-29.818 Y-0.048 Z0.650 I0.000 J3.175 K0.000 F2000.000
G1 X-36.800 Y458.252 Z0.650 F2000.000
G2 X-34.952 Y461.185 Z0.650 I3.175 J0.048 K0.000 F2000.000
G2 X-27.867 Y462.280 Z0.650 I6.514 J-18.671 K0.000 F2000.000
G2 X-19.631 Y460.083 Z0.650 I-0.319 J-17.734 K0.000 F2000.000
G2 X-13.501 Y455.542 Z0.650 I-15.662 J-27.550 K0.000 F2000.000
G2 X-8.471 Y450.539 Z0.650 I-125.196 J-130.910 K0.000 F2000.000
G3 X-1.027 Y443.602 Z0.650 I46.150 J42.056 K0.000 F2000.000
G3 X3.716 Y440.946 Z0.650 I11.863 J15.620 K0.000 F2000.000
G3 X11.124 Y440.585 Z0.650 I4.252 J11.046 K0.000 F2000.000
G3 X16.974 Y443.526 Z0.650 I-5.979 J19.179 K0.000 F2000.000
G3 X23.427 Y449.563 Z0.650 I-24.225 J32.363 K0.000 F2000.000
G3 X30.870 Y459.982 Z0.650 I-62.296 J52.372 K0.000 F2000.000
G2 X35.541 Y460.784 Z0.650 I2.693 J-1.682 K0.000 F2000.000
G1 X35.541 Y460.784 Z0.000 F200.000
G2 X36.738 Y458.249 Z0.000 I-1.977 J-2.484 K0.000 F2000.000
G1 X29.319 Y-0.051 Z0.000 F2000.000
G2 X26.145 Y-3.175 Z0.000 I-3.175 J0.051 K0.000 F2000.000
G1 X-26.643 Y-3.175 Z0.000 F2000.000
G2 X-29.818 Y-0.048 Z0.000 I0.000 J3.175 K0.000 F2000.000
G1 X-36.800 Y458.252 Z0.000 F2000.000
G2 X-34.952 Y461.185 Z0.000 I3.175 J0.048 K0.000 F2000.000
G2 X-27.867 Y462.280 Z0.000 I6.514 J-18.671 K0.000 F2000.000
G2 X-19.631 Y460.083 Z0.000 I-0.319 J-17.734 K0.000 F2000.000
G2 X-13.501 Y455.542 Z0.000 I-15.662 J-27.550 K0.000 F2000.000
G2 X-8.471 Y450.539 Z0.000 I-125.196 J-130.910 K0.000 F2000.000
G3 X-1.027 Y443.602 Z0.000 I46.150 J42.056 K0.000 F2000.000
G3 X3.716 Y440.946 Z0.000 I11.863 J15.620 K0.000 F2000.000
G3 X11.124 Y440.585 Z0.000 I4.252 J11.046 K0.000 F2000.000
G3 X16.974 Y443.526 Z0.000 I-5.979 J19.179 K0.000 F2000.000
G3 X23.427 Y449.563 Z0.000 I-24.225 J32.363 K0.000 F2000.000
G3 X30.870 Y459.982 Z0.000 I-62.296 J52.372 K0.000 F2000.000
G2 X35.541 Y460.784 Z0.000 I2.693 J-1.682 K0.000 F2000.000
G0 Z12.000
G0 Z12.000
(Finish operation: Profile)
(Begin postamble)
M5
G17 G90
M2
