(Exported by FreeCAD)
(Post Processor: script_module)
(Output Time:2024-12-31 18:25:49.788589)
(Begin preamble)
G17 G90
G21
(Begin operation: TC: 3.175 Z2 droite011)
(Path: TC: 3.175 Z2 droite011)
(TC: 3.175 Z2 droite011)
(Begin toolchange)
( M6 T1 )
M3 S24000
(Finish operation: TC: 3.175 Z2 droite011)
(Begin operation: Fixture)
(Path: Fixture)
G54
(Finish operation: Fixture)
(Begin operation: Pocket3D001)
(Path: Pocket3D001)
(Pocket3D001)
G0 Z17.500
G0 X93.413 Y28.413
G0 Z15.500
G1 X93.413 Y28.413 Z11.443 F100.000
G1 X93.378 Y28.415 Z11.443 F2000.000
G1 X41.622 Y28.415 Z11.443 F2000.000
G1 X41.587 Y28.413 Z11.443 F2000.000
G1 X41.585 Y28.378 Z11.443 F2000.000
G1 X41.585 Y1.622 Z11.443 F2000.000
G1 X41.587 Y1.587 Z11.443 F2000.000
G1 X41.622 Y1.585 Z11.443 F2000.000
G1 X93.378 Y1.585 Z11.443 F2000.000
G1 X93.413 Y1.587 Z11.443 F2000.000
G1 X93.415 Y1.622 Z11.443 F2000.000
G1 X93.415 Y28.378 Z11.443 F2000.000
G1 X93.413 Y28.413 Z11.443 F2000.000
G1 X92.147 Y27.147 Z11.443 F100.000
G1 X42.853 Y27.147 Z11.443 F2000.000
G1 X42.853 Y2.853 Z11.443 F2000.000
G1 X92.147 Y2.853 Z11.443 F2000.000
G1 X92.147 Y27.147 Z11.443 F2000.000
G1 X90.879 Y25.879 Z11.443 F100.000
G1 X44.121 Y25.879 Z11.443 F2000.000
G1 X44.121 Y4.121 Z11.443 F2000.000
G1 X90.879 Y4.121 Z11.443 F2000.000
G1 X90.879 Y25.879 Z11.443 F2000.000
G1 X89.611 Y24.611 Z11.443 F100.000
G1 X45.389 Y24.611 Z11.443 F2000.000
G1 X45.389 Y5.389 Z11.443 F2000.000
G1 X89.611 Y5.389 Z11.443 F2000.000
G1 X89.611 Y24.611 Z11.443 F2000.000
G1 X88.343 Y23.343 Z11.443 F100.000
G1 X46.657 Y23.343 Z11.443 F2000.000
G1 X46.657 Y6.657 Z11.443 F2000.000
G1 X88.343 Y6.657 Z11.443 F2000.000
G1 X88.343 Y23.343 Z11.443 F2000.000
G1 X87.075 Y22.075 Z11.443 F100.000
G1 X47.925 Y22.075 Z11.443 F2000.000
G1 X47.925 Y7.925 Z11.443 F2000.000
G1 X87.075 Y7.925 Z11.443 F2000.000
G1 X87.075 Y22.075 Z11.443 F2000.000
G1 X85.807 Y20.807 Z11.443 F100.000
G1 X49.193 Y20.807 Z11.443 F2000.000
G1 X49.193 Y9.193 Z11.443 F2000.000
G1 X85.807 Y9.193 Z11.443 F2000.000
G1 X85.807 Y20.807 Z11.443 F2000.000
G1 X84.539 Y19.539 Z11.443 F100.000
G1 X50.461 Y19.539 Z11.443 F2000.000
G1 X50.461 Y10.461 Z11.443 F2000.000
G1 X84.539 Y10.461 Z11.443 F2000.000
G1 X84.539 Y19.539 Z11.443 F2000.000
G1 X83.271 Y18.271 Z11.443 F100.000
G1 X51.729 Y18.271 Z11.443 F2000.000
G1 X51.729 Y11.729 Z11.443 F2000.000
G1 X83.271 Y11.729 Z11.443 F2000.000
G1 X83.271 Y18.271 Z11.443 F2000.000
G1 X82.003 Y17.003 Z11.443 F100.000
G1 X52.997 Y17.003 Z11.443 F2000.000
G1 X52.997 Y12.997 Z11.443 F2000.000
G1 X82.003 Y12.997 Z11.443 F2000.000
G1 X82.003 Y17.003 Z11.443 F2000.000
G1 X80.735 Y15.735 Z11.443 F100.000
G1 X54.265 Y15.735 Z11.443 F2000.000
G1 X54.265 Y14.265 Z11.443 F2000.000
G1 X80.735 Y14.265 Z11.443 F2000.000
G1 X80.735 Y15.735 Z11.443 F2000.000
G0 Z17.500
G0 X-41.585 Z17.500
G0 X-41.585 Z15.500
G1 X-41.585 Y15.735 Z11.443 F100.000
G1 X-41.585 Y28.378 Z11.443 F2000.000
G1 X-41.586 Y28.413 Z11.443 F2000.000
G1 X-41.622 Y28.415 Z11.443 F2000.000
G1 X-93.378 Y28.415 Z11.443 F2000.000
G1 X-93.413 Y28.413 Z11.443 F2000.000
G1 X-93.415 Y28.378 Z11.443 F2000.000
G1 X-93.415 Y1.622 Z11.443 F2000.000
G1 X-93.413 Y1.587 Z11.443 F2000.000
G1 X-93.378 Y1.585 Z11.443 F2000.000
G1 X-41.622 Y1.585 Z11.443 F2000.000
G1 X-41.586 Y1.587 Z11.443 F2000.000
G1 X-41.585 Y1.622 Z11.443 F2000.000
G1 X-41.585 Y15.735 Z11.443 F2000.000
G1 X-42.853 Y15.735 Z11.443 F100.000
G1 X-42.853 Y27.147 Z11.443 F2000.000
G1 X-92.147 Y27.147 Z11.443 F2000.000
G1 X-92.147 Y2.853 Z11.443 F2000.000
G1 X-42.853 Y2.853 Z11.443 F2000.000
G1 X-42.853 Y15.735 Z11.443 F2000.000
G1 X-44.121 Y15.735 Z11.443 F100.000
G1 X-44.121 Y25.879 Z11.443 F2000.000
G1 X-90.879 Y25.879 Z11.443 F2000.000
G1 X-90.879 Y4.121 Z11.443 F2000.000
G1 X-44.121 Y4.121 Z11.443 F2000.000
G1 X-44.121 Y15.735 Z11.443 F2000.000
G1 X-45.389 Y15.735 Z11.443 F100.000
G1 X-45.389 Y24.611 Z11.443 F2000.000
G1 X-89.611 Y24.611 Z11.443 F2000.000
G1 X-89.611 Y5.389 Z11.443 F2000.000
G1 X-45.389 Y5.389 Z11.443 F2000.000
G1 X-45.389 Y15.735 Z11.443 F2000.000
G1 X-46.657 Y15.735 Z11.443 F100.000
G1 X-46.657 Y23.343 Z11.443 F2000.000
G1 X-88.343 Y23.343 Z11.443 F2000.000
G1 X-88.343 Y6.657 Z11.443 F2000.000
G1 X-46.657 Y6.657 Z11.443 F2000.000
G1 X-46.657 Y15.735 Z11.443 F2000.000
G1 X-47.925 Y15.735 Z11.443 F100.000
G1 X-47.925 Y22.075 Z11.443 F2000.000
G1 X-87.075 Y22.075 Z11.443 F2000.000
G1 X-87.075 Y7.925 Z11.443 F2000.000
G1 X-47.925 Y7.925 Z11.443 F2000.000
G1 X-47.925 Y15.735 Z11.443 F2000.000
G1 X-49.193 Y15.735 Z11.443 F100.000
G1 X-49.193 Y20.807 Z11.443 F2000.000
G1 X-85.807 Y20.807 Z11.443 F2000.000
G1 X-85.807 Y9.193 Z11.443 F2000.000
G1 X-49.193 Y9.193 Z11.443 F2000.000
G1 X-49.193 Y15.735 Z11.443 F2000.000
G1 X-50.461 Y15.735 Z11.443 F100.000
G1 X-50.461 Y19.539 Z11.443 F2000.000
G1 X-84.539 Y19.539 Z11.443 F2000.000
G1 X-84.539 Y10.461 Z11.443 F2000.000
G1 X-50.461 Y10.461 Z11.443 F2000.000
G1 X-50.461 Y15.735 Z11.443 F2000.000
G1 X-51.729 Y15.735 Z11.443 F100.000
G1 X-51.729 Y18.271 Z11.443 F2000.000
G1 X-83.271 Y18.271 Z11.443 F2000.000
G1 X-83.271 Y11.729 Z11.443 F2000.000
G1 X-51.729 Y11.729 Z11.443 F2000.000
G1 X-51.729 Y15.735 Z11.443 F2000.000
G1 X-52.997 Y15.735 Z11.443 F100.000
G1 X-52.997 Y17.003 Z11.443 F2000.000
G1 X-82.003 Y17.003 Z11.443 F2000.000
G1 X-82.003 Y12.997 Z11.443 F2000.000
G1 X-52.997 Y12.997 Z11.443 F2000.000
G1 X-52.997 Y15.735 Z11.443 F2000.000
G1 X-54.265 Y15.735 Z11.443 F100.000
G1 X-80.735 Y15.735 Z11.443 F2000.000
G1 X-80.735 Y14.265 Z11.443 F2000.000
G1 X-54.265 Y14.265 Z11.443 F2000.000
G1 X-54.265 Y15.735 Z11.443 F2000.000
G1 X-54.265 Y15.735 Z10.387 F100.000
G1 X-80.735 Y15.735 Z10.387 F2000.000
G1 X-80.735 Y14.265 Z10.387 F2000.000
G1 X-54.265 Y14.265 Z10.387 F2000.000
G1 X-54.265 Y15.735 Z10.387 F2000.000
G1 X-52.997 Y15.735 Z10.387 F100.000
G1 X-52.997 Y17.003 Z10.387 F2000.000
G1 X-82.003 Y17.003 Z10.387 F2000.000
G1 X-82.003 Y12.997 Z10.387 F2000.000
G1 X-52.997 Y12.997 Z10.387 F2000.000
G1 X-52.997 Y15.735 Z10.387 F2000.000
G1 X-51.729 Y15.735 Z10.387 F100.000
G1 X-51.729 Y18.271 Z10.387 F2000.000
G1 X-83.271 Y18.271 Z10.387 F2000.000
G1 X-83.271 Y11.729 Z10.387 F2000.000
G1 X-51.729 Y11.729 Z10.387 F2000.000
G1 X-51.729 Y15.735 Z10.387 F2000.000
G1 X-50.461 Y15.735 Z10.387 F100.000
G1 X-50.461 Y19.539 Z10.387 F2000.000
G1 X-84.539 Y19.539 Z10.387 F2000.000
G1 X-84.539 Y10.461 Z10.387 F2000.000
G1 X-50.461 Y10.461 Z10.387 F2000.000
G1 X-50.461 Y15.735 Z10.387 F2000.000
G1 X-49.193 Y15.735 Z10.387 F100.000
G1 X-49.193 Y20.807 Z10.387 F2000.000
G1 X-85.807 Y20.807 Z10.387 F2000.000
G1 X-85.807 Y9.193 Z10.387 F2000.000
G1 X-49.193 Y9.193 Z10.387 F2000.000
G1 X-49.193 Y15.735 Z10.387 F2000.000
G1 X-47.925 Y15.735 Z10.387 F100.000
G1 X-47.925 Y22.075 Z10.387 F2000.000
G1 X-87.075 Y22.075 Z10.387 F2000.000
G1 X-87.075 Y7.925 Z10.387 F2000.000
G1 X-47.925 Y7.925 Z10.387 F2000.000
G1 X-47.925 Y15.735 Z10.387 F2000.000
G1 X-46.657 Y15.735 Z10.387 F100.000
G1 X-46.657 Y23.343 Z10.387 F2000.000
G1 X-88.343 Y23.343 Z10.387 F2000.000
G1 X-88.343 Y6.657 Z10.387 F2000.000
G1 X-46.657 Y6.657 Z10.387 F2000.000
G1 X-46.657 Y15.735 Z10.387 F2000.000
G1 X-45.389 Y15.735 Z10.387 F100.000
G1 X-45.389 Y24.611 Z10.387 F2000.000
G1 X-89.611 Y24.611 Z10.387 F2000.000
G1 X-89.611 Y5.389 Z10.387 F2000.000
G1 X-45.389 Y5.389 Z10.387 F2000.000
G1 X-45.389 Y15.735 Z10.387 F2000.000
G1 X-44.121 Y15.735 Z10.387 F100.000
G1 X-44.121 Y25.879 Z10.387 F2000.000
G1 X-90.879 Y25.879 Z10.387 F2000.000
G1 X-90.879 Y4.121 Z10.387 F2000.000
G1 X-44.121 Y4.121 Z10.387 F2000.000
G1 X-44.121 Y15.735 Z10.387 F2000.000
G1 X-42.853 Y15.735 Z10.387 F100.000
G1 X-42.853 Y27.147 Z10.387 F2000.000
G1 X-92.147 Y27.147 Z10.387 F2000.000
G1 X-92.147 Y2.853 Z10.387 F2000.000
G1 X-42.853 Y2.853 Z10.387 F2000.000
G1 X-42.853 Y15.735 Z10.387 F2000.000
G1 X-41.585 Y15.735 Z10.387 F100.000
G1 X-41.585 Y28.378 Z10.387 F2000.000
G1 X-41.586 Y28.413 Z10.387 F2000.000
G1 X-41.622 Y28.415 Z10.387 F2000.000
G1 X-93.378 Y28.415 Z10.387 F2000.000
G1 X-93.413 Y28.413 Z10.387 F2000.000
G1 X-93.415 Y28.378 Z10.387 F2000.000
G1 X-93.415 Y1.622 Z10.387 F2000.000
G1 X-93.413 Y1.587 Z10.387 F2000.000
G1 X-93.378 Y1.585 Z10.387 F2000.000
G1 X-41.622 Y1.585 Z10.387 F2000.000
G1 X-41.586 Y1.587 Z10.387 F2000.000
G1 X-41.585 Y1.622 Z10.387 F2000.000
G1 X-41.585 Y15.735 Z10.387 F2000.000
G0 Z17.500
G0 X41.585 Z17.500
G0 X41.585 Z15.500
G1 X41.585 Y15.735 Z10.387 F100.000
G1 X41.585 Y1.622 Z10.387 F2000.000
G1 X41.587 Y1.587 Z10.387 F2000.000
G1 X41.622 Y1.585 Z10.387 F2000.000
G1 X93.378 Y1.585 Z10.387 F2000.000
G1 X93.413 Y1.587 Z10.387 F2000.000
G1 X93.415 Y1.622 Z10.387 F2000.000
G1 X93.415 Y28.378 Z10.387 F2000.000
G1 X93.413 Y28.413 Z10.387 F2000.000
G1 X93.378 Y28.415 Z10.387 F2000.000
G1 X41.622 Y28.415 Z10.387 F2000.000
G1 X41.587 Y28.413 Z10.387 F2000.000
G1 X41.585 Y28.378 Z10.387 F2000.000
G1 X41.585 Y15.735 Z10.387 F2000.000
G1 X42.853 Y15.735 Z10.387 F100.000
G1 X42.853 Y2.853 Z10.387 F2000.000
G1 X92.147 Y2.853 Z10.387 F2000.000
G1 X92.147 Y27.147 Z10.387 F2000.000
G1 X42.853 Y27.147 Z10.387 F2000.000
G1 X42.853 Y15.735 Z10.387 F2000.000
G1 X44.121 Y15.735 Z10.387 F100.000
G1 X44.121 Y4.121 Z10.387 F2000.000
G1 X90.879 Y4.121 Z10.387 F2000.000
G1 X90.879 Y25.879 Z10.387 F2000.000
G1 X44.121 Y25.879 Z10.387 F2000.000
G1 X44.121 Y15.735 Z10.387 F2000.000
G1 X45.389 Y15.735 Z10.387 F100.000
G1 X45.389 Y5.389 Z10.387 F2000.000
G1 X89.611 Y5.389 Z10.387 F2000.000
G1 X89.611 Y24.611 Z10.387 F2000.000
G1 X45.389 Y24.611 Z10.387 F2000.000
G1 X45.389 Y15.735 Z10.387 F2000.000
G1 X46.657 Y15.735 Z10.387 F100.000
G1 X46.657 Y6.657 Z10.387 F2000.000
G1 X88.343 Y6.657 Z10.387 F2000.000
G1 X88.343 Y23.343 Z10.387 F2000.000
G1 X46.657 Y23.343 Z10.387 F2000.000
G1 X46.657 Y15.735 Z10.387 F2000.000
G1 X47.925 Y15.735 Z10.387 F100.000
G1 X47.925 Y7.925 Z10.387 F2000.000
G1 X87.075 Y7.925 Z10.387 F2000.000
G1 X87.075 Y22.075 Z10.387 F2000.000
G1 X47.925 Y22.075 Z10.387 F2000.000
G1 X47.925 Y15.735 Z10.387 F2000.000
G1 X49.193 Y15.735 Z10.387 F100.000
G1 X49.193 Y9.193 Z10.387 F2000.000
G1 X85.807 Y9.193 Z10.387 F2000.000
G1 X85.807 Y20.807 Z10.387 F2000.000
G1 X49.193 Y20.807 Z10.387 F2000.000
G1 X49.193 Y15.735 Z10.387 F2000.000
G1 X50.461 Y15.735 Z10.387 F100.000
G1 X50.461 Y10.461 Z10.387 F2000.000
G1 X84.539 Y10.461 Z10.387 F2000.000
G1 X84.539 Y19.539 Z10.387 F2000.000
G1 X50.461 Y19.539 Z10.387 F2000.000
G1 X50.461 Y15.735 Z10.387 F2000.000
G1 X51.729 Y15.735 Z10.387 F100.000
G1 X51.729 Y11.729 Z10.387 F2000.000
G1 X83.271 Y11.729 Z10.387 F2000.000
G1 X83.271 Y18.271 Z10.387 F2000.000
G1 X51.729 Y18.271 Z10.387 F2000.000
G1 X51.729 Y15.735 Z10.387 F2000.000
G1 X52.997 Y15.735 Z10.387 F100.000
G1 X52.997 Y12.997 Z10.387 F2000.000
G1 X82.003 Y12.997 Z10.387 F2000.000
G1 X82.003 Y17.003 Z10.387 F2000.000
G1 X52.997 Y17.003 Z10.387 F2000.000
G1 X52.997 Y15.735 Z10.387 F2000.000
G1 X54.265 Y15.735 Z10.387 F100.000
G1 X54.265 Y14.265 Z10.387 F2000.000
G1 X80.735 Y14.265 Z10.387 F2000.000
G1 X80.735 Y15.735 Z10.387 F2000.000
G1 X54.265 Y15.735 Z10.387 F2000.000
G1 X54.265 Y15.735 Z9.330 F100.000
G1 X54.265 Y14.265 Z9.330 F2000.000
G1 X80.735 Y14.265 Z9.330 F2000.000
G1 X80.735 Y15.735 Z9.330 F2000.000
G1 X54.265 Y15.735 Z9.330 F2000.000
G1 X52.997 Y15.735 Z9.330 F100.000
G1 X52.997 Y12.997 Z9.330 F2000.000
G1 X82.003 Y12.997 Z9.330 F2000.000
G1 X82.003 Y17.003 Z9.330 F2000.000
G1 X52.997 Y17.003 Z9.330 F2000.000
G1 X52.997 Y15.735 Z9.330 F2000.000
G1 X51.729 Y15.735 Z9.330 F100.000
G1 X51.729 Y11.729 Z9.330 F2000.000
G1 X83.271 Y11.729 Z9.330 F2000.000
G1 X83.271 Y18.271 Z9.330 F2000.000
G1 X51.729 Y18.271 Z9.330 F2000.000
G1 X51.729 Y15.735 Z9.330 F2000.000
G1 X50.461 Y15.735 Z9.330 F100.000
G1 X50.461 Y10.461 Z9.330 F2000.000
G1 X84.539 Y10.461 Z9.330 F2000.000
G1 X84.539 Y19.539 Z9.330 F2000.000
G1 X50.461 Y19.539 Z9.330 F2000.000
G1 X50.461 Y15.735 Z9.330 F2000.000
G1 X49.193 Y15.735 Z9.330 F100.000
G1 X49.193 Y9.193 Z9.330 F2000.000
G1 X85.807 Y9.193 Z9.330 F2000.000
G1 X85.807 Y20.807 Z9.330 F2000.000
G1 X49.193 Y20.807 Z9.330 F2000.000
G1 X49.193 Y15.735 Z9.330 F2000.000
G1 X47.925 Y15.735 Z9.330 F100.000
G1 X47.925 Y7.925 Z9.330 F2000.000
G1 X87.075 Y7.925 Z9.330 F2000.000
G1 X87.075 Y22.075 Z9.330 F2000.000
G1 X47.925 Y22.075 Z9.330 F2000.000
G1 X47.925 Y15.735 Z9.330 F2000.000
G1 X46.657 Y15.735 Z9.330 F100.000
G1 X46.657 Y6.657 Z9.330 F2000.000
G1 X88.343 Y6.657 Z9.330 F2000.000
G1 X88.343 Y23.343 Z9.330 F2000.000
G1 X46.657 Y23.343 Z9.330 F2000.000
G1 X46.657 Y15.735 Z9.330 F2000.000
G1 X45.389 Y15.735 Z9.330 F100.000
G1 X45.389 Y5.389 Z9.330 F2000.000
G1 X89.611 Y5.389 Z9.330 F2000.000
G1 X89.611 Y24.611 Z9.330 F2000.000
G1 X45.389 Y24.611 Z9.330 F2000.000
G1 X45.389 Y15.735 Z9.330 F2000.000
G1 X44.121 Y15.735 Z9.330 F100.000
G1 X44.121 Y4.121 Z9.330 F2000.000
G1 X90.879 Y4.121 Z9.330 F2000.000
G1 X90.879 Y25.879 Z9.330 F2000.000
G1 X44.121 Y25.879 Z9.330 F2000.000
G1 X44.121 Y15.735 Z9.330 F2000.000
G1 X42.853 Y15.735 Z9.330 F100.000
G1 X42.853 Y2.853 Z9.330 F2000.000
G1 X92.147 Y2.853 Z9.330 F2000.000
G1 X92.147 Y27.147 Z9.330 F2000.000
G1 X42.853 Y27.147 Z9.330 F2000.000
G1 X42.853 Y15.735 Z9.330 F2000.000
G1 X41.585 Y15.735 Z9.330 F100.000
G1 X41.585 Y1.622 Z9.330 F2000.000
G1 X41.587 Y1.587 Z9.330 F2000.000
G1 X41.622 Y1.585 Z9.330 F2000.000
G1 X93.378 Y1.585 Z9.330 F2000.000
G1 X93.413 Y1.587 Z9.330 F2000.000
G1 X93.415 Y1.622 Z9.330 F2000.000
G1 X93.415 Y28.378 Z9.330 F2000.000
G1 X93.413 Y28.413 Z9.330 F2000.000
G1 X93.378 Y28.415 Z9.330 F2000.000
G1 X41.622 Y28.415 Z9.330 F2000.000
G1 X41.587 Y28.413 Z9.330 F2000.000
G1 X41.585 Y28.378 Z9.330 F2000.000
G1 X41.585 Y15.735 Z9.330 F2000.000
G0 Z17.500
G0 X-41.585 Z17.500
G0 X-41.585 Z15.500
G1 X-41.585 Y15.735 Z9.330 F100.000
G1 X-41.585 Y28.378 Z9.330 F2000.000
G1 X-41.586 Y28.413 Z9.330 F2000.000
G1 X-41.622 Y28.415 Z9.330 F2000.000
G1 X-93.378 Y28.415 Z9.330 F2000.000
G1 X-93.413 Y28.413 Z9.330 F2000.000
G1 X-93.415 Y28.378 Z9.330 F2000.000
G1 X-93.415 Y1.622 Z9.330 F2000.000
G1 X-93.413 Y1.587 Z9.330 F2000.000
G1 X-93.378 Y1.585 Z9.330 F2000.000
G1 X-41.622 Y1.585 Z9.330 F2000.000
G1 X-41.586 Y1.587 Z9.330 F2000.000
G1 X-41.585 Y1.622 Z9.330 F2000.000
G1 X-41.585 Y15.735 Z9.330 F2000.000
G1 X-42.853 Y15.735 Z9.330 F100.000
G1 X-42.853 Y27.147 Z9.330 F2000.000
G1 X-92.147 Y27.147 Z9.330 F2000.000
G1 X-92.147 Y2.853 Z9.330 F2000.000
G1 X-42.853 Y2.853 Z9.330 F2000.000
G1 X-42.853 Y15.735 Z9.330 F2000.000
G1 X-44.121 Y15.735 Z9.330 F100.000
G1 X-44.121 Y25.879 Z9.330 F2000.000
G1 X-90.879 Y25.879 Z9.330 F2000.000
G1 X-90.879 Y4.121 Z9.330 F2000.000
G1 X-44.121 Y4.121 Z9.330 F2000.000
G1 X-44.121 Y15.735 Z9.330 F2000.000
G1 X-45.389 Y15.735 Z9.330 F100.000
G1 X-45.389 Y24.611 Z9.330 F2000.000
G1 X-89.611 Y24.611 Z9.330 F2000.000
G1 X-89.611 Y5.389 Z9.330 F2000.000
G1 X-45.389 Y5.389 Z9.330 F2000.000
G1 X-45.389 Y15.735 Z9.330 F2000.000
G1 X-46.657 Y15.735 Z9.330 F100.000
G1 X-46.657 Y23.343 Z9.330 F2000.000
G1 X-88.343 Y23.343 Z9.330 F2000.000
G1 X-88.343 Y6.657 Z9.330 F2000.000
G1 X-46.657 Y6.657 Z9.330 F2000.000
G1 X-46.657 Y15.735 Z9.330 F2000.000
G1 X-47.925 Y15.735 Z9.330 F100.000
G1 X-47.925 Y22.075 Z9.330 F2000.000
G1 X-87.075 Y22.075 Z9.330 F2000.000
G1 X-87.075 Y7.925 Z9.330 F2000.000
G1 X-47.925 Y7.925 Z9.330 F2000.000
G1 X-47.925 Y15.735 Z9.330 F2000.000
G1 X-49.193 Y15.735 Z9.330 F100.000
G1 X-49.193 Y20.807 Z9.330 F2000.000
G1 X-85.807 Y20.807 Z9.330 F2000.000
G1 X-85.807 Y9.193 Z9.330 F2000.000
G1 X-49.193 Y9.193 Z9.330 F2000.000
G1 X-49.193 Y15.735 Z9.330 F2000.000
G1 X-50.461 Y15.735 Z9.330 F100.000
G1 X-50.461 Y19.539 Z9.330 F2000.000
G1 X-84.539 Y19.539 Z9.330 F2000.000
G1 X-84.539 Y10.461 Z9.330 F2000.000
G1 X-50.461 Y10.461 Z9.330 F2000.000
G1 X-50.461 Y15.735 Z9.330 F2000.000
G1 X-51.729 Y15.735 Z9.330 F100.000
G1 X-51.729 Y18.271 Z9.330 F2000.000
G1 X-83.271 Y18.271 Z9.330 F2000.000
G1 X-83.271 Y11.729 Z9.330 F2000.000
G1 X-51.729 Y11.729 Z9.330 F2000.000
G1 X-51.729 Y15.735 Z9.330 F2000.000
G1 X-52.997 Y15.735 Z9.330 F100.000
G1 X-52.997 Y17.003 Z9.330 F2000.000
G1 X-82.003 Y17.003 Z9.330 F2000.000
G1 X-82.003 Y12.997 Z9.330 F2000.000
G1 X-52.997 Y12.997 Z9.330 F2000.000
G1 X-52.997 Y15.735 Z9.330 F2000.000
G1 X-54.265 Y15.735 Z9.330 F100.000
G1 X-80.735 Y15.735 Z9.330 F2000.000
G1 X-80.735 Y14.265 Z9.330 F2000.000
G1 X-54.265 Y14.265 Z9.330 F2000.000
G1 X-54.265 Y15.735 Z9.330 F2000.000
G1 X-54.265 Y15.735 Z8.273 F100.000
G1 X-80.735 Y15.735 Z8.273 F2000.000
G1 X-80.735 Y14.265 Z8.273 F2000.000
G1 X-54.265 Y14.265 Z8.273 F2000.000
G1 X-54.265 Y15.735 Z8.273 F2000.000
G1 X-52.997 Y15.735 Z8.273 F100.000
G1 X-52.997 Y17.003 Z8.273 F2000.000
G1 X-82.003 Y17.003 Z8.273 F2000.000
G1 X-82.003 Y12.997 Z8.273 F2000.000
G1 X-52.997 Y12.997 Z8.273 F2000.000
G1 X-52.997 Y15.735 Z8.273 F2000.000
G1 X-51.729 Y15.735 Z8.273 F100.000
G1 X-51.729 Y18.271 Z8.273 F2000.000
G1 X-83.271 Y18.271 Z8.273 F2000.000
G1 X-83.271 Y11.729 Z8.273 F2000.000
G1 X-51.729 Y11.729 Z8.273 F2000.000
G1 X-51.729 Y15.735 Z8.273 F2000.000
G1 X-50.461 Y15.735 Z8.273 F100.000
G1 X-50.461 Y19.539 Z8.273 F2000.000
G1 X-84.539 Y19.539 Z8.273 F2000.000
G1 X-84.539 Y10.461 Z8.273 F2000.000
G1 X-50.461 Y10.461 Z8.273 F2000.000
G1 X-50.461 Y15.735 Z8.273 F2000.000
G1 X-49.193 Y15.735 Z8.273 F100.000
G1 X-49.193 Y20.807 Z8.273 F2000.000
G1 X-85.807 Y20.807 Z8.273 F2000.000
G1 X-85.807 Y9.193 Z8.273 F2000.000
G1 X-49.193 Y9.193 Z8.273 F2000.000
G1 X-49.193 Y15.735 Z8.273 F2000.000
G1 X-47.925 Y15.735 Z8.273 F100.000
G1 X-47.925 Y22.075 Z8.273 F2000.000
G1 X-87.075 Y22.075 Z8.273 F2000.000
G1 X-87.075 Y7.925 Z8.273 F2000.000
G1 X-47.925 Y7.925 Z8.273 F2000.000
G1 X-47.925 Y15.735 Z8.273 F2000.000
G1 X-46.657 Y15.735 Z8.273 F100.000
G1 X-46.657 Y23.343 Z8.273 F2000.000
G1 X-88.343 Y23.343 Z8.273 F2000.000
G1 X-88.343 Y6.657 Z8.273 F2000.000
G1 X-46.657 Y6.657 Z8.273 F2000.000
G1 X-46.657 Y15.735 Z8.273 F2000.000
G1 X-45.389 Y15.735 Z8.273 F100.000
G1 X-45.389 Y24.611 Z8.273 F2000.000
G1 X-89.611 Y24.611 Z8.273 F2000.000
G1 X-89.611 Y5.389 Z8.273 F2000.000
G1 X-45.389 Y5.389 Z8.273 F2000.000
G1 X-45.389 Y15.735 Z8.273 F2000.000
G1 X-44.121 Y15.735 Z8.273 F100.000
G1 X-44.121 Y25.879 Z8.273 F2000.000
G1 X-90.879 Y25.879 Z8.273 F2000.000
G1 X-90.879 Y4.121 Z8.273 F2000.000
G1 X-44.121 Y4.121 Z8.273 F2000.000
G1 X-44.121 Y15.735 Z8.273 F2000.000
G1 X-42.853 Y15.735 Z8.273 F100.000
G1 X-42.853 Y27.147 Z8.273 F2000.000
G1 X-92.147 Y27.147 Z8.273 F2000.000
G1 X-92.147 Y2.853 Z8.273 F2000.000
G1 X-42.853 Y2.853 Z8.273 F2000.000
G1 X-42.853 Y15.735 Z8.273 F2000.000
G1 X-41.585 Y15.735 Z8.273 F100.000
G1 X-41.585 Y28.378 Z8.273 F2000.000
G1 X-41.586 Y28.413 Z8.273 F2000.000
G1 X-41.622 Y28.415 Z8.273 F2000.000
G1 X-93.378 Y28.415 Z8.273 F2000.000
G1 X-93.413 Y28.413 Z8.273 F2000.000
G1 X-93.415 Y28.378 Z8.273 F2000.000
G1 X-93.415 Y1.622 Z8.273 F2000.000
G1 X-93.413 Y1.587 Z8.273 F2000.000
G1 X-93.378 Y1.585 Z8.273 F2000.000
G1 X-41.622 Y1.585 Z8.273 F2000.000
G1 X-41.586 Y1.587 Z8.273 F2000.000
G1 X-41.585 Y1.622 Z8.273 F2000.000
G1 X-41.585 Y15.735 Z8.273 F2000.000
G0 Z17.500
G0 X41.585 Z17.500
G0 X41.585 Z15.500
G1 X41.585 Y15.735 Z8.273 F100.000
G1 X41.585 Y1.622 Z8.273 F2000.000
G1 X41.587 Y1.587 Z8.273 F2000.000
G1 X41.622 Y1.585 Z8.273 F2000.000
G1 X93.378 Y1.585 Z8.273 F2000.000
G1 X93.413 Y1.587 Z8.273 F2000.000
G1 X93.415 Y1.622 Z8.273 F2000.000
G1 X93.415 Y28.378 Z8.273 F2000.000
G1 X93.413 Y28.413 Z8.273 F2000.000
G1 X93.378 Y28.415 Z8.273 F2000.000
G1 X41.622 Y28.415 Z8.273 F2000.000
G1 X41.587 Y28.413 Z8.273 F2000.000
G1 X41.585 Y28.378 Z8.273 F2000.000
G1 X41.585 Y15.735 Z8.273 F2000.000
G1 X42.853 Y15.735 Z8.273 F100.000
G1 X42.853 Y2.853 Z8.273 F2000.000
G1 X92.147 Y2.853 Z8.273 F2000.000
G1 X92.147 Y27.147 Z8.273 F2000.000
G1 X42.853 Y27.147 Z8.273 F2000.000
G1 X42.853 Y15.735 Z8.273 F2000.000
G1 X44.121 Y15.735 Z8.273 F100.000
G1 X44.121 Y4.121 Z8.273 F2000.000
G1 X90.879 Y4.121 Z8.273 F2000.000
G1 X90.879 Y25.879 Z8.273 F2000.000
G1 X44.121 Y25.879 Z8.273 F2000.000
G1 X44.121 Y15.735 Z8.273 F2000.000
G1 X45.389 Y15.735 Z8.273 F100.000
G1 X45.389 Y5.389 Z8.273 F2000.000
G1 X89.611 Y5.389 Z8.273 F2000.000
G1 X89.611 Y24.611 Z8.273 F2000.000
G1 X45.389 Y24.611 Z8.273 F2000.000
G1 X45.389 Y15.735 Z8.273 F2000.000
G1 X46.657 Y15.735 Z8.273 F100.000
G1 X46.657 Y6.657 Z8.273 F2000.000
G1 X88.343 Y6.657 Z8.273 F2000.000
G1 X88.343 Y23.343 Z8.273 F2000.000
G1 X46.657 Y23.343 Z8.273 F2000.000
G1 X46.657 Y15.735 Z8.273 F2000.000
G1 X47.925 Y15.735 Z8.273 F100.000
G1 X47.925 Y7.925 Z8.273 F2000.000
G1 X87.075 Y7.925 Z8.273 F2000.000
G1 X87.075 Y22.075 Z8.273 F2000.000
G1 X47.925 Y22.075 Z8.273 F2000.000
G1 X47.925 Y15.735 Z8.273 F2000.000
G1 X49.193 Y15.735 Z8.273 F100.000
G1 X49.193 Y9.193 Z8.273 F2000.000
G1 X85.807 Y9.193 Z8.273 F2000.000
G1 X85.807 Y20.807 Z8.273 F2000.000
G1 X49.193 Y20.807 Z8.273 F2000.000
G1 X49.193 Y15.735 Z8.273 F2000.000
G1 X50.461 Y15.735 Z8.273 F100.000
G1 X50.461 Y10.461 Z8.273 F2000.000
G1 X84.539 Y10.461 Z8.273 F2000.000
G1 X84.539 Y19.539 Z8.273 F2000.000
G1 X50.461 Y19.539 Z8.273 F2000.000
G1 X50.461 Y15.735 Z8.273 F2000.000
G1 X51.729 Y15.735 Z8.273 F100.000
G1 X51.729 Y11.729 Z8.273 F2000.000
G1 X83.271 Y11.729 Z8.273 F2000.000
G1 X83.271 Y18.271 Z8.273 F2000.000
G1 X51.729 Y18.271 Z8.273 F2000.000
G1 X51.729 Y15.735 Z8.273 F2000.000
G1 X52.997 Y15.735 Z8.273 F100.000
G1 X52.997 Y12.997 Z8.273 F2000.000
G1 X82.003 Y12.997 Z8.273 F2000.000
G1 X82.003 Y17.003 Z8.273 F2000.000
G1 X52.997 Y17.003 Z8.273 F2000.000
G1 X52.997 Y15.735 Z8.273 F2000.000
G1 X54.265 Y15.735 Z8.273 F100.000
G1 X54.265 Y14.265 Z8.273 F2000.000
G1 X80.735 Y14.265 Z8.273 F2000.000
G1 X80.735 Y15.735 Z8.273 F2000.000
G1 X54.265 Y15.735 Z8.273 F2000.000
G1 X54.265 Y15.735 Z7.217 F100.000
G1 X54.265 Y14.265 Z7.217 F2000.000
G1 X80.735 Y14.265 Z7.217 F2000.000
G1 X80.735 Y15.735 Z7.217 F2000.000
G1 X54.265 Y15.735 Z7.217 F2000.000
G1 X52.997 Y15.735 Z7.217 F100.000
G1 X52.997 Y12.997 Z7.217 F2000.000
G1 X82.003 Y12.997 Z7.217 F2000.000
G1 X82.003 Y17.003 Z7.217 F2000.000
G1 X52.997 Y17.003 Z7.217 F2000.000
G1 X52.997 Y15.735 Z7.217 F2000.000
G1 X51.729 Y15.735 Z7.217 F100.000
G1 X51.729 Y11.729 Z7.217 F2000.000
G1 X83.271 Y11.729 Z7.217 F2000.000
G1 X83.271 Y18.271 Z7.217 F2000.000
G1 X51.729 Y18.271 Z7.217 F2000.000
G1 X51.729 Y15.735 Z7.217 F2000.000
G1 X50.461 Y15.735 Z7.217 F100.000
G1 X50.461 Y10.461 Z7.217 F2000.000
G1 X84.539 Y10.461 Z7.217 F2000.000
G1 X84.539 Y19.539 Z7.217 F2000.000
G1 X50.461 Y19.539 Z7.217 F2000.000
G1 X50.461 Y15.735 Z7.217 F2000.000
G1 X49.193 Y15.735 Z7.217 F100.000
G1 X49.193 Y9.193 Z7.217 F2000.000
G1 X85.807 Y9.193 Z7.217 F2000.000
G1 X85.807 Y20.807 Z7.217 F2000.000
G1 X49.193 Y20.807 Z7.217 F2000.000
G1 X49.193 Y15.735 Z7.217 F2000.000
G1 X47.925 Y15.735 Z7.217 F100.000
G1 X47.925 Y7.925 Z7.217 F2000.000
G1 X87.075 Y7.925 Z7.217 F2000.000
G1 X87.075 Y22.075 Z7.217 F2000.000
G1 X47.925 Y22.075 Z7.217 F2000.000
G1 X47.925 Y15.735 Z7.217 F2000.000
G1 X46.657 Y15.735 Z7.217 F100.000
G1 X46.657 Y6.657 Z7.217 F2000.000
G1 X88.343 Y6.657 Z7.217 F2000.000
G1 X88.343 Y23.343 Z7.217 F2000.000
G1 X46.657 Y23.343 Z7.217 F2000.000
G1 X46.657 Y15.735 Z7.217 F2000.000
G1 X45.389 Y15.735 Z7.217 F100.000
G1 X45.389 Y5.389 Z7.217 F2000.000
G1 X89.611 Y5.389 Z7.217 F2000.000
G1 X89.611 Y24.611 Z7.217 F2000.000
G1 X45.389 Y24.611 Z7.217 F2000.000
G1 X45.389 Y15.735 Z7.217 F2000.000
G1 X44.121 Y15.735 Z7.217 F100.000
G1 X44.121 Y4.121 Z7.217 F2000.000
G1 X90.879 Y4.121 Z7.217 F2000.000
G1 X90.879 Y25.879 Z7.217 F2000.000
G1 X44.121 Y25.879 Z7.217 F2000.000
G1 X44.121 Y15.735 Z7.217 F2000.000
G1 X42.853 Y15.735 Z7.217 F100.000
G1 X42.853 Y2.853 Z7.217 F2000.000
G1 X92.147 Y2.853 Z7.217 F2000.000
G1 X92.147 Y27.147 Z7.217 F2000.000
G1 X42.853 Y27.147 Z7.217 F2000.000
G1 X42.853 Y15.735 Z7.217 F2000.000
G1 X41.585 Y15.735 Z7.217 F100.000
G1 X41.585 Y1.622 Z7.217 F2000.000
G1 X41.587 Y1.587 Z7.217 F2000.000
G1 X41.622 Y1.585 Z7.217 F2000.000
G1 X93.378 Y1.585 Z7.217 F2000.000
G1 X93.413 Y1.587 Z7.217 F2000.000
G1 X93.415 Y1.622 Z7.217 F2000.000
G1 X93.415 Y28.378 Z7.217 F2000.000
G1 X93.413 Y28.413 Z7.217 F2000.000
G1 X93.378 Y28.415 Z7.217 F2000.000
G1 X41.622 Y28.415 Z7.217 F2000.000
G1 X41.587 Y28.413 Z7.217 F2000.000
G1 X41.585 Y28.378 Z7.217 F2000.000
G1 X41.585 Y15.735 Z7.217 F2000.000
G0 Z17.500
G0 X-41.585 Z17.500
G0 X-41.585 Z15.500
G1 X-41.585 Y15.735 Z7.217 F100.000
G1 X-41.585 Y28.378 Z7.217 F2000.000
G1 X-41.586 Y28.413 Z7.217 F2000.000
G1 X-41.622 Y28.415 Z7.217 F2000.000
G1 X-93.378 Y28.415 Z7.217 F2000.000
G1 X-93.413 Y28.413 Z7.217 F2000.000
G1 X-93.415 Y28.378 Z7.217 F2000.000
G1 X-93.415 Y1.622 Z7.217 F2000.000
G1 X-93.413 Y1.587 Z7.217 F2000.000
G1 X-93.378 Y1.585 Z7.217 F2000.000
G1 X-41.622 Y1.585 Z7.217 F2000.000
G1 X-41.586 Y1.587 Z7.217 F2000.000
G1 X-41.585 Y1.622 Z7.217 F2000.000
G1 X-41.585 Y15.735 Z7.217 F2000.000
G1 X-42.853 Y15.735 Z7.217 F100.000
G1 X-42.853 Y27.147 Z7.217 F2000.000
G1 X-92.147 Y27.147 Z7.217 F2000.000
G1 X-92.147 Y2.853 Z7.217 F2000.000
G1 X-42.853 Y2.853 Z7.217 F2000.000
G1 X-42.853 Y15.735 Z7.217 F2000.000
G1 X-44.121 Y15.735 Z7.217 F100.000
G1 X-44.121 Y25.879 Z7.217 F2000.000
G1 X-90.879 Y25.879 Z7.217 F2000.000
G1 X-90.879 Y4.121 Z7.217 F2000.000
G1 X-44.121 Y4.121 Z7.217 F2000.000
G1 X-44.121 Y15.735 Z7.217 F2000.000
G1 X-45.389 Y15.735 Z7.217 F100.000
G1 X-45.389 Y24.611 Z7.217 F2000.000
G1 X-89.611 Y24.611 Z7.217 F2000.000
G1 X-89.611 Y5.389 Z7.217 F2000.000
G1 X-45.389 Y5.389 Z7.217 F2000.000
G1 X-45.389 Y15.735 Z7.217 F2000.000
G1 X-46.657 Y15.735 Z7.217 F100.000
G1 X-46.657 Y23.343 Z7.217 F2000.000
G1 X-88.343 Y23.343 Z7.217 F2000.000
G1 X-88.343 Y6.657 Z7.217 F2000.000
G1 X-46.657 Y6.657 Z7.217 F2000.000
G1 X-46.657 Y15.735 Z7.217 F2000.000
G1 X-47.925 Y15.735 Z7.217 F100.000
G1 X-47.925 Y22.075 Z7.217 F2000.000
G1 X-87.075 Y22.075 Z7.217 F2000.000
G1 X-87.075 Y7.925 Z7.217 F2000.000
G1 X-47.925 Y7.925 Z7.217 F2000.000
G1 X-47.925 Y15.735 Z7.217 F2000.000
G1 X-49.193 Y15.735 Z7.217 F100.000
G1 X-49.193 Y20.807 Z7.217 F2000.000
G1 X-85.807 Y20.807 Z7.217 F2000.000
G1 X-85.807 Y9.193 Z7.217 F2000.000
G1 X-49.193 Y9.193 Z7.217 F2000.000
G1 X-49.193 Y15.735 Z7.217 F2000.000
G1 X-50.461 Y15.735 Z7.217 F100.000
G1 X-50.461 Y19.539 Z7.217 F2000.000
G1 X-84.539 Y19.539 Z7.217 F2000.000
G1 X-84.539 Y10.461 Z7.217 F2000.000
G1 X-50.461 Y10.461 Z7.217 F2000.000
G1 X-50.461 Y15.735 Z7.217 F2000.000
G1 X-51.729 Y15.735 Z7.217 F100.000
G1 X-51.729 Y18.271 Z7.217 F2000.000
G1 X-83.271 Y18.271 Z7.217 F2000.000
G1 X-83.271 Y11.729 Z7.217 F2000.000
G1 X-51.729 Y11.729 Z7.217 F2000.000
G1 X-51.729 Y15.735 Z7.217 F2000.000
G1 X-52.997 Y15.735 Z7.217 F100.000
G1 X-52.997 Y17.003 Z7.217 F2000.000
G1 X-82.003 Y17.003 Z7.217 F2000.000
G1 X-82.003 Y12.997 Z7.217 F2000.000
G1 X-52.997 Y12.997 Z7.217 F2000.000
G1 X-52.997 Y15.735 Z7.217 F2000.000
G1 X-54.265 Y15.735 Z7.217 F100.000
G1 X-80.735 Y15.735 Z7.217 F2000.000
G1 X-80.735 Y14.265 Z7.217 F2000.000
G1 X-54.265 Y14.265 Z7.217 F2000.000
G1 X-54.265 Y15.735 Z7.217 F2000.000
G1 X-54.265 Y15.735 Z6.160 F100.000
G1 X-80.735 Y15.735 Z6.160 F2000.000
G1 X-80.735 Y14.265 Z6.160 F2000.000
G1 X-54.265 Y14.265 Z6.160 F2000.000
G1 X-54.265 Y15.735 Z6.160 F2000.000
G1 X-54.265 Y17.003 Z6.160 F100.000
G1 X-82.003 Y17.003 Z6.160 F2000.000
G1 X-82.003 Y12.997 Z6.160 F2000.000
G1 X-52.997 Y12.997 Z6.160 F2000.000
G1 X-52.997 Y17.003 Z6.160 F2000.000
G1 X-54.265 Y17.003 Z6.160 F2000.000
G1 X-54.265 Y18.271 Z6.160 F100.000
G1 X-83.271 Y18.271 Z6.160 F2000.000
G1 X-83.271 Y11.729 Z6.160 F2000.000
G1 X-51.729 Y11.729 Z6.160 F2000.000
G1 X-51.729 Y18.271 Z6.160 F2000.000
G1 X-54.265 Y18.271 Z6.160 F2000.000
G1 X-54.265 Y19.539 Z6.160 F100.000
G1 X-84.539 Y19.539 Z6.160 F2000.000
G1 X-84.539 Y10.461 Z6.160 F2000.000
G1 X-50.461 Y10.461 Z6.160 F2000.000
G1 X-50.461 Y19.539 Z6.160 F2000.000
G1 X-54.265 Y19.539 Z6.160 F2000.000
G1 X-54.265 Y20.807 Z6.160 F100.000
G1 X-85.807 Y20.807 Z6.160 F2000.000
G1 X-85.807 Y9.193 Z6.160 F2000.000
G1 X-49.193 Y9.193 Z6.160 F2000.000
G1 X-49.193 Y20.807 Z6.160 F2000.000
G1 X-54.265 Y20.807 Z6.160 F2000.000
G1 X-54.265 Y22.075 Z6.160 F100.000
G1 X-87.075 Y22.075 Z6.160 F2000.000
G1 X-87.075 Y7.925 Z6.160 F2000.000
G1 X-47.925 Y7.925 Z6.160 F2000.000
G1 X-47.925 Y22.075 Z6.160 F2000.000
G1 X-54.265 Y22.075 Z6.160 F2000.000
G1 X-54.265 Y23.343 Z6.160 F100.000
G1 X-88.343 Y23.343 Z6.160 F2000.000
G1 X-88.343 Y6.657 Z6.160 F2000.000
G1 X-46.657 Y6.657 Z6.160 F2000.000
G1 X-46.657 Y23.343 Z6.160 F2000.000
G1 X-54.265 Y23.343 Z6.160 F2000.000
G1 X-54.265 Y24.611 Z6.160 F100.000
G1 X-89.611 Y24.611 Z6.160 F2000.000
G1 X-89.611 Y5.389 Z6.160 F2000.000
G1 X-45.389 Y5.389 Z6.160 F2000.000
G1 X-45.389 Y24.611 Z6.160 F2000.000
G1 X-54.265 Y24.611 Z6.160 F2000.000
G1 X-54.265 Y25.879 Z6.160 F100.000
G1 X-90.879 Y25.879 Z6.160 F2000.000
G1 X-90.879 Y4.121 Z6.160 F2000.000
G1 X-44.121 Y4.121 Z6.160 F2000.000
G1 X-44.121 Y25.879 Z6.160 F2000.000
G1 X-54.265 Y25.879 Z6.160 F2000.000
G1 X-54.265 Y27.147 Z6.160 F100.000
G1 X-92.147 Y27.147 Z6.160 F2000.000
G1 X-92.147 Y2.853 Z6.160 F2000.000
G1 X-42.853 Y2.853 Z6.160 F2000.000
G1 X-42.853 Y27.147 Z6.160 F2000.000
G1 X-54.265 Y27.147 Z6.160 F2000.000
G1 X-54.265 Y28.415 Z6.160 F100.000
G1 X-93.378 Y28.415 Z6.160 F2000.000
G1 X-93.413 Y28.413 Z6.160 F2000.000
G1 X-93.415 Y28.378 Z6.160 F2000.000
G1 X-93.415 Y1.622 Z6.160 F2000.000
G1 X-93.413 Y1.587 Z6.160 F2000.000
G1 X-93.378 Y1.585 Z6.160 F2000.000
G1 X-41.622 Y1.585 Z6.160 F2000.000
G1 X-41.586 Y1.587 Z6.160 F2000.000
G1 X-41.585 Y1.622 Z6.160 F2000.000
G1 X-41.585 Y28.378 Z6.160 F2000.000
G1 X-41.586 Y28.413 Z6.160 F2000.000
G1 X-41.622 Y28.415 Z6.160 F2000.000
G1 X-54.265 Y28.415 Z6.160 F2000.000
G0 Z17.500
G0 X41.585 Y28.378 Z17.500
G0 X41.585 Y28.378 Z15.500
G1 X41.585 Y28.378 Z6.160 F100.000
G1 X41.585 Y1.622 Z6.160 F2000.000
G1 X41.587 Y1.587 Z6.160 F2000.000
G1 X41.622 Y1.585 Z6.160 F2000.000
G1 X93.378 Y1.585 Z6.160 F2000.000
G1 X93.413 Y1.587 Z6.160 F2000.000
G1 X93.415 Y1.622 Z6.160 F2000.000
G1 X93.415 Y28.378 Z6.160 F2000.000
G1 X93.413 Y28.413 Z6.160 F2000.000
G1 X93.378 Y28.415 Z6.160 F2000.000
G1 X41.622 Y28.415 Z6.160 F2000.000
G1 X41.587 Y28.413 Z6.160 F2000.000
G1 X41.585 Y28.378 Z6.160 F2000.000
G1 X42.853 Y27.147 Z6.160 F100.000
G1 X42.853 Y2.853 Z6.160 F2000.000
G1 X92.147 Y2.853 Z6.160 F2000.000
G1 X92.147 Y27.147 Z6.160 F2000.000
G1 X42.853 Y27.147 Z6.160 F2000.000
G1 X44.121 Y25.879 Z6.160 F100.000
G1 X44.121 Y4.121 Z6.160 F2000.000
G1 X90.879 Y4.121 Z6.160 F2000.000
G1 X90.879 Y25.879 Z6.160 F2000.000
G1 X44.121 Y25.879 Z6.160 F2000.000
G1 X45.389 Y24.611 Z6.160 F100.000
G1 X45.389 Y5.389 Z6.160 F2000.000
G1 X89.611 Y5.389 Z6.160 F2000.000
G1 X89.611 Y24.611 Z6.160 F2000.000
G1 X45.389 Y24.611 Z6.160 F2000.000
G1 X46.657 Y23.343 Z6.160 F100.000
G1 X46.657 Y6.657 Z6.160 F2000.000
G1 X88.343 Y6.657 Z6.160 F2000.000
G1 X88.343 Y23.343 Z6.160 F2000.000
G1 X46.657 Y23.343 Z6.160 F2000.000
G1 X47.925 Y22.075 Z6.160 F100.000
G1 X47.925 Y7.925 Z6.160 F2000.000
G1 X87.075 Y7.925 Z6.160 F2000.000
G1 X87.075 Y22.075 Z6.160 F2000.000
G1 X47.925 Y22.075 Z6.160 F2000.000
G1 X49.193 Y20.807 Z6.160 F100.000
G1 X49.193 Y9.193 Z6.160 F2000.000
G1 X85.807 Y9.193 Z6.160 F2000.000
G1 X85.807 Y20.807 Z6.160 F2000.000
G1 X49.193 Y20.807 Z6.160 F2000.000
G1 X50.461 Y19.539 Z6.160 F100.000
G1 X50.461 Y10.461 Z6.160 F2000.000
G1 X84.539 Y10.461 Z6.160 F2000.000
G1 X84.539 Y19.539 Z6.160 F2000.000
G1 X50.461 Y19.539 Z6.160 F2000.000
G1 X51.729 Y18.271 Z6.160 F100.000
G1 X51.729 Y11.729 Z6.160 F2000.000
G1 X83.271 Y11.729 Z6.160 F2000.000
G1 X83.271 Y18.271 Z6.160 F2000.000
G1 X51.729 Y18.271 Z6.160 F2000.000
G1 X52.997 Y17.003 Z6.160 F100.000
G1 X52.997 Y12.997 Z6.160 F2000.000
G1 X82.003 Y12.997 Z6.160 F2000.000
G1 X82.003 Y17.003 Z6.160 F2000.000
G1 X52.997 Y17.003 Z6.160 F2000.000
G1 X54.265 Y15.735 Z6.160 F100.000
G1 X54.265 Y14.265 Z6.160 F2000.000
G1 X80.735 Y14.265 Z6.160 F2000.000
G1 X80.735 Y15.735 Z6.160 F2000.000
G1 X54.265 Y15.735 Z6.160 F2000.000
G1 X54.265 Y15.735 Z5.103 F100.000
G1 X54.265 Y14.265 Z5.103 F2000.000
G1 X80.735 Y14.265 Z5.103 F2000.000
G1 X80.735 Y15.735 Z5.103 F2000.000
G1 X54.265 Y15.735 Z5.103 F2000.000
G1 X52.997 Y15.735 Z5.103 F100.000
G1 X52.997 Y12.997 Z5.103 F2000.000
G1 X82.003 Y12.997 Z5.103 F2000.000
G1 X82.003 Y17.003 Z5.103 F2000.000
G1 X52.997 Y17.003 Z5.103 F2000.000
G1 X52.997 Y15.735 Z5.103 F2000.000
G1 X51.729 Y15.735 Z5.103 F100.000
G1 X51.729 Y11.729 Z5.103 F2000.000
G1 X83.271 Y11.729 Z5.103 F2000.000
G1 X83.271 Y18.271 Z5.103 F2000.000
G1 X51.729 Y18.271 Z5.103 F2000.000
G1 X51.729 Y15.735 Z5.103 F2000.000
G1 X50.461 Y15.735 Z5.103 F100.000
G1 X50.461 Y10.461 Z5.103 F2000.000
G1 X84.539 Y10.461 Z5.103 F2000.000
G1 X84.539 Y19.539 Z5.103 F2000.000
G1 X50.461 Y19.539 Z5.103 F2000.000
G1 X50.461 Y15.735 Z5.103 F2000.000
G1 X49.193 Y15.735 Z5.103 F100.000
G1 X49.193 Y9.193 Z5.103 F2000.000
G1 X85.807 Y9.193 Z5.103 F2000.000
G1 X85.807 Y20.807 Z5.103 F2000.000
G1 X49.193 Y20.807 Z5.103 F2000.000
G1 X49.193 Y15.735 Z5.103 F2000.000
G1 X47.925 Y15.735 Z5.103 F100.000
G1 X47.925 Y7.925 Z5.103 F2000.000
G1 X87.075 Y7.925 Z5.103 F2000.000
G1 X87.075 Y22.075 Z5.103 F2000.000
G1 X47.925 Y22.075 Z5.103 F2000.000
G1 X47.925 Y15.735 Z5.103 F2000.000
G1 X46.657 Y15.735 Z5.103 F100.000
G1 X46.657 Y6.657 Z5.103 F2000.000
G1 X88.343 Y6.657 Z5.103 F2000.000
G1 X88.343 Y23.343 Z5.103 F2000.000
G1 X46.657 Y23.343 Z5.103 F2000.000
G1 X46.657 Y15.735 Z5.103 F2000.000
G1 X45.389 Y15.735 Z5.103 F100.000
G1 X45.389 Y5.389 Z5.103 F2000.000
G1 X89.611 Y5.389 Z5.103 F2000.000
G1 X89.611 Y24.611 Z5.103 F2000.000
G1 X45.389 Y24.611 Z5.103 F2000.000
G1 X45.389 Y15.735 Z5.103 F2000.000
G1 X44.121 Y15.735 Z5.103 F100.000
G1 X44.121 Y4.121 Z5.103 F2000.000
G1 X90.879 Y4.121 Z5.103 F2000.000
G1 X90.879 Y25.879 Z5.103 F2000.000
G1 X44.121 Y25.879 Z5.103 F2000.000
G1 X44.121 Y15.735 Z5.103 F2000.000
G1 X42.853 Y15.735 Z5.103 F100.000
G1 X42.853 Y2.853 Z5.103 F2000.000
G1 X92.147 Y2.853 Z5.103 F2000.000
G1 X92.147 Y27.147 Z5.103 F2000.000
G1 X42.853 Y27.147 Z5.103 F2000.000
G1 X42.853 Y15.735 Z5.103 F2000.000
G1 X41.585 Y15.735 Z5.103 F100.000
G1 X41.585 Y1.622 Z5.103 F2000.000
G1 X41.587 Y1.587 Z5.103 F2000.000
G1 X41.622 Y1.585 Z5.103 F2000.000
G1 X93.378 Y1.585 Z5.103 F2000.000
G1 X93.413 Y1.587 Z5.103 F2000.000
G1 X93.415 Y1.622 Z5.103 F2000.000
G1 X93.415 Y28.378 Z5.103 F2000.000
G1 X93.413 Y28.413 Z5.103 F2000.000
G1 X93.378 Y28.415 Z5.103 F2000.000
G1 X41.622 Y28.415 Z5.103 F2000.000
G1 X41.587 Y28.413 Z5.103 F2000.000
G1 X41.585 Y28.378 Z5.103 F2000.000
G1 X41.585 Y15.735 Z5.103 F2000.000
G0 Z17.500
G0 X-41.585 Z17.500
G0 X-41.585 Z15.500
G1 X-41.585 Y15.735 Z5.103 F100.000
G1 X-41.585 Y28.378 Z5.103 F2000.000
G1 X-41.586 Y28.413 Z5.103 F2000.000
G1 X-41.622 Y28.415 Z5.103 F2000.000
G1 X-93.378 Y28.415 Z5.103 F2000.000
G1 X-93.413 Y28.413 Z5.103 F2000.000
G1 X-93.415 Y28.378 Z5.103 F2000.000
G1 X-93.415 Y1.622 Z5.103 F2000.000
G1 X-93.413 Y1.587 Z5.103 F2000.000
G1 X-93.378 Y1.585 Z5.103 F2000.000
G1 X-41.622 Y1.585 Z5.103 F2000.000
G1 X-41.586 Y1.587 Z5.103 F2000.000
G1 X-41.585 Y1.622 Z5.103 F2000.000
G1 X-41.585 Y15.735 Z5.103 F2000.000
G1 X-42.853 Y15.735 Z5.103 F100.000
G1 X-42.853 Y27.147 Z5.103 F2000.000
G1 X-92.147 Y27.147 Z5.103 F2000.000
G1 X-92.147 Y2.853 Z5.103 F2000.000
G1 X-42.853 Y2.853 Z5.103 F2000.000
G1 X-42.853 Y15.735 Z5.103 F2000.000
G1 X-44.121 Y15.735 Z5.103 F100.000
G1 X-44.121 Y25.879 Z5.103 F2000.000
G1 X-90.879 Y25.879 Z5.103 F2000.000
G1 X-90.879 Y4.121 Z5.103 F2000.000
G1 X-44.121 Y4.121 Z5.103 F2000.000
G1 X-44.121 Y15.735 Z5.103 F2000.000
G1 X-45.389 Y15.735 Z5.103 F100.000
G1 X-45.389 Y24.611 Z5.103 F2000.000
G1 X-89.611 Y24.611 Z5.103 F2000.000
G1 X-89.611 Y5.389 Z5.103 F2000.000
G1 X-45.389 Y5.389 Z5.103 F2000.000
G1 X-45.389 Y15.735 Z5.103 F2000.000
G1 X-46.657 Y15.735 Z5.103 F100.000
G1 X-46.657 Y23.343 Z5.103 F2000.000
G1 X-88.343 Y23.343 Z5.103 F2000.000
G1 X-88.343 Y6.657 Z5.103 F2000.000
G1 X-46.657 Y6.657 Z5.103 F2000.000
G1 X-46.657 Y15.735 Z5.103 F2000.000
G1 X-47.925 Y15.735 Z5.103 F100.000
G1 X-47.925 Y22.075 Z5.103 F2000.000
G1 X-87.075 Y22.075 Z5.103 F2000.000
G1 X-87.075 Y7.925 Z5.103 F2000.000
G1 X-47.925 Y7.925 Z5.103 F2000.000
G1 X-47.925 Y15.735 Z5.103 F2000.000
G1 X-49.193 Y15.735 Z5.103 F100.000
G1 X-49.193 Y20.807 Z5.103 F2000.000
G1 X-85.807 Y20.807 Z5.103 F2000.000
G1 X-85.807 Y9.193 Z5.103 F2000.000
G1 X-49.193 Y9.193 Z5.103 F2000.000
G1 X-49.193 Y15.735 Z5.103 F2000.000
G1 X-50.461 Y15.735 Z5.103 F100.000
G1 X-50.461 Y19.539 Z5.103 F2000.000
G1 X-84.539 Y19.539 Z5.103 F2000.000
G1 X-84.539 Y10.461 Z5.103 F2000.000
G1 X-50.461 Y10.461 Z5.103 F2000.000
G1 X-50.461 Y15.735 Z5.103 F2000.000
G1 X-51.729 Y15.735 Z5.103 F100.000
G1 X-51.729 Y18.271 Z5.103 F2000.000
G1 X-83.271 Y18.271 Z5.103 F2000.000
G1 X-83.271 Y11.729 Z5.103 F2000.000
G1 X-51.729 Y11.729 Z5.103 F2000.000
G1 X-51.729 Y15.735 Z5.103 F2000.000
G1 X-52.997 Y15.735 Z5.103 F100.000
G1 X-52.997 Y17.003 Z5.103 F2000.000
G1 X-82.003 Y17.003 Z5.103 F2000.000
G1 X-82.003 Y12.997 Z5.103 F2000.000
G1 X-52.997 Y12.997 Z5.103 F2000.000
G1 X-52.997 Y15.735 Z5.103 F2000.000
G1 X-54.265 Y15.735 Z5.103 F100.000
G1 X-80.735 Y15.735 Z5.103 F2000.000
G1 X-80.735 Y14.265 Z5.103 F2000.000
G1 X-54.265 Y14.265 Z5.103 F2000.000
G1 X-54.265 Y15.735 Z5.103 F2000.000
G0 Z17.500
G0 Y20.397 Z17.500
G0 Y20.397 Z15.500
G1 X-54.265 Y20.397 Z4.047 F100.000
G1 X-41.621 Y20.397 Z4.047 F2000.000
G1 X-41.586 Y20.398 Z4.047 F2000.000
G1 X-41.585 Y20.433 Z4.047 F2000.000
G1 X-41.585 Y28.378 Z4.047 F2000.000
G1 X-41.586 Y28.413 Z4.047 F2000.000
G1 X-41.622 Y28.415 Z4.047 F2000.000
G1 X-93.378 Y28.415 Z4.047 F2000.000
G1 X-93.413 Y28.413 Z4.047 F2000.000
G1 X-93.415 Y28.378 Z4.047 F2000.000
G1 X-93.415 Y20.433 Z4.047 F2000.000
G1 X-93.413 Y20.398 Z4.047 F2000.000
G1 X-93.378 Y20.397 Z4.047 F2000.000
G1 X-54.265 Y20.397 Z4.047 F2000.000
G1 X-54.265 Y21.665 Z4.047 F100.000
G1 X-42.853 Y21.665 Z4.047 F2000.000
G1 X-42.853 Y27.147 Z4.047 F2000.000
G1 X-92.147 Y27.147 Z4.047 F2000.000
G1 X-92.147 Y21.665 Z4.047 F2000.000
G1 X-54.265 Y21.665 Z4.047 F2000.000
G1 X-54.265 Y22.933 Z4.047 F100.000
G1 X-44.121 Y22.933 Z4.047 F2000.000
G1 X-44.121 Y25.879 Z4.047 F2000.000
G1 X-90.879 Y25.879 Z4.047 F2000.000
G1 X-90.879 Y22.933 Z4.047 F2000.000
G1 X-54.265 Y22.933 Z4.047 F2000.000
G1 X-54.265 Y24.201 Z4.047 F100.000
G1 X-45.389 Y24.201 Z4.047 F2000.000
G1 X-45.389 Y24.611 Z4.047 F2000.000
G1 X-89.611 Y24.611 Z4.047 F2000.000
G1 X-89.611 Y24.201 Z4.047 F2000.000
G1 X-54.265 Y24.201 Z4.047 F2000.000
G0 Z17.500
G0 Y9.603 Z17.500
G0 Y9.603 Z15.500
G1 X-54.265 Y9.603 Z4.047 F100.000
G1 X-93.378 Y9.603 Z4.047 F2000.000
G1 X-93.413 Y9.602 Z4.047 F2000.000
G1 X-93.415 Y9.567 Z4.047 F2000.000
G1 X-93.415 Y1.622 Z4.047 F2000.000
G1 X-93.413 Y1.587 Z4.047 F2000.000
G1 X-93.378 Y1.585 Z4.047 F2000.000
G1 X-41.622 Y1.585 Z4.047 F2000.000
G1 X-41.586 Y1.587 Z4.047 F2000.000
G1 X-41.585 Y1.622 Z4.047 F2000.000
G1 X-41.585 Y9.567 Z4.047 F2000.000
G1 X-41.586 Y9.602 Z4.047 F2000.000
G1 X-41.622 Y9.603 Z4.047 F2000.000
G1 X-54.265 Y9.603 Z4.047 F2000.000
G1 X-54.265 Y8.335 Z4.047 F100.000
G1 X-92.147 Y8.335 Z4.047 F2000.000
G1 X-92.147 Y2.853 Z4.047 F2000.000
G1 X-42.853 Y2.853 Z4.047 F2000.000
G1 X-42.853 Y8.335 Z4.047 F2000.000
G1 X-54.265 Y8.335 Z4.047 F2000.000
G1 X-54.265 Y7.067 Z4.047 F100.000
G1 X-90.879 Y7.067 Z4.047 F2000.000
G1 X-90.879 Y4.121 Z4.047 F2000.000
G1 X-44.121 Y4.121 Z4.047 F2000.000
G1 X-44.121 Y7.067 Z4.047 F2000.000
G1 X-54.265 Y7.067 Z4.047 F2000.000
G1 X-54.265 Y5.799 Z4.047 F100.000
G1 X-89.611 Y5.799 Z4.047 F2000.000
G1 X-89.611 Y5.389 Z4.047 F2000.000
G1 X-45.389 Y5.389 Z4.047 F2000.000
G1 X-45.389 Y5.799 Z4.047 F2000.000
G1 X-54.265 Y5.799 Z4.047 F2000.000
G0 Z17.500
G0 X41.585 Z17.500
G0 X41.585 Z15.500
G1 X41.585 Y5.799 Z4.047 F100.000
G1 X41.585 Y1.622 Z4.047 F2000.000
G1 X41.587 Y1.587 Z4.047 F2000.000
G1 X41.622 Y1.585 Z4.047 F2000.000
G1 X93.378 Y1.585 Z4.047 F2000.000
G1 X93.413 Y1.587 Z4.047 F2000.000
G1 X93.415 Y1.622 Z4.047 F2000.000
G1 X93.415 Y9.567 Z4.047 F2000.000
G1 X93.413 Y9.602 Z4.047 F2000.000
G1 X93.378 Y9.603 Z4.047 F2000.000
G1 X41.622 Y9.603 Z4.047 F2000.000
G1 X41.587 Y9.602 Z4.047 F2000.000
G1 X41.585 Y9.567 Z4.047 F2000.000
G1 X41.585 Y5.799 Z4.047 F2000.000
G1 X42.853 Y5.799 Z4.047 F100.000
G1 X42.853 Y2.853 Z4.047 F2000.000
G1 X92.147 Y2.853 Z4.047 F2000.000
G1 X92.147 Y8.335 Z4.047 F2000.000
G1 X42.853 Y8.335 Z4.047 F2000.000
G1 X42.853 Y5.799 Z4.047 F2000.000
G1 X44.121 Y5.799 Z4.047 F100.000
G1 X44.121 Y4.121 Z4.047 F2000.000
G1 X90.879 Y4.121 Z4.047 F2000.000
G1 X90.879 Y7.067 Z4.047 F2000.000
G1 X44.121 Y7.067 Z4.047 F2000.000
G1 X44.121 Y5.799 Z4.047 F2000.000
G1 X45.389 Y5.799 Z4.047 F100.000
G1 X45.389 Y5.389 Z4.047 F2000.000
G1 X89.611 Y5.389 Z4.047 F2000.000
G1 X89.611 Y5.799 Z4.047 F2000.000
G1 X45.389 Y5.799 Z4.047 F2000.000
G0 Z17.500
G0 Y20.397 Z17.500
G0 Y20.397 Z15.500
G1 X45.389 Y20.397 Z4.047 F100.000
G1 X93.378 Y20.397 Z4.047 F2000.000
G1 X93.413 Y20.398 Z4.047 F2000.000
G1 X93.415 Y20.433 Z4.047 F2000.000
G1 X93.415 Y28.378 Z4.047 F2000.000
G1 X93.413 Y28.413 Z4.047 F2000.000
G1 X93.378 Y28.415 Z4.047 F2000.000
G1 X41.622 Y28.415 Z4.047 F2000.000
G1 X41.587 Y28.413 Z4.047 F2000.000
G1 X41.585 Y28.378 Z4.047 F2000.000
G1 X41.585 Y20.433 Z4.047 F2000.000
G1 X41.587 Y20.398 Z4.047 F2000.000
G1 X41.622 Y20.397 Z4.047 F2000.000
G1 X45.389 Y20.397 Z4.047 F2000.000
G1 X45.389 Y21.665 Z4.047 F100.000
G1 X92.147 Y21.665 Z4.047 F2000.000
G1 X92.147 Y27.147 Z4.047 F2000.000
G1 X42.853 Y27.147 Z4.047 F2000.000
G1 X42.853 Y21.665 Z4.047 F2000.000
G1 X45.389 Y21.665 Z4.047 F2000.000
G1 X45.389 Y22.933 Z4.047 F100.000
G1 X90.879 Y22.933 Z4.047 F2000.000
G1 X90.879 Y25.879 Z4.047 F2000.000
G1 X44.121 Y25.879 Z4.047 F2000.000
G1 X44.121 Y22.933 Z4.047 F2000.000
G1 X45.389 Y22.933 Z4.047 F2000.000
G1 X45.389 Y24.201 Z4.047 F100.000
G1 X89.611 Y24.201 Z4.047 F2000.000
G1 X89.611 Y24.611 Z4.047 F2000.000
G1 X45.389 Y24.611 Z4.047 F2000.000
G1 X45.389 Y24.201 Z4.047 F2000.000
G1 X45.389 Y26.052 Z2.990 F100.000
G1 X93.378 Y26.052 Z2.990 F2000.000
G1 X93.413 Y26.054 Z2.990 F2000.000
G1 X93.415 Y26.089 Z2.990 F2000.000
G1 X93.415 Y28.378 Z2.990 F2000.000
G1 X93.413 Y28.413 Z2.990 F2000.000
G1 X93.378 Y28.415 Z2.990 F2000.000
G1 X41.622 Y28.415 Z2.990 F2000.000
G1 X41.587 Y28.413 Z2.990 F2000.000
G1 X41.585 Y28.378 Z2.990 F2000.000
G1 X41.585 Y26.089 Z2.990 F2000.000
G1 X41.587 Y26.054 Z2.990 F2000.000
G1 X41.622 Y26.052 Z2.990 F2000.000
G1 X45.389 Y26.052 Z2.990 F2000.000
G1 X45.389 Y26.845 Z2.990 F100.000
G1 X92.622 Y26.845 Z2.990 F2000.000
G1 X92.622 Y27.622 Z2.990 F2000.000
G1 X42.377 Y27.622 Z2.990 F2000.000
G1 X42.377 Y26.845 Z2.990 F2000.000
G1 X45.389 Y26.845 Z2.990 F2000.000
G0 Z17.500
G0 Y3.948 Z17.500
G0 Y3.948 Z15.500
G1 X45.389 Y3.948 Z2.990 F100.000
G1 X41.622 Y3.948 Z2.990 F2000.000
G1 X41.587 Y3.946 Z2.990 F2000.000
G1 X41.585 Y3.911 Z2.990 F2000.000
G1 X41.585 Y1.622 Z2.990 F2000.000
G1 X41.587 Y1.587 Z2.990 F2000.000
G1 X41.622 Y1.585 Z2.990 F2000.000
G1 X93.378 Y1.585 Z2.990 F2000.000
G1 X93.413 Y1.587 Z2.990 F2000.000
G1 X93.415 Y1.622 Z2.990 F2000.000
G1 X93.415 Y3.911 Z2.990 F2000.000
G1 X93.413 Y3.946 Z2.990 F2000.000
G1 X93.378 Y3.948 Z2.990 F2000.000
G1 X45.389 Y3.948 Z2.990 F2000.000
G1 X45.389 Y3.155 Z2.990 F100.000
G1 X42.377 Y3.155 Z2.990 F2000.000
G1 X42.377 Y2.378 Z2.990 F2000.000
G1 X92.622 Y2.378 Z2.990 F2000.000
G1 X92.622 Y3.155 Z2.990 F2000.000
G1 X45.389 Y3.155 Z2.990 F2000.000
G0 Z17.500
G0 X-41.585 Z17.500
G0 X-41.585 Z15.500
G1 X-41.585 Y3.155 Z2.990 F100.000
G1 X-41.585 Y3.911 Z2.990 F2000.000
G1 X-41.586 Y3.946 Z2.990 F2000.000
G1 X-41.622 Y3.948 Z2.990 F2000.000
G1 X-93.378 Y3.948 Z2.990 F2000.000
G1 X-93.413 Y3.946 Z2.990 F2000.000
G1 X-93.415 Y3.911 Z2.990 F2000.000
G1 X-93.415 Y1.622 Z2.990 F2000.000
G1 X-93.413 Y1.587 Z2.990 F2000.000
G1 X-93.378 Y1.585 Z2.990 F2000.000
G1 X-41.622 Y1.585 Z2.990 F2000.000
G1 X-41.586 Y1.587 Z2.990 F2000.000
G1 X-41.585 Y1.622 Z2.990 F2000.000
G1 X-41.585 Y3.155 Z2.990 F2000.000
G1 X-42.377 Y3.155 Z2.990 F100.000
G1 X-92.622 Y3.155 Z2.990 F2000.000
G1 X-92.622 Y2.378 Z2.990 F2000.000
G1 X-42.377 Y2.378 Z2.990 F2000.000
G1 X-42.377 Y3.155 Z2.990 F2000.000
G0 Z17.500
G0 Y26.052 Z17.500
G0 Y26.052 Z15.500
G1 X-42.377 Y26.052 Z2.990 F100.000
G1 X-41.621 Y26.052 Z2.990 F2000.000
G1 X-41.586 Y26.054 Z2.990 F2000.000
G1 X-41.585 Y26.089 Z2.990 F2000.000
G1 X-41.585 Y28.378 Z2.990 F2000.000
G1 X-41.586 Y28.413 Z2.990 F2000.000
G1 X-41.622 Y28.415 Z2.990 F2000.000
G1 X-93.378 Y28.415 Z2.990 F2000.000
G1 X-93.413 Y28.413 Z2.990 F2000.000
G1 X-93.415 Y28.378 Z2.990 F2000.000
G1 X-93.415 Y26.089 Z2.990 F2000.000
G1 X-93.413 Y26.054 Z2.990 F2000.000
G1 X-93.378 Y26.052 Z2.990 F2000.000
G1 X-42.377 Y26.052 Z2.990 F2000.000
G1 X-42.377 Y26.845 Z2.990 F100.000
G1 X-42.377 Y27.622 Z2.990 F2000.000
G1 X-92.622 Y27.622 Z2.990 F2000.000
G1 X-92.622 Y26.845 Z2.990 F2000.000
G1 X-42.377 Y26.845 Z2.990 F2000.000
G0 Z17.500
(Finish operation: Pocket3D001)
(Begin postamble)
M5
G17 G90
M2
