(Exported by FreeCAD)
(Post Processor: script_module)
(Output Time:2024-09-28 18:05:22.987825)
(Begin preamble)
G17 G90
G21
(Begin operation: Fixture)
(Path: Fixture)
G54
(Finish operation: Fixture)
(Begin operation: TC: 1.5 z2 Q009)
(Path: TC: 1.5 z2 Q009)
(TC: 1.5 z2 Q009)
(Begin toolchange)
( M6 T4 )
M3 S24000
(Finish operation: TC: 1.5 z2 Q009)
(Begin operation: trou_rosace)
(Path: trou_rosace)
(trou_rosace)
(Compensated Tool Path. Diameter: 1.48)
G0 Z5.000
G0 X28.822 Y28.822
G0 Z3.000
G1 X28.822 Y28.822 Z-0.740 F300.000
G2 X3.552 Y-40.605 Z-0.740 I-28.822 J-28.822 K0.000 F2000.000
G2 X-3.552 Y40.605 Z-0.740 I-3.552 J40.605 K0.000 F2000.000
G2 X28.822 Y28.822 Z-0.740 I3.552 J-40.605 K0.000 F2000.000
G1 X28.822 Y28.822 Z-1.480 F300.000
G2 X3.552 Y-40.605 Z-1.480 I-28.822 J-28.822 K0.000 F2000.000
G2 X-3.552 Y40.605 Z-1.480 I-3.552 J40.605 K0.000 F2000.000
G2 X28.822 Y28.822 Z-1.480 I3.552 J-40.605 K0.000 F2000.000
G1 X28.822 Y28.822 Z-2.220 F300.000
G2 X3.552 Y-40.605 Z-2.220 I-28.822 J-28.822 K0.000 F2000.000
G2 X-3.552 Y40.605 Z-2.220 I-3.552 J40.605 K0.000 F2000.000
G2 X28.822 Y28.822 Z-2.220 I3.552 J-40.605 K0.000 F2000.000
G1 X28.822 Y28.822 Z-2.960 F300.000
G2 X3.552 Y-40.605 Z-2.960 I-28.822 J-28.822 K0.000 F2000.000
G2 X-3.552 Y40.605 Z-2.960 I-3.552 J40.605 K0.000 F2000.000
G2 X28.822 Y28.822 Z-2.960 I3.552 J-40.605 K0.000 F2000.000
G1 X28.822 Y28.822 Z-3.700 F300.000
G2 X3.552 Y-40.605 Z-3.700 I-28.822 J-28.822 K0.000 F2000.000
G2 X-3.552 Y40.605 Z-3.700 I-3.552 J40.605 K0.000 F2000.000
G2 X28.822 Y28.822 Z-3.700 I3.552 J-40.605 K0.000 F2000.000
G1 X28.822 Y28.822 Z-4.000 F300.000
G2 X3.552 Y-40.605 Z-4.000 I-28.822 J-28.822 K0.000 F2000.000
G2 X-3.552 Y40.605 Z-4.000 I-3.552 J40.605 K0.000 F2000.000
G2 X28.822 Y28.822 Z-4.000 I3.552 J-40.605 K0.000 F2000.000
G0 Z5.000
G0 Z5.000
(Finish operation: trou_rosace)
(Begin postamble)
M5
G17 G90
M2
