(Exported by FreeCAD)
(Post Processor: script_module)
(Output Time:2024-12-31 18:25:51.389780)
(Begin preamble)
G17 G90
G21
(Begin operation: TC: 3.0 ball Q3.2)
(Path: TC: 3.0 ball Q3.2)
(TC: 3.0 ball Q3.2)
(Begin toolchange)
( M6 T15 )
M3 S24000
(Finish operation: TC: 3.0 ball Q3.2)
(Begin operation: Fixture)
(Path: Fixture)
G54
(Finish operation: Fixture)
(Begin operation: Pocket3D002)
(Path: Pocket3D002)
(Pocket3D002)
G0 Z17.500
G0 X93.498 Y28.498
G0 Z15.500
G1 X93.498 Y28.498 Z11.000 F1000.000
G3 X93.386 Y28.500 Z11.000 I-0.073 J-1.216 K0.000 F2000.000
G2 X93.500 Y28.385 Z11.000 I-0.514 J-0.627 K0.000 F2000.000
G3 X93.498 Y28.498 Z11.000 I-1.220 J0.040 K0.000 F2000.000
G0 Z17.500
G0 X93.500 Y1.614 Z17.500
G0 X93.500 Y1.614 Z15.500
G1 X93.500 Y1.614 Z11.000 F1000.000
G2 X93.386 Y1.500 Z11.000 I-0.628 J0.515 K0.000 F2000.000
G3 X93.498 Y1.502 Z11.000 I0.040 J1.216 K0.000 F2000.000
G3 X93.500 Y1.614 Z11.000 I-1.214 J0.073 K0.000 F2000.000
G0 Z17.500
G0 X41.614 Y1.500 Z17.500
G0 X41.614 Y1.500 Z15.500
G1 X41.614 Y1.500 Z11.000 F1000.000
G2 X41.500 Y1.614 Z11.000 I0.516 J0.630 K0.000 F2000.000
G3 X41.502 Y1.502 Z11.000 I1.217 J-0.040 K0.000 F2000.000
G3 X41.614 Y1.500 Z11.000 I0.073 J1.215 K0.000 F2000.000
G0 Z17.500
G0 X41.500 Y28.385 Z17.500
G0 X41.500 Y28.385 Z15.500
G1 X41.500 Y28.385 Z11.000 F1000.000
G2 X41.614 Y28.500 Z11.000 I0.629 J-0.513 K0.000 F2000.000
G3 X41.501 Y28.498 Z11.000 I-0.040 J-1.221 K0.000 F2000.000
G3 X41.500 Y28.385 Z11.000 I1.224 J-0.073 K0.000 F2000.000
G0 Z17.500
G0 X-41.499 Y28.425 Z17.500
G0 X-41.499 Y28.425 Z15.500
G1 X-41.499 Y28.425 Z11.000 F1000.000
G3 X-41.501 Y28.498 Z11.000 I-1.219 J0.001 K0.000 F2000.000
G3 X-41.614 Y28.500 Z11.000 I-0.073 J-1.214 K0.000 F2000.000
G2 X-41.500 Y28.386 Z11.000 I-0.513 J-0.626 K0.000 F2000.000
G3 X-41.499 Y28.425 Z11.000 I-1.218 J0.040 K0.000 F2000.000
G0 Z17.500
G0 X-41.500 Y1.614 Z17.500
G0 X-41.500 Y1.614 Z15.500
G1 X-41.500 Y1.614 Z11.000 F1000.000
G2 X-41.614 Y1.500 Z11.000 I-0.629 J0.517 K0.000 F2000.000
G3 X-41.501 Y1.502 Z11.000 I0.040 J1.218 K0.000 F2000.000
G3 X-41.500 Y1.614 Z11.000 I-1.213 J0.073 K0.000 F2000.000
G0 Z17.500
G0 X-93.386 Y1.500 Z17.500
G0 X-93.386 Y1.500 Z15.500
G1 X-93.386 Y1.500 Z11.000 F1000.000
G2 X-93.500 Y1.614 Z11.000 I0.519 J0.632 K0.000 F2000.000
G3 X-93.498 Y1.502 Z11.000 I1.218 J-0.040 K0.000 F2000.000
G3 X-93.386 Y1.500 Z11.000 I0.073 J1.215 K0.000 F2000.000
G0 Z17.500
G0 X-93.500 Y28.386 Z17.500
G0 X-93.500 Y28.386 Z15.500
G1 X-93.500 Y28.386 Z11.000 F1000.000
G2 X-93.386 Y28.500 Z11.000 I0.626 J-0.510 K0.000 F2000.000
G3 X-93.498 Y28.498 Z11.000 I-0.040 J-1.213 K0.000 F2000.000
G3 X-93.500 Y28.386 Z11.000 I1.217 J-0.073 K0.000 F2000.000
G0 Z17.500
G0 Y28.386 Z17.500
G0 Y28.386 Z15.500
G1 X-93.500 Y28.386 Z9.500 F1000.000
G2 X-93.386 Y28.500 Z9.500 I0.626 J-0.510 K0.000 F2000.000
G3 X-93.498 Y28.498 Z9.500 I-0.040 J-1.212 K0.000 F2000.000
G3 X-93.500 Y28.386 Z9.500 I1.216 J-0.073 K0.000 F2000.000
G0 Z17.500
G0 Y1.614 Z17.500
G0 Y1.614 Z15.500
G1 X-93.500 Y1.614 Z9.500 F1000.000
G3 X-93.498 Y1.502 Z9.500 I1.218 J-0.040 K0.000 F2000.000
G3 X-93.386 Y1.500 Z9.500 I0.073 J1.215 K0.000 F2000.000
G2 X-93.500 Y1.614 Z9.500 I0.519 J0.632 K0.000 F2000.000
G0 Z17.500
G0 X-41.614 Y1.500 Z17.500
G0 X-41.614 Y1.500 Z15.500
G1 X-41.614 Y1.500 Z9.500 F1000.000
G3 X-41.501 Y1.502 Z9.500 I0.040 J1.218 K0.000 F2000.000
G3 X-41.500 Y1.614 Z9.500 I-1.215 J0.073 K0.000 F2000.000
G2 X-41.614 Y1.500 Z9.500 I-0.628 J0.515 K0.000 F2000.000
G0 Z17.500
G0 X-41.500 Y28.386 Z17.500
G0 X-41.500 Y28.386 Z15.500
G1 X-41.500 Y28.386 Z9.500 F1000.000
G3 X-41.501 Y28.498 Z9.500 I-1.216 J0.040 K0.000 F2000.000
G3 X-41.614 Y28.500 Z9.500 I-0.073 J-1.214 K0.000 F2000.000
G2 X-41.500 Y28.386 Z9.500 I-0.511 J-0.624 K0.000 F2000.000
G0 Z17.500
G0 X41.499 Y28.425 Z17.500
G0 X41.499 Y28.425 Z15.500
G1 X41.499 Y28.425 Z9.500 F1000.000
G3 X41.500 Y28.385 Z9.500 I1.226 J0.001 K0.000 F2000.000
G2 X41.614 Y28.500 Z9.500 I0.629 J-0.513 K0.000 F2000.000
G3 X41.501 Y28.498 Z9.500 I-0.040 J-1.221 K0.000 F2000.000
G3 X41.499 Y28.425 Z9.500 I1.224 J-0.073 K0.000 F2000.000
G0 Z17.500
G0 X41.500 Y1.614 Z17.500
G0 X41.500 Y1.614 Z15.500
G1 X41.500 Y1.614 Z9.500 F1000.000
G3 X41.502 Y1.502 Z9.500 I1.217 J-0.040 K0.000 F2000.000
G3 X41.614 Y1.500 Z9.500 I0.073 J1.215 K0.000 F2000.000
G2 X41.500 Y1.614 Z9.500 I0.517 J0.630 K0.000 F2000.000
G0 Z17.500
G0 X93.386 Y1.500 Z17.500
G0 X93.386 Y1.500 Z15.500
G1 X93.386 Y1.500 Z9.500 F1000.000
G3 X93.498 Y1.502 Z9.500 I0.040 J1.216 K0.000 F2000.000
G3 X93.500 Y1.614 Z9.500 I-1.214 J0.073 K0.000 F2000.000
G2 X93.386 Y1.500 Z9.500 I-0.628 J0.515 K0.000 F2000.000
G0 Z17.500
G0 X93.500 Y28.386 Z17.500
G0 X93.500 Y28.386 Z15.500
G1 X93.500 Y28.386 Z9.500 F1000.000
G3 X93.498 Y28.498 Z9.500 I-1.217 J0.040 K0.000 F2000.000
G3 X93.386 Y28.500 Z9.500 I-0.073 J-1.214 K0.000 F2000.000
G2 X93.500 Y28.386 Z9.500 I-0.513 J-0.627 K0.000 F2000.000
G0 Z17.500
G0 Y28.386 Z17.500
G0 Y28.386 Z15.500
G1 X93.500 Y28.386 Z8.000 F1000.000
G3 X93.498 Y28.498 Z8.000 I-1.215 J0.040 K0.000 F2000.000
G3 X93.386 Y28.500 Z8.000 I-0.073 J-1.211 K0.000 F2000.000
G2 X93.500 Y28.386 Z8.000 I-0.513 J-0.626 K0.000 F2000.000
G0 Z17.500
G0 X93.500 Y1.614 Z17.500
G0 X93.500 Y1.614 Z15.500
G1 X93.500 Y1.614 Z8.000 F1000.000
G2 X93.386 Y1.500 Z8.000 I-0.628 J0.515 K0.000 F2000.000
G3 X93.498 Y1.502 Z8.000 I0.040 J1.216 K0.000 F2000.000
G3 X93.500 Y1.614 Z8.000 I-1.214 J0.073 K0.000 F2000.000
G0 Z17.500
G0 X41.614 Y1.500 Z17.500
G0 X41.614 Y1.500 Z15.500
G1 X41.614 Y1.500 Z8.000 F1000.000
G2 X41.500 Y1.614 Z8.000 I0.517 J0.631 K0.000 F2000.000
G3 X41.502 Y1.502 Z8.000 I1.218 J-0.040 K0.000 F2000.000
G3 X41.614 Y1.500 Z8.000 I0.073 J1.216 K0.000 F2000.000
G0 Z17.500
G0 X41.500 Y28.386 Z17.500
G0 X41.500 Y28.386 Z15.500
G1 X41.500 Y28.386 Z8.000 F1000.000
G2 X41.614 Y28.500 Z8.000 I0.627 J-0.511 K0.000 F2000.000
G3 X41.502 Y28.498 Z8.000 I-0.040 J-1.214 K0.000 F2000.000
G3 X41.500 Y28.386 Z8.000 I1.218 J-0.073 K0.000 F2000.000
G0 Z17.500
G0 X-41.499 Y28.425 Z17.500
G0 X-41.499 Y28.425 Z15.500
G1 X-41.499 Y28.425 Z8.000 F1000.000
G3 X-41.501 Y28.498 Z8.000 I-1.220 J0.001 K0.000 F2000.000
G3 X-41.614 Y28.500 Z8.000 I-0.073 J-1.216 K0.000 F2000.000
G2 X-41.500 Y28.386 Z8.000 I-0.513 J-0.626 K0.000 F2000.000
G3 X-41.499 Y28.425 Z8.000 I-1.219 J0.040 K0.000 F2000.000
G0 Z17.500
G0 X-41.500 Y1.614 Z17.500
G0 X-41.500 Y1.614 Z15.500
G1 X-41.500 Y1.614 Z8.000 F1000.000
G2 X-41.614 Y1.500 Z8.000 I-0.629 J0.516 K0.000 F2000.000
G3 X-41.501 Y1.502 Z8.000 I0.040 J1.219 K0.000 F2000.000
G3 X-41.500 Y1.614 Z8.000 I-1.214 J0.073 K0.000 F2000.000
G0 Z17.500
G0 X-93.386 Y1.500 Z17.500
G0 X-93.386 Y1.500 Z15.500
G1 X-93.386 Y1.500 Z8.000 F1000.000
G2 X-93.500 Y1.614 Z8.000 I0.518 J0.632 K0.000 F2000.000
G3 X-93.498 Y1.502 Z8.000 I1.215 J-0.040 K0.000 F2000.000
G3 X-93.386 Y1.500 Z8.000 I0.073 J1.213 K0.000 F2000.000
G0 Z17.500
G0 X-93.500 Y28.386 Z17.500
G0 X-93.500 Y28.386 Z15.500
G1 X-93.500 Y28.386 Z8.000 F1000.000
G2 X-93.386 Y28.500 Z8.000 I0.626 J-0.510 K0.000 F2000.000
G3 X-93.498 Y28.498 Z8.000 I-0.040 J-1.212 K0.000 F2000.000
G3 X-93.500 Y28.386 Z8.000 I1.216 J-0.073 K0.000 F2000.000
G0 Z17.500
G0 Y28.386 Z17.500
G0 Y28.386 Z15.500
G1 X-93.500 Y28.386 Z6.500 F1000.000
G2 X-93.386 Y28.500 Z6.500 I0.626 J-0.510 K0.000 F2000.000
G3 X-93.498 Y28.498 Z6.500 I-0.040 J-1.212 K0.000 F2000.000
G3 X-93.500 Y28.386 Z6.500 I1.216 J-0.073 K0.000 F2000.000
G0 Z17.500
G0 Y1.614 Z17.500
G0 Y1.614 Z15.500
G1 X-93.500 Y1.614 Z6.500 F1000.000
G3 X-93.498 Y1.502 Z6.500 I1.218 J-0.040 K0.000 F2000.000
G3 X-93.386 Y1.500 Z6.500 I0.073 J1.215 K0.000 F2000.000
G2 X-93.500 Y1.614 Z6.500 I0.519 J0.633 K0.000 F2000.000
G0 Z17.500
G0 X-41.614 Y1.500 Z17.500
G0 X-41.614 Y1.500 Z15.500
G1 X-41.614 Y1.500 Z6.500 F1000.000
G3 X-41.501 Y1.502 Z6.500 I0.040 J1.219 K0.000 F2000.000
G3 X-41.500 Y1.614 Z6.500 I-1.214 J0.073 K0.000 F2000.000
G2 X-41.614 Y1.500 Z6.500 I-0.629 J0.516 K0.000 F2000.000
G0 Z17.500
G0 X-41.500 Y28.386 Z17.500
G0 X-41.500 Y28.386 Z15.500
G1 X-41.500 Y28.386 Z6.500 F1000.000
G3 X-41.501 Y28.498 Z6.500 I-1.216 J0.040 K0.000 F2000.000
G3 X-41.614 Y28.500 Z6.500 I-0.073 J-1.214 K0.000 F2000.000
G2 X-41.500 Y28.386 Z6.500 I-0.511 J-0.624 K0.000 F2000.000
G0 Z17.500
G0 X41.499 Y28.425 Z17.500
G0 X41.499 Y28.425 Z15.500
G1 X41.499 Y28.425 Z6.500 F1000.000
G3 X41.500 Y28.385 Z6.500 I1.223 J0.001 K0.000 F2000.000
G2 X41.614 Y28.500 Z6.500 I0.629 J-0.513 K0.000 F2000.000
G3 X41.501 Y28.498 Z6.500 I-0.040 J-1.219 K0.000 F2000.000
G3 X41.499 Y28.425 Z6.500 I1.221 J-0.073 K0.000 F2000.000
G0 Z17.500
G0 X41.500 Y1.614 Z17.500
G0 X41.500 Y1.614 Z15.500
G1 X41.500 Y1.614 Z6.500 F1000.000
G3 X41.502 Y1.502 Z6.500 I1.217 J-0.040 K0.000 F2000.000
G3 X41.614 Y1.500 Z6.500 I0.073 J1.215 K0.000 F2000.000
G2 X41.500 Y1.614 Z6.500 I0.516 J0.630 K0.000 F2000.000
G0 Z17.500
G0 X93.386 Y1.500 Z17.500
G0 X93.386 Y1.500 Z15.500
G1 X93.386 Y1.500 Z6.500 F1000.000
G3 X93.498 Y1.502 Z6.500 I0.040 J1.216 K0.000 F2000.000
G3 X93.500 Y1.614 Z6.500 I-1.214 J0.073 K0.000 F2000.000
G2 X93.386 Y1.500 Z6.500 I-0.628 J0.515 K0.000 F2000.000
G0 Z17.500
G0 X93.500 Y28.386 Z17.500
G0 X93.500 Y28.386 Z15.500
G1 X93.500 Y28.386 Z6.500 F1000.000
G3 X93.498 Y28.498 Z6.500 I-1.215 J0.040 K0.000 F2000.000
G3 X93.386 Y28.500 Z6.500 I-0.073 J-1.211 K0.000 F2000.000
G2 X93.500 Y28.386 Z6.500 I-0.513 J-0.626 K0.000 F2000.000
G1 X93.500 Y28.386 Z5.000 F1000.000
G3 X93.498 Y28.498 Z5.000 I-1.215 J0.040 K0.000 F2000.000
G3 X93.386 Y28.500 Z5.000 I-0.073 J-1.211 K0.000 F2000.000
G2 X93.500 Y28.386 Z5.000 I-0.513 J-0.626 K0.000 F2000.000
G0 Z17.500
G0 X93.500 Y20.698 Z17.500
G0 X93.500 Y20.698 Z15.500
G1 X93.500 Y20.698 Z5.000 F1000.000
G2 X92.497 Y20.312 Z5.000 I-1.001 J1.105 K0.000 F2000.000
G1 X42.502 Y20.312 Z5.000 F2000.000
G2 X41.500 Y20.698 Z5.000 I-0.002 J1.489 K0.000 F2000.000
G1 X41.500 Y9.302 Z5.000 F2000.000
G2 X42.503 Y9.688 Z5.000 I1.001 J-1.105 K0.000 F2000.000
G1 X92.497 Y9.688 Z5.000 F2000.000
G2 X93.500 Y9.302 Z5.000 I0.002 J-1.489 K0.000 F2000.000
G1 X93.500 Y20.698 Z5.000 F2000.000
G0 Z17.500
G0 X92.900 Y19.752 Z17.500
G0 X92.900 Y19.752 Z15.500
G1 X92.900 Y19.752 Z5.000 F1000.000
G2 X92.497 Y19.712 Z5.000 I-0.401 J1.986 K0.000 F2000.000
G1 X42.502 Y19.712 Z5.000 F2000.000
G2 X42.100 Y19.752 Z5.000 I-0.036 J1.657 K0.000 F2000.000
G1 X42.100 Y10.248 Z5.000 F2000.000
G2 X42.503 Y10.288 Z5.000 I0.401 J-1.980 K0.000 F2000.000
G1 X92.497 Y10.288 Z5.000 F2000.000
G2 X92.900 Y10.248 Z5.000 I0.036 J-1.657 K0.000 F2000.000
G1 X92.900 Y19.752 Z5.000 F2000.000
G0 Z17.500
G0 X92.300 Y19.112 Z17.500
G0 X92.300 Y19.112 Z15.500
G1 X92.300 Y19.112 Z5.000 F1000.000
G1 X42.700 Y19.112 Z5.000 F2000.000
G1 X42.700 Y10.888 Z5.000 F2000.000
G1 X92.300 Y10.888 Z5.000 F2000.000
G1 X92.300 Y19.112 Z5.000 F2000.000
G0 Z17.500
G0 X91.700 Y18.512 Z17.500
G0 X91.700 Y18.512 Z15.500
G1 X91.700 Y18.512 Z5.000 F1000.000
G1 X43.300 Y18.512 Z5.000 F2000.000
G1 X43.300 Y11.488 Z5.000 F2000.000
G1 X91.700 Y11.488 Z5.000 F2000.000
G1 X91.700 Y18.512 Z5.000 F2000.000
G0 Z17.500
G0 X91.100 Y17.912 Z17.500
G0 X91.100 Y17.912 Z15.500
G1 X91.100 Y17.912 Z5.000 F1000.000
G1 X43.900 Y17.912 Z5.000 F2000.000
G1 X43.900 Y12.088 Z5.000 F2000.000
G1 X91.100 Y12.088 Z5.000 F2000.000
G1 X91.100 Y17.912 Z5.000 F2000.000
G0 Z17.500
G0 X90.500 Y17.312 Z17.500
G0 X90.500 Y17.312 Z15.500
G1 X90.500 Y17.312 Z5.000 F1000.000
G1 X44.500 Y17.312 Z5.000 F2000.000
G1 X44.500 Y12.688 Z5.000 F2000.000
G1 X90.500 Y12.688 Z5.000 F2000.000
G1 X90.500 Y17.312 Z5.000 F2000.000
G0 Z17.500
G0 X89.900 Y16.712 Z17.500
G0 X89.900 Y16.712 Z15.500
G1 X89.900 Y16.712 Z5.000 F1000.000
G1 X45.100 Y16.712 Z5.000 F2000.000
G1 X45.100 Y13.288 Z5.000 F2000.000
G1 X89.900 Y13.288 Z5.000 F2000.000
G1 X89.900 Y16.712 Z5.000 F2000.000
G0 Z17.500
G0 X89.300 Y16.112 Z17.500
G0 X89.300 Y16.112 Z15.500
G1 X89.300 Y16.112 Z5.000 F1000.000
G1 X45.700 Y16.112 Z5.000 F2000.000
G1 X45.700 Y13.888 Z5.000 F2000.000
G1 X89.300 Y13.888 Z5.000 F2000.000
G1 X89.300 Y16.112 Z5.000 F2000.000
G0 Z17.500
G0 X88.700 Y15.512 Z17.500
G0 X88.700 Y15.512 Z15.500
G1 X88.700 Y15.512 Z5.000 F1000.000
G1 X46.300 Y15.512 Z5.000 F2000.000
G1 X46.300 Y14.488 Z5.000 F2000.000
G1 X88.700 Y14.488 Z5.000 F2000.000
G1 X88.700 Y15.512 Z5.000 F2000.000
G0 Z17.500
G0 X93.500 Y1.614 Z17.500
G0 X93.500 Y1.614 Z15.500
G1 X93.500 Y1.614 Z5.000 F1000.000
G2 X93.386 Y1.500 Z5.000 I-0.628 J0.515 K0.000 F2000.000
G3 X93.498 Y1.502 Z5.000 I0.040 J1.216 K0.000 F2000.000
G3 X93.500 Y1.614 Z5.000 I-1.214 J0.073 K0.000 F2000.000
G0 Z17.500
G0 X41.614 Y1.500 Z17.500
G0 X41.614 Y1.500 Z15.500
G1 X41.614 Y1.500 Z5.000 F1000.000
G2 X41.500 Y1.614 Z5.000 I0.517 J0.631 K0.000 F2000.000
G3 X41.502 Y1.502 Z5.000 I1.218 J-0.040 K0.000 F2000.000
G3 X41.614 Y1.500 Z5.000 I0.073 J1.216 K0.000 F2000.000
G0 Z17.500
G0 X41.500 Y28.385 Z17.500
G0 X41.500 Y28.385 Z15.500
G1 X41.500 Y28.385 Z5.000 F1000.000
G2 X41.614 Y28.500 Z5.000 I0.629 J-0.513 K0.000 F2000.000
G3 X41.501 Y28.498 Z5.000 I-0.040 J-1.221 K0.000 F2000.000
G3 X41.500 Y28.385 Z5.000 I1.224 J-0.073 K0.000 F2000.000
G0 Z17.500
G0 X-41.499 Y28.425 Z17.500
G0 X-41.499 Y28.425 Z15.500
G1 X-41.499 Y28.425 Z5.000 F1000.000
G3 X-41.501 Y28.498 Z5.000 I-1.217 J0.001 K0.000 F2000.000
G3 X-41.614 Y28.500 Z5.000 I-0.073 J-1.214 K0.000 F2000.000
G2 X-41.500 Y28.386 Z5.000 I-0.511 J-0.624 K0.000 F2000.000
G3 X-41.499 Y28.425 Z5.000 I-1.216 J0.040 K0.000 F2000.000
G0 Z17.500
G0 X-41.500 Y20.697 Z17.500
G0 X-41.500 Y20.697 Z15.500
G1 X-41.500 Y20.697 Z5.000 F1000.000
G2 X-42.502 Y20.311 Z5.000 I-1.000 J1.105 K0.000 F2000.000
G1 X-92.497 Y20.312 Z5.000 F2000.000
G2 X-93.500 Y20.698 Z5.000 I-0.002 J1.489 K0.000 F2000.000
G1 X-93.500 Y9.303 Z5.000 F2000.000
G2 X-92.497 Y9.688 Z5.000 I1.001 J-1.105 K0.000 F2000.000
G1 X-42.502 Y9.688 Z5.000 F2000.000
G2 X-41.500 Y9.302 Z5.000 I0.002 J-1.489 K0.000 F2000.000
G1 X-41.500 Y20.697 Z5.000 F2000.000
G0 Z17.500
G0 X-42.100 Y19.752 Z17.500
G0 X-42.100 Y19.752 Z15.500
G1 X-42.100 Y19.752 Z5.000 F1000.000
G2 X-42.502 Y19.711 Z5.000 I-0.400 J1.979 K0.000 F2000.000
G1 X-92.497 Y19.712 Z5.000 F2000.000
G2 X-92.900 Y19.752 Z5.000 I-0.036 J1.656 K0.000 F2000.000
G1 X-92.900 Y10.248 Z5.000 F2000.000
G2 X-92.497 Y10.288 Z5.000 I0.401 J-1.981 K0.000 F2000.000
G1 X-42.502 Y10.288 Z5.000 F2000.000
G2 X-42.100 Y10.248 Z5.000 I0.036 J-1.656 K0.000 F2000.000
G1 X-42.100 Y19.752 Z5.000 F2000.000
G0 Z17.500
G0 X-42.700 Y19.112 Z17.500
G0 X-42.700 Y19.112 Z15.500
G1 X-42.700 Y19.112 Z5.000 F1000.000
G1 X-92.300 Y19.112 Z5.000 F2000.000
G1 X-92.300 Y10.888 Z5.000 F2000.000
G1 X-42.700 Y10.888 Z5.000 F2000.000
G1 X-42.700 Y19.112 Z5.000 F2000.000
G0 Z17.500
G0 X-43.300 Y18.512 Z17.500
G0 X-43.300 Y18.512 Z15.500
G1 X-43.300 Y18.512 Z5.000 F1000.000
G1 X-91.700 Y18.512 Z5.000 F2000.000
G1 X-91.700 Y11.488 Z5.000 F2000.000
G1 X-43.300 Y11.488 Z5.000 F2000.000
G1 X-43.300 Y18.512 Z5.000 F2000.000
G0 Z17.500
G0 X-43.900 Y17.912 Z17.500
G0 X-43.900 Y17.912 Z15.500
G1 X-43.900 Y17.912 Z5.000 F1000.000
G1 X-91.100 Y17.912 Z5.000 F2000.000
G1 X-91.100 Y12.088 Z5.000 F2000.000
G1 X-43.900 Y12.088 Z5.000 F2000.000
G1 X-43.900 Y17.912 Z5.000 F2000.000
G0 Z17.500
G0 X-44.500 Y17.312 Z17.500
G0 X-44.500 Y17.312 Z15.500
G1 X-44.500 Y17.312 Z5.000 F1000.000
G1 X-90.500 Y17.312 Z5.000 F2000.000
G1 X-90.500 Y12.688 Z5.000 F2000.000
G1 X-44.500 Y12.688 Z5.000 F2000.000
G1 X-44.500 Y17.312 Z5.000 F2000.000
G0 Z17.500
G0 X-45.100 Y16.712 Z17.500
G0 X-45.100 Y16.712 Z15.500
G1 X-45.100 Y16.712 Z5.000 F1000.000
G1 X-89.900 Y16.712 Z5.000 F2000.000
G1 X-89.900 Y13.288 Z5.000 F2000.000
G1 X-45.100 Y13.288 Z5.000 F2000.000
G1 X-45.100 Y16.712 Z5.000 F2000.000
G0 Z17.500
G0 X-45.700 Y16.112 Z17.500
G0 X-45.700 Y16.112 Z15.500
G1 X-45.700 Y16.112 Z5.000 F1000.000
G1 X-89.300 Y16.112 Z5.000 F2000.000
G1 X-89.300 Y13.888 Z5.000 F2000.000
G1 X-45.700 Y13.888 Z5.000 F2000.000
G1 X-45.700 Y16.112 Z5.000 F2000.000
G0 Z17.500
G0 X-46.300 Y15.512 Z17.500
G0 X-46.300 Y15.512 Z15.500
G1 X-46.300 Y15.512 Z5.000 F1000.000
G1 X-88.700 Y15.512 Z5.000 F2000.000
G1 X-88.700 Y14.488 Z5.000 F2000.000
G1 X-46.300 Y14.488 Z5.000 F2000.000
G1 X-46.300 Y15.512 Z5.000 F2000.000
G0 Z17.500
G0 X-41.500 Y1.614 Z17.500
G0 X-41.500 Y1.614 Z15.500
G1 X-41.500 Y1.614 Z5.000 F1000.000
G2 X-41.614 Y1.500 Z5.000 I-0.629 J0.517 K0.000 F2000.000
G3 X-41.501 Y1.502 Z5.000 I0.040 J1.218 K0.000 F2000.000
G3 X-41.500 Y1.614 Z5.000 I-1.213 J0.073 K0.000 F2000.000
G0 Z17.500
G0 X-93.386 Y1.500 Z17.500
G0 X-93.386 Y1.500 Z15.500
G1 X-93.386 Y1.500 Z5.000 F1000.000
G2 X-93.500 Y1.614 Z5.000 I0.518 J0.632 K0.000 F2000.000
G3 X-93.498 Y1.502 Z5.000 I1.215 J-0.040 K0.000 F2000.000
G3 X-93.386 Y1.500 Z5.000 I0.073 J1.213 K0.000 F2000.000
G0 Z17.500
G0 X-93.500 Y28.386 Z17.500
G0 X-93.500 Y28.386 Z15.500
G1 X-93.500 Y28.386 Z5.000 F1000.000
G2 X-93.386 Y28.500 Z5.000 I0.627 J-0.510 K0.000 F2000.000
G3 X-93.498 Y28.498 Z5.000 I-0.040 J-1.212 K0.000 F2000.000
G3 X-93.500 Y28.386 Z5.000 I1.216 J-0.073 K0.000 F2000.000
G0 Z17.500
G0 X-93.501 Y28.386 Z17.500
G0 X-93.501 Y28.386 Z15.500
G1 X-93.501 Y28.386 Z3.500 F1000.000
G3 X-93.500 Y28.324 Z3.500 I1.879 J0.009 K0.000 F2000.000
G2 X-93.355 Y28.500 Z3.500 I0.911 J-0.604 K0.000 F2000.000
G3 X-93.498 Y28.498 Z3.500 I-0.055 J-1.545 K0.000 F2000.000
G3 X-93.501 Y28.386 Z3.500 I1.876 J-0.104 K0.000 F2000.000
G0 Z17.500
G0 X-93.500 Y26.609 Z17.500
G0 X-93.500 Y26.609 Z15.500
G1 X-93.500 Y26.609 Z3.500 F1000.000
G1 X-93.500 Y23.860 Z3.500 F2000.000
G1 X-93.498 Y23.827 Z3.500 F2000.000
G1 X-93.465 Y23.825 Z3.500 F2000.000
G1 X-41.534 Y23.825 Z3.500 F2000.000
G1 X-41.501 Y23.827 Z3.500 F2000.000
G1 X-41.500 Y23.860 Z3.500 F2000.000
G1 X-41.500 Y26.609 Z3.500 F2000.000
G2 X-42.728 Y25.967 Z3.500 I-1.227 J0.852 K0.000 F2000.000
G1 X-92.270 Y25.967 Z3.500 F2000.000
G2 X-93.500 Y26.609 Z3.500 I-0.001 J1.497 K0.000 F2000.000
G0 Z17.500
G0 X-92.900 Y25.465 Z17.500
G0 X-92.900 Y25.465 Z15.500
G1 X-92.900 Y25.465 Z3.500 F1000.000
G1 X-92.900 Y24.425 Z3.500 F2000.000
G1 X-42.100 Y24.425 Z3.500 F2000.000
G1 X-42.100 Y25.465 Z3.500 F2000.000
G2 X-42.728 Y25.367 Z3.500 I-0.623 J1.931 K0.000 F2000.000
G1 X-92.270 Y25.367 Z3.500 F2000.000
G2 X-92.900 Y25.465 Z3.500 I-0.005 J2.039 K0.000 F2000.000
G0 Z17.500
G0 Y6.175 Z17.500
G0 Y6.175 Z15.500
G1 X-92.900 Y6.175 Z3.500 F1000.000
G1 X-93.465 Y6.175 Z3.500 F2000.000
G1 X-93.498 Y6.173 Z3.500 F2000.000
G1 X-93.500 Y6.140 Z3.500 F2000.000
G1 X-93.500 Y3.391 Z3.500 F2000.000
G2 X-92.271 Y4.033 Z3.500 I1.227 J-0.852 K0.000 F2000.000
G1 X-42.729 Y4.033 Z3.500 F2000.000
G2 X-41.500 Y3.392 Z3.500 I0.001 J-1.497 K0.000 F2000.000
G1 X-41.500 Y6.140 Z3.500 F2000.000
G1 X-41.501 Y6.173 Z3.500 F2000.000
G1 X-41.534 Y6.175 Z3.500 F2000.000
G1 X-92.900 Y6.175 Z3.500 F2000.000
G0 Z17.500
G0 Y5.575 Z17.500
G0 Y5.575 Z15.500
G1 X-92.900 Y5.575 Z3.500 F1000.000
G1 X-92.900 Y4.535 Z3.500 F2000.000
G2 X-92.271 Y4.633 Z3.500 I0.623 J-1.934 K0.000 F2000.000
G1 X-42.729 Y4.633 Z3.500 F2000.000
G2 X-42.100 Y4.535 Z3.500 I0.005 J-2.038 K0.000 F2000.000
G1 X-42.100 Y5.575 Z3.500 F2000.000
G1 X-92.900 Y5.575 Z3.500 F2000.000
G0 Z17.500
G0 X-93.500 Y1.674 Z17.500
G0 X-93.500 Y1.674 Z15.500
G1 X-93.500 Y1.674 Z3.500 F1000.000
G3 X-93.498 Y1.502 Z3.500 I1.863 J-0.070 K0.000 F2000.000
G3 X-93.357 Y1.500 Z3.500 I0.087 J1.524 K0.000 F2000.000
G2 X-93.500 Y1.674 Z3.500 I0.840 J0.835 K0.000 F2000.000
G0 Z17.500
G0 X-41.644 Y1.500 Z17.500
G0 X-41.644 Y1.500 Z15.500
G1 X-41.644 Y1.500 Z3.500 F1000.000
G3 X-41.501 Y1.502 Z3.500 I0.055 J1.542 K0.000 F2000.000
G3 X-41.500 Y1.675 Z3.500 I-1.870 J0.103 K0.000 F2000.000
G2 X-41.644 Y1.500 Z3.500 I-0.911 J0.606 K0.000 F2000.000
G0 Z17.500
G0 X-41.500 Y28.326 Z17.500
G0 X-41.500 Y28.326 Z15.500
G1 X-41.500 Y28.326 Z3.500 F1000.000
G3 X-41.501 Y28.498 Z3.500 I-1.868 J0.070 K0.000 F2000.000
G3 X-41.643 Y28.500 Z3.500 I-0.087 J-1.529 K0.000 F2000.000
G2 X-41.500 Y28.326 Z3.500 I-0.840 J-0.835 K0.000 F2000.000
G0 Z17.500
G0 X41.498 Y28.393 Z17.500
G0 X41.498 Y28.393 Z15.500
G1 X41.498 Y28.393 Z3.500 F1000.000
G3 X41.500 Y28.324 Z3.500 I1.883 J0.002 K0.000 F2000.000
G2 X41.644 Y28.500 Z3.500 I0.911 J-0.604 K0.000 F2000.000
G3 X41.501 Y28.498 Z3.500 I-0.055 J-1.548 K0.000 F2000.000
G3 X41.498 Y28.393 Z3.500 I1.880 J-0.104 K0.000 F2000.000
G0 Z17.500
G0 X41.500 Y26.609 Z17.500
G0 X41.500 Y26.609 Z15.500
G1 X41.500 Y26.609 Z3.500 F1000.000
G1 X41.500 Y23.860 Z3.500 F2000.000
G1 X41.501 Y23.827 Z3.500 F2000.000
G1 X41.534 Y23.825 Z3.500 F2000.000
G1 X93.465 Y23.825 Z3.500 F2000.000
G1 X93.498 Y23.827 Z3.500 F2000.000
G1 X93.500 Y23.860 Z3.500 F2000.000
G1 X93.500 Y26.610 Z3.500 F2000.000
G2 X92.271 Y25.967 Z3.500 I-1.228 J0.851 K0.000 F2000.000
G1 X42.730 Y25.967 Z3.500 F2000.000
G2 X41.500 Y26.609 Z3.500 I-0.001 J1.497 K0.000 F2000.000
G0 Z17.500
G0 X42.100 Y25.465 Z17.500
G0 X42.100 Y25.465 Z15.500
G1 X42.100 Y25.465 Z3.500 F1000.000
G1 X42.100 Y24.425 Z3.500 F2000.000
G1 X92.900 Y24.425 Z3.500 F2000.000
G1 X92.900 Y25.465 Z3.500 F2000.000
G2 X92.271 Y25.367 Z3.500 I-0.623 J1.932 K0.000 F2000.000
G1 X42.730 Y25.367 Z3.500 F2000.000
G2 X42.100 Y25.465 Z3.500 I-0.005 J2.039 K0.000 F2000.000
G0 Z17.500
G0 Y6.175 Z17.500
G0 Y6.175 Z15.500
G1 X42.100 Y6.175 Z3.500 F1000.000
G1 X41.535 Y6.175 Z3.500 F2000.000
G1 X41.502 Y6.173 Z3.500 F2000.000
G1 X41.500 Y6.140 Z3.500 F2000.000
G1 X41.500 Y3.391 Z3.500 F2000.000
G2 X42.729 Y4.033 Z3.500 I1.227 J-0.851 K0.000 F2000.000
G1 X92.271 Y4.033 Z3.500 F2000.000
G2 X93.500 Y3.392 Z3.500 I0.001 J-1.497 K0.000 F2000.000
G1 X93.500 Y6.140 Z3.500 F2000.000
G1 X93.498 Y6.173 Z3.500 F2000.000
G1 X93.465 Y6.175 Z3.500 F2000.000
G1 X42.100 Y6.175 Z3.500 F2000.000
G0 Z17.500
G0 X42.100 Y5.575 Z17.500
G0 X42.100 Y5.575 Z15.500
G1 X42.100 Y5.575 Z3.500 F1000.000
G1 X42.100 Y4.535 Z3.500 F2000.000
G2 X42.729 Y4.633 Z3.500 I0.623 J-1.934 K0.000 F2000.000
G1 X92.271 Y4.633 Z3.500 F2000.000
G2 X92.900 Y4.535 Z3.500 I0.005 J-2.038 K0.000 F2000.000
G1 X92.900 Y5.575 Z3.500 F2000.000
G1 X42.100 Y5.575 Z3.500 F2000.000
G0 Z17.500
G0 X41.500 Y1.674 Z17.500
G0 X41.500 Y1.674 Z15.500
G1 X41.500 Y1.674 Z3.500 F1000.000
G3 X41.502 Y1.502 Z3.500 I1.871 J-0.070 K0.000 F2000.000
G3 X41.643 Y1.500 Z3.500 I0.087 J1.530 K0.000 F2000.000
G2 X41.500 Y1.674 Z3.500 I0.841 J0.836 K0.000 F2000.000
G0 Z17.500
G0 X93.356 Y1.500 Z17.500
G0 X93.356 Y1.500 Z15.500
G1 X93.356 Y1.500 Z3.500 F1000.000
G3 X93.498 Y1.502 Z3.500 I0.055 J1.540 K0.000 F2000.000
G3 X93.500 Y1.675 Z3.500 I-1.869 J0.103 K0.000 F2000.000
G2 X93.356 Y1.500 Z3.500 I-0.911 J0.605 K0.000 F2000.000
G0 Z17.500
G0 X93.500 Y28.325 Z17.500
G0 X93.500 Y28.325 Z15.500
G1 X93.500 Y28.325 Z3.500 F1000.000
G3 X93.498 Y28.498 Z3.500 I-1.872 J0.070 K0.000 F2000.000
G3 X93.356 Y28.500 Z3.500 I-0.088 J-1.532 K0.000 F2000.000
G2 X93.500 Y28.325 Z3.500 I-0.844 J-0.839 K0.000 F2000.000
G0 Z17.500
G0 Z17.500
(Finish operation: Pocket3D002)
(Begin postamble)
M5
G17 G90
M2
