(Exported by FreeCAD)
(Post Processor: script_module)
(Output Time:2024-12-31 18:25:55.571931)
(Begin preamble)
G17 G90
G21
(Begin operation: TC: 3.175 Z2 droite011)
(Path: TC: 3.175 Z2 droite011)
(TC: 3.175 Z2 droite011)
(Begin toolchange)
( M6 T1 )
M3 S24000
(Finish operation: TC: 3.175 Z2 droite011)
(Begin operation: Fixture)
(Path: Fixture)
G54
(Finish operation: Fixture)
(Begin operation: Profile)
(Path: Profile)
(Profile)
(Compensated Tool Path. Diameter: 3.17)
G0 Z17.500
G0 X96.121 Y31.121
G0 Z15.500
G1 X96.121 Y31.121 Z10.915 F100.000
G2 X96.585 Y30.000 Z10.915 I-1.121 J-1.121 K0.000 F2000.000
G1 X96.585 Y0.000 Z10.915 F2000.000
G2 X95.000 Y-1.585 Z10.915 I-1.585 J0.000 K0.000 F2000.000
G1 X-95.000 Y-1.585 Z10.915 F2000.000
G2 X-96.585 Y0.000 Z10.915 I0.000 J1.585 K0.000 F2000.000
G1 X-96.585 Y30.000 Z10.915 F2000.000
G2 X-95.000 Y31.585 Z10.915 I1.585 J-0.000 K0.000 F2000.000
G1 X95.000 Y31.585 Z10.915 F2000.000
G2 X96.121 Y31.121 Z10.915 I-0.000 J-1.585 K0.000 F2000.000
G1 X96.121 Y31.121 Z9.330 F100.000
G2 X96.585 Y30.000 Z9.330 I-1.121 J-1.121 K0.000 F2000.000
G1 X96.585 Y0.000 Z9.330 F2000.000
G2 X95.000 Y-1.585 Z9.330 I-1.585 J0.000 K0.000 F2000.000
G1 X-95.000 Y-1.585 Z9.330 F2000.000
G2 X-96.585 Y0.000 Z9.330 I0.000 J1.585 K0.000 F2000.000
G1 X-96.585 Y30.000 Z9.330 F2000.000
G2 X-95.000 Y31.585 Z9.330 I1.585 J-0.000 K0.000 F2000.000
G1 X95.000 Y31.585 Z9.330 F2000.000
G2 X96.121 Y31.121 Z9.330 I-0.000 J-1.585 K0.000 F2000.000
G1 X96.121 Y31.121 Z7.745 F100.000
G2 X96.585 Y30.000 Z7.745 I-1.121 J-1.121 K0.000 F2000.000
G1 X96.585 Y0.000 Z7.745 F2000.000
G2 X95.000 Y-1.585 Z7.745 I-1.585 J0.000 K0.000 F2000.000
G1 X-95.000 Y-1.585 Z7.745 F2000.000
G2 X-96.585 Y0.000 Z7.745 I0.000 J1.585 K0.000 F2000.000
G1 X-96.585 Y30.000 Z7.745 F2000.000
G2 X-95.000 Y31.585 Z7.745 I1.585 J-0.000 K0.000 F2000.000
G1 X95.000 Y31.585 Z7.745 F2000.000
G2 X96.121 Y31.121 Z7.745 I-0.000 J-1.585 K0.000 F2000.000
G1 X96.121 Y31.121 Z6.160 F100.000
G2 X96.585 Y30.000 Z6.160 I-1.121 J-1.121 K0.000 F2000.000
G1 X96.585 Y0.000 Z6.160 F2000.000
G2 X95.000 Y-1.585 Z6.160 I-1.585 J0.000 K0.000 F2000.000
G1 X-95.000 Y-1.585 Z6.160 F2000.000
G2 X-96.585 Y0.000 Z6.160 I0.000 J1.585 K0.000 F2000.000
G1 X-96.585 Y30.000 Z6.160 F2000.000
G2 X-95.000 Y31.585 Z6.160 I1.585 J-0.000 K0.000 F2000.000
G1 X95.000 Y31.585 Z6.160 F2000.000
G2 X96.121 Y31.121 Z6.160 I-0.000 J-1.585 K0.000 F2000.000
G1 X96.121 Y31.121 Z4.575 F100.000
G2 X96.585 Y30.000 Z4.575 I-1.121 J-1.121 K0.000 F2000.000
G1 X96.585 Y0.000 Z4.575 F2000.000
G2 X95.000 Y-1.585 Z4.575 I-1.585 J0.000 K0.000 F2000.000
G1 X-95.000 Y-1.585 Z4.575 F2000.000
G2 X-96.585 Y0.000 Z4.575 I0.000 J1.585 K0.000 F2000.000
G1 X-96.585 Y30.000 Z4.575 F2000.000
G2 X-95.000 Y31.585 Z4.575 I1.585 J-0.000 K0.000 F2000.000
G1 X95.000 Y31.585 Z4.575 F2000.000
G2 X96.121 Y31.121 Z4.575 I-0.000 J-1.585 K0.000 F2000.000
G1 X96.121 Y31.121 Z2.990 F100.000
G2 X96.585 Y30.000 Z2.990 I-1.121 J-1.121 K0.000 F2000.000
G1 X96.585 Y0.000 Z2.990 F2000.000
G2 X95.000 Y-1.585 Z2.990 I-1.585 J0.000 K0.000 F2000.000
G1 X-95.000 Y-1.585 Z2.990 F2000.000
G2 X-96.585 Y0.000 Z2.990 I0.000 J1.585 K0.000 F2000.000
G1 X-96.585 Y30.000 Z2.990 F2000.000
G2 X-95.000 Y31.585 Z2.990 I1.585 J-0.000 K0.000 F2000.000
G1 X95.000 Y31.585 Z2.990 F2000.000
G2 X96.121 Y31.121 Z2.990 I-0.000 J-1.585 K0.000 F2000.000
G1 X96.121 Y31.121 Z1.405 F100.000
G2 X96.585 Y30.000 Z1.405 I-1.121 J-1.121 K0.000 F2000.000
G1 X96.585 Y0.000 Z1.405 F2000.000
G2 X95.000 Y-1.585 Z1.405 I-1.585 J0.000 K0.000 F2000.000
G1 X-95.000 Y-1.585 Z1.405 F2000.000
G2 X-96.585 Y0.000 Z1.405 I0.000 J1.585 K0.000 F2000.000
G1 X-96.585 Y30.000 Z1.405 F2000.000
G2 X-95.000 Y31.585 Z1.405 I1.585 J-0.000 K0.000 F2000.000
G1 X95.000 Y31.585 Z1.405 F2000.000
G2 X96.121 Y31.121 Z1.405 I-0.000 J-1.585 K0.000 F2000.000
G1 X96.121 Y31.121 Z0.000 F100.000
G2 X96.585 Y30.000 Z0.000 I-1.121 J-1.121 K0.000 F2000.000
G1 X96.585 Y0.000 Z0.000 F2000.000
G2 X95.000 Y-1.585 Z0.000 I-1.585 J0.000 K0.000 F2000.000
G1 X-95.000 Y-1.585 Z0.000 F2000.000
G2 X-96.585 Y0.000 Z0.000 I0.000 J1.585 K0.000 F2000.000
G1 X-96.585 Y30.000 Z0.000 F2000.000
G2 X-95.000 Y31.585 Z0.000 I1.585 J-0.000 K0.000 F2000.000
G1 X95.000 Y31.585 Z0.000 F2000.000
G2 X96.121 Y31.121 Z0.000 I-0.000 J-1.585 K0.000 F2000.000
G0 Z17.500
G0 Z17.500
(Finish operation: Profile)
(Begin postamble)
M5
G17 G90
M2
