(Exported by FreeCAD)
(Post Processor: grbl_post)
(Output Time:2023-05-30 23:54:23.085300)
(Begin preamble)
G17 G90
G21
(Begin operation: Fixture)
(Path: Fixture)
G54
(Finish operation: Fixture)
(Begin operation: 3.175 Z2 droite003)
(Path: 3.175 Z2 droite003)
(3.175 Z2 droite003)
(Begin toolchange)
( M6 T2 )
M3 S24000
(Finish operation: 3.175 Z2 droite003)
(Begin operation: Helix)
(Path: Helix)
(Helix)
(helix cut operation)
G0 Z5.000
G0 Z5.000
G0 X197.200 Y27.662 Z5.000
G0 X197.200 Y27.662 Z0.000
G0 X199.615 Y27.662
G1 Z0.000 F1000.000
G2 X194.785 Y27.662 Z-0.750 I-2.415 J0.000 F2500.000
G2 X199.615 Y27.662 Z-1.500 I2.415 J0.000 F2500.000
G2 X194.785 Y27.662 Z-2.250 I-2.415 J0.000 F2500.000
G2 X199.615 Y27.662 Z-3.000 I2.415 J0.000 F2500.000
G2 X194.785 Y27.662 Z-3.750 I-2.415 J0.000 F2500.000
G2 X199.615 Y27.662 Z-4.500 I2.415 J0.000 F2500.000
G2 X194.785 Y27.662 Z-5.250 I-2.415 J0.000 F2500.000
G2 X199.615 Y27.662 Z-6.000 I2.415 J0.000 F2500.000
G2 X194.785 Y27.662 Z-6.750 I-2.415 J0.000 F2500.000
G2 X199.615 Y27.662 Z-7.500 I2.415 J0.000 F2500.000
G2 X194.785 Y27.662 Z-8.250 I-2.415 J0.000 F2500.000
G2 X199.615 Y27.662 Z-9.000 I2.415 J0.000 F2500.000
G2 X194.785 Y27.662 Z-9.750 I-2.415 J0.000 F2500.000
G2 X199.615 Y27.662 Z-10.500 I2.415 J0.000 F2500.000
G2 X194.785 Y27.662 Z-11.250 I-2.415 J0.000 F2500.000
G2 X199.615 Y27.662 Z-12.000 I2.415 J0.000 F2500.000
G2 X194.785 Y27.662 Z-12.750 I-2.415 J0.000 F2500.000
G2 X199.615 Y27.662 Z-13.500 I2.415 J0.000 F2500.000
G2 X194.785 Y27.662 Z-14.250 I-2.415 J0.000 F2500.000
G2 X199.615 Y27.662 Z-15.000 I2.415 J0.000 F2500.000
G2 X194.785 Y27.662 Z-15.750 I-2.415 J0.000 F2500.000
G2 X199.615 Y27.662 Z-16.500 I2.415 J0.000 F2500.000
G2 X194.785 Y27.662 Z-17.250 I-2.415 J0.000 F2500.000
G2 X199.615 Y27.662 Z-18.000 I2.415 J0.000 F2500.000
G2 X194.785 Y27.662 Z-18.000 I-2.415 J0.000 F2500.000
G2 X199.615 Y27.662 Z-18.000 I2.415 J0.000 F2500.000
G0 Z0.000
G0 X198.785 Y27.662
G1 Z0.000 F1000.000
G2 X195.615 Y27.662 Z-0.750 I-1.585 J0.000 F2500.000
G2 X198.785 Y27.662 Z-1.500 I1.585 J0.000 F2500.000
G2 X195.615 Y27.662 Z-2.250 I-1.585 J0.000 F2500.000
G2 X198.785 Y27.662 Z-3.000 I1.585 J0.000 F2500.000
G2 X195.615 Y27.662 Z-3.750 I-1.585 J0.000 F2500.000
G2 X198.785 Y27.662 Z-4.500 I1.585 J0.000 F2500.000
G2 X195.615 Y27.662 Z-5.250 I-1.585 J0.000 F2500.000
G2 X198.785 Y27.662 Z-6.000 I1.585 J0.000 F2500.000
G2 X195.615 Y27.662 Z-6.750 I-1.585 J0.000 F2500.000
G2 X198.785 Y27.662 Z-7.500 I1.585 J0.000 F2500.000
G2 X195.615 Y27.662 Z-8.250 I-1.585 J0.000 F2500.000
G2 X198.785 Y27.662 Z-9.000 I1.585 J0.000 F2500.000
G2 X195.615 Y27.662 Z-9.750 I-1.585 J0.000 F2500.000
G2 X198.785 Y27.662 Z-10.500 I1.585 J0.000 F2500.000
G2 X195.615 Y27.662 Z-11.250 I-1.585 J0.000 F2500.000
G2 X198.785 Y27.662 Z-12.000 I1.585 J0.000 F2500.000
G2 X195.615 Y27.662 Z-12.750 I-1.585 J0.000 F2500.000
G2 X198.785 Y27.662 Z-13.500 I1.585 J0.000 F2500.000
G2 X195.615 Y27.662 Z-14.250 I-1.585 J0.000 F2500.000
G2 X198.785 Y27.662 Z-15.000 I1.585 J0.000 F2500.000
G2 X195.615 Y27.662 Z-15.750 I-1.585 J0.000 F2500.000
G2 X198.785 Y27.662 Z-16.500 I1.585 J0.000 F2500.000
G2 X195.615 Y27.662 Z-17.250 I-1.585 J0.000 F2500.000
G2 X198.785 Y27.662 Z-18.000 I1.585 J0.000 F2500.000
G2 X195.615 Y27.662 Z-18.000 I-1.585 J0.000 F2500.000
G2 X198.785 Y27.662 Z-18.000 I1.585 J0.000 F2500.000
G0 Z0.000
G0 Z5.000
G0 X92.200 Y360.162 Z5.000
G0 X92.200 Y360.162 Z0.000
G0 X94.615 Y360.162
G1 Z0.000 F1000.000
G2 X89.785 Y360.162 Z-0.750 I-2.415 J0.000 F2500.000
G2 X94.615 Y360.162 Z-1.500 I2.415 J0.000 F2500.000
G2 X89.785 Y360.162 Z-2.250 I-2.415 J0.000 F2500.000
G2 X94.615 Y360.162 Z-3.000 I2.415 J0.000 F2500.000
G2 X89.785 Y360.162 Z-3.750 I-2.415 J0.000 F2500.000
G2 X94.615 Y360.162 Z-4.500 I2.415 J0.000 F2500.000
G2 X89.785 Y360.162 Z-5.250 I-2.415 J0.000 F2500.000
G2 X94.615 Y360.162 Z-6.000 I2.415 J0.000 F2500.000
G2 X89.785 Y360.162 Z-6.750 I-2.415 J0.000 F2500.000
G2 X94.615 Y360.162 Z-7.500 I2.415 J0.000 F2500.000
G2 X89.785 Y360.162 Z-8.250 I-2.415 J0.000 F2500.000
G2 X94.615 Y360.162 Z-9.000 I2.415 J0.000 F2500.000
G2 X89.785 Y360.162 Z-9.750 I-2.415 J0.000 F2500.000
G2 X94.615 Y360.162 Z-10.500 I2.415 J0.000 F2500.000
G2 X89.785 Y360.162 Z-11.250 I-2.415 J0.000 F2500.000
G2 X94.615 Y360.162 Z-12.000 I2.415 J0.000 F2500.000
G2 X89.785 Y360.162 Z-12.750 I-2.415 J0.000 F2500.000
G2 X94.615 Y360.162 Z-13.500 I2.415 J0.000 F2500.000
G2 X89.785 Y360.162 Z-14.250 I-2.415 J0.000 F2500.000
G2 X94.615 Y360.162 Z-15.000 I2.415 J0.000 F2500.000
G2 X89.785 Y360.162 Z-15.750 I-2.415 J0.000 F2500.000
G2 X94.615 Y360.162 Z-16.500 I2.415 J0.000 F2500.000
G2 X89.785 Y360.162 Z-17.250 I-2.415 J0.000 F2500.000
G2 X94.615 Y360.162 Z-18.000 I2.415 J0.000 F2500.000
G2 X89.785 Y360.162 Z-18.000 I-2.415 J0.000 F2500.000
G2 X94.615 Y360.162 Z-18.000 I2.415 J0.000 F2500.000
G0 Z0.000
G0 X93.785 Y360.162
G1 Z0.000 F1000.000
G2 X90.615 Y360.162 Z-0.750 I-1.585 J0.000 F2500.000
G2 X93.785 Y360.162 Z-1.500 I1.585 J0.000 F2500.000
G2 X90.615 Y360.162 Z-2.250 I-1.585 J0.000 F2500.000
G2 X93.785 Y360.162 Z-3.000 I1.585 J0.000 F2500.000
G2 X90.615 Y360.162 Z-3.750 I-1.585 J0.000 F2500.000
G2 X93.785 Y360.162 Z-4.500 I1.585 J0.000 F2500.000
G2 X90.615 Y360.162 Z-5.250 I-1.585 J0.000 F2500.000
G2 X93.785 Y360.162 Z-6.000 I1.585 J0.000 F2500.000
G2 X90.615 Y360.162 Z-6.750 I-1.585 J0.000 F2500.000
G2 X93.785 Y360.162 Z-7.500 I1.585 J0.000 F2500.000
G2 X90.615 Y360.162 Z-8.250 I-1.585 J0.000 F2500.000
G2 X93.785 Y360.162 Z-9.000 I1.585 J0.000 F2500.000
G2 X90.615 Y360.162 Z-9.750 I-1.585 J0.000 F2500.000
G2 X93.785 Y360.162 Z-10.500 I1.585 J0.000 F2500.000
G2 X90.615 Y360.162 Z-11.250 I-1.585 J0.000 F2500.000
G2 X93.785 Y360.162 Z-12.000 I1.585 J0.000 F2500.000
G2 X90.615 Y360.162 Z-12.750 I-1.585 J0.000 F2500.000
G2 X93.785 Y360.162 Z-13.500 I1.585 J0.000 F2500.000
G2 X90.615 Y360.162 Z-14.250 I-1.585 J0.000 F2500.000
G2 X93.785 Y360.162 Z-15.000 I1.585 J0.000 F2500.000
G2 X90.615 Y360.162 Z-15.750 I-1.585 J0.000 F2500.000
G2 X93.785 Y360.162 Z-16.500 I1.585 J0.000 F2500.000
G2 X90.615 Y360.162 Z-17.250 I-1.585 J0.000 F2500.000
G2 X93.785 Y360.162 Z-18.000 I1.585 J0.000 F2500.000
G2 X90.615 Y360.162 Z-18.000 I-1.585 J0.000 F2500.000
G2 X93.785 Y360.162 Z-18.000 I1.585 J0.000 F2500.000
G0 Z0.000
G0 Z5.000
G0 X177.200 Y580.062 Z5.000
G0 X177.200 Y580.062 Z0.000
G0 X179.615 Y580.062
G1 Z0.000 F1000.000
G2 X174.785 Y580.062 Z-0.750 I-2.415 J0.000 F2500.000
G2 X179.615 Y580.062 Z-1.500 I2.415 J0.000 F2500.000
G2 X174.785 Y580.062 Z-2.250 I-2.415 J0.000 F2500.000
G2 X179.615 Y580.062 Z-3.000 I2.415 J0.000 F2500.000
G2 X174.785 Y580.062 Z-3.750 I-2.415 J0.000 F2500.000
G2 X179.615 Y580.062 Z-4.500 I2.415 J0.000 F2500.000
G2 X174.785 Y580.062 Z-5.250 I-2.415 J0.000 F2500.000
G2 X179.615 Y580.062 Z-6.000 I2.415 J0.000 F2500.000
G2 X174.785 Y580.062 Z-6.750 I-2.415 J0.000 F2500.000
G2 X179.615 Y580.062 Z-7.500 I2.415 J0.000 F2500.000
G2 X174.785 Y580.062 Z-8.250 I-2.415 J0.000 F2500.000
G2 X179.615 Y580.062 Z-9.000 I2.415 J0.000 F2500.000
G2 X174.785 Y580.062 Z-9.750 I-2.415 J0.000 F2500.000
G2 X179.615 Y580.062 Z-10.500 I2.415 J0.000 F2500.000
G2 X174.785 Y580.062 Z-11.250 I-2.415 J0.000 F2500.000
G2 X179.615 Y580.062 Z-12.000 I2.415 J0.000 F2500.000
G2 X174.785 Y580.062 Z-12.750 I-2.415 J0.000 F2500.000
G2 X179.615 Y580.062 Z-13.500 I2.415 J0.000 F2500.000
G2 X174.785 Y580.062 Z-14.250 I-2.415 J0.000 F2500.000
G2 X179.615 Y580.062 Z-15.000 I2.415 J0.000 F2500.000
G2 X174.785 Y580.062 Z-15.750 I-2.415 J0.000 F2500.000
G2 X179.615 Y580.062 Z-16.500 I2.415 J0.000 F2500.000
G2 X174.785 Y580.062 Z-17.250 I-2.415 J0.000 F2500.000
G2 X179.615 Y580.062 Z-18.000 I2.415 J0.000 F2500.000
G2 X174.785 Y580.062 Z-18.000 I-2.415 J0.000 F2500.000
G2 X179.615 Y580.062 Z-18.000 I2.415 J0.000 F2500.000
G0 Z0.000
G0 X178.785 Y580.062
G1 Z0.000 F1000.000
G2 X175.615 Y580.062 Z-0.750 I-1.585 J0.000 F2500.000
G2 X178.785 Y580.062 Z-1.500 I1.585 J0.000 F2500.000
G2 X175.615 Y580.062 Z-2.250 I-1.585 J0.000 F2500.000
G2 X178.785 Y580.062 Z-3.000 I1.585 J0.000 F2500.000
G2 X175.615 Y580.062 Z-3.750 I-1.585 J0.000 F2500.000
G2 X178.785 Y580.062 Z-4.500 I1.585 J0.000 F2500.000
G2 X175.615 Y580.062 Z-5.250 I-1.585 J0.000 F2500.000
G2 X178.785 Y580.062 Z-6.000 I1.585 J0.000 F2500.000
G2 X175.615 Y580.062 Z-6.750 I-1.585 J0.000 F2500.000
G2 X178.785 Y580.062 Z-7.500 I1.585 J0.000 F2500.000
G2 X175.615 Y580.062 Z-8.250 I-1.585 J0.000 F2500.000
G2 X178.785 Y580.062 Z-9.000 I1.585 J0.000 F2500.000
G2 X175.615 Y580.062 Z-9.750 I-1.585 J0.000 F2500.000
G2 X178.785 Y580.062 Z-10.500 I1.585 J0.000 F2500.000
G2 X175.615 Y580.062 Z-11.250 I-1.585 J0.000 F2500.000
G2 X178.785 Y580.062 Z-12.000 I1.585 J0.000 F2500.000
G2 X175.615 Y580.062 Z-12.750 I-1.585 J0.000 F2500.000
G2 X178.785 Y580.062 Z-13.500 I1.585 J0.000 F2500.000
G2 X175.615 Y580.062 Z-14.250 I-1.585 J0.000 F2500.000
G2 X178.785 Y580.062 Z-15.000 I1.585 J0.000 F2500.000
G2 X175.615 Y580.062 Z-15.750 I-1.585 J0.000 F2500.000
G2 X178.785 Y580.062 Z-16.500 I1.585 J0.000 F2500.000
G2 X175.615 Y580.062 Z-17.250 I-1.585 J0.000 F2500.000
G2 X178.785 Y580.062 Z-18.000 I1.585 J0.000 F2500.000
G2 X175.615 Y580.062 Z-18.000 I-1.585 J0.000 F2500.000
G2 X178.785 Y580.062 Z-18.000 I1.585 J0.000 F2500.000
G0 Z0.000
G0 Z5.000
(Finish operation: Helix)
(Begin operation: Profile)
(Path: Profile)
(Profile)
(Compensated Tool Path. Diameter: 3.17)
G0 Z5.000
G0 X198.784 Y606.301
G0 Z3.000
G1 X198.784 Y606.301 Z-2.113 F1000.000
G2 X198.785 Y606.252 Z-2.113 I-1.584 J-0.049 K0.000 F2500.000
G1 X198.785 Y544.703 Z-2.113 F2500.000
G2 X197.447 Y543.137 Z-2.113 I-1.585 J0.000 K0.000 F2500.000
G3 X175.735 Y538.533 Z-2.113 I25.680 J-174.601 K0.000 F2500.000
G3 X155.987 Y531.288 Z-2.113 I31.614 J-116.702 K0.000 F2500.000
G3 X140.974 Y522.473 Z-2.113 I37.447 J-80.973 K0.000 F2500.000
G3 X122.216 Y502.938 Z-2.113 I44.016 J-61.041 K0.000 F2500.000
G3 X110.002 Y475.978 Z-2.113 I85.675 J-55.058 K0.000 F2500.000
G3 X107.304 Y446.973 Z-2.113 I71.773 J-21.305 K0.000 F2500.000
G3 X109.069 Y436.169 Z-2.113 I114.709 J13.192 K0.000 F2500.000
G3 X114.723 Y415.513 Z-2.113 I197.913 J43.073 K0.000 F2500.000
G3 X118.720 Y404.111 Z-2.113 I467.737 J157.542 K0.000 F2500.000
G2 X124.670 Y385.904 Z-2.113 I-269.551 J-98.176 K0.000 F2500.000
G2 X128.187 Y369.836 Z-2.113 I-115.765 J-33.755 K0.000 F2500.000
G2 X128.967 Y356.833 Z-2.113 I-64.802 J-10.411 K0.000 F2500.000
G2 X126.219 Y341.821 Z-2.113 I-52.022 J1.764 K0.000 F2500.000
G2 X120.397 Y328.905 Z-2.113 I-88.578 J32.156 K0.000 F2500.000
G2 X112.780 Y315.904 Z-2.113 I-320.765 J179.209 K0.000 F2500.000
G3 X95.960 Y288.233 Z-2.113 I1003.066 J-628.638 K0.000 F2500.000
G3 X80.094 Y258.852 Z-2.113 I344.396 J-204.951 K0.000 F2500.000
G3 X72.193 Y240.717 Z-2.113 I190.659 J-93.866 K0.000 F2500.000
G3 X66.226 Y221.679 Z-2.113 I138.159 J-53.755 K0.000 F2500.000
G3 X62.724 Y197.628 Z-2.113 I124.443 J-30.396 K0.000 F2500.000
G3 X70.012 Y146.102 Z-2.113 I141.504 J-6.264 K0.000 F2500.000
G3 X77.636 Y128.333 Z-2.113 I108.334 J35.959 K0.000 F2500.000
G3 X103.211 Y97.197 Z-2.113 I88.906 J46.956 K0.000 F2500.000
G3 X125.474 Y83.094 Z-2.113 I75.685 J94.853 K0.000 F2500.000
G3 X154.153 Y72.497 Z-2.113 I69.128 J142.980 K0.000 F2500.000
G3 X178.810 Y67.442 Z-2.113 I63.206 J245.605 K0.000 F2500.000
G3 X207.388 Y64.273 Z-2.113 I58.680 J398.828 K0.000 F2500.000
G3 X247.230 Y62.585 Z-2.113 I48.500 J673.477 K0.000 F2500.000
G2 X248.785 Y61.000 Z-2.113 I-0.030 J-1.585 K0.000 F2500.000
G1 X248.785 Y0.000 Z-2.113 F2500.000
G2 X247.885 Y-1.429 Z-2.113 I-1.585 J0.000 K0.000 F2500.000
G2 X246.962 Y-1.585 Z-2.113 I-0.743 J1.596 K0.000 F2500.000
G2 X209.485 Y-0.182 Z-2.113 I8.082 J717.367 K0.000 F2500.000
G2 X174.199 Y3.285 Z-2.113 I26.574 J451.756 K0.000 F2500.000
G2 X141.462 Y9.519 Z-2.113 I39.647 J297.245 K0.000 F2500.000
G2 X105.365 Y21.715 Z-2.113 I52.827 J215.882 K0.000 F2500.000
G2 X75.776 Y37.821 Z-2.113 I74.825 J172.696 K0.000 F2500.000
G2 X26.621 Y88.365 Z-2.113 I91.070 J137.742 K0.000 F2500.000
G2 X10.766 Y121.136 Z-2.113 I154.168 J94.809 K0.000 F2500.000
G2 X-1.572 Y190.023 Z-2.113 I192.763 J70.072 K0.000 F2500.000
G2 X3.540 Y235.503 Z-2.113 I191.972 J1.449 K0.000 F2500.000
G2 X13.403 Y266.621 Z-2.113 I221.214 J-52.987 K0.000 F2500.000
G2 X27.104 Y296.360 Z-2.113 I317.082 J-128.068 K0.000 F2500.000
G2 X46.615 Y330.842 Z-2.113 I556.067 J-291.871 K0.000 F2500.000
G3 X61.320 Y354.831 Z-2.113 I-4696.661 J2895.535 K0.000 F2500.000
G3 X64.648 Y360.807 Z-2.113 I-91.779 J55.020 K0.000 F2500.000
G3 X63.791 Y365.166 Z-2.113 I-48.766 J-7.320 K0.000 F2500.000
G3 X61.267 Y373.890 Z-2.113 I-130.808 J-33.119 K0.000 F2500.000
G3 X56.916 Y386.381 Z-2.113 I-753.866 J-255.571 K0.000 F2500.000
G2 X47.392 Y418.016 Z-2.113 I255.354 J94.133 K0.000 F2500.000
G2 X44.019 Y435.873 Z-2.113 I169.976 J41.347 K0.000 F2500.000
G2 X45.959 Y484.419 Z-2.113 I137.874 J18.804 K0.000 F2500.000
G2 X62.209 Y527.489 Z-2.113 I162.429 J-36.682 K0.000 F2500.000
G2 X98.243 Y570.602 Z-2.113 I123.042 J-66.225 K0.000 F2500.000
G2 X127.054 Y588.601 Z-2.113 I97.215 J-123.554 K0.000 F2500.000
G2 X158.894 Y600.479 Z-2.113 I83.075 J-174.078 K0.000 F2500.000
G2 X197.003 Y607.825 Z-2.113 I68.007 J-250.278 K0.000 F2500.000
G2 X198.784 Y606.301 Z-2.113 I0.198 J-1.573 K0.000 F2500.000
G1 X198.784 Y606.301 Z-4.227 F1000.000
G2 X198.785 Y606.252 Z-4.227 I-1.584 J-0.049 K0.000 F2500.000
G1 X198.785 Y544.703 Z-4.227 F2500.000
G2 X197.447 Y543.137 Z-4.227 I-1.585 J0.000 K0.000 F2500.000
G3 X175.735 Y538.533 Z-4.227 I25.680 J-174.601 K0.000 F2500.000
G3 X155.987 Y531.288 Z-4.227 I31.614 J-116.702 K0.000 F2500.000
G3 X140.974 Y522.473 Z-4.227 I37.447 J-80.973 K0.000 F2500.000
G3 X122.216 Y502.938 Z-4.227 I44.016 J-61.041 K0.000 F2500.000
G3 X110.002 Y475.978 Z-4.227 I85.675 J-55.058 K0.000 F2500.000
G3 X107.304 Y446.973 Z-4.227 I71.773 J-21.305 K0.000 F2500.000
G3 X109.069 Y436.169 Z-4.227 I114.709 J13.192 K0.000 F2500.000
G3 X114.723 Y415.513 Z-4.227 I197.913 J43.073 K0.000 F2500.000
G3 X118.720 Y404.111 Z-4.227 I467.737 J157.542 K0.000 F2500.000
G2 X124.670 Y385.904 Z-4.227 I-269.551 J-98.176 K0.000 F2500.000
G2 X128.187 Y369.836 Z-4.227 I-115.765 J-33.755 K0.000 F2500.000
G2 X128.967 Y356.833 Z-4.227 I-64.802 J-10.411 K0.000 F2500.000
G2 X126.219 Y341.821 Z-4.227 I-52.022 J1.764 K0.000 F2500.000
G2 X120.397 Y328.905 Z-4.227 I-88.578 J32.156 K0.000 F2500.000
G2 X112.780 Y315.904 Z-4.227 I-320.765 J179.209 K0.000 F2500.000
G3 X95.960 Y288.233 Z-4.227 I1003.066 J-628.638 K0.000 F2500.000
G3 X80.094 Y258.852 Z-4.227 I344.396 J-204.951 K0.000 F2500.000
G3 X72.193 Y240.717 Z-4.227 I190.659 J-93.866 K0.000 F2500.000
G3 X66.226 Y221.679 Z-4.227 I138.159 J-53.755 K0.000 F2500.000
G3 X62.724 Y197.628 Z-4.227 I124.443 J-30.396 K0.000 F2500.000
G3 X70.012 Y146.102 Z-4.227 I141.504 J-6.264 K0.000 F2500.000
G3 X77.636 Y128.333 Z-4.227 I108.334 J35.959 K0.000 F2500.000
G3 X103.211 Y97.197 Z-4.227 I88.906 J46.956 K0.000 F2500.000
G3 X125.474 Y83.094 Z-4.227 I75.685 J94.853 K0.000 F2500.000
G3 X154.153 Y72.497 Z-4.227 I69.128 J142.980 K0.000 F2500.000
G3 X178.810 Y67.442 Z-4.227 I63.206 J245.605 K0.000 F2500.000
G3 X207.388 Y64.273 Z-4.227 I58.680 J398.828 K0.000 F2500.000
G3 X247.230 Y62.585 Z-4.227 I48.500 J673.477 K0.000 F2500.000
G2 X248.785 Y61.000 Z-4.227 I-0.030 J-1.585 K0.000 F2500.000
G1 X248.785 Y0.000 Z-4.227 F2500.000
G2 X247.885 Y-1.429 Z-4.227 I-1.585 J0.000 K0.000 F2500.000
G2 X246.962 Y-1.585 Z-4.227 I-0.743 J1.596 K0.000 F2500.000
G2 X209.485 Y-0.182 Z-4.227 I8.082 J717.367 K0.000 F2500.000
G2 X174.199 Y3.285 Z-4.227 I26.574 J451.756 K0.000 F2500.000
G2 X141.462 Y9.519 Z-4.227 I39.647 J297.245 K0.000 F2500.000
G2 X105.365 Y21.715 Z-4.227 I52.827 J215.882 K0.000 F2500.000
G2 X75.776 Y37.821 Z-4.227 I74.825 J172.696 K0.000 F2500.000
G2 X26.621 Y88.365 Z-4.227 I91.070 J137.742 K0.000 F2500.000
G2 X10.766 Y121.136 Z-4.227 I154.168 J94.809 K0.000 F2500.000
G2 X-1.572 Y190.023 Z-4.227 I192.763 J70.072 K0.000 F2500.000
G2 X3.540 Y235.503 Z-4.227 I191.972 J1.449 K0.000 F2500.000
G2 X13.403 Y266.621 Z-4.227 I221.214 J-52.987 K0.000 F2500.000
G2 X27.104 Y296.360 Z-4.227 I317.082 J-128.068 K0.000 F2500.000
G2 X46.615 Y330.842 Z-4.227 I556.067 J-291.871 K0.000 F2500.000
G3 X61.320 Y354.831 Z-4.227 I-4696.661 J2895.535 K0.000 F2500.000
G3 X64.648 Y360.807 Z-4.227 I-91.779 J55.020 K0.000 F2500.000
G3 X63.791 Y365.166 Z-4.227 I-48.766 J-7.320 K0.000 F2500.000
G3 X61.267 Y373.890 Z-4.227 I-130.808 J-33.119 K0.000 F2500.000
G3 X56.916 Y386.381 Z-4.227 I-753.866 J-255.571 K0.000 F2500.000
G2 X47.392 Y418.016 Z-4.227 I255.354 J94.133 K0.000 F2500.000
G2 X44.019 Y435.873 Z-4.227 I169.976 J41.347 K0.000 F2500.000
G2 X45.959 Y484.419 Z-4.227 I137.874 J18.804 K0.000 F2500.000
G2 X62.209 Y527.489 Z-4.227 I162.429 J-36.682 K0.000 F2500.000
G2 X98.243 Y570.602 Z-4.227 I123.042 J-66.225 K0.000 F2500.000
G2 X127.054 Y588.601 Z-4.227 I97.215 J-123.554 K0.000 F2500.000
G2 X158.894 Y600.479 Z-4.227 I83.075 J-174.078 K0.000 F2500.000
G2 X197.003 Y607.825 Z-4.227 I68.007 J-250.278 K0.000 F2500.000
G2 X198.784 Y606.301 Z-4.227 I0.198 J-1.573 K0.000 F2500.000
G1 X198.784 Y606.301 Z-6.340 F1000.000
G2 X198.785 Y606.252 Z-6.340 I-1.584 J-0.049 K0.000 F2500.000
G1 X198.785 Y544.703 Z-6.340 F2500.000
G2 X197.447 Y543.137 Z-6.340 I-1.585 J0.000 K0.000 F2500.000
G3 X175.735 Y538.533 Z-6.340 I25.680 J-174.601 K0.000 F2500.000
G3 X155.987 Y531.288 Z-6.340 I31.614 J-116.702 K0.000 F2500.000
G3 X140.974 Y522.473 Z-6.340 I37.447 J-80.973 K0.000 F2500.000
G3 X122.216 Y502.938 Z-6.340 I44.016 J-61.041 K0.000 F2500.000
G3 X110.002 Y475.978 Z-6.340 I85.675 J-55.058 K0.000 F2500.000
G3 X107.304 Y446.973 Z-6.340 I71.773 J-21.305 K0.000 F2500.000
G3 X109.069 Y436.169 Z-6.340 I114.709 J13.192 K0.000 F2500.000
G3 X114.723 Y415.513 Z-6.340 I197.913 J43.073 K0.000 F2500.000
G3 X118.720 Y404.111 Z-6.340 I467.737 J157.542 K0.000 F2500.000
G2 X124.670 Y385.904 Z-6.340 I-269.551 J-98.176 K0.000 F2500.000
G2 X128.187 Y369.836 Z-6.340 I-115.765 J-33.755 K0.000 F2500.000
G2 X128.967 Y356.833 Z-6.340 I-64.802 J-10.411 K0.000 F2500.000
G2 X126.219 Y341.821 Z-6.340 I-52.022 J1.764 K0.000 F2500.000
G2 X120.397 Y328.905 Z-6.340 I-88.578 J32.156 K0.000 F2500.000
G2 X112.780 Y315.904 Z-6.340 I-320.765 J179.209 K0.000 F2500.000
G3 X95.960 Y288.233 Z-6.340 I1003.066 J-628.638 K0.000 F2500.000
G3 X80.094 Y258.852 Z-6.340 I344.396 J-204.951 K0.000 F2500.000
G3 X72.193 Y240.717 Z-6.340 I190.659 J-93.866 K0.000 F2500.000
G3 X66.226 Y221.679 Z-6.340 I138.159 J-53.755 K0.000 F2500.000
G3 X62.724 Y197.628 Z-6.340 I124.443 J-30.396 K0.000 F2500.000
G3 X70.012 Y146.102 Z-6.340 I141.504 J-6.264 K0.000 F2500.000
G3 X77.636 Y128.333 Z-6.340 I108.334 J35.959 K0.000 F2500.000
G3 X103.211 Y97.197 Z-6.340 I88.906 J46.956 K0.000 F2500.000
G3 X125.474 Y83.094 Z-6.340 I75.685 J94.853 K0.000 F2500.000
G3 X154.153 Y72.497 Z-6.340 I69.128 J142.980 K0.000 F2500.000
G3 X178.810 Y67.442 Z-6.340 I63.206 J245.605 K0.000 F2500.000
G3 X207.388 Y64.273 Z-6.340 I58.680 J398.828 K0.000 F2500.000
G3 X247.230 Y62.585 Z-6.340 I48.500 J673.477 K0.000 F2500.000
G2 X248.785 Y61.000 Z-6.340 I-0.030 J-1.585 K0.000 F2500.000
G1 X248.785 Y0.000 Z-6.340 F2500.000
G2 X247.885 Y-1.429 Z-6.340 I-1.585 J0.000 K0.000 F2500.000
G2 X246.962 Y-1.585 Z-6.340 I-0.743 J1.596 K0.000 F2500.000
G2 X209.485 Y-0.182 Z-6.340 I8.082 J717.367 K0.000 F2500.000
G2 X174.199 Y3.285 Z-6.340 I26.574 J451.756 K0.000 F2500.000
G2 X141.462 Y9.519 Z-6.340 I39.647 J297.245 K0.000 F2500.000
G2 X105.365 Y21.715 Z-6.340 I52.827 J215.882 K0.000 F2500.000
G2 X75.776 Y37.821 Z-6.340 I74.825 J172.696 K0.000 F2500.000
G2 X26.621 Y88.365 Z-6.340 I91.070 J137.742 K0.000 F2500.000
G2 X10.766 Y121.136 Z-6.340 I154.168 J94.809 K0.000 F2500.000
G2 X-1.572 Y190.023 Z-6.340 I192.763 J70.072 K0.000 F2500.000
G2 X3.540 Y235.503 Z-6.340 I191.972 J1.449 K0.000 F2500.000
G2 X13.403 Y266.621 Z-6.340 I221.214 J-52.987 K0.000 F2500.000
G2 X27.104 Y296.360 Z-6.340 I317.082 J-128.068 K0.000 F2500.000
G2 X46.615 Y330.842 Z-6.340 I556.067 J-291.871 K0.000 F2500.000
G3 X61.320 Y354.831 Z-6.340 I-4696.661 J2895.535 K0.000 F2500.000
G3 X64.648 Y360.807 Z-6.340 I-91.779 J55.020 K0.000 F2500.000
G3 X63.791 Y365.166 Z-6.340 I-48.766 J-7.320 K0.000 F2500.000
G3 X61.267 Y373.890 Z-6.340 I-130.808 J-33.119 K0.000 F2500.000
G3 X56.916 Y386.381 Z-6.340 I-753.866 J-255.571 K0.000 F2500.000
G2 X47.392 Y418.016 Z-6.340 I255.354 J94.133 K0.000 F2500.000
G2 X44.019 Y435.873 Z-6.340 I169.976 J41.347 K0.000 F2500.000
G2 X45.959 Y484.419 Z-6.340 I137.874 J18.804 K0.000 F2500.000
G2 X62.209 Y527.489 Z-6.340 I162.429 J-36.682 K0.000 F2500.000
G2 X98.243 Y570.602 Z-6.340 I123.042 J-66.225 K0.000 F2500.000
G2 X127.054 Y588.601 Z-6.340 I97.215 J-123.554 K0.000 F2500.000
G2 X158.894 Y600.479 Z-6.340 I83.075 J-174.078 K0.000 F2500.000
G2 X197.003 Y607.825 Z-6.340 I68.007 J-250.278 K0.000 F2500.000
G2 X198.784 Y606.301 Z-6.340 I0.198 J-1.573 K0.000 F2500.000
G1 X198.784 Y606.301 Z-8.453 F1000.000
G2 X198.785 Y606.252 Z-8.453 I-1.584 J-0.049 K0.000 F2500.000
G1 X198.785 Y544.703 Z-8.453 F2500.000
G2 X197.447 Y543.137 Z-8.453 I-1.585 J0.000 K0.000 F2500.000
G3 X175.735 Y538.533 Z-8.453 I25.680 J-174.601 K0.000 F2500.000
G3 X155.987 Y531.288 Z-8.453 I31.614 J-116.702 K0.000 F2500.000
G3 X140.974 Y522.473 Z-8.453 I37.447 J-80.973 K0.000 F2500.000
G3 X122.216 Y502.938 Z-8.453 I44.016 J-61.041 K0.000 F2500.000
G3 X110.002 Y475.978 Z-8.453 I85.675 J-55.058 K0.000 F2500.000
G3 X107.304 Y446.973 Z-8.453 I71.773 J-21.305 K0.000 F2500.000
G3 X109.069 Y436.169 Z-8.453 I114.709 J13.192 K0.000 F2500.000
G3 X114.723 Y415.513 Z-8.453 I197.913 J43.073 K0.000 F2500.000
G3 X118.720 Y404.111 Z-8.453 I467.737 J157.542 K0.000 F2500.000
G2 X124.670 Y385.904 Z-8.453 I-269.551 J-98.176 K0.000 F2500.000
G2 X128.187 Y369.836 Z-8.453 I-115.765 J-33.755 K0.000 F2500.000
G2 X128.967 Y356.833 Z-8.453 I-64.802 J-10.411 K0.000 F2500.000
G2 X126.219 Y341.821 Z-8.453 I-52.022 J1.764 K0.000 F2500.000
G2 X120.397 Y328.905 Z-8.453 I-88.578 J32.156 K0.000 F2500.000
G2 X112.780 Y315.904 Z-8.453 I-320.765 J179.209 K0.000 F2500.000
G3 X95.960 Y288.233 Z-8.453 I1003.066 J-628.638 K0.000 F2500.000
G3 X80.094 Y258.852 Z-8.453 I344.396 J-204.951 K0.000 F2500.000
G3 X72.193 Y240.717 Z-8.453 I190.659 J-93.866 K0.000 F2500.000
G3 X66.226 Y221.679 Z-8.453 I138.159 J-53.755 K0.000 F2500.000
G3 X62.724 Y197.628 Z-8.453 I124.443 J-30.396 K0.000 F2500.000
G3 X70.012 Y146.102 Z-8.453 I141.504 J-6.264 K0.000 F2500.000
G3 X77.636 Y128.333 Z-8.453 I108.334 J35.959 K0.000 F2500.000
G3 X103.211 Y97.197 Z-8.453 I88.906 J46.956 K0.000 F2500.000
G3 X125.474 Y83.094 Z-8.453 I75.685 J94.853 K0.000 F2500.000
G3 X154.153 Y72.497 Z-8.453 I69.128 J142.980 K0.000 F2500.000
G3 X178.810 Y67.442 Z-8.453 I63.206 J245.605 K0.000 F2500.000
G3 X207.388 Y64.273 Z-8.453 I58.680 J398.828 K0.000 F2500.000
G3 X247.230 Y62.585 Z-8.453 I48.500 J673.477 K0.000 F2500.000
G2 X248.785 Y61.000 Z-8.453 I-0.030 J-1.585 K0.000 F2500.000
G1 X248.785 Y0.000 Z-8.453 F2500.000
G2 X247.885 Y-1.429 Z-8.453 I-1.585 J0.000 K0.000 F2500.000
G2 X246.962 Y-1.585 Z-8.453 I-0.743 J1.596 K0.000 F2500.000
G2 X209.485 Y-0.182 Z-8.453 I8.082 J717.367 K0.000 F2500.000
G2 X174.199 Y3.285 Z-8.453 I26.574 J451.756 K0.000 F2500.000
G2 X141.462 Y9.519 Z-8.453 I39.647 J297.245 K0.000 F2500.000
G2 X105.365 Y21.715 Z-8.453 I52.827 J215.882 K0.000 F2500.000
G2 X75.776 Y37.821 Z-8.453 I74.825 J172.696 K0.000 F2500.000
G2 X26.621 Y88.365 Z-8.453 I91.070 J137.742 K0.000 F2500.000
G2 X10.766 Y121.136 Z-8.453 I154.168 J94.809 K0.000 F2500.000
G2 X-1.572 Y190.023 Z-8.453 I192.763 J70.072 K0.000 F2500.000
G2 X3.540 Y235.503 Z-8.453 I191.972 J1.449 K0.000 F2500.000
G2 X13.403 Y266.621 Z-8.453 I221.214 J-52.987 K0.000 F2500.000
G2 X27.104 Y296.360 Z-8.453 I317.082 J-128.068 K0.000 F2500.000
G2 X46.615 Y330.842 Z-8.453 I556.067 J-291.871 K0.000 F2500.000
G3 X61.320 Y354.831 Z-8.453 I-4696.661 J2895.535 K0.000 F2500.000
G3 X64.648 Y360.807 Z-8.453 I-91.779 J55.020 K0.000 F2500.000
G3 X63.791 Y365.166 Z-8.453 I-48.766 J-7.320 K0.000 F2500.000
G3 X61.267 Y373.890 Z-8.453 I-130.808 J-33.119 K0.000 F2500.000
G3 X56.916 Y386.381 Z-8.453 I-753.866 J-255.571 K0.000 F2500.000
G2 X47.392 Y418.016 Z-8.453 I255.354 J94.133 K0.000 F2500.000
G2 X44.019 Y435.873 Z-8.453 I169.976 J41.347 K0.000 F2500.000
G2 X45.959 Y484.419 Z-8.453 I137.874 J18.804 K0.000 F2500.000
G2 X62.209 Y527.489 Z-8.453 I162.429 J-36.682 K0.000 F2500.000
G2 X98.243 Y570.602 Z-8.453 I123.042 J-66.225 K0.000 F2500.000
G2 X127.054 Y588.601 Z-8.453 I97.215 J-123.554 K0.000 F2500.000
G2 X158.894 Y600.479 Z-8.453 I83.075 J-174.078 K0.000 F2500.000
G2 X197.003 Y607.825 Z-8.453 I68.007 J-250.278 K0.000 F2500.000
G2 X198.784 Y606.301 Z-8.453 I0.198 J-1.573 K0.000 F2500.000
G1 X198.784 Y606.301 Z-10.567 F1000.000
G2 X198.785 Y606.252 Z-10.567 I-1.584 J-0.049 K0.000 F2500.000
G1 X198.785 Y544.703 Z-10.567 F2500.000
G2 X197.447 Y543.137 Z-10.567 I-1.585 J0.000 K0.000 F2500.000
G3 X175.735 Y538.533 Z-10.567 I25.680 J-174.601 K0.000 F2500.000
G3 X155.987 Y531.288 Z-10.567 I31.614 J-116.702 K0.000 F2500.000
G3 X140.974 Y522.473 Z-10.567 I37.447 J-80.973 K0.000 F2500.000
G3 X122.216 Y502.938 Z-10.567 I44.016 J-61.041 K0.000 F2500.000
G3 X110.002 Y475.978 Z-10.567 I85.675 J-55.058 K0.000 F2500.000
G3 X107.304 Y446.973 Z-10.567 I71.773 J-21.305 K0.000 F2500.000
G3 X109.069 Y436.169 Z-10.567 I114.709 J13.192 K0.000 F2500.000
G3 X114.723 Y415.513 Z-10.567 I197.913 J43.073 K0.000 F2500.000
G3 X118.720 Y404.111 Z-10.567 I467.737 J157.542 K0.000 F2500.000
G2 X124.670 Y385.904 Z-10.567 I-269.551 J-98.176 K0.000 F2500.000
G2 X128.187 Y369.836 Z-10.567 I-115.765 J-33.755 K0.000 F2500.000
G2 X128.967 Y356.833 Z-10.567 I-64.802 J-10.411 K0.000 F2500.000
G2 X126.219 Y341.821 Z-10.567 I-52.022 J1.764 K0.000 F2500.000
G2 X120.397 Y328.905 Z-10.567 I-88.578 J32.156 K0.000 F2500.000
G2 X112.780 Y315.904 Z-10.567 I-320.765 J179.209 K0.000 F2500.000
G3 X95.960 Y288.233 Z-10.567 I1003.066 J-628.638 K0.000 F2500.000
G3 X80.094 Y258.852 Z-10.567 I344.396 J-204.951 K0.000 F2500.000
G3 X72.193 Y240.717 Z-10.567 I190.659 J-93.866 K0.000 F2500.000
G3 X66.226 Y221.679 Z-10.567 I138.159 J-53.755 K0.000 F2500.000
G3 X62.724 Y197.628 Z-10.567 I124.443 J-30.396 K0.000 F2500.000
G3 X70.012 Y146.102 Z-10.567 I141.504 J-6.264 K0.000 F2500.000
G3 X77.636 Y128.333 Z-10.567 I108.334 J35.959 K0.000 F2500.000
G3 X103.211 Y97.197 Z-10.567 I88.906 J46.956 K0.000 F2500.000
G3 X125.474 Y83.094 Z-10.567 I75.685 J94.853 K0.000 F2500.000
G3 X154.153 Y72.497 Z-10.567 I69.128 J142.980 K0.000 F2500.000
G3 X178.810 Y67.442 Z-10.567 I63.206 J245.605 K0.000 F2500.000
G3 X207.388 Y64.273 Z-10.567 I58.680 J398.828 K0.000 F2500.000
G3 X247.230 Y62.585 Z-10.567 I48.500 J673.477 K0.000 F2500.000
G2 X248.785 Y61.000 Z-10.567 I-0.030 J-1.585 K0.000 F2500.000
G1 X248.785 Y0.000 Z-10.567 F2500.000
G2 X247.885 Y-1.429 Z-10.567 I-1.585 J0.000 K0.000 F2500.000
G2 X246.962 Y-1.585 Z-10.567 I-0.743 J1.596 K0.000 F2500.000
G2 X209.485 Y-0.182 Z-10.567 I8.082 J717.367 K0.000 F2500.000
G2 X174.199 Y3.285 Z-10.567 I26.574 J451.756 K0.000 F2500.000
G2 X141.462 Y9.519 Z-10.567 I39.647 J297.245 K0.000 F2500.000
G2 X105.365 Y21.715 Z-10.567 I52.827 J215.882 K0.000 F2500.000
G2 X75.776 Y37.821 Z-10.567 I74.825 J172.696 K0.000 F2500.000
G2 X26.621 Y88.365 Z-10.567 I91.070 J137.742 K0.000 F2500.000
G2 X10.766 Y121.136 Z-10.567 I154.168 J94.809 K0.000 F2500.000
G2 X-1.572 Y190.023 Z-10.567 I192.763 J70.072 K0.000 F2500.000
G2 X3.540 Y235.503 Z-10.567 I191.972 J1.449 K0.000 F2500.000
G2 X13.403 Y266.621 Z-10.567 I221.214 J-52.987 K0.000 F2500.000
G2 X27.104 Y296.360 Z-10.567 I317.082 J-128.068 K0.000 F2500.000
G2 X46.615 Y330.842 Z-10.567 I556.067 J-291.871 K0.000 F2500.000
G3 X61.320 Y354.831 Z-10.567 I-4696.661 J2895.535 K0.000 F2500.000
G3 X64.648 Y360.807 Z-10.567 I-91.779 J55.020 K0.000 F2500.000
G3 X63.791 Y365.166 Z-10.567 I-48.766 J-7.320 K0.000 F2500.000
G3 X61.267 Y373.890 Z-10.567 I-130.808 J-33.119 K0.000 F2500.000
G3 X56.916 Y386.381 Z-10.567 I-753.866 J-255.571 K0.000 F2500.000
G2 X47.392 Y418.016 Z-10.567 I255.354 J94.133 K0.000 F2500.000
G2 X44.019 Y435.873 Z-10.567 I169.976 J41.347 K0.000 F2500.000
G2 X45.959 Y484.419 Z-10.567 I137.874 J18.804 K0.000 F2500.000
G2 X62.209 Y527.489 Z-10.567 I162.429 J-36.682 K0.000 F2500.000
G2 X98.243 Y570.602 Z-10.567 I123.042 J-66.225 K0.000 F2500.000
G2 X127.054 Y588.601 Z-10.567 I97.215 J-123.554 K0.000 F2500.000
G2 X158.894 Y600.479 Z-10.567 I83.075 J-174.078 K0.000 F2500.000
G2 X197.003 Y607.825 Z-10.567 I68.007 J-250.278 K0.000 F2500.000
G2 X198.784 Y606.301 Z-10.567 I0.198 J-1.573 K0.000 F2500.000
G1 X198.784 Y606.301 Z-12.680 F1000.000
G2 X198.785 Y606.252 Z-12.680 I-1.584 J-0.049 K0.000 F2500.000
G1 X198.785 Y544.703 Z-12.680 F2500.000
G2 X197.447 Y543.137 Z-12.680 I-1.585 J0.000 K0.000 F2500.000
G3 X175.735 Y538.533 Z-12.680 I25.680 J-174.601 K0.000 F2500.000
G3 X155.987 Y531.288 Z-12.680 I31.614 J-116.702 K0.000 F2500.000
G3 X140.974 Y522.473 Z-12.680 I37.447 J-80.973 K0.000 F2500.000
G3 X122.216 Y502.938 Z-12.680 I44.016 J-61.041 K0.000 F2500.000
G3 X110.002 Y475.978 Z-12.680 I85.675 J-55.058 K0.000 F2500.000
G3 X107.304 Y446.973 Z-12.680 I71.773 J-21.305 K0.000 F2500.000
G3 X109.069 Y436.169 Z-12.680 I114.709 J13.192 K0.000 F2500.000
G3 X114.723 Y415.513 Z-12.680 I197.913 J43.073 K0.000 F2500.000
G3 X118.720 Y404.111 Z-12.680 I467.737 J157.542 K0.000 F2500.000
G2 X124.670 Y385.904 Z-12.680 I-269.551 J-98.176 K0.000 F2500.000
G2 X128.187 Y369.836 Z-12.680 I-115.765 J-33.755 K0.000 F2500.000
G2 X128.967 Y356.833 Z-12.680 I-64.802 J-10.411 K0.000 F2500.000
G2 X126.219 Y341.821 Z-12.680 I-52.022 J1.764 K0.000 F2500.000
G2 X120.397 Y328.905 Z-12.680 I-88.578 J32.156 K0.000 F2500.000
G2 X112.780 Y315.904 Z-12.680 I-320.765 J179.209 K0.000 F2500.000
G3 X95.960 Y288.233 Z-12.680 I1003.066 J-628.638 K0.000 F2500.000
G3 X80.094 Y258.852 Z-12.680 I344.396 J-204.951 K0.000 F2500.000
G3 X72.193 Y240.717 Z-12.680 I190.659 J-93.866 K0.000 F2500.000
G3 X66.226 Y221.679 Z-12.680 I138.159 J-53.755 K0.000 F2500.000
G3 X62.724 Y197.628 Z-12.680 I124.443 J-30.396 K0.000 F2500.000
G3 X70.012 Y146.102 Z-12.680 I141.504 J-6.264 K0.000 F2500.000
G3 X77.636 Y128.333 Z-12.680 I108.334 J35.959 K0.000 F2500.000
G3 X103.211 Y97.197 Z-12.680 I88.906 J46.956 K0.000 F2500.000
G3 X125.474 Y83.094 Z-12.680 I75.685 J94.853 K0.000 F2500.000
G3 X154.153 Y72.497 Z-12.680 I69.128 J142.980 K0.000 F2500.000
G3 X178.810 Y67.442 Z-12.680 I63.206 J245.605 K0.000 F2500.000
G3 X207.388 Y64.273 Z-12.680 I58.680 J398.828 K0.000 F2500.000
G3 X247.230 Y62.585 Z-12.680 I48.500 J673.477 K0.000 F2500.000
G2 X248.785 Y61.000 Z-12.680 I-0.030 J-1.585 K0.000 F2500.000
G1 X248.785 Y0.000 Z-12.680 F2500.000
G2 X247.885 Y-1.429 Z-12.680 I-1.585 J0.000 K0.000 F2500.000
G2 X246.962 Y-1.585 Z-12.680 I-0.743 J1.596 K0.000 F2500.000
G2 X209.485 Y-0.182 Z-12.680 I8.082 J717.367 K0.000 F2500.000
G2 X174.199 Y3.285 Z-12.680 I26.574 J451.756 K0.000 F2500.000
G2 X141.462 Y9.519 Z-12.680 I39.647 J297.245 K0.000 F2500.000
G2 X105.365 Y21.715 Z-12.680 I52.827 J215.882 K0.000 F2500.000
G2 X75.776 Y37.821 Z-12.680 I74.825 J172.696 K0.000 F2500.000
G2 X26.621 Y88.365 Z-12.680 I91.070 J137.742 K0.000 F2500.000
G2 X10.766 Y121.136 Z-12.680 I154.168 J94.809 K0.000 F2500.000
G2 X-1.572 Y190.023 Z-12.680 I192.763 J70.072 K0.000 F2500.000
G2 X3.540 Y235.503 Z-12.680 I191.972 J1.449 K0.000 F2500.000
G2 X13.403 Y266.621 Z-12.680 I221.214 J-52.987 K0.000 F2500.000
G2 X27.104 Y296.360 Z-12.680 I317.082 J-128.068 K0.000 F2500.000
G2 X46.615 Y330.842 Z-12.680 I556.067 J-291.871 K0.000 F2500.000
G3 X61.320 Y354.831 Z-12.680 I-4696.661 J2895.535 K0.000 F2500.000
G3 X64.648 Y360.807 Z-12.680 I-91.779 J55.020 K0.000 F2500.000
G3 X63.791 Y365.166 Z-12.680 I-48.766 J-7.320 K0.000 F2500.000
G3 X61.267 Y373.890 Z-12.680 I-130.808 J-33.119 K0.000 F2500.000
G3 X56.916 Y386.381 Z-12.680 I-753.866 J-255.571 K0.000 F2500.000
G2 X47.392 Y418.016 Z-12.680 I255.354 J94.133 K0.000 F2500.000
G2 X44.019 Y435.873 Z-12.680 I169.976 J41.347 K0.000 F2500.000
G2 X45.959 Y484.419 Z-12.680 I137.874 J18.804 K0.000 F2500.000
G2 X62.209 Y527.489 Z-12.680 I162.429 J-36.682 K0.000 F2500.000
G2 X98.243 Y570.602 Z-12.680 I123.042 J-66.225 K0.000 F2500.000
G2 X127.054 Y588.601 Z-12.680 I97.215 J-123.554 K0.000 F2500.000
G2 X158.894 Y600.479 Z-12.680 I83.075 J-174.078 K0.000 F2500.000
G2 X197.003 Y607.825 Z-12.680 I68.007 J-250.278 K0.000 F2500.000
G2 X198.784 Y606.301 Z-12.680 I0.198 J-1.573 K0.000 F2500.000
G1 X198.784 Y606.301 Z-14.793 F1000.000
G2 X198.785 Y606.252 Z-14.793 I-1.584 J-0.049 K0.000 F2500.000
G1 X198.785 Y544.703 Z-14.793 F2500.000
G2 X197.447 Y543.137 Z-14.793 I-1.585 J0.000 K0.000 F2500.000
G3 X175.735 Y538.533 Z-14.793 I25.680 J-174.601 K0.000 F2500.000
G3 X155.987 Y531.288 Z-14.793 I31.614 J-116.702 K0.000 F2500.000
G3 X140.974 Y522.473 Z-14.793 I37.447 J-80.973 K0.000 F2500.000
G3 X122.216 Y502.938 Z-14.793 I44.016 J-61.041 K0.000 F2500.000
G3 X110.002 Y475.978 Z-14.793 I85.675 J-55.058 K0.000 F2500.000
G3 X107.304 Y446.973 Z-14.793 I71.773 J-21.305 K0.000 F2500.000
G3 X109.069 Y436.169 Z-14.793 I114.709 J13.192 K0.000 F2500.000
G3 X114.723 Y415.513 Z-14.793 I197.913 J43.073 K0.000 F2500.000
G3 X118.720 Y404.111 Z-14.793 I467.737 J157.542 K0.000 F2500.000
G2 X124.670 Y385.904 Z-14.793 I-269.551 J-98.176 K0.000 F2500.000
G2 X128.187 Y369.836 Z-14.793 I-115.765 J-33.755 K0.000 F2500.000
G2 X128.967 Y356.833 Z-14.793 I-64.802 J-10.411 K0.000 F2500.000
G2 X126.219 Y341.821 Z-14.793 I-52.022 J1.764 K0.000 F2500.000
G2 X120.397 Y328.905 Z-14.793 I-88.578 J32.156 K0.000 F2500.000
G2 X112.780 Y315.904 Z-14.793 I-320.765 J179.209 K0.000 F2500.000
G3 X95.960 Y288.233 Z-14.793 I1003.066 J-628.638 K0.000 F2500.000
G3 X80.094 Y258.852 Z-14.793 I344.396 J-204.951 K0.000 F2500.000
G3 X72.193 Y240.717 Z-14.793 I190.659 J-93.866 K0.000 F2500.000
G3 X66.226 Y221.679 Z-14.793 I138.159 J-53.755 K0.000 F2500.000
G3 X62.724 Y197.628 Z-14.793 I124.443 J-30.396 K0.000 F2500.000
G3 X70.012 Y146.102 Z-14.793 I141.504 J-6.264 K0.000 F2500.000
G3 X77.636 Y128.333 Z-14.793 I108.334 J35.959 K0.000 F2500.000
G3 X103.211 Y97.197 Z-14.793 I88.906 J46.956 K0.000 F2500.000
G3 X125.474 Y83.094 Z-14.793 I75.685 J94.853 K0.000 F2500.000
G3 X154.153 Y72.497 Z-14.793 I69.128 J142.980 K0.000 F2500.000
G3 X178.810 Y67.442 Z-14.793 I63.206 J245.605 K0.000 F2500.000
G3 X207.388 Y64.273 Z-14.793 I58.680 J398.828 K0.000 F2500.000
G3 X247.230 Y62.585 Z-14.793 I48.500 J673.477 K0.000 F2500.000
G2 X248.785 Y61.000 Z-14.793 I-0.030 J-1.585 K0.000 F2500.000
G1 X248.785 Y0.000 Z-14.793 F2500.000
G2 X247.885 Y-1.429 Z-14.793 I-1.585 J0.000 K0.000 F2500.000
G2 X246.962 Y-1.585 Z-14.793 I-0.743 J1.596 K0.000 F2500.000
G2 X209.485 Y-0.182 Z-14.793 I8.082 J717.367 K0.000 F2500.000
G2 X174.199 Y3.285 Z-14.793 I26.574 J451.756 K0.000 F2500.000
G2 X141.462 Y9.519 Z-14.793 I39.647 J297.245 K0.000 F2500.000
G2 X105.365 Y21.715 Z-14.793 I52.827 J215.882 K0.000 F2500.000
G2 X75.776 Y37.821 Z-14.793 I74.825 J172.696 K0.000 F2500.000
G2 X26.621 Y88.365 Z-14.793 I91.070 J137.742 K0.000 F2500.000
G2 X10.766 Y121.136 Z-14.793 I154.168 J94.809 K0.000 F2500.000
G2 X-1.572 Y190.023 Z-14.793 I192.763 J70.072 K0.000 F2500.000
G2 X3.540 Y235.503 Z-14.793 I191.972 J1.449 K0.000 F2500.000
G2 X13.403 Y266.621 Z-14.793 I221.214 J-52.987 K0.000 F2500.000
G2 X27.104 Y296.360 Z-14.793 I317.082 J-128.068 K0.000 F2500.000
G2 X46.615 Y330.842 Z-14.793 I556.067 J-291.871 K0.000 F2500.000
G3 X61.320 Y354.831 Z-14.793 I-4696.661 J2895.535 K0.000 F2500.000
G3 X64.648 Y360.807 Z-14.793 I-91.779 J55.020 K0.000 F2500.000
G3 X63.791 Y365.166 Z-14.793 I-48.766 J-7.320 K0.000 F2500.000
G3 X61.267 Y373.890 Z-14.793 I-130.808 J-33.119 K0.000 F2500.000
G3 X56.916 Y386.381 Z-14.793 I-753.866 J-255.571 K0.000 F2500.000
G2 X47.392 Y418.016 Z-14.793 I255.354 J94.133 K0.000 F2500.000
G2 X44.019 Y435.873 Z-14.793 I169.976 J41.347 K0.000 F2500.000
G2 X45.959 Y484.419 Z-14.793 I137.874 J18.804 K0.000 F2500.000
G2 X62.209 Y527.489 Z-14.793 I162.429 J-36.682 K0.000 F2500.000
G2 X98.243 Y570.602 Z-14.793 I123.042 J-66.225 K0.000 F2500.000
G2 X127.054 Y588.601 Z-14.793 I97.215 J-123.554 K0.000 F2500.000
G2 X158.894 Y600.479 Z-14.793 I83.075 J-174.078 K0.000 F2500.000
G2 X197.003 Y607.825 Z-14.793 I68.007 J-250.278 K0.000 F2500.000
G2 X198.784 Y606.301 Z-14.793 I0.198 J-1.573 K0.000 F2500.000
G1 X198.784 Y606.301 Z-16.907 F1000.000
G2 X198.785 Y606.252 Z-16.907 I-1.584 J-0.049 K0.000 F2500.000
G1 X198.785 Y544.703 Z-16.907 F2500.000
G2 X197.447 Y543.137 Z-16.907 I-1.585 J0.000 K0.000 F2500.000
G3 X175.735 Y538.533 Z-16.907 I25.680 J-174.601 K0.000 F2500.000
G3 X155.987 Y531.288 Z-16.907 I31.614 J-116.702 K0.000 F2500.000
G3 X140.974 Y522.473 Z-16.907 I37.447 J-80.973 K0.000 F2500.000
G3 X122.216 Y502.938 Z-16.907 I44.016 J-61.041 K0.000 F2500.000
G3 X110.002 Y475.978 Z-16.907 I85.675 J-55.058 K0.000 F2500.000
G3 X107.304 Y446.973 Z-16.907 I71.773 J-21.305 K0.000 F2500.000
G3 X109.069 Y436.169 Z-16.907 I114.709 J13.192 K0.000 F2500.000
G3 X114.723 Y415.513 Z-16.907 I197.913 J43.073 K0.000 F2500.000
G3 X118.720 Y404.111 Z-16.907 I467.737 J157.542 K0.000 F2500.000
G2 X124.670 Y385.904 Z-16.907 I-269.551 J-98.176 K0.000 F2500.000
G2 X128.187 Y369.836 Z-16.907 I-115.765 J-33.755 K0.000 F2500.000
G2 X128.967 Y356.833 Z-16.907 I-64.802 J-10.411 K0.000 F2500.000
G2 X126.219 Y341.821 Z-16.907 I-52.022 J1.764 K0.000 F2500.000
G2 X120.397 Y328.905 Z-16.907 I-88.578 J32.156 K0.000 F2500.000
G2 X112.780 Y315.904 Z-16.907 I-320.765 J179.209 K0.000 F2500.000
G3 X95.960 Y288.233 Z-16.907 I1003.066 J-628.638 K0.000 F2500.000
G3 X80.094 Y258.852 Z-16.907 I344.396 J-204.951 K0.000 F2500.000
G3 X72.193 Y240.717 Z-16.907 I190.659 J-93.866 K0.000 F2500.000
G3 X66.226 Y221.679 Z-16.907 I138.159 J-53.755 K0.000 F2500.000
G3 X62.724 Y197.628 Z-16.907 I124.443 J-30.396 K0.000 F2500.000
G3 X70.012 Y146.102 Z-16.907 I141.504 J-6.264 K0.000 F2500.000
G3 X77.636 Y128.333 Z-16.907 I108.334 J35.959 K0.000 F2500.000
G3 X103.211 Y97.197 Z-16.907 I88.906 J46.956 K0.000 F2500.000
G3 X125.474 Y83.094 Z-16.907 I75.685 J94.853 K0.000 F2500.000
G3 X154.153 Y72.497 Z-16.907 I69.128 J142.980 K0.000 F2500.000
G3 X178.810 Y67.442 Z-16.907 I63.206 J245.605 K0.000 F2500.000
G3 X207.388 Y64.273 Z-16.907 I58.680 J398.828 K0.000 F2500.000
G3 X247.230 Y62.585 Z-16.907 I48.500 J673.477 K0.000 F2500.000
G2 X248.785 Y61.000 Z-16.907 I-0.030 J-1.585 K0.000 F2500.000
G1 X248.785 Y0.000 Z-16.907 F2500.000
G2 X247.885 Y-1.429 Z-16.907 I-1.585 J0.000 K0.000 F2500.000
G2 X246.962 Y-1.585 Z-16.907 I-0.743 J1.596 K0.000 F2500.000
G2 X209.485 Y-0.182 Z-16.907 I8.082 J717.367 K0.000 F2500.000
G2 X174.199 Y3.285 Z-16.907 I26.574 J451.756 K0.000 F2500.000
G2 X141.462 Y9.519 Z-16.907 I39.647 J297.245 K0.000 F2500.000
G2 X105.365 Y21.715 Z-16.907 I52.827 J215.882 K0.000 F2500.000
G2 X75.776 Y37.821 Z-16.907 I74.825 J172.696 K0.000 F2500.000
G2 X26.621 Y88.365 Z-16.907 I91.070 J137.742 K0.000 F2500.000
G2 X10.766 Y121.136 Z-16.907 I154.168 J94.809 K0.000 F2500.000
G2 X-1.572 Y190.023 Z-16.907 I192.763 J70.072 K0.000 F2500.000
G2 X3.540 Y235.503 Z-16.907 I191.972 J1.449 K0.000 F2500.000
G2 X13.403 Y266.621 Z-16.907 I221.214 J-52.987 K0.000 F2500.000
G2 X27.104 Y296.360 Z-16.907 I317.082 J-128.068 K0.000 F2500.000
G2 X46.615 Y330.842 Z-16.907 I556.067 J-291.871 K0.000 F2500.000
G3 X61.320 Y354.831 Z-16.907 I-4696.661 J2895.535 K0.000 F2500.000
G3 X64.648 Y360.807 Z-16.907 I-91.779 J55.020 K0.000 F2500.000
G3 X63.791 Y365.166 Z-16.907 I-48.766 J-7.320 K0.000 F2500.000
G3 X61.267 Y373.890 Z-16.907 I-130.808 J-33.119 K0.000 F2500.000
G3 X56.916 Y386.381 Z-16.907 I-753.866 J-255.571 K0.000 F2500.000
G2 X47.392 Y418.016 Z-16.907 I255.354 J94.133 K0.000 F2500.000
G2 X44.019 Y435.873 Z-16.907 I169.976 J41.347 K0.000 F2500.000
G2 X45.959 Y484.419 Z-16.907 I137.874 J18.804 K0.000 F2500.000
G2 X62.209 Y527.489 Z-16.907 I162.429 J-36.682 K0.000 F2500.000
G2 X98.243 Y570.602 Z-16.907 I123.042 J-66.225 K0.000 F2500.000
G2 X127.054 Y588.601 Z-16.907 I97.215 J-123.554 K0.000 F2500.000
G2 X158.894 Y600.479 Z-16.907 I83.075 J-174.078 K0.000 F2500.000
G2 X197.003 Y607.825 Z-16.907 I68.007 J-250.278 K0.000 F2500.000
G2 X198.784 Y606.301 Z-16.907 I0.198 J-1.573 K0.000 F2500.000
G1 X198.784 Y606.301 Z-18.000 F1000.000
G2 X198.785 Y606.252 Z-18.000 I-1.584 J-0.049 K0.000 F2500.000
G1 X198.785 Y544.703 Z-18.000 F2500.000
G2 X197.447 Y543.137 Z-18.000 I-1.585 J0.000 K0.000 F2500.000
G3 X175.735 Y538.533 Z-18.000 I25.680 J-174.601 K0.000 F2500.000
G3 X155.987 Y531.288 Z-18.000 I31.614 J-116.702 K0.000 F2500.000
G3 X140.974 Y522.473 Z-18.000 I37.447 J-80.973 K0.000 F2500.000
G3 X122.216 Y502.938 Z-18.000 I44.016 J-61.041 K0.000 F2500.000
G3 X110.002 Y475.978 Z-18.000 I85.675 J-55.058 K0.000 F2500.000
G3 X107.304 Y446.973 Z-18.000 I71.773 J-21.305 K0.000 F2500.000
G3 X109.069 Y436.169 Z-18.000 I114.709 J13.192 K0.000 F2500.000
G3 X114.723 Y415.513 Z-18.000 I197.913 J43.073 K0.000 F2500.000
G3 X118.720 Y404.111 Z-18.000 I467.737 J157.542 K0.000 F2500.000
G2 X124.670 Y385.904 Z-18.000 I-269.551 J-98.176 K0.000 F2500.000
G2 X128.187 Y369.836 Z-18.000 I-115.765 J-33.755 K0.000 F2500.000
G2 X128.967 Y356.833 Z-18.000 I-64.802 J-10.411 K0.000 F2500.000
G2 X126.219 Y341.821 Z-18.000 I-52.022 J1.764 K0.000 F2500.000
G2 X120.397 Y328.905 Z-18.000 I-88.578 J32.156 K0.000 F2500.000
G2 X112.780 Y315.904 Z-18.000 I-320.765 J179.209 K0.000 F2500.000
G3 X95.960 Y288.233 Z-18.000 I1003.066 J-628.638 K0.000 F2500.000
G3 X80.094 Y258.852 Z-18.000 I344.396 J-204.951 K0.000 F2500.000
G3 X72.193 Y240.717 Z-18.000 I190.659 J-93.866 K0.000 F2500.000
G3 X66.226 Y221.679 Z-18.000 I138.159 J-53.755 K0.000 F2500.000
G3 X62.724 Y197.628 Z-18.000 I124.443 J-30.396 K0.000 F2500.000
G3 X70.012 Y146.102 Z-18.000 I141.504 J-6.264 K0.000 F2500.000
G3 X77.636 Y128.333 Z-18.000 I108.334 J35.959 K0.000 F2500.000
G3 X103.211 Y97.197 Z-18.000 I88.906 J46.956 K0.000 F2500.000
G3 X125.474 Y83.094 Z-18.000 I75.685 J94.853 K0.000 F2500.000
G3 X154.153 Y72.497 Z-18.000 I69.128 J142.980 K0.000 F2500.000
G3 X178.810 Y67.442 Z-18.000 I63.206 J245.605 K0.000 F2500.000
G3 X207.388 Y64.273 Z-18.000 I58.680 J398.828 K0.000 F2500.000
G3 X247.230 Y62.585 Z-18.000 I48.500 J673.477 K0.000 F2500.000
G2 X248.785 Y61.000 Z-18.000 I-0.030 J-1.585 K0.000 F2500.000
G1 X248.785 Y0.000 Z-18.000 F2500.000
G2 X247.885 Y-1.429 Z-18.000 I-1.585 J0.000 K0.000 F2500.000
G2 X246.962 Y-1.585 Z-18.000 I-0.743 J1.596 K0.000 F2500.000
G2 X209.485 Y-0.182 Z-18.000 I8.082 J717.367 K0.000 F2500.000
G2 X174.199 Y3.285 Z-18.000 I26.574 J451.756 K0.000 F2500.000
G2 X141.462 Y9.519 Z-18.000 I39.647 J297.245 K0.000 F2500.000
G2 X105.365 Y21.715 Z-18.000 I52.827 J215.882 K0.000 F2500.000
G2 X75.776 Y37.821 Z-18.000 I74.825 J172.696 K0.000 F2500.000
G2 X26.621 Y88.365 Z-18.000 I91.070 J137.742 K0.000 F2500.000
G2 X10.766 Y121.136 Z-18.000 I154.168 J94.809 K0.000 F2500.000
G2 X-1.572 Y190.023 Z-18.000 I192.763 J70.072 K0.000 F2500.000
G2 X3.540 Y235.503 Z-18.000 I191.972 J1.449 K0.000 F2500.000
G2 X13.403 Y266.621 Z-18.000 I221.214 J-52.987 K0.000 F2500.000
G2 X27.104 Y296.360 Z-18.000 I317.082 J-128.068 K0.000 F2500.000
G2 X46.615 Y330.842 Z-18.000 I556.067 J-291.871 K0.000 F2500.000
G3 X61.320 Y354.831 Z-18.000 I-4696.661 J2895.535 K0.000 F2500.000
G3 X64.648 Y360.807 Z-18.000 I-91.779 J55.020 K0.000 F2500.000
G3 X63.791 Y365.166 Z-18.000 I-48.766 J-7.320 K0.000 F2500.000
G3 X61.267 Y373.890 Z-18.000 I-130.808 J-33.119 K0.000 F2500.000
G3 X56.916 Y386.381 Z-18.000 I-753.866 J-255.571 K0.000 F2500.000
G2 X47.392 Y418.016 Z-18.000 I255.354 J94.133 K0.000 F2500.000
G2 X44.019 Y435.873 Z-18.000 I169.976 J41.347 K0.000 F2500.000
G2 X45.959 Y484.419 Z-18.000 I137.874 J18.804 K0.000 F2500.000
G2 X62.209 Y527.489 Z-18.000 I162.429 J-36.682 K0.000 F2500.000
G2 X98.243 Y570.602 Z-18.000 I123.042 J-66.225 K0.000 F2500.000
G2 X127.054 Y588.601 Z-18.000 I97.215 J-123.554 K0.000 F2500.000
G2 X158.894 Y600.479 Z-18.000 I83.075 J-174.078 K0.000 F2500.000
G2 X197.003 Y607.825 Z-18.000 I68.007 J-250.278 K0.000 F2500.000
G2 X198.784 Y606.301 Z-18.000 I0.198 J-1.573 K0.000 F2500.000
G0 Z5.000
G0 Z5.000
(Finish operation: Profile)
(Begin postamble)
M5
G17 G90
M2
