(Exported by FreeCAD)
(Post Processor: grbl_post)
(Output Time:2023-05-30 23:54:40.885408)
(Begin preamble)
G17 G90
G21
(Begin operation: 3.175 Z2 droite004)
(Path: 3.175 Z2 droite004)
(3.175 Z2 droite004)
(Begin toolchange)
( M6 T2 )
M3 S24000
(Finish operation: 3.175 Z2 droite004)
(Begin operation: Fixture)
(Path: Fixture)
G54
G0 Z5.000
(Finish operation: Fixture)
(Begin operation: Helix001)
(Path: Helix001)
(Helix001)
(helix cut operation)
G0 Z5.000
G0 Z5.000
G0 X50.000 Y27.662 Z5.000
G0 X50.000 Y27.662 Z0.000
G0 X52.415 Y27.662
G1 Z0.000 F1000.000
G2 X47.585 Y27.662 Z-0.750 I-2.415 J0.000 F2500.000
G2 X52.415 Y27.662 Z-1.500 I2.415 J0.000 F2500.000
G2 X47.585 Y27.662 Z-2.250 I-2.415 J0.000 F2500.000
G2 X52.415 Y27.662 Z-3.000 I2.415 J0.000 F2500.000
G2 X47.585 Y27.662 Z-3.750 I-2.415 J0.000 F2500.000
G2 X52.415 Y27.662 Z-4.500 I2.415 J0.000 F2500.000
G2 X47.585 Y27.662 Z-5.250 I-2.415 J0.000 F2500.000
G2 X52.415 Y27.662 Z-6.000 I2.415 J0.000 F2500.000
G2 X47.585 Y27.662 Z-6.750 I-2.415 J0.000 F2500.000
G2 X52.415 Y27.662 Z-7.500 I2.415 J0.000 F2500.000
G2 X47.585 Y27.662 Z-8.250 I-2.415 J0.000 F2500.000
G2 X52.415 Y27.662 Z-9.000 I2.415 J0.000 F2500.000
G2 X47.585 Y27.662 Z-9.750 I-2.415 J0.000 F2500.000
G2 X52.415 Y27.662 Z-10.500 I2.415 J0.000 F2500.000
G2 X47.585 Y27.662 Z-11.250 I-2.415 J0.000 F2500.000
G2 X52.415 Y27.662 Z-12.000 I2.415 J0.000 F2500.000
G2 X47.585 Y27.662 Z-12.750 I-2.415 J0.000 F2500.000
G2 X52.415 Y27.662 Z-13.500 I2.415 J0.000 F2500.000
G2 X47.585 Y27.662 Z-14.250 I-2.415 J0.000 F2500.000
G2 X52.415 Y27.662 Z-15.000 I2.415 J0.000 F2500.000
G2 X47.585 Y27.662 Z-15.750 I-2.415 J0.000 F2500.000
G2 X52.415 Y27.662 Z-16.500 I2.415 J0.000 F2500.000
G2 X47.585 Y27.662 Z-17.250 I-2.415 J0.000 F2500.000
G2 X52.415 Y27.662 Z-18.000 I2.415 J0.000 F2500.000
G2 X47.585 Y27.662 Z-18.000 I-2.415 J0.000 F2500.000
G2 X52.415 Y27.662 Z-18.000 I2.415 J0.000 F2500.000
G0 Z0.000
G0 X51.585 Y27.662
G1 Z0.000 F1000.000
G2 X48.415 Y27.662 Z-0.750 I-1.585 J0.000 F2500.000
G2 X51.585 Y27.662 Z-1.500 I1.585 J0.000 F2500.000
G2 X48.415 Y27.662 Z-2.250 I-1.585 J0.000 F2500.000
G2 X51.585 Y27.662 Z-3.000 I1.585 J0.000 F2500.000
G2 X48.415 Y27.662 Z-3.750 I-1.585 J0.000 F2500.000
G2 X51.585 Y27.662 Z-4.500 I1.585 J0.000 F2500.000
G2 X48.415 Y27.662 Z-5.250 I-1.585 J0.000 F2500.000
G2 X51.585 Y27.662 Z-6.000 I1.585 J0.000 F2500.000
G2 X48.415 Y27.662 Z-6.750 I-1.585 J0.000 F2500.000
G2 X51.585 Y27.662 Z-7.500 I1.585 J0.000 F2500.000
G2 X48.415 Y27.662 Z-8.250 I-1.585 J0.000 F2500.000
G2 X51.585 Y27.662 Z-9.000 I1.585 J0.000 F2500.000
G2 X48.415 Y27.662 Z-9.750 I-1.585 J0.000 F2500.000
G2 X51.585 Y27.662 Z-10.500 I1.585 J0.000 F2500.000
G2 X48.415 Y27.662 Z-11.250 I-1.585 J0.000 F2500.000
G2 X51.585 Y27.662 Z-12.000 I1.585 J0.000 F2500.000
G2 X48.415 Y27.662 Z-12.750 I-1.585 J0.000 F2500.000
G2 X51.585 Y27.662 Z-13.500 I1.585 J0.000 F2500.000
G2 X48.415 Y27.662 Z-14.250 I-1.585 J0.000 F2500.000
G2 X51.585 Y27.662 Z-15.000 I1.585 J0.000 F2500.000
G2 X48.415 Y27.662 Z-15.750 I-1.585 J0.000 F2500.000
G2 X51.585 Y27.662 Z-16.500 I1.585 J0.000 F2500.000
G2 X48.415 Y27.662 Z-17.250 I-1.585 J0.000 F2500.000
G2 X51.585 Y27.662 Z-18.000 I1.585 J0.000 F2500.000
G2 X48.415 Y27.662 Z-18.000 I-1.585 J0.000 F2500.000
G2 X51.585 Y27.662 Z-18.000 I1.585 J0.000 F2500.000
G0 Z0.000
G0 Z5.000
G0 X155.000 Y360.162 Z5.000
G0 X155.000 Y360.162 Z0.000
G0 X157.415 Y360.162
G1 Z0.000 F1000.000
G2 X152.585 Y360.162 Z-0.750 I-2.415 J0.000 F2500.000
G2 X157.415 Y360.162 Z-1.500 I2.415 J0.000 F2500.000
G2 X152.585 Y360.162 Z-2.250 I-2.415 J0.000 F2500.000
G2 X157.415 Y360.162 Z-3.000 I2.415 J0.000 F2500.000
G2 X152.585 Y360.162 Z-3.750 I-2.415 J0.000 F2500.000
G2 X157.415 Y360.162 Z-4.500 I2.415 J0.000 F2500.000
G2 X152.585 Y360.162 Z-5.250 I-2.415 J0.000 F2500.000
G2 X157.415 Y360.162 Z-6.000 I2.415 J0.000 F2500.000
G2 X152.585 Y360.162 Z-6.750 I-2.415 J0.000 F2500.000
G2 X157.415 Y360.162 Z-7.500 I2.415 J0.000 F2500.000
G2 X152.585 Y360.162 Z-8.250 I-2.415 J0.000 F2500.000
G2 X157.415 Y360.162 Z-9.000 I2.415 J0.000 F2500.000
G2 X152.585 Y360.162 Z-9.750 I-2.415 J0.000 F2500.000
G2 X157.415 Y360.162 Z-10.500 I2.415 J0.000 F2500.000
G2 X152.585 Y360.162 Z-11.250 I-2.415 J0.000 F2500.000
G2 X157.415 Y360.162 Z-12.000 I2.415 J0.000 F2500.000
G2 X152.585 Y360.162 Z-12.750 I-2.415 J0.000 F2500.000
G2 X157.415 Y360.162 Z-13.500 I2.415 J0.000 F2500.000
G2 X152.585 Y360.162 Z-14.250 I-2.415 J0.000 F2500.000
G2 X157.415 Y360.162 Z-15.000 I2.415 J0.000 F2500.000
G2 X152.585 Y360.162 Z-15.750 I-2.415 J0.000 F2500.000
G2 X157.415 Y360.162 Z-16.500 I2.415 J0.000 F2500.000
G2 X152.585 Y360.162 Z-17.250 I-2.415 J0.000 F2500.000
G2 X157.415 Y360.162 Z-18.000 I2.415 J0.000 F2500.000
G2 X152.585 Y360.162 Z-18.000 I-2.415 J0.000 F2500.000
G2 X157.415 Y360.162 Z-18.000 I2.415 J0.000 F2500.000
G0 Z0.000
G0 X156.585 Y360.162
G1 Z0.000 F1000.000
G2 X153.415 Y360.162 Z-0.750 I-1.585 J0.000 F2500.000
G2 X156.585 Y360.162 Z-1.500 I1.585 J0.000 F2500.000
G2 X153.415 Y360.162 Z-2.250 I-1.585 J0.000 F2500.000
G2 X156.585 Y360.162 Z-3.000 I1.585 J0.000 F2500.000
G2 X153.415 Y360.162 Z-3.750 I-1.585 J0.000 F2500.000
G2 X156.585 Y360.162 Z-4.500 I1.585 J0.000 F2500.000
G2 X153.415 Y360.162 Z-5.250 I-1.585 J0.000 F2500.000
G2 X156.585 Y360.162 Z-6.000 I1.585 J0.000 F2500.000
G2 X153.415 Y360.162 Z-6.750 I-1.585 J0.000 F2500.000
G2 X156.585 Y360.162 Z-7.500 I1.585 J0.000 F2500.000
G2 X153.415 Y360.162 Z-8.250 I-1.585 J0.000 F2500.000
G2 X156.585 Y360.162 Z-9.000 I1.585 J0.000 F2500.000
G2 X153.415 Y360.162 Z-9.750 I-1.585 J0.000 F2500.000
G2 X156.585 Y360.162 Z-10.500 I1.585 J0.000 F2500.000
G2 X153.415 Y360.162 Z-11.250 I-1.585 J0.000 F2500.000
G2 X156.585 Y360.162 Z-12.000 I1.585 J0.000 F2500.000
G2 X153.415 Y360.162 Z-12.750 I-1.585 J0.000 F2500.000
G2 X156.585 Y360.162 Z-13.500 I1.585 J0.000 F2500.000
G2 X153.415 Y360.162 Z-14.250 I-1.585 J0.000 F2500.000
G2 X156.585 Y360.162 Z-15.000 I1.585 J0.000 F2500.000
G2 X153.415 Y360.162 Z-15.750 I-1.585 J0.000 F2500.000
G2 X156.585 Y360.162 Z-16.500 I1.585 J0.000 F2500.000
G2 X153.415 Y360.162 Z-17.250 I-1.585 J0.000 F2500.000
G2 X156.585 Y360.162 Z-18.000 I1.585 J0.000 F2500.000
G2 X153.415 Y360.162 Z-18.000 I-1.585 J0.000 F2500.000
G2 X156.585 Y360.162 Z-18.000 I1.585 J0.000 F2500.000
G0 Z0.000
G0 Z5.000
G0 X70.000 Y580.062 Z5.000
G0 X70.000 Y580.062 Z0.000
G0 X72.415 Y580.062
G1 Z0.000 F1000.000
G2 X67.585 Y580.062 Z-0.750 I-2.415 J0.000 F2500.000
G2 X72.415 Y580.062 Z-1.500 I2.415 J0.000 F2500.000
G2 X67.585 Y580.062 Z-2.250 I-2.415 J0.000 F2500.000
G2 X72.415 Y580.062 Z-3.000 I2.415 J0.000 F2500.000
G2 X67.585 Y580.062 Z-3.750 I-2.415 J0.000 F2500.000
G2 X72.415 Y580.062 Z-4.500 I2.415 J0.000 F2500.000
G2 X67.585 Y580.062 Z-5.250 I-2.415 J0.000 F2500.000
G2 X72.415 Y580.062 Z-6.000 I2.415 J0.000 F2500.000
G2 X67.585 Y580.062 Z-6.750 I-2.415 J0.000 F2500.000
G2 X72.415 Y580.062 Z-7.500 I2.415 J0.000 F2500.000
G2 X67.585 Y580.062 Z-8.250 I-2.415 J0.000 F2500.000
G2 X72.415 Y580.062 Z-9.000 I2.415 J0.000 F2500.000
G2 X67.585 Y580.062 Z-9.750 I-2.415 J0.000 F2500.000
G2 X72.415 Y580.062 Z-10.500 I2.415 J0.000 F2500.000
G2 X67.585 Y580.062 Z-11.250 I-2.415 J0.000 F2500.000
G2 X72.415 Y580.062 Z-12.000 I2.415 J0.000 F2500.000
G2 X67.585 Y580.062 Z-12.750 I-2.415 J0.000 F2500.000
G2 X72.415 Y580.062 Z-13.500 I2.415 J0.000 F2500.000
G2 X67.585 Y580.062 Z-14.250 I-2.415 J0.000 F2500.000
G2 X72.415 Y580.062 Z-15.000 I2.415 J0.000 F2500.000
G2 X67.585 Y580.062 Z-15.750 I-2.415 J0.000 F2500.000
G2 X72.415 Y580.062 Z-16.500 I2.415 J0.000 F2500.000
G2 X67.585 Y580.062 Z-17.250 I-2.415 J0.000 F2500.000
G2 X72.415 Y580.062 Z-18.000 I2.415 J0.000 F2500.000
G2 X67.585 Y580.062 Z-18.000 I-2.415 J0.000 F2500.000
G2 X72.415 Y580.062 Z-18.000 I2.415 J0.000 F2500.000
G0 Z0.000
G0 X71.585 Y580.062
G1 Z0.000 F1000.000
G2 X68.415 Y580.062 Z-0.750 I-1.585 J0.000 F2500.000
G2 X71.585 Y580.062 Z-1.500 I1.585 J0.000 F2500.000
G2 X68.415 Y580.062 Z-2.250 I-1.585 J0.000 F2500.000
G2 X71.585 Y580.062 Z-3.000 I1.585 J0.000 F2500.000
G2 X68.415 Y580.062 Z-3.750 I-1.585 J0.000 F2500.000
G2 X71.585 Y580.062 Z-4.500 I1.585 J0.000 F2500.000
G2 X68.415 Y580.062 Z-5.250 I-1.585 J0.000 F2500.000
G2 X71.585 Y580.062 Z-6.000 I1.585 J0.000 F2500.000
G2 X68.415 Y580.062 Z-6.750 I-1.585 J0.000 F2500.000
G2 X71.585 Y580.062 Z-7.500 I1.585 J0.000 F2500.000
G2 X68.415 Y580.062 Z-8.250 I-1.585 J0.000 F2500.000
G2 X71.585 Y580.062 Z-9.000 I1.585 J0.000 F2500.000
G2 X68.415 Y580.062 Z-9.750 I-1.585 J0.000 F2500.000
G2 X71.585 Y580.062 Z-10.500 I1.585 J0.000 F2500.000
G2 X68.415 Y580.062 Z-11.250 I-1.585 J0.000 F2500.000
G2 X71.585 Y580.062 Z-12.000 I1.585 J0.000 F2500.000
G2 X68.415 Y580.062 Z-12.750 I-1.585 J0.000 F2500.000
G2 X71.585 Y580.062 Z-13.500 I1.585 J0.000 F2500.000
G2 X68.415 Y580.062 Z-14.250 I-1.585 J0.000 F2500.000
G2 X71.585 Y580.062 Z-15.000 I1.585 J0.000 F2500.000
G2 X68.415 Y580.062 Z-15.750 I-1.585 J0.000 F2500.000
G2 X71.585 Y580.062 Z-16.500 I1.585 J0.000 F2500.000
G2 X68.415 Y580.062 Z-17.250 I-1.585 J0.000 F2500.000
G2 X71.585 Y580.062 Z-18.000 I1.585 J0.000 F2500.000
G2 X68.415 Y580.062 Z-18.000 I-1.585 J0.000 F2500.000
G2 X71.585 Y580.062 Z-18.000 I1.585 J0.000 F2500.000
G0 Z0.000
G0 Z5.000
(Finish operation: Helix001)
(Begin operation: Profile001)
(Path: Profile001)
(Profile001)
(Compensated Tool Path. Diameter: 3.17)
G0 Z5.000
G0 X171.900 Y547.499
G0 Z3.000
G1 X171.900 Y547.499 Z-2.113 F1000.000
G2 X179.614 Y536.638 Z-2.113 I-109.872 J-86.206 K0.000 F2500.000
G2 X198.739 Y494.178 Z-2.113 I-141.236 J-89.154 K0.000 F2500.000
G2 X204.454 Y455.890 Z-2.113 I-133.929 J-39.561 K0.000 F2500.000
G2 X202.104 Y428.912 Z-2.113 I-148.710 J-0.636 K0.000 F2500.000
G2 X192.870 Y393.751 Z-2.113 I-254.281 J47.982 K0.000 F2500.000
G2 X187.899 Y379.618 Z-2.113 I-4760.341 J1666.291 K0.000 F2500.000
G3 X184.477 Y369.156 Z-2.113 I147.820 J-54.150 K0.000 F2500.000
G3 X182.554 Y360.817 Z-2.113 I60.683 J-18.383 K0.000 F2500.000
G3 X184.946 Y356.418 Z-2.113 I83.417 J42.515 K0.000 F2500.000
G3 X193.954 Y341.626 Z-2.113 I1002.211 J600.169 K0.000 F2500.000
G2 X209.389 Y315.905 Z-2.113 I-698.986 J-436.954 K0.000 F2500.000
G2 X224.213 Y288.140 Z-2.113 I-388.246 J-225.121 K0.000 F2500.000
G2 X235.413 Y262.400 Z-2.113 I-251.984 J-124.953 K0.000 F2500.000
G2 X242.744 Y239.215 Z-2.113 I-197.037 J-75.055 K0.000 F2500.000
G2 X248.278 Y176.812 Z-2.113 I-188.095 J-48.128 K0.000 F2500.000
G2 X237.515 Y124.211 Z-2.113 I-204.542 J14.453 K0.000 F2500.000
G2 X224.236 Y94.578 Z-2.113 I-167.063 J57.071 K0.000 F2500.000
G2 X183.128 Y46.326 Z-2.113 I-143.650 J80.743 K0.000 F2500.000
G2 X151.358 Y26.167 Z-2.113 I-115.010 J146.144 K0.000 F2500.000
G2 X113.951 Y11.703 Z-2.113 I-97.727 J197.131 K0.000 F2500.000
G2 X78.188 Y4.026 Z-2.113 I-80.591 J288.315 K0.000 F2500.000
G2 X43.878 Y0.221 Z-2.113 I-70.138 J475.846 K0.000 F2500.000
G2 X0.501 Y-1.583 Z-2.113 I-53.226 J757.337 K0.000 F2500.000
G2 X0.243 Y-1.585 Z-2.113 I-0.424 J46.853 K0.000 F2500.000
G2 X-1.585 Y0.000 Z-2.113 I-0.208 J1.606 K0.000 F2500.000
G1 X-1.585 Y61.000 Z-2.113 F2500.000
G2 X-0.027 Y62.585 Z-2.113 I1.585 J0.000 K0.000 F2500.000
G3 X31.106 Y63.698 Z-2.113 I-8.297 J667.659 K0.000 F2500.000
G3 X63.448 Y66.747 Z-2.113 I-21.363 J399.760 K0.000 F2500.000
G3 X88.142 Y71.276 Z-2.113 I-31.033 J238.757 K0.000 F2500.000
G3 X111.045 Y78.393 Z-2.113 I-37.255 J160.298 K0.000 F2500.000
G3 X132.515 Y89.080 Z-2.113 I-47.770 J122.882 K0.000 F2500.000
G3 X153.251 Y105.731 Z-2.113 I-54.034 J88.528 K0.000 F2500.000
G3 X170.525 Y130.146 Z-2.113 I-74.699 J71.170 K0.000 F2500.000
G3 X177.310 Y146.502 Z-2.113 I-106.506 J53.765 K0.000 F2500.000
G3 X184.607 Y188.874 Z-2.113 I-133.847 J44.864 K0.000 F2500.000
G3 X180.238 Y224.648 Z-2.113 I-129.718 J2.310 K0.000 F2500.000
G3 X172.845 Y246.177 Z-2.113 I-167.908 J-45.619 K0.000 F2500.000
G3 X159.839 Y273.040 Z-2.113 I-288.989 J-123.341 K0.000 F2500.000
G3 X140.035 Y306.821 Z-2.113 I-604.610 J-331.757 K0.000 F2500.000
G2 X130.049 Y323.180 Z-2.113 I610.348 J383.768 K0.000 F2500.000
G2 X126.103 Y330.252 Z-2.113 I118.398 J70.707 K0.000 F2500.000
G2 X122.046 Y338.938 Z-2.113 I80.187 J42.745 K0.000 F2500.000
G2 X118.217 Y356.826 Z-2.113 I49.515 J19.954 K0.000 F2500.000
G2 X119.158 Y370.885 Z-2.113 I77.109 J1.901 K0.000 F2500.000
G2 X123.471 Y389.172 Z-2.113 I143.318 J-24.154 K0.000 F2500.000
G2 X129.455 Y406.826 Z-2.113 I359.715 J-112.075 K0.000 F2500.000
G3 X133.754 Y419.540 Z-2.113 I-242.489 J89.089 K0.000 F2500.000
G3 X138.670 Y438.936 Z-2.113 I-165.602 J52.291 K0.000 F2500.000
G3 X140.186 Y450.695 Z-2.113 I-78.654 J16.118 K0.000 F2500.000
G3 X137.786 Y473.897 Z-2.113 I-75.784 J3.887 K0.000 F2500.000
G3 X128.690 Y496.714 Z-2.113 I-101.234 J-27.137 K0.000 F2500.000
G3 X110.165 Y519.444 Z-2.113 I-66.914 J-35.622 K0.000 F2500.000
G3 X90.999 Y531.409 Z-2.113 I-57.650 J-71.011 K0.000 F2500.000
G3 X74.536 Y537.651 Z-2.113 I-54.325 J-118.448 K0.000 F2500.000
G3 X49.751 Y543.137 Z-2.113 I-50.825 J-170.871 K0.000 F2500.000
G2 X48.415 Y544.703 Z-2.113 I0.249 J1.565 K0.000 F2500.000
G1 X48.415 Y606.252 Z-2.113 F2500.000
G2 X50.196 Y607.825 Z-2.113 I1.585 J-0.000 K0.000 F2500.000
G2 X80.359 Y602.509 Z-2.113 I-29.975 J-258.319 K0.000 F2500.000
G2 X113.736 Y591.517 Z-2.113 I-44.604 J-191.606 K0.000 F2500.000
G2 X140.809 Y576.605 Z-2.113 I-61.605 J-143.875 K0.000 F2500.000
G2 X171.900 Y547.499 Z-2.113 I-78.781 J-115.312 K0.000 F2500.000
G1 X171.900 Y547.499 Z-4.227 F1000.000
G2 X179.614 Y536.638 Z-4.227 I-109.872 J-86.206 K0.000 F2500.000
G2 X198.739 Y494.178 Z-4.227 I-141.236 J-89.154 K0.000 F2500.000
G2 X204.454 Y455.890 Z-4.227 I-133.929 J-39.561 K0.000 F2500.000
G2 X202.104 Y428.912 Z-4.227 I-148.710 J-0.636 K0.000 F2500.000
G2 X192.870 Y393.751 Z-4.227 I-254.281 J47.982 K0.000 F2500.000
G2 X187.899 Y379.618 Z-4.227 I-4760.341 J1666.291 K0.000 F2500.000
G3 X184.477 Y369.156 Z-4.227 I147.820 J-54.150 K0.000 F2500.000
G3 X182.554 Y360.817 Z-4.227 I60.683 J-18.383 K0.000 F2500.000
G3 X184.946 Y356.418 Z-4.227 I83.417 J42.515 K0.000 F2500.000
G3 X193.954 Y341.626 Z-4.227 I1002.211 J600.169 K0.000 F2500.000
G2 X209.389 Y315.905 Z-4.227 I-698.986 J-436.954 K0.000 F2500.000
G2 X224.213 Y288.140 Z-4.227 I-388.246 J-225.121 K0.000 F2500.000
G2 X235.413 Y262.400 Z-4.227 I-251.984 J-124.953 K0.000 F2500.000
G2 X242.744 Y239.215 Z-4.227 I-197.037 J-75.055 K0.000 F2500.000
G2 X248.278 Y176.812 Z-4.227 I-188.095 J-48.128 K0.000 F2500.000
G2 X237.515 Y124.211 Z-4.227 I-204.542 J14.453 K0.000 F2500.000
G2 X224.236 Y94.578 Z-4.227 I-167.063 J57.071 K0.000 F2500.000
G2 X183.128 Y46.326 Z-4.227 I-143.650 J80.743 K0.000 F2500.000
G2 X151.358 Y26.167 Z-4.227 I-115.010 J146.144 K0.000 F2500.000
G2 X113.951 Y11.703 Z-4.227 I-97.727 J197.131 K0.000 F2500.000
G2 X78.188 Y4.026 Z-4.227 I-80.591 J288.315 K0.000 F2500.000
G2 X43.878 Y0.221 Z-4.227 I-70.138 J475.846 K0.000 F2500.000
G2 X0.501 Y-1.583 Z-4.227 I-53.226 J757.337 K0.000 F2500.000
G2 X0.243 Y-1.585 Z-4.227 I-0.424 J46.853 K0.000 F2500.000
G2 X-1.585 Y0.000 Z-4.227 I-0.208 J1.606 K0.000 F2500.000
G1 X-1.585 Y61.000 Z-4.227 F2500.000
G2 X-0.027 Y62.585 Z-4.227 I1.585 J0.000 K0.000 F2500.000
G3 X31.106 Y63.698 Z-4.227 I-8.297 J667.659 K0.000 F2500.000
G3 X63.448 Y66.747 Z-4.227 I-21.363 J399.760 K0.000 F2500.000
G3 X88.142 Y71.276 Z-4.227 I-31.033 J238.757 K0.000 F2500.000
G3 X111.045 Y78.393 Z-4.227 I-37.255 J160.298 K0.000 F2500.000
G3 X132.515 Y89.080 Z-4.227 I-47.770 J122.882 K0.000 F2500.000
G3 X153.251 Y105.731 Z-4.227 I-54.034 J88.528 K0.000 F2500.000
G3 X170.525 Y130.146 Z-4.227 I-74.699 J71.170 K0.000 F2500.000
G3 X177.310 Y146.502 Z-4.227 I-106.506 J53.765 K0.000 F2500.000
G3 X184.607 Y188.874 Z-4.227 I-133.847 J44.864 K0.000 F2500.000
G3 X180.238 Y224.648 Z-4.227 I-129.718 J2.310 K0.000 F2500.000
G3 X172.845 Y246.177 Z-4.227 I-167.908 J-45.619 K0.000 F2500.000
G3 X159.839 Y273.040 Z-4.227 I-288.989 J-123.341 K0.000 F2500.000
G3 X140.035 Y306.821 Z-4.227 I-604.610 J-331.757 K0.000 F2500.000
G2 X130.049 Y323.180 Z-4.227 I610.348 J383.768 K0.000 F2500.000
G2 X126.103 Y330.252 Z-4.227 I118.398 J70.707 K0.000 F2500.000
G2 X122.046 Y338.938 Z-4.227 I80.187 J42.745 K0.000 F2500.000
G2 X118.217 Y356.826 Z-4.227 I49.515 J19.954 K0.000 F2500.000
G2 X119.158 Y370.885 Z-4.227 I77.109 J1.901 K0.000 F2500.000
G2 X123.471 Y389.172 Z-4.227 I143.318 J-24.154 K0.000 F2500.000
G2 X129.455 Y406.826 Z-4.227 I359.715 J-112.075 K0.000 F2500.000
G3 X133.754 Y419.540 Z-4.227 I-242.489 J89.089 K0.000 F2500.000
G3 X138.670 Y438.936 Z-4.227 I-165.602 J52.291 K0.000 F2500.000
G3 X140.186 Y450.695 Z-4.227 I-78.654 J16.118 K0.000 F2500.000
G3 X137.786 Y473.897 Z-4.227 I-75.784 J3.887 K0.000 F2500.000
G3 X128.690 Y496.714 Z-4.227 I-101.234 J-27.137 K0.000 F2500.000
G3 X110.165 Y519.444 Z-4.227 I-66.914 J-35.622 K0.000 F2500.000
G3 X90.999 Y531.409 Z-4.227 I-57.650 J-71.011 K0.000 F2500.000
G3 X74.536 Y537.651 Z-4.227 I-54.325 J-118.448 K0.000 F2500.000
G3 X49.751 Y543.137 Z-4.227 I-50.825 J-170.871 K0.000 F2500.000
G2 X48.415 Y544.703 Z-4.227 I0.249 J1.565 K0.000 F2500.000
G1 X48.415 Y606.252 Z-4.227 F2500.000
G2 X50.196 Y607.825 Z-4.227 I1.585 J-0.000 K0.000 F2500.000
G2 X80.359 Y602.509 Z-4.227 I-29.975 J-258.319 K0.000 F2500.000
G2 X113.736 Y591.517 Z-4.227 I-44.604 J-191.606 K0.000 F2500.000
G2 X140.809 Y576.605 Z-4.227 I-61.605 J-143.875 K0.000 F2500.000
G2 X171.900 Y547.499 Z-4.227 I-78.781 J-115.312 K0.000 F2500.000
G1 X171.900 Y547.499 Z-6.340 F1000.000
G2 X179.614 Y536.638 Z-6.340 I-109.872 J-86.206 K0.000 F2500.000
G2 X198.739 Y494.178 Z-6.340 I-141.236 J-89.154 K0.000 F2500.000
G2 X204.454 Y455.890 Z-6.340 I-133.929 J-39.561 K0.000 F2500.000
G2 X202.104 Y428.912 Z-6.340 I-148.710 J-0.636 K0.000 F2500.000
G2 X192.870 Y393.751 Z-6.340 I-254.281 J47.982 K0.000 F2500.000
G2 X187.899 Y379.618 Z-6.340 I-4760.341 J1666.291 K0.000 F2500.000
G3 X184.477 Y369.156 Z-6.340 I147.820 J-54.150 K0.000 F2500.000
G3 X182.554 Y360.817 Z-6.340 I60.683 J-18.383 K0.000 F2500.000
G3 X184.946 Y356.418 Z-6.340 I83.417 J42.515 K0.000 F2500.000
G3 X193.954 Y341.626 Z-6.340 I1002.211 J600.169 K0.000 F2500.000
G2 X209.389 Y315.905 Z-6.340 I-698.986 J-436.954 K0.000 F2500.000
G2 X224.213 Y288.140 Z-6.340 I-388.246 J-225.121 K0.000 F2500.000
G2 X235.413 Y262.400 Z-6.340 I-251.984 J-124.953 K0.000 F2500.000
G2 X242.744 Y239.215 Z-6.340 I-197.037 J-75.055 K0.000 F2500.000
G2 X248.278 Y176.812 Z-6.340 I-188.095 J-48.128 K0.000 F2500.000
G2 X237.515 Y124.211 Z-6.340 I-204.542 J14.453 K0.000 F2500.000
G2 X224.236 Y94.578 Z-6.340 I-167.063 J57.071 K0.000 F2500.000
G2 X183.128 Y46.326 Z-6.340 I-143.650 J80.743 K0.000 F2500.000
G2 X151.358 Y26.167 Z-6.340 I-115.010 J146.144 K0.000 F2500.000
G2 X113.951 Y11.703 Z-6.340 I-97.727 J197.131 K0.000 F2500.000
G2 X78.188 Y4.026 Z-6.340 I-80.591 J288.315 K0.000 F2500.000
G2 X43.878 Y0.221 Z-6.340 I-70.138 J475.846 K0.000 F2500.000
G2 X0.501 Y-1.583 Z-6.340 I-53.226 J757.337 K0.000 F2500.000
G2 X0.243 Y-1.585 Z-6.340 I-0.424 J46.853 K0.000 F2500.000
G2 X-1.585 Y0.000 Z-6.340 I-0.208 J1.606 K0.000 F2500.000
G1 X-1.585 Y61.000 Z-6.340 F2500.000
G2 X-0.027 Y62.585 Z-6.340 I1.585 J0.000 K0.000 F2500.000
G3 X31.106 Y63.698 Z-6.340 I-8.297 J667.659 K0.000 F2500.000
G3 X63.448 Y66.747 Z-6.340 I-21.363 J399.760 K0.000 F2500.000
G3 X88.142 Y71.276 Z-6.340 I-31.033 J238.757 K0.000 F2500.000
G3 X111.045 Y78.393 Z-6.340 I-37.255 J160.298 K0.000 F2500.000
G3 X132.515 Y89.080 Z-6.340 I-47.770 J122.882 K0.000 F2500.000
G3 X153.251 Y105.731 Z-6.340 I-54.034 J88.528 K0.000 F2500.000
G3 X170.525 Y130.146 Z-6.340 I-74.699 J71.170 K0.000 F2500.000
G3 X177.310 Y146.502 Z-6.340 I-106.506 J53.765 K0.000 F2500.000
G3 X184.607 Y188.874 Z-6.340 I-133.847 J44.864 K0.000 F2500.000
G3 X180.238 Y224.648 Z-6.340 I-129.718 J2.310 K0.000 F2500.000
G3 X172.845 Y246.177 Z-6.340 I-167.908 J-45.619 K0.000 F2500.000
G3 X159.839 Y273.040 Z-6.340 I-288.989 J-123.341 K0.000 F2500.000
G3 X140.035 Y306.821 Z-6.340 I-604.610 J-331.757 K0.000 F2500.000
G2 X130.049 Y323.180 Z-6.340 I610.348 J383.768 K0.000 F2500.000
G2 X126.103 Y330.252 Z-6.340 I118.398 J70.707 K0.000 F2500.000
G2 X122.046 Y338.938 Z-6.340 I80.187 J42.745 K0.000 F2500.000
G2 X118.217 Y356.826 Z-6.340 I49.515 J19.954 K0.000 F2500.000
G2 X119.158 Y370.885 Z-6.340 I77.109 J1.901 K0.000 F2500.000
G2 X123.471 Y389.172 Z-6.340 I143.318 J-24.154 K0.000 F2500.000
G2 X129.455 Y406.826 Z-6.340 I359.715 J-112.075 K0.000 F2500.000
G3 X133.754 Y419.540 Z-6.340 I-242.489 J89.089 K0.000 F2500.000
G3 X138.670 Y438.936 Z-6.340 I-165.602 J52.291 K0.000 F2500.000
G3 X140.186 Y450.695 Z-6.340 I-78.654 J16.118 K0.000 F2500.000
G3 X137.786 Y473.897 Z-6.340 I-75.784 J3.887 K0.000 F2500.000
G3 X128.690 Y496.714 Z-6.340 I-101.234 J-27.137 K0.000 F2500.000
G3 X110.165 Y519.444 Z-6.340 I-66.914 J-35.622 K0.000 F2500.000
G3 X90.999 Y531.409 Z-6.340 I-57.650 J-71.011 K0.000 F2500.000
G3 X74.536 Y537.651 Z-6.340 I-54.325 J-118.448 K0.000 F2500.000
G3 X49.751 Y543.137 Z-6.340 I-50.825 J-170.871 K0.000 F2500.000
G2 X48.415 Y544.703 Z-6.340 I0.249 J1.565 K0.000 F2500.000
G1 X48.415 Y606.252 Z-6.340 F2500.000
G2 X50.196 Y607.825 Z-6.340 I1.585 J-0.000 K0.000 F2500.000
G2 X80.359 Y602.509 Z-6.340 I-29.975 J-258.319 K0.000 F2500.000
G2 X113.736 Y591.517 Z-6.340 I-44.604 J-191.606 K0.000 F2500.000
G2 X140.809 Y576.605 Z-6.340 I-61.605 J-143.875 K0.000 F2500.000
G2 X171.900 Y547.499 Z-6.340 I-78.781 J-115.312 K0.000 F2500.000
G1 X171.900 Y547.499 Z-8.453 F1000.000
G2 X179.614 Y536.638 Z-8.453 I-109.872 J-86.206 K0.000 F2500.000
G2 X198.739 Y494.178 Z-8.453 I-141.236 J-89.154 K0.000 F2500.000
G2 X204.454 Y455.890 Z-8.453 I-133.929 J-39.561 K0.000 F2500.000
G2 X202.104 Y428.912 Z-8.453 I-148.710 J-0.636 K0.000 F2500.000
G2 X192.870 Y393.751 Z-8.453 I-254.281 J47.982 K0.000 F2500.000
G2 X187.899 Y379.618 Z-8.453 I-4760.341 J1666.291 K0.000 F2500.000
G3 X184.477 Y369.156 Z-8.453 I147.820 J-54.150 K0.000 F2500.000
G3 X182.554 Y360.817 Z-8.453 I60.683 J-18.383 K0.000 F2500.000
G3 X184.946 Y356.418 Z-8.453 I83.417 J42.515 K0.000 F2500.000
G3 X193.954 Y341.626 Z-8.453 I1002.211 J600.169 K0.000 F2500.000
G2 X209.389 Y315.905 Z-8.453 I-698.986 J-436.954 K0.000 F2500.000
G2 X224.213 Y288.140 Z-8.453 I-388.246 J-225.121 K0.000 F2500.000
G2 X235.413 Y262.400 Z-8.453 I-251.984 J-124.953 K0.000 F2500.000
G2 X242.744 Y239.215 Z-8.453 I-197.037 J-75.055 K0.000 F2500.000
G2 X248.278 Y176.812 Z-8.453 I-188.095 J-48.128 K0.000 F2500.000
G2 X237.515 Y124.211 Z-8.453 I-204.542 J14.453 K0.000 F2500.000
G2 X224.236 Y94.578 Z-8.453 I-167.063 J57.071 K0.000 F2500.000
G2 X183.128 Y46.326 Z-8.453 I-143.650 J80.743 K0.000 F2500.000
G2 X151.358 Y26.167 Z-8.453 I-115.010 J146.144 K0.000 F2500.000
G2 X113.951 Y11.703 Z-8.453 I-97.727 J197.131 K0.000 F2500.000
G2 X78.188 Y4.026 Z-8.453 I-80.591 J288.315 K0.000 F2500.000
G2 X43.878 Y0.221 Z-8.453 I-70.138 J475.846 K0.000 F2500.000
G2 X0.501 Y-1.583 Z-8.453 I-53.226 J757.337 K0.000 F2500.000
G2 X0.243 Y-1.585 Z-8.453 I-0.424 J46.853 K0.000 F2500.000
G2 X-1.585 Y0.000 Z-8.453 I-0.208 J1.606 K0.000 F2500.000
G1 X-1.585 Y61.000 Z-8.453 F2500.000
G2 X-0.027 Y62.585 Z-8.453 I1.585 J0.000 K0.000 F2500.000
G3 X31.106 Y63.698 Z-8.453 I-8.297 J667.659 K0.000 F2500.000
G3 X63.448 Y66.747 Z-8.453 I-21.363 J399.760 K0.000 F2500.000
G3 X88.142 Y71.276 Z-8.453 I-31.033 J238.757 K0.000 F2500.000
G3 X111.045 Y78.393 Z-8.453 I-37.255 J160.298 K0.000 F2500.000
G3 X132.515 Y89.080 Z-8.453 I-47.770 J122.882 K0.000 F2500.000
G3 X153.251 Y105.731 Z-8.453 I-54.034 J88.528 K0.000 F2500.000
G3 X170.525 Y130.146 Z-8.453 I-74.699 J71.170 K0.000 F2500.000
G3 X177.310 Y146.502 Z-8.453 I-106.506 J53.765 K0.000 F2500.000
G3 X184.607 Y188.874 Z-8.453 I-133.847 J44.864 K0.000 F2500.000
G3 X180.238 Y224.648 Z-8.453 I-129.718 J2.310 K0.000 F2500.000
G3 X172.845 Y246.177 Z-8.453 I-167.908 J-45.619 K0.000 F2500.000
G3 X159.839 Y273.040 Z-8.453 I-288.989 J-123.341 K0.000 F2500.000
G3 X140.035 Y306.821 Z-8.453 I-604.610 J-331.757 K0.000 F2500.000
G2 X130.049 Y323.180 Z-8.453 I610.348 J383.768 K0.000 F2500.000
G2 X126.103 Y330.252 Z-8.453 I118.398 J70.707 K0.000 F2500.000
G2 X122.046 Y338.938 Z-8.453 I80.187 J42.745 K0.000 F2500.000
G2 X118.217 Y356.826 Z-8.453 I49.515 J19.954 K0.000 F2500.000
G2 X119.158 Y370.885 Z-8.453 I77.109 J1.901 K0.000 F2500.000
G2 X123.471 Y389.172 Z-8.453 I143.318 J-24.154 K0.000 F2500.000
G2 X129.455 Y406.826 Z-8.453 I359.715 J-112.075 K0.000 F2500.000
G3 X133.754 Y419.540 Z-8.453 I-242.489 J89.089 K0.000 F2500.000
G3 X138.670 Y438.936 Z-8.453 I-165.602 J52.291 K0.000 F2500.000
G3 X140.186 Y450.695 Z-8.453 I-78.654 J16.118 K0.000 F2500.000
G3 X137.786 Y473.897 Z-8.453 I-75.784 J3.887 K0.000 F2500.000
G3 X128.690 Y496.714 Z-8.453 I-101.234 J-27.137 K0.000 F2500.000
G3 X110.165 Y519.444 Z-8.453 I-66.914 J-35.622 K0.000 F2500.000
G3 X90.999 Y531.409 Z-8.453 I-57.650 J-71.011 K0.000 F2500.000
G3 X74.536 Y537.651 Z-8.453 I-54.325 J-118.448 K0.000 F2500.000
G3 X49.751 Y543.137 Z-8.453 I-50.825 J-170.871 K0.000 F2500.000
G2 X48.415 Y544.703 Z-8.453 I0.249 J1.565 K0.000 F2500.000
G1 X48.415 Y606.252 Z-8.453 F2500.000
G2 X50.196 Y607.825 Z-8.453 I1.585 J-0.000 K0.000 F2500.000
G2 X80.359 Y602.509 Z-8.453 I-29.975 J-258.319 K0.000 F2500.000
G2 X113.736 Y591.517 Z-8.453 I-44.604 J-191.606 K0.000 F2500.000
G2 X140.809 Y576.605 Z-8.453 I-61.605 J-143.875 K0.000 F2500.000
G2 X171.900 Y547.499 Z-8.453 I-78.781 J-115.312 K0.000 F2500.000
G1 X171.900 Y547.499 Z-10.567 F1000.000
G2 X179.614 Y536.638 Z-10.567 I-109.872 J-86.206 K0.000 F2500.000
G2 X198.739 Y494.178 Z-10.567 I-141.236 J-89.154 K0.000 F2500.000
G2 X204.454 Y455.890 Z-10.567 I-133.929 J-39.561 K0.000 F2500.000
G2 X202.104 Y428.912 Z-10.567 I-148.710 J-0.636 K0.000 F2500.000
G2 X192.870 Y393.751 Z-10.567 I-254.281 J47.982 K0.000 F2500.000
G2 X187.899 Y379.618 Z-10.567 I-4760.341 J1666.291 K0.000 F2500.000
G3 X184.477 Y369.156 Z-10.567 I147.820 J-54.150 K0.000 F2500.000
G3 X182.554 Y360.817 Z-10.567 I60.683 J-18.383 K0.000 F2500.000
G3 X184.946 Y356.418 Z-10.567 I83.417 J42.515 K0.000 F2500.000
G3 X193.954 Y341.626 Z-10.567 I1002.211 J600.169 K0.000 F2500.000
G2 X209.389 Y315.905 Z-10.567 I-698.986 J-436.954 K0.000 F2500.000
G2 X224.213 Y288.140 Z-10.567 I-388.246 J-225.121 K0.000 F2500.000
G2 X235.413 Y262.400 Z-10.567 I-251.984 J-124.953 K0.000 F2500.000
G2 X242.744 Y239.215 Z-10.567 I-197.037 J-75.055 K0.000 F2500.000
G2 X248.278 Y176.812 Z-10.567 I-188.095 J-48.128 K0.000 F2500.000
G2 X237.515 Y124.211 Z-10.567 I-204.542 J14.453 K0.000 F2500.000
G2 X224.236 Y94.578 Z-10.567 I-167.063 J57.071 K0.000 F2500.000
G2 X183.128 Y46.326 Z-10.567 I-143.650 J80.743 K0.000 F2500.000
G2 X151.358 Y26.167 Z-10.567 I-115.010 J146.144 K0.000 F2500.000
G2 X113.951 Y11.703 Z-10.567 I-97.727 J197.131 K0.000 F2500.000
G2 X78.188 Y4.026 Z-10.567 I-80.591 J288.315 K0.000 F2500.000
G2 X43.878 Y0.221 Z-10.567 I-70.138 J475.846 K0.000 F2500.000
G2 X0.501 Y-1.583 Z-10.567 I-53.226 J757.337 K0.000 F2500.000
G2 X0.243 Y-1.585 Z-10.567 I-0.424 J46.853 K0.000 F2500.000
G2 X-1.585 Y0.000 Z-10.567 I-0.208 J1.606 K0.000 F2500.000
G1 X-1.585 Y61.000 Z-10.567 F2500.000
G2 X-0.027 Y62.585 Z-10.567 I1.585 J0.000 K0.000 F2500.000
G3 X31.106 Y63.698 Z-10.567 I-8.297 J667.659 K0.000 F2500.000
G3 X63.448 Y66.747 Z-10.567 I-21.363 J399.760 K0.000 F2500.000
G3 X88.142 Y71.276 Z-10.567 I-31.033 J238.757 K0.000 F2500.000
G3 X111.045 Y78.393 Z-10.567 I-37.255 J160.298 K0.000 F2500.000
G3 X132.515 Y89.080 Z-10.567 I-47.770 J122.882 K0.000 F2500.000
G3 X153.251 Y105.731 Z-10.567 I-54.034 J88.528 K0.000 F2500.000
G3 X170.525 Y130.146 Z-10.567 I-74.699 J71.170 K0.000 F2500.000
G3 X177.310 Y146.502 Z-10.567 I-106.506 J53.765 K0.000 F2500.000
G3 X184.607 Y188.874 Z-10.567 I-133.847 J44.864 K0.000 F2500.000
G3 X180.238 Y224.648 Z-10.567 I-129.718 J2.310 K0.000 F2500.000
G3 X172.845 Y246.177 Z-10.567 I-167.908 J-45.619 K0.000 F2500.000
G3 X159.839 Y273.040 Z-10.567 I-288.989 J-123.341 K0.000 F2500.000
G3 X140.035 Y306.821 Z-10.567 I-604.610 J-331.757 K0.000 F2500.000
G2 X130.049 Y323.180 Z-10.567 I610.348 J383.768 K0.000 F2500.000
G2 X126.103 Y330.252 Z-10.567 I118.398 J70.707 K0.000 F2500.000
G2 X122.046 Y338.938 Z-10.567 I80.187 J42.745 K0.000 F2500.000
G2 X118.217 Y356.826 Z-10.567 I49.515 J19.954 K0.000 F2500.000
G2 X119.158 Y370.885 Z-10.567 I77.109 J1.901 K0.000 F2500.000
G2 X123.471 Y389.172 Z-10.567 I143.318 J-24.154 K0.000 F2500.000
G2 X129.455 Y406.826 Z-10.567 I359.715 J-112.075 K0.000 F2500.000
G3 X133.754 Y419.540 Z-10.567 I-242.489 J89.089 K0.000 F2500.000
G3 X138.670 Y438.936 Z-10.567 I-165.602 J52.291 K0.000 F2500.000
G3 X140.186 Y450.695 Z-10.567 I-78.654 J16.118 K0.000 F2500.000
G3 X137.786 Y473.897 Z-10.567 I-75.784 J3.887 K0.000 F2500.000
G3 X128.690 Y496.714 Z-10.567 I-101.234 J-27.137 K0.000 F2500.000
G3 X110.165 Y519.444 Z-10.567 I-66.914 J-35.622 K0.000 F2500.000
G3 X90.999 Y531.409 Z-10.567 I-57.650 J-71.011 K0.000 F2500.000
G3 X74.536 Y537.651 Z-10.567 I-54.325 J-118.448 K0.000 F2500.000
G3 X49.751 Y543.137 Z-10.567 I-50.825 J-170.871 K0.000 F2500.000
G2 X48.415 Y544.703 Z-10.567 I0.249 J1.565 K0.000 F2500.000
G1 X48.415 Y606.252 Z-10.567 F2500.000
G2 X50.196 Y607.825 Z-10.567 I1.585 J-0.000 K0.000 F2500.000
G2 X80.359 Y602.509 Z-10.567 I-29.975 J-258.319 K0.000 F2500.000
G2 X113.736 Y591.517 Z-10.567 I-44.604 J-191.606 K0.000 F2500.000
G2 X140.809 Y576.605 Z-10.567 I-61.605 J-143.875 K0.000 F2500.000
G2 X171.900 Y547.499 Z-10.567 I-78.781 J-115.312 K0.000 F2500.000
G1 X171.900 Y547.499 Z-12.680 F1000.000
G2 X179.614 Y536.638 Z-12.680 I-109.872 J-86.206 K0.000 F2500.000
G2 X198.739 Y494.178 Z-12.680 I-141.236 J-89.154 K0.000 F2500.000
G2 X204.454 Y455.890 Z-12.680 I-133.929 J-39.561 K0.000 F2500.000
G2 X202.104 Y428.912 Z-12.680 I-148.710 J-0.636 K0.000 F2500.000
G2 X192.870 Y393.751 Z-12.680 I-254.281 J47.982 K0.000 F2500.000
G2 X187.899 Y379.618 Z-12.680 I-4760.341 J1666.291 K0.000 F2500.000
G3 X184.477 Y369.156 Z-12.680 I147.820 J-54.150 K0.000 F2500.000
G3 X182.554 Y360.817 Z-12.680 I60.683 J-18.383 K0.000 F2500.000
G3 X184.946 Y356.418 Z-12.680 I83.417 J42.515 K0.000 F2500.000
G3 X193.954 Y341.626 Z-12.680 I1002.211 J600.169 K0.000 F2500.000
G2 X209.389 Y315.905 Z-12.680 I-698.986 J-436.954 K0.000 F2500.000
G2 X224.213 Y288.140 Z-12.680 I-388.246 J-225.121 K0.000 F2500.000
G2 X235.413 Y262.400 Z-12.680 I-251.984 J-124.953 K0.000 F2500.000
G2 X242.744 Y239.215 Z-12.680 I-197.037 J-75.055 K0.000 F2500.000
G2 X248.278 Y176.812 Z-12.680 I-188.095 J-48.128 K0.000 F2500.000
G2 X237.515 Y124.211 Z-12.680 I-204.542 J14.453 K0.000 F2500.000
G2 X224.236 Y94.578 Z-12.680 I-167.063 J57.071 K0.000 F2500.000
G2 X183.128 Y46.326 Z-12.680 I-143.650 J80.743 K0.000 F2500.000
G2 X151.358 Y26.167 Z-12.680 I-115.010 J146.144 K0.000 F2500.000
G2 X113.951 Y11.703 Z-12.680 I-97.727 J197.131 K0.000 F2500.000
G2 X78.188 Y4.026 Z-12.680 I-80.591 J288.315 K0.000 F2500.000
G2 X43.878 Y0.221 Z-12.680 I-70.138 J475.846 K0.000 F2500.000
G2 X0.501 Y-1.583 Z-12.680 I-53.226 J757.337 K0.000 F2500.000
G2 X0.243 Y-1.585 Z-12.680 I-0.424 J46.853 K0.000 F2500.000
G2 X-1.585 Y0.000 Z-12.680 I-0.208 J1.606 K0.000 F2500.000
G1 X-1.585 Y61.000 Z-12.680 F2500.000
G2 X-0.027 Y62.585 Z-12.680 I1.585 J0.000 K0.000 F2500.000
G3 X31.106 Y63.698 Z-12.680 I-8.297 J667.659 K0.000 F2500.000
G3 X63.448 Y66.747 Z-12.680 I-21.363 J399.760 K0.000 F2500.000
G3 X88.142 Y71.276 Z-12.680 I-31.033 J238.757 K0.000 F2500.000
G3 X111.045 Y78.393 Z-12.680 I-37.255 J160.298 K0.000 F2500.000
G3 X132.515 Y89.080 Z-12.680 I-47.770 J122.882 K0.000 F2500.000
G3 X153.251 Y105.731 Z-12.680 I-54.034 J88.528 K0.000 F2500.000
G3 X170.525 Y130.146 Z-12.680 I-74.699 J71.170 K0.000 F2500.000
G3 X177.310 Y146.502 Z-12.680 I-106.506 J53.765 K0.000 F2500.000
G3 X184.607 Y188.874 Z-12.680 I-133.847 J44.864 K0.000 F2500.000
G3 X180.238 Y224.648 Z-12.680 I-129.718 J2.310 K0.000 F2500.000
G3 X172.845 Y246.177 Z-12.680 I-167.908 J-45.619 K0.000 F2500.000
G3 X159.839 Y273.040 Z-12.680 I-288.989 J-123.341 K0.000 F2500.000
G3 X140.035 Y306.821 Z-12.680 I-604.610 J-331.757 K0.000 F2500.000
G2 X130.049 Y323.180 Z-12.680 I610.348 J383.768 K0.000 F2500.000
G2 X126.103 Y330.252 Z-12.680 I118.398 J70.707 K0.000 F2500.000
G2 X122.046 Y338.938 Z-12.680 I80.187 J42.745 K0.000 F2500.000
G2 X118.217 Y356.826 Z-12.680 I49.515 J19.954 K0.000 F2500.000
G2 X119.158 Y370.885 Z-12.680 I77.109 J1.901 K0.000 F2500.000
G2 X123.471 Y389.172 Z-12.680 I143.318 J-24.154 K0.000 F2500.000
G2 X129.455 Y406.826 Z-12.680 I359.715 J-112.075 K0.000 F2500.000
G3 X133.754 Y419.540 Z-12.680 I-242.489 J89.089 K0.000 F2500.000
G3 X138.670 Y438.936 Z-12.680 I-165.602 J52.291 K0.000 F2500.000
G3 X140.186 Y450.695 Z-12.680 I-78.654 J16.118 K0.000 F2500.000
G3 X137.786 Y473.897 Z-12.680 I-75.784 J3.887 K0.000 F2500.000
G3 X128.690 Y496.714 Z-12.680 I-101.234 J-27.137 K0.000 F2500.000
G3 X110.165 Y519.444 Z-12.680 I-66.914 J-35.622 K0.000 F2500.000
G3 X90.999 Y531.409 Z-12.680 I-57.650 J-71.011 K0.000 F2500.000
G3 X74.536 Y537.651 Z-12.680 I-54.325 J-118.448 K0.000 F2500.000
G3 X49.751 Y543.137 Z-12.680 I-50.825 J-170.871 K0.000 F2500.000
G2 X48.415 Y544.703 Z-12.680 I0.249 J1.565 K0.000 F2500.000
G1 X48.415 Y606.252 Z-12.680 F2500.000
G2 X50.196 Y607.825 Z-12.680 I1.585 J-0.000 K0.000 F2500.000
G2 X80.359 Y602.509 Z-12.680 I-29.975 J-258.319 K0.000 F2500.000
G2 X113.736 Y591.517 Z-12.680 I-44.604 J-191.606 K0.000 F2500.000
G2 X140.809 Y576.605 Z-12.680 I-61.605 J-143.875 K0.000 F2500.000
G2 X171.900 Y547.499 Z-12.680 I-78.781 J-115.312 K0.000 F2500.000
G1 X171.900 Y547.499 Z-14.793 F1000.000
G2 X179.614 Y536.638 Z-14.793 I-109.872 J-86.206 K0.000 F2500.000
G2 X198.739 Y494.178 Z-14.793 I-141.236 J-89.154 K0.000 F2500.000
G2 X204.454 Y455.890 Z-14.793 I-133.929 J-39.561 K0.000 F2500.000
G2 X202.104 Y428.912 Z-14.793 I-148.710 J-0.636 K0.000 F2500.000
G2 X192.870 Y393.751 Z-14.793 I-254.281 J47.982 K0.000 F2500.000
G2 X187.899 Y379.618 Z-14.793 I-4760.341 J1666.291 K0.000 F2500.000
G3 X184.477 Y369.156 Z-14.793 I147.820 J-54.150 K0.000 F2500.000
G3 X182.554 Y360.817 Z-14.793 I60.683 J-18.383 K0.000 F2500.000
G3 X184.946 Y356.418 Z-14.793 I83.417 J42.515 K0.000 F2500.000
G3 X193.954 Y341.626 Z-14.793 I1002.211 J600.169 K0.000 F2500.000
G2 X209.389 Y315.905 Z-14.793 I-698.986 J-436.954 K0.000 F2500.000
G2 X224.213 Y288.140 Z-14.793 I-388.246 J-225.121 K0.000 F2500.000
G2 X235.413 Y262.400 Z-14.793 I-251.984 J-124.953 K0.000 F2500.000
G2 X242.744 Y239.215 Z-14.793 I-197.037 J-75.055 K0.000 F2500.000
G2 X248.278 Y176.812 Z-14.793 I-188.095 J-48.128 K0.000 F2500.000
G2 X237.515 Y124.211 Z-14.793 I-204.542 J14.453 K0.000 F2500.000
G2 X224.236 Y94.578 Z-14.793 I-167.063 J57.071 K0.000 F2500.000
G2 X183.128 Y46.326 Z-14.793 I-143.650 J80.743 K0.000 F2500.000
G2 X151.358 Y26.167 Z-14.793 I-115.010 J146.144 K0.000 F2500.000
G2 X113.951 Y11.703 Z-14.793 I-97.727 J197.131 K0.000 F2500.000
G2 X78.188 Y4.026 Z-14.793 I-80.591 J288.315 K0.000 F2500.000
G2 X43.878 Y0.221 Z-14.793 I-70.138 J475.846 K0.000 F2500.000
G2 X0.501 Y-1.583 Z-14.793 I-53.226 J757.337 K0.000 F2500.000
G2 X0.243 Y-1.585 Z-14.793 I-0.424 J46.853 K0.000 F2500.000
G2 X-1.585 Y0.000 Z-14.793 I-0.208 J1.606 K0.000 F2500.000
G1 X-1.585 Y61.000 Z-14.793 F2500.000
G2 X-0.027 Y62.585 Z-14.793 I1.585 J0.000 K0.000 F2500.000
G3 X31.106 Y63.698 Z-14.793 I-8.297 J667.659 K0.000 F2500.000
G3 X63.448 Y66.747 Z-14.793 I-21.363 J399.760 K0.000 F2500.000
G3 X88.142 Y71.276 Z-14.793 I-31.033 J238.757 K0.000 F2500.000
G3 X111.045 Y78.393 Z-14.793 I-37.255 J160.298 K0.000 F2500.000
G3 X132.515 Y89.080 Z-14.793 I-47.770 J122.882 K0.000 F2500.000
G3 X153.251 Y105.731 Z-14.793 I-54.034 J88.528 K0.000 F2500.000
G3 X170.525 Y130.146 Z-14.793 I-74.699 J71.170 K0.000 F2500.000
G3 X177.310 Y146.502 Z-14.793 I-106.506 J53.765 K0.000 F2500.000
G3 X184.607 Y188.874 Z-14.793 I-133.847 J44.864 K0.000 F2500.000
G3 X180.238 Y224.648 Z-14.793 I-129.718 J2.310 K0.000 F2500.000
G3 X172.845 Y246.177 Z-14.793 I-167.908 J-45.619 K0.000 F2500.000
G3 X159.839 Y273.040 Z-14.793 I-288.989 J-123.341 K0.000 F2500.000
G3 X140.035 Y306.821 Z-14.793 I-604.610 J-331.757 K0.000 F2500.000
G2 X130.049 Y323.180 Z-14.793 I610.348 J383.768 K0.000 F2500.000
G2 X126.103 Y330.252 Z-14.793 I118.398 J70.707 K0.000 F2500.000
G2 X122.046 Y338.938 Z-14.793 I80.187 J42.745 K0.000 F2500.000
G2 X118.217 Y356.826 Z-14.793 I49.515 J19.954 K0.000 F2500.000
G2 X119.158 Y370.885 Z-14.793 I77.109 J1.901 K0.000 F2500.000
G2 X123.471 Y389.172 Z-14.793 I143.318 J-24.154 K0.000 F2500.000
G2 X129.455 Y406.826 Z-14.793 I359.715 J-112.075 K0.000 F2500.000
G3 X133.754 Y419.540 Z-14.793 I-242.489 J89.089 K0.000 F2500.000
G3 X138.670 Y438.936 Z-14.793 I-165.602 J52.291 K0.000 F2500.000
G3 X140.186 Y450.695 Z-14.793 I-78.654 J16.118 K0.000 F2500.000
G3 X137.786 Y473.897 Z-14.793 I-75.784 J3.887 K0.000 F2500.000
G3 X128.690 Y496.714 Z-14.793 I-101.234 J-27.137 K0.000 F2500.000
G3 X110.165 Y519.444 Z-14.793 I-66.914 J-35.622 K0.000 F2500.000
G3 X90.999 Y531.409 Z-14.793 I-57.650 J-71.011 K0.000 F2500.000
G3 X74.536 Y537.651 Z-14.793 I-54.325 J-118.448 K0.000 F2500.000
G3 X49.751 Y543.137 Z-14.793 I-50.825 J-170.871 K0.000 F2500.000
G2 X48.415 Y544.703 Z-14.793 I0.249 J1.565 K0.000 F2500.000
G1 X48.415 Y606.252 Z-14.793 F2500.000
G2 X50.196 Y607.825 Z-14.793 I1.585 J-0.000 K0.000 F2500.000
G2 X80.359 Y602.509 Z-14.793 I-29.975 J-258.319 K0.000 F2500.000
G2 X113.736 Y591.517 Z-14.793 I-44.604 J-191.606 K0.000 F2500.000
G2 X140.809 Y576.605 Z-14.793 I-61.605 J-143.875 K0.000 F2500.000
G2 X171.900 Y547.499 Z-14.793 I-78.781 J-115.312 K0.000 F2500.000
G1 X171.900 Y547.499 Z-16.907 F1000.000
G2 X179.614 Y536.638 Z-16.907 I-109.872 J-86.206 K0.000 F2500.000
G2 X198.739 Y494.178 Z-16.907 I-141.236 J-89.154 K0.000 F2500.000
G2 X204.454 Y455.890 Z-16.907 I-133.929 J-39.561 K0.000 F2500.000
G2 X202.104 Y428.912 Z-16.907 I-148.710 J-0.636 K0.000 F2500.000
G2 X192.870 Y393.751 Z-16.907 I-254.281 J47.982 K0.000 F2500.000
G2 X187.899 Y379.618 Z-16.907 I-4760.341 J1666.291 K0.000 F2500.000
G3 X184.477 Y369.156 Z-16.907 I147.820 J-54.150 K0.000 F2500.000
G3 X182.554 Y360.817 Z-16.907 I60.683 J-18.383 K0.000 F2500.000
G3 X184.946 Y356.418 Z-16.907 I83.417 J42.515 K0.000 F2500.000
G3 X193.954 Y341.626 Z-16.907 I1002.211 J600.169 K0.000 F2500.000
G2 X209.389 Y315.905 Z-16.907 I-698.986 J-436.954 K0.000 F2500.000
G2 X224.213 Y288.140 Z-16.907 I-388.246 J-225.121 K0.000 F2500.000
G2 X235.413 Y262.400 Z-16.907 I-251.984 J-124.953 K0.000 F2500.000
G2 X242.744 Y239.215 Z-16.907 I-197.037 J-75.055 K0.000 F2500.000
G2 X248.278 Y176.812 Z-16.907 I-188.095 J-48.128 K0.000 F2500.000
G2 X237.515 Y124.211 Z-16.907 I-204.542 J14.453 K0.000 F2500.000
G2 X224.236 Y94.578 Z-16.907 I-167.063 J57.071 K0.000 F2500.000
G2 X183.128 Y46.326 Z-16.907 I-143.650 J80.743 K0.000 F2500.000
G2 X151.358 Y26.167 Z-16.907 I-115.010 J146.144 K0.000 F2500.000
G2 X113.951 Y11.703 Z-16.907 I-97.727 J197.131 K0.000 F2500.000
G2 X78.188 Y4.026 Z-16.907 I-80.591 J288.315 K0.000 F2500.000
G2 X43.878 Y0.221 Z-16.907 I-70.138 J475.846 K0.000 F2500.000
G2 X0.501 Y-1.583 Z-16.907 I-53.226 J757.337 K0.000 F2500.000
G2 X0.243 Y-1.585 Z-16.907 I-0.424 J46.853 K0.000 F2500.000
G2 X-1.585 Y0.000 Z-16.907 I-0.208 J1.606 K0.000 F2500.000
G1 X-1.585 Y61.000 Z-16.907 F2500.000
G2 X-0.027 Y62.585 Z-16.907 I1.585 J0.000 K0.000 F2500.000
G3 X31.106 Y63.698 Z-16.907 I-8.297 J667.659 K0.000 F2500.000
G3 X63.448 Y66.747 Z-16.907 I-21.363 J399.760 K0.000 F2500.000
G3 X88.142 Y71.276 Z-16.907 I-31.033 J238.757 K0.000 F2500.000
G3 X111.045 Y78.393 Z-16.907 I-37.255 J160.298 K0.000 F2500.000
G3 X132.515 Y89.080 Z-16.907 I-47.770 J122.882 K0.000 F2500.000
G3 X153.251 Y105.731 Z-16.907 I-54.034 J88.528 K0.000 F2500.000
G3 X170.525 Y130.146 Z-16.907 I-74.699 J71.170 K0.000 F2500.000
G3 X177.310 Y146.502 Z-16.907 I-106.506 J53.765 K0.000 F2500.000
G3 X184.607 Y188.874 Z-16.907 I-133.847 J44.864 K0.000 F2500.000
G3 X180.238 Y224.648 Z-16.907 I-129.718 J2.310 K0.000 F2500.000
G3 X172.845 Y246.177 Z-16.907 I-167.908 J-45.619 K0.000 F2500.000
G3 X159.839 Y273.040 Z-16.907 I-288.989 J-123.341 K0.000 F2500.000
G3 X140.035 Y306.821 Z-16.907 I-604.610 J-331.757 K0.000 F2500.000
G2 X130.049 Y323.180 Z-16.907 I610.348 J383.768 K0.000 F2500.000
G2 X126.103 Y330.252 Z-16.907 I118.398 J70.707 K0.000 F2500.000
G2 X122.046 Y338.938 Z-16.907 I80.187 J42.745 K0.000 F2500.000
G2 X118.217 Y356.826 Z-16.907 I49.515 J19.954 K0.000 F2500.000
G2 X119.158 Y370.885 Z-16.907 I77.109 J1.901 K0.000 F2500.000
G2 X123.471 Y389.172 Z-16.907 I143.318 J-24.154 K0.000 F2500.000
G2 X129.455 Y406.826 Z-16.907 I359.715 J-112.075 K0.000 F2500.000
G3 X133.754 Y419.540 Z-16.907 I-242.489 J89.089 K0.000 F2500.000
G3 X138.670 Y438.936 Z-16.907 I-165.602 J52.291 K0.000 F2500.000
G3 X140.186 Y450.695 Z-16.907 I-78.654 J16.118 K0.000 F2500.000
G3 X137.786 Y473.897 Z-16.907 I-75.784 J3.887 K0.000 F2500.000
G3 X128.690 Y496.714 Z-16.907 I-101.234 J-27.137 K0.000 F2500.000
G3 X110.165 Y519.444 Z-16.907 I-66.914 J-35.622 K0.000 F2500.000
G3 X90.999 Y531.409 Z-16.907 I-57.650 J-71.011 K0.000 F2500.000
G3 X74.536 Y537.651 Z-16.907 I-54.325 J-118.448 K0.000 F2500.000
G3 X49.751 Y543.137 Z-16.907 I-50.825 J-170.871 K0.000 F2500.000
G2 X48.415 Y544.703 Z-16.907 I0.249 J1.565 K0.000 F2500.000
G1 X48.415 Y606.252 Z-16.907 F2500.000
G2 X50.196 Y607.825 Z-16.907 I1.585 J-0.000 K0.000 F2500.000
G2 X80.359 Y602.509 Z-16.907 I-29.975 J-258.319 K0.000 F2500.000
G2 X113.736 Y591.517 Z-16.907 I-44.604 J-191.606 K0.000 F2500.000
G2 X140.809 Y576.605 Z-16.907 I-61.605 J-143.875 K0.000 F2500.000
G2 X171.900 Y547.499 Z-16.907 I-78.781 J-115.312 K0.000 F2500.000
G1 X171.900 Y547.499 Z-18.000 F1000.000
G2 X179.614 Y536.638 Z-18.000 I-109.872 J-86.206 K0.000 F2500.000
G2 X198.739 Y494.178 Z-18.000 I-141.236 J-89.154 K0.000 F2500.000
G2 X204.454 Y455.890 Z-18.000 I-133.929 J-39.561 K0.000 F2500.000
G2 X202.104 Y428.912 Z-18.000 I-148.710 J-0.636 K0.000 F2500.000
G2 X192.870 Y393.751 Z-18.000 I-254.281 J47.982 K0.000 F2500.000
G2 X187.899 Y379.618 Z-18.000 I-4760.341 J1666.291 K0.000 F2500.000
G3 X184.477 Y369.156 Z-18.000 I147.820 J-54.150 K0.000 F2500.000
G3 X182.554 Y360.817 Z-18.000 I60.683 J-18.383 K0.000 F2500.000
G3 X184.946 Y356.418 Z-18.000 I83.417 J42.515 K0.000 F2500.000
G3 X193.954 Y341.626 Z-18.000 I1002.211 J600.169 K0.000 F2500.000
G2 X209.389 Y315.905 Z-18.000 I-698.986 J-436.954 K0.000 F2500.000
G2 X224.213 Y288.140 Z-18.000 I-388.246 J-225.121 K0.000 F2500.000
G2 X235.413 Y262.400 Z-18.000 I-251.984 J-124.953 K0.000 F2500.000
G2 X242.744 Y239.215 Z-18.000 I-197.037 J-75.055 K0.000 F2500.000
G2 X248.278 Y176.812 Z-18.000 I-188.095 J-48.128 K0.000 F2500.000
G2 X237.515 Y124.211 Z-18.000 I-204.542 J14.453 K0.000 F2500.000
G2 X224.236 Y94.578 Z-18.000 I-167.063 J57.071 K0.000 F2500.000
G2 X183.128 Y46.326 Z-18.000 I-143.650 J80.743 K0.000 F2500.000
G2 X151.358 Y26.167 Z-18.000 I-115.010 J146.144 K0.000 F2500.000
G2 X113.951 Y11.703 Z-18.000 I-97.727 J197.131 K0.000 F2500.000
G2 X78.188 Y4.026 Z-18.000 I-80.591 J288.315 K0.000 F2500.000
G2 X43.878 Y0.221 Z-18.000 I-70.138 J475.846 K0.000 F2500.000
G2 X0.501 Y-1.583 Z-18.000 I-53.226 J757.337 K0.000 F2500.000
G2 X0.243 Y-1.585 Z-18.000 I-0.424 J46.853 K0.000 F2500.000
G2 X-1.585 Y0.000 Z-18.000 I-0.208 J1.606 K0.000 F2500.000
G1 X-1.585 Y61.000 Z-18.000 F2500.000
G2 X-0.027 Y62.585 Z-18.000 I1.585 J0.000 K0.000 F2500.000
G3 X31.106 Y63.698 Z-18.000 I-8.297 J667.659 K0.000 F2500.000
G3 X63.448 Y66.747 Z-18.000 I-21.363 J399.760 K0.000 F2500.000
G3 X88.142 Y71.276 Z-18.000 I-31.033 J238.757 K0.000 F2500.000
G3 X111.045 Y78.393 Z-18.000 I-37.255 J160.298 K0.000 F2500.000
G3 X132.515 Y89.080 Z-18.000 I-47.770 J122.882 K0.000 F2500.000
G3 X153.251 Y105.731 Z-18.000 I-54.034 J88.528 K0.000 F2500.000
G3 X170.525 Y130.146 Z-18.000 I-74.699 J71.170 K0.000 F2500.000
G3 X177.310 Y146.502 Z-18.000 I-106.506 J53.765 K0.000 F2500.000
G3 X184.607 Y188.874 Z-18.000 I-133.847 J44.864 K0.000 F2500.000
G3 X180.238 Y224.648 Z-18.000 I-129.718 J2.310 K0.000 F2500.000
G3 X172.845 Y246.177 Z-18.000 I-167.908 J-45.619 K0.000 F2500.000
G3 X159.839 Y273.040 Z-18.000 I-288.989 J-123.341 K0.000 F2500.000
G3 X140.035 Y306.821 Z-18.000 I-604.610 J-331.757 K0.000 F2500.000
G2 X130.049 Y323.180 Z-18.000 I610.348 J383.768 K0.000 F2500.000
G2 X126.103 Y330.252 Z-18.000 I118.398 J70.707 K0.000 F2500.000
G2 X122.046 Y338.938 Z-18.000 I80.187 J42.745 K0.000 F2500.000
G2 X118.217 Y356.826 Z-18.000 I49.515 J19.954 K0.000 F2500.000
G2 X119.158 Y370.885 Z-18.000 I77.109 J1.901 K0.000 F2500.000
G2 X123.471 Y389.172 Z-18.000 I143.318 J-24.154 K0.000 F2500.000
G2 X129.455 Y406.826 Z-18.000 I359.715 J-112.075 K0.000 F2500.000
G3 X133.754 Y419.540 Z-18.000 I-242.489 J89.089 K0.000 F2500.000
G3 X138.670 Y438.936 Z-18.000 I-165.602 J52.291 K0.000 F2500.000
G3 X140.186 Y450.695 Z-18.000 I-78.654 J16.118 K0.000 F2500.000
G3 X137.786 Y473.897 Z-18.000 I-75.784 J3.887 K0.000 F2500.000
G3 X128.690 Y496.714 Z-18.000 I-101.234 J-27.137 K0.000 F2500.000
G3 X110.165 Y519.444 Z-18.000 I-66.914 J-35.622 K0.000 F2500.000
G3 X90.999 Y531.409 Z-18.000 I-57.650 J-71.011 K0.000 F2500.000
G3 X74.536 Y537.651 Z-18.000 I-54.325 J-118.448 K0.000 F2500.000
G3 X49.751 Y543.137 Z-18.000 I-50.825 J-170.871 K0.000 F2500.000
G2 X48.415 Y544.703 Z-18.000 I0.249 J1.565 K0.000 F2500.000
G1 X48.415 Y606.252 Z-18.000 F2500.000
G2 X50.196 Y607.825 Z-18.000 I1.585 J-0.000 K0.000 F2500.000
G2 X80.359 Y602.509 Z-18.000 I-29.975 J-258.319 K0.000 F2500.000
G2 X113.736 Y591.517 Z-18.000 I-44.604 J-191.606 K0.000 F2500.000
G2 X140.809 Y576.605 Z-18.000 I-61.605 J-143.875 K0.000 F2500.000
G2 X171.900 Y547.499 Z-18.000 I-78.781 J-115.312 K0.000 F2500.000
G0 Z5.000
G0 Z5.000
(Finish operation: Profile001)
(Begin postamble)
M5
G17 G90
M2
