(Exported by FreeCAD)
(Post Processor: grbl_post)
(Output Time:2024-03-11 21:22:32.969722)
(Begin preamble)
G17 G90
G21
(Begin operation: TC: 6 Ball Q6)
(Path: TC: 6 Ball Q6)
(TC: 6 Ball Q6)
(Begin toolchange)
( M6 T9 )
M3 S24000
(Finish operation: TC: 6 Ball Q6)
(Begin operation: Fixture)
(Path: Fixture)
G54
(Finish operation: Fixture)
(Begin operation: Surface)
(Path: Surface)
(Surface)
(Surface)
(Tool type: ballend)
(Compensated Tool Path. Diameter: 6.0)
(Sample interval: 1.0)
(Step over %: 10.0)
()
G0 Z5.000
(Beginning of Single-pass layer.)
G0 X0.060 Y206.997
(Begin step 0.)
(part 1.)
G1 X0.060 Y206.997 Z-20.520 F2500.000
G1 X-0.059 Y206.917 Z-20.520 F2500.000
G1 X-0.017 Y204.118 Z-20.494 F2500.000
G1 X0.001 Y203.022 Z-20.488 F2500.000
G1 X0.022 Y204.422 Z-20.496 F2500.000
G1 X0.060 Y206.997 Z-20.520 F2500.000
(Break)
G1 X0.562 Y200.438 Z-20.457 F2500.000
(part 3.)
G1 X0.562 Y200.438 Z-20.457 F2500.000
G1 X0.574 Y201.238 Z-20.463 F2500.000
G1 X0.625 Y204.637 Z-20.496 F2500.000
G1 X0.667 Y207.437 Z-20.517 F2500.000
G1 X0.629 Y207.597 Z-20.519 F2500.000
G1 X0.029 Y207.597 Z-20.526 F2500.000
G1 X-0.571 Y207.597 Z-20.520 F2500.000
G1 X-0.668 Y207.496 Z-20.518 F2500.000
G1 X-0.617 Y204.096 Z-20.492 F2500.000
G1 X-0.605 Y203.296 Z-20.482 F2500.000
G1 X-0.578 Y201.496 Z-20.470 F2500.000
G1 X-0.548 Y199.497 Z-20.449 F2500.000
G1 X-0.476 Y194.597 Z-20.414 F2500.000
G1 X-0.252 Y179.499 Z-20.288 F2500.000
G1 X-0.149 Y172.500 Z-20.234 F2500.000
G1 X-0.001 Y162.501 Z-20.148 F2500.000
G1 X0.014 Y163.389 Z-20.158 F2500.000
G1 X0.146 Y172.288 Z-20.229 F2500.000
G1 X0.246 Y179.088 Z-20.288 F2500.000
G1 X0.372 Y187.587 Z-20.357 F2500.000
G1 X0.381 Y188.187 Z-20.359 F2500.000
G1 X0.396 Y189.187 Z-20.371 F2500.000
G1 X0.419 Y190.786 Z-20.381 F2500.000
G1 X0.428 Y191.386 Z-20.389 F2500.000
G1 X0.443 Y192.386 Z-20.393 F2500.000
G1 X0.493 Y195.786 Z-20.424 F2500.000
G1 X0.513 Y197.086 Z-20.431 F2500.000
G1 X0.562 Y200.438 Z-20.457 F2500.000
(Break)
G1 X1.162 Y200.429 Z-20.446 F2500.000
(part 5.)
G1 X1.162 Y200.429 Z-20.446 F2500.000
G1 X1.174 Y201.229 Z-20.453 F2500.000
G1 X1.210 Y203.628 Z-20.475 F2500.000
G1 X1.276 Y208.028 Z-20.507 F2500.000
G1 X1.247 Y208.197 Z-20.509 F2500.000
G1 X0.447 Y208.197 Z-20.526 F2500.000
G1 X-0.353 Y208.197 Z-20.527 F2500.000
G1 X-1.153 Y208.197 Z-20.513 F2500.000
G1 X-1.277 Y208.123 Z-20.508 F2500.000
G1 X-1.224 Y204.590 Z-20.479 F2500.000
G1 X-1.194 Y202.590 Z-20.467 F2500.000
G1 X-1.161 Y200.324 Z-20.446 F2500.000
G1 X-1.081 Y194.924 Z-20.405 F2500.000
G1 X-1.036 Y191.925 Z-20.378 F2500.000
G1 X-0.965 Y187.125 Z-20.343 F2500.000
G1 X-0.942 Y185.525 Z-20.328 F2500.000
G1 X-0.915 Y183.726 Z-20.317 F2500.000
G1 X-0.635 Y164.828 Z-20.165 F2500.000
G1 X-0.533 Y157.928 Z-20.108 F2500.000
G1 X-0.518 Y156.928 Z-20.097 F2500.000
G1 X-0.504 Y155.929 Z-20.092 F2500.000
G1 X-0.478 Y154.229 Z-20.075 F2500.000
G1 X-0.338 Y144.730 Z-20.002 F2500.000
G1 X-0.000 Y121.932 Z-19.813 F2500.000
G1 X0.636 Y164.863 Z-20.165 F2500.000
G1 X0.658 Y166.330 Z-20.172 F2500.000
G1 X0.668 Y167.063 Z-20.181 F2500.000
G1 X0.810 Y176.662 Z-20.260 F2500.000
G1 X1.162 Y200.429 Z-20.446 F2500.000
(Break)
G0 Z3.000
G0 X0.573 Y120.047
G0 Z-14.792
(part 7.)
G1 X0.573 Y120.047 Z-19.792 F2500.000
G1 X0.584 Y120.847 Z-19.798 F2500.000
G1 X0.966 Y146.644 Z-20.006 F2500.000
G1 X0.993 Y148.444 Z-20.017 F2500.000
G1 X1.017 Y150.044 Z-20.033 F2500.000
G1 X1.153 Y159.243 Z-20.101 F2500.000
G1 X1.250 Y165.842 Z-20.158 F2500.000
G1 X1.268 Y167.042 Z-20.164 F2500.000
G1 X1.663 Y193.739 Z-20.376 F2500.000
G1 X1.740 Y198.939 Z-20.413 F2500.000
G1 X1.816 Y204.038 Z-20.457 F2500.000
G1 X1.885 Y208.637 Z-20.491 F2500.000
G1 X1.847 Y208.797 Z-20.494 F2500.000
G1 X0.947 Y208.797 Z-20.525 F2500.000
G1 X0.047 Y208.797 Z-20.535 F2500.000
G1 X-0.853 Y208.797 Z-20.526 F2500.000
G1 X-1.753 Y208.797 Z-20.498 F2500.000
G1 X-1.886 Y208.731 Z-20.492 F2500.000
G1 X-1.812 Y203.732 Z-20.454 F2500.000
G1 X-1.773 Y201.132 Z-20.430 F2500.000
G1 X-1.580 Y188.134 Z-20.333 F2500.000
G1 X-1.537 Y185.234 Z-20.305 F2500.000
G1 X-1.388 Y175.135 Z-20.231 F2500.000
G1 X-1.364 Y173.535 Z-20.215 F2500.000
G1 X-1.190 Y161.736 Z-20.125 F2500.000
G1 X-1.166 Y160.137 Z-20.109 F2500.000
G1 X-1.141 Y158.437 Z-20.099 F2500.000
G1 X-1.071 Y153.737 Z-20.062 F2500.000
G1 X-1.011 Y149.638 Z-20.025 F2500.000
G1 X-0.879 Y140.739 Z-19.959 F2500.000
G1 X-0.557 Y119.008 Z-19.782 F2500.000
G1 X-0.544 Y118.075 Z-19.777 F2500.000
G1 X-0.495 Y114.742 Z-19.746 F2500.000
G1 X-0.444 Y111.209 Z-19.721 F2500.000
G1 X-0.433 Y110.475 Z-19.712 F2500.000
G1 X-0.363 Y105.676 Z-19.676 F2500.000
G1 X-0.260 Y98.643 Z-19.615 F2500.000
G1 X-0.216 Y95.610 Z-19.593 F2500.000
G1 X0.001 Y80.889 Z-19.472 F2500.000
G1 X0.202 Y94.687 Z-19.586 F2500.000
G1 X0.226 Y96.287 Z-19.596 F2500.000
G1 X0.369 Y106.086 Z-19.680 F2500.000
G1 X0.439 Y110.886 Z-19.715 F2500.000
G1 X0.526 Y116.818 Z-19.767 F2500.000
G1 X0.547 Y118.285 Z-19.775 F2500.000
G1 X0.573 Y120.047 Z-19.792 F2500.000
(Break)
G0 Z3.000
G0 X0.219 Y54.730
G0 Z-14.253
(part 9.)
G1 X0.219 Y54.730 Z-19.253 F2500.000
G1 X0.233 Y55.680 Z-19.261 F2500.000
G1 X0.275 Y58.530 Z-19.281 F2500.000
G1 X0.352 Y63.796 Z-19.328 F2500.000
G1 X0.463 Y71.428 Z-19.386 F2500.000
G1 X0.476 Y72.328 Z-19.398 F2500.000
G1 X0.666 Y85.327 Z-19.499 F2500.000
G1 X0.689 Y86.927 Z-19.515 F2500.000
G1 X0.911 Y102.125 Z-19.636 F2500.000
G1 X0.999 Y108.125 Z-19.680 F2500.000
G1 X1.022 Y109.724 Z-19.695 F2500.000
G1 X1.245 Y124.923 Z-19.816 F2500.000
G1 X1.260 Y125.923 Z-19.820 F2500.000
G1 X1.357 Y132.522 Z-19.875 F2500.000
G1 X1.491 Y141.521 Z-19.943 F2500.000
G1 X1.532 Y144.321 Z-19.967 F2500.000
G1 X1.553 Y145.720 Z-19.974 F2500.000
G1 X1.884 Y168.118 Z-20.151 F2500.000
G1 X2.162 Y186.916 Z-20.292 F2500.000
G1 X2.174 Y187.716 Z-20.301 F2500.000
G1 X2.263 Y193.715 Z-20.342 F2500.000
G1 X2.322 Y197.715 Z-20.377 F2500.000
G1 X2.376 Y201.314 Z-20.402 F2500.000
G1 X2.495 Y209.313 Z-20.464 F2500.000
G1 X2.380 Y209.397 Z-20.470 F2500.000
G1 X1.420 Y209.397 Z-20.517 F2500.000
G1 X0.460 Y209.397 Z-20.533 F2500.000
G1 X-0.500 Y209.397 Z-20.533 F2500.000
G1 X-1.460 Y209.397 Z-20.515 F2500.000
G1 X-2.420 Y209.397 Z-20.469 F2500.000
G1 X-2.494 Y209.273 Z-20.464 F2500.000
G1 X-2.487 Y208.773 Z-20.462 F2500.000
G1 X-2.479 Y208.273 Z-20.454 F2500.000
G1 X-2.438 Y205.474 Z-20.436 F2500.000
G1 X-2.426 Y204.674 Z-20.426 F2500.000
G1 X-2.411 Y203.674 Z-20.422 F2500.000
G1 X-2.403 Y203.174 Z-20.416 F2500.000
G1 X-2.366 Y200.674 Z-20.400 F2500.000
G1 X-2.265 Y193.875 Z-20.345 F2500.000
G1 X-2.242 Y192.275 Z-20.336 F2500.000
G1 X-2.191 Y188.876 Z-20.306 F2500.000
G1 X-2.172 Y187.576 Z-20.300 F2500.000
G1 X-2.162 Y186.876 Z-20.292 F2500.000
G1 X-2.126 Y184.476 Z-20.277 F2500.000
G1 X-1.872 Y167.278 Z-20.145 F2500.000
G1 X-1.807 Y162.878 Z-20.110 F2500.000
G1 X-1.792 Y161.879 Z-20.099 F2500.000
G1 X-1.599 Y148.880 Z-20.003 F2500.000
G1 X-1.540 Y144.880 Z-19.969 F2500.000
G1 X-1.511 Y142.881 Z-19.956 F2500.000
G1 X-1.490 Y141.481 Z-19.942 F2500.000
G1 X-1.102 Y115.184 Z-19.740 F2500.000
G1 X-1.078 Y113.584 Z-19.722 F2500.000
G1 X-1.039 Y110.884 Z-19.705 F2500.000
G1 X-0.984 Y107.151 Z-19.672 F2500.000
G1 X-0.922 Y102.885 Z-19.643 F2500.000
G1 X-0.732 Y89.886 Z-19.535 F2500.000
G1 X-0.718 Y88.886 Z-19.530 F2500.000
G1 X-0.619 Y82.087 Z-19.473 F2500.000
G1 X-0.595 Y80.487 Z-19.463 F2500.000
G1 X-0.534 Y76.288 Z-19.425 F2500.000
G1 X-0.521 Y75.388 Z-19.422 F2500.000
G1 X-0.454 Y70.788 Z-19.381 F2500.000
G1 X-0.382 Y65.889 Z-19.345 F2500.000
G1 X-0.300 Y60.290 Z-19.296 F2500.000
G1 X-0.254 Y57.090 Z-19.273 F2500.000
G1 X-0.001 Y39.492 Z-19.128 F2500.000
G1 X0.219 Y54.730 Z-19.253 F2500.000
(Break)
G1 X0.819 Y54.721 Z-19.242 F2500.000
(part 11.)
G1 X0.819 Y54.721 Z-19.242 F2500.000
G1 X0.831 Y55.521 Z-19.249 F2500.000
G1 X0.854 Y57.121 Z-19.259 F2500.000
G1 X0.907 Y60.721 Z-19.291 F2500.000
G1 X1.085 Y72.919 Z-19.384 F2500.000
G1 X1.193 Y80.319 Z-19.445 F2500.000
G1 X1.260 Y84.918 Z-19.477 F2500.000
G1 X1.272 Y85.718 Z-19.487 F2500.000
G1 X1.371 Y92.517 Z-19.537 F2500.000
G1 X1.450 Y97.917 Z-19.582 F2500.000
G1 X1.540 Y104.116 Z-19.627 F2500.000
G1 X1.575 Y106.516 Z-19.648 F2500.000
G1 X1.727 Y116.915 Z-19.724 F2500.000
G1 X1.747 Y118.248 Z-19.738 F2500.000
G1 X1.774 Y120.114 Z-19.749 F2500.000
G1 X1.907 Y129.113 Z-19.821 F2500.000
G1 X2.105 Y142.512 Z-19.922 F2500.000
G1 X2.122 Y143.612 Z-19.927 F2500.000
G1 X2.159 Y146.112 Z-19.950 F2500.000
G1 X2.244 Y151.911 Z-19.994 F2500.000
G1 X2.256 Y152.711 Z-19.996 F2500.000
G1 X2.339 Y158.310 Z-20.042 F2500.000
G1 X2.406 Y162.810 Z-20.071 F2500.000
G1 X2.419 Y163.710 Z-20.082 F2500.000
G1 X2.435 Y164.810 Z-20.087 F2500.000
G1 X2.573 Y174.109 Z-20.161 F2500.000
G1 X2.730 Y184.707 Z-20.241 F2500.000
G1 X2.789 Y188.707 Z-20.268 F2500.000
G1 X2.836 Y191.907 Z-20.295 F2500.000
G1 X2.961 Y200.306 Z-20.354 F2500.000
G1 X3.035 Y205.305 Z-20.395 F2500.000
G1 X3.080 Y208.305 Z-20.413 F2500.000
G1 X3.104 Y209.905 Z-20.428 F2500.000
G1 X2.998 Y209.997 Z-20.437 F2500.000
G1 X2.141 Y209.997 Z-20.486 F2500.000
G1 X1.284 Y209.997 Z-20.526 F2500.000
G1 X0.426 Y209.997 Z-20.539 F2500.000
G1 X-0.431 Y209.997 Z-20.539 F2500.000
G1 X-1.288 Y209.997 Z-20.526 F2500.000
G1 X-2.145 Y209.997 Z-20.486 F2500.000
G1 X-3.002 Y209.997 Z-20.437 F2500.000
G1 X-3.104 Y209.900 Z-20.428 F2500.000
G1 X-3.080 Y208.300 Z-20.414 F2500.000
G1 X-3.056 Y206.701 Z-20.405 F2500.000
G1 X-2.961 Y200.301 Z-20.356 F2500.000
G1 X-2.953 Y199.801 Z-20.354 F2500.000
G1 X-2.913 Y197.102 Z-20.329 F2500.000
G1 X-2.904 Y196.502 Z-20.327 F2500.000
G1 X-2.810 Y190.102 Z-20.282 F2500.000
G1 X-2.758 Y186.603 Z-20.252 F2500.000
G1 X-2.525 Y170.905 Z-20.138 F2500.000
G1 X-2.490 Y168.505 Z-20.117 F2500.000
G1 X-2.318 Y156.906 Z-20.031 F2500.000
G1 X-2.309 Y156.306 Z-20.023 F2500.000
G1 X-2.209 Y149.507 Z-19.976 F2500.000
G1 X-2.179 Y147.507 Z-19.956 F2500.000
G1 X-2.120 Y143.508 Z-19.931 F2500.000
G1 X-1.750 Y118.510 Z-19.740 F2500.000
G1 X-1.704 Y115.311 Z-19.713 F2500.000
G1 X-1.624 Y109.844 Z-19.674 F2500.000
G1 X-1.531 Y103.512 Z-19.622 F2500.000
G1 X-1.438 Y97.113 Z-19.575 F2500.000
G1 X-1.385 Y93.513 Z-19.544 F2500.000
G1 X-1.196 Y80.514 Z-19.447 F2500.000
G1 X-0.910 Y60.916 Z-19.293 F2500.000
G1 X-0.469 Y30.320 Z-19.046 F2500.000
G1 X-0.384 Y30.203 Z-19.046 F2500.000
G1 X0.416 Y30.203 Z-19.046 F2500.000
G1 X0.470 Y30.351 Z-19.046 F2500.000
G1 X0.819 Y54.721 Z-19.242 F2500.000
(Break)
G1 X1.419 Y54.713 Z-19.220 F2500.000
(part 13.)
G1 X1.419 Y54.713 Z-19.220 F2500.000
G1 X1.429 Y55.379 Z-19.226 F2500.000
G1 X1.480 Y58.912 Z-19.253 F2500.000
G1 X1.493 Y59.779 Z-19.257 F2500.000
G1 X1.592 Y66.578 Z-19.312 F2500.000
G1 X1.626 Y68.911 Z-19.327 F2500.000
G1 X1.676 Y72.311 Z-19.356 F2500.000
G1 X1.825 Y82.510 Z-19.431 F2500.000
G1 X1.910 Y88.309 Z-19.478 F2500.000
G1 X1.929 Y89.609 Z-19.484 F2500.000
G1 X1.958 Y91.609 Z-19.502 F2500.000
G1 X2.041 Y97.308 Z-19.542 F2500.000
G1 X2.050 Y97.908 Z-19.550 F2500.000
G1 X2.168 Y106.007 Z-19.606 F2500.000
G1 X2.257 Y112.107 Z-19.656 F2500.000
G1 X2.336 Y117.506 Z-19.693 F2500.000
G1 X2.371 Y119.906 Z-19.715 F2500.000
G1 X2.424 Y123.505 Z-19.741 F2500.000
G1 X2.446 Y125.005 Z-19.748 F2500.000
G1 X2.467 Y126.405 Z-19.763 F2500.000
G1 X2.717 Y143.303 Z-19.888 F2500.000
G1 X2.753 Y145.703 Z-19.902 F2500.000
G1 X2.871 Y153.702 Z-19.966 F2500.000
G1 X2.936 Y158.102 Z-19.995 F2500.000
G1 X2.966 Y160.101 Z-20.013 F2500.000
G1 X3.281 Y181.399 Z-20.170 F2500.000
G1 X3.337 Y185.199 Z-20.194 F2500.000
G1 X3.448 Y192.698 Z-20.253 F2500.000
G1 X3.481 Y194.898 Z-20.265 F2500.000
G1 X3.525 Y197.897 Z-20.292 F2500.000
G1 X3.650 Y206.296 Z-20.349 F2500.000
G1 X3.674 Y207.896 Z-20.365 F2500.000
G1 X3.713 Y210.496 Z-20.383 F2500.000
G1 X3.616 Y210.597 Z-20.392 F2500.000
G1 X2.716 Y210.597 Z-20.462 F2500.000
G1 X1.816 Y210.597 Z-20.507 F2500.000
G1 X0.916 Y210.597 Z-20.535 F2500.000
G1 X0.016 Y210.597 Z-20.551 F2500.000
G1 X-0.884 Y210.597 Z-20.536 F2500.000
G1 X-1.784 Y210.597 Z-20.508 F2500.000
G1 X-2.684 Y210.597 Z-20.464 F2500.000
G1 X-3.584 Y210.597 Z-20.395 F2500.000
G1 X-3.713 Y210.527 Z-20.383 F2500.000
G1 X-3.478 Y194.729 Z-20.265 F2500.000
G1 X-3.457 Y193.329 Z-20.258 F2500.000
G1 X-3.413 Y190.329 Z-20.232 F2500.000
G1 X-3.308 Y183.230 Z-20.184 F2500.000
G1 X-3.264 Y180.230 Z-20.159 F2500.000
G1 X-3.141 Y171.931 Z-20.100 F2500.000
G1 X-3.052 Y165.932 Z-20.052 F2500.000
G1 X-2.813 Y149.800 Z-19.937 F2500.000
G1 X-2.762 Y146.334 Z-19.907 F2500.000
G1 X-2.726 Y143.934 Z-19.894 F2500.000
G1 X-2.476 Y127.036 Z-19.765 F2500.000
G1 X-2.451 Y125.336 Z-19.755 F2500.000
G1 X-2.342 Y117.937 Z-19.696 F2500.000
G1 X-2.325 Y116.737 Z-19.691 F2500.000
G1 X-2.225 Y109.938 Z-19.640 F2500.000
G1 X-1.761 Y78.141 Z-19.398 F2500.000
G1 X-1.717 Y75.142 Z-19.378 F2500.000
G1 X-1.598 Y66.943 Z-19.312 F2500.000
G1 X-1.548 Y63.543 Z-19.289 F2500.000
G1 X-1.482 Y59.010 Z-19.251 F2500.000
G1 X-1.400 Y53.344 Z-19.211 F2500.000
G1 X-1.061 Y29.747 Z-19.025 F2500.000
G1 X-1.003 Y29.603 Z-19.026 F2500.000
G1 X-0.336 Y29.603 Z-19.042 F2500.000
G1 X0.331 Y29.603 Z-19.042 F2500.000
G1 X0.997 Y29.603 Z-19.028 F2500.000
G1 X1.061 Y29.741 Z-19.026 F2500.000
G1 X1.354 Y50.139 Z-19.186 F2500.000
G1 X1.364 Y50.872 Z-19.188 F2500.000
G1 X1.419 Y54.713 Z-19.220 F2500.000
(Break)
G1 X2.019 Y54.704 Z-19.186 F2500.000
(part 15.)
G1 X2.019 Y54.704 Z-19.186 F2500.000
G1 X2.029 Y55.404 Z-19.191 F2500.000
G1 X2.162 Y64.503 Z-19.257 F2500.000
G1 X2.188 Y66.303 Z-19.274 F2500.000
G1 X2.251 Y70.602 Z-19.303 F2500.000
G1 X2.299 Y73.902 Z-19.330 F2500.000
G1 X2.334 Y76.302 Z-19.345 F2500.000
G1 X2.384 Y79.701 Z-19.373 F2500.000
G1 X2.413 Y81.701 Z-19.383 F2500.000
G1 X2.472 Y85.701 Z-19.416 F2500.000
G1 X2.486 Y86.701 Z-19.420 F2500.000
G1 X2.521 Y89.100 Z-19.442 F2500.000
G1 X2.648 Y97.799 Z-19.506 F2500.000
G1 X2.831 Y110.298 Z-19.595 F2500.000
G1 X2.851 Y111.698 Z-19.608 F2500.000
G1 X2.883 Y113.898 Z-19.621 F2500.000
G1 X3.018 Y123.097 Z-19.692 F2500.000
G1 X3.071 Y126.696 Z-19.714 F2500.000
G1 X3.255 Y139.095 Z-19.808 F2500.000
G1 X3.323 Y143.694 Z-19.837 F2500.000
G1 X3.352 Y145.694 Z-19.855 F2500.000
G1 X3.406 Y149.294 Z-19.878 F2500.000
G1 X3.418 Y150.094 Z-19.887 F2500.000
G1 X3.432 Y151.094 Z-19.890 F2500.000
G1 X3.480 Y154.293 Z-19.918 F2500.000
G1 X3.515 Y156.693 Z-19.932 F2500.000
G1 X3.545 Y158.693 Z-19.950 F2500.000
G1 X3.580 Y161.092 Z-19.963 F2500.000
G1 X3.610 Y163.092 Z-19.982 F2500.000
G1 X3.619 Y163.692 Z-19.982 F2500.000
G1 X3.654 Y166.092 Z-19.999 F2500.000
G1 X3.693 Y168.692 Z-20.022 F2500.000
G1 X3.758 Y173.091 Z-20.051 F2500.000
G1 X3.867 Y180.490 Z-20.108 F2500.000
G1 X3.894 Y182.290 Z-20.117 F2500.000
G1 X4.104 Y196.489 Z-20.224 F2500.000
G1 X4.163 Y200.488 Z-20.248 F2500.000
G1 X4.178 Y201.488 Z-20.259 F2500.000
G1 X4.196 Y202.688 Z-20.265 F2500.000
G1 X4.241 Y205.688 Z-20.290 F2500.000
G1 X4.259 Y206.887 Z-20.295 F2500.000
G1 X4.322 Y211.087 Z-20.329 F2500.000
G1 X4.233 Y211.197 Z-20.339 F2500.000
G1 X3.300 Y211.197 Z-20.424 F2500.000
G1 X2.367 Y211.197 Z-20.488 F2500.000
G1 X1.433 Y211.197 Z-20.530 F2500.000
G1 X0.500 Y211.197 Z-20.548 F2500.000
G1 X-0.433 Y211.197 Z-20.548 F2500.000
G1 X-1.367 Y211.197 Z-20.532 F2500.000
G1 X-2.300 Y211.197 Z-20.492 F2500.000
G1 X-3.233 Y211.197 Z-20.430 F2500.000
G1 X-4.167 Y211.197 Z-20.347 F2500.000
G1 X-4.323 Y211.154 Z-20.329 F2500.000
G1 X-4.209 Y203.555 Z-20.271 F2500.000
G1 X-4.191 Y202.355 Z-20.266 F2500.000
G1 X-4.087 Y195.356 Z-20.213 F2500.000
G1 X-3.987 Y188.556 Z-20.166 F2500.000
G1 X-3.934 Y184.957 Z-20.135 F2500.000
G1 X-3.904 Y182.957 Z-20.125 F2500.000
G1 X-3.792 Y175.358 Z-20.071 F2500.000
G1 X-3.694 Y168.759 Z-20.020 F2500.000
G1 X-3.623 Y163.959 Z-19.988 F2500.000
G1 X-3.572 Y160.559 Z-19.959 F2500.000
G1 X-3.549 Y158.960 Z-19.951 F2500.000
G1 X-3.516 Y156.760 Z-19.931 F2500.000
G1 X-3.475 Y153.960 Z-19.916 F2500.000
G1 X-3.451 Y152.360 Z-19.900 F2500.000
G1 X-3.427 Y150.761 Z-19.892 F2500.000
G1 X-3.386 Y147.961 Z-19.867 F2500.000
G1 X-3.274 Y140.362 Z-19.817 F2500.000
G1 X-3.244 Y138.362 Z-19.799 F2500.000
G1 X-2.995 Y121.564 Z-19.680 F2500.000
G1 X-2.915 Y116.064 Z-19.637 F2500.000
G1 X-2.856 Y112.065 Z-19.611 F2500.000
G1 X-2.674 Y99.566 Z-19.519 F2500.000
G1 X-2.646 Y97.666 Z-19.501 F2500.000
G1 X-2.588 Y93.667 Z-19.476 F2500.000
G1 X-2.443 Y83.768 Z-19.400 F2500.000
G1 X-2.414 Y81.768 Z-19.388 F2500.000
G1 X-2.375 Y79.068 Z-19.364 F2500.000
G1 X-2.315 Y74.969 Z-19.338 F2500.000
G1 X-2.233 Y69.369 Z-19.293 F2500.000
G1 X-2.017 Y54.571 Z-19.186 F2500.000
G1 X-1.653 Y29.174 Z-18.994 F2500.000
G1 X-1.621 Y29.003 Z-18.994 F2500.000
G1 X-0.821 Y29.003 Z-19.026 F2500.000
G1 X-0.021 Y29.003 Z-19.041 F2500.000
G1 X0.779 Y29.003 Z-19.030 F2500.000
G1 X1.579 Y29.003 Z-18.997 F2500.000
G1 X1.652 Y29.131 Z-18.995 F2500.000
G1 X1.693 Y31.981 Z-19.013 F2500.000
G1 X1.707 Y32.931 Z-19.023 F2500.000
G1 X1.974 Y51.595 Z-19.164 F2500.000
G1 X1.985 Y52.329 Z-19.166 F2500.000
G1 X2.019 Y54.704 Z-19.186 F2500.000
(Break)
G1 X2.619 Y54.695 Z-19.141 F2500.000
(part 17.)
G1 X2.619 Y54.695 Z-19.141 F2500.000
G1 X2.634 Y55.695 Z-19.148 F2500.000
G1 X3.188 Y93.691 Z-19.424 F2500.000
G1 X3.276 Y99.690 Z-19.463 F2500.000
G1 X3.305 Y101.690 Z-19.481 F2500.000
G1 X3.395 Y107.889 Z-19.521 F2500.000
G1 X3.436 Y110.689 Z-19.545 F2500.000
G1 X3.460 Y112.289 Z-19.553 F2500.000
G1 X3.492 Y114.489 Z-19.572 F2500.000
G1 X3.515 Y116.089 Z-19.580 F2500.000
G1 X3.571 Y119.888 Z-19.610 F2500.000
G1 X3.944 Y145.085 Z-19.788 F2500.000
G1 X4.032 Y151.085 Z-19.833 F2500.000
G1 X4.065 Y153.285 Z-19.846 F2500.000
G1 X4.287 Y168.283 Z-19.956 F2500.000
G1 X4.322 Y170.683 Z-19.968 F2500.000
G1 X4.417 Y177.082 Z-20.018 F2500.000
G1 X4.444 Y178.882 Z-20.027 F2500.000
G1 X4.461 Y180.082 Z-20.039 F2500.000
G1 X4.494 Y182.281 Z-20.052 F2500.000
G1 X4.589 Y188.681 Z-20.101 F2500.000
G1 X4.633 Y191.680 Z-20.118 F2500.000
G1 X4.666 Y193.880 Z-20.138 F2500.000
G1 X4.685 Y195.180 Z-20.144 F2500.000
G1 X4.732 Y198.380 Z-20.170 F2500.000
G1 X4.746 Y199.280 Z-20.172 F2500.000
G1 X4.841 Y205.679 Z-20.222 F2500.000
G1 X4.930 Y211.678 Z-20.264 F2500.000
G1 X4.851 Y211.797 Z-20.275 F2500.000
G1 X3.891 Y211.797 Z-20.378 F2500.000
G1 X2.931 Y211.797 Z-20.458 F2500.000
G1 X1.971 Y211.797 Z-20.513 F2500.000
G1 X1.011 Y211.797 Z-20.548 F2500.000
G1 X0.051 Y211.797 Z-20.561 F2500.000
G1 X-0.909 Y211.797 Z-20.551 F2500.000
G1 X-1.869 Y211.797 Z-20.517 F2500.000
G1 X-2.829 Y211.797 Z-20.464 F2500.000
G1 X-3.789 Y211.797 Z-20.387 F2500.000
G1 X-4.749 Y211.797 Z-20.287 F2500.000
G1 X-4.932 Y211.781 Z-20.265 F2500.000
G1 X-4.813 Y203.782 Z-20.208 F2500.000
G1 X-4.783 Y201.782 Z-20.190 F2500.000
G1 X-4.768 Y200.782 Z-20.187 F2500.000
G1 X-4.732 Y198.382 Z-20.169 F2500.000
G1 X-4.718 Y197.382 Z-20.159 F2500.000
G1 X-4.688 Y195.383 Z-20.147 F2500.000
G1 X-4.368 Y173.785 Z-19.995 F2500.000
G1 X-4.297 Y168.985 Z-19.956 F2500.000
G1 X-4.282 Y167.986 Z-19.952 F2500.000
G1 X-4.223 Y163.986 Z-19.921 F2500.000
G1 X-4.140 Y158.387 Z-19.885 F2500.000
G1 X-4.060 Y152.987 Z-19.843 F2500.000
G1 X-3.989 Y148.188 Z-19.812 F2500.000
G1 X-3.901 Y142.188 Z-19.766 F2500.000
G1 X-3.883 Y140.989 Z-19.761 F2500.000
G1 X-3.649 Y125.190 Z-19.648 F2500.000
G1 X-3.611 Y122.591 Z-19.627 F2500.000
G1 X-3.561 Y119.258 Z-19.606 F2500.000
G1 X-3.511 Y115.791 Z-19.582 F2500.000
G1 X-3.491 Y114.458 Z-19.568 F2500.000
G1 X-3.450 Y111.592 Z-19.552 F2500.000
G1 X-3.210 Y95.193 Z-19.431 F2500.000
G1 X-3.193 Y93.994 Z-19.426 F2500.000
G1 X-3.124 Y89.294 Z-19.388 F2500.000
G1 X-3.076 Y85.994 Z-19.368 F2500.000
G1 X-2.986 Y79.862 Z-19.321 F2500.000
G1 X-2.825 Y68.796 Z-19.244 F2500.000
G1 X-2.733 Y62.530 Z-19.195 F2500.000
G1 X-2.714 Y61.197 Z-19.189 F2500.000
G1 X-2.618 Y54.598 Z-19.141 F2500.000
G1 X-2.592 Y52.798 Z-19.126 F2500.000
G1 X-2.546 Y49.598 Z-19.105 F2500.000
G1 X-2.514 Y47.399 Z-19.085 F2500.000
G1 X-2.503 Y46.599 Z-19.082 F2500.000
G1 X-2.435 Y41.899 Z-19.048 F2500.000
G1 X-2.390 Y38.699 Z-19.021 F2500.000
G1 X-2.344 Y35.500 Z-19.002 F2500.000
G1 X-2.240 Y28.403 Z-18.950 F2500.000
G1 X-1.360 Y28.403 Z-19.003 F2500.000
G1 X-0.480 Y28.403 Z-19.031 F2500.000
G1 X0.400 Y28.403 Z-19.032 F2500.000
G1 X1.280 Y28.403 Z-19.007 F2500.000
G1 X2.160 Y28.403 Z-18.955 F2500.000
G1 X2.244 Y28.521 Z-18.950 F2500.000
G1 X2.381 Y38.120 Z-19.018 F2500.000
G1 X2.479 Y44.920 Z-19.070 F2500.000
G1 X2.525 Y48.119 Z-19.090 F2500.000
G1 X2.619 Y54.695 Z-19.141 F2500.000
(Break)
G1 X3.219 Y54.686 Z-19.081 F2500.000
(part 19.)
G1 X3.219 Y54.686 Z-19.081 F2500.000
G1 X3.229 Y55.386 Z-19.087 F2500.000
G1 X3.260 Y57.486 Z-19.105 F2500.000
G1 X3.282 Y58.986 Z-19.111 F2500.000
G1 X3.353 Y63.885 Z-19.150 F2500.000
G1 X3.431 Y69.185 Z-19.183 F2500.000
G1 X3.725 Y89.383 Z-19.329 F2500.000
G1 X3.899 Y101.281 Z-19.413 F2500.000
G1 X3.975 Y106.481 Z-19.445 F2500.000
G1 X4.047 Y111.380 Z-19.484 F2500.000
G1 X4.074 Y113.280 Z-19.493 F2500.000
G1 X4.083 Y113.880 Z-19.501 F2500.000
G1 X4.112 Y115.880 Z-19.512 F2500.000
G1 X4.156 Y118.880 Z-19.536 F2500.000
G1 X4.443 Y138.277 Z-19.672 F2500.000
G1 X4.461 Y139.477 Z-19.675 F2500.000
G1 X4.475 Y140.477 Z-19.686 F2500.000
G1 X4.529 Y144.077 Z-19.712 F2500.000
G1 X4.564 Y146.477 Z-19.724 F2500.000
G1 X4.573 Y147.076 Z-19.733 F2500.000
G1 X4.609 Y149.476 Z-19.747 F2500.000
G1 X4.620 Y150.276 Z-19.755 F2500.000
G1 X4.635 Y151.276 Z-19.758 F2500.000
G1 X4.659 Y152.876 Z-19.773 F2500.000
G1 X4.665 Y153.276 Z-19.773 F2500.000
G1 X4.807 Y162.875 Z-19.844 F2500.000
G1 X4.839 Y165.075 Z-19.856 F2500.000
G1 X4.940 Y171.874 Z-19.907 F2500.000
G1 X4.967 Y173.674 Z-19.916 F2500.000
G1 X5.032 Y178.073 Z-19.950 F2500.000
G1 X5.053 Y179.473 Z-19.955 F2500.000
G1 X5.150 Y186.072 Z-20.006 F2500.000
G1 X5.171 Y187.472 Z-20.013 F2500.000
G1 X5.319 Y197.471 Z-20.086 F2500.000
G1 X5.328 Y198.071 Z-20.086 F2500.000
G1 X5.366 Y200.671 Z-20.109 F2500.000
G1 X5.384 Y201.870 Z-20.114 F2500.000
G1 X5.539 Y212.269 Z-20.190 F2500.000
G1 X5.469 Y212.397 Z-20.202 F2500.000
G1 X4.469 Y212.397 Z-20.325 F2500.000
G1 X3.469 Y212.397 Z-20.420 F2500.000
G1 X2.469 Y212.397 Z-20.491 F2500.000
G1 X1.469 Y212.397 Z-20.539 F2500.000
G1 X0.469 Y212.397 Z-20.561 F2500.000
G1 X-0.531 Y212.397 Z-20.560 F2500.000
G1 X-1.531 Y212.397 Z-20.537 F2500.000
G1 X-2.531 Y212.397 Z-20.487 F2500.000
G1 X-3.531 Y212.397 Z-20.415 F2500.000
G1 X-4.531 Y212.397 Z-20.318 F2500.000
G1 X-5.531 Y212.397 Z-20.193 F2500.000
G1 X-5.538 Y212.208 Z-20.190 F2500.000
G1 X-5.476 Y208.008 Z-20.157 F2500.000
G1 X-5.443 Y205.808 Z-20.145 F2500.000
G1 X-5.419 Y204.209 Z-20.130 F2500.000
G1 X-5.386 Y202.009 Z-20.119 F2500.000
G1 X-5.223 Y191.010 Z-20.041 F2500.000
G1 X-5.182 Y188.210 Z-20.018 F2500.000
G1 X-5.170 Y187.410 Z-20.016 F2500.000
G1 X-5.069 Y180.611 Z-19.964 F2500.000
G1 X-5.040 Y178.611 Z-19.954 F2500.000
G1 X-5.019 Y177.212 Z-19.941 F2500.000
G1 X-4.951 Y172.612 Z-19.912 F2500.000
G1 X-4.939 Y171.812 Z-19.901 F2500.000
G1 X-4.825 Y164.113 Z-19.852 F2500.000
G1 X-4.747 Y158.814 Z-19.811 F2500.000
G1 X-4.655 Y152.614 Z-19.772 F2500.000
G1 X-4.341 Y131.417 Z-19.624 F2500.000
G1 X-4.315 Y129.617 Z-19.607 F2500.000
G1 X-4.291 Y128.017 Z-19.600 F2500.000
G1 X-4.170 Y119.818 Z-19.543 F2500.000
G1 X-4.132 Y117.218 Z-19.520 F2500.000
G1 X-4.103 Y115.218 Z-19.510 F2500.000
G1 X-4.059 Y112.219 Z-19.486 F2500.000
G1 X-4.003 Y108.419 Z-19.462 F2500.000
G1 X-3.995 Y107.819 Z-19.454 F2500.000
G1 X-3.927 Y103.220 Z-19.426 F2500.000
G1 X-3.685 Y86.621 Z-19.306 F2500.000
G1 X-3.598 Y80.622 Z-19.268 F2500.000
G1 X-3.583 Y79.622 Z-19.257 F2500.000
G1 X-3.469 Y71.823 Z-19.206 F2500.000
G1 X-3.446 Y70.223 Z-19.190 F2500.000
G1 X-3.425 Y68.823 Z-19.185 F2500.000
G1 X-3.329 Y62.224 Z-19.138 F2500.000
G1 X-3.303 Y60.424 Z-19.121 F2500.000
G1 X-3.256 Y57.224 Z-19.102 F2500.000
G1 X-3.241 Y56.225 Z-19.092 F2500.000
G1 X-3.218 Y54.625 Z-19.084 F2500.000
G1 X-3.198 Y53.225 Z-19.071 F2500.000
G1 X-3.103 Y46.626 Z-19.028 F2500.000
G1 X-2.834 Y27.828 Z-18.892 F2500.000
G1 X-2.658 Y27.803 Z-18.908 F2500.000
G1 X-1.758 Y27.803 Z-18.976 F2500.000
G1 X-0.858 Y27.803 Z-19.015 F2500.000
G1 X0.042 Y27.803 Z-19.031 F2500.000
G1 X0.942 Y27.803 Z-19.015 F2500.000
G1 X1.842 Y27.803 Z-18.973 F2500.000
G1 X2.742 Y27.803 Z-18.900 F2500.000
G1 X2.835 Y27.911 Z-18.892 F2500.000
G1 X3.078 Y44.843 Z-19.015 F2500.000
G1 X3.183 Y52.176 Z-19.064 F2500.000
G1 X3.206 Y53.798 Z-19.078 F2500.000
G1 X3.219 Y54.686 Z-19.081 F2500.000
(Break)
G1 X3.819 Y54.678 Z-19.015 F2500.000
(part 21.)
G1 X3.819 Y54.678 Z-19.015 F2500.000
G1 X3.833 Y55.678 Z-19.023 F2500.000
G1 X3.867 Y57.977 Z-19.036 F2500.000
G1 X3.889 Y59.477 Z-19.049 F2500.000
G1 X4.134 Y76.275 Z-19.165 F2500.000
G1 X4.225 Y82.475 Z-19.204 F2500.000
G1 X4.321 Y89.074 Z-19.253 F2500.000
G1 X4.771 Y119.871 Z-19.463 F2500.000
G1 X5.043 Y138.269 Z-19.591 F2500.000
G1 X5.072 Y140.268 Z-19.601 F2500.000
G1 X5.108 Y142.668 Z-19.621 F2500.000
G1 X5.140 Y144.868 Z-19.634 F2500.000
G1 X5.232 Y151.067 Z-19.679 F2500.000
G1 X5.250 Y152.267 Z-19.684 F2500.000
G1 X5.327 Y157.467 Z-19.723 F2500.000
G1 X5.416 Y163.466 Z-19.761 F2500.000
G1 X5.537 Y171.665 Z-19.821 F2500.000
G1 X5.564 Y173.465 Z-19.829 F2500.000
G1 X5.590 Y175.265 Z-19.846 F2500.000
G1 X5.774 Y187.663 Z-19.932 F2500.000
G1 X5.827 Y191.263 Z-19.953 F2500.000
G1 X5.931 Y198.262 Z-20.006 F2500.000
G1 X5.954 Y199.862 Z-20.012 F2500.000
G1 X5.972 Y201.062 Z-20.025 F2500.000
G1 X6.148 Y212.861 Z-20.104 F2500.000
G1 X6.087 Y212.997 Z-20.115 F2500.000
G1 X5.149 Y212.997 Z-20.249 F2500.000
G1 X4.210 Y212.997 Z-20.356 F2500.000
G1 X3.272 Y212.997 Z-20.442 F2500.000
G1 X2.333 Y212.997 Z-20.506 F2500.000
G1 X1.395 Y212.997 Z-20.548 F2500.000
G1 X0.456 Y212.997 Z-20.566 F2500.000
G1 X-0.482 Y212.997 Z-20.565 F2500.000
G1 X-1.421 Y212.997 Z-20.547 F2500.000
G1 X-2.359 Y212.997 Z-20.504 F2500.000
G1 X-3.298 Y212.997 Z-20.440 F2500.000
G1 X-4.236 Y212.997 Z-20.354 F2500.000
G1 X-5.175 Y212.997 Z-20.246 F2500.000
G1 X-6.113 Y212.997 Z-20.110 F2500.000
G1 X-6.148 Y212.835 Z-20.104 F2500.000
G1 X-6.136 Y212.035 Z-20.101 F2500.000
G1 X-6.070 Y207.635 Z-20.067 F2500.000
G1 X-6.031 Y205.035 Z-20.053 F2500.000
G1 X-5.951 Y199.636 Z-20.012 F2500.000
G1 X-5.927 Y198.036 Z-20.004 F2500.000
G1 X-5.915 Y197.236 Z-19.994 F2500.000
G1 X-5.907 Y196.636 Z-19.994 F2500.000
G1 X-5.842 Y192.237 Z-19.959 F2500.000
G1 X-5.809 Y190.037 Z-19.948 F2500.000
G1 X-5.782 Y188.237 Z-19.933 F2500.000
G1 X-5.695 Y182.338 Z-19.895 F2500.000
G1 X-5.676 Y181.038 Z-19.883 F2500.000
G1 X-5.661 Y180.038 Z-19.879 F2500.000
G1 X-5.652 Y179.438 Z-19.871 F2500.000
G1 X-5.637 Y178.438 Z-19.867 F2500.000
G1 X-5.501 Y169.239 Z-19.801 F2500.000
G1 X-5.451 Y165.840 Z-19.780 F2500.000
G1 X-5.386 Y161.440 Z-19.747 F2500.000
G1 X-5.341 Y158.440 Z-19.730 F2500.000
G1 X-5.309 Y156.241 Z-19.711 F2500.000
G1 X-5.196 Y148.642 Z-19.662 F2500.000
G1 X-5.096 Y141.842 Z-19.612 F2500.000
G1 X-5.041 Y138.143 Z-19.586 F2500.000
G1 X-5.022 Y136.843 Z-19.581 F2500.000
G1 X-4.906 Y129.044 Z-19.527 F2500.000
G1 X-4.886 Y127.644 Z-19.514 F2500.000
G1 X-4.829 Y123.844 Z-19.492 F2500.000
G1 X-4.753 Y118.645 Z-19.453 F2500.000
G1 X-4.735 Y117.445 Z-19.448 F2500.000
G1 X-4.648 Y111.446 Z-19.404 F2500.000
G1 X-4.402 Y94.647 Z-19.291 F2500.000
G1 X-4.312 Y88.448 Z-19.244 F2500.000
G1 X-4.251 Y84.249 Z-19.220 F2500.000
G1 X-4.169 Y78.649 Z-19.178 F2500.000
G1 X-4.105 Y74.250 Z-19.151 F2500.000
G1 X-4.067 Y71.650 Z-19.130 F2500.000
G1 X-4.040 Y69.850 Z-19.121 F2500.000
G1 X-4.002 Y67.250 Z-19.100 F2500.000
G1 X-3.845 Y56.451 Z-19.029 F2500.000
G1 X-3.741 Y49.252 Z-18.975 F2500.000
G1 X-3.703 Y46.586 Z-18.960 F2500.000
G1 X-3.569 Y37.253 Z-18.893 F2500.000
G1 X-3.546 Y35.654 Z-18.884 F2500.000
G1 X-3.495 Y32.111 Z-18.856 F2500.000
G1 X-3.426 Y27.254 Z-18.826 F2500.000
G1 X-3.277 Y27.203 Z-18.842 F2500.000
G1 X-2.334 Y27.203 Z-18.931 F2500.000
G1 X-1.391 Y27.203 Z-18.992 F2500.000
G1 X-0.448 Y27.203 Z-19.020 F2500.000
G1 X0.495 Y27.203 Z-19.019 F2500.000
G1 X1.438 Y27.203 Z-18.989 F2500.000
G1 X2.381 Y27.203 Z-18.927 F2500.000
G1 X3.323 Y27.203 Z-18.837 F2500.000
G1 X3.426 Y27.301 Z-18.826 F2500.000
G1 X3.498 Y32.301 Z-18.857 F2500.000
G1 X3.507 Y32.901 Z-18.865 F2500.000
G1 X3.552 Y36.101 Z-18.887 F2500.000
G1 X3.598 Y39.300 Z-18.906 F2500.000
G1 X3.819 Y54.678 Z-19.015 F2500.000
(Break)
G1 X4.419 Y54.669 Z-18.933 F2500.000
(part 23.)
G1 X4.419 Y54.669 Z-18.933 F2500.000
G1 X4.425 Y55.069 Z-18.935 F2500.000
G1 X4.477 Y58.668 Z-18.963 F2500.000
G1 X4.541 Y63.068 Z-18.990 F2500.000
G1 X4.763 Y78.266 Z-19.095 F2500.000
G1 X4.787 Y79.866 Z-19.102 F2500.000
G1 X4.828 Y82.666 Z-19.125 F2500.000
G1 X5.000 Y94.465 Z-19.201 F2500.000
G1 X5.076 Y99.664 Z-19.240 F2500.000
G1 X5.122 Y102.864 Z-19.257 F2500.000
G1 X5.169 Y106.063 Z-19.283 F2500.000
G1 X5.187 Y107.263 Z-19.287 F2500.000
G1 X5.201 Y108.263 Z-19.297 F2500.000
G1 X5.274 Y113.263 Z-19.327 F2500.000
G1 X5.341 Y117.862 Z-19.362 F2500.000
G1 X5.385 Y120.862 Z-19.379 F2500.000
G1 X5.403 Y122.062 Z-19.391 F2500.000
G1 X5.456 Y125.661 Z-19.411 F2500.000
G1 X5.465 Y126.261 Z-19.418 F2500.000
G1 X5.508 Y129.161 Z-19.435 F2500.000
G1 X5.524 Y130.261 Z-19.446 F2500.000
G1 X5.557 Y132.461 Z-19.458 F2500.000
G1 X5.640 Y138.060 Z-19.498 F2500.000
G1 X5.655 Y139.060 Z-19.501 F2500.000
G1 X5.681 Y140.860 Z-19.517 F2500.000
G1 X5.729 Y144.059 Z-19.536 F2500.000
G1 X5.752 Y145.659 Z-19.550 F2500.000
G1 X5.761 Y146.259 Z-19.551 F2500.000
G1 X5.877 Y154.058 Z-19.607 F2500.000
G1 X5.951 Y159.058 Z-19.637 F2500.000
G1 X6.007 Y162.857 Z-19.667 F2500.000
G1 X6.087 Y168.257 Z-19.699 F2500.000
G1 X6.104 Y169.457 Z-19.711 F2500.000
G1 X6.152 Y172.656 Z-19.730 F2500.000
G1 X6.199 Y175.856 Z-19.755 F2500.000
G1 X6.267 Y180.455 Z-19.786 F2500.000
G1 X6.285 Y181.655 Z-19.790 F2500.000
G1 X6.303 Y182.855 Z-19.803 F2500.000
G1 X6.323 Y184.255 Z-19.808 F2500.000
G1 X6.335 Y185.055 Z-19.817 F2500.000
G1 X6.365 Y187.055 Z-19.827 F2500.000
G1 X6.392 Y188.854 Z-19.844 F2500.000
G1 X6.406 Y189.854 Z-19.846 F2500.000
G1 X6.448 Y192.654 Z-19.870 F2500.000
G1 X6.504 Y196.454 Z-19.892 F2500.000
G1 X6.578 Y201.453 Z-19.930 F2500.000
G1 X6.611 Y203.653 Z-19.942 F2500.000
G1 X6.656 Y206.652 Z-19.967 F2500.000
G1 X6.723 Y211.152 Z-19.993 F2500.000
G1 X6.757 Y213.452 Z-20.012 F2500.000
G1 X6.705 Y213.597 Z-20.022 F2500.000
G1 X5.748 Y213.597 Z-20.173 F2500.000
G1 X4.791 Y213.597 Z-20.298 F2500.000
G1 X3.833 Y213.597 Z-20.400 F2500.000
G1 X2.876 Y213.597 Z-20.477 F2500.000
G1 X1.919 Y213.597 Z-20.531 F2500.000
G1 X0.962 Y213.597 Z-20.560 F2500.000
G1 X0.005 Y213.597 Z-20.576 F2500.000
G1 X-0.952 Y213.597 Z-20.560 F2500.000
G1 X-1.909 Y213.597 Z-20.532 F2500.000
G1 X-2.867 Y213.597 Z-20.478 F2500.000
G1 X-3.824 Y213.597 Z-20.401 F2500.000
G1 X-4.781 Y213.597 Z-20.299 F2500.000
G1 X-5.738 Y213.597 Z-20.175 F2500.000
G1 X-6.695 Y213.597 Z-20.024 F2500.000
G1 X-6.757 Y213.461 Z-20.013 F2500.000
G1 X-6.677 Y208.062 Z-19.972 F2500.000
G1 X-6.662 Y207.062 Z-19.969 F2500.000
G1 X-6.629 Y204.862 Z-19.951 F2500.000
G1 X-6.433 Y191.664 Z-19.864 F2500.000
G1 X-6.398 Y189.264 Z-19.844 F2500.000
G1 X-6.356 Y186.464 Z-19.828 F2500.000
G1 X-6.300 Y182.665 Z-19.796 F2500.000
G1 X-6.279 Y181.265 Z-19.792 F2500.000
G1 X-6.199 Y175.866 Z-19.751 F2500.000
G1 X-6.193 Y175.466 Z-19.752 F2500.000
G1 X-6.105 Y169.466 Z-19.708 F2500.000
G1 X-6.087 Y168.266 Z-19.704 F2500.000
G1 X-6.069 Y167.066 Z-19.691 F2500.000
G1 X-6.057 Y166.267 Z-19.690 F2500.000
G1 X-6.031 Y164.467 Z-19.675 F2500.000
G1 X-5.891 Y155.068 Z-19.614 F2500.000
G1 X-5.815 Y149.868 Z-19.574 F2500.000
G1 X-5.767 Y146.669 Z-19.557 F2500.000
G1 X-5.616 Y136.470 Z-19.485 F2500.000
G1 X-5.533 Y130.870 Z-19.449 F2500.000
G1 X-5.516 Y129.671 Z-19.438 F2500.000
G1 X-5.456 Y125.671 Z-19.415 F2500.000
G1 X-5.433 Y124.071 Z-19.400 F2500.000
G1 X-5.400 Y121.871 Z-19.389 F2500.000
G1 X-5.336 Y117.472 Z-19.355 F2500.000
G1 X-5.298 Y114.872 Z-19.342 F2500.000
G1 X-5.261 Y112.372 Z-19.321 F2500.000
G1 X-5.233 Y110.473 Z-19.312 F2500.000
G1 X-5.193 Y107.673 Z-19.289 F2500.000
G1 X-5.162 Y105.573 Z-19.279 F2500.000
G1 X-5.058 Y98.474 Z-19.228 F2500.000
G1 X-5.008 Y95.008 Z-19.208 F2500.000
G1 X-4.961 Y91.808 Z-19.184 F2500.000
G1 X-4.832 Y82.976 Z-19.126 F2500.000
G1 X-4.810 Y81.476 Z-19.113 F2500.000
G1 X-4.521 Y61.678 Z-18.984 F2500.000
G1 X-4.442 Y56.278 Z-18.944 F2500.000
G1 X-4.407 Y53.879 Z-18.931 F2500.000
G1 X-4.366 Y50.979 Z-18.908 F2500.000
G1 X-4.344 Y49.479 Z-18.901 F2500.000
G1 X-4.149 Y35.881 Z-18.806 F2500.000
G1 X-4.017 Y26.681 Z-18.746 F2500.000
G1 X-3.895 Y26.603 Z-18.761 F2500.000
G1 X-2.920 Y26.603 Z-18.875 F2500.000
G1 X-1.945 Y26.603 Z-18.956 F2500.000
G1 X-0.970 Y26.603 Z-19.005 F2500.000
G1 X0.005 Y26.603 Z-19.021 F2500.000
G1 X0.980 Y26.603 Z-19.004 F2500.000
G1 X1.955 Y26.603 Z-18.955 F2500.000
G1 X2.930 Y26.603 Z-18.874 F2500.000
G1 X3.905 Y26.603 Z-18.760 F2500.000
G1 X4.018 Y26.692 Z-18.746 F2500.000
G1 X4.174 Y37.590 Z-18.817 F2500.000
G1 X4.195 Y39.090 Z-18.830 F2500.000
G1 X4.330 Y48.489 Z-18.895 F2500.000
G1 X4.362 Y50.689 Z-18.906 F2500.000
G1 X4.408 Y53.889 Z-18.931 F2500.000
G1 X4.419 Y54.669 Z-18.933 F2500.000
(Break)
G1 X5.019 Y54.660 Z-18.844 F2500.000
(part 25.)
G1 X5.019 Y54.660 Z-18.844 F2500.000
G1 X5.026 Y55.160 Z-18.847 F2500.000
G1 X5.071 Y58.260 Z-18.868 F2500.000
G1 X5.083 Y59.060 Z-18.870 F2500.000
G1 X5.220 Y68.459 Z-18.936 F2500.000
G1 X5.239 Y69.725 Z-18.940 F2500.000
G1 X5.276 Y72.258 Z-18.961 F2500.000
G1 X5.287 Y73.058 Z-18.961 F2500.000
G1 X5.308 Y74.458 Z-18.975 F2500.000
G1 X5.416 Y81.857 Z-19.021 F2500.000
G1 X5.585 Y93.456 Z-19.101 F2500.000
G1 X5.690 Y100.655 Z-19.148 F2500.000
G1 X5.702 Y101.455 Z-19.150 F2500.000
G1 X5.795 Y107.854 Z-19.197 F2500.000
G1 X5.867 Y112.754 Z-19.229 F2500.000
G1 X5.889 Y114.254 Z-19.236 F2500.000
G1 X5.900 Y115.054 Z-19.244 F2500.000
G1 X6.011 Y122.586 Z-19.294 F2500.000
G1 X6.062 Y126.053 Z-19.314 F2500.000
G1 X6.253 Y138.951 Z-19.403 F2500.000
G1 X6.277 Y140.584 Z-19.410 F2500.000
G1 X6.288 Y141.318 Z-19.419 F2500.000
G1 X6.336 Y144.584 Z-19.436 F2500.000
G1 X6.358 Y146.050 Z-19.450 F2500.000
G1 X6.380 Y147.517 Z-19.457 F2500.000
G1 X6.619 Y163.648 Z-19.568 F2500.000
G1 X6.714 Y170.114 Z-19.608 F2500.000
G1 X7.003 Y189.646 Z-19.743 F2500.000
G1 X7.045 Y192.445 Z-19.758 F2500.000
G1 X7.160 Y200.244 Z-19.816 F2500.000
G1 X7.211 Y203.644 Z-19.835 F2500.000
G1 X7.232 Y205.044 Z-19.848 F2500.000
G1 X7.366 Y214.043 Z-19.906 F2500.000
G1 X7.323 Y214.197 Z-19.916 F2500.000
G1 X6.349 Y214.197 Z-20.087 F2500.000
G1 X5.376 Y214.197 Z-20.227 F2500.000
G1 X4.403 Y214.197 Z-20.348 F2500.000
G1 X3.429 Y214.197 Z-20.440 F2500.000
G1 X2.456 Y214.197 Z-20.508 F2500.000
G1 X1.483 Y214.197 Z-20.555 F2500.000
G1 X0.509 Y214.197 Z-20.575 F2500.000
G1 X-0.464 Y214.197 Z-20.576 F2500.000
G1 X-1.437 Y214.197 Z-20.556 F2500.000
G1 X-2.411 Y214.197 Z-20.510 F2500.000
G1 X-3.384 Y214.197 Z-20.444 F2500.000
G1 X-4.357 Y214.197 Z-20.353 F2500.000
G1 X-5.331 Y214.197 Z-20.233 F2500.000
G1 X-6.304 Y214.197 Z-20.094 F2500.000
G1 X-7.277 Y214.197 Z-19.924 F2500.000
G1 X-7.367 Y214.088 Z-19.907 F2500.000
G1 X-7.077 Y194.650 Z-19.777 F2500.000
G1 X-7.002 Y189.541 Z-19.742 F2500.000
G1 X-6.974 Y187.691 Z-19.725 F2500.000
G1 X-6.897 Y182.492 Z-19.695 F2500.000
G1 X-6.684 Y168.043 Z-19.597 F2500.000
G1 X-6.624 Y164.027 Z-19.566 F2500.000
G1 X-6.614 Y163.360 Z-19.565 F2500.000
G1 X-6.437 Y151.375 Z-19.486 F2500.000
G1 X-6.288 Y141.296 Z-19.414 F2500.000
G1 X-6.273 Y140.296 Z-19.412 F2500.000
G1 X-6.184 Y134.297 Z-19.372 F2500.000
G1 X-6.104 Y128.898 Z-19.332 F2500.000
G1 X-6.084 Y127.498 Z-19.327 F2500.000
G1 X-5.945 Y118.099 Z-19.264 F2500.000
G1 X-5.919 Y116.299 Z-19.249 F2500.000
G1 X-5.907 Y115.499 Z-19.247 F2500.000
G1 X-5.666 Y99.001 Z-19.134 F2500.000
G1 X-5.600 Y94.501 Z-19.107 F2500.000
G1 X-5.557 Y91.502 Z-19.084 F2500.000
G1 X-5.530 Y89.702 Z-19.076 F2500.000
G1 X-5.507 Y88.102 Z-19.062 F2500.000
G1 X-5.481 Y86.302 Z-19.053 F2500.000
G1 X-5.380 Y79.403 Z-19.005 F2500.000
G1 X-5.324 Y75.603 Z-18.983 F2500.000
G1 X-5.293 Y73.437 Z-18.965 F2500.000
G1 X-5.122 Y61.705 Z-18.891 F2500.000
G1 X-5.096 Y59.972 Z-18.876 F2500.000
G1 X-5.008 Y53.906 Z-18.840 F2500.000
G1 X-4.899 Y46.306 Z-18.789 F2500.000
G1 X-4.870 Y44.307 Z-18.772 F2500.000
G1 X-4.810 Y40.107 Z-18.748 F2500.000
G1 X-4.790 Y38.707 Z-18.736 F2500.000
G1 X-4.758 Y36.507 Z-18.724 F2500.000
G1 X-4.698 Y32.308 Z-18.696 F2500.000
G1 X-4.684 Y31.308 Z-18.686 F2500.000
G1 X-4.668 Y30.208 Z-18.682 F2500.000
G1 X-4.618 Y26.708 Z-18.657 F2500.000
G1 X-4.609 Y26.108 Z-18.655 F2500.000
G1 X-4.513 Y26.003 Z-18.669 F2500.000
G1 X-3.613 Y26.003 Z-18.791 F2500.000
G1 X-2.713 Y26.003 Z-18.888 F2500.000
G1 X-1.813 Y26.003 Z-18.959 F2500.000
G1 X-0.913 Y26.003 Z-19.001 F2500.000
G1 X-0.013 Y26.003 Z-19.016 F2500.000
G1 X0.887 Y26.003 Z-19.002 F2500.000
G1 X1.787 Y26.003 Z-18.961 F2500.000
G1 X2.687 Y26.003 Z-18.890 F2500.000
G1 X3.587 Y26.003 Z-18.794 F2500.000
G1 X4.487 Y26.003 Z-18.673 F2500.000
G1 X4.609 Y26.082 Z-18.655 F2500.000
G1 X4.626 Y27.282 Z-18.660 F2500.000
G1 X4.867 Y44.080 Z-18.774 F2500.000
G1 X4.953 Y50.079 Z-18.810 F2500.000
G1 X5.019 Y54.660 Z-18.844 F2500.000
(Break)
G1 X5.619 Y54.651 Z-18.739 F2500.000
(part 27.)
G1 X5.619 Y54.651 Z-18.739 F2500.000
G1 X5.627 Y55.251 Z-18.744 F2500.000
G1 X5.940 Y76.649 Z-18.884 F2500.000
G1 X5.987 Y79.849 Z-18.901 F2500.000
G1 X5.995 Y80.449 Z-18.909 F2500.000
G1 X6.033 Y83.048 Z-18.923 F2500.000
G1 X6.062 Y85.048 Z-18.939 F2500.000
G1 X6.167 Y92.247 Z-18.982 F2500.000
G1 X6.299 Y101.246 Z-19.044 F2500.000
G1 X6.322 Y102.846 Z-19.050 F2500.000
G1 X6.337 Y103.846 Z-19.060 F2500.000
G1 X6.343 Y104.246 Z-19.060 F2500.000
G1 X6.402 Y108.346 Z-19.091 F2500.000
G1 X6.524 Y116.645 Z-19.141 F2500.000
G1 X6.635 Y124.244 Z-19.194 F2500.000
G1 X6.881 Y140.842 Z-19.303 F2500.000
G1 X6.896 Y141.842 Z-19.307 F2500.000
G1 X6.973 Y147.041 Z-19.344 F2500.000
G1 X7.059 Y152.841 Z-19.378 F2500.000
G1 X7.115 Y156.640 Z-19.407 F2500.000
G1 X7.213 Y163.240 Z-19.446 F2500.000
G1 X7.266 Y166.839 Z-19.475 F2500.000
G1 X7.284 Y168.039 Z-19.478 F2500.000
G1 X7.381 Y174.638 Z-19.526 F2500.000
G1 X7.600 Y189.437 Z-19.622 F2500.000
G1 X7.695 Y195.836 Z-19.667 F2500.000
G1 X7.769 Y200.836 Z-19.697 F2500.000
G1 X7.838 Y205.435 Z-19.733 F2500.000
G1 X7.975 Y214.634 Z-19.792 F2500.000
G1 X7.941 Y214.797 Z-19.800 F2500.000
G1 X6.953 Y214.797 Z-19.990 F2500.000
G1 X5.966 Y214.797 Z-20.151 F2500.000
G1 X4.978 Y214.797 Z-20.286 F2500.000
G1 X3.991 Y214.797 Z-20.394 F2500.000
G1 X3.003 Y214.797 Z-20.478 F2500.000
G1 X2.016 Y214.797 Z-20.534 F2500.000
G1 X1.028 Y214.797 Z-20.572 F2500.000
G1 X0.041 Y214.797 Z-20.586 F2500.000
G1 X-0.947 Y214.797 Z-20.574 F2500.000
G1 X-1.934 Y214.797 Z-20.539 F2500.000
G1 X-2.922 Y214.797 Z-20.484 F2500.000
G1 X-3.909 Y214.797 Z-20.402 F2500.000
G1 X-4.897 Y214.797 Z-20.296 F2500.000
G1 X-5.884 Y214.797 Z-20.163 F2500.000
G1 X-6.872 Y214.797 Z-20.004 F2500.000
G1 X-7.859 Y214.797 Z-19.817 F2500.000
G1 X-7.976 Y214.715 Z-19.793 F2500.000
G1 X-7.794 Y202.516 Z-19.713 F2500.000
G1 X-7.770 Y200.917 Z-19.699 F2500.000
G1 X-7.741 Y198.917 Z-19.689 F2500.000
G1 X-7.667 Y193.917 Z-19.652 F2500.000
G1 X-7.622 Y190.918 Z-19.635 F2500.000
G1 X-7.596 Y189.118 Z-19.619 F2500.000
G1 X-7.563 Y186.918 Z-19.608 F2500.000
G1 X-7.516 Y183.719 Z-19.582 F2500.000
G1 X-7.483 Y181.519 Z-19.572 F2500.000
G1 X-7.468 Y180.519 Z-19.562 F2500.000
G1 X-7.421 Y177.319 Z-19.544 F2500.000
G1 X-7.199 Y162.321 Z-19.441 F2500.000
G1 X-7.184 Y161.321 Z-19.438 F2500.000
G1 X-7.098 Y155.522 Z-19.396 F2500.000
G1 X-7.057 Y152.722 Z-19.381 F2500.000
G1 X-6.971 Y146.923 Z-19.342 F2500.000
G1 X-6.950 Y145.523 Z-19.329 F2500.000
G1 X-6.915 Y143.123 Z-19.318 F2500.000
G1 X-6.820 Y136.724 Z-19.271 F2500.000
G1 X-6.805 Y135.724 Z-19.269 F2500.000
G1 X-6.699 Y128.525 Z-19.219 F2500.000
G1 X-6.554 Y118.726 Z-19.158 F2500.000
G1 X-6.484 Y113.926 Z-19.122 F2500.000
G1 X-6.358 Y105.327 Z-19.071 F2500.000
G1 X-6.271 Y99.328 Z-19.028 F2500.000
G1 X-6.250 Y97.928 Z-19.022 F2500.000
G1 X-6.169 Y92.328 Z-18.983 F2500.000
G1 X-6.046 Y83.929 Z-18.931 F2500.000
G1 X-6.011 Y81.530 Z-18.911 F2500.000
G1 X-5.985 Y79.730 Z-18.904 F2500.000
G1 X-5.958 Y77.930 Z-18.889 F2500.000
G1 X-5.871 Y71.931 Z-18.854 F2500.000
G1 X-5.807 Y67.531 Z-18.822 F2500.000
G1 X-5.792 Y66.531 Z-18.819 F2500.000
G1 X-5.649 Y56.732 Z-18.752 F2500.000
G1 X-5.585 Y52.333 Z-18.727 F2500.000
G1 X-5.568 Y51.133 Z-18.714 F2500.000
G1 X-5.517 Y47.533 Z-18.696 F2500.000
G1 X-5.267 Y30.135 Z-18.582 F2500.000
G1 X-5.250 Y28.935 Z-18.571 F2500.000
G1 X-5.227 Y27.335 Z-18.564 F2500.000
G1 X-5.201 Y25.535 Z-18.550 F2500.000
G1 X-5.132 Y25.403 Z-18.561 F2500.000
G1 X-4.205 Y25.403 Z-18.708 F2500.000
G1 X-3.277 Y25.403 Z-18.826 F2500.000
G1 X-2.350 Y25.403 Z-18.916 F2500.000
G1 X-1.423 Y25.403 Z-18.974 F2500.000
G1 X-0.495 Y25.403 Z-19.003 F2500.000
G1 X0.432 Y25.403 Z-19.004 F2500.000
G1 X1.359 Y25.403 Z-18.977 F2500.000
G1 X2.286 Y25.403 Z-18.921 F2500.000
G1 X3.214 Y25.403 Z-18.833 F2500.000
G1 X4.141 Y25.403 Z-18.717 F2500.000
G1 X5.068 Y25.403 Z-18.572 F2500.000
G1 X5.200 Y25.472 Z-18.549 F2500.000
G1 X5.321 Y33.871 Z-18.606 F2500.000
G1 X5.352 Y36.071 Z-18.617 F2500.000
G1 X5.415 Y40.470 Z-18.650 F2500.000
G1 X5.450 Y42.870 Z-18.662 F2500.000
G1 X5.493 Y45.870 Z-18.685 F2500.000
G1 X5.619 Y54.651 Z-18.739 F2500.000
(Break)
G1 X6.219 Y54.643 Z-18.624 F2500.000
(part 29.)
G1 X6.219 Y54.643 Z-18.624 F2500.000
G1 X6.229 Y55.343 Z-18.630 F2500.000
G1 X6.283 Y59.042 Z-18.655 F2500.000
G1 X6.344 Y63.242 Z-18.678 F2500.000
G1 X6.411 Y67.841 Z-18.711 F2500.000
G1 X6.452 Y70.641 Z-18.726 F2500.000
G1 X6.601 Y80.840 Z-18.794 F2500.000
G1 X6.678 Y86.139 Z-18.824 F2500.000
G1 X6.703 Y87.839 Z-18.839 F2500.000
G1 X6.762 Y91.839 Z-18.864 F2500.000
G1 X6.776 Y92.839 Z-18.867 F2500.000
G1 X6.829 Y96.438 Z-18.894 F2500.000
G1 X7.129 Y117.036 Z-19.026 F2500.000
G1 X7.226 Y123.635 Z-19.065 F2500.000
G1 X7.256 Y125.635 Z-19.081 F2500.000
G1 X7.505 Y142.433 Z-19.190 F2500.000
G1 X7.564 Y146.433 Z-19.212 F2500.000
G1 X7.579 Y147.433 Z-19.221 F2500.000
G1 X7.588 Y148.033 Z-19.222 F2500.000
G1 X7.599 Y148.833 Z-19.230 F2500.000
G1 X7.667 Y153.432 Z-19.258 F2500.000
G1 X7.688 Y154.832 Z-19.270 F2500.000
G1 X7.733 Y157.832 Z-19.287 F2500.000
G1 X7.777 Y160.831 Z-19.310 F2500.000
G1 X7.795 Y162.031 Z-19.314 F2500.000
G1 X7.815 Y163.431 Z-19.327 F2500.000
G1 X7.913 Y170.030 Z-19.367 F2500.000
G1 X7.955 Y172.830 Z-19.388 F2500.000
G1 X8.014 Y176.829 Z-19.411 F2500.000
G1 X8.032 Y178.029 Z-19.422 F2500.000
G1 X8.168 Y187.228 Z-19.480 F2500.000
G1 X8.197 Y189.228 Z-19.496 F2500.000
G1 X8.239 Y192.028 Z-19.510 F2500.000
G1 X8.259 Y193.428 Z-19.524 F2500.000
G1 X8.280 Y194.827 Z-19.530 F2500.000
G1 X8.375 Y201.227 Z-19.576 F2500.000
G1 X8.494 Y209.226 Z-19.627 F2500.000
G1 X8.584 Y215.225 Z-19.669 F2500.000
G1 X8.558 Y215.397 Z-19.676 F2500.000
G1 X7.558 Y215.397 Z-19.884 F2500.000
G1 X6.558 Y215.397 Z-20.065 F2500.000
G1 X5.558 Y215.397 Z-20.217 F2500.000
G1 X4.558 Y215.397 Z-20.340 F2500.000
G1 X3.558 Y215.397 Z-20.438 F2500.000
G1 X2.558 Y215.397 Z-20.512 F2500.000
G1 X1.558 Y215.397 Z-20.560 F2500.000
G1 X0.558 Y215.397 Z-20.585 F2500.000
G1 X-0.442 Y215.397 Z-20.586 F2500.000
G1 X-1.442 Y215.397 Z-20.563 F2500.000
G1 X-2.442 Y215.397 Z-20.518 F2500.000
G1 X-3.442 Y215.397 Z-20.448 F2500.000
G1 X-4.442 Y215.397 Z-20.353 F2500.000
G1 X-5.442 Y215.397 Z-20.233 F2500.000
G1 X-6.442 Y215.397 Z-20.083 F2500.000
G1 X-7.442 Y215.397 Z-19.906 F2500.000
G1 X-8.442 Y215.397 Z-19.702 F2500.000
G1 X-8.585 Y215.342 Z-19.670 F2500.000
G1 X-8.556 Y213.342 Z-19.654 F2500.000
G1 X-8.538 Y212.142 Z-19.649 F2500.000
G1 X-8.223 Y190.945 Z-19.505 F2500.000
G1 X-8.192 Y188.845 Z-19.494 F2500.000
G1 X-8.146 Y185.745 Z-19.468 F2500.000
G1 X-8.089 Y181.946 Z-19.449 F2500.000
G1 X-8.030 Y177.946 Z-19.422 F2500.000
G1 X-8.013 Y176.746 Z-19.410 F2500.000
G1 X-7.927 Y170.947 Z-19.375 F2500.000
G1 X-7.693 Y155.149 Z-19.269 F2500.000
G1 X-7.675 Y153.949 Z-19.265 F2500.000
G1 X-7.651 Y152.349 Z-19.250 F2500.000
G1 X-7.595 Y148.549 Z-19.229 F2500.000
G1 X-7.574 Y147.149 Z-19.216 F2500.000
G1 X-7.551 Y145.550 Z-19.209 F2500.000
G1 X-7.500 Y142.150 Z-19.185 F2500.000
G1 X-7.412 Y136.151 Z-19.149 F2500.000
G1 X-7.273 Y126.752 Z-19.085 F2500.000
G1 X-7.196 Y121.552 Z-19.055 F2500.000
G1 X-7.028 Y110.087 Z-18.978 F2500.000
G1 X-6.926 Y103.088 Z-18.936 F2500.000
G1 X-6.906 Y101.754 Z-18.924 F2500.000
G1 X-6.830 Y96.555 Z-18.895 F2500.000
G1 X-6.765 Y92.089 Z-18.863 F2500.000
G1 X-6.451 Y70.558 Z-18.728 F2500.000
G1 X-6.440 Y69.824 Z-18.720 F2500.000
G1 X-6.419 Y68.358 Z-18.714 F2500.000
G1 X-6.393 Y66.558 Z-18.700 F2500.000
G1 X-6.317 Y61.409 Z-18.670 F2500.000
G1 X-6.296 Y59.959 Z-18.657 F2500.000
G1 X-6.287 Y59.359 Z-18.657 F2500.000
G1 X-6.277 Y58.626 Z-18.649 F2500.000
G1 X-6.255 Y57.159 Z-18.643 F2500.000
G1 X-6.203 Y53.559 Z-18.617 F2500.000
G1 X-6.168 Y51.080 Z-18.605 F2500.000
G1 X-5.793 Y24.962 Z-18.438 F2500.000
G1 X-5.750 Y24.803 Z-18.445 F2500.000
G1 X-4.800 Y24.803 Z-18.613 F2500.000
G1 X-3.850 Y24.803 Z-18.751 F2500.000
G1 X-2.900 Y24.803 Z-18.861 F2500.000
G1 X-1.950 Y24.803 Z-18.937 F2500.000
G1 X-1.000 Y24.803 Z-18.988 F2500.000
G1 X-0.050 Y24.803 Z-19.005 F2500.000
G1 X0.900 Y24.803 Z-18.991 F2500.000
G1 X1.850 Y24.803 Z-18.944 F2500.000
G1 X2.800 Y24.803 Z-18.871 F2500.000
G1 X3.750 Y24.803 Z-18.764 F2500.000
G1 X4.700 Y24.803 Z-18.630 F2500.000
G1 X5.650 Y24.803 Z-18.463 F2500.000
G1 X5.791 Y24.862 Z-18.438 F2500.000
G1 X6.032 Y41.660 Z-18.545 F2500.000
G1 X6.104 Y46.660 Z-18.573 F2500.000
G1 X6.127 Y48.259 Z-18.586 F2500.000
G1 X6.190 Y52.659 Z-18.615 F2500.000
G1 X6.219 Y54.643 Z-18.624 F2500.000
(Break)
G1 X6.819 Y54.634 Z-18.500 F2500.000
(part 31.)
G1 X6.819 Y54.634 Z-18.500 F2500.000
G1 X6.833 Y55.634 Z-18.506 F2500.000
G1 X6.903 Y60.433 Z-18.537 F2500.000
G1 X6.938 Y62.833 Z-18.548 F2500.000
G1 X6.956 Y64.033 Z-18.560 F2500.000
G1 X7.204 Y81.031 Z-18.667 F2500.000
G1 X7.248 Y84.031 Z-18.683 F2500.000
G1 X7.283 Y86.430 Z-18.701 F2500.000
G1 X7.306 Y88.030 Z-18.707 F2500.000
G1 X7.344 Y90.630 Z-18.726 F2500.000
G1 X7.376 Y92.830 Z-18.738 F2500.000
G1 X7.385 Y93.430 Z-18.744 F2500.000
G1 X7.397 Y94.230 Z-18.747 F2500.000
G1 X7.423 Y96.029 Z-18.761 F2500.000
G1 X7.700 Y115.027 Z-18.882 F2500.000
G1 X7.721 Y116.427 Z-18.890 F2500.000
G1 X7.729 Y117.027 Z-18.889 F2500.000
G1 X7.818 Y123.027 Z-18.932 F2500.000
G1 X7.933 Y130.826 Z-18.977 F2500.000
G1 X7.954 Y132.226 Z-18.991 F2500.000
G1 X8.001 Y135.425 Z-19.007 F2500.000
G1 X8.019 Y136.625 Z-19.017 F2500.000
G1 X8.152 Y145.624 Z-19.072 F2500.000
G1 X8.173 Y147.024 Z-19.085 F2500.000
G1 X8.214 Y149.824 Z-19.099 F2500.000
G1 X8.235 Y151.223 Z-19.112 F2500.000
G1 X8.356 Y159.423 Z-19.165 F2500.000
G1 X8.377 Y160.822 Z-19.169 F2500.000
G1 X8.415 Y163.422 Z-19.190 F2500.000
G1 X8.516 Y170.221 Z-19.231 F2500.000
G1 X8.537 Y171.621 Z-19.243 F2500.000
G1 X8.626 Y177.621 Z-19.283 F2500.000
G1 X8.708 Y183.220 Z-19.315 F2500.000
G1 X8.830 Y191.419 Z-19.373 F2500.000
G1 X8.901 Y196.219 Z-19.401 F2500.000
G1 X9.012 Y203.718 Z-19.453 F2500.000
G1 X9.145 Y212.617 Z-19.509 F2500.000
G1 X9.193 Y215.816 Z-19.533 F2500.000
G1 X9.176 Y215.997 Z-19.539 F2500.000
G1 X8.218 Y215.997 Z-19.753 F2500.000
G1 X7.260 Y215.997 Z-19.945 F2500.000
G1 X6.303 Y215.997 Z-20.112 F2500.000
G1 X5.345 Y215.997 Z-20.251 F2500.000
G1 X4.387 Y215.997 Z-20.364 F2500.000
G1 X3.429 Y215.997 Z-20.456 F2500.000
G1 X2.471 Y215.997 Z-20.522 F2500.000
G1 X1.513 Y215.997 Z-20.567 F2500.000
G1 X0.555 Y215.997 Z-20.590 F2500.000
G1 X-0.403 Y215.997 Z-20.591 F2500.000
G1 X-1.361 Y215.997 Z-20.572 F2500.000
G1 X-2.319 Y215.997 Z-20.531 F2500.000
G1 X-3.276 Y215.997 Z-20.467 F2500.000
G1 X-4.234 Y215.997 Z-20.380 F2500.000
G1 X-5.192 Y215.997 Z-20.270 F2500.000
G1 X-6.150 Y215.997 Z-20.136 F2500.000
G1 X-7.108 Y215.997 Z-19.973 F2500.000
G1 X-8.066 Y215.997 Z-19.786 F2500.000
G1 X-9.024 Y215.997 Z-19.575 F2500.000
G1 X-9.195 Y215.969 Z-19.534 F2500.000
G1 X-9.159 Y213.569 Z-19.514 F2500.000
G1 X-9.147 Y212.769 Z-19.513 F2500.000
G1 X-9.085 Y208.570 Z-19.485 F2500.000
G1 X-9.064 Y207.170 Z-19.472 F2500.000
G1 X-9.046 Y205.970 Z-19.468 F2500.000
G1 X-8.971 Y200.970 Z-19.431 F2500.000
G1 X-8.933 Y198.371 Z-19.417 F2500.000
G1 X-8.912 Y196.971 Z-19.405 F2500.000
G1 X-8.841 Y192.171 Z-19.377 F2500.000
G1 X-8.817 Y190.572 Z-19.362 F2500.000
G1 X-8.740 Y185.372 Z-19.333 F2500.000
G1 X-8.678 Y181.173 Z-19.301 F2500.000
G1 X-8.640 Y178.573 Z-19.289 F2500.000
G1 X-8.483 Y167.974 Z-19.217 F2500.000
G1 X-8.441 Y165.174 Z-19.202 F2500.000
G1 X-8.424 Y163.975 Z-19.189 F2500.000
G1 X-8.412 Y163.175 Z-19.188 F2500.000
G1 X-8.353 Y159.175 Z-19.158 F2500.000
G1 X-8.311 Y156.375 Z-19.145 F2500.000
G1 X-8.261 Y152.976 Z-19.120 F2500.000
G1 X-8.252 Y152.376 Z-19.120 F2500.000
G1 X-8.193 Y148.376 Z-19.091 F2500.000
G1 X-8.128 Y143.977 Z-19.065 F2500.000
G1 X-8.119 Y143.377 Z-19.058 F2500.000
G1 X-8.080 Y140.777 Z-19.045 F2500.000
G1 X-8.015 Y136.378 Z-19.017 F2500.000
G1 X-8.006 Y135.778 Z-19.010 F2500.000
G1 X-7.971 Y133.378 Z-18.994 F2500.000
G1 X-7.820 Y123.179 Z-18.933 F2500.000
G1 X-7.787 Y120.979 Z-18.916 F2500.000
G1 X-7.702 Y115.180 Z-18.882 F2500.000
G1 X-7.673 Y113.180 Z-18.866 F2500.000
G1 X-7.589 Y107.381 Z-18.833 F2500.000
G1 X-7.486 Y100.381 Z-18.784 F2500.000
G1 X-7.463 Y98.782 Z-18.778 F2500.000
G1 X-7.443 Y97.382 Z-18.767 F2500.000
G1 X-7.197 Y80.584 Z-18.664 F2500.000
G1 X-7.092 Y73.384 Z-18.616 F2500.000
G1 X-7.031 Y69.185 Z-18.593 F2500.000
G1 X-6.993 Y66.585 Z-18.573 F2500.000
G1 X-6.981 Y65.785 Z-18.571 F2500.000
G1 X-6.821 Y54.786 Z-18.503 F2500.000
G1 X-6.771 Y51.287 Z-18.476 F2500.000
G1 X-6.718 Y47.637 Z-18.458 F2500.000
G1 X-6.691 Y45.737 Z-18.443 F2500.000
G1 X-6.385 Y24.389 Z-18.311 F2500.000
G1 X-6.369 Y24.203 Z-18.312 F2500.000
G1 X-5.399 Y24.203 Z-18.504 F2500.000
G1 X-4.430 Y24.203 Z-18.665 F2500.000
G1 X-3.461 Y24.203 Z-18.793 F2500.000
G1 X-2.492 Y24.203 Z-18.894 F2500.000
G1 X-1.523 Y24.203 Z-18.960 F2500.000
G1 X-0.553 Y24.203 Z-18.991 F2500.000
G1 X0.416 Y24.203 Z-18.994 F2500.000
G1 X1.385 Y24.203 Z-18.966 F2500.000
G1 X2.354 Y24.203 Z-18.904 F2500.000
G1 X3.324 Y24.203 Z-18.808 F2500.000
G1 X4.293 Y24.203 Z-18.686 F2500.000
G1 X5.262 Y24.203 Z-18.528 F2500.000
G1 X6.231 Y24.203 Z-18.342 F2500.000
G1 X6.383 Y24.252 Z-18.310 F2500.000
G1 X6.819 Y54.634 Z-18.500 F2500.000
(Break)
G1 X7.419 Y54.625 Z-18.363 F2500.000
(part 33.)
G1 X7.419 Y54.625 Z-18.363 F2500.000
G1 X7.426 Y55.125 Z-18.366 F2500.000
G1 X7.798 Y80.622 Z-18.524 F2500.000
G1 X7.807 Y81.222 Z-18.524 F2500.000
G1 X7.868 Y85.422 Z-18.550 F2500.000
G1 X7.900 Y87.622 Z-18.567 F2500.000
G1 X7.999 Y94.421 Z-18.606 F2500.000
G1 X8.020 Y95.821 Z-18.618 F2500.000
G1 X8.061 Y98.620 Z-18.631 F2500.000
G1 X8.081 Y100.020 Z-18.645 F2500.000
G1 X8.210 Y108.819 Z-18.696 F2500.000
G1 X8.224 Y109.819 Z-18.705 F2500.000
G1 X8.356 Y118.818 Z-18.762 F2500.000
G1 X8.367 Y119.618 Z-18.764 F2500.000
G1 X8.409 Y122.418 Z-18.784 F2500.000
G1 X8.435 Y124.218 Z-18.793 F2500.000
G1 X8.488 Y127.817 Z-18.818 F2500.000
G1 X8.527 Y130.417 Z-18.831 F2500.000
G1 X8.536 Y131.017 Z-18.838 F2500.000
G1 X8.551 Y132.017 Z-18.839 F2500.000
G1 X8.580 Y134.017 Z-18.857 F2500.000
G1 X8.634 Y137.616 Z-18.880 F2500.000
G1 X8.645 Y138.416 Z-18.882 F2500.000
G1 X8.770 Y146.815 Z-18.938 F2500.000
G1 X8.790 Y148.215 Z-18.943 F2500.000
G1 X8.817 Y150.015 Z-18.958 F2500.000
G1 X8.835 Y151.215 Z-18.961 F2500.000
G1 X8.924 Y157.214 Z-19.004 F2500.000
G1 X8.980 Y161.014 Z-19.028 F2500.000
G1 X8.995 Y162.014 Z-19.031 F2500.000
G1 X9.057 Y166.213 Z-19.061 F2500.000
G1 X9.125 Y170.813 Z-19.088 F2500.000
G1 X9.222 Y177.412 Z-19.132 F2500.000
G1 X9.240 Y178.612 Z-19.136 F2500.000
G1 X9.267 Y180.412 Z-19.152 F2500.000
G1 X9.459 Y193.410 Z-19.235 F2500.000
G1 X9.486 Y195.210 Z-19.244 F2500.000
G1 X9.518 Y197.410 Z-19.261 F2500.000
G1 X9.799 Y216.208 Z-19.383 F2500.000
G1 X9.802 Y216.408 Z-19.384 F2500.000
G1 X9.794 Y216.597 Z-19.389 F2500.000
G1 X8.824 Y216.597 Z-19.628 F2500.000
G1 X7.854 Y216.597 Z-19.838 F2500.000
G1 X6.884 Y216.597 Z-20.020 F2500.000
G1 X5.914 Y216.597 Z-20.176 F2500.000
G1 X4.944 Y216.597 Z-20.306 F2500.000
G1 X3.974 Y216.597 Z-20.412 F2500.000
G1 X3.004 Y216.597 Z-20.493 F2500.000
G1 X2.034 Y216.597 Z-20.552 F2500.000
G1 X1.064 Y216.597 Z-20.587 F2500.000
G1 X0.094 Y216.597 Z-20.600 F2500.000
G1 X-0.876 Y216.597 Z-20.592 F2500.000
G1 X-1.846 Y216.597 Z-20.561 F2500.000
G1 X-2.816 Y216.597 Z-20.507 F2500.000
G1 X-3.786 Y216.597 Z-20.429 F2500.000
G1 X-4.756 Y216.597 Z-20.328 F2500.000
G1 X-5.726 Y216.597 Z-20.203 F2500.000
G1 X-6.696 Y216.597 Z-20.052 F2500.000
G1 X-7.666 Y216.597 Z-19.876 F2500.000
G1 X-8.636 Y216.597 Z-19.671 F2500.000
G1 X-9.804 Y216.596 Z-19.387 F2500.000
G1 X-9.786 Y215.396 Z-19.374 F2500.000
G1 X-9.772 Y214.396 Z-19.372 F2500.000
G1 X-9.760 Y213.596 Z-19.364 F2500.000
G1 X-9.715 Y210.596 Z-19.347 F2500.000
G1 X-9.646 Y205.997 Z-19.314 F2500.000
G1 X-9.601 Y202.997 Z-19.298 F2500.000
G1 X-9.329 Y184.599 Z-19.176 F2500.000
G1 X-9.255 Y179.600 Z-19.147 F2500.000
G1 X-9.205 Y176.200 Z-19.121 F2500.000
G1 X-9.172 Y174.000 Z-19.111 F2500.000
G1 X-9.151 Y172.601 Z-19.097 F2500.000
G1 X-9.098 Y169.001 Z-19.079 F2500.000
G1 X-9.027 Y164.201 Z-19.045 F2500.000
G1 X-9.003 Y162.602 Z-19.038 F2500.000
G1 X-8.941 Y158.402 Z-19.011 F2500.000
G1 X-8.929 Y157.602 Z-19.003 F2500.000
G1 X-8.805 Y149.203 Z-18.953 F2500.000
G1 X-8.775 Y147.203 Z-18.935 F2500.000
G1 X-8.740 Y144.804 Z-18.925 F2500.000
G1 X-8.698 Y142.004 Z-18.904 F2500.000
G1 X-8.450 Y125.206 Z-18.802 F2500.000
G1 X-8.392 Y121.306 Z-18.775 F2500.000
G1 X-8.291 Y114.407 Z-18.734 F2500.000
G1 X-8.248 Y111.474 Z-18.713 F2500.000
G1 X-8.066 Y99.008 Z-18.638 F2500.000
G1 X-8.031 Y96.609 Z-18.619 F2500.000
G1 X-7.999 Y94.409 Z-18.610 F2500.000
G1 X-7.942 Y90.509 Z-18.583 F2500.000
G1 X-7.804 Y81.010 Z-18.527 F2500.000
G1 X-7.791 Y80.111 Z-18.517 F2500.000
G1 X-7.748 Y77.211 Z-18.502 F2500.000
G1 X-7.719 Y75.211 Z-18.487 F2500.000
G1 X-7.701 Y74.011 Z-18.483 F2500.000
G1 X-7.662 Y71.311 Z-18.467 F2500.000
G1 X-7.627 Y68.912 Z-18.452 F2500.000
G1 X-7.608 Y67.612 Z-18.439 F2500.000
G1 X-7.596 Y66.812 Z-18.439 F2500.000
G1 X-7.410 Y54.013 Z-18.360 F2500.000
G1 X-6.974 Y23.616 Z-18.171 F2500.000
G1 X-6.787 Y23.603 Z-18.215 F2500.000
G1 X-5.816 Y23.603 Z-18.420 F2500.000
G1 X-4.844 Y23.603 Z-18.594 F2500.000
G1 X-3.873 Y23.603 Z-18.738 F2500.000
G1 X-2.901 Y23.603 Z-18.851 F2500.000
G1 X-1.930 Y23.603 Z-18.930 F2500.000
G1 X-0.959 Y23.603 Z-18.978 F2500.000
G1 X0.013 Y23.603 Z-18.996 F2500.000
G1 X0.984 Y23.603 Z-18.977 F2500.000
G1 X1.956 Y23.603 Z-18.928 F2500.000
G1 X2.927 Y23.603 Z-18.848 F2500.000
G1 X3.899 Y23.603 Z-18.735 F2500.000
G1 X4.870 Y23.603 Z-18.591 F2500.000
G1 X5.841 Y23.603 Z-18.415 F2500.000
G1 X6.813 Y23.603 Z-18.210 F2500.000
G1 X6.974 Y23.642 Z-18.172 F2500.000
G1 X7.419 Y54.625 Z-18.363 F2500.000
(Break)
G1 X8.018 Y54.616 Z-18.214 F2500.000
(part 35.)
G1 X8.018 Y54.616 Z-18.214 F2500.000
G1 X8.021 Y54.816 Z-18.215 F2500.000
G1 X8.156 Y64.015 Z-18.271 F2500.000
G1 X8.182 Y65.815 Z-18.278 F2500.000
G1 X8.199 Y67.015 Z-18.290 F2500.000
G1 X8.305 Y74.214 Z-18.330 F2500.000
G1 X8.328 Y75.814 Z-18.343 F2500.000
G1 X8.401 Y80.814 Z-18.369 F2500.000
G1 X8.410 Y81.413 Z-18.376 F2500.000
G1 X8.462 Y85.013 Z-18.399 F2500.000
G1 X8.591 Y93.812 Z-18.449 F2500.000
G1 X8.599 Y94.412 Z-18.457 F2500.000
G1 X8.611 Y95.212 Z-18.456 F2500.000
G1 X8.634 Y96.812 Z-18.471 F2500.000
G1 X8.666 Y99.012 Z-18.485 F2500.000
G1 X8.734 Y103.611 Z-18.510 F2500.000
G1 X8.824 Y109.810 Z-18.552 F2500.000
G1 X8.885 Y114.010 Z-18.574 F2500.000
G1 X8.894 Y114.610 Z-18.581 F2500.000
G1 X8.926 Y116.810 Z-18.591 F2500.000
G1 X8.950 Y118.410 Z-18.604 F2500.000
G1 X8.967 Y119.609 Z-18.609 F2500.000
G1 X8.982 Y120.609 Z-18.618 F2500.000
G1 X9.097 Y128.408 Z-18.666 F2500.000
G1 X9.121 Y130.008 Z-18.673 F2500.000
G1 X9.154 Y132.208 Z-18.690 F2500.000
G1 X9.177 Y133.808 Z-18.696 F2500.000
G1 X9.210 Y136.008 Z-18.714 F2500.000
G1 X9.228 Y137.208 Z-18.716 F2500.000
G1 X9.260 Y139.407 Z-18.735 F2500.000
G1 X9.343 Y145.007 Z-18.767 F2500.000
G1 X9.370 Y146.806 Z-18.781 F2500.000
G1 X9.396 Y148.606 Z-18.789 F2500.000
G1 X9.654 Y166.004 Z-18.901 F2500.000
G1 X9.666 Y166.804 Z-18.902 F2500.000
G1 X9.692 Y168.604 Z-18.918 F2500.000
G1 X9.787 Y175.003 Z-18.955 F2500.000
G1 X9.840 Y178.603 Z-18.981 F2500.000
G1 X9.858 Y179.803 Z-18.984 F2500.000
G1 X9.891 Y182.003 Z-19.002 F2500.000
G1 X9.914 Y183.602 Z-19.007 F2500.000
G1 X9.932 Y184.802 Z-19.019 F2500.000
G1 X9.970 Y187.402 Z-19.036 F2500.000
G1 X9.994 Y189.002 Z-19.042 F2500.000
G1 X10.003 Y189.602 Z-19.050 F2500.000
G1 X10.041 Y192.201 Z-19.068 F2500.000
G1 X10.110 Y196.801 Z-19.094 F2500.000
G1 X10.133 Y198.401 Z-19.107 F2500.000
G1 X10.154 Y199.801 Z-19.112 F2500.000
G1 X10.169 Y200.801 Z-19.122 F2500.000
G1 X10.282 Y208.400 Z-19.171 F2500.000
G1 X10.300 Y209.600 Z-19.175 F2500.000
G1 X10.324 Y211.199 Z-19.189 F2500.000
G1 X10.369 Y214.199 Z-19.204 F2500.000
G1 X10.390 Y215.599 Z-19.217 F2500.000
G1 X10.404 Y216.599 Z-19.220 F2500.000
G1 X10.412 Y217.197 Z-19.226 F2500.000
G1 X9.421 Y217.197 Z-19.488 F2500.000
G1 X8.431 Y217.197 Z-19.720 F2500.000
G1 X7.440 Y217.197 Z-19.924 F2500.000
G1 X6.450 Y217.197 Z-20.099 F2500.000
G1 X5.460 Y217.197 Z-20.245 F2500.000
G1 X4.469 Y217.197 Z-20.368 F2500.000
G1 X3.479 Y217.197 Z-20.462 F2500.000
G1 X2.488 Y217.197 Z-20.532 F2500.000
G1 X1.498 Y217.197 Z-20.578 F2500.000
G1 X0.507 Y217.197 Z-20.600 F2500.000
G1 X-0.483 Y217.197 Z-20.601 F2500.000
G1 X-1.474 Y217.197 Z-20.578 F2500.000
G1 X-2.464 Y217.197 Z-20.534 F2500.000
G1 X-3.455 Y217.197 Z-20.464 F2500.000
G1 X-4.445 Y217.197 Z-20.370 F2500.000
G1 X-5.436 Y217.197 Z-20.248 F2500.000
G1 X-6.426 Y217.197 Z-20.102 F2500.000
G1 X-7.417 Y217.197 Z-19.928 F2500.000
G1 X-8.407 Y217.197 Z-19.725 F2500.000
G1 X-9.398 Y217.197 Z-19.494 F2500.000
G1 X-10.388 Y217.197 Z-19.233 F2500.000
G1 X-10.411 Y217.023 Z-19.224 F2500.000
G1 X-10.381 Y215.023 Z-19.214 F2500.000
G1 X-10.282 Y208.423 Z-19.168 F2500.000
G1 X-10.250 Y206.224 Z-19.157 F2500.000
G1 X-10.235 Y205.224 Z-19.146 F2500.000
G1 X-10.169 Y200.824 Z-19.121 F2500.000
G1 X-10.113 Y197.025 Z-19.093 F2500.000
G1 X-10.101 Y196.225 Z-19.091 F2500.000
G1 X-10.089 Y195.425 Z-19.083 F2500.000
G1 X-10.033 Y191.625 Z-19.064 F2500.000
G1 X-9.947 Y185.826 Z-19.026 F2500.000
G1 X-9.926 Y184.426 Z-19.014 F2500.000
G1 X-9.764 Y173.427 Z-18.948 F2500.000
G1 X-9.731 Y171.228 Z-18.930 F2500.000
G1 X-9.693 Y168.628 Z-18.918 F2500.000
G1 X-9.681 Y167.828 Z-18.908 F2500.000
G1 X-9.672 Y167.228 Z-18.908 F2500.000
G1 X-9.639 Y165.028 Z-18.892 F2500.000
G1 X-9.613 Y163.228 Z-18.884 F2500.000
G1 X-9.414 Y149.830 Z-18.797 F2500.000
G1 X-9.240 Y138.031 Z-18.726 F2500.000
G1 X-9.192 Y134.832 Z-18.701 F2500.000
G1 X-9.169 Y133.232 Z-18.697 F2500.000
G1 X-9.148 Y131.832 Z-18.683 F2500.000
G1 X-9.068 Y126.432 Z-18.654 F2500.000
G1 X-9.038 Y124.433 Z-18.638 F2500.000
G1 X-8.953 Y118.633 Z-18.605 F2500.000
G1 X-8.921 Y116.434 Z-18.588 F2500.000
G1 X-8.903 Y115.234 Z-18.585 F2500.000
G1 X-8.886 Y114.034 Z-18.574 F2500.000
G1 X-8.859 Y112.234 Z-18.566 F2500.000
G1 X-8.851 Y111.634 Z-18.560 F2500.000
G1 X-8.784 Y107.035 Z-18.535 F2500.000
G1 X-8.696 Y101.035 Z-18.493 F2500.000
G1 X-8.690 Y100.635 Z-18.494 F2500.000
G1 X-8.679 Y99.835 Z-18.485 F2500.000
G1 X-8.620 Y95.836 Z-18.466 F2500.000
G1 X-8.597 Y94.236 Z-18.453 F2500.000
G1 X-8.518 Y88.837 Z-18.423 F2500.000
G1 X-8.398 Y80.637 Z-18.368 F2500.000
G1 X-8.369 Y78.638 Z-18.360 F2500.000
G1 X-8.317 Y75.038 Z-18.339 F2500.000
G1 X-8.290 Y73.238 Z-18.324 F2500.000
G1 X-8.273 Y72.038 Z-18.321 F2500.000
G1 X-8.194 Y66.639 Z-18.285 F2500.000
G1 X-8.182 Y65.839 Z-18.283 F2500.000
G1 X-8.153 Y63.839 Z-18.266 F2500.000
G1 X-8.136 Y62.639 Z-18.264 F2500.000
G1 X-7.970 Y51.241 Z-18.192 F2500.000
G1 X-7.884 Y45.241 Z-18.159 F2500.000
G1 X-7.864 Y43.841 Z-18.145 F2500.000
G1 X-7.855 Y43.241 Z-18.146 F2500.000
G1 X-7.847 Y42.641 Z-18.138 F2500.000
G1 X-7.829 Y41.442 Z-18.135 F2500.000
G1 X-7.752 Y36.042 Z-18.100 F2500.000
G1 X-7.732 Y34.642 Z-18.095 F2500.000
G1 X-7.700 Y32.442 Z-18.078 F2500.000
G1 X-7.650 Y28.943 Z-18.061 F2500.000
G1 X-7.566 Y23.043 Z-18.024 F2500.000
G1 X-7.406 Y23.003 Z-18.062 F2500.000
G1 X-6.419 Y23.003 Z-18.292 F2500.000
G1 X-5.432 Y23.003 Z-18.487 F2500.000
G1 X-4.446 Y23.003 Z-18.652 F2500.000
G1 X-3.459 Y23.003 Z-18.782 F2500.000
G1 X-2.472 Y23.003 Z-18.884 F2500.000
G1 X-1.486 Y23.003 Z-18.952 F2500.000
G1 X-0.499 Y23.003 Z-18.985 F2500.000
G1 X0.488 Y23.003 Z-18.985 F2500.000
G1 X1.474 Y23.003 Z-18.953 F2500.000
G1 X2.461 Y23.003 Z-18.885 F2500.000
G1 X3.448 Y23.003 Z-18.783 F2500.000
G1 X4.434 Y23.003 Z-18.653 F2500.000
G1 X5.421 Y23.003 Z-18.491 F2500.000
G1 X6.408 Y23.003 Z-18.294 F2500.000
G1 X7.394 Y23.003 Z-18.067 F2500.000
G1 X7.565 Y23.032 Z-18.024 F2500.000
G1 X7.884 Y45.230 Z-18.156 F2500.000
G1 X7.918 Y47.630 Z-18.173 F2500.000
G1 X7.967 Y51.029 Z-18.190 F2500.000
G1 X8.018 Y54.616 Z-18.214 F2500.000
(Break)
G1 X8.618 Y54.608 Z-18.054 F2500.000
(part 37.)
G1 X8.618 Y54.608 Z-18.054 F2500.000
G1 X8.677 Y58.607 Z-18.079 F2500.000
G1 X8.712 Y61.007 Z-18.089 F2500.000
G1 X8.792 Y66.473 Z-18.126 F2500.000
G1 X8.813 Y67.940 Z-18.130 F2500.000
G1 X8.888 Y73.072 Z-18.164 F2500.000
G1 X8.899 Y73.806 Z-18.166 F2500.000
G1 X8.928 Y75.805 Z-18.181 F2500.000
G1 X9.182 Y93.203 Z-18.282 F2500.000
G1 X9.203 Y94.670 Z-18.294 F2500.000
G1 X9.235 Y96.870 Z-18.304 F2500.000
G1 X9.263 Y98.803 Z-18.319 F2500.000
G1 X9.278 Y99.803 Z-18.323 F2500.000
G1 X9.386 Y107.202 Z-18.371 F2500.000
G1 X9.444 Y111.135 Z-18.391 F2500.000
G1 X9.518 Y116.268 Z-18.426 F2500.000
G1 X9.547 Y118.201 Z-18.433 F2500.000
G1 X9.570 Y119.801 Z-18.447 F2500.000
G1 X9.585 Y120.801 Z-18.449 F2500.000
G1 X9.629 Y123.800 Z-18.471 F2500.000
G1 X9.706 Y129.000 Z-18.499 F2500.000
G1 X9.728 Y130.499 Z-18.511 F2500.000
G1 X9.742 Y131.399 Z-18.513 F2500.000
G1 X9.762 Y132.799 Z-18.526 F2500.000
G1 X9.823 Y136.899 Z-18.552 F2500.000
G1 X9.845 Y138.399 Z-18.557 F2500.000
G1 X9.867 Y139.898 Z-18.570 F2500.000
G1 X9.893 Y141.598 Z-18.576 F2500.000
G1 X9.913 Y142.998 Z-18.589 F2500.000
G1 X9.949 Y145.398 Z-18.600 F2500.000
G1 X9.978 Y147.398 Z-18.616 F2500.000
G1 X9.996 Y148.597 Z-18.619 F2500.000
G1 X10.029 Y150.797 Z-18.635 F2500.000
G1 X10.041 Y151.597 Z-18.637 F2500.000
G1 X10.076 Y153.997 Z-18.657 F2500.000
G1 X10.085 Y154.597 Z-18.657 F2500.000
G1 X10.165 Y159.996 Z-18.694 F2500.000
G1 X10.428 Y177.794 Z-18.804 F2500.000
G1 X10.443 Y178.794 Z-18.806 F2500.000
G1 X10.461 Y179.994 Z-18.818 F2500.000
G1 X10.519 Y183.894 Z-18.842 F2500.000
G1 X10.532 Y184.794 Z-18.843 F2500.000
G1 X10.564 Y186.993 Z-18.861 F2500.000
G1 X10.579 Y187.993 Z-18.863 F2500.000
G1 X10.597 Y189.193 Z-18.876 F2500.000
G1 X10.630 Y191.393 Z-18.886 F2500.000
G1 X10.689 Y195.392 Z-18.915 F2500.000
G1 X10.760 Y200.192 Z-18.942 F2500.000
G1 X10.891 Y208.991 Z-19.001 F2500.000
G1 X10.903 Y209.791 Z-19.002 F2500.000
G1 X10.924 Y211.191 Z-19.015 F2500.000
G1 X10.951 Y212.990 Z-19.024 F2500.000
G1 X10.972 Y214.390 Z-19.035 F2500.000
G1 X11.022 Y217.790 Z-19.052 F2500.000
G1 X10.830 Y217.797 Z-19.110 F2500.000
G1 X9.839 Y217.797 Z-19.387 F2500.000
G1 X8.848 Y217.797 Z-19.634 F2500.000
G1 X7.857 Y217.797 Z-19.848 F2500.000
G1 X6.866 Y217.797 Z-20.035 F2500.000
G1 X5.875 Y217.797 Z-20.191 F2500.000
G1 X4.884 Y217.797 Z-20.325 F2500.000
G1 X3.893 Y217.797 Z-20.431 F2500.000
G1 X2.902 Y217.797 Z-20.510 F2500.000
G1 X1.912 Y217.797 Z-20.568 F2500.000
G1 X0.921 Y217.797 Z-20.601 F2500.000
G1 X-0.070 Y217.797 Z-20.610 F2500.000
G1 X-1.061 Y217.797 Z-20.597 F2500.000
G1 X-2.052 Y217.797 Z-20.560 F2500.000
G1 X-3.043 Y217.797 Z-20.499 F2500.000
G1 X-4.034 Y217.797 Z-20.416 F2500.000
G1 X-5.025 Y217.797 Z-20.307 F2500.000
G1 X-6.016 Y217.797 Z-20.171 F2500.000
G1 X-7.007 Y217.797 Z-20.011 F2500.000
G1 X-7.998 Y217.797 Z-19.819 F2500.000
G1 X-8.988 Y217.797 Z-19.601 F2500.000
G1 X-9.979 Y217.797 Z-19.350 F2500.000
G1 X-10.970 Y217.797 Z-19.068 F2500.000
G1 X-11.020 Y217.649 Z-19.051 F2500.000
G1 X-10.946 Y212.650 Z-19.024 F2500.000
G1 X-10.913 Y210.450 Z-19.005 F2500.000
G1 X-10.880 Y208.250 Z-18.996 F2500.000
G1 X-10.859 Y206.851 Z-18.983 F2500.000
G1 X-10.850 Y206.251 Z-18.983 F2500.000
G1 X-10.749 Y199.451 Z-18.937 F2500.000
G1 X-10.701 Y196.252 Z-18.921 F2500.000
G1 X-10.542 Y185.453 Z-18.849 F2500.000
G1 X-10.503 Y182.853 Z-18.836 F2500.000
G1 X-10.408 Y176.454 Z-18.793 F2500.000
G1 X-10.367 Y173.654 Z-18.779 F2500.000
G1 X-10.346 Y172.254 Z-18.765 F2500.000
G1 X-10.340 Y171.854 Z-18.766 F2500.000
G1 X-10.287 Y168.255 Z-18.745 F2500.000
G1 X-10.260 Y166.455 Z-18.731 F2500.000
G1 X-10.234 Y164.655 Z-18.722 F2500.000
G1 X-10.213 Y163.255 Z-18.710 F2500.000
G1 X-10.130 Y157.656 Z-18.678 F2500.000
G1 X-10.121 Y157.056 Z-18.671 F2500.000
G1 X-10.086 Y154.656 Z-18.661 F2500.000
G1 X-10.018 Y150.057 Z-18.629 F2500.000
G1 X-9.973 Y147.057 Z-18.614 F2500.000
G1 X-9.956 Y145.857 Z-18.603 F2500.000
G1 X-9.855 Y139.058 Z-18.565 F2500.000
G1 X-9.784 Y134.259 Z-18.533 F2500.000
G1 X-9.763 Y132.859 Z-18.527 F2500.000
G1 X-9.731 Y130.659 Z-18.510 F2500.000
G1 X-9.719 Y129.859 Z-18.508 F2500.000
G1 X-9.680 Y127.259 Z-18.489 F2500.000
G1 X-9.651 Y125.260 Z-18.481 F2500.000
G1 X-9.583 Y120.660 Z-18.453 F2500.000
G1 X-9.512 Y115.861 Z-18.419 F2500.000
G1 X-9.495 Y114.661 Z-18.416 F2500.000
G1 X-9.475 Y113.261 Z-18.404 F2500.000
G1 X-9.372 Y106.262 Z-18.365 F2500.000
G1 X-9.364 Y105.662 Z-18.357 F2500.000
G1 X-9.273 Y99.462 Z-18.323 F2500.000
G1 X-9.247 Y97.662 Z-18.309 F2500.000
G1 X-9.223 Y96.063 Z-18.303 F2500.000
G1 X-9.194 Y94.063 Z-18.288 F2500.000
G1 X-9.162 Y91.863 Z-18.278 F2500.000
G1 X-9.153 Y91.263 Z-18.270 F2500.000
G1 X-9.142 Y90.463 Z-18.269 F2500.000
G1 X-9.115 Y88.663 Z-18.258 F2500.000
G1 X-9.107 Y88.064 Z-18.249 F2500.000
G1 X-9.057 Y84.664 Z-18.233 F2500.000
G1 X-8.882 Y72.665 Z-18.162 F2500.000
G1 X-8.815 Y68.066 Z-18.130 F2500.000
G1 X-8.806 Y67.466 Z-18.130 F2500.000
G1 X-8.797 Y66.866 Z-18.123 F2500.000
G1 X-8.783 Y65.866 Z-18.121 F2500.000
G1 X-8.745 Y63.266 Z-18.107 F2500.000
G1 X-8.724 Y61.866 Z-18.094 F2500.000
G1 X-8.619 Y54.667 Z-18.055 F2500.000
G1 X-8.579 Y51.867 Z-18.036 F2500.000
G1 X-8.461 Y43.668 Z-17.990 F2500.000
G1 X-8.410 Y40.069 Z-17.964 F2500.000
G1 X-8.358 Y36.469 Z-17.946 F2500.000
G1 X-8.342 Y35.369 Z-17.937 F2500.000
G1 X-8.330 Y34.469 Z-17.935 F2500.000
G1 X-8.198 Y25.270 Z-17.876 F2500.000
G1 X-8.157 Y22.470 Z-17.863 F2500.000
G1 X-8.024 Y22.403 Z-17.899 F2500.000
G1 X-7.083 Y22.403 Z-18.135 F2500.000
G1 X-6.142 Y22.403 Z-18.345 F2500.000
G1 X-5.201 Y22.403 Z-18.524 F2500.000
G1 X-4.259 Y22.403 Z-18.675 F2500.000
G1 X-3.318 Y22.403 Z-18.794 F2500.000
G1 X-2.377 Y22.403 Z-18.887 F2500.000
G1 X-1.436 Y22.403 Z-18.948 F2500.000
G1 X-0.495 Y22.403 Z-18.980 F2500.000
G1 X0.447 Y22.403 Z-18.980 F2500.000
G1 X1.388 Y22.403 Z-18.950 F2500.000
G1 X2.329 Y22.403 Z-18.891 F2500.000
G1 X3.270 Y22.403 Z-18.800 F2500.000
G1 X4.211 Y22.403 Z-18.681 F2500.000
G1 X5.152 Y22.403 Z-18.532 F2500.000
G1 X6.094 Y22.403 Z-18.355 F2500.000
G1 X7.035 Y22.403 Z-18.147 F2500.000
G1 X7.976 Y22.403 Z-17.912 F2500.000
G1 X8.157 Y22.422 Z-17.862 F2500.000
G1 X8.194 Y25.022 Z-17.875 F2500.000
G1 X8.329 Y34.421 Z-17.935 F2500.000
G1 X8.355 Y36.221 Z-17.941 F2500.000
G1 X8.392 Y38.821 Z-17.961 F2500.000
G1 X8.618 Y54.608 Z-18.054 F2500.000
(Break)
G1 X9.218 Y54.599 Z-17.882 F2500.000
(part 39.)
G1 X9.218 Y54.599 Z-17.882 F2500.000
G1 X9.221 Y54.799 Z-17.883 F2500.000
G1 X9.399 Y66.998 Z-17.952 F2500.000
G1 X9.449 Y70.397 Z-17.975 F2500.000
G1 X9.490 Y73.197 Z-17.988 F2500.000
G1 X9.574 Y78.996 Z-18.026 F2500.000
G1 X9.615 Y81.796 Z-18.038 F2500.000
G1 X9.621 Y82.196 Z-18.044 F2500.000
G1 X9.732 Y89.795 Z-18.090 F2500.000
G1 X9.776 Y92.795 Z-18.103 F2500.000
G1 X9.802 Y94.595 Z-18.118 F2500.000
G1 X9.881 Y99.994 Z-18.151 F2500.000
G1 X9.896 Y100.994 Z-18.153 F2500.000
G1 X9.910 Y101.994 Z-18.163 F2500.000
G1 X9.933 Y103.594 Z-18.169 F2500.000
G1 X9.948 Y104.594 Z-18.178 F2500.000
G1 X9.963 Y105.593 Z-18.180 F2500.000
G1 X10.041 Y110.993 Z-18.216 F2500.000
G1 X10.109 Y115.592 Z-18.240 F2500.000
G1 X10.120 Y116.392 Z-18.249 F2500.000
G1 X10.167 Y119.592 Z-18.265 F2500.000
G1 X10.185 Y120.792 Z-18.275 F2500.000
G1 X10.297 Y128.391 Z-18.317 F2500.000
G1 X10.416 Y136.390 Z-18.369 F2500.000
G1 X10.433 Y137.590 Z-18.371 F2500.000
G1 X10.445 Y138.390 Z-18.381 F2500.000
G1 X10.498 Y141.989 Z-18.402 F2500.000
G1 X10.510 Y142.789 Z-18.403 F2500.000
G1 X10.519 Y143.389 Z-18.410 F2500.000
G1 X10.546 Y145.189 Z-18.419 F2500.000
G1 X10.567 Y146.589 Z-18.431 F2500.000
G1 X10.602 Y148.989 Z-18.442 F2500.000
G1 X10.661 Y152.988 Z-18.470 F2500.000
G1 X10.800 Y162.387 Z-18.526 F2500.000
G1 X10.839 Y164.987 Z-18.537 F2500.000
G1 X10.865 Y166.787 Z-18.553 F2500.000
G1 X10.877 Y167.587 Z-18.555 F2500.000
G1 X11.061 Y179.985 Z-18.635 F2500.000
G1 X11.079 Y181.185 Z-18.639 F2500.000
G1 X11.120 Y183.985 Z-18.660 F2500.000
G1 X11.150 Y185.985 Z-18.669 F2500.000
G1 X11.158 Y186.585 Z-18.675 F2500.000
G1 X11.167 Y187.185 Z-18.675 F2500.000
G1 X11.185 Y188.384 Z-18.688 F2500.000
G1 X11.250 Y192.784 Z-18.711 F2500.000
G1 X11.295 Y195.784 Z-18.733 F2500.000
G1 X11.336 Y198.583 Z-18.746 F2500.000
G1 X11.351 Y199.583 Z-18.756 F2500.000
G1 X11.360 Y200.183 Z-18.757 F2500.000
G1 X11.390 Y202.183 Z-18.773 F2500.000
G1 X11.566 Y213.982 Z-18.842 F2500.000
G1 X11.592 Y215.781 Z-18.858 F2500.000
G1 X11.631 Y218.381 Z-18.874 F2500.000
G1 X11.448 Y218.397 Z-18.931 F2500.000
G1 X10.448 Y218.397 Z-19.230 F2500.000
G1 X9.448 Y218.397 Z-19.496 F2500.000
G1 X8.448 Y218.397 Z-19.730 F2500.000
G1 X7.448 Y218.397 Z-19.936 F2500.000
G1 X6.448 Y218.397 Z-20.111 F2500.000
G1 X5.448 Y218.397 Z-20.258 F2500.000
G1 X4.448 Y218.397 Z-20.378 F2500.000
G1 X3.448 Y218.397 Z-20.476 F2500.000
G1 X2.448 Y218.397 Z-20.545 F2500.000
G1 X1.448 Y218.397 Z-20.590 F2500.000
G1 X0.448 Y218.397 Z-20.611 F2500.000
G1 X-0.552 Y218.397 Z-20.610 F2500.000
G1 X-1.552 Y218.397 Z-20.587 F2500.000
G1 X-2.552 Y218.397 Z-20.540 F2500.000
G1 X-3.552 Y218.397 Z-20.466 F2500.000
G1 X-4.552 Y218.397 Z-20.368 F2500.000
G1 X-5.552 Y218.397 Z-20.245 F2500.000
G1 X-6.552 Y218.397 Z-20.095 F2500.000
G1 X-7.552 Y218.397 Z-19.915 F2500.000
G1 X-8.552 Y218.397 Z-19.707 F2500.000
G1 X-9.552 Y218.397 Z-19.468 F2500.000
G1 X-10.552 Y218.397 Z-19.200 F2500.000
G1 X-11.552 Y218.397 Z-18.899 F2500.000
G1 X-11.630 Y218.276 Z-18.873 F2500.000
G1 X-11.430 Y204.878 Z-18.790 F2500.000
G1 X-11.406 Y203.278 Z-18.777 F2500.000
G1 X-11.394 Y202.478 Z-18.775 F2500.000
G1 X-11.334 Y198.478 Z-18.747 F2500.000
G1 X-11.290 Y195.479 Z-18.732 F2500.000
G1 X-11.225 Y191.079 Z-18.700 F2500.000
G1 X-11.192 Y188.879 Z-18.690 F2500.000
G1 X-11.145 Y185.680 Z-18.667 F2500.000
G1 X-11.133 Y184.880 Z-18.665 F2500.000
G1 X-11.074 Y180.880 Z-18.638 F2500.000
G1 X-10.956 Y172.881 Z-18.592 F2500.000
G1 X-10.917 Y170.282 Z-18.571 F2500.000
G1 X-10.846 Y165.482 Z-18.546 F2500.000
G1 X-10.763 Y159.883 Z-18.508 F2500.000
G1 X-10.695 Y155.283 Z-18.484 F2500.000
G1 X-10.411 Y136.085 Z-18.366 F2500.000
G1 X-10.399 Y135.285 Z-18.358 F2500.000
G1 X-10.361 Y132.686 Z-18.347 F2500.000
G1 X-10.343 Y131.486 Z-18.334 F2500.000
G1 X-10.328 Y130.486 Z-18.333 F2500.000
G1 X-10.290 Y127.886 Z-18.318 F2500.000
G1 X-10.257 Y125.686 Z-18.300 F2500.000
G1 X-10.213 Y122.687 Z-18.287 F2500.000
G1 X-10.125 Y116.687 Z-18.251 F2500.000
G1 X-10.095 Y114.688 Z-18.235 F2500.000
G1 X-10.078 Y113.488 Z-18.231 F2500.000
G1 X-9.906 Y101.689 Z-18.158 F2500.000
G1 X-9.824 Y96.090 Z-18.127 F2500.000
G1 X-9.795 Y94.090 Z-18.111 F2500.000
G1 X-9.780 Y93.090 Z-18.109 F2500.000
G1 X-9.620 Y82.091 Z-18.044 F2500.000
G1 X-9.588 Y79.891 Z-18.026 F2500.000
G1 X-9.576 Y79.091 Z-18.025 F2500.000
G1 X-9.480 Y72.492 Z-17.987 F2500.000
G1 X-9.433 Y69.292 Z-17.965 F2500.000
G1 X-9.415 Y68.093 Z-17.961 F2500.000
G1 X-9.336 Y62.693 Z-17.927 F2500.000
G1 X-9.261 Y57.494 Z-17.900 F2500.000
G1 X-9.091 Y45.695 Z-17.830 F2500.000
G1 X-9.071 Y44.295 Z-17.818 F2500.000
G1 X-8.944 Y35.496 Z-17.771 F2500.000
G1 X-8.910 Y33.096 Z-17.756 F2500.000
G1 X-8.901 Y32.496 Z-17.749 F2500.000
G1 X-8.784 Y24.297 Z-17.705 F2500.000
G1 X-8.761 Y22.697 Z-17.693 F2500.000
G1 X-8.749 Y21.897 Z-17.689 F2500.000
G1 X-8.642 Y21.803 Z-17.718 F2500.000
G1 X-7.687 Y21.803 Z-17.979 F2500.000
G1 X-6.731 Y21.803 Z-18.212 F2500.000
G1 X-5.776 Y21.803 Z-18.413 F2500.000
G1 X-4.820 Y21.803 Z-18.584 F2500.000
G1 X-3.865 Y21.803 Z-18.724 F2500.000
G1 X-2.909 Y21.803 Z-18.835 F2500.000
G1 X-1.954 Y21.803 Z-18.914 F2500.000
G1 X-0.998 Y21.803 Z-18.963 F2500.000
G1 X-0.042 Y21.803 Z-18.980 F2500.000
G1 X0.913 Y21.803 Z-18.966 F2500.000
G1 X1.869 Y21.803 Z-18.920 F2500.000
G1 X2.824 Y21.803 Z-18.843 F2500.000
G1 X3.780 Y21.803 Z-18.735 F2500.000
G1 X4.735 Y21.803 Z-18.596 F2500.000
G1 X5.691 Y21.803 Z-18.429 F2500.000
G1 X6.646 Y21.803 Z-18.231 F2500.000
G1 X7.602 Y21.803 Z-18.000 F2500.000
G1 X8.558 Y21.803 Z-17.742 F2500.000
G1 X8.748 Y21.812 Z-17.689 F2500.000
G1 X8.765 Y23.012 Z-17.694 F2500.000
G1 X8.782 Y24.212 Z-17.704 F2500.000
G1 X9.035 Y41.810 Z-17.808 F2500.000
G1 X9.046 Y42.610 Z-17.809 F2500.000
G1 X9.112 Y47.210 Z-17.838 F2500.000
G1 X9.138 Y49.010 Z-17.845 F2500.000
G1 X9.184 Y52.209 Z-17.869 F2500.000
G1 X9.204 Y53.609 Z-17.874 F2500.000
G1 X9.218 Y54.599 Z-17.882 F2500.000
(Break)
G1 X9.818 Y54.590 Z-17.698 F2500.000
(part 41.)
G1 X9.818 Y54.590 Z-17.698 F2500.000
G1 X9.827 Y55.190 Z-17.700 F2500.000
G1 X9.874 Y58.390 Z-17.717 F2500.000
G1 X9.915 Y61.189 Z-17.737 F2500.000
G1 X10.002 Y67.189 Z-17.771 F2500.000
G1 X10.017 Y68.189 Z-17.772 F2500.000
G1 X10.036 Y69.488 Z-17.784 F2500.000
G1 X10.125 Y75.588 Z-17.815 F2500.000
G1 X10.147 Y77.121 Z-17.829 F2500.000
G1 X10.192 Y80.187 Z-17.842 F2500.000
G1 X10.236 Y83.187 Z-17.864 F2500.000
G1 X10.367 Y92.186 Z-17.912 F2500.000
G1 X10.405 Y94.786 Z-17.931 F2500.000
G1 X10.434 Y96.786 Z-17.939 F2500.000
G1 X10.463 Y98.785 Z-17.955 F2500.000
G1 X10.481 Y99.985 Z-17.958 F2500.000
G1 X10.495 Y100.985 Z-17.968 F2500.000
G1 X10.561 Y105.485 Z-17.992 F2500.000
G1 X10.579 Y106.685 Z-18.002 F2500.000
G1 X10.601 Y108.184 Z-18.007 F2500.000
G1 X10.755 Y118.783 Z-18.074 F2500.000
G1 X10.942 Y131.382 Z-18.148 F2500.000
G1 X10.968 Y133.182 Z-18.156 F2500.000
G1 X11.039 Y137.981 Z-18.188 F2500.000
G1 X11.072 Y140.181 Z-18.197 F2500.000
G1 X11.101 Y142.181 Z-18.213 F2500.000
G1 X11.332 Y157.779 Z-18.306 F2500.000
G1 X11.368 Y160.179 Z-18.317 F2500.000
G1 X11.385 Y161.379 Z-18.327 F2500.000
G1 X11.445 Y165.378 Z-18.352 F2500.000
G1 X11.459 Y166.378 Z-18.354 F2500.000
G1 X11.504 Y169.378 Z-18.376 F2500.000
G1 X11.791 Y188.776 Z-18.494 F2500.000
G1 X11.821 Y190.775 Z-18.502 F2500.000
G1 X11.850 Y192.775 Z-18.518 F2500.000
G1 X11.917 Y197.275 Z-18.543 F2500.000
G1 X12.052 Y206.374 Z-18.600 F2500.000
G1 X12.085 Y208.573 Z-18.610 F2500.000
G1 X12.177 Y214.773 Z-18.653 F2500.000
G1 X12.210 Y216.972 Z-18.662 F2500.000
G1 X12.240 Y218.972 Z-18.678 F2500.000
G1 X12.065 Y218.997 Z-18.736 F2500.000
G1 X11.097 Y218.997 Z-19.045 F2500.000
G1 X10.129 Y218.997 Z-19.324 F2500.000
G1 X9.161 Y218.997 Z-19.572 F2500.000
G1 X8.193 Y218.997 Z-19.791 F2500.000
G1 X7.225 Y218.997 Z-19.982 F2500.000
G1 X6.257 Y218.997 Z-20.146 F2500.000
G1 X5.289 Y218.997 Z-20.285 F2500.000
G1 X4.321 Y218.997 Z-20.399 F2500.000
G1 X3.353 Y218.997 Z-20.487 F2500.000
G1 X2.385 Y218.997 Z-20.553 F2500.000
G1 X1.417 Y218.997 Z-20.597 F2500.000
G1 X0.449 Y218.997 Z-20.616 F2500.000
G1 X-0.519 Y218.997 Z-20.615 F2500.000
G1 X-1.487 Y218.997 Z-20.595 F2500.000
G1 X-2.455 Y218.997 Z-20.550 F2500.000
G1 X-3.423 Y218.997 Z-20.483 F2500.000
G1 X-4.391 Y218.997 Z-20.392 F2500.000
G1 X-5.359 Y218.997 Z-20.275 F2500.000
G1 X-6.327 Y218.997 Z-20.136 F2500.000
G1 X-7.295 Y218.997 Z-19.970 F2500.000
G1 X-8.263 Y218.997 Z-19.777 F2500.000
G1 X-9.231 Y218.997 Z-19.556 F2500.000
G1 X-10.199 Y218.997 Z-19.306 F2500.000
G1 X-11.167 Y218.997 Z-19.024 F2500.000
G1 X-12.135 Y218.997 Z-18.714 F2500.000
G1 X-12.239 Y218.903 Z-18.678 F2500.000
G1 X-12.212 Y217.103 Z-18.664 F2500.000
G1 X-12.173 Y214.504 Z-18.650 F2500.000
G1 X-12.164 Y213.904 Z-18.643 F2500.000
G1 X-12.138 Y212.104 Z-18.637 F2500.000
G1 X-12.084 Y208.504 Z-18.615 F2500.000
G1 X-12.051 Y206.305 Z-18.597 F2500.000
G1 X-12.021 Y204.305 Z-18.589 F2500.000
G1 X-11.817 Y190.506 Z-18.505 F2500.000
G1 X-11.748 Y185.907 Z-18.472 F2500.000
G1 X-11.716 Y183.707 Z-18.463 F2500.000
G1 X-11.669 Y180.507 Z-18.440 F2500.000
G1 X-11.571 Y173.908 Z-18.403 F2500.000
G1 X-11.556 Y172.908 Z-18.392 F2500.000
G1 X-11.515 Y170.108 Z-18.380 F2500.000
G1 X-11.467 Y166.909 Z-18.359 F2500.000
G1 X-11.458 Y166.309 Z-18.352 F2500.000
G1 X-11.444 Y165.309 Z-18.351 F2500.000
G1 X-11.379 Y160.909 Z-18.321 F2500.000
G1 X-11.355 Y159.310 Z-18.315 F2500.000
G1 X-11.233 Y151.111 Z-18.266 F2500.000
G1 X-11.198 Y148.711 Z-18.248 F2500.000
G1 X-11.165 Y146.511 Z-18.238 F2500.000
G1 X-11.121 Y143.511 Z-18.217 F2500.000
G1 X-11.112 Y142.911 Z-18.217 F2500.000
G1 X-11.059 Y139.312 Z-18.192 F2500.000
G1 X-10.958 Y132.513 Z-18.155 F2500.000
G1 X-10.911 Y129.313 Z-18.133 F2500.000
G1 X-10.855 Y125.513 Z-18.113 F2500.000
G1 X-10.819 Y123.114 Z-18.094 F2500.000
G1 X-10.769 Y119.714 Z-18.078 F2500.000
G1 X-10.734 Y117.314 Z-18.062 F2500.000
G1 X-10.722 Y116.514 Z-18.060 F2500.000
G1 X-10.614 Y109.115 Z-18.017 F2500.000
G1 X-10.518 Y102.516 Z-17.973 F2500.000
G1 X-10.483 Y100.116 Z-17.962 F2500.000
G1 X-10.457 Y98.316 Z-17.948 F2500.000
G1 X-10.421 Y95.917 Z-17.939 F2500.000
G1 X-10.410 Y95.117 Z-17.930 F2500.000
G1 X-10.316 Y88.717 Z-17.896 F2500.000
G1 X-10.276 Y85.918 Z-17.876 F2500.000
G1 X-10.241 Y83.518 Z-17.866 F2500.000
G1 X-10.208 Y81.318 Z-17.848 F2500.000
G1 X-10.170 Y78.718 Z-17.838 F2500.000
G1 X-10.024 Y68.719 Z-17.777 F2500.000
G1 X-9.989 Y66.320 Z-17.766 F2500.000
G1 X-9.975 Y65.320 Z-17.757 F2500.000
G1 X-9.966 Y64.720 Z-17.757 F2500.000
G1 X-9.931 Y62.320 Z-17.743 F2500.000
G1 X-9.919 Y61.520 Z-17.733 F2500.000
G1 X-9.905 Y60.520 Z-17.732 F2500.000
G1 X-9.817 Y54.521 Z-17.694 F2500.000
G1 X-9.766 Y50.921 Z-17.678 F2500.000
G1 X-9.691 Y45.722 Z-17.643 F2500.000
G1 X-9.677 Y44.722 Z-17.640 F2500.000
G1 X-9.550 Y35.923 Z-17.590 F2500.000
G1 X-9.530 Y34.523 Z-17.579 F2500.000
G1 X-9.427 Y27.324 Z-17.542 F2500.000
G1 X-9.410 Y26.124 Z-17.530 F2500.000
G1 X-9.353 Y22.124 Z-17.511 F2500.000
G1 X-9.341 Y21.324 Z-17.503 F2500.000
G1 X-9.261 Y21.203 Z-17.526 F2500.000
G1 X-8.282 Y21.203 Z-17.815 F2500.000
G1 X-7.303 Y21.203 Z-18.068 F2500.000
G1 X-6.324 Y21.203 Z-18.295 F2500.000
G1 X-5.345 Y21.203 Z-18.488 F2500.000
G1 X-4.366 Y21.203 Z-18.646 F2500.000
G1 X-3.387 Y21.203 Z-18.778 F2500.000
G1 X-2.408 Y21.203 Z-18.872 F2500.000
G1 X-1.429 Y21.203 Z-18.937 F2500.000
G1 X-0.450 Y21.203 Z-18.968 F2500.000
G1 X0.529 Y21.203 Z-18.967 F2500.000
G1 X1.507 Y21.203 Z-18.933 F2500.000
G1 X2.486 Y21.203 Z-18.865 F2500.000
G1 X3.465 Y21.203 Z-18.767 F2500.000
G1 X4.444 Y21.203 Z-18.637 F2500.000
G1 X5.423 Y21.203 Z-18.473 F2500.000
G1 X6.402 Y21.203 Z-18.279 F2500.000
G1 X7.381 Y21.203 Z-18.052 F2500.000
G1 X8.360 Y21.203 Z-17.793 F2500.000
G1 X9.339 Y21.203 Z-17.502 F2500.000
G1 X9.358 Y22.502 Z-17.513 F2500.000
G1 X9.407 Y25.902 Z-17.530 F2500.000
G1 X9.443 Y28.402 Z-17.548 F2500.000
G1 X9.468 Y30.202 Z-17.554 F2500.000
G1 X9.503 Y32.601 Z-17.572 F2500.000
G1 X9.818 Y54.590 Z-17.698 F2500.000
(Break)
G1 X10.418 Y54.581 Z-17.502 F2500.000
(part 43.)
G1 X10.418 Y54.581 Z-17.502 F2500.000
G1 X10.421 Y54.781 Z-17.503 F2500.000
G1 X10.795 Y80.379 Z-17.649 F2500.000
G1 X10.815 Y81.778 Z-17.653 F2500.000
G1 X10.979 Y92.977 Z-17.722 F2500.000
G1 X11.028 Y96.377 Z-17.738 F2500.000
G1 X11.092 Y100.776 Z-17.767 F2500.000
G1 X11.113 Y102.176 Z-17.772 F2500.000
G1 X11.317 Y116.175 Z-17.857 F2500.000
G1 X11.533 Y130.773 Z-17.938 F2500.000
G1 X11.544 Y131.573 Z-17.946 F2500.000
G1 X11.562 Y132.773 Z-17.949 F2500.000
G1 X11.610 Y135.973 Z-17.972 F2500.000
G1 X11.627 Y137.172 Z-17.975 F2500.000
G1 X11.666 Y139.772 Z-17.994 F2500.000
G1 X11.684 Y140.972 Z-17.998 F2500.000
G1 X11.704 Y142.372 Z-18.009 F2500.000
G1 X11.719 Y143.372 Z-18.011 F2500.000
G1 X11.746 Y145.172 Z-18.026 F2500.000
G1 X11.820 Y150.171 Z-18.051 F2500.000
G1 X11.831 Y150.971 Z-18.060 F2500.000
G1 X11.971 Y160.370 Z-18.113 F2500.000
G1 X12.065 Y166.769 Z-18.154 F2500.000
G1 X12.136 Y171.569 Z-18.178 F2500.000
G1 X12.201 Y175.968 Z-18.209 F2500.000
G1 X12.275 Y180.968 Z-18.235 F2500.000
G1 X12.335 Y184.967 Z-18.263 F2500.000
G1 X12.352 Y186.167 Z-18.265 F2500.000
G1 X12.397 Y189.167 Z-18.288 F2500.000
G1 X12.465 Y193.766 Z-18.310 F2500.000
G1 X12.474 Y194.366 Z-18.319 F2500.000
G1 X12.631 Y204.965 Z-18.379 F2500.000
G1 X12.722 Y211.064 Z-18.420 F2500.000
G1 X12.753 Y213.164 Z-18.428 F2500.000
G1 X12.777 Y214.764 Z-18.442 F2500.000
G1 X12.849 Y219.563 Z-18.467 F2500.000
G1 X12.683 Y219.597 Z-18.527 F2500.000
G1 X11.706 Y219.597 Z-18.863 F2500.000
G1 X10.729 Y219.597 Z-19.161 F2500.000
G1 X9.753 Y219.597 Z-19.426 F2500.000
G1 X8.776 Y219.597 Z-19.668 F2500.000
G1 X7.799 Y219.597 Z-19.875 F2500.000
G1 X6.822 Y219.597 Z-20.058 F2500.000
G1 X5.845 Y219.597 Z-20.214 F2500.000
G1 X4.868 Y219.597 Z-20.343 F2500.000
G1 X3.891 Y219.597 Z-20.447 F2500.000
G1 X2.914 Y219.597 Z-20.526 F2500.000
G1 X1.937 Y219.597 Z-20.578 F2500.000
G1 X0.960 Y219.597 Z-20.613 F2500.000
G1 X-0.017 Y219.597 Z-20.625 F2500.000
G1 X-0.994 Y219.597 Z-20.613 F2500.000
G1 X-1.971 Y219.597 Z-20.576 F2500.000
G1 X-2.947 Y219.597 Z-20.523 F2500.000
G1 X-3.924 Y219.597 Z-20.444 F2500.000
G1 X-4.901 Y219.597 Z-20.339 F2500.000
G1 X-5.878 Y219.597 Z-20.210 F2500.000
G1 X-6.855 Y219.597 Z-20.053 F2500.000
G1 X-7.832 Y219.597 Z-19.869 F2500.000
G1 X-8.809 Y219.597 Z-19.660 F2500.000
G1 X-9.786 Y219.597 Z-19.417 F2500.000
G1 X-10.763 Y219.597 Z-19.151 F2500.000
G1 X-11.740 Y219.597 Z-18.851 F2500.000
G1 X-12.717 Y219.597 Z-18.515 F2500.000
G1 X-12.848 Y219.530 Z-18.467 F2500.000
G1 X-12.783 Y215.130 Z-18.443 F2500.000
G1 X-12.741 Y212.331 Z-18.423 F2500.000
G1 X-12.711 Y210.331 Z-18.415 F2500.000
G1 X-12.684 Y208.531 Z-18.400 F2500.000
G1 X-12.625 Y204.532 Z-18.377 F2500.000
G1 X-12.589 Y202.132 Z-18.366 F2500.000
G1 X-12.518 Y197.332 Z-18.334 F2500.000
G1 X-12.458 Y193.333 Z-18.313 F2500.000
G1 X-12.450 Y192.733 Z-18.306 F2500.000
G1 X-12.429 Y191.333 Z-18.300 F2500.000
G1 X-12.281 Y181.334 Z-18.240 F2500.000
G1 X-12.260 Y179.934 Z-18.229 F2500.000
G1 X-12.192 Y175.335 Z-18.205 F2500.000
G1 X-12.038 Y164.936 Z-18.140 F2500.000
G1 X-11.967 Y160.136 Z-18.114 F2500.000
G1 X-11.943 Y158.537 Z-18.100 F2500.000
G1 X-11.923 Y157.137 Z-18.096 F2500.000
G1 X-11.751 Y145.538 Z-18.028 F2500.000
G1 X-11.730 Y144.138 Z-18.017 F2500.000
G1 X-11.698 Y141.938 Z-18.007 F2500.000
G1 X-11.562 Y132.739 Z-17.953 F2500.000
G1 X-11.550 Y131.940 Z-17.944 F2500.000
G1 X-11.511 Y129.340 Z-17.934 F2500.000
G1 X-11.131 Y103.443 Z-17.779 F2500.000
G1 X-10.856 Y84.545 Z-17.674 F2500.000
G1 X-10.778 Y79.245 Z-17.639 F2500.000
G1 X-10.694 Y73.446 Z-17.610 F2500.000
G1 X-10.631 Y69.146 Z-17.581 F2500.000
G1 X-10.486 Y59.247 Z-17.529 F2500.000
G1 X-10.462 Y57.598 Z-17.516 F2500.000
G1 X-10.382 Y52.081 Z-17.489 F2500.000
G1 X-10.202 Y39.483 Z-17.414 F2500.000
G1 X-10.173 Y37.483 Z-17.405 F2500.000
G1 X-10.102 Y32.550 Z-17.373 F2500.000
G1 X-10.049 Y28.817 Z-17.356 F2500.000
G1 X-9.979 Y23.951 Z-17.326 F2500.000
G1 X-9.964 Y22.951 Z-17.323 F2500.000
G1 X-9.933 Y20.751 Z-17.308 F2500.000
G1 X-9.879 Y20.603 Z-17.323 F2500.000
G1 X-8.889 Y20.603 Z-17.635 F2500.000
G1 X-7.899 Y20.603 Z-17.915 F2500.000
G1 X-6.909 Y20.603 Z-18.160 F2500.000
G1 X-5.919 Y20.603 Z-18.373 F2500.000
G1 X-4.929 Y20.603 Z-18.554 F2500.000
G1 X-3.939 Y20.603 Z-18.703 F2500.000
G1 X-2.949 Y20.603 Z-18.820 F2500.000
G1 X-1.959 Y20.603 Z-18.902 F2500.000
G1 X-0.969 Y20.603 Z-18.953 F2500.000
G1 X0.021 Y20.603 Z-18.970 F2500.000
G1 X1.011 Y20.603 Z-18.952 F2500.000
G1 X2.001 Y20.603 Z-18.899 F2500.000
G1 X2.991 Y20.603 Z-18.816 F2500.000
G1 X3.981 Y20.603 Z-18.697 F2500.000
G1 X4.971 Y20.603 Z-18.547 F2500.000
G1 X5.961 Y20.603 Z-18.363 F2500.000
G1 X6.951 Y20.603 Z-18.149 F2500.000
G1 X7.941 Y20.603 Z-17.903 F2500.000
G1 X8.931 Y20.603 Z-17.622 F2500.000
G1 X9.921 Y20.603 Z-17.309 F2500.000
G1 X9.934 Y20.793 Z-17.308 F2500.000
G1 X9.962 Y22.792 Z-17.322 F2500.000
G1 X9.982 Y24.192 Z-17.327 F2500.000
G1 X10.129 Y34.391 Z-17.388 F2500.000
G1 X10.180 Y37.991 Z-17.404 F2500.000
G1 X10.418 Y54.581 Z-17.502 F2500.000
(Break)
G1 X11.018 Y54.573 Z-17.294 F2500.000
(part 45.)
G1 X11.018 Y54.573 Z-17.294 F2500.000
G1 X11.021 Y54.773 Z-17.294 F2500.000
G1 X11.050 Y56.772 Z-17.306 F2500.000
G1 X11.065 Y57.772 Z-17.307 F2500.000
G1 X11.071 Y58.172 Z-17.314 F2500.000
G1 X11.085 Y59.172 Z-17.320 F2500.000
G1 X11.106 Y60.572 Z-17.325 F2500.000
G1 X11.220 Y68.371 Z-17.372 F2500.000
G1 X11.278 Y72.371 Z-17.391 F2500.000
G1 X11.403 Y80.970 Z-17.442 F2500.000
G1 X11.436 Y83.170 Z-17.451 F2500.000
G1 X11.549 Y90.969 Z-17.499 F2500.000
G1 X11.599 Y94.368 Z-17.514 F2500.000
G1 X11.608 Y94.968 Z-17.521 F2500.000
G1 X11.625 Y96.168 Z-17.524 F2500.000
G1 X11.631 Y96.568 Z-17.530 F2500.000
G1 X11.681 Y99.968 Z-17.550 F2500.000
G1 X11.727 Y103.167 Z-17.565 F2500.000
G1 X11.838 Y110.767 Z-17.612 F2500.000
G1 X11.911 Y115.766 Z-17.637 F2500.000
G1 X11.929 Y116.966 Z-17.648 F2500.000
G1 X11.961 Y119.166 Z-17.656 F2500.000
G1 X12.008 Y122.365 Z-17.679 F2500.000
G1 X12.079 Y127.165 Z-17.704 F2500.000
G1 X12.156 Y132.364 Z-17.736 F2500.000
G1 X12.180 Y133.964 Z-17.742 F2500.000
G1 X12.192 Y134.764 Z-17.750 F2500.000
G1 X12.215 Y136.364 Z-17.759 F2500.000
G1 X12.272 Y140.163 Z-17.777 F2500.000
G1 X12.286 Y141.163 Z-17.786 F2500.000
G1 X12.360 Y146.163 Z-17.816 F2500.000
G1 X12.375 Y147.163 Z-17.817 F2500.000
G1 X12.384 Y147.763 Z-17.824 F2500.000
G1 X12.408 Y149.362 Z-17.831 F2500.000
G1 X12.426 Y150.562 Z-17.841 F2500.000
G1 X12.455 Y152.562 Z-17.850 F2500.000
G1 X12.505 Y155.962 Z-17.872 F2500.000
G1 X12.514 Y156.562 Z-17.872 F2500.000
G1 X12.535 Y157.961 Z-17.884 F2500.000
G1 X12.544 Y158.561 Z-17.883 F2500.000
G1 X12.591 Y161.761 Z-17.906 F2500.000
G1 X12.713 Y169.960 Z-17.950 F2500.000
G1 X12.952 Y186.158 Z-18.049 F2500.000
G1 X12.985 Y188.358 Z-18.059 F2500.000
G1 X13.003 Y189.558 Z-18.069 F2500.000
G1 X13.017 Y190.558 Z-18.070 F2500.000
G1 X13.080 Y194.757 Z-18.100 F2500.000
G1 X13.124 Y197.757 Z-18.113 F2500.000
G1 X13.154 Y199.757 Z-18.129 F2500.000
G1 X13.225 Y204.556 Z-18.154 F2500.000
G1 X13.282 Y208.356 Z-18.180 F2500.000
G1 X13.309 Y210.156 Z-18.187 F2500.000
G1 X13.395 Y215.955 Z-18.225 F2500.000
G1 X13.431 Y218.355 Z-18.234 F2500.000
G1 X13.458 Y220.155 Z-18.250 F2500.000
G1 X13.301 Y220.197 Z-18.310 F2500.000
G1 X12.316 Y220.197 Z-18.664 F2500.000
G1 X11.331 Y220.197 Z-18.986 F2500.000
G1 X10.346 Y220.197 Z-19.278 F2500.000
G1 X9.360 Y220.197 Z-19.536 F2500.000
G1 X8.375 Y220.197 Z-19.764 F2500.000
G1 X7.390 Y220.197 Z-19.964 F2500.000
G1 X6.405 Y220.197 Z-20.135 F2500.000
G1 X5.420 Y220.197 Z-20.279 F2500.000
G1 X4.434 Y220.197 Z-20.397 F2500.000
G1 X3.449 Y220.197 Z-20.488 F2500.000
G1 X2.464 Y220.197 Z-20.556 F2500.000
G1 X1.479 Y220.197 Z-20.605 F2500.000
G1 X0.494 Y220.197 Z-20.625 F2500.000
G1 X-0.491 Y220.197 Z-20.624 F2500.000
G1 X-1.477 Y220.197 Z-20.604 F2500.000
G1 X-2.462 Y220.197 Z-20.557 F2500.000
G1 X-3.447 Y220.197 Z-20.489 F2500.000
G1 X-4.432 Y220.197 Z-20.397 F2500.000
G1 X-5.417 Y220.197 Z-20.276 F2500.000
G1 X-6.403 Y220.197 Z-20.134 F2500.000
G1 X-7.388 Y220.197 Z-19.964 F2500.000
G1 X-8.373 Y220.197 Z-19.765 F2500.000
G1 X-9.358 Y220.197 Z-19.536 F2500.000
G1 X-10.343 Y220.197 Z-19.279 F2500.000
G1 X-11.329 Y220.197 Z-18.987 F2500.000
G1 X-12.314 Y220.197 Z-18.665 F2500.000
G1 X-13.299 Y220.197 Z-18.311 F2500.000
G1 X-13.458 Y220.157 Z-18.249 F2500.000
G1 X-13.431 Y218.357 Z-18.234 F2500.000
G1 X-13.413 Y217.157 Z-18.231 F2500.000
G1 X-13.312 Y210.358 Z-18.192 F2500.000
G1 X-13.243 Y205.758 Z-18.161 F2500.000
G1 X-13.225 Y204.559 Z-18.158 F2500.000
G1 X-13.186 Y201.959 Z-18.139 F2500.000
G1 X-13.124 Y197.759 Z-18.117 F2500.000
G1 X-13.109 Y196.759 Z-18.107 F2500.000
G1 X-13.074 Y194.360 Z-18.098 F2500.000
G1 X-13.016 Y190.460 Z-18.070 F2500.000
G1 X-12.994 Y188.960 Z-18.065 F2500.000
G1 X-12.881 Y181.361 Z-18.017 F2500.000
G1 X-12.689 Y168.363 Z-17.945 F2500.000
G1 X-12.659 Y166.363 Z-17.930 F2500.000
G1 X-12.642 Y165.163 Z-17.926 F2500.000
G1 X-12.579 Y160.963 Z-17.902 F2500.000
G1 X-12.556 Y159.364 Z-17.889 F2500.000
G1 X-12.534 Y157.864 Z-17.883 F2500.000
G1 X-12.346 Y145.165 Z-17.810 F2500.000
G1 X-12.331 Y144.165 Z-17.800 F2500.000
G1 X-12.307 Y142.565 Z-17.795 F2500.000
G1 X-12.242 Y138.166 Z-17.765 F2500.000
G1 X-12.180 Y133.966 Z-17.745 F2500.000
G1 X-12.112 Y129.367 Z-17.716 F2500.000
G1 X-12.091 Y127.967 Z-17.711 F2500.000
G1 X-12.047 Y124.967 Z-17.690 F2500.000
G1 X-11.874 Y113.235 Z-17.626 F2500.000
G1 X-11.853 Y111.769 Z-17.615 F2500.000
G1 X-11.717 Y102.436 Z-17.565 F2500.000
G1 X-11.690 Y100.570 Z-17.550 F2500.000
G1 X-11.678 Y99.770 Z-17.549 F2500.000
G1 X-11.666 Y98.970 Z-17.541 F2500.000
G1 X-11.579 Y92.971 Z-17.511 F2500.000
G1 X-11.561 Y91.771 Z-17.501 F2500.000
G1 X-11.527 Y89.438 Z-17.490 F2500.000
G1 X-11.462 Y84.972 Z-17.462 F2500.000
G1 X-11.450 Y84.172 Z-17.460 F2500.000
G1 X-11.371 Y78.772 Z-17.427 F2500.000
G1 X-11.263 Y71.373 Z-17.389 F2500.000
G1 X-11.209 Y67.640 Z-17.364 F2500.000
G1 X-11.033 Y55.575 Z-17.300 F2500.000
G1 X-10.987 Y52.375 Z-17.279 F2500.000
G1 X-10.972 Y51.375 Z-17.276 F2500.000
G1 X-10.878 Y44.776 Z-17.240 F2500.000
G1 X-10.855 Y43.176 Z-17.228 F2500.000
G1 X-10.697 Y32.177 Z-17.169 F2500.000
G1 X-10.674 Y30.577 Z-17.156 F2500.000
G1 X-10.637 Y27.978 Z-17.146 F2500.000
G1 X-10.622 Y26.978 Z-17.135 F2500.000
G1 X-10.576 Y23.778 Z-17.122 F2500.000
G1 X-10.565 Y22.978 Z-17.115 F2500.000
G1 X-10.525 Y20.178 Z-17.102 F2500.000
G1 X-10.498 Y20.003 Z-17.109 F2500.000
G1 X-9.498 Y20.003 Z-17.443 F2500.000
G1 X-8.498 Y20.003 Z-17.744 F2500.000
G1 X-7.498 Y20.003 Z-18.011 F2500.000
G1 X-6.498 Y20.003 Z-18.247 F2500.000
G1 X-5.498 Y20.003 Z-18.446 F2500.000
G1 X-4.498 Y20.003 Z-18.618 F2500.000
G1 X-3.498 Y20.003 Z-18.754 F2500.000
G1 X-2.498 Y20.003 Z-18.856 F2500.000
G1 X-1.498 Y20.003 Z-18.926 F2500.000
G1 X-0.498 Y20.003 Z-18.960 F2500.000
G1 X0.502 Y20.003 Z-18.960 F2500.000
G1 X1.502 Y20.003 Z-18.926 F2500.000
G1 X2.502 Y20.003 Z-18.856 F2500.000
G1 X3.502 Y20.003 Z-18.753 F2500.000
G1 X4.502 Y20.003 Z-18.617 F2500.000
G1 X5.502 Y20.003 Z-18.447 F2500.000
G1 X6.502 Y20.003 Z-18.246 F2500.000
G1 X7.502 Y20.003 Z-18.010 F2500.000
G1 X8.502 Y20.003 Z-17.742 F2500.000
G1 X9.502 Y20.003 Z-17.442 F2500.000
G1 X10.502 Y20.003 Z-17.108 F2500.000
G1 X10.525 Y20.183 Z-17.102 F2500.000
G1 X10.568 Y23.182 Z-17.116 F2500.000
G1 X10.576 Y23.782 Z-17.123 F2500.000
G1 X10.619 Y26.782 Z-17.136 F2500.000
G1 X10.763 Y36.781 Z-17.195 F2500.000
G1 X10.815 Y40.381 Z-17.214 F2500.000
G1 X10.820 Y40.781 Z-17.213 F2500.000
G1 X10.832 Y41.580 Z-17.221 F2500.000
G1 X10.952 Y49.980 Z-17.265 F2500.000
G1 X11.018 Y54.573 Z-17.294 F2500.000
(Break)
G1 X11.618 Y54.564 Z-17.073 F2500.000
(part 47.)
G1 X11.618 Y54.564 Z-17.073 F2500.000
G1 X11.624 Y54.964 Z-17.076 F2500.000
G1 X11.698 Y60.063 Z-17.105 F2500.000
G1 X11.723 Y61.763 Z-17.109 F2500.000
G1 X11.738 Y62.763 Z-17.119 F2500.000
G1 X11.799 Y66.962 Z-17.138 F2500.000
G1 X11.817 Y68.162 Z-17.149 F2500.000
G1 X11.942 Y76.761 Z-17.194 F2500.000
G1 X12.208 Y94.960 Z-17.297 F2500.000
G1 X12.228 Y96.359 Z-17.302 F2500.000
G1 X12.257 Y98.359 Z-17.316 F2500.000
G1 X12.307 Y101.759 Z-17.333 F2500.000
G1 X12.450 Y111.558 Z-17.391 F2500.000
G1 X12.479 Y113.558 Z-17.399 F2500.000
G1 X12.517 Y116.157 Z-17.417 F2500.000
G1 X12.596 Y121.557 Z-17.448 F2500.000
G1 X12.658 Y125.756 Z-17.467 F2500.000
G1 X12.667 Y126.356 Z-17.474 F2500.000
G1 X12.729 Y130.556 Z-17.498 F2500.000
G1 X12.978 Y147.354 Z-17.590 F2500.000
G1 X13.132 Y157.753 Z-17.652 F2500.000
G1 X13.179 Y160.952 Z-17.666 F2500.000
G1 X13.200 Y162.352 Z-17.679 F2500.000
G1 X13.277 Y167.552 Z-17.706 F2500.000
G1 X13.413 Y176.751 Z-17.761 F2500.000
G1 X13.493 Y182.150 Z-17.788 F2500.000
G1 X13.561 Y186.750 Z-17.818 F2500.000
G1 X13.650 Y192.749 Z-17.850 F2500.000
G1 X13.688 Y195.349 Z-17.868 F2500.000
G1 X13.822 Y204.348 Z-17.921 F2500.000
G1 X13.918 Y210.747 Z-17.957 F2500.000
G1 X13.941 Y212.347 Z-17.962 F2500.000
G1 X13.956 Y213.347 Z-17.972 F2500.000
G1 X14.004 Y216.546 Z-17.987 F2500.000
G1 X14.022 Y217.746 Z-17.998 F2500.000
G1 X14.067 Y220.746 Z-18.015 F2500.000
G1 X13.919 Y220.797 Z-18.074 F2500.000
G1 X12.926 Y220.797 Z-18.456 F2500.000
G1 X11.933 Y220.797 Z-18.801 F2500.000
G1 X10.940 Y220.797 Z-19.113 F2500.000
G1 X9.948 Y220.797 Z-19.393 F2500.000
G1 X8.955 Y220.797 Z-19.640 F2500.000
G1 X7.962 Y220.797 Z-19.855 F2500.000
G1 X6.969 Y220.797 Z-20.045 F2500.000
G1 X5.976 Y220.797 Z-20.205 F2500.000
G1 X4.983 Y220.797 Z-20.339 F2500.000
G1 X3.990 Y220.797 Z-20.447 F2500.000
G1 X2.998 Y220.797 Z-20.527 F2500.000
G1 X2.005 Y220.797 Z-20.586 F2500.000
G1 X1.012 Y220.797 Z-20.621 F2500.000
G1 X0.019 Y220.797 Z-20.636 F2500.000
G1 X-0.974 Y220.797 Z-20.622 F2500.000
G1 X-1.967 Y220.797 Z-20.588 F2500.000
G1 X-2.960 Y220.797 Z-20.533 F2500.000
G1 X-3.952 Y220.797 Z-20.452 F2500.000
G1 X-4.945 Y220.797 Z-20.344 F2500.000
G1 X-5.938 Y220.797 Z-20.212 F2500.000
G1 X-6.931 Y220.797 Z-20.051 F2500.000
G1 X-7.924 Y220.797 Z-19.863 F2500.000
G1 X-8.917 Y220.797 Z-19.649 F2500.000
G1 X-9.910 Y220.797 Z-19.403 F2500.000
G1 X-10.902 Y220.797 Z-19.124 F2500.000
G1 X-11.895 Y220.797 Z-18.814 F2500.000
G1 X-12.888 Y220.797 Z-18.470 F2500.000
G1 X-13.881 Y220.797 Z-18.090 F2500.000
G1 X-14.067 Y220.784 Z-18.015 F2500.000
G1 X-14.025 Y217.984 Z-17.999 F2500.000
G1 X-13.999 Y216.184 Z-17.983 F2500.000
G1 X-13.978 Y214.784 Z-17.980 F2500.000
G1 X-13.912 Y210.385 Z-17.955 F2500.000
G1 X-13.891 Y208.985 Z-17.942 F2500.000
G1 X-13.873 Y207.785 Z-17.940 F2500.000
G1 X-13.838 Y205.385 Z-17.923 F2500.000
G1 X-13.829 Y204.785 Z-17.923 F2500.000
G1 X-13.591 Y188.787 Z-17.830 F2500.000
G1 X-13.577 Y187.787 Z-17.820 F2500.000
G1 X-13.565 Y186.987 Z-17.819 F2500.000
G1 X-13.526 Y184.388 Z-17.804 F2500.000
G1 X-13.517 Y183.788 Z-17.797 F2500.000
G1 X-13.503 Y182.788 Z-17.795 F2500.000
G1 X-13.429 Y177.788 Z-17.763 F2500.000
G1 X-13.316 Y170.189 Z-17.724 F2500.000
G1 X-13.298 Y168.989 Z-17.713 F2500.000
G1 X-13.289 Y168.389 Z-17.713 F2500.000
G1 X-13.153 Y159.190 Z-17.657 F2500.000
G1 X-13.138 Y158.191 Z-17.655 F2500.000
G1 X-13.118 Y156.791 Z-17.644 F2500.000
G1 X-13.050 Y152.191 Z-17.621 F2500.000
G1 X-12.990 Y148.192 Z-17.594 F2500.000
G1 X-12.979 Y147.392 Z-17.593 F2500.000
G1 X-12.863 Y139.593 Z-17.546 F2500.000
G1 X-12.712 Y129.394 Z-17.491 F2500.000
G1 X-12.700 Y128.594 Z-17.482 F2500.000
G1 X-12.674 Y126.794 Z-17.477 F2500.000
G1 X-12.573 Y119.995 Z-17.439 F2500.000
G1 X-12.535 Y117.395 Z-17.420 F2500.000
G1 X-12.430 Y110.196 Z-17.384 F2500.000
G1 X-12.363 Y105.596 Z-17.353 F2500.000
G1 X-12.351 Y104.796 Z-17.353 F2500.000
G1 X-12.179 Y92.998 Z-17.283 F2500.000
G1 X-12.164 Y91.998 Z-17.281 F2500.000
G1 X-11.992 Y80.199 Z-17.213 F2500.000
G1 X-11.978 Y79.199 Z-17.210 F2500.000
G1 X-11.823 Y68.600 Z-17.151 F2500.000
G1 X-11.808 Y67.600 Z-17.142 F2500.000
G1 X-11.794 Y66.600 Z-17.140 F2500.000
G1 X-11.741 Y63.001 Z-17.116 F2500.000
G1 X-11.636 Y55.802 Z-17.081 F2500.000
G1 X-11.604 Y53.602 Z-17.065 F2500.000
G1 X-11.561 Y50.602 Z-17.052 F2500.000
G1 X-11.467 Y44.003 Z-17.015 F2500.000
G1 X-11.458 Y43.403 Z-17.008 F2500.000
G1 X-11.409 Y40.003 Z-16.993 F2500.000
G1 X-11.326 Y34.204 Z-16.957 F2500.000
G1 X-11.271 Y30.338 Z-16.940 F2500.000
G1 X-11.204 Y25.671 Z-16.910 F2500.000
G1 X-11.114 Y19.405 Z-16.880 F2500.000
G1 X-10.916 Y19.403 Z-16.953 F2500.000
G1 X-9.916 Y19.403 Z-17.300 F2500.000
G1 X-8.916 Y19.403 Z-17.616 F2500.000
G1 X-7.916 Y19.403 Z-17.899 F2500.000
G1 X-6.916 Y19.403 Z-18.147 F2500.000
G1 X-5.916 Y19.403 Z-18.362 F2500.000
G1 X-4.916 Y19.403 Z-18.546 F2500.000
G1 X-3.916 Y19.403 Z-18.695 F2500.000
G1 X-2.916 Y19.403 Z-18.813 F2500.000
G1 X-1.916 Y19.403 Z-18.895 F2500.000
G1 X-0.916 Y19.403 Z-18.945 F2500.000
G1 X0.084 Y19.403 Z-18.961 F2500.000
G1 X1.084 Y19.403 Z-18.938 F2500.000
G1 X2.084 Y19.403 Z-18.884 F2500.000
G1 X3.084 Y19.403 Z-18.795 F2500.000
G1 X4.084 Y19.403 Z-18.672 F2500.000
G1 X5.084 Y19.403 Z-18.517 F2500.000
G1 X6.084 Y19.403 Z-18.327 F2500.000
G1 X7.084 Y19.403 Z-18.108 F2500.000
G1 X8.084 Y19.403 Z-17.853 F2500.000
G1 X9.084 Y19.403 Z-17.565 F2500.000
G1 X10.084 Y19.403 Z-17.246 F2500.000
G1 X11.084 Y19.403 Z-16.891 F2500.000
G1 X11.116 Y19.573 Z-16.881 F2500.000
G1 X11.176 Y23.772 Z-16.900 F2500.000
G1 X11.191 Y24.772 Z-16.909 F2500.000
G1 X11.199 Y25.372 Z-16.908 F2500.000
G1 X11.245 Y28.572 Z-16.931 F2500.000
G1 X11.351 Y35.971 Z-16.971 F2500.000
G1 X11.366 Y36.971 Z-16.973 F2500.000
G1 X11.412 Y40.171 Z-16.995 F2500.000
G1 X11.612 Y54.169 Z-17.069 F2500.000
G1 X11.618 Y54.564 Z-17.073 F2500.000
(Break)
G1 X12.218 Y54.555 Z-16.841 F2500.000
(part 49.)
G1 X12.218 Y54.555 Z-16.841 F2500.000
G1 X12.224 Y54.955 Z-16.843 F2500.000
G1 X12.259 Y57.355 Z-16.852 F2500.000
G1 X12.297 Y59.954 Z-16.870 F2500.000
G1 X12.355 Y63.954 Z-16.888 F2500.000
G1 X12.408 Y67.554 Z-16.911 F2500.000
G1 X12.539 Y76.553 Z-16.957 F2500.000
G1 X12.600 Y80.752 Z-16.983 F2500.000
G1 X12.647 Y83.952 Z-16.997 F2500.000
G1 X12.682 Y86.352 Z-17.014 F2500.000
G1 X12.732 Y89.751 Z-17.028 F2500.000
G1 X12.743 Y90.551 Z-17.036 F2500.000
G1 X12.796 Y94.151 Z-17.057 F2500.000
G1 X12.840 Y97.151 Z-17.069 F2500.000
G1 X12.851 Y97.950 Z-17.078 F2500.000
G1 X13.065 Y112.549 Z-17.156 F2500.000
G1 X13.146 Y118.148 Z-17.190 F2500.000
G1 X13.201 Y121.848 Z-17.206 F2500.000
G1 X13.306 Y128.947 Z-17.249 F2500.000
G1 X13.323 Y130.147 Z-17.251 F2500.000
G1 X13.384 Y134.247 Z-17.278 F2500.000
G1 X13.476 Y140.446 Z-17.309 F2500.000
G1 X13.534 Y144.345 Z-17.334 F2500.000
G1 X13.581 Y147.545 Z-17.347 F2500.000
G1 X13.591 Y148.245 Z-17.355 F2500.000
G1 X13.622 Y150.345 Z-17.367 F2500.000
G1 X14.016 Y176.942 Z-17.513 F2500.000
G1 X14.234 Y191.640 Z-17.599 F2500.000
G1 X14.676 Y221.337 Z-17.765 F2500.000
G1 X14.537 Y221.397 Z-17.824 F2500.000
G1 X13.563 Y221.397 Z-18.221 F2500.000
G1 X12.590 Y221.397 Z-18.582 F2500.000
G1 X11.617 Y221.397 Z-18.909 F2500.000
G1 X10.643 Y221.397 Z-19.206 F2500.000
G1 X9.670 Y221.397 Z-19.471 F2500.000
G1 X8.697 Y221.397 Z-19.706 F2500.000
G1 X7.723 Y221.397 Z-19.911 F2500.000
G1 X6.750 Y221.397 Z-20.089 F2500.000
G1 X5.777 Y221.397 Z-20.241 F2500.000
G1 X4.803 Y221.397 Z-20.367 F2500.000
G1 X3.830 Y221.397 Z-20.466 F2500.000
G1 X2.857 Y221.397 Z-20.545 F2500.000
G1 X1.883 Y221.397 Z-20.599 F2500.000
G1 X0.910 Y221.397 Z-20.631 F2500.000
G1 X-0.063 Y221.397 Z-20.640 F2500.000
G1 X-1.037 Y221.397 Z-20.627 F2500.000
G1 X-2.010 Y221.397 Z-20.593 F2500.000
G1 X-2.983 Y221.397 Z-20.536 F2500.000
G1 X-3.957 Y221.397 Z-20.457 F2500.000
G1 X-4.930 Y221.397 Z-20.351 F2500.000
G1 X-5.903 Y221.397 Z-20.219 F2500.000
G1 X-6.877 Y221.397 Z-20.066 F2500.000
G1 X-7.850 Y221.397 Z-19.886 F2500.000
G1 X-8.823 Y221.397 Z-19.675 F2500.000
G1 X-9.797 Y221.397 Z-19.438 F2500.000
G1 X-10.770 Y221.397 Z-19.168 F2500.000
G1 X-11.743 Y221.397 Z-18.868 F2500.000
G1 X-12.717 Y221.397 Z-18.537 F2500.000
G1 X-13.690 Y221.397 Z-18.173 F2500.000
G1 X-14.663 Y221.397 Z-17.772 F2500.000
G1 X-14.674 Y221.211 Z-17.764 F2500.000
G1 X-14.644 Y219.211 Z-17.752 F2500.000
G1 X-14.536 Y212.012 Z-17.714 F2500.000
G1 X-14.531 Y211.612 Z-17.708 F2500.000
G1 X-14.507 Y210.012 Z-17.703 F2500.000
G1 X-14.471 Y207.612 Z-17.685 F2500.000
G1 X-14.417 Y204.012 Z-17.669 F2500.000
G1 X-14.390 Y202.213 Z-17.654 F2500.000
G1 X-14.366 Y200.613 Z-17.650 F2500.000
G1 X-14.319 Y197.413 Z-17.626 F2500.000
G1 X-14.286 Y195.213 Z-17.619 F2500.000
G1 X-13.990 Y175.149 Z-17.503 F2500.000
G1 X-13.819 Y163.617 Z-17.441 F2500.000
G1 X-13.807 Y162.817 Z-17.433 F2500.000
G1 X-13.748 Y158.817 Z-17.414 F2500.000
G1 X-13.732 Y157.751 Z-17.404 F2500.000
G1 X-13.680 Y154.218 Z-17.389 F2500.000
G1 X-13.491 Y141.486 Z-17.314 F2500.000
G1 X-13.280 Y127.221 Z-17.239 F2500.000
G1 X-13.257 Y125.621 Z-17.225 F2500.000
G1 X-13.236 Y124.221 Z-17.223 F2500.000
G1 X-13.165 Y119.422 Z-17.196 F2500.000
G1 X-13.144 Y118.022 Z-17.184 F2500.000
G1 X-13.109 Y115.622 Z-17.175 F2500.000
G1 X-13.095 Y114.622 Z-17.166 F2500.000
G1 X-13.045 Y111.223 Z-17.151 F2500.000
G1 X-13.019 Y109.423 Z-17.138 F2500.000
G1 X-12.984 Y107.023 Z-17.128 F2500.000
G1 X-12.847 Y97.624 Z-17.071 F2500.000
