(Exported by FreeCAD)
(Post Processor: grbl_post)
(Output Time:2023-03-25 19:45:11.324533)
(Begin preamble)
G17 G90
G21
(Begin operation: 6D L42 Corn End Mill003)
(Path: 6D L42 Corn End Mill003)
(6D L42 Corn End Mill003)
(Begin toolchange)
( M6 T6.0 )
M3 S24000.0
(Finish operation: 6D L42 Corn End Mill003)
(Begin operation: Fixture)
(Path: Fixture)
G54
G0 Z5.000
(Finish operation: Fixture)
(Begin operation: Profile004)
(Path: Profile004)
(Profile004)
(Compensated Tool Path. Diameter: 6.0)
G0 Z5.000
G0 X96.579 Y75.125
G0 Z3.000
G1 X96.579 Y75.125 Z-2.000 F199.998
G2 X101.381 Y72.663 Z-2.000 I-68.207 J-138.959 K0.000 F2500.000
G2 X103.000 Y70.000 Z-2.000 I-1.381 J-2.663 K0.000 F2500.000
G1 X103.000 Y0.000 Z-2.000 F2500.000
G2 X100.000 Y-3.000 Z-2.000 I-3.000 J0.000 K0.000 F2500.000
G1 X0.000 Y-3.000 Z-2.000 F2500.000
G2 X-3.000 Y0.000 Z-2.000 I0.000 J3.000 K0.000 F2500.000
G1 X-3.000 Y64.398 Z-2.000 F2500.000
G2 X-2.139 Y66.501 Z-2.000 I3.000 J0.000 K0.000 F2500.000
G2 X8.335 Y75.630 Z-2.000 I54.877 J-52.391 K0.000 F2500.000
G2 X35.824 Y87.254 Z-2.000 I38.331 J-52.329 K0.000 F2500.000
G2 X55.553 Y87.817 Z-2.000 I12.024 J-75.365 K0.000 F2500.000
G2 X73.666 Y84.187 Z-2.000 I-11.077 J-102.275 K0.000 F2500.000
G2 X96.579 Y75.125 Z-2.000 I-45.294 J-148.021 K0.000 F2500.000
G1 X96.579 Y75.125 Z-4.000 F199.998
G2 X101.381 Y72.663 Z-4.000 I-68.207 J-138.959 K0.000 F2500.000
G2 X103.000 Y70.000 Z-4.000 I-1.381 J-2.663 K0.000 F2500.000
G1 X103.000 Y0.000 Z-4.000 F2500.000
G2 X100.000 Y-3.000 Z-4.000 I-3.000 J0.000 K0.000 F2500.000
G1 X0.000 Y-3.000 Z-4.000 F2500.000
G2 X-3.000 Y0.000 Z-4.000 I0.000 J3.000 K0.000 F2500.000
G1 X-3.000 Y64.398 Z-4.000 F2500.000
G2 X-2.139 Y66.501 Z-4.000 I3.000 J0.000 K0.000 F2500.000
G2 X8.335 Y75.630 Z-4.000 I54.877 J-52.391 K0.000 F2500.000
G2 X35.824 Y87.254 Z-4.000 I38.331 J-52.329 K0.000 F2500.000
G2 X55.553 Y87.817 Z-4.000 I12.024 J-75.365 K0.000 F2500.000
G2 X73.666 Y84.187 Z-4.000 I-11.077 J-102.275 K0.000 F2500.000
G2 X96.579 Y75.125 Z-4.000 I-45.294 J-148.021 K0.000 F2500.000
G1 X96.579 Y75.125 Z-6.000 F199.998
G2 X101.381 Y72.663 Z-6.000 I-68.207 J-138.959 K0.000 F2500.000
G2 X103.000 Y70.000 Z-6.000 I-1.381 J-2.663 K0.000 F2500.000
G1 X103.000 Y0.000 Z-6.000 F2500.000
G2 X100.000 Y-3.000 Z-6.000 I-3.000 J0.000 K0.000 F2500.000
G1 X0.000 Y-3.000 Z-6.000 F2500.000
G2 X-3.000 Y0.000 Z-6.000 I0.000 J3.000 K0.000 F2500.000
G1 X-3.000 Y64.398 Z-6.000 F2500.000
G2 X-2.139 Y66.501 Z-6.000 I3.000 J0.000 K0.000 F2500.000
G2 X8.335 Y75.630 Z-6.000 I54.877 J-52.391 K0.000 F2500.000
G2 X35.824 Y87.254 Z-6.000 I38.331 J-52.329 K0.000 F2500.000
G2 X55.553 Y87.817 Z-6.000 I12.024 J-75.365 K0.000 F2500.000
G2 X73.666 Y84.187 Z-6.000 I-11.077 J-102.275 K0.000 F2500.000
G2 X96.579 Y75.125 Z-6.000 I-45.294 J-148.021 K0.000 F2500.000
G1 X96.579 Y75.125 Z-8.000 F199.998
G2 X101.381 Y72.663 Z-8.000 I-68.207 J-138.959 K0.000 F2500.000
G2 X103.000 Y70.000 Z-8.000 I-1.381 J-2.663 K0.000 F2500.000
G1 X103.000 Y0.000 Z-8.000 F2500.000
G2 X100.000 Y-3.000 Z-8.000 I-3.000 J0.000 K0.000 F2500.000
G1 X0.000 Y-3.000 Z-8.000 F2500.000
G2 X-3.000 Y0.000 Z-8.000 I0.000 J3.000 K0.000 F2500.000
G1 X-3.000 Y64.398 Z-8.000 F2500.000
G2 X-2.139 Y66.501 Z-8.000 I3.000 J0.000 K0.000 F2500.000
G2 X8.335 Y75.630 Z-8.000 I54.877 J-52.391 K0.000 F2500.000
G2 X35.824 Y87.254 Z-8.000 I38.331 J-52.329 K0.000 F2500.000
G2 X55.553 Y87.817 Z-8.000 I12.024 J-75.365 K0.000 F2500.000
G2 X73.666 Y84.187 Z-8.000 I-11.077 J-102.275 K0.000 F2500.000
G2 X96.579 Y75.125 Z-8.000 I-45.294 J-148.021 K0.000 F2500.000
G1 X96.579 Y75.125 Z-10.000 F199.998
G2 X101.381 Y72.663 Z-10.000 I-68.207 J-138.959 K0.000 F2500.000
G2 X103.000 Y70.000 Z-10.000 I-1.381 J-2.663 K0.000 F2500.000
G1 X103.000 Y0.000 Z-10.000 F2500.000
G2 X100.000 Y-3.000 Z-10.000 I-3.000 J0.000 K0.000 F2500.000
G1 X0.000 Y-3.000 Z-10.000 F2500.000
G2 X-3.000 Y0.000 Z-10.000 I0.000 J3.000 K0.000 F2500.000
G1 X-3.000 Y64.398 Z-10.000 F2500.000
G2 X-2.139 Y66.501 Z-10.000 I3.000 J0.000 K0.000 F2500.000
G2 X8.335 Y75.630 Z-10.000 I54.877 J-52.391 K0.000 F2500.000
G2 X35.824 Y87.254 Z-10.000 I38.331 J-52.329 K0.000 F2500.000
G2 X55.553 Y87.817 Z-10.000 I12.024 J-75.365 K0.000 F2500.000
G2 X73.666 Y84.187 Z-10.000 I-11.077 J-102.275 K0.000 F2500.000
G2 X96.579 Y75.125 Z-10.000 I-45.294 J-148.021 K0.000 F2500.000
G1 X96.579 Y75.125 Z-12.000 F199.998
G2 X101.381 Y72.663 Z-12.000 I-68.207 J-138.959 K0.000 F2500.000
G2 X103.000 Y70.000 Z-12.000 I-1.381 J-2.663 K0.000 F2500.000
G1 X103.000 Y0.000 Z-12.000 F2500.000
G2 X100.000 Y-3.000 Z-12.000 I-3.000 J0.000 K0.000 F2500.000
G1 X0.000 Y-3.000 Z-12.000 F2500.000
G2 X-3.000 Y0.000 Z-12.000 I0.000 J3.000 K0.000 F2500.000
G1 X-3.000 Y64.398 Z-12.000 F2500.000
G2 X-2.139 Y66.501 Z-12.000 I3.000 J0.000 K0.000 F2500.000
G2 X8.335 Y75.630 Z-12.000 I54.877 J-52.391 K0.000 F2500.000
G2 X35.824 Y87.254 Z-12.000 I38.331 J-52.329 K0.000 F2500.000
G2 X55.553 Y87.817 Z-12.000 I12.024 J-75.365 K0.000 F2500.000
G2 X73.666 Y84.187 Z-12.000 I-11.077 J-102.275 K0.000 F2500.000
G2 X96.579 Y75.125 Z-12.000 I-45.294 J-148.021 K0.000 F2500.000
G1 X96.579 Y75.125 Z-14.000 F199.998
G2 X101.381 Y72.663 Z-14.000 I-68.207 J-138.959 K0.000 F2500.000
G2 X103.000 Y70.000 Z-14.000 I-1.381 J-2.663 K0.000 F2500.000
G1 X103.000 Y0.000 Z-14.000 F2500.000
G2 X100.000 Y-3.000 Z-14.000 I-3.000 J0.000 K0.000 F2500.000
G1 X0.000 Y-3.000 Z-14.000 F2500.000
G2 X-3.000 Y0.000 Z-14.000 I0.000 J3.000 K0.000 F2500.000
G1 X-3.000 Y64.398 Z-14.000 F2500.000
G2 X-2.139 Y66.501 Z-14.000 I3.000 J0.000 K0.000 F2500.000
G2 X8.335 Y75.630 Z-14.000 I54.877 J-52.391 K0.000 F2500.000
G2 X35.824 Y87.254 Z-14.000 I38.331 J-52.329 K0.000 F2500.000
G2 X55.553 Y87.817 Z-14.000 I12.024 J-75.365 K0.000 F2500.000
G2 X73.666 Y84.187 Z-14.000 I-11.077 J-102.275 K0.000 F2500.000
G2 X96.579 Y75.125 Z-14.000 I-45.294 J-148.021 K0.000 F2500.000
G1 X96.579 Y75.125 Z-16.000 F199.998
G2 X101.381 Y72.663 Z-16.000 I-68.207 J-138.959 K0.000 F2500.000
G2 X103.000 Y70.000 Z-16.000 I-1.381 J-2.663 K0.000 F2500.000
G1 X103.000 Y0.000 Z-16.000 F2500.000
G2 X100.000 Y-3.000 Z-16.000 I-3.000 J0.000 K0.000 F2500.000
G1 X0.000 Y-3.000 Z-16.000 F2500.000
G2 X-3.000 Y0.000 Z-16.000 I0.000 J3.000 K0.000 F2500.000
G1 X-3.000 Y64.398 Z-16.000 F2500.000
G2 X-2.139 Y66.501 Z-16.000 I3.000 J0.000 K0.000 F2500.000
G2 X8.335 Y75.630 Z-16.000 I54.877 J-52.391 K0.000 F2500.000
G2 X35.824 Y87.254 Z-16.000 I38.331 J-52.329 K0.000 F2500.000
G2 X55.553 Y87.817 Z-16.000 I12.024 J-75.365 K0.000 F2500.000
G2 X73.666 Y84.187 Z-16.000 I-11.077 J-102.275 K0.000 F2500.000
G2 X96.579 Y75.125 Z-16.000 I-45.294 J-148.021 K0.000 F2500.000
G1 X96.579 Y75.125 Z-18.000 F199.998
G2 X101.381 Y72.663 Z-18.000 I-68.207 J-138.959 K0.000 F2500.000
G2 X103.000 Y70.000 Z-18.000 I-1.381 J-2.663 K0.000 F2500.000
G1 X103.000 Y0.000 Z-18.000 F2500.000
G2 X100.000 Y-3.000 Z-18.000 I-3.000 J0.000 K0.000 F2500.000
G1 X0.000 Y-3.000 Z-18.000 F2500.000
G2 X-3.000 Y0.000 Z-18.000 I0.000 J3.000 K0.000 F2500.000
G1 X-3.000 Y64.398 Z-18.000 F2500.000
G2 X-2.139 Y66.501 Z-18.000 I3.000 J0.000 K0.000 F2500.000
G2 X8.335 Y75.630 Z-18.000 I54.877 J-52.391 K0.000 F2500.000
G2 X35.824 Y87.254 Z-18.000 I38.331 J-52.329 K0.000 F2500.000
G2 X55.553 Y87.817 Z-18.000 I12.024 J-75.365 K0.000 F2500.000
G2 X73.666 Y84.187 Z-18.000 I-11.077 J-102.275 K0.000 F2500.000
G2 X96.579 Y75.125 Z-18.000 I-45.294 J-148.021 K0.000 F2500.000
G1 X96.579 Y75.125 Z-20.000 F199.998
G2 X101.381 Y72.663 Z-20.000 I-68.207 J-138.959 K0.000 F2500.000
G2 X103.000 Y70.000 Z-20.000 I-1.381 J-2.663 K0.000 F2500.000
G1 X103.000 Y0.000 Z-20.000 F2500.000
G2 X100.000 Y-3.000 Z-20.000 I-3.000 J0.000 K0.000 F2500.000
G1 X0.000 Y-3.000 Z-20.000 F2500.000
G2 X-3.000 Y0.000 Z-20.000 I0.000 J3.000 K0.000 F2500.000
G1 X-3.000 Y64.398 Z-20.000 F2500.000
G2 X-2.139 Y66.501 Z-20.000 I3.000 J0.000 K0.000 F2500.000
G2 X8.335 Y75.630 Z-20.000 I54.877 J-52.391 K0.000 F2500.000
G2 X35.824 Y87.254 Z-20.000 I38.331 J-52.329 K0.000 F2500.000
G2 X55.553 Y87.817 Z-20.000 I12.024 J-75.365 K0.000 F2500.000
G2 X73.666 Y84.187 Z-20.000 I-11.077 J-102.275 K0.000 F2500.000
G2 X96.579 Y75.125 Z-20.000 I-45.294 J-148.021 K0.000 F2500.000
G1 X96.579 Y75.125 Z-22.000 F199.998
G2 X101.381 Y72.663 Z-22.000 I-68.207 J-138.959 K0.000 F2500.000
G2 X103.000 Y70.000 Z-22.000 I-1.381 J-2.663 K0.000 F2500.000
G1 X103.000 Y0.000 Z-22.000 F2500.000
G2 X100.000 Y-3.000 Z-22.000 I-3.000 J0.000 K0.000 F2500.000
G1 X0.000 Y-3.000 Z-22.000 F2500.000
G2 X-3.000 Y0.000 Z-22.000 I0.000 J3.000 K0.000 F2500.000
G1 X-3.000 Y64.398 Z-22.000 F2500.000
G2 X-2.139 Y66.501 Z-22.000 I3.000 J0.000 K0.000 F2500.000
G2 X8.335 Y75.630 Z-22.000 I54.877 J-52.391 K0.000 F2500.000
G2 X35.824 Y87.254 Z-22.000 I38.331 J-52.329 K0.000 F2500.000
G2 X55.553 Y87.817 Z-22.000 I12.024 J-75.365 K0.000 F2500.000
G2 X73.666 Y84.187 Z-22.000 I-11.077 J-102.275 K0.000 F2500.000
G2 X96.579 Y75.125 Z-22.000 I-45.294 J-148.021 K0.000 F2500.000
G1 X96.579 Y75.125 Z-24.000 F199.998
G2 X101.381 Y72.663 Z-24.000 I-68.207 J-138.959 K0.000 F2500.000
G2 X103.000 Y70.000 Z-24.000 I-1.381 J-2.663 K0.000 F2500.000
G1 X103.000 Y0.000 Z-24.000 F2500.000
G2 X100.000 Y-3.000 Z-24.000 I-3.000 J0.000 K0.000 F2500.000
G1 X0.000 Y-3.000 Z-24.000 F2500.000
G2 X-3.000 Y0.000 Z-24.000 I0.000 J3.000 K0.000 F2500.000
G1 X-3.000 Y64.398 Z-24.000 F2500.000
G2 X-2.139 Y66.501 Z-24.000 I3.000 J0.000 K0.000 F2500.000
G2 X8.335 Y75.630 Z-24.000 I54.877 J-52.391 K0.000 F2500.000
G2 X35.824 Y87.254 Z-24.000 I38.331 J-52.329 K0.000 F2500.000
G2 X55.553 Y87.817 Z-24.000 I12.024 J-75.365 K0.000 F2500.000
G2 X73.666 Y84.187 Z-24.000 I-11.077 J-102.275 K0.000 F2500.000
G2 X96.579 Y75.125 Z-24.000 I-45.294 J-148.021 K0.000 F2500.000
G0 Z5.000
G0 Z5.000
(Finish operation: Profile004)
(Begin operation: Helix)
(Path: Helix)
(Helix)
(helix cut operation)
G0 Z5.000
G0 X25.100 Y34.178
G0 Z3.000
G1 Z0.000 F199.998
G2 X24.900 Y34.178 Z-3.000 I-0.100 J0.000 F2500.000
G2 X25.100 Y34.178 Z-6.000 I0.100 J0.000 F2500.000
G2 X24.900 Y34.178 Z-9.000 I-0.100 J0.000 F2500.000
G2 X25.100 Y34.178 Z-12.000 I0.100 J0.000 F2500.000
G2 X24.900 Y34.178 Z-15.000 I-0.100 J0.000 F2500.000
G2 X25.100 Y34.178 Z-18.000 I0.100 J0.000 F2500.000
G2 X24.900 Y34.178 Z-21.000 I-0.100 J0.000 F2500.000
G2 X25.100 Y34.178 Z-24.000 I0.100 J0.000 F2500.000
G2 X24.900 Y34.178 Z-24.000 I-0.100 J0.000 F2500.000
G2 X25.100 Y34.178 Z-24.000 I0.100 J0.000 F2500.000
G0 Z3.000
G0 X75.100 Y34.178
G0 Z3.000
G1 Z0.000 F199.998
G2 X74.900 Y34.178 Z-3.000 I-0.100 J0.000 F2500.000
G2 X75.100 Y34.178 Z-6.000 I0.100 J0.000 F2500.000
G2 X74.900 Y34.178 Z-9.000 I-0.100 J0.000 F2500.000
G2 X75.100 Y34.178 Z-12.000 I0.100 J0.000 F2500.000
G2 X74.900 Y34.178 Z-15.000 I-0.100 J0.000 F2500.000
G2 X75.100 Y34.178 Z-18.000 I0.100 J0.000 F2500.000
G2 X74.900 Y34.178 Z-21.000 I-0.100 J0.000 F2500.000
G2 X75.100 Y34.178 Z-24.000 I0.100 J0.000 F2500.000
G2 X74.900 Y34.178 Z-24.000 I-0.100 J0.000 F2500.000
G2 X75.100 Y34.178 Z-24.000 I0.100 J0.000 F2500.000
G0 Z3.000
G0 Z5.000
(Finish operation: Helix)
(Begin postamble)
M5
G17 G90
M2
