(Exported by FreeCAD)
(Post Processor: grbl_post)
(Output Time:2023-08-27 14:20:26.502416)
(Begin preamble)
G17 G90
G21
(Begin operation: 8 Z1 UP helicoidale001)
(Path: 8 Z1 UP helicoidale001)
(8 Z1 UP helicoidale001)
(Begin toolchange)
( M6 T7 )
M3 S24000
(Finish operation: 8 Z1 UP helicoidale001)
(Begin operation: Fixture)
(Path: Fixture)
G54
(Finish operation: Fixture)
(Begin operation: Surface)
(Path: Surface)
(Surface)
(Surface)
(Tool type: endmill)
(Compensated Tool Path. Diameter: 8.0)
(Sample interval: 1.0)
(Step over %: 80.0)
()
G0 Z21.770
(Beginning of Multi-pass layers.)
(Layer 0 begins)
(Begin step 0.)
G0 X6.027 Y-1.335
(part 1)
G1 X6.027 Y-1.335 Z16.800 F2500.000
G1 X27.010 Y-1.335 Z16.800 F2500.000
G1 X28.009 Y-1.335 Z16.979 F2500.000
G1 X29.009 Y-1.335 Z17.175 F2500.000
G1 X30.008 Y-1.335 Z17.343 F2500.000
G1 X31.007 Y-1.335 Z17.482 F2500.000
G1 X32.006 Y-1.335 Z17.595 F2500.000
G1 X33.006 Y-1.335 Z17.682 F2500.000
G1 X34.005 Y-1.335 Z17.745 F2500.000
G1 X35.004 Y-1.335 Z17.783 F2500.000
G1 X36.003 Y-1.335 Z17.799 F2500.000
G1 X37.002 Y-1.335 Z17.800 F2500.000
G1 X43.997 Y-1.335 Z17.799 F2500.000
G1 X44.996 Y-1.335 Z17.783 F2500.000
G1 X45.995 Y-1.335 Z17.744 F2500.000
G1 X46.994 Y-1.335 Z17.682 F2500.000
G1 X47.994 Y-1.335 Z17.595 F2500.000
G1 X48.993 Y-1.335 Z17.482 F2500.000
G1 X49.992 Y-1.335 Z17.343 F2500.000
G1 X50.991 Y-1.335 Z17.175 F2500.000
G1 X51.991 Y-1.335 Z16.979 F2500.000
G1 X52.990 Y-1.335 Z16.800 F2500.000
G1 X73.973 Y-1.335 Z16.800 F2500.000
(End of step 0.)
G0 Z19.770
G0 X74.125 Y5.065
(Begin step 1.)
G0 X74.125 Y5.065
(part 1)
G1 X74.125 Y5.065 Z16.800 F2500.000
G1 X53.353 Y5.065 Z16.800 F2500.000
G1 X52.364 Y5.065 Z16.898 F2500.000
G1 X51.375 Y5.065 Z17.098 F2500.000
G1 X50.386 Y5.065 Z17.270 F2500.000
G1 X49.397 Y5.065 Z17.415 F2500.000
G1 X48.408 Y5.065 Z17.531 F2500.000
G1 X47.418 Y5.065 Z17.625 F2500.000
G1 X46.429 Y5.065 Z17.692 F2500.000
G1 X45.440 Y5.065 Z17.738 F2500.000
G1 X44.451 Y5.065 Z17.764 F2500.000
G1 X43.462 Y5.065 Z17.777 F2500.000
G1 X42.473 Y5.065 Z17.785 F2500.000
G1 X39.505 Y5.065 Z17.791 F2500.000
G1 X37.527 Y5.065 Z17.785 F2500.000
G1 X35.549 Y5.065 Z17.764 F2500.000
G1 X34.560 Y5.065 Z17.739 F2500.000
G1 X33.571 Y5.065 Z17.692 F2500.000
G1 X32.582 Y5.065 Z17.624 F2500.000
G1 X31.592 Y5.065 Z17.532 F2500.000
G1 X30.603 Y5.065 Z17.414 F2500.000
G1 X29.614 Y5.065 Z17.270 F2500.000
G1 X28.625 Y5.065 Z17.099 F2500.000
G1 X27.636 Y5.065 Z16.898 F2500.000
G1 X26.647 Y5.065 Z16.800 F2500.000
G1 X5.875 Y5.065 Z16.800 F2500.000
(End of step 1.)
G0 Z19.770
G0 X5.973 Y11.465
(Begin step 2.)
G0 X5.973 Y11.465
(part 1)
G1 X5.973 Y11.465 Z16.800 F2500.000
G1 X26.685 Y11.465 Z16.800 F2500.000
G1 X27.672 Y11.465 Z16.841 F2500.000
G1 X28.658 Y11.465 Z17.042 F2500.000
G1 X29.644 Y11.465 Z17.215 F2500.000
G1 X30.630 Y11.465 Z17.360 F2500.000
G1 X31.617 Y11.465 Z17.478 F2500.000
G1 X32.603 Y11.465 Z17.571 F2500.000
G1 X33.589 Y11.465 Z17.640 F2500.000
G1 X34.575 Y11.465 Z17.685 F2500.000
G1 X35.562 Y11.465 Z17.711 F2500.000
G1 X37.534 Y11.465 Z17.731 F2500.000
G1 X39.507 Y11.465 Z17.738 F2500.000
G1 X42.466 Y11.465 Z17.731 F2500.000
G1 X44.438 Y11.465 Z17.711 F2500.000
G1 X45.425 Y11.465 Z17.685 F2500.000
G1 X46.411 Y11.465 Z17.639 F2500.000
G1 X47.397 Y11.465 Z17.571 F2500.000
G1 X48.383 Y11.465 Z17.478 F2500.000
G1 X49.370 Y11.465 Z17.360 F2500.000
G1 X50.356 Y11.465 Z17.215 F2500.000
G1 X51.342 Y11.465 Z17.042 F2500.000
G1 X52.328 Y11.465 Z16.841 F2500.000
G1 X53.315 Y11.465 Z16.800 F2500.000
G1 X74.027 Y11.465 Z16.800 F2500.000
(End of step 2.)
G0 Z19.770
G0 X73.928 Y17.865
(Begin step 3.)
G0 X73.928 Y17.865
(part 1)
G1 X73.928 Y17.865 Z16.800 F2500.000
G1 X52.973 Y17.865 Z16.800 F2500.000
G1 X51.975 Y17.865 Z16.854 F2500.000
G1 X50.977 Y17.865 Z17.048 F2500.000
G1 X49.979 Y17.865 Z17.214 F2500.000
G1 X48.981 Y17.865 Z17.351 F2500.000
G1 X47.983 Y17.865 Z17.462 F2500.000
G1 X46.985 Y17.865 Z17.547 F2500.000
G1 X45.987 Y17.865 Z17.608 F2500.000
G1 X44.989 Y17.865 Z17.645 F2500.000
G1 X43.992 Y17.865 Z17.665 F2500.000
G1 X41.996 Y17.865 Z17.680 F2500.000
G1 X40.000 Y17.865 Z17.685 F2500.000
G1 X37.006 Y17.865 Z17.675 F2500.000
G1 X36.008 Y17.865 Z17.665 F2500.000
G1 X35.011 Y17.865 Z17.645 F2500.000
G1 X34.013 Y17.865 Z17.608 F2500.000
G1 X33.015 Y17.865 Z17.548 F2500.000
G1 X32.017 Y17.865 Z17.462 F2500.000
G1 X31.019 Y17.865 Z17.351 F2500.000
G1 X30.021 Y17.865 Z17.214 F2500.000
G1 X29.023 Y17.865 Z17.048 F2500.000
G1 X28.025 Y17.865 Z16.854 F2500.000
G1 X27.027 Y17.865 Z16.800 F2500.000
G1 X6.072 Y17.865 Z16.800 F2500.000
(End of step 3.)
G0 Z19.770
G0 X6.170 Y24.265
(Begin step 4.)
G0 X6.170 Y24.265
(part 1)
G1 X6.170 Y24.265 Z16.800 F2500.000
G1 X28.060 Y24.265 Z16.800 F2500.000
G1 X29.055 Y24.265 Z16.992 F2500.000
G1 X30.050 Y24.265 Z17.158 F2500.000
G1 X31.045 Y24.265 Z17.297 F2500.000
G1 X32.040 Y24.265 Z17.409 F2500.000
G1 X33.035 Y24.265 Z17.494 F2500.000
G1 X34.030 Y24.265 Z17.555 F2500.000
G1 X35.025 Y24.265 Z17.592 F2500.000
G1 X36.020 Y24.265 Z17.611 F2500.000
G1 X37.015 Y24.265 Z17.621 F2500.000
G1 X40.000 Y24.265 Z17.631 F2500.000
G1 X41.990 Y24.265 Z17.627 F2500.000
G1 X42.985 Y24.265 Z17.621 F2500.000
G1 X43.980 Y24.265 Z17.611 F2500.000
G1 X44.975 Y24.265 Z17.592 F2500.000
G1 X45.970 Y24.265 Z17.555 F2500.000
G1 X46.965 Y24.265 Z17.494 F2500.000
G1 X47.960 Y24.265 Z17.409 F2500.000
G1 X48.955 Y24.265 Z17.296 F2500.000
G1 X49.950 Y24.265 Z17.158 F2500.000
G1 X50.945 Y24.265 Z16.993 F2500.000
G1 X51.940 Y24.265 Z16.800 F2500.000
G1 X73.830 Y24.265 Z16.800 F2500.000
(End of step 4.)
G0 Z19.770
G0 X73.731 Y30.665
(Begin step 5.)
G0 X73.731 Y30.665
(part 1)
G1 X73.731 Y30.665 Z16.800 F2500.000
G1 X51.905 Y30.665 Z16.800 F2500.000
G1 X50.913 Y30.665 Z16.937 F2500.000
G1 X49.921 Y30.665 Z17.104 F2500.000
G1 X48.929 Y30.665 Z17.242 F2500.000
G1 X47.937 Y30.665 Z17.355 F2500.000
G1 X46.945 Y30.665 Z17.440 F2500.000
G1 X45.953 Y30.665 Z17.501 F2500.000
G1 X44.960 Y30.665 Z17.539 F2500.000
G1 X43.968 Y30.665 Z17.558 F2500.000
G1 X42.976 Y30.665 Z17.568 F2500.000
G1 X41.984 Y30.665 Z17.574 F2500.000
G1 X40.000 Y30.665 Z17.578 F2500.000
G1 X38.016 Y30.665 Z17.574 F2500.000
G1 X36.032 Y30.665 Z17.559 F2500.000
G1 X35.040 Y30.665 Z17.539 F2500.000
G1 X34.047 Y30.665 Z17.501 F2500.000
G1 X33.055 Y30.665 Z17.441 F2500.000
G1 X32.063 Y30.665 Z17.354 F2500.000
G1 X31.071 Y30.665 Z17.243 F2500.000
G1 X30.079 Y30.665 Z17.103 F2500.000
G1 X29.087 Y30.665 Z16.937 F2500.000
G1 X28.095 Y30.665 Z16.800 F2500.000
G1 X6.269 Y30.665 Z16.800 F2500.000
(End of step 5.)
G0 Z19.770
G0 X6.367 Y37.065
(Begin step 6.)
G0 X6.367 Y37.065
(part 1)
G1 X6.367 Y37.065 Z16.800 F2500.000
G1 X28.130 Y37.065 Z16.800 F2500.000
G1 X29.119 Y37.065 Z16.881 F2500.000
G1 X30.108 Y37.065 Z17.049 F2500.000
G1 X31.097 Y37.065 Z17.188 F2500.000
G1 X32.086 Y37.065 Z17.301 F2500.000
G1 X33.076 Y37.065 Z17.387 F2500.000
G1 X34.065 Y37.065 Z17.448 F2500.000
G1 X35.054 Y37.065 Z17.486 F2500.000
G1 X36.043 Y37.065 Z17.505 F2500.000
G1 X38.022 Y37.065 Z17.521 F2500.000
G1 X40.000 Y37.065 Z17.525 F2500.000
G1 X41.978 Y37.065 Z17.521 F2500.000
G1 X42.968 Y37.065 Z17.515 F2500.000
G1 X43.957 Y37.065 Z17.505 F2500.000
G1 X44.946 Y37.065 Z17.486 F2500.000
G1 X45.935 Y37.065 Z17.447 F2500.000
G1 X46.924 Y37.065 Z17.386 F2500.000
G1 X47.914 Y37.065 Z17.301 F2500.000
G1 X48.903 Y37.065 Z17.188 F2500.000
G1 X49.892 Y37.065 Z17.049 F2500.000
G1 X50.881 Y37.065 Z16.881 F2500.000
G1 X51.870 Y37.065 Z16.800 F2500.000
G1 X73.633 Y37.065 Z16.800 F2500.000
(End of step 6.)
G0 Z19.770
G0 X73.534 Y43.465
(Begin step 7.)
G0 X73.534 Y43.465
(part 1)
G1 X73.534 Y43.465 Z16.800 F2500.000
G1 X51.836 Y43.465 Z16.800 F2500.000
G1 X50.849 Y43.465 Z16.826 F2500.000
G1 X49.863 Y43.465 Z16.994 F2500.000
G1 X48.877 Y43.465 Z17.134 F2500.000
G1 X47.890 Y43.465 Z17.247 F2500.000
G1 X46.904 Y43.465 Z17.334 F2500.000
G1 X45.918 Y43.465 Z17.394 F2500.000
G1 X44.932 Y43.465 Z17.432 F2500.000
G1 X43.945 Y43.465 Z17.451 F2500.000
G1 X42.959 Y43.465 Z17.462 F2500.000
G1 X40.000 Y43.465 Z17.472 F2500.000
G1 X38.027 Y43.465 Z17.468 F2500.000
G1 X36.055 Y43.465 Z17.452 F2500.000
G1 X35.068 Y43.465 Z17.432 F2500.000
G1 X34.082 Y43.465 Z17.395 F2500.000
G1 X33.096 Y43.465 Z17.333 F2500.000
G1 X32.110 Y43.465 Z17.247 F2500.000
G1 X31.123 Y43.465 Z17.134 F2500.000
G1 X30.137 Y43.465 Z16.994 F2500.000
G1 X29.151 Y43.465 Z16.827 F2500.000
G1 X28.164 Y43.465 Z16.800 F2500.000
G1 X6.466 Y43.465 Z16.800 F2500.000
(End of step 7.)
G0 Z19.770
G0 X6.564 Y49.865
(Begin step 8.)
G0 X6.564 Y49.865
(part 1)
G1 X6.564 Y49.865 Z16.800 F2500.000
G1 X28.522 Y49.865 Z16.800 F2500.000
G1 X29.520 Y49.865 Z16.833 F2500.000
G1 X30.518 Y49.865 Z16.993 F2500.000
G1 X31.516 Y49.865 Z17.126 F2500.000
G1 X32.514 Y49.865 Z17.230 F2500.000
G1 X33.512 Y49.865 Z17.308 F2500.000
G1 X34.511 Y49.865 Z17.360 F2500.000
G1 X35.509 Y49.865 Z17.390 F2500.000
G1 X36.507 Y49.865 Z17.404 F2500.000
G1 X37.505 Y49.865 Z17.411 F2500.000
G1 X40.499 Y49.865 Z17.418 F2500.000
G1 X42.495 Y49.865 Z17.412 F2500.000
G1 X43.493 Y49.865 Z17.404 F2500.000
G1 X44.491 Y49.865 Z17.390 F2500.000
G1 X45.489 Y49.865 Z17.361 F2500.000
G1 X46.488 Y49.865 Z17.308 F2500.000
G1 X47.486 Y49.865 Z17.230 F2500.000
G1 X48.484 Y49.865 Z17.126 F2500.000
G1 X49.482 Y49.865 Z16.993 F2500.000
G1 X50.480 Y49.865 Z16.832 F2500.000
G1 X51.478 Y49.865 Z16.800 F2500.000
G1 X73.436 Y49.865 Z16.800 F2500.000
(End of step 8.)
G0 Z19.770
G0 X73.337 Y56.265
(Begin step 9.)
G0 X73.337 Y56.265
(part 1)
G1 X73.337 Y56.265 Z16.800 F2500.000
G1 X50.449 Y56.265 Z16.800 F2500.000
G1 X49.454 Y56.265 Z16.938 F2500.000
G1 X48.459 Y56.265 Z17.071 F2500.000
G1 X47.464 Y56.265 Z17.176 F2500.000
G1 X46.468 Y56.265 Z17.255 F2500.000
G1 X45.473 Y56.265 Z17.308 F2500.000
G1 X44.478 Y56.265 Z17.337 F2500.000
G1 X43.483 Y56.265 Z17.351 F2500.000
G1 X41.493 Y56.265 Z17.363 F2500.000
G1 X39.502 Y56.265 Z17.365 F2500.000
G1 X37.512 Y56.265 Z17.358 F2500.000
G1 X36.517 Y56.265 Z17.351 F2500.000
G1 X35.522 Y56.265 Z17.336 F2500.000
G1 X34.527 Y56.265 Z17.307 F2500.000
G1 X33.532 Y56.265 Z17.255 F2500.000
G1 X32.536 Y56.265 Z17.176 F2500.000
G1 X31.541 Y56.265 Z17.071 F2500.000
G1 X30.546 Y56.265 Z16.939 F2500.000
G1 X29.551 Y56.265 Z16.800 F2500.000
G1 X6.663 Y56.265 Z16.800 F2500.000
(End of step 9.)
G0 Z19.770
G0 X6.761 Y62.665
(Begin step 10.)
G0 X6.761 Y62.665
(part 1)
G1 X6.761 Y62.665 Z16.800 F2500.000
G1 X29.582 Y62.665 Z16.800 F2500.000
G1 X30.574 Y62.665 Z16.884 F2500.000
G1 X31.566 Y62.665 Z17.017 F2500.000
G1 X32.558 Y62.665 Z17.122 F2500.000
G1 X33.551 Y62.665 Z17.201 F2500.000
G1 X34.543 Y62.665 Z17.254 F2500.000
G1 X35.535 Y62.665 Z17.284 F2500.000
G1 X36.527 Y62.665 Z17.297 F2500.000
G1 X37.519 Y62.665 Z17.305 F2500.000
G1 X39.504 Y62.665 Z17.312 F2500.000
G1 X41.488 Y62.665 Z17.310 F2500.000
G1 X43.473 Y62.665 Z17.298 F2500.000
G1 X44.465 Y62.665 Z17.283 F2500.000
G1 X45.457 Y62.665 Z17.255 F2500.000
G1 X46.449 Y62.665 Z17.201 F2500.000
G1 X47.442 Y62.665 Z17.123 F2500.000
G1 X48.434 Y62.665 Z17.018 F2500.000
G1 X49.426 Y62.665 Z16.885 F2500.000
G1 X50.418 Y62.665 Z16.800 F2500.000
G1 X73.239 Y62.665 Z16.800 F2500.000
(End of step 10.)
G0 Z19.770
G0 X73.141 Y69.065
(Begin step 11.)
G0 X73.141 Y69.065
(part 1)
G1 X73.141 Y69.065 Z16.800 F2500.000
G1 X50.387 Y69.065 Z16.800 F2500.000
G1 X49.398 Y69.065 Z16.830 F2500.000
G1 X48.409 Y69.065 Z16.963 F2500.000
G1 X47.420 Y69.065 Z17.070 F2500.000
G1 X46.430 Y69.065 Z17.149 F2500.000
G1 X45.441 Y69.065 Z17.201 F2500.000
G1 X44.452 Y69.065 Z17.230 F2500.000
G1 X43.462 Y69.065 Z17.245 F2500.000
G1 X42.473 Y69.065 Z17.253 F2500.000
G1 X40.495 Y69.065 Z17.259 F2500.000
G1 X38.516 Y69.065 Z17.257 F2500.000
G1 X36.538 Y69.065 Z17.244 F2500.000
G1 X35.548 Y69.065 Z17.231 F2500.000
G1 X34.559 Y69.065 Z17.201 F2500.000
G1 X33.570 Y69.065 Z17.149 F2500.000
G1 X32.580 Y69.065 Z17.070 F2500.000
G1 X31.591 Y69.065 Z16.964 F2500.000
G1 X30.602 Y69.065 Z16.830 F2500.000
G1 X29.613 Y69.065 Z16.800 F2500.000
G1 X6.859 Y69.065 Z16.800 F2500.000
(End of step 11.)
G0 Z19.770
G0 X6.958 Y75.465
(Begin step 12.)
G0 X6.958 Y75.465
(part 1)
G1 X6.958 Y75.465 Z16.800 F2500.000
G1 X30.630 Y75.465 Z16.800 F2500.000
G1 X32.603 Y75.465 Z17.017 F2500.000
G1 X33.589 Y75.465 Z17.096 F2500.000
G1 X34.575 Y75.465 Z17.148 F2500.000
G1 X35.562 Y75.465 Z17.177 F2500.000
G1 X36.548 Y75.465 Z17.191 F2500.000
G1 X37.534 Y75.465 Z17.199 F2500.000
G1 X39.507 Y75.465 Z17.206 F2500.000
G1 X41.479 Y75.465 Z17.203 F2500.000
G1 X43.452 Y75.465 Z17.192 F2500.000
G1 X44.438 Y75.465 Z17.177 F2500.000
G1 X45.425 Y75.465 Z17.148 F2500.000
G1 X46.411 Y75.465 Z17.096 F2500.000
G1 X47.397 Y75.465 Z17.017 F2500.000
G1 X49.370 Y75.465 Z16.800 F2500.000
G1 X73.042 Y75.465 Z16.800 F2500.000
(End of step 12.)
G0 Z19.770
G0 X72.944 Y81.865
(Begin step 13.)
G0 X72.944 Y81.865
(part 1)
G1 X72.944 Y81.865 Z16.800 F2500.000
G1 X48.985 Y81.865 Z16.800 F2500.000
G1 X46.988 Y81.865 Z16.997 F2500.000
G1 X45.990 Y81.865 Z17.067 F2500.000
G1 X44.991 Y81.865 Z17.110 F2500.000
G1 X43.993 Y81.865 Z17.132 F2500.000
G1 X42.995 Y81.865 Z17.142 F2500.000
G1 X40.000 Y81.865 Z17.153 F2500.000
G1 X38.003 Y81.865 Z17.148 F2500.000
G1 X37.005 Y81.865 Z17.142 F2500.000
G1 X36.007 Y81.865 Z17.132 F2500.000
G1 X35.009 Y81.865 Z17.110 F2500.000
G1 X34.010 Y81.865 Z17.067 F2500.000
G1 X33.012 Y81.865 Z16.996 F2500.000
G1 X31.015 Y81.865 Z16.800 F2500.000
G1 X7.056 Y81.865 Z16.800 F2500.000
(End of step 13.)
G0 Z19.770
G0 X7.155 Y88.265
(Begin step 14.)
G0 X7.155 Y88.265
(part 1)
G1 X7.155 Y88.265 Z16.800 F2500.000
G1 X31.042 Y88.265 Z16.800 F2500.000
G1 X32.038 Y88.265 Z16.846 F2500.000
G1 X33.033 Y88.265 Z16.944 F2500.000
G1 X34.028 Y88.265 Z17.014 F2500.000
G1 X35.023 Y88.265 Z17.057 F2500.000
G1 X36.019 Y88.265 Z17.079 F2500.000
G1 X37.014 Y88.265 Z17.089 F2500.000
G1 X38.009 Y88.265 Z17.095 F2500.000
G1 X40.000 Y88.265 Z17.099 F2500.000
G1 X42.986 Y88.265 Z17.089 F2500.000
G1 X43.981 Y88.265 Z17.079 F2500.000
G1 X44.977 Y88.265 Z17.057 F2500.000
G1 X45.972 Y88.265 Z17.014 F2500.000
G1 X46.967 Y88.265 Z16.944 F2500.000
G1 X47.962 Y88.265 Z16.846 F2500.000
G1 X48.958 Y88.265 Z16.800 F2500.000
G1 X72.845 Y88.265 Z16.800 F2500.000
(End of step 14.)
G0 Z19.770
G0 X72.747 Y94.665
(Begin step 15.)
G0 X72.747 Y94.665
(part 1)
G1 X72.747 Y94.665 Z16.800 F2500.000
G1 X47.939 Y94.665 Z16.800 F2500.000
G1 X46.946 Y94.665 Z16.891 F2500.000
G1 X45.954 Y94.665 Z16.961 F2500.000
G1 X44.962 Y94.665 Z17.004 F2500.000
G1 X43.969 Y94.665 Z17.026 F2500.000
G1 X42.977 Y94.665 Z17.036 F2500.000
G1 X40.000 Y94.665 Z17.046 F2500.000
G1 X38.015 Y94.665 Z17.042 F2500.000
G1 X37.023 Y94.665 Z17.036 F2500.000
G1 X36.031 Y94.665 Z17.026 F2500.000
G1 X35.038 Y94.665 Z17.004 F2500.000
G1 X34.046 Y94.665 Z16.961 F2500.000
G1 X33.054 Y94.665 Z16.891 F2500.000
G1 X32.061 Y94.665 Z16.800 F2500.000
G1 X7.253 Y94.665 Z16.800 F2500.000
(End of step 15.)
G0 Z19.770
G0 X7.352 Y101.065
(Begin step 16.)
G0 X7.352 Y101.065
(part 1)
G1 X7.352 Y101.065 Z16.800 F2500.000
G1 X32.085 Y101.065 Z16.800 F2500.000
G1 X33.075 Y101.065 Z16.838 F2500.000
G1 X34.064 Y101.065 Z16.908 F2500.000
G1 X35.053 Y101.065 Z16.950 F2500.000
G1 X36.043 Y101.065 Z16.973 F2500.000
G1 X37.032 Y101.065 Z16.983 F2500.000
G1 X38.021 Y101.065 Z16.989 F2500.000
G1 X40.000 Y101.065 Z16.993 F2500.000
G1 X41.979 Y101.065 Z16.988 F2500.000
G1 X42.968 Y101.065 Z16.982 F2500.000
G1 X43.957 Y101.065 Z16.973 F2500.000
G1 X44.947 Y101.065 Z16.951 F2500.000
G1 X45.936 Y101.065 Z16.908 F2500.000
G1 X46.925 Y101.065 Z16.838 F2500.000
G1 X47.915 Y101.065 Z16.800 F2500.000
G1 X72.648 Y101.065 Z16.800 F2500.000
(End of step 16.)
G0 Z19.770
G0 X72.550 Y107.465
(Begin step 17.)
G0 X72.550 Y107.465
(part 1)
G1 X72.550 Y107.465 Z16.800 F2500.000
G1 X46.905 Y107.465 Z16.800 F2500.000
G1 X45.918 Y107.465 Z16.855 F2500.000
G1 X44.932 Y107.465 Z16.898 F2500.000
G1 X43.945 Y107.465 Z16.919 F2500.000
G1 X42.959 Y107.465 Z16.930 F2500.000
G1 X41.973 Y107.465 Z16.935 F2500.000
G1 X40.000 Y107.465 Z16.939 F2500.000
G1 X38.027 Y107.465 Z16.935 F2500.000
G1 X37.041 Y107.465 Z16.930 F2500.000
G1 X36.055 Y107.465 Z16.919 F2500.000
G1 X35.068 Y107.465 Z16.898 F2500.000
G1 X34.082 Y107.465 Z16.855 F2500.000
G1 X33.095 Y107.465 Z16.800 F2500.000
G1 X7.450 Y107.465 Z16.800 F2500.000
(End of step 17.)
G0 Z19.770
G0 X7.549 Y113.865
(Begin step 18.)
G0 X7.549 Y113.865
(part 1)
G1 X7.549 Y113.865 Z16.800 F2500.000
G1 X33.510 Y113.865 Z16.800 F2500.000
G1 X34.508 Y113.865 Z16.823 F2500.000
G1 X35.507 Y113.865 Z16.856 F2500.000
G1 X36.505 Y113.865 Z16.871 F2500.000
G1 X37.504 Y113.865 Z16.880 F2500.000
G1 X39.501 Y113.865 Z16.886 F2500.000
G1 X41.498 Y113.865 Z16.884 F2500.000
G1 X43.495 Y113.865 Z16.872 F2500.000
G1 X44.493 Y113.865 Z16.856 F2500.000
G1 X45.492 Y113.865 Z16.822 F2500.000
G1 X46.490 Y113.865 Z16.800 F2500.000
G1 X72.451 Y113.865 Z16.800 F2500.000
(End of step 18.)
G0 Z19.770
G0 X72.353 Y120.265
(Begin step 19.)
G0 X72.353 Y120.265
(part 1)
G1 X72.353 Y120.265 Z16.800 F2500.000
G1 X45.475 Y120.265 Z16.800 F2500.000
G1 X44.480 Y120.265 Z16.803 F2500.000
G1 X43.484 Y120.265 Z16.818 F2500.000
G1 X42.489 Y120.265 Z16.826 F2500.000
G1 X41.493 Y120.265 Z16.831 F2500.000
G1 X39.502 Y120.265 Z16.833 F2500.000
G1 X37.511 Y120.265 Z16.826 F2500.000
G1 X36.516 Y120.265 Z16.818 F2500.000
G1 X35.520 Y120.265 Z16.803 F2500.000
G1 X34.525 Y120.265 Z16.800 F2500.000
G1 X7.647 Y120.265 Z16.800 F2500.000
(End of step 19.)
G0 Z19.770
G0 X7.745 Y126.665
(Begin step 20.)
G0 X7.745 Y126.665
(part 1)
G1 X7.745 Y126.665 Z16.800 F2500.000
G1 X72.255 Y126.665 Z16.800 F2500.000
(End of step 20.)
G0 Z19.770
G0 X72.156 Y133.065
(Begin step 21.)
G0 X72.156 Y133.065
(part 1)
G1 X72.156 Y133.065 Z16.800 F2500.000
G1 X7.844 Y133.065 Z16.800 F2500.000
(End of step 21.)
G0 Z19.770
G0 X7.942 Y139.465
(Begin step 22.)
G0 X7.942 Y139.465
(part 1)
G1 X7.942 Y139.465 Z16.800 F2500.000
G1 X72.058 Y139.465 Z16.800 F2500.000
(End of step 22.)
G0 Z19.770
G0 X71.959 Y145.865
(Begin step 23.)
G0 X71.959 Y145.865
(part 1)
G1 X71.959 Y145.865 Z16.800 F2500.000
G1 X8.041 Y145.865 Z16.800 F2500.000
(End of step 23.)
G0 Z19.770
G0 X8.139 Y152.265
(Begin step 24.)
G0 X8.139 Y152.265
(part 1)
G1 X8.139 Y152.265 Z16.800 F2500.000
G1 X71.861 Y152.265 Z16.800 F2500.000
(End of step 24.)
G0 Z19.770
G0 X71.762 Y158.665
(Begin step 25.)
G0 X71.762 Y158.665
(part 1)
G1 X71.762 Y158.665 Z16.800 F2500.000
G1 X8.238 Y158.665 Z16.800 F2500.000
(End of step 25.)
G0 Z19.770
G0 X8.336 Y165.065
(Begin step 26.)
G0 X8.336 Y165.065
(part 1)
G1 X8.336 Y165.065 Z16.800 F2500.000
G1 X71.664 Y165.065 Z16.800 F2500.000
(End of step 26.)
G0 Z19.770
G0 X71.565 Y171.465
(Begin step 27.)
G0 X71.565 Y171.465
(part 1)
G1 X71.565 Y171.465 Z16.800 F2500.000
G1 X8.435 Y171.465 Z16.800 F2500.000
(End of step 27.)
G0 Z19.770
G0 X8.533 Y177.865
(Begin step 28.)
G0 X8.533 Y177.865
(part 1)
G1 X8.533 Y177.865 Z16.800 F2500.000
G1 X71.467 Y177.865 Z16.800 F2500.000
(End of step 28.)
G0 Z19.770
G0 X71.368 Y184.265
(Begin step 29.)
G0 X71.368 Y184.265
(part 1)
G1 X71.368 Y184.265 Z16.800 F2500.000
G1 X8.632 Y184.265 Z16.800 F2500.000
(End of step 29.)
G0 Z19.770
G0 X8.730 Y190.665
(Begin step 30.)
G0 X8.730 Y190.665
(part 1)
G1 X8.730 Y190.665 Z16.800 F2500.000
G1 X71.270 Y190.665 Z16.800 F2500.000
(End of step 30.)
G0 Z19.770
G0 X71.172 Y197.065
(Begin step 31.)
G0 X71.172 Y197.065
(part 1)
G1 X71.172 Y197.065 Z16.800 F2500.000
G1 X8.828 Y197.065 Z16.800 F2500.000
(End of step 31.)
G0 Z19.770
G0 X8.927 Y203.465
(Begin step 32.)
G0 X8.927 Y203.465
(part 1)
G1 X8.927 Y203.465 Z16.800 F2500.000
G1 X71.073 Y203.465 Z16.800 F2500.000
(End of step 32.)
G0 Z19.770
G0 X70.975 Y209.865
(Begin step 33.)
G0 X70.975 Y209.865
(part 1)
G1 X70.975 Y209.865 Z16.800 F2500.000
G1 X9.025 Y209.865 Z16.800 F2500.000
(End of step 33.)
G0 Z19.770
G0 X9.124 Y216.265
(Begin step 34.)
G0 X9.124 Y216.265
(part 1)
G1 X9.124 Y216.265 Z16.800 F2500.000
G1 X70.876 Y216.265 Z16.800 F2500.000
(End of step 34.)
G0 Z19.770
G0 X70.778 Y222.665
(Begin step 35.)
G0 X70.778 Y222.665
(part 1)
G1 X70.778 Y222.665 Z16.800 F2500.000
G1 X9.222 Y222.665 Z16.800 F2500.000
(End of step 35.)
G0 Z19.770
G0 X9.321 Y229.065
(Begin step 36.)
G0 X9.321 Y229.065
(part 1)
G1 X9.321 Y229.065 Z16.800 F2500.000
G1 X70.679 Y229.065 Z16.800 F2500.000
(End of step 36.)
G0 Z19.770
G0 X70.581 Y235.465
(Begin step 37.)
G0 X70.581 Y235.465
(part 1)
G1 X70.581 Y235.465 Z16.800 F2500.000
G1 X9.419 Y235.465 Z16.800 F2500.000
(End of step 37.)
G0 Z19.770
G0 X9.727 Y241.865
(Begin step 38.)
G0 X9.727 Y241.865
(part 1)
G1 X9.727 Y241.865 Z16.800 F2500.000
G1 X70.273 Y241.865 Z16.800 F2500.000
(End of step 38.)
(End of layer 0)
(Layer 1 begins)
(Layer transition)
G0 Z19.770
G0 X6.027 Y-1.335
(Begin step 0.)
G0 X6.027 Y-1.335
(part 1)
G1 X6.027 Y-1.335 Z12.800 F2500.000
G1 X17.018 Y-1.335 Z12.800 F2500.000
G1 X18.017 Y-1.335 Z13.071 F2500.000
G1 X19.017 Y-1.335 Z13.649 F2500.000
G1 X20.016 Y-1.335 Z14.180 F2500.000
G1 X21.015 Y-1.335 Z14.665 F2500.000
G1 X22.014 Y-1.335 Z15.108 F2500.000
G1 X23.013 Y-1.335 Z15.510 F2500.000
G1 X24.013 Y-1.335 Z15.873 F2500.000
G1 X25.012 Y-1.335 Z16.201 F2500.000
G1 X26.011 Y-1.335 Z16.493 F2500.000
G1 X27.010 Y-1.335 Z16.752 F2500.000
G1 X28.009 Y-1.335 Z16.979 F2500.000
G1 X29.009 Y-1.335 Z17.175 F2500.000
G1 X30.008 Y-1.335 Z17.343 F2500.000
G1 X31.007 Y-1.335 Z17.482 F2500.000
G1 X32.006 Y-1.335 Z17.595 F2500.000
G1 X33.006 Y-1.335 Z17.682 F2500.000
G1 X34.005 Y-1.335 Z17.745 F2500.000
G1 X35.004 Y-1.335 Z17.783 F2500.000
G1 X36.003 Y-1.335 Z17.799 F2500.000
G1 X37.002 Y-1.335 Z17.800 F2500.000
G1 X43.997 Y-1.335 Z17.799 F2500.000
G1 X44.996 Y-1.335 Z17.783 F2500.000
G1 X45.995 Y-1.335 Z17.744 F2500.000
G1 X46.994 Y-1.335 Z17.682 F2500.000
G1 X47.994 Y-1.335 Z17.595 F2500.000
G1 X48.993 Y-1.335 Z17.482 F2500.000
G1 X49.992 Y-1.335 Z17.343 F2500.000
G1 X50.991 Y-1.335 Z17.175 F2500.000
G1 X51.991 Y-1.335 Z16.979 F2500.000
G1 X52.990 Y-1.335 Z16.752 F2500.000
G1 X53.989 Y-1.335 Z16.493 F2500.000
G1 X54.988 Y-1.335 Z16.201 F2500.000
G1 X55.987 Y-1.335 Z15.874 F2500.000
G1 X56.987 Y-1.335 Z15.510 F2500.000
G1 X57.986 Y-1.335 Z15.108 F2500.000
G1 X58.985 Y-1.335 Z14.665 F2500.000
G1 X59.984 Y-1.335 Z14.179 F2500.000
G1 X60.983 Y-1.335 Z13.649 F2500.000
G1 X61.983 Y-1.335 Z13.071 F2500.000
G1 X62.982 Y-1.335 Z12.800 F2500.000
G1 X73.973 Y-1.335 Z12.800 F2500.000
(End of step 0.)
G0 Z19.770
G0 X74.125 Y5.065
(Begin step 1.)
G0 X74.125 Y5.065
(part 1)
G1 X74.125 Y5.065 Z12.800 F2500.000
G1 X63.245 Y5.065 Z12.800 F2500.000
G1 X62.255 Y5.065 Z12.977 F2500.000
G1 X61.266 Y5.065 Z13.554 F2500.000
G1 X60.277 Y5.065 Z14.083 F2500.000
G1 X59.288 Y5.065 Z14.568 F2500.000
G1 X58.299 Y5.065 Z15.011 F2500.000
G1 X57.310 Y5.065 Z15.415 F2500.000
G1 X56.321 Y5.065 Z15.780 F2500.000
G1 X55.332 Y5.065 Z16.109 F2500.000
G1 X54.342 Y5.065 Z16.405 F2500.000
G1 X53.353 Y5.065 Z16.667 F2500.000
G1 X52.364 Y5.065 Z16.898 F2500.000
G1 X51.375 Y5.065 Z17.098 F2500.000
G1 X50.386 Y5.065 Z17.270 F2500.000
G1 X49.397 Y5.065 Z17.415 F2500.000
G1 X48.408 Y5.065 Z17.531 F2500.000
G1 X47.418 Y5.065 Z17.625 F2500.000
G1 X46.429 Y5.065 Z17.692 F2500.000
G1 X45.440 Y5.065 Z17.738 F2500.000
G1 X44.451 Y5.065 Z17.764 F2500.000
G1 X43.462 Y5.065 Z17.777 F2500.000
G1 X42.473 Y5.065 Z17.785 F2500.000
G1 X39.505 Y5.065 Z17.791 F2500.000
G1 X37.527 Y5.065 Z17.785 F2500.000
G1 X35.549 Y5.065 Z17.764 F2500.000
G1 X34.560 Y5.065 Z17.739 F2500.000
G1 X33.571 Y5.065 Z17.692 F2500.000
G1 X32.582 Y5.065 Z17.624 F2500.000
G1 X31.592 Y5.065 Z17.532 F2500.000
G1 X30.603 Y5.065 Z17.414 F2500.000
G1 X29.614 Y5.065 Z17.270 F2500.000
G1 X28.625 Y5.065 Z17.099 F2500.000
G1 X27.636 Y5.065 Z16.898 F2500.000
G1 X26.647 Y5.065 Z16.667 F2500.000
G1 X25.658 Y5.065 Z16.405 F2500.000
G1 X24.668 Y5.065 Z16.110 F2500.000
G1 X23.679 Y5.065 Z15.780 F2500.000
G1 X22.690 Y5.065 Z15.414 F2500.000
G1 X21.701 Y5.065 Z15.011 F2500.000
G1 X20.712 Y5.065 Z14.568 F2500.000
G1 X19.723 Y5.065 Z14.083 F2500.000
G1 X18.734 Y5.065 Z13.554 F2500.000
G1 X17.745 Y5.065 Z12.977 F2500.000
G1 X16.755 Y5.065 Z12.800 F2500.000
G1 X5.875 Y5.065 Z12.800 F2500.000
(End of step 1.)
G0 Z19.770
G0 X5.973 Y11.465
(Begin step 2.)
G0 X5.973 Y11.465
(part 1)
G1 X5.973 Y11.465 Z12.800 F2500.000
G1 X16.822 Y11.465 Z12.800 F2500.000
G1 X17.809 Y11.465 Z12.931 F2500.000
G1 X18.795 Y11.465 Z13.504 F2500.000
G1 X19.781 Y11.465 Z14.032 F2500.000
G1 X20.768 Y11.465 Z14.515 F2500.000
G1 X21.754 Y11.465 Z14.956 F2500.000
G1 X22.740 Y11.465 Z15.359 F2500.000
G1 X23.726 Y11.465 Z15.723 F2500.000
G1 X24.713 Y11.465 Z16.053 F2500.000
G1 X25.699 Y11.465 Z16.348 F2500.000
G1 X26.685 Y11.465 Z16.610 F2500.000
G1 X27.672 Y11.465 Z16.841 F2500.000
G1 X28.658 Y11.465 Z17.042 F2500.000
G1 X29.644 Y11.465 Z17.215 F2500.000
G1 X30.630 Y11.465 Z17.360 F2500.000
G1 X31.617 Y11.465 Z17.478 F2500.000
G1 X32.603 Y11.465 Z17.571 F2500.000
G1 X33.589 Y11.465 Z17.640 F2500.000
G1 X34.575 Y11.465 Z17.685 F2500.000
G1 X35.562 Y11.465 Z17.711 F2500.000
G1 X37.534 Y11.465 Z17.731 F2500.000
G1 X39.507 Y11.465 Z17.738 F2500.000
G1 X42.466 Y11.465 Z17.731 F2500.000
G1 X44.438 Y11.465 Z17.711 F2500.000
G1 X45.425 Y11.465 Z17.685 F2500.000
G1 X46.411 Y11.465 Z17.639 F2500.000
G1 X47.397 Y11.465 Z17.571 F2500.000
G1 X48.383 Y11.465 Z17.478 F2500.000
G1 X49.370 Y11.465 Z17.360 F2500.000
G1 X50.356 Y11.465 Z17.215 F2500.000
G1 X51.342 Y11.465 Z17.042 F2500.000
G1 X52.328 Y11.465 Z16.841 F2500.000
G1 X53.315 Y11.465 Z16.610 F2500.000
G1 X54.301 Y11.465 Z16.348 F2500.000
G1 X55.287 Y11.465 Z16.053 F2500.000
G1 X56.274 Y11.465 Z15.724 F2500.000
G1 X57.260 Y11.465 Z15.359 F2500.000
G1 X58.246 Y11.465 Z14.956 F2500.000
G1 X59.232 Y11.465 Z14.515 F2500.000
G1 X60.219 Y11.465 Z14.031 F2500.000
G1 X61.205 Y11.465 Z13.504 F2500.000
G1 X62.191 Y11.465 Z12.931 F2500.000
G1 X63.178 Y11.465 Z12.800 F2500.000
G1 X74.027 Y11.465 Z12.800 F2500.000
(End of step 2.)
G0 Z19.770
G0 X73.928 Y17.865
(Begin step 3.)
G0 X73.928 Y17.865
(part 1)
G1 X73.928 Y17.865 Z12.800 F2500.000
G1 X62.951 Y17.865 Z12.800 F2500.000
G1 X61.954 Y17.865 Z12.987 F2500.000
G1 X60.956 Y17.865 Z13.558 F2500.000
G1 X59.958 Y17.865 Z14.083 F2500.000
G1 X58.960 Y17.865 Z14.562 F2500.000
G1 X57.962 Y17.865 Z15.000 F2500.000
G1 X56.964 Y17.865 Z15.398 F2500.000
G1 X55.966 Y17.865 Z15.758 F2500.000
G1 X54.968 Y17.865 Z16.082 F2500.000
G1 X53.970 Y17.865 Z16.371 F2500.000
G1 X52.973 Y17.865 Z16.628 F2500.000
G1 X51.975 Y17.865 Z16.854 F2500.000
G1 X50.977 Y17.865 Z17.048 F2500.000
G1 X49.979 Y17.865 Z17.214 F2500.000
G1 X48.981 Y17.865 Z17.351 F2500.000
G1 X47.983 Y17.865 Z17.462 F2500.000
G1 X46.985 Y17.865 Z17.547 F2500.000
G1 X45.987 Y17.865 Z17.608 F2500.000
G1 X44.989 Y17.865 Z17.645 F2500.000
G1 X43.992 Y17.865 Z17.665 F2500.000
G1 X41.996 Y17.865 Z17.680 F2500.000
G1 X40.000 Y17.865 Z17.685 F2500.000
G1 X37.006 Y17.865 Z17.675 F2500.000
G1 X36.008 Y17.865 Z17.665 F2500.000
G1 X35.011 Y17.865 Z17.645 F2500.000
G1 X34.013 Y17.865 Z17.608 F2500.000
G1 X33.015 Y17.865 Z17.548 F2500.000
G1 X32.017 Y17.865 Z17.462 F2500.000
G1 X31.019 Y17.865 Z17.351 F2500.000
G1 X30.021 Y17.865 Z17.214 F2500.000
G1 X29.023 Y17.865 Z17.048 F2500.000
G1 X28.025 Y17.865 Z16.854 F2500.000
G1 X27.027 Y17.865 Z16.628 F2500.000
G1 X26.030 Y17.865 Z16.371 F2500.000
G1 X25.032 Y17.865 Z16.082 F2500.000
G1 X24.034 Y17.865 Z15.758 F2500.000
G1 X23.036 Y17.865 Z15.398 F2500.000
G1 X22.038 Y17.865 Z15.000 F2500.000
G1 X21.040 Y17.865 Z14.562 F2500.000
G1 X20.042 Y17.865 Z14.083 F2500.000
G1 X19.044 Y17.865 Z13.558 F2500.000
G1 X18.046 Y17.865 Z12.987 F2500.000
G1 X17.049 Y17.865 Z12.800 F2500.000
G1 X6.072 Y17.865 Z12.800 F2500.000
(End of step 3.)
G0 Z19.770
G0 X6.170 Y24.265
(Begin step 4.)
G0 X6.170 Y24.265
(part 1)
G1 X6.170 Y24.265 Z12.800 F2500.000
G1 X17.115 Y24.265 Z12.800 F2500.000
G1 X18.110 Y24.265 Z12.940 F2500.000
G1 X19.105 Y24.265 Z13.508 F2500.000
G1 X20.100 Y24.265 Z14.029 F2500.000
G1 X21.095 Y24.265 Z14.509 F2500.000
G1 X22.090 Y24.265 Z14.945 F2500.000
G1 X23.085 Y24.265 Z15.341 F2500.000
G1 X24.080 Y24.265 Z15.701 F2500.000
G1 X25.075 Y24.265 Z16.025 F2500.000
G1 X26.070 Y24.265 Z16.314 F2500.000
G1 X27.065 Y24.265 Z16.572 F2500.000
G1 X28.060 Y24.265 Z16.797 F2500.000
G1 X29.055 Y24.265 Z16.992 F2500.000
G1 X30.050 Y24.265 Z17.158 F2500.000
G1 X31.045 Y24.265 Z17.297 F2500.000
G1 X32.040 Y24.265 Z17.409 F2500.000
G1 X33.035 Y24.265 Z17.494 F2500.000
G1 X34.030 Y24.265 Z17.555 F2500.000
G1 X35.025 Y24.265 Z17.592 F2500.000
G1 X36.020 Y24.265 Z17.611 F2500.000
G1 X37.015 Y24.265 Z17.621 F2500.000
G1 X40.000 Y24.265 Z17.631 F2500.000
G1 X41.990 Y24.265 Z17.627 F2500.000
G1 X42.985 Y24.265 Z17.621 F2500.000
G1 X43.980 Y24.265 Z17.611 F2500.000
G1 X44.975 Y24.265 Z17.592 F2500.000
G1 X45.970 Y24.265 Z17.555 F2500.000
G1 X46.965 Y24.265 Z17.494 F2500.000
G1 X47.960 Y24.265 Z17.409 F2500.000
G1 X48.955 Y24.265 Z17.296 F2500.000
G1 X49.950 Y24.265 Z17.158 F2500.000
G1 X50.945 Y24.265 Z16.993 F2500.000
G1 X51.940 Y24.265 Z16.798 F2500.000
G1 X52.935 Y24.265 Z16.572 F2500.000
G1 X53.930 Y24.265 Z16.313 F2500.000
G1 X54.925 Y24.265 Z16.025 F2500.000
G1 X55.920 Y24.265 Z15.702 F2500.000
G1 X56.915 Y24.265 Z15.341 F2500.000
G1 X57.910 Y24.265 Z14.945 F2500.000
G1 X58.905 Y24.265 Z14.509 F2500.000
G1 X59.900 Y24.265 Z14.029 F2500.000
G1 X60.895 Y24.265 Z13.508 F2500.000
G1 X61.890 Y24.265 Z12.941 F2500.000
G1 X62.885 Y24.265 Z12.800 F2500.000
G1 X73.830 Y24.265 Z12.800 F2500.000
(End of step 4.)
G0 Z19.770
G0 X73.731 Y30.665
(Begin step 5.)
G0 X73.731 Y30.665
(part 1)
G1 X73.731 Y30.665 Z12.800 F2500.000
G1 X62.818 Y30.665 Z12.800 F2500.000
G1 X61.826 Y30.665 Z12.893 F2500.000
G1 X60.834 Y30.665 Z13.458 F2500.000
G1 X59.842 Y30.665 Z13.979 F2500.000
G1 X58.850 Y30.665 Z14.455 F2500.000
G1 X57.858 Y30.665 Z14.890 F2500.000
G1 X56.866 Y30.665 Z15.287 F2500.000
G1 X55.874 Y30.665 Z15.646 F2500.000
G1 X54.881 Y30.665 Z15.969 F2500.000
G1 X53.889 Y30.665 Z16.259 F2500.000
G1 X52.897 Y30.665 Z16.515 F2500.000
G1 X51.905 Y30.665 Z16.742 F2500.000
G1 X50.913 Y30.665 Z16.937 F2500.000
G1 X49.921 Y30.665 Z17.104 F2500.000
G1 X48.929 Y30.665 Z17.242 F2500.000
G1 X47.937 Y30.665 Z17.355 F2500.000
G1 X46.945 Y30.665 Z17.440 F2500.000
G1 X45.953 Y30.665 Z17.501 F2500.000
G1 X44.960 Y30.665 Z17.539 F2500.000
G1 X43.968 Y30.665 Z17.558 F2500.000
G1 X42.976 Y30.665 Z17.568 F2500.000
G1 X41.984 Y30.665 Z17.574 F2500.000
G1 X40.000 Y30.665 Z17.578 F2500.000
G1 X38.016 Y30.665 Z17.574 F2500.000
G1 X36.032 Y30.665 Z17.559 F2500.000
G1 X35.040 Y30.665 Z17.539 F2500.000
G1 X34.047 Y30.665 Z17.501 F2500.000
G1 X33.055 Y30.665 Z17.441 F2500.000
G1 X32.063 Y30.665 Z17.354 F2500.000
G1 X31.071 Y30.665 Z17.243 F2500.000
G1 X30.079 Y30.665 Z17.103 F2500.000
G1 X29.087 Y30.665 Z16.937 F2500.000
G1 X28.095 Y30.665 Z16.741 F2500.000
G1 X27.103 Y30.665 Z16.515 F2500.000
G1 X26.111 Y30.665 Z16.258 F2500.000
G1 X25.119 Y30.665 Z15.969 F2500.000
G1 X24.126 Y30.665 Z15.645 F2500.000
G1 X23.134 Y30.665 Z15.287 F2500.000
G1 X22.142 Y30.665 Z14.890 F2500.000
G1 X21.150 Y30.665 Z14.455 F2500.000
G1 X20.158 Y30.665 Z13.979 F2500.000
G1 X19.166 Y30.665 Z13.458 F2500.000
G1 X18.174 Y30.665 Z12.893 F2500.000
G1 X17.182 Y30.665 Z12.800 F2500.000
G1 X6.269 Y30.665 Z12.800 F2500.000
(End of step 5.)
G0 Z19.770
G0 X6.367 Y37.065
(Begin step 6.)
G0 X6.367 Y37.065
(part 1)
G1 X6.367 Y37.065 Z12.800 F2500.000
G1 X17.248 Y37.065 Z12.800 F2500.000
G1 X18.238 Y37.065 Z12.846 F2500.000
G1 X19.227 Y37.065 Z13.409 F2500.000
G1 X20.216 Y37.065 Z13.927 F2500.000
G1 X21.205 Y37.065 Z14.402 F2500.000
G1 X22.194 Y37.065 Z14.835 F2500.000
G1 X23.184 Y37.065 Z15.231 F2500.000
G1 X24.173 Y37.065 Z15.589 F2500.000
G1 X25.162 Y37.065 Z15.913 F2500.000
G1 X26.151 Y37.065 Z16.201 F2500.000
G1 X27.140 Y37.065 Z16.458 F2500.000
G1 X28.130 Y37.065 Z16.685 F2500.000
G1 X29.119 Y37.065 Z16.881 F2500.000
G1 X30.108 Y37.065 Z17.049 F2500.000
G1 X31.097 Y37.065 Z17.188 F2500.000
G1 X32.086 Y37.065 Z17.301 F2500.000
G1 X33.076 Y37.065 Z17.387 F2500.000
G1 X34.065 Y37.065 Z17.448 F2500.000
G1 X35.054 Y37.065 Z17.486 F2500.000
G1 X36.043 Y37.065 Z17.505 F2500.000
G1 X37.032 Y37.065 Z17.515 F2500.000
G1 X40.000 Y37.065 Z17.525 F2500.000
G1 X42.968 Y37.065 Z17.515 F2500.000
G1 X43.957 Y37.065 Z17.505 F2500.000
G1 X44.946 Y37.065 Z17.486 F2500.000
G1 X45.935 Y37.065 Z17.447 F2500.000
G1 X46.924 Y37.065 Z17.386 F2500.000
G1 X47.914 Y37.065 Z17.301 F2500.000
G1 X48.903 Y37.065 Z17.188 F2500.000
G1 X49.892 Y37.065 Z17.049 F2500.000
G1 X50.881 Y37.065 Z16.881 F2500.000
G1 X51.870 Y37.065 Z16.686 F2500.000
G1 X52.860 Y37.065 Z16.458 F2500.000
G1 X53.849 Y37.065 Z16.201 F2500.000
G1 X54.838 Y37.065 Z15.913 F2500.000
G1 X55.827 Y37.065 Z15.589 F2500.000
G1 X56.816 Y37.065 Z15.231 F2500.000
G1 X57.806 Y37.065 Z14.835 F2500.000
G1 X58.795 Y37.065 Z14.402 F2500.000
G1 X59.784 Y37.065 Z13.927 F2500.000
G1 X60.773 Y37.065 Z13.409 F2500.000
G1 X61.762 Y37.065 Z12.847 F2500.000
G1 X62.752 Y37.065 Z12.800 F2500.000
G1 X73.633 Y37.065 Z12.800 F2500.000
(End of step 6.)
G0 Z19.770
G0 X73.534 Y43.465
(Begin step 7.)
G0 X73.534 Y43.465
(part 1)
G1 X73.534 Y43.465 Z12.800 F2500.000
G1 X61.699 Y43.465 Z12.800 F2500.000
G1 X60.712 Y43.465 Z13.360 F2500.000
G1 X59.726 Y43.465 Z13.876 F2500.000
G1 X58.740 Y43.465 Z14.349 F2500.000
G1 X57.753 Y43.465 Z14.781 F2500.000
G1 X56.767 Y43.465 Z15.175 F2500.000
G1 X55.781 Y43.465 Z15.533 F2500.000
G1 X54.795 Y43.465 Z15.857 F2500.000
G1 X53.808 Y43.465 Z16.144 F2500.000
G1 X52.822 Y43.465 Z16.404 F2500.000
G1 X51.836 Y43.465 Z16.630 F2500.000
G1 X50.849 Y43.465 Z16.826 F2500.000
G1 X49.863 Y43.465 Z16.994 F2500.000
G1 X48.877 Y43.465 Z17.134 F2500.000
G1 X47.890 Y43.465 Z17.247 F2500.000
G1 X46.904 Y43.465 Z17.334 F2500.000
G1 X45.918 Y43.465 Z17.394 F2500.000
G1 X44.932 Y43.465 Z17.432 F2500.000
G1 X43.945 Y43.465 Z17.451 F2500.000
G1 X42.959 Y43.465 Z17.462 F2500.000
G1 X40.000 Y43.465 Z17.472 F2500.000
G1 X38.027 Y43.465 Z17.468 F2500.000
G1 X36.055 Y43.465 Z17.452 F2500.000
G1 X35.068 Y43.465 Z17.432 F2500.000
G1 X34.082 Y43.465 Z17.395 F2500.000
G1 X33.096 Y43.465 Z17.333 F2500.000
G1 X32.110 Y43.465 Z17.247 F2500.000
G1 X31.123 Y43.465 Z17.134 F2500.000
G1 X30.137 Y43.465 Z16.994 F2500.000
G1 X29.151 Y43.465 Z16.827 F2500.000
G1 X28.164 Y43.465 Z16.630 F2500.000
G1 X27.178 Y43.465 Z16.403 F2500.000
G1 X26.192 Y43.465 Z16.144 F2500.000
G1 X25.205 Y43.465 Z15.857 F2500.000
G1 X24.219 Y43.465 Z15.533 F2500.000
G1 X23.233 Y43.465 Z15.175 F2500.000
G1 X22.247 Y43.465 Z14.782 F2500.000
G1 X21.260 Y43.465 Z14.349 F2500.000
G1 X20.274 Y43.465 Z13.876 F2500.000
G1 X19.288 Y43.465 Z13.360 F2500.000
G1 X18.301 Y43.465 Z12.800 F2500.000
G1 X6.466 Y43.465 Z12.800 F2500.000
(End of step 7.)
G0 Z19.770
G0 X6.564 Y49.865
(Begin step 8.)
G0 X6.564 Y49.865
(part 1)
G1 X6.564 Y49.865 Z12.800 F2500.000
G1 X17.543 Y49.865 Z12.800 F2500.000
G1 X18.541 Y49.865 Z12.855 F2500.000
G1 X19.539 Y49.865 Z13.414 F2500.000
G1 X20.537 Y49.865 Z13.926 F2500.000
G1 X21.535 Y49.865 Z14.396 F2500.000
G1 X22.533 Y49.865 Z14.825 F2500.000
G1 X23.532 Y49.865 Z15.214 F2500.000
G1 X24.530 Y49.865 Z15.568 F2500.000
G1 X25.528 Y49.865 Z15.887 F2500.000
G1 X26.526 Y49.865 Z16.171 F2500.000
G1 X27.524 Y49.865 Z16.422 F2500.000
G1 X28.522 Y49.865 Z16.643 F2500.000
G1 X29.520 Y49.865 Z16.833 F2500.000
G1 X30.518 Y49.865 Z16.993 F2500.000
G1 X31.516 Y49.865 Z17.126 F2500.000
G1 X32.514 Y49.865 Z17.230 F2500.000
G1 X33.512 Y49.865 Z17.308 F2500.000
G1 X34.511 Y49.865 Z17.360 F2500.000
G1 X35.509 Y49.865 Z17.390 F2500.000
G1 X36.507 Y49.865 Z17.404 F2500.000
G1 X37.505 Y49.865 Z17.411 F2500.000
G1 X40.499 Y49.865 Z17.418 F2500.000
G1 X42.495 Y49.865 Z17.412 F2500.000
G1 X43.493 Y49.865 Z17.404 F2500.000
G1 X44.491 Y49.865 Z17.390 F2500.000
G1 X45.489 Y49.865 Z17.361 F2500.000
G1 X46.488 Y49.865 Z17.308 F2500.000
G1 X47.486 Y49.865 Z17.230 F2500.000
G1 X48.484 Y49.865 Z17.126 F2500.000
G1 X49.482 Y49.865 Z16.993 F2500.000
G1 X50.480 Y49.865 Z16.832 F2500.000
G1 X51.478 Y49.865 Z16.642 F2500.000
G1 X52.476 Y49.865 Z16.422 F2500.000
G1 X53.474 Y49.865 Z16.170 F2500.000
G1 X54.472 Y49.865 Z15.886 F2500.000
G1 X55.470 Y49.865 Z15.568 F2500.000
G1 X56.468 Y49.865 Z15.214 F2500.000
G1 X57.467 Y49.865 Z14.824 F2500.000
G1 X58.465 Y49.865 Z14.396 F2500.000
G1 X59.463 Y49.865 Z13.926 F2500.000
G1 X60.461 Y49.865 Z13.414 F2500.000
G1 X61.459 Y49.865 Z12.855 F2500.000
G1 X62.457 Y49.865 Z12.800 F2500.000
G1 X73.436 Y49.865 Z12.800 F2500.000
(End of step 8.)
G0 Z19.770
G0 X73.337 Y56.265
(Begin step 9.)
G0 X73.337 Y56.265
(part 1)
G1 X73.337 Y56.265 Z12.800 F2500.000
G1 X62.391 Y56.265 Z12.800 F2500.000
G1 X61.396 Y56.265 Z12.809 F2500.000
G1 X60.401 Y56.265 Z13.364 F2500.000
G1 X59.405 Y56.265 Z13.873 F2500.000
G1 X58.410 Y56.265 Z14.343 F2500.000
G1 X57.415 Y56.265 Z14.770 F2500.000
G1 X56.420 Y56.265 Z15.159 F2500.000
G1 X55.425 Y56.265 Z15.512 F2500.000
G1 X54.430 Y56.265 Z15.830 F2500.000
G1 X53.435 Y56.265 Z16.114 F2500.000
G1 X52.439 Y56.265 Z16.366 F2500.000
G1 X51.444 Y56.265 Z16.587 F2500.000
G1 X50.449 Y56.265 Z16.777 F2500.000
G1 X49.454 Y56.265 Z16.938 F2500.000
G1 X48.459 Y56.265 Z17.071 F2500.000
G1 X47.464 Y56.265 Z17.176 F2500.000
G1 X46.468 Y56.265 Z17.255 F2500.000
G1 X45.473 Y56.265 Z17.308 F2500.000
G1 X44.478 Y56.265 Z17.337 F2500.000
G1 X43.483 Y56.265 Z17.351 F2500.000
G1 X42.488 Y56.265 Z17.359 F2500.000
G1 X39.502 Y56.265 Z17.365 F2500.000
G1 X37.512 Y56.265 Z17.358 F2500.000
G1 X36.517 Y56.265 Z17.351 F2500.000
G1 X35.522 Y56.265 Z17.336 F2500.000
G1 X34.527 Y56.265 Z17.307 F2500.000
G1 X33.532 Y56.265 Z17.255 F2500.000
G1 X32.536 Y56.265 Z17.176 F2500.000
G1 X31.541 Y56.265 Z17.071 F2500.000
G1 X30.546 Y56.265 Z16.939 F2500.000
G1 X29.551 Y56.265 Z16.778 F2500.000
G1 X28.556 Y56.265 Z16.587 F2500.000
G1 X27.561 Y56.265 Z16.367 F2500.000
G1 X26.565 Y56.265 Z16.114 F2500.000
G1 X25.570 Y56.265 Z15.830 F2500.000
G1 X24.575 Y56.265 Z15.512 F2500.000
G1 X23.580 Y56.265 Z15.159 F2500.000
G1 X22.585 Y56.265 Z14.770 F2500.000
G1 X21.590 Y56.265 Z14.343 F2500.000
G1 X20.595 Y56.265 Z13.874 F2500.000
G1 X19.599 Y56.265 Z13.364 F2500.000
G1 X18.604 Y56.265 Z12.809 F2500.000
G1 X17.609 Y56.265 Z12.800 F2500.000
G1 X6.663 Y56.265 Z12.800 F2500.000
(End of step 9.)
G0 Z19.770
G0 X6.761 Y62.665
(Begin step 10.)
G0 X6.761 Y62.665
(part 1)
G1 X6.761 Y62.665 Z12.800 F2500.000
G1 X18.667 Y62.665 Z12.800 F2500.000
G1 X19.660 Y62.665 Z13.314 F2500.000
G1 X20.652 Y62.665 Z13.823 F2500.000
G1 X21.644 Y62.665 Z14.289 F2500.000
G1 X22.636 Y62.665 Z14.716 F2500.000
G1 X23.629 Y62.665 Z15.105 F2500.000
G1 X24.621 Y62.665 Z15.457 F2500.000
G1 X25.613 Y62.665 Z15.775 F2500.000
G1 X26.605 Y62.665 Z16.058 F2500.000
G1 X27.597 Y62.665 Z16.310 F2500.000
G1 X28.590 Y62.665 Z16.531 F2500.000
G1 X29.582 Y62.665 Z16.723 F2500.000
G1 X30.574 Y62.665 Z16.884 F2500.000
G1 X31.566 Y62.665 Z17.017 F2500.000
G1 X32.558 Y62.665 Z17.122 F2500.000
G1 X33.551 Y62.665 Z17.201 F2500.000
G1 X34.543 Y62.665 Z17.254 F2500.000
G1 X35.535 Y62.665 Z17.284 F2500.000
G1 X37.519 Y62.665 Z17.305 F2500.000
G1 X39.504 Y62.665 Z17.312 F2500.000
G1 X41.488 Y62.665 Z17.310 F2500.000
G1 X42.481 Y62.665 Z17.305 F2500.000
G1 X43.473 Y62.665 Z17.298 F2500.000
G1 X44.465 Y62.665 Z17.283 F2500.000
G1 X45.457 Y62.665 Z17.255 F2500.000
G1 X46.449 Y62.665 Z17.201 F2500.000
G1 X47.442 Y62.665 Z17.123 F2500.000
G1 X48.434 Y62.665 Z17.018 F2500.000
G1 X49.426 Y62.665 Z16.885 F2500.000
G1 X50.418 Y62.665 Z16.722 F2500.000
G1 X51.410 Y62.665 Z16.531 F2500.000
G1 X52.403 Y62.665 Z16.310 F2500.000
G1 X53.395 Y62.665 Z16.059 F2500.000
G1 X54.387 Y62.665 Z15.775 F2500.000
G1 X55.379 Y62.665 Z15.457 F2500.000
G1 X56.371 Y62.665 Z15.104 F2500.000
G1 X57.364 Y62.665 Z14.716 F2500.000
G1 X58.356 Y62.665 Z14.289 F2500.000
G1 X59.348 Y62.665 Z13.822 F2500.000
G1 X60.340 Y62.665 Z13.314 F2500.000
G1 X61.333 Y62.665 Z12.800 F2500.000
G1 X73.239 Y62.665 Z12.800 F2500.000
(End of step 10.)
G0 Z19.770
G0 X73.141 Y69.065
(Begin step 11.)
G0 X73.141 Y69.065
(part 1)
G1 X73.141 Y69.065 Z12.800 F2500.000
G1 X61.269 Y69.065 Z12.800 F2500.000
G1 X60.280 Y69.065 Z13.264 F2500.000
G1 X59.291 Y69.065 Z13.772 F2500.000
G1 X58.302 Y69.065 Z14.237 F2500.000
G1 X57.312 Y69.065 Z14.662 F2500.000
G1 X56.323 Y69.065 Z15.049 F2500.000
G1 X55.334 Y69.065 Z15.401 F2500.000
G1 X54.344 Y69.065 Z15.719 F2500.000
G1 X53.355 Y69.065 Z16.002 F2500.000
G1 X52.366 Y69.065 Z16.255 F2500.000
G1 X51.377 Y69.065 Z16.477 F2500.000
G1 X50.387 Y69.065 Z16.668 F2500.000
G1 X49.398 Y69.065 Z16.830 F2500.000
G1 X48.409 Y69.065 Z16.963 F2500.000
G1 X47.420 Y69.065 Z17.070 F2500.000
G1 X46.430 Y69.065 Z17.149 F2500.000
G1 X45.441 Y69.065 Z17.201 F2500.000
G1 X44.452 Y69.065 Z17.230 F2500.000
G1 X43.462 Y69.065 Z17.245 F2500.000
G1 X42.473 Y69.065 Z17.253 F2500.000
G1 X40.495 Y69.065 Z17.259 F2500.000
G1 X38.516 Y69.065 Z17.257 F2500.000
G1 X37.527 Y69.065 Z17.252 F2500.000
G1 X35.548 Y69.065 Z17.231 F2500.000
G1 X34.559 Y69.065 Z17.201 F2500.000
G1 X33.570 Y69.065 Z17.149 F2500.000
G1 X32.580 Y69.065 Z17.070 F2500.000
G1 X31.591 Y69.065 Z16.964 F2500.000
G1 X30.602 Y69.065 Z16.830 F2500.000
G1 X29.613 Y69.065 Z16.668 F2500.000
G1 X28.623 Y69.065 Z16.476 F2500.000
G1 X27.634 Y69.065 Z16.255 F2500.000
G1 X26.645 Y69.065 Z16.004 F2500.000
G1 X25.656 Y69.065 Z15.718 F2500.000
G1 X24.666 Y69.065 Z15.401 F2500.000
G1 X23.677 Y69.065 Z15.050 F2500.000
G1 X22.688 Y69.065 Z14.661 F2500.000
G1 X21.698 Y69.065 Z14.237 F2500.000
G1 X20.709 Y69.065 Z13.771 F2500.000
G1 X19.720 Y69.065 Z13.265 F2500.000
G1 X18.731 Y69.065 Z12.800 F2500.000
G1 X6.859 Y69.065 Z12.800 F2500.000
(End of step 11.)
G0 Z19.770
G0 X6.958 Y75.465
(Begin step 12.)
G0 X6.958 Y75.465
(part 1)
G1 X6.958 Y75.465 Z12.800 F2500.000
G1 X18.794 Y75.465 Z12.800 F2500.000
G1 X19.780 Y75.465 Z13.215 F2500.000
G1 X20.767 Y75.465 Z13.720 F2500.000
G1 X21.753 Y75.465 Z14.184 F2500.000
G1 X22.739 Y75.465 Z14.608 F2500.000
G1 X23.726 Y75.465 Z14.995 F2500.000
G1 X24.712 Y75.465 Z15.346 F2500.000
G1 X25.698 Y75.465 Z15.663 F2500.000
G1 X26.685 Y75.465 Z15.948 F2500.000
G1 X27.671 Y75.465 Z16.199 F2500.000
G1 X28.657 Y75.465 Z16.422 F2500.000
G1 X29.644 Y75.465 Z16.612 F2500.000
G1 X30.630 Y75.465 Z16.775 F2500.000
G1 X31.616 Y75.465 Z16.909 F2500.000
G1 X32.603 Y75.465 Z17.017 F2500.000
G1 X33.589 Y75.465 Z17.096 F2500.000
G1 X34.575 Y75.465 Z17.148 F2500.000
G1 X35.562 Y75.465 Z17.177 F2500.000
G1 X36.548 Y75.465 Z17.191 F2500.000
G1 X37.534 Y75.465 Z17.199 F2500.000
G1 X39.507 Y75.465 Z17.206 F2500.000
G1 X42.466 Y75.465 Z17.198 F2500.000
G1 X43.452 Y75.465 Z17.192 F2500.000
G1 X44.438 Y75.465 Z17.177 F2500.000
G1 X45.425 Y75.465 Z17.148 F2500.000
G1 X46.411 Y75.465 Z17.096 F2500.000
G1 X47.397 Y75.465 Z17.017 F2500.000
G1 X48.384 Y75.465 Z16.909 F2500.000
G1 X49.370 Y75.465 Z16.774 F2500.000
G1 X50.356 Y75.465 Z16.613 F2500.000
G1 X51.343 Y75.465 Z16.421 F2500.000
G1 X52.329 Y75.465 Z16.201 F2500.000
G1 X53.315 Y75.465 Z15.948 F2500.000
G1 X54.302 Y75.465 Z15.663 F2500.000
G1 X55.288 Y75.465 Z15.346 F2500.000
G1 X56.274 Y75.465 Z14.995 F2500.000
G1 X57.261 Y75.465 Z14.608 F2500.000
G1 X58.247 Y75.465 Z14.183 F2500.000
G1 X59.233 Y75.465 Z13.720 F2500.000
G1 X60.220 Y75.465 Z13.215 F2500.000
G1 X61.206 Y75.465 Z12.800 F2500.000
G1 X73.042 Y75.465 Z12.800 F2500.000
(End of step 12.)
G0 Z19.770
G0 X72.944 Y81.865
(Begin step 13.)
G0 X72.944 Y81.865
(part 1)
G1 X72.944 Y81.865 Z12.800 F2500.000
G1 X60.964 Y81.865 Z12.800 F2500.000
G1 X59.966 Y81.865 Z13.268 F2500.000
G1 X58.968 Y81.865 Z13.769 F2500.000
G1 X57.969 Y81.865 Z14.230 F2500.000
G1 X56.971 Y81.865 Z14.651 F2500.000
G1 X55.973 Y81.865 Z15.034 F2500.000
G1 X54.974 Y81.865 Z15.381 F2500.000
G1 X53.976 Y81.865 Z15.693 F2500.000
G1 X52.978 Y81.865 Z15.973 F2500.000
G1 X51.980 Y81.865 Z16.219 F2500.000
G1 X50.981 Y81.865 Z16.434 F2500.000
G1 X49.983 Y81.865 Z16.619 F2500.000
G1 X48.985 Y81.865 Z16.772 F2500.000
G1 X47.986 Y81.865 Z16.900 F2500.000
G1 X46.988 Y81.865 Z16.997 F2500.000
G1 X45.990 Y81.865 Z17.067 F2500.000
G1 X44.991 Y81.865 Z17.110 F2500.000
G1 X43.993 Y81.865 Z17.132 F2500.000
G1 X42.995 Y81.865 Z17.142 F2500.000
G1 X41.997 Y81.865 Z17.148 F2500.000
G1 X40.000 Y81.865 Z17.153 F2500.000
G1 X38.003 Y81.865 Z17.148 F2500.000
G1 X36.007 Y81.865 Z17.132 F2500.000
G1 X35.009 Y81.865 Z17.110 F2500.000
G1 X34.010 Y81.865 Z17.067 F2500.000
G1 X33.012 Y81.865 Z16.996 F2500.000
G1 X32.014 Y81.865 Z16.900 F2500.000
G1 X31.015 Y81.865 Z16.773 F2500.000
G1 X30.017 Y81.865 Z16.618 F2500.000
G1 X29.019 Y81.865 Z16.434 F2500.000
G1 X28.020 Y81.865 Z16.219 F2500.000
G1 X27.022 Y81.865 Z15.972 F2500.000
G1 X26.024 Y81.865 Z15.693 F2500.000
G1 X25.026 Y81.865 Z15.380 F2500.000
G1 X24.027 Y81.865 Z15.034 F2500.000
G1 X23.029 Y81.865 Z14.651 F2500.000
G1 X22.031 Y81.865 Z14.231 F2500.000
G1 X21.032 Y81.865 Z13.770 F2500.000
G1 X20.034 Y81.865 Z13.266 F2500.000
G1 X19.036 Y81.865 Z12.800 F2500.000
G1 X7.056 Y81.865 Z12.800 F2500.000
(End of step 13.)
G0 Z19.770
G0 X7.155 Y88.265
(Begin step 14.)
G0 X7.155 Y88.265
(part 1)
G1 X7.155 Y88.265 Z12.800 F2500.000
G1 X19.098 Y88.265 Z12.800 F2500.000
G1 X20.094 Y88.265 Z13.218 F2500.000
G1 X21.089 Y88.265 Z13.718 F2500.000
G1 X22.084 Y88.265 Z14.178 F2500.000
G1 X23.080 Y88.265 Z14.596 F2500.000
G1 X24.075 Y88.265 Z14.979 F2500.000
G1 X25.070 Y88.265 Z15.326 F2500.000
G1 X26.066 Y88.265 Z15.639 F2500.000
G1 X27.061 Y88.265 Z15.916 F2500.000
G1 X28.056 Y88.265 Z16.164 F2500.000
G1 X29.052 Y88.265 Z16.378 F2500.000
G1 X30.047 Y88.265 Z16.565 F2500.000
G1 X31.042 Y88.265 Z16.720 F2500.000
G1 X32.038 Y88.265 Z16.846 F2500.000
G1 X33.033 Y88.265 Z16.944 F2500.000
G1 X34.028 Y88.265 Z17.014 F2500.000
G1 X35.023 Y88.265 Z17.057 F2500.000
G1 X36.019 Y88.265 Z17.079 F2500.000
G1 X38.009 Y88.265 Z17.095 F2500.000
G1 X40.000 Y88.265 Z17.099 F2500.000
G1 X41.991 Y88.265 Z17.095 F2500.000
G1 X42.986 Y88.265 Z17.089 F2500.000
G1 X43.981 Y88.265 Z17.079 F2500.000
G1 X44.977 Y88.265 Z17.057 F2500.000
G1 X45.972 Y88.265 Z17.014 F2500.000
G1 X46.967 Y88.265 Z16.944 F2500.000
G1 X47.962 Y88.265 Z16.846 F2500.000
G1 X48.958 Y88.265 Z16.720 F2500.000
G1 X49.953 Y88.265 Z16.565 F2500.000
G1 X50.948 Y88.265 Z16.379 F2500.000
G1 X51.944 Y88.265 Z16.164 F2500.000
G1 X52.939 Y88.265 Z15.917 F2500.000
G1 X53.934 Y88.265 Z15.639 F2500.000
G1 X54.930 Y88.265 Z15.326 F2500.000
G1 X55.925 Y88.265 Z14.980 F2500.000
G1 X56.920 Y88.265 Z14.596 F2500.000
G1 X57.916 Y88.265 Z14.177 F2500.000
G1 X58.911 Y88.265 Z13.719 F2500.000
G1 X59.906 Y88.265 Z13.218 F2500.000
G1 X60.902 Y88.265 Z12.800 F2500.000
G1 X72.845 Y88.265 Z12.800 F2500.000
(End of step 14.)
G0 Z19.770
G0 X72.747 Y94.665
(Begin step 15.)
G0 X72.747 Y94.665
(part 1)
G1 X72.747 Y94.665 Z12.800 F2500.000
G1 X60.839 Y94.665 Z12.800 F2500.000
G1 X59.847 Y94.665 Z13.168 F2500.000
G1 X58.854 Y94.665 Z13.667 F2500.000
G1 X57.862 Y94.665 Z14.125 F2500.000
G1 X56.870 Y94.665 Z14.544 F2500.000
G1 X55.877 Y94.665 Z14.925 F2500.000
G1 X54.885 Y94.665 Z15.272 F2500.000
G1 X53.893 Y94.665 Z15.584 F2500.000
G1 X52.900 Y94.665 Z15.862 F2500.000
G1 X51.908 Y94.665 Z16.109 F2500.000
G1 X50.916 Y94.665 Z16.325 F2500.000
G1 X49.923 Y94.665 Z16.511 F2500.000
G1 X48.931 Y94.665 Z16.665 F2500.000
G1 X47.939 Y94.665 Z16.793 F2500.000
G1 X46.946 Y94.665 Z16.891 F2500.000
G1 X45.954 Y94.665 Z16.961 F2500.000
G1 X44.962 Y94.665 Z17.004 F2500.000
G1 X43.969 Y94.665 Z17.026 F2500.000
G1 X41.985 Y94.665 Z17.041 F2500.000
G1 X40.000 Y94.665 Z17.046 F2500.000
G1 X38.015 Y94.665 Z17.042 F2500.000
G1 X36.031 Y94.665 Z17.026 F2500.000
G1 X35.038 Y94.665 Z17.004 F2500.000
G1 X34.046 Y94.665 Z16.961 F2500.000
G1 X33.054 Y94.665 Z16.891 F2500.000
G1 X32.061 Y94.665 Z16.793 F2500.000
G1 X31.069 Y94.665 Z16.666 F2500.000
G1 X30.077 Y94.665 Z16.510 F2500.000
G1 X29.084 Y94.665 Z16.325 F2500.000
G1 X28.092 Y94.665 Z16.109 F2500.000
G1 X27.100 Y94.665 Z15.863 F2500.000
G1 X26.107 Y94.665 Z15.583 F2500.000
G1 X25.115 Y94.665 Z15.272 F2500.000
G1 X24.123 Y94.665 Z14.925 F2500.000
G1 X23.130 Y94.665 Z14.543 F2500.000
G1 X22.138 Y94.665 Z14.125 F2500.000
G1 X21.146 Y94.665 Z13.667 F2500.000
G1 X20.153 Y94.665 Z13.168 F2500.000
G1 X19.161 Y94.665 Z12.800 F2500.000
G1 X7.253 Y94.665 Z12.800 F2500.000
(End of step 15.)
G0 Z19.770
G0 X7.352 Y101.065
(Begin step 16.)
G0 X7.352 Y101.065
(part 1)
G1 X7.352 Y101.065 Z12.800 F2500.000
G1 X19.224 Y101.065 Z12.800 F2500.000
G1 X20.213 Y101.065 Z13.119 F2500.000
G1 X21.202 Y101.065 Z13.616 F2500.000
G1 X22.192 Y101.065 Z14.071 F2500.000
G1 X23.181 Y101.065 Z14.490 F2500.000
G1 X24.171 Y101.065 Z14.870 F2500.000
G1 X25.160 Y101.065 Z15.217 F2500.000
G1 X26.149 Y101.065 Z15.528 F2500.000
G1 X27.139 Y101.065 Z15.808 F2500.000
G1 X28.128 Y101.065 Z16.054 F2500.000
G1 X29.117 Y101.065 Z16.271 F2500.000
G1 X30.107 Y101.065 Z16.456 F2500.000
G1 X31.096 Y101.065 Z16.613 F2500.000
G1 X32.085 Y101.065 Z16.740 F2500.000
G1 X33.075 Y101.065 Z16.838 F2500.000
G1 X34.064 Y101.065 Z16.908 F2500.000
G1 X35.053 Y101.065 Z16.950 F2500.000
G1 X36.043 Y101.065 Z16.973 F2500.000
G1 X38.021 Y101.065 Z16.989 F2500.000
G1 X40.000 Y101.065 Z16.993 F2500.000
G1 X41.979 Y101.065 Z16.988 F2500.000
G1 X43.957 Y101.065 Z16.973 F2500.000
G1 X44.947 Y101.065 Z16.951 F2500.000
G1 X45.936 Y101.065 Z16.908 F2500.000
G1 X46.925 Y101.065 Z16.838 F2500.000
G1 X47.915 Y101.065 Z16.739 F2500.000
G1 X48.904 Y101.065 Z16.613 F2500.000
G1 X49.893 Y101.065 Z16.457 F2500.000
G1 X50.883 Y101.065 Z16.270 F2500.000
G1 X51.872 Y101.065 Z16.054 F2500.000
G1 X52.861 Y101.065 Z15.808 F2500.000
G1 X53.851 Y101.065 Z15.529 F2500.000
G1 X54.840 Y101.065 Z15.217 F2500.000
G1 X55.829 Y101.065 Z14.871 F2500.000
G1 X56.819 Y101.065 Z14.490 F2500.000
G1 X57.808 Y101.065 Z14.072 F2500.000
G1 X58.798 Y101.065 Z13.616 F2500.000
G1 X59.787 Y101.065 Z13.118 F2500.000
G1 X60.776 Y101.065 Z12.800 F2500.000
G1 X72.648 Y101.065 Z12.800 F2500.000
(End of step 16.)
G0 Z19.770
G0 X72.550 Y107.465
(Begin step 17.)
G0 X72.550 Y107.465
(part 1)
G1 X72.550 Y107.465 Z12.800 F2500.000
G1 X60.714 Y107.465 Z12.800 F2500.000
G1 X59.727 Y107.465 Z13.069 F2500.000
G1 X58.741 Y107.465 Z13.565 F2500.000
G1 X57.754 Y107.465 Z14.019 F2500.000
G1 X56.768 Y107.465 Z14.437 F2500.000
G1 X55.782 Y107.465 Z14.817 F2500.000
G1 X54.795 Y107.465 Z15.162 F2500.000
G1 X53.809 Y107.465 Z15.473 F2500.000
G1 X52.823 Y107.465 Z15.753 F2500.000
G1 X51.836 Y107.465 Z16.000 F2500.000
G1 X50.850 Y107.465 Z16.217 F2500.000
G1 X49.864 Y107.465 Z16.403 F2500.000
G1 X48.877 Y107.465 Z16.559 F2500.000
G1 X47.891 Y107.465 Z16.687 F2500.000
G1 X46.905 Y107.465 Z16.785 F2500.000
G1 X45.918 Y107.465 Z16.855 F2500.000
G1 X44.932 Y107.465 Z16.898 F2500.000
G1 X43.945 Y107.465 Z16.919 F2500.000
G1 X42.959 Y107.465 Z16.930 F2500.000
G1 X41.973 Y107.465 Z16.935 F2500.000
G1 X40.000 Y107.465 Z16.939 F2500.000
G1 X38.027 Y107.465 Z16.935 F2500.000
G1 X37.041 Y107.465 Z16.930 F2500.000
G1 X36.055 Y107.465 Z16.919 F2500.000
G1 X35.068 Y107.465 Z16.898 F2500.000
G1 X34.082 Y107.465 Z16.855 F2500.000
G1 X33.095 Y107.465 Z16.785 F2500.000
G1 X32.109 Y107.465 Z16.687 F2500.000
G1 X31.123 Y107.465 Z16.559 F2500.000
G1 X30.136 Y107.465 Z16.403 F2500.000
G1 X29.150 Y107.465 Z16.217 F2500.000
G1 X28.164 Y107.465 Z16.000 F2500.000
G1 X27.177 Y107.465 Z15.752 F2500.000
G1 X26.191 Y107.465 Z15.473 F2500.000
G1 X25.205 Y107.465 Z15.163 F2500.000
G1 X24.218 Y107.465 Z14.817 F2500.000
G1 X23.232 Y107.465 Z14.437 F2500.000
G1 X22.246 Y107.465 Z14.020 F2500.000
G1 X21.259 Y107.465 Z13.564 F2500.000
G1 X20.273 Y107.465 Z13.070 F2500.000
G1 X19.286 Y107.465 Z12.800 F2500.000
G1 X7.450 Y107.465 Z12.800 F2500.000
(End of step 17.)
G0 Z19.770
G0 X7.549 Y113.865
(Begin step 18.)
G0 X7.549 Y113.865
(part 1)
G1 X7.549 Y113.865 Z12.800 F2500.000
G1 X19.531 Y113.865 Z12.800 F2500.000
G1 X20.529 Y113.865 Z13.122 F2500.000
G1 X21.528 Y113.865 Z13.613 F2500.000
G1 X22.526 Y113.865 Z14.066 F2500.000
G1 X23.525 Y113.865 Z14.479 F2500.000
G1 X24.523 Y113.865 Z14.857 F2500.000
G1 X25.522 Y113.865 Z15.197 F2500.000
G1 X26.520 Y113.865 Z15.504 F2500.000
G1 X27.519 Y113.865 Z15.778 F2500.000
G1 X28.517 Y113.865 Z16.019 F2500.000
G1 X29.516 Y113.865 Z16.228 F2500.000
G1 X30.514 Y113.865 Z16.407 F2500.000
G1 X31.513 Y113.865 Z16.555 F2500.000
G1 X32.511 Y113.865 Z16.674 F2500.000
G1 X33.510 Y113.865 Z16.763 F2500.000
G1 X34.508 Y113.865 Z16.823 F2500.000
G1 X35.507 Y113.865 Z16.856 F2500.000
G1 X36.505 Y113.865 Z16.871 F2500.000
G1 X37.504 Y113.865 Z16.880 F2500.000
G1 X39.501 Y113.865 Z16.886 F2500.000
G1 X42.496 Y113.865 Z16.879 F2500.000
G1 X43.495 Y113.865 Z16.872 F2500.000
G1 X44.493 Y113.865 Z16.856 F2500.000
G1 X45.492 Y113.865 Z16.822 F2500.000
G1 X46.490 Y113.865 Z16.763 F2500.000
G1 X47.489 Y113.865 Z16.674 F2500.000
G1 X48.487 Y113.865 Z16.555 F2500.000
G1 X49.486 Y113.865 Z16.407 F2500.000
G1 X50.484 Y113.865 Z16.229 F2500.000
G1 X51.483 Y113.865 Z16.019 F2500.000
G1 X52.481 Y113.865 Z15.778 F2500.000
G1 X53.480 Y113.865 Z15.504 F2500.000
G1 X54.478 Y113.865 Z15.198 F2500.000
G1 X55.477 Y113.865 Z14.857 F2500.000
G1 X56.475 Y113.865 Z14.480 F2500.000
G1 X57.474 Y113.865 Z14.066 F2500.000
G1 X58.472 Y113.865 Z13.614 F2500.000
G1 X59.471 Y113.865 Z13.122 F2500.000
G1 X60.469 Y113.865 Z12.800 F2500.000
G1 X72.451 Y113.865 Z12.800 F2500.000
(End of step 18.)
G0 Z19.770
G0 X72.353 Y120.265
(Begin step 19.)
G0 X72.353 Y120.265
(part 1)
G1 X72.353 Y120.265 Z12.800 F2500.000
G1 X60.407 Y120.265 Z12.800 F2500.000
G1 X59.412 Y120.265 Z13.073 F2500.000
G1 X58.416 Y120.265 Z13.564 F2500.000
G1 X57.421 Y120.265 Z14.014 F2500.000
G1 X56.425 Y120.265 Z14.427 F2500.000
G1 X55.430 Y120.265 Z14.803 F2500.000
G1 X54.434 Y120.265 Z15.143 F2500.000
G1 X53.439 Y120.265 Z15.450 F2500.000
G1 X52.443 Y120.265 Z15.724 F2500.000
G1 X51.448 Y120.265 Z15.965 F2500.000
G1 X50.452 Y120.265 Z16.175 F2500.000
G1 X49.457 Y120.265 Z16.354 F2500.000
G1 X48.462 Y120.265 Z16.503 F2500.000
G1 X47.466 Y120.265 Z16.621 F2500.000
G1 X46.471 Y120.265 Z16.710 F2500.000
G1 X45.475 Y120.265 Z16.770 F2500.000
G1 X44.480 Y120.265 Z16.803 F2500.000
G1 X43.484 Y120.265 Z16.818 F2500.000
G1 X42.489 Y120.265 Z16.826 F2500.000
G1 X41.493 Y120.265 Z16.831 F2500.000
G1 X39.502 Y120.265 Z16.833 F2500.000
G1 X37.511 Y120.265 Z16.826 F2500.000
G1 X36.516 Y120.265 Z16.818 F2500.000
G1 X35.520 Y120.265 Z16.803 F2500.000
G1 X34.525 Y120.265 Z16.770 F2500.000
G1 X33.529 Y120.265 Z16.710 F2500.000
G1 X32.534 Y120.265 Z16.621 F2500.000
G1 X31.538 Y120.265 Z16.503 F2500.000
G1 X30.543 Y120.265 Z16.354 F2500.000
G1 X29.548 Y120.265 Z16.175 F2500.000
G1 X28.552 Y120.265 Z15.965 F2500.000
G1 X27.557 Y120.265 Z15.724 F2500.000
G1 X26.561 Y120.265 Z15.450 F2500.000
G1 X25.566 Y120.265 Z15.143 F2500.000
G1 X24.570 Y120.265 Z14.803 F2500.000
G1 X23.575 Y120.265 Z14.427 F2500.000
G1 X22.579 Y120.265 Z14.014 F2500.000
G1 X21.584 Y120.265 Z13.563 F2500.000
G1 X20.588 Y120.265 Z13.072 F2500.000
G1 X19.593 Y120.265 Z12.800 F2500.000
G1 X7.647 Y120.265 Z12.800 F2500.000
(End of step 19.)
G0 Z19.770
G0 X7.745 Y126.665
(Begin step 20.)
G0 X7.745 Y126.665
(part 1)
G1 X7.745 Y126.665 Z12.800 F2500.000
G1 X19.655 Y126.665 Z12.800 F2500.000
G1 X20.647 Y126.665 Z13.023 F2500.000
G1 X21.640 Y126.665 Z13.511 F2500.000
G1 X22.632 Y126.665 Z13.961 F2500.000
G1 X23.625 Y126.665 Z14.373 F2500.000
G1 X24.617 Y126.665 Z14.748 F2500.000
G1 X25.610 Y126.665 Z15.088 F2500.000
G1 X26.602 Y126.665 Z15.395 F2500.000
G1 X27.594 Y126.665 Z15.669 F2500.000
G1 X28.587 Y126.665 Z15.911 F2500.000
G1 X29.579 Y126.665 Z16.121 F2500.000
G1 X30.572 Y126.665 Z16.300 F2500.000
G1 X31.564 Y126.665 Z16.449 F2500.000
G1 X32.557 Y126.665 Z16.568 F2500.000
G1 X33.549 Y126.665 Z16.657 F2500.000
G1 X34.542 Y126.665 Z16.717 F2500.000
G1 X35.534 Y126.665 Z16.751 F2500.000
G1 X37.519 Y126.665 Z16.773 F2500.000
G1 X39.504 Y126.665 Z16.780 F2500.000
G1 X41.489 Y126.665 Z16.777 F2500.000
G1 X42.481 Y126.665 Z16.773 F2500.000
G1 X43.474 Y126.665 Z16.765 F2500.000
G1 X44.466 Y126.665 Z16.750 F2500.000
G1 X45.458 Y126.665 Z16.717 F2500.000
G1 X46.451 Y126.665 Z16.657 F2500.000
G1 X47.443 Y126.665 Z16.568 F2500.000
G1 X48.436 Y126.665 Z16.449 F2500.000
G1 X49.428 Y126.665 Z16.299 F2500.000
G1 X50.421 Y126.665 Z16.121 F2500.000
G1 X51.413 Y126.665 Z15.911 F2500.000
G1 X52.406 Y126.665 Z15.669 F2500.000
G1 X53.398 Y126.665 Z15.396 F2500.000
G1 X54.390 Y126.665 Z15.088 F2500.000
G1 X55.383 Y126.665 Z14.748 F2500.000
G1 X56.375 Y126.665 Z14.373 F2500.000
G1 X57.368 Y126.665 Z13.961 F2500.000
G1 X58.360 Y126.665 Z13.511 F2500.000
G1 X59.353 Y126.665 Z13.023 F2500.000
G1 X60.345 Y126.665 Z12.800 F2500.000
G1 X72.255 Y126.665 Z12.800 F2500.000
(End of step 20.)
G0 Z19.770
G0 X72.156 Y133.065
(Begin step 21.)
G0 X72.156 Y133.065
(part 1)
G1 X72.156 Y133.065 Z12.800 F2500.000
G1 X60.283 Y133.065 Z12.800 F2500.000
G1 X59.294 Y133.065 Z12.973 F2500.000
G1 X58.304 Y133.065 Z13.461 F2500.000
G1 X57.315 Y133.065 Z13.910 F2500.000
G1 X56.325 Y133.065 Z14.321 F2500.000
G1 X55.336 Y133.065 Z14.695 F2500.000
G1 X54.347 Y133.065 Z15.034 F2500.000
G1 X53.357 Y133.065 Z15.342 F2500.000
G1 X52.368 Y133.065 Z15.615 F2500.000
G1 X51.378 Y133.065 Z15.857 F2500.000
G1 X50.389 Y133.065 Z16.067 F2500.000
G1 X49.399 Y133.065 Z16.246 F2500.000
G1 X48.410 Y133.065 Z16.395 F2500.000
G1 X47.421 Y133.065 Z16.514 F2500.000
G1 X46.431 Y133.065 Z16.605 F2500.000
G1 X45.442 Y133.065 Z16.665 F2500.000
G1 X44.452 Y133.065 Z16.697 F2500.000
G1 X43.463 Y133.065 Z16.712 F2500.000
G1 X41.484 Y133.065 Z16.724 F2500.000
G1 X39.505 Y133.065 Z16.727 F2500.000
G1 X37.526 Y133.065 Z16.720 F2500.000
G1 X36.537 Y133.065 Z16.712 F2500.000
G1 X35.548 Y133.065 Z16.697 F2500.000
G1 X34.558 Y133.065 Z16.665 F2500.000
G1 X33.569 Y133.065 Z16.605 F2500.000
G1 X32.579 Y133.065 Z16.514 F2500.000
G1 X31.590 Y133.065 Z16.395 F2500.000
G1 X30.601 Y133.065 Z16.247 F2500.000
G1 X29.611 Y133.065 Z16.067 F2500.000
G1 X28.622 Y133.065 Z15.857 F2500.000
G1 X27.632 Y133.065 Z15.615 F2500.000
G1 X26.643 Y133.065 Z15.341 F2500.000
G1 X25.653 Y133.065 Z15.034 F2500.000
G1 X24.664 Y133.065 Z14.695 F2500.000
G1 X23.675 Y133.065 Z14.321 F2500.000
G1 X22.685 Y133.065 Z13.910 F2500.000
G1 X21.696 Y133.065 Z13.461 F2500.000
G1 X20.706 Y133.065 Z12.972 F2500.000
G1 X19.717 Y133.065 Z12.800 F2500.000
G1 X7.844 Y133.065 Z12.800 F2500.000
(End of step 21.)
G0 Z19.770
G0 X7.942 Y139.465
(Begin step 22.)
G0 X7.942 Y139.465
(part 1)
G1 X7.942 Y139.465 Z12.800 F2500.000
G1 X19.779 Y139.465 Z12.800 F2500.000
G1 X20.765 Y139.465 Z12.924 F2500.000
G1 X21.752 Y139.465 Z13.410 F2500.000
G1 X22.738 Y139.465 Z13.858 F2500.000
G1 X23.725 Y139.465 Z14.268 F2500.000
G1 X24.711 Y139.465 Z14.641 F2500.000
G1 X25.697 Y139.465 Z14.981 F2500.000
G1 X26.684 Y139.465 Z15.288 F2500.000
G1 X27.670 Y139.465 Z15.561 F2500.000
G1 X28.657 Y139.465 Z15.803 F2500.000
G1 X29.643 Y139.465 Z16.014 F2500.000
G1 X30.629 Y139.465 Z16.193 F2500.000
G1 X31.616 Y139.465 Z16.343 F2500.000
G1 X32.602 Y139.465 Z16.461 F2500.000
G1 X33.588 Y139.465 Z16.552 F2500.000
G1 X34.575 Y139.465 Z16.612 F2500.000
G1 X35.561 Y139.465 Z16.644 F2500.000
G1 X36.548 Y139.465 Z16.659 F2500.000
G1 X38.520 Y139.465 Z16.671 F2500.000
G1 X40.493 Y139.465 Z16.673 F2500.000
G1 X42.466 Y139.465 Z16.667 F2500.000
G1 X43.452 Y139.465 Z16.659 F2500.000
G1 X44.439 Y139.465 Z16.645 F2500.000
G1 X45.425 Y139.465 Z16.611 F2500.000
G1 X46.412 Y139.465 Z16.551 F2500.000
G1 X47.398 Y139.465 Z16.462 F2500.000
G1 X48.384 Y139.465 Z16.343 F2500.000
G1 X49.371 Y139.465 Z16.192 F2500.000
G1 X50.357 Y139.465 Z16.013 F2500.000
G1 X51.343 Y139.465 Z15.802 F2500.000
G1 X52.330 Y139.465 Z15.561 F2500.000
G1 X53.316 Y139.465 Z15.288 F2500.000
G1 X54.303 Y139.465 Z14.981 F2500.000
G1 X55.289 Y139.465 Z14.642 F2500.000
G1 X56.275 Y139.465 Z14.268 F2500.000
G1 X57.262 Y139.465 Z13.858 F2500.000
G1 X58.248 Y139.465 Z13.410 F2500.000
G1 X59.235 Y139.465 Z12.923 F2500.000
G1 X60.221 Y139.465 Z12.800 F2500.000
G1 X72.058 Y139.465 Z12.800 F2500.000
(End of step 22.)
G0 Z19.770
G0 X71.959 Y145.865
(Begin step 23.)
G0 X71.959 Y145.865
(part 1)
G1 X71.959 Y145.865 Z12.800 F2500.000
G1 X59.974 Y145.865 Z12.800 F2500.000
G1 X58.976 Y145.865 Z12.976 F2500.000
G1 X57.977 Y145.865 Z13.460 F2500.000
G1 X56.978 Y145.865 Z13.905 F2500.000
G1 X55.980 Y145.865 Z14.312 F2500.000
G1 X54.981 Y145.865 Z14.681 F2500.000
G1 X53.982 Y145.865 Z15.017 F2500.000
G1 X52.983 Y145.865 Z15.317 F2500.000
G1 X51.985 Y145.865 Z15.586 F2500.000
G1 X50.986 Y145.865 Z15.821 F2500.000
G1 X49.987 Y145.865 Z16.025 F2500.000
G1 X48.989 Y145.865 Z16.197 F2500.000
G1 X47.990 Y145.865 Z16.338 F2500.000
G1 X46.991 Y145.865 Z16.447 F2500.000
G1 X45.992 Y145.865 Z16.526 F2500.000
G1 X44.994 Y145.865 Z16.576 F2500.000
G1 X43.995 Y145.865 Z16.599 F2500.000
G1 X42.996 Y145.865 Z16.610 F2500.000
G1 X41.997 Y145.865 Z16.616 F2500.000
G1 X40.000 Y145.865 Z16.620 F2500.000
G1 X38.003 Y145.865 Z16.616 F2500.000
G1 X36.005 Y145.865 Z16.599 F2500.000
G1 X35.006 Y145.865 Z16.575 F2500.000
G1 X34.008 Y145.865 Z16.527 F2500.000
G1 X33.009 Y145.865 Z16.447 F2500.000
G1 X32.010 Y145.865 Z16.338 F2500.000
G1 X31.011 Y145.865 Z16.197 F2500.000
G1 X30.013 Y145.865 Z16.025 F2500.000
G1 X29.014 Y145.865 Z15.821 F2500.000
G1 X28.015 Y145.865 Z15.586 F2500.000
G1 X27.017 Y145.865 Z15.317 F2500.000
G1 X26.018 Y145.865 Z15.016 F2500.000
G1 X25.019 Y145.865 Z14.681 F2500.000
G1 X24.020 Y145.865 Z14.312 F2500.000
G1 X23.022 Y145.865 Z13.905 F2500.000
G1 X22.023 Y145.865 Z13.459 F2500.000
G1 X21.024 Y145.865 Z12.975 F2500.000
G1 X20.026 Y145.865 Z12.800 F2500.000
G1 X8.041 Y145.865 Z12.800 F2500.000
(End of step 23.)
G0 Z19.770
G0 X8.139 Y152.265
(Begin step 24.)
G0 X8.139 Y152.265
(part 1)
G1 X8.139 Y152.265 Z12.800 F2500.000
G1 X20.087 Y152.265 Z12.800 F2500.000
G1 X21.083 Y152.265 Z12.927 F2500.000
G1 X22.078 Y152.265 Z13.410 F2500.000
G1 X23.074 Y152.265 Z13.852 F2500.000
G1 X24.070 Y152.265 Z14.258 F2500.000
G1 X25.065 Y152.265 Z14.628 F2500.000
G1 X26.061 Y152.265 Z14.963 F2500.000
G1 X27.057 Y152.265 Z15.264 F2500.000
G1 X28.052 Y152.265 Z15.532 F2500.000
G1 X29.048 Y152.265 Z15.766 F2500.000
G1 X30.044 Y152.265 Z15.972 F2500.000
G1 X31.039 Y152.265 Z16.143 F2500.000
G1 X32.035 Y152.265 Z16.284 F2500.000
G1 X33.030 Y152.265 Z16.395 F2500.000
G1 X34.026 Y152.265 Z16.473 F2500.000
G1 X35.022 Y152.265 Z16.522 F2500.000
G1 X36.017 Y152.265 Z16.546 F2500.000
G1 X38.009 Y152.265 Z16.563 F2500.000
G1 X40.000 Y152.265 Z16.567 F2500.000
G1 X41.991 Y152.265 Z16.563 F2500.000
G1 X43.983 Y152.265 Z16.546 F2500.000
G1 X44.978 Y152.265 Z16.522 F2500.000
G1 X45.974 Y152.265 Z16.473 F2500.000
G1 X46.970 Y152.265 Z16.395 F2500.000
G1 X47.965 Y152.265 Z16.284 F2500.000
G1 X48.961 Y152.265 Z16.144 F2500.000
G1 X49.956 Y152.265 Z15.972 F2500.000
G1 X50.952 Y152.265 Z15.766 F2500.000
G1 X51.948 Y152.265 Z15.532 F2500.000
G1 X52.943 Y152.265 Z15.264 F2500.000
G1 X53.939 Y152.265 Z14.963 F2500.000
G1 X54.935 Y152.265 Z14.628 F2500.000
G1 X55.930 Y152.265 Z14.258 F2500.000
G1 X56.926 Y152.265 Z13.852 F2500.000
G1 X57.922 Y152.265 Z13.409 F2500.000
G1 X58.917 Y152.265 Z12.927 F2500.000
G1 X59.913 Y152.265 Z12.800 F2500.000
G1 X71.861 Y152.265 Z12.800 F2500.000
(End of step 24.)
G0 Z19.770
G0 X71.762 Y158.665
(Begin step 25.)
G0 X71.762 Y158.665
(part 1)
G1 X71.762 Y158.665 Z12.800 F2500.000
G1 X59.851 Y158.665 Z12.800 F2500.000
G1 X58.859 Y158.665 Z12.877 F2500.000
G1 X57.866 Y158.665 Z13.359 F2500.000
G1 X56.874 Y158.665 Z13.801 F2500.000
G1 X55.881 Y158.665 Z14.205 F2500.000
G1 X54.889 Y158.665 Z14.575 F2500.000
G1 X53.896 Y158.665 Z14.909 F2500.000
G1 X52.903 Y158.665 Z15.211 F2500.000
G1 X51.911 Y158.665 Z15.478 F2500.000
G1 X50.918 Y158.665 Z15.715 F2500.000
G1 X49.926 Y158.665 Z15.918 F2500.000
G1 X48.933 Y158.665 Z16.090 F2500.000
G1 X47.941 Y158.665 Z16.232 F2500.000
G1 X46.948 Y158.665 Z16.342 F2500.000
G1 X45.955 Y158.665 Z16.420 F2500.000
G1 X44.963 Y158.665 Z16.469 F2500.000
G1 X43.970 Y158.665 Z16.492 F2500.000
G1 X42.978 Y158.665 Z16.503 F2500.000
G1 X41.985 Y158.665 Z16.509 F2500.000
G1 X40.000 Y158.665 Z16.514 F2500.000
G1 X38.015 Y158.665 Z16.510 F2500.000
G1 X37.022 Y158.665 Z16.503 F2500.000
G1 X36.030 Y158.665 Z16.492 F2500.000
G1 X35.037 Y158.665 Z16.469 F2500.000
G1 X34.045 Y158.665 Z16.420 F2500.000
G1 X33.052 Y158.665 Z16.342 F2500.000
G1 X32.059 Y158.665 Z16.232 F2500.000
G1 X31.067 Y158.665 Z16.090 F2500.000
G1 X30.074 Y158.665 Z15.918 F2500.000
G1 X29.082 Y158.665 Z15.715 F2500.000
G1 X28.089 Y158.665 Z15.478 F2500.000
G1 X27.097 Y158.665 Z15.211 F2500.000
G1 X26.104 Y158.665 Z14.909 F2500.000
G1 X25.111 Y158.665 Z14.575 F2500.000
G1 X24.119 Y158.665 Z14.205 F2500.000
G1 X23.126 Y158.665 Z13.801 F2500.000
G1 X22.134 Y158.665 Z13.359 F2500.000
G1 X21.141 Y158.665 Z12.877 F2500.000
G1 X20.149 Y158.665 Z12.800 F2500.000
G1 X8.238 Y158.665 Z12.800 F2500.000
(End of step 25.)
G0 Z19.770
G0 X8.336 Y165.065
(Begin step 26.)
G0 X8.336 Y165.065
(part 1)
G1 X8.336 Y165.065 Z12.800 F2500.000
G1 X20.210 Y165.065 Z12.800 F2500.000
G1 X21.200 Y165.065 Z12.829 F2500.000
G1 X22.189 Y165.065 Z13.308 F2500.000
G1 X23.179 Y165.065 Z13.749 F2500.000
G1 X24.168 Y165.065 Z14.152 F2500.000
G1 X25.158 Y165.065 Z14.522 F2500.000
G1 X26.147 Y165.065 Z14.856 F2500.000
G1 X27.137 Y165.065 Z15.157 F2500.000
G1 X28.126 Y165.065 Z15.424 F2500.000
G1 X29.116 Y165.065 Z15.661 F2500.000
G1 X30.105 Y165.065 Z15.865 F2500.000
G1 X31.095 Y165.065 Z16.036 F2500.000
G1 X32.084 Y165.065 Z16.179 F2500.000
G1 X33.074 Y165.065 Z16.289 F2500.000
G1 X34.063 Y165.065 Z16.368 F2500.000
G1 X35.053 Y165.065 Z16.417 F2500.000
G1 X36.042 Y165.065 Z16.439 F2500.000
G1 X38.021 Y165.065 Z16.457 F2500.000
G1 X40.000 Y165.065 Z16.461 F2500.000
G1 X41.979 Y165.065 Z16.456 F2500.000
G1 X43.958 Y165.065 Z16.439 F2500.000
G1 X44.947 Y165.065 Z16.417 F2500.000
G1 X45.937 Y165.065 Z16.368 F2500.000
G1 X46.926 Y165.065 Z16.289 F2500.000
G1 X47.916 Y165.065 Z16.179 F2500.000
G1 X48.905 Y165.065 Z16.038 F2500.000
G1 X49.895 Y165.065 Z15.865 F2500.000
G1 X50.884 Y165.065 Z15.661 F2500.000
G1 X51.874 Y165.065 Z15.425 F2500.000
G1 X52.863 Y165.065 Z15.157 F2500.000
G1 X53.853 Y165.065 Z14.856 F2500.000
G1 X54.842 Y165.065 Z14.521 F2500.000
G1 X55.832 Y165.065 Z14.152 F2500.000
G1 X56.821 Y165.065 Z13.749 F2500.000
G1 X57.811 Y165.065 Z13.308 F2500.000
G1 X58.800 Y165.065 Z12.829 F2500.000
G1 X59.790 Y165.065 Z12.800 F2500.000
G1 X71.664 Y165.065 Z12.800 F2500.000
(End of step 26.)
G0 Z19.770
G0 X71.565 Y171.465
(Begin step 27.)
G0 X71.565 Y171.465
(part 1)
G1 X71.565 Y171.465 Z12.800 F2500.000
G1 X58.742 Y171.465 Z12.800 F2500.000
G1 X57.756 Y171.465 Z13.257 F2500.000
G1 X56.769 Y171.465 Z13.697 F2500.000
G1 X55.783 Y171.465 Z14.101 F2500.000
G1 X54.796 Y171.465 Z14.469 F2500.000
G1 X53.810 Y171.465 Z14.802 F2500.000
G1 X52.823 Y171.465 Z15.104 F2500.000
G1 X51.837 Y171.465 Z15.372 F2500.000
G1 X50.851 Y171.465 Z15.608 F2500.000
G1 X49.864 Y171.465 Z15.812 F2500.000
G1 X48.878 Y171.465 Z15.985 F2500.000
G1 X47.891 Y171.465 Z16.126 F2500.000
G1 X46.905 Y171.465 Z16.236 F2500.000
G1 X45.919 Y171.465 Z16.314 F2500.000
G1 X44.932 Y171.465 Z16.363 F2500.000
G1 X43.946 Y171.465 Z16.387 F2500.000
G1 X41.973 Y171.465 Z16.403 F2500.000
G1 X40.000 Y171.465 Z16.408 F2500.000
G1 X38.027 Y171.465 Z16.403 F2500.000
G1 X36.054 Y171.465 Z16.387 F2500.000
G1 X35.068 Y171.465 Z16.364 F2500.000
G1 X34.081 Y171.465 Z16.315 F2500.000
G1 X33.095 Y171.465 Z16.236 F2500.000
G1 X32.109 Y171.465 Z16.126 F2500.000
G1 X31.122 Y171.465 Z15.985 F2500.000
G1 X30.136 Y171.465 Z15.812 F2500.000
G1 X29.149 Y171.465 Z15.608 F2500.000
G1 X28.163 Y171.465 Z15.372 F2500.000
G1 X27.177 Y171.465 Z15.103 F2500.000
G1 X26.190 Y171.465 Z14.802 F2500.000
G1 X25.204 Y171.465 Z14.469 F2500.000
G1 X24.217 Y171.465 Z14.101 F2500.000
G1 X23.231 Y171.465 Z13.697 F2500.000
G1 X22.244 Y171.465 Z13.258 F2500.000
G1 X21.258 Y171.465 Z12.800 F2500.000
G1 X8.435 Y171.465 Z12.800 F2500.000
(End of step 27.)
G0 Z19.770
G0 X8.533 Y177.865
(Begin step 28.)
G0 X8.533 Y177.865
(part 1)
G1 X8.533 Y177.865 Z12.800 F2500.000
G1 X20.520 Y177.865 Z12.800 F2500.000
G1 X21.519 Y177.865 Z12.832 F2500.000
G1 X22.518 Y177.865 Z13.308 F2500.000
G1 X23.517 Y177.865 Z13.745 F2500.000
G1 X24.516 Y177.865 Z14.145 F2500.000
G1 X25.515 Y177.865 Z14.509 F2500.000
G1 X26.514 Y177.865 Z14.839 F2500.000
G1 X27.513 Y177.865 Z15.134 F2500.000
G1 X28.512 Y177.865 Z15.397 F2500.000
G1 X29.511 Y177.865 Z15.626 F2500.000
G1 X30.510 Y177.865 Z15.823 F2500.000
G1 X31.509 Y177.865 Z15.987 F2500.000
G1 X32.508 Y177.865 Z16.119 F2500.000
G1 X33.507 Y177.865 Z16.218 F2500.000
G1 X34.506 Y177.865 Z16.286 F2500.000
G1 X35.505 Y177.865 Z16.322 F2500.000
G1 X36.504 Y177.865 Z16.339 F2500.000
G1 X37.503 Y177.865 Z16.347 F2500.000
G1 X39.501 Y177.865 Z16.354 F2500.000
G1 X41.498 Y177.865 Z16.352 F2500.000
G1 X43.496 Y177.865 Z16.339 F2500.000
G1 X44.495 Y177.865 Z16.322 F2500.000
G1 X45.494 Y177.865 Z16.286 F2500.000
G1 X46.493 Y177.865 Z16.217 F2500.000
G1 X47.492 Y177.865 Z16.119 F2500.000
G1 X48.491 Y177.865 Z15.987 F2500.000
G1 X49.490 Y177.865 Z15.822 F2500.000
G1 X50.489 Y177.865 Z15.625 F2500.000
G1 X51.488 Y177.865 Z15.397 F2500.000
G1 X52.487 Y177.865 Z15.134 F2500.000
G1 X53.486 Y177.865 Z14.838 F2500.000
G1 X54.485 Y177.865 Z14.510 F2500.000
G1 X55.484 Y177.865 Z14.146 F2500.000
G1 X56.483 Y177.865 Z13.746 F2500.000
G1 X57.482 Y177.865 Z13.308 F2500.000
G1 X58.481 Y177.865 Z12.832 F2500.000
G1 X59.480 Y177.865 Z12.800 F2500.000
G1 X71.467 Y177.865 Z12.800 F2500.000
(End of step 28.)
G0 Z19.770
G0 X71.368 Y184.265
(Begin step 29.)
G0 X71.368 Y184.265
(part 1)
G1 X71.368 Y184.265 Z12.800 F2500.000
G1 X58.423 Y184.265 Z12.800 F2500.000
G1 X57.427 Y184.265 Z13.257 F2500.000
G1 X56.431 Y184.265 Z13.694 F2500.000
G1 X55.435 Y184.265 Z14.093 F2500.000
G1 X54.439 Y184.265 Z14.457 F2500.000
G1 X53.444 Y184.265 Z14.785 F2500.000
G1 X52.448 Y184.265 Z15.082 F2500.000
G1 X51.452 Y184.265 Z15.344 F2500.000
G1 X50.456 Y184.265 Z15.573 F2500.000
G1 X49.460 Y184.265 Z15.770 F2500.000
G1 X48.465 Y184.265 Z15.934 F2500.000
G1 X47.469 Y184.265 Z16.066 F2500.000
G1 X46.473 Y184.265 Z16.166 F2500.000
G1 X45.477 Y184.265 Z16.233 F2500.000
G1 X44.481 Y184.265 Z16.270 F2500.000
G1 X43.485 Y184.265 Z16.286 F2500.000
G1 X41.494 Y184.265 Z16.299 F2500.000
G1 X39.502 Y184.265 Z16.301 F2500.000
G1 X37.510 Y184.265 Z16.294 F2500.000
G1 X36.515 Y184.265 Z16.286 F2500.000
G1 X35.519 Y184.265 Z16.269 F2500.000
G1 X34.523 Y184.265 Z16.233 F2500.000
G1 X33.527 Y184.265 Z16.166 F2500.000
G1 X32.531 Y184.265 Z16.066 F2500.000
G1 X31.535 Y184.265 Z15.933 F2500.000
G1 X30.540 Y184.265 Z15.770 F2500.000
G1 X29.544 Y184.265 Z15.572 F2500.000
G1 X28.548 Y184.265 Z15.344 F2500.000
G1 X27.552 Y184.265 Z15.082 F2500.000
G1 X26.556 Y184.265 Z14.786 F2500.000
G1 X25.561 Y184.265 Z14.457 F2500.000
G1 X24.565 Y184.265 Z14.094 F2500.000
G1 X23.569 Y184.265 Z13.693 F2500.000
G1 X22.573 Y184.265 Z13.257 F2500.000
G1 X21.577 Y184.265 Z12.800 F2500.000
G1 X8.632 Y184.265 Z12.800 F2500.000
(End of step 29.)
G0 Z19.770
G0 X8.730 Y190.665
(Begin step 30.)
G0 X8.730 Y190.665
(part 1)
G1 X8.730 Y190.665 Z12.800 F2500.000
G1 X21.635 Y190.665 Z12.800 F2500.000
G1 X22.628 Y190.665 Z13.208 F2500.000
G1 X23.620 Y190.665 Z13.643 F2500.000
G1 X24.613 Y190.665 Z14.041 F2500.000
G1 X25.606 Y190.665 Z14.403 F2500.000
G1 X26.599 Y190.665 Z14.734 F2500.000
G1 X27.591 Y190.665 Z15.029 F2500.000
G1 X28.584 Y190.665 Z15.291 F2500.000
G1 X29.577 Y190.665 Z15.520 F2500.000
G1 X30.569 Y190.665 Z15.717 F2500.000
G1 X31.562 Y190.665 Z15.882 F2500.000
G1 X32.555 Y190.665 Z16.014 F2500.000
G1 X33.547 Y190.665 Z16.113 F2500.000
G1 X34.540 Y190.665 Z16.180 F2500.000
G1 X35.533 Y190.665 Z16.217 F2500.000
G1 X36.526 Y190.665 Z16.233 F2500.000
G1 X38.511 Y190.665 Z16.245 F2500.000
G1 X40.496 Y190.665 Z16.247 F2500.000
G1 X42.482 Y190.665 Z16.241 F2500.000
G1 X43.474 Y190.665 Z16.233 F2500.000
G1 X44.467 Y190.665 Z16.217 F2500.000
G1 X45.460 Y190.665 Z16.180 F2500.000
G1 X46.453 Y190.665 Z16.113 F2500.000
G1 X47.445 Y190.665 Z16.013 F2500.000
G1 X48.438 Y190.665 Z15.882 F2500.000
G1 X49.431 Y190.665 Z15.717 F2500.000
G1 X50.423 Y190.665 Z15.521 F2500.000
G1 X51.416 Y190.665 Z15.291 F2500.000
G1 X52.409 Y190.665 Z15.029 F2500.000
G1 X53.401 Y190.665 Z14.733 F2500.000
G1 X54.394 Y190.665 Z14.403 F2500.000
G1 X55.387 Y190.665 Z14.041 F2500.000
G1 X56.380 Y190.665 Z13.643 F2500.000
G1 X57.372 Y190.665 Z13.207 F2500.000
G1 X58.365 Y190.665 Z12.800 F2500.000
G1 X71.270 Y190.665 Z12.800 F2500.000
(End of step 30.)
G0 Z19.770
G0 X71.172 Y197.065
(Begin step 31.)
G0 X71.172 Y197.065
(part 1)
G1 X71.172 Y197.065 Z12.800 F2500.000
G1 X58.307 Y197.065 Z12.800 F2500.000
G1 X57.318 Y197.065 Z13.158 F2500.000
G1 X56.328 Y197.065 Z13.592 F2500.000
G1 X55.338 Y197.065 Z13.989 F2500.000
G1 X54.349 Y197.065 Z14.352 F2500.000
G1 X53.359 Y197.065 Z14.681 F2500.000
G1 X52.370 Y197.065 Z14.976 F2500.000
G1 X51.380 Y197.065 Z15.237 F2500.000
G1 X50.391 Y197.065 Z15.467 F2500.000
G1 X49.401 Y197.065 Z15.664 F2500.000
G1 X48.411 Y197.065 Z15.829 F2500.000
G1 X47.422 Y197.065 Z15.961 F2500.000
G1 X46.432 Y197.065 Z16.061 F2500.000
G1 X45.443 Y197.065 Z16.128 F2500.000
G1 X44.453 Y197.065 Z16.164 F2500.000
G1 X43.464 Y197.065 Z16.180 F2500.000
G1 X41.484 Y197.065 Z16.192 F2500.000
G1 X39.505 Y197.065 Z16.194 F2500.000
G1 X38.516 Y197.065 Z16.192 F2500.000
G1 X36.536 Y197.065 Z16.180 F2500.000
G1 X35.547 Y197.065 Z16.163 F2500.000
G1 X34.557 Y197.065 Z16.127 F2500.000
G1 X33.568 Y197.065 Z16.060 F2500.000
G1 X32.578 Y197.065 Z15.960 F2500.000
G1 X31.589 Y197.065 Z15.829 F2500.000
G1 X30.599 Y197.065 Z15.664 F2500.000
G1 X29.609 Y197.065 Z15.467 F2500.000
G1 X28.620 Y197.065 Z15.237 F2500.000
G1 X27.630 Y197.065 Z14.976 F2500.000
G1 X26.641 Y197.065 Z14.681 F2500.000
G1 X25.651 Y197.065 Z14.352 F2500.000
G1 X24.662 Y197.065 Z13.988 F2500.000
G1 X23.672 Y197.065 Z13.591 F2500.000
G1 X22.682 Y197.065 Z13.157 F2500.000
G1 X21.693 Y197.065 Z12.800 F2500.000
G1 X8.828 Y197.065 Z12.800 F2500.000
(End of step 31.)
G0 Z19.770
G0 X8.927 Y203.465
(Begin step 32.)
G0 X8.927 Y203.465
(part 1)
G1 X8.927 Y203.465 Z12.800 F2500.000
G1 X21.751 Y203.465 Z12.800 F2500.000
G1 X22.737 Y203.465 Z13.106 F2500.000
G1 X23.724 Y203.465 Z13.540 F2500.000
G1 X24.710 Y203.465 Z13.937 F2500.000
G1 X25.696 Y203.465 Z14.299 F2500.000
G1 X26.683 Y203.465 Z14.627 F2500.000
G1 X27.669 Y203.465 Z14.923 F2500.000
G1 X28.656 Y203.465 Z15.184 F2500.000
G1 X29.642 Y203.465 Z15.414 F2500.000
G1 X30.629 Y203.465 Z15.611 F2500.000
G1 X31.615 Y203.465 Z15.775 F2500.000
G1 X32.602 Y203.465 Z15.908 F2500.000
G1 X33.588 Y203.465 Z16.008 F2500.000
G1 X34.575 Y203.465 Z16.074 F2500.000
G1 X35.561 Y203.465 Z16.111 F2500.000
G1 X36.547 Y203.465 Z16.126 F2500.000
G1 X38.520 Y203.465 Z16.139 F2500.000
G1 X40.493 Y203.465 Z16.140 F2500.000
G1 X42.466 Y203.465 Z16.134 F2500.000
G1 X43.453 Y203.465 Z16.126 F2500.000
G1 X44.439 Y203.465 Z16.111 F2500.000
G1 X45.425 Y203.465 Z16.074 F2500.000
G1 X46.412 Y203.465 Z16.008 F2500.000
G1 X47.398 Y203.465 Z15.908 F2500.000
G1 X48.385 Y203.465 Z15.775 F2500.000
G1 X49.371 Y203.465 Z15.611 F2500.000
G1 X50.358 Y203.465 Z15.414 F2500.000
G1 X51.344 Y203.465 Z15.184 F2500.000
G1 X52.331 Y203.465 Z14.923 F2500.000
G1 X53.317 Y203.465 Z14.627 F2500.000
G1 X54.304 Y203.465 Z14.299 F2500.000
G1 X55.290 Y203.465 Z13.937 F2500.000
G1 X56.276 Y203.465 Z13.540 F2500.000
G1 X57.263 Y203.465 Z13.106 F2500.000
G1 X58.249 Y203.465 Z12.800 F2500.000
G1 X71.073 Y203.465 Z12.800 F2500.000
(End of step 32.)
G0 Z19.770
G0 X70.975 Y209.865
(Begin step 33.)
G0 X70.975 Y209.865
(part 1)
G1 X70.975 Y209.865 Z12.800 F2500.000
G1 X57.985 Y209.865 Z12.800 F2500.000
G1 X56.986 Y209.865 Z13.157 F2500.000
G1 X55.987 Y209.865 Z13.588 F2500.000
G1 X54.988 Y209.865 Z13.983 F2500.000
G1 X53.989 Y209.865 Z14.341 F2500.000
G1 X52.989 Y209.865 Z14.664 F2500.000
G1 X51.990 Y209.865 Z14.954 F2500.000
G1 X50.991 Y209.865 Z15.210 F2500.000
G1 X49.992 Y209.865 Z15.432 F2500.000
G1 X48.993 Y209.865 Z15.620 F2500.000
G1 X47.993 Y209.865 Z15.776 F2500.000
G1 X46.994 Y209.865 Z15.898 F2500.000
G1 X45.995 Y209.865 Z15.986 F2500.000
G1 X44.996 Y209.865 Z16.039 F2500.000
G1 X43.997 Y209.865 Z16.067 F2500.000
G1 X42.998 Y209.865 Z16.077 F2500.000
G1 X41.998 Y209.865 Z16.084 F2500.000
G1 X40.000 Y209.865 Z16.088 F2500.000
G1 X38.002 Y209.865 Z16.084 F2500.000
G1 X37.002 Y209.865 Z16.077 F2500.000
G1 X36.003 Y209.865 Z16.067 F2500.000
G1 X35.004 Y209.865 Z16.039 F2500.000
G1 X34.005 Y209.865 Z15.986 F2500.000
G1 X33.006 Y209.865 Z15.898 F2500.000
G1 X32.007 Y209.865 Z15.776 F2500.000
G1 X31.007 Y209.865 Z15.620 F2500.000
G1 X30.008 Y209.865 Z15.433 F2500.000
G1 X29.009 Y209.865 Z15.210 F2500.000
G1 X28.010 Y209.865 Z14.954 F2500.000
G1 X27.011 Y209.865 Z14.664 F2500.000
G1 X26.011 Y209.865 Z14.341 F2500.000
G1 X25.012 Y209.865 Z13.983 F2500.000
G1 X24.013 Y209.865 Z13.588 F2500.000
G1 X23.014 Y209.865 Z13.157 F2500.000
G1 X22.015 Y209.865 Z12.800 F2500.000
G1 X9.025 Y209.865 Z12.800 F2500.000
(End of step 33.)
G0 Z19.770
G0 X9.124 Y216.265
(Begin step 34.)
G0 X9.124 Y216.265
(part 1)
G1 X9.124 Y216.265 Z12.800 F2500.000
G1 X22.072 Y216.265 Z12.800 F2500.000
G1 X23.068 Y216.265 Z13.109 F2500.000
G1 X24.064 Y216.265 Z13.538 F2500.000
G1 X25.060 Y216.265 Z13.930 F2500.000
G1 X26.056 Y216.265 Z14.288 F2500.000
G1 X27.052 Y216.265 Z14.613 F2500.000
G1 X28.048 Y216.265 Z14.901 F2500.000
G1 X29.044 Y216.265 Z15.157 F2500.000
G1 X30.040 Y216.265 Z15.379 F2500.000
G1 X31.036 Y216.265 Z15.568 F2500.000
G1 X32.032 Y216.265 Z15.724 F2500.000
G1 X33.028 Y216.265 Z15.846 F2500.000
G1 X34.024 Y216.265 Z15.934 F2500.000
G1 X35.020 Y216.265 Z15.988 F2500.000
G1 X36.016 Y216.265 Z16.014 F2500.000
G1 X37.012 Y216.265 Z16.024 F2500.000
G1 X38.008 Y216.265 Z16.031 F2500.000
G1 X40.000 Y216.265 Z16.035 F2500.000
G1 X41.992 Y216.265 Z16.031 F2500.000
G1 X42.988 Y216.265 Z16.024 F2500.000
G1 X43.984 Y216.265 Z16.014 F2500.000
G1 X44.980 Y216.265 Z15.988 F2500.000
G1 X45.976 Y216.265 Z15.934 F2500.000
G1 X46.972 Y216.265 Z15.846 F2500.000
G1 X47.968 Y216.265 Z15.724 F2500.000
G1 X48.964 Y216.265 Z15.568 F2500.000
G1 X49.960 Y216.265 Z15.379 F2500.000
G1 X50.956 Y216.265 Z15.157 F2500.000
G1 X51.952 Y216.265 Z14.901 F2500.000
G1 X52.948 Y216.265 Z14.613 F2500.000
G1 X53.944 Y216.265 Z14.288 F2500.000
G1 X54.940 Y216.265 Z13.930 F2500.000
G1 X55.936 Y216.265 Z13.538 F2500.000
G1 X56.932 Y216.265 Z13.109 F2500.000
G1 X57.928 Y216.265 Z12.800 F2500.000
G1 X70.876 Y216.265 Z12.800 F2500.000
(End of step 34.)
G0 Z19.770
G0 X70.778 Y222.665
(Begin step 35.)
G0 X70.778 Y222.665
(part 1)
G1 X70.778 Y222.665 Z12.800 F2500.000
G1 X57.871 Y222.665 Z12.800 F2500.000
G1 X56.878 Y222.665 Z13.059 F2500.000
G1 X55.885 Y222.665 Z13.488 F2500.000
G1 X54.892 Y222.665 Z13.880 F2500.000
G1 X53.900 Y222.665 Z14.237 F2500.000
G1 X52.907 Y222.665 Z14.560 F2500.000
G1 X51.914 Y222.665 Z14.850 F2500.000
G1 X50.921 Y222.665 Z15.105 F2500.000
G1 X49.928 Y222.665 Z15.327 F2500.000
G1 X48.935 Y222.665 Z15.516 F2500.000
G1 X47.943 Y222.665 Z15.671 F2500.000
G1 X46.950 Y222.665 Z15.793 F2500.000
G1 X45.957 Y222.665 Z15.881 F2500.000
G1 X44.964 Y222.665 Z15.934 F2500.000
G1 X43.971 Y222.665 Z15.961 F2500.000
G1 X42.978 Y222.665 Z15.971 F2500.000
G1 X41.986 Y222.665 Z15.977 F2500.000
G1 X40.000 Y222.665 Z15.982 F2500.000
G1 X37.022 Y222.665 Z15.972 F2500.000
G1 X36.029 Y222.665 Z15.961 F2500.000
G1 X35.036 Y222.665 Z15.935 F2500.000
G1 X34.043 Y222.665 Z15.881 F2500.000
G1 X33.050 Y222.665 Z15.793 F2500.000
G1 X32.057 Y222.665 Z15.672 F2500.000
G1 X31.065 Y222.665 Z15.516 F2500.000
G1 X30.072 Y222.665 Z15.327 F2500.000
G1 X29.079 Y222.665 Z15.105 F2500.000
G1 X28.086 Y222.665 Z14.850 F2500.000
G1 X27.093 Y222.665 Z14.561 F2500.000
G1 X26.100 Y222.665 Z14.237 F2500.000
G1 X25.108 Y222.665 Z13.880 F2500.000
G1 X24.115 Y222.665 Z13.488 F2500.000
G1 X23.122 Y222.665 Z13.059 F2500.000
G1 X22.129 Y222.665 Z12.800 F2500.000
G1 X9.222 Y222.665 Z12.800 F2500.000
(End of step 35.)
G0 Z19.770
G0 X9.321 Y229.065
(Begin step 36.)
G0 X9.321 Y229.065
(part 1)
G1 X9.321 Y229.065 Z12.800 F2500.000
G1 X22.186 Y229.065 Z12.800 F2500.000
G1 X23.176 Y229.065 Z13.009 F2500.000
G1 X24.166 Y229.065 Z13.437 F2500.000
G1 X25.155 Y229.065 Z13.828 F2500.000
G1 X26.145 Y229.065 Z14.186 F2500.000
G1 X27.134 Y229.065 Z14.508 F2500.000
G1 X28.124 Y229.065 Z14.797 F2500.000
G1 X29.114 Y229.065 Z15.052 F2500.000
G1 X30.103 Y229.065 Z15.275 F2500.000
G1 X31.093 Y229.065 Z15.464 F2500.000
G1 X32.083 Y229.065 Z15.618 F2500.000
G1 X33.072 Y229.065 Z15.741 F2500.000
G1 X34.062 Y229.065 Z15.829 F2500.000
G1 X35.052 Y229.065 Z15.882 F2500.000
G1 X36.041 Y229.065 Z15.908 F2500.000
G1 X37.031 Y229.065 Z15.917 F2500.000
G1 X38.021 Y229.065 Z15.923 F2500.000
G1 X40.000 Y229.065 Z15.928 F2500.000
G1 X41.979 Y229.065 Z15.925 F2500.000
G1 X42.969 Y229.065 Z15.918 F2500.000
G1 X43.959 Y229.065 Z15.907 F2500.000
G1 X44.948 Y229.065 Z15.882 F2500.000
G1 X45.938 Y229.065 Z15.829 F2500.000
G1 X46.928 Y229.065 Z15.741 F2500.000
G1 X47.917 Y229.065 Z15.618 F2500.000
G1 X48.907 Y229.065 Z15.464 F2500.000
G1 X49.897 Y229.065 Z15.275 F2500.000
G1 X50.886 Y229.065 Z15.052 F2500.000
G1 X51.876 Y229.065 Z14.797 F2500.000
G1 X52.866 Y229.065 Z14.508 F2500.000
G1 X53.855 Y229.065 Z14.186 F2500.000
G1 X54.845 Y229.065 Z13.828 F2500.000
G1 X55.834 Y229.065 Z13.436 F2500.000
G1 X56.824 Y229.065 Z13.009 F2500.000
G1 X57.814 Y229.065 Z12.800 F2500.000
G1 X70.679 Y229.065 Z12.800 F2500.000
(End of step 36.)
G0 Z19.770
G0 X70.581 Y235.465
(Begin step 37.)
G0 X70.581 Y235.465
(part 1)
G1 X70.581 Y235.465 Z12.800 F2500.000
G1 X57.757 Y235.465 Z12.800 F2500.000
G1 X56.770 Y235.465 Z12.959 F2500.000
G1 X55.784 Y235.465 Z13.386 F2500.000
G1 X54.797 Y235.465 Z13.777 F2500.000
G1 X53.811 Y235.465 Z14.133 F2500.000
G1 X52.824 Y235.465 Z14.455 F2500.000
G1 X51.838 Y235.465 Z14.745 F2500.000
G1 X50.851 Y235.465 Z15.001 F2500.000
G1 X49.865 Y235.465 Z15.223 F2500.000
G1 X48.878 Y235.465 Z15.410 F2500.000
G1 X47.892 Y235.465 Z15.566 F2500.000
G1 X46.905 Y235.465 Z15.688 F2500.000
G1 X45.919 Y235.465 Z15.775 F2500.000
G1 X44.932 Y235.465 Z15.829 F2500.000
G1 X43.946 Y235.465 Z15.854 F2500.000
G1 X42.959 Y235.465 Z15.865 F2500.000
G1 X41.973 Y235.465 Z15.871 F2500.000
G1 X40.000 Y235.465 Z15.875 F2500.000
G1 X38.027 Y235.465 Z15.871 F2500.000
G1 X37.041 Y235.465 Z15.865 F2500.000
G1 X36.054 Y235.465 Z15.854 F2500.000
G1 X35.068 Y235.465 Z15.829 F2500.000
G1 X34.081 Y235.465 Z15.775 F2500.000
G1 X33.095 Y235.465 Z15.688 F2500.000
G1 X32.108 Y235.465 Z15.567 F2500.000
G1 X31.122 Y235.465 Z15.410 F2500.000
G1 X30.135 Y235.465 Z15.223 F2500.000
G1 X29.149 Y235.465 Z15.000 F2500.000
G1 X28.162 Y235.465 Z14.745 F2500.000
G1 X27.176 Y235.465 Z14.456 F2500.000
G1 X26.189 Y235.465 Z14.133 F2500.000
G1 X25.203 Y235.465 Z13.777 F2500.000
G1 X24.216 Y235.465 Z13.386 F2500.000
G1 X23.230 Y235.465 Z12.959 F2500.000
G1 X22.243 Y235.465 Z12.800 F2500.000
G1 X9.419 Y235.465 Z12.800 F2500.000
(End of step 37.)
G0 Z19.770
G0 X9.727 Y241.865
(Begin step 38.)
G0 X9.727 Y241.865
(part 1)
G1 X9.727 Y241.865 Z12.800 F2500.000
G1 X22.630 Y241.865 Z12.800 F2500.000
G1 X23.623 Y241.865 Z12.974 F2500.000
G1 X24.615 Y241.865 Z13.400 F2500.000
G1 X25.608 Y241.865 Z13.789 F2500.000
G1 X26.600 Y241.865 Z14.143 F2500.000
G1 X27.593 Y241.865 Z14.463 F2500.000
G1 X28.586 Y241.865 Z14.748 F2500.000
G1 X29.578 Y241.865 Z15.000 F2500.000
G1 X30.571 Y241.865 Z15.218 F2500.000
G1 X31.563 Y241.865 Z15.402 F2500.000
G1 X32.556 Y241.865 Z15.552 F2500.000
G1 X33.548 Y241.865 Z15.667 F2500.000
G1 X34.541 Y241.865 Z15.747 F2500.000
G1 X35.533 Y241.865 Z15.791 F2500.000
G1 X36.526 Y241.865 Z15.806 F2500.000
G1 X38.511 Y241.865 Z15.820 F2500.000
G1 X40.496 Y241.865 Z15.822 F2500.000
G1 X42.481 Y241.865 Z15.815 F2500.000
G1 X43.474 Y241.865 Z15.806 F2500.000
G1 X44.467 Y241.865 Z15.791 F2500.000
G1 X45.459 Y241.865 Z15.747 F2500.000
G1 X46.452 Y241.865 Z15.667 F2500.000
G1 X47.444 Y241.865 Z15.552 F2500.000
G1 X48.437 Y241.865 Z15.402 F2500.000
G1 X49.429 Y241.865 Z15.218 F2500.000
G1 X50.422 Y241.865 Z15.000 F2500.000
G1 X51.415 Y241.865 Z14.748 F2500.000
G1 X52.407 Y241.865 Z14.463 F2500.000
G1 X53.400 Y241.865 Z14.143 F2500.000
G1 X54.392 Y241.865 Z13.789 F2500.000
G1 X55.385 Y241.865 Z13.400 F2500.000
G1 X56.377 Y241.865 Z12.974 F2500.000
G1 X57.370 Y241.865 Z12.800 F2500.000
G1 X70.273 Y241.865 Z12.800 F2500.000
(End of step 38.)
(End of layer 1)
(Layer 2 begins)
(Layer transition)
G0 Z19.770
G0 X6.027 Y-1.335
(Begin step 0.)
G0 X6.027 Y-1.335
(part 1)
G1 X6.027 Y-1.335 Z8.800 F2500.000
G1 X12.022 Y-1.335 Z8.800 F2500.000
G1 X13.021 Y-1.335 Z9.358 F2500.000
G1 X14.020 Y-1.335 Z10.222 F2500.000
G1 X15.020 Y-1.335 Z11.022 F2500.000
G1 X16.019 Y-1.335 Z11.761 F2500.000
G1 X17.018 Y-1.335 Z12.443 F2500.000
G1 X18.017 Y-1.335 Z13.071 F2500.000
G1 X19.017 Y-1.335 Z13.649 F2500.000
G1 X20.016 Y-1.335 Z14.180 F2500.000
G1 X21.015 Y-1.335 Z14.665 F2500.000
G1 X22.014 Y-1.335 Z15.108 F2500.000
G1 X23.013 Y-1.335 Z15.510 F2500.000
G1 X24.013 Y-1.335 Z15.873 F2500.000
G1 X25.012 Y-1.335 Z16.201 F2500.000
G1 X26.011 Y-1.335 Z16.493 F2500.000
G1 X27.010 Y-1.335 Z16.752 F2500.000
G1 X28.009 Y-1.335 Z16.979 F2500.000
G1 X29.009 Y-1.335 Z17.175 F2500.000
G1 X30.008 Y-1.335 Z17.343 F2500.000
G1 X31.007 Y-1.335 Z17.482 F2500.000
G1 X32.006 Y-1.335 Z17.595 F2500.000
G1 X33.006 Y-1.335 Z17.682 F2500.000
G1 X34.005 Y-1.335 Z17.745 F2500.000
G1 X35.004 Y-1.335 Z17.783 F2500.000
G1 X36.003 Y-1.335 Z17.799 F2500.000
G1 X37.002 Y-1.335 Z17.800 F2500.000
G1 X43.997 Y-1.335 Z17.799 F2500.000
G1 X44.996 Y-1.335 Z17.783 F2500.000
G1 X45.995 Y-1.335 Z17.744 F2500.000
G1 X46.994 Y-1.335 Z17.682 F2500.000
G1 X47.994 Y-1.335 Z17.595 F2500.000
G1 X48.993 Y-1.335 Z17.482 F2500.000
G1 X49.992 Y-1.335 Z17.343 F2500.000
G1 X50.991 Y-1.335 Z17.175 F2500.000
G1 X51.991 Y-1.335 Z16.979 F2500.000
G1 X52.990 Y-1.335 Z16.752 F2500.000
G1 X53.989 Y-1.335 Z16.493 F2500.000
G1 X54.988 Y-1.335 Z16.201 F2500.000
G1 X55.987 Y-1.335 Z15.874 F2500.000
G1 X56.987 Y-1.335 Z15.510 F2500.000
G1 X57.986 Y-1.335 Z15.108 F2500.000
G1 X58.985 Y-1.335 Z14.665 F2500.000
G1 X59.984 Y-1.335 Z14.179 F2500.000
G1 X60.983 Y-1.335 Z13.649 F2500.000
G1 X61.983 Y-1.335 Z13.071 F2500.000
G1 X62.982 Y-1.335 Z12.443 F2500.000
G1 X63.981 Y-1.335 Z11.761 F2500.000
G1 X64.980 Y-1.335 Z11.022 F2500.000
G1 X65.980 Y-1.335 Z10.222 F2500.000
G1 X66.979 Y-1.335 Z9.358 F2500.000
G1 X67.978 Y-1.335 Z8.800 F2500.000
G1 X73.973 Y-1.335 Z8.800 F2500.000
(End of step 0.)
G0 Z19.770
G0 X74.125 Y5.065
(Begin step 1.)
G0 X74.125 Y5.065
(part 1)
G1 X74.125 Y5.065 Z8.800 F2500.000
G1 X68.190 Y5.065 Z8.800 F2500.000
G1 X67.201 Y5.065 Z9.286 F2500.000
G1 X66.212 Y5.065 Z10.144 F2500.000
G1 X65.223 Y5.065 Z10.938 F2500.000
G1 X64.234 Y5.065 Z11.673 F2500.000
G1 X63.245 Y5.065 Z12.351 F2500.000
G1 X62.255 Y5.065 Z12.977 F2500.000
G1 X61.266 Y5.065 Z13.554 F2500.000
G1 X60.277 Y5.065 Z14.083 F2500.000
G1 X59.288 Y5.065 Z14.568 F2500.000
G1 X58.299 Y5.065 Z15.011 F2500.000
G1 X57.310 Y5.065 Z15.415 F2500.000
G1 X56.321 Y5.065 Z15.780 F2500.000
G1 X55.332 Y5.065 Z16.109 F2500.000
G1 X54.342 Y5.065 Z16.405 F2500.000
G1 X53.353 Y5.065 Z16.667 F2500.000
G1 X52.364 Y5.065 Z16.898 F2500.000
G1 X51.375 Y5.065 Z17.098 F2500.000
G1 X50.386 Y5.065 Z17.270 F2500.000
G1 X49.397 Y5.065 Z17.415 F2500.000
G1 X48.408 Y5.065 Z17.531 F2500.000
G1 X47.418 Y5.065 Z17.625 F2500.000
G1 X46.429 Y5.065 Z17.692 F2500.000
G1 X45.440 Y5.065 Z17.738 F2500.000
G1 X44.451 Y5.065 Z17.764 F2500.000
G1 X43.462 Y5.065 Z17.777 F2500.000
G1 X42.473 Y5.065 Z17.785 F2500.000
G1 X39.505 Y5.065 Z17.791 F2500.000
G1 X37.527 Y5.065 Z17.785 F2500.000
G1 X36.538 Y5.065 Z17.777 F2500.000
G1 X35.549 Y5.065 Z17.764 F2500.000
G1 X34.560 Y5.065 Z17.739 F2500.000
G1 X33.571 Y5.065 Z17.692 F2500.000
G1 X32.582 Y5.065 Z17.624 F2500.000
G1 X31.592 Y5.065 Z17.532 F2500.000
G1 X30.603 Y5.065 Z17.414 F2500.000
G1 X29.614 Y5.065 Z17.270 F2500.000
G1 X28.625 Y5.065 Z17.099 F2500.000
G1 X27.636 Y5.065 Z16.898 F2500.000
G1 X26.647 Y5.065 Z16.667 F2500.000
G1 X25.658 Y5.065 Z16.405 F2500.000
G1 X24.668 Y5.065 Z16.110 F2500.000
G1 X23.679 Y5.065 Z15.780 F2500.000
G1 X22.690 Y5.065 Z15.414 F2500.000
G1 X21.701 Y5.065 Z15.011 F2500.000
G1 X20.712 Y5.065 Z14.568 F2500.000
G1 X19.723 Y5.065 Z14.083 F2500.000
G1 X18.734 Y5.065 Z13.554 F2500.000
G1 X17.745 Y5.065 Z12.977 F2500.000
G1 X16.755 Y5.065 Z12.351 F2500.000
G1 X15.766 Y5.065 Z11.673 F2500.000
G1 X14.777 Y5.065 Z10.938 F2500.000
G1 X13.788 Y5.065 Z10.144 F2500.000
G1 X12.799 Y5.065 Z9.286 F2500.000
G1 X11.810 Y5.065 Z8.800 F2500.000
G1 X5.875 Y5.065 Z8.800 F2500.000
(End of step 1.)
G0 Z19.770
G0 X5.973 Y11.465
(Begin step 2.)
G0 X5.973 Y11.465
(part 1)
G1 X5.973 Y11.465 Z8.800 F2500.000
G1 X11.891 Y11.465 Z8.800 F2500.000
G1 X12.877 Y11.465 Z9.259 F2500.000
G1 X13.864 Y11.465 Z10.113 F2500.000
G1 X14.850 Y11.465 Z10.902 F2500.000
G1 X15.836 Y11.465 Z11.632 F2500.000
G1 X16.822 Y11.465 Z12.307 F2500.000
G1 X17.809 Y11.465 Z12.931 F2500.000
G1 X18.795 Y11.465 Z13.504 F2500.000
G1 X19.781 Y11.465 Z14.032 F2500.000
G1 X20.768 Y11.465 Z14.515 F2500.000
G1 X21.754 Y11.465 Z14.956 F2500.000
G1 X22.740 Y11.465 Z15.359 F2500.000
G1 X23.726 Y11.465 Z15.723 F2500.000
G1 X24.713 Y11.465 Z16.053 F2500.000
G1 X25.699 Y11.465 Z16.348 F2500.000
G1 X26.685 Y11.465 Z16.610 F2500.000
G1 X27.672 Y11.465 Z16.841 F2500.000
G1 X28.658 Y11.465 Z17.042 F2500.000
G1 X29.644 Y11.465 Z17.215 F2500.000
G1 X30.630 Y11.465 Z17.360 F2500.000
G1 X31.617 Y11.465 Z17.478 F2500.000
G1 X32.603 Y11.465 Z17.571 F2500.000
G1 X33.589 Y11.465 Z17.640 F2500.000
G1 X34.575 Y11.465 Z17.685 F2500.000
G1 X35.562 Y11.465 Z17.711 F2500.000
G1 X36.548 Y11.465 Z17.723 F2500.000
G1 X37.534 Y11.465 Z17.731 F2500.000
G1 X39.507 Y11.465 Z17.738 F2500.000
G1 X42.466 Y11.465 Z17.731 F2500.000
G1 X44.438 Y11.465 Z17.711 F2500.000
G1 X45.425 Y11.465 Z17.685 F2500.000
G1 X46.411 Y11.465 Z17.639 F2500.000
G1 X47.397 Y11.465 Z17.571 F2500.000
G1 X48.383 Y11.465 Z17.478 F2500.000
G1 X49.370 Y11.465 Z17.360 F2500.000
G1 X50.356 Y11.465 Z17.215 F2500.000
G1 X51.342 Y11.465 Z17.042 F2500.000
G1 X52.328 Y11.465 Z16.841 F2500.000
G1 X53.315 Y11.465 Z16.610 F2500.000
G1 X54.301 Y11.465 Z16.348 F2500.000
G1 X55.287 Y11.465 Z16.053 F2500.000
G1 X56.274 Y11.465 Z15.724 F2500.000
G1 X57.260 Y11.465 Z15.359 F2500.000
G1 X58.246 Y11.465 Z14.956 F2500.000
G1 X59.232 Y11.465 Z14.515 F2500.000
G1 X60.219 Y11.465 Z14.031 F2500.000
G1 X61.205 Y11.465 Z13.504 F2500.000
G1 X62.191 Y11.465 Z12.931 F2500.000
G1 X63.178 Y11.465 Z12.307 F2500.000
G1 X64.164 Y11.465 Z11.633 F2500.000
G1 X65.150 Y11.465 Z10.902 F2500.000
G1 X66.136 Y11.465 Z10.113 F2500.000
G1 X67.123 Y11.465 Z9.259 F2500.000
G1 X68.109 Y11.465 Z8.800 F2500.000
G1 X74.027 Y11.465 Z8.800 F2500.000
(End of step 2.)
G0 Z19.770
G0 X73.928 Y17.865
(Begin step 3.)
G0 X73.928 Y17.865
(part 1)
G1 X73.928 Y17.865 Z8.800 F2500.000
G1 X67.941 Y17.865 Z8.800 F2500.000
G1 X66.943 Y17.865 Z9.322 F2500.000
G1 X65.945 Y17.865 Z10.176 F2500.000
G1 X64.947 Y17.865 Z10.966 F2500.000
G1 X63.949 Y17.865 Z11.694 F2500.000
G1 X62.951 Y17.865 Z12.368 F2500.000
G1 X61.954 Y17.865 Z12.987 F2500.000
G1 X60.956 Y17.865 Z13.558 F2500.000
G1 X59.958 Y17.865 Z14.083 F2500.000
G1 X58.960 Y17.865 Z14.562 F2500.000
G1 X57.962 Y17.865 Z15.000 F2500.000
G1 X56.964 Y17.865 Z15.398 F2500.000
G1 X55.966 Y17.865 Z15.758 F2500.000
G1 X54.968 Y17.865 Z16.082 F2500.000
G1 X53.970 Y17.865 Z16.371 F2500.000
G1 X52.973 Y17.865 Z16.628 F2500.000
G1 X51.975 Y17.865 Z16.854 F2500.000
G1 X50.977 Y17.865 Z17.048 F2500.000
G1 X49.979 Y17.865 Z17.214 F2500.000
G1 X48.981 Y17.865 Z17.351 F2500.000
G1 X47.983 Y17.865 Z17.462 F2500.000
G1 X46.985 Y17.865 Z17.547 F2500.000
G1 X45.987 Y17.865 Z17.608 F2500.000
G1 X44.989 Y17.865 Z17.645 F2500.000
G1 X43.992 Y17.865 Z17.665 F2500.000
G1 X42.994 Y17.865 Z17.674 F2500.000
G1 X41.996 Y17.865 Z17.680 F2500.000
G1 X40.000 Y17.865 Z17.685 F2500.000
G1 X37.006 Y17.865 Z17.675 F2500.000
G1 X36.008 Y17.865 Z17.665 F2500.000
G1 X35.011 Y17.865 Z17.645 F2500.000
G1 X34.013 Y17.865 Z17.608 F2500.000
G1 X33.015 Y17.865 Z17.548 F2500.000
G1 X32.017 Y17.865 Z17.462 F2500.000
G1 X31.019 Y17.865 Z17.351 F2500.000
G1 X30.021 Y17.865 Z17.214 F2500.000
G1 X29.023 Y17.865 Z17.048 F2500.000
G1 X28.025 Y17.865 Z16.854 F2500.000
G1 X27.027 Y17.865 Z16.628 F2500.000
G1 X26.030 Y17.865 Z16.371 F2500.000
G1 X25.032 Y17.865 Z16.082 F2500.000
G1 X24.034 Y17.865 Z15.758 F2500.000
G1 X23.036 Y17.865 Z15.398 F2500.000
G1 X22.038 Y17.865 Z15.000 F2500.000
G1 X21.040 Y17.865 Z14.562 F2500.000
G1 X20.042 Y17.865 Z14.083 F2500.000
G1 X19.044 Y17.865 Z13.558 F2500.000
G1 X18.046 Y17.865 Z12.987 F2500.000
G1 X17.049 Y17.865 Z12.368 F2500.000
G1 X16.051 Y17.865 Z11.694 F2500.000
G1 X15.053 Y17.865 Z10.965 F2500.000
G1 X14.055 Y17.865 Z10.176 F2500.000
G1 X13.057 Y17.865 Z9.321 F2500.000
G1 X12.059 Y17.865 Z8.800 F2500.000
G1 X6.072 Y17.865 Z8.800 F2500.000
(End of step 3.)
G0 Z19.770
G0 X6.170 Y24.265
(Begin step 4.)
G0 X6.170 Y24.265
(part 1)
G1 X6.170 Y24.265 Z8.800 F2500.000
G1 X12.140 Y24.265 Z8.800 F2500.000
G1 X13.135 Y24.265 Z9.294 F2500.000
G1 X14.130 Y24.265 Z10.143 F2500.000
G1 X15.125 Y24.265 Z10.929 F2500.000
G1 X16.120 Y24.265 Z11.653 F2500.000
G1 X17.115 Y24.265 Z12.324 F2500.000
G1 X18.110 Y24.265 Z12.940 F2500.000
G1 X19.105 Y24.265 Z13.508 F2500.000
G1 X20.100 Y24.265 Z14.029 F2500.000
G1 X21.095 Y24.265 Z14.509 F2500.000
G1 X22.090 Y24.265 Z14.945 F2500.000
G1 X23.085 Y24.265 Z15.341 F2500.000
G1 X24.080 Y24.265 Z15.701 F2500.000
G1 X25.075 Y24.265 Z16.025 F2500.000
G1 X26.070 Y24.265 Z16.314 F2500.000
G1 X27.065 Y24.265 Z16.572 F2500.000
G1 X28.060 Y24.265 Z16.797 F2500.000
G1 X29.055 Y24.265 Z16.992 F2500.000
G1 X30.050 Y24.265 Z17.158 F2500.000
G1 X31.045 Y24.265 Z17.297 F2500.000
G1 X32.040 Y24.265 Z17.409 F2500.000
G1 X33.035 Y24.265 Z17.494 F2500.000
G1 X34.030 Y24.265 Z17.555 F2500.000
G1 X35.025 Y24.265 Z17.592 F2500.000
G1 X36.020 Y24.265 Z17.611 F2500.000
G1 X37.015 Y24.265 Z17.621 F2500.000
G1 X40.000 Y24.265 Z17.631 F2500.000
G1 X41.990 Y24.265 Z17.627 F2500.000
G1 X42.985 Y24.265 Z17.621 F2500.000
G1 X43.980 Y24.265 Z17.611 F2500.000
G1 X44.975 Y24.265 Z17.592 F2500.000
G1 X45.970 Y24.265 Z17.555 F2500.000
G1 X46.965 Y24.265 Z17.494 F2500.000
G1 X47.960 Y24.265 Z17.409 F2500.000
G1 X48.955 Y24.265 Z17.296 F2500.000
G1 X49.950 Y24.265 Z17.158 F2500.000
G1 X50.945 Y24.265 Z16.993 F2500.000
G1 X51.940 Y24.265 Z16.798 F2500.000
G1 X52.935 Y24.265 Z16.572 F2500.000
G1 X53.930 Y24.265 Z16.313 F2500.000
G1 X54.925 Y24.265 Z16.025 F2500.000
G1 X55.920 Y24.265 Z15.702 F2500.000
G1 X56.915 Y24.265 Z15.341 F2500.000
G1 X57.910 Y24.265 Z14.945 F2500.000
G1 X58.905 Y24.265 Z14.509 F2500.000
G1 X59.900 Y24.265 Z14.029 F2500.000
G1 X60.895 Y24.265 Z13.508 F2500.000
G1 X61.890 Y24.265 Z12.941 F2500.000
G1 X62.885 Y24.265 Z12.323 F2500.000
G1 X63.880 Y24.265 Z11.653 F2500.000
G1 X64.875 Y24.265 Z10.929 F2500.000
G1 X65.870 Y24.265 Z10.144 F2500.000
G1 X66.865 Y24.265 Z9.294 F2500.000
G1 X67.860 Y24.265 Z8.800 F2500.000
G1 X73.830 Y24.265 Z8.800 F2500.000
(End of step 4.)
G0 Z19.770
G0 X73.731 Y30.665
(Begin step 5.)
G0 X73.731 Y30.665
(part 1)
G1 X73.731 Y30.665 Z8.800 F2500.000
G1 X67.779 Y30.665 Z8.800 F2500.000
G1 X66.787 Y30.665 Z9.266 F2500.000
G1 X65.794 Y30.665 Z10.111 F2500.000
G1 X64.802 Y30.665 Z10.891 F2500.000
G1 X63.810 Y30.665 Z11.613 F2500.000
G1 X62.818 Y30.665 Z12.279 F2500.000
G1 X61.826 Y30.665 Z12.893 F2500.000
G1 X60.834 Y30.665 Z13.458 F2500.000
G1 X59.842 Y30.665 Z13.979 F2500.000
G1 X58.850 Y30.665 Z14.455 F2500.000
G1 X57.858 Y30.665 Z14.890 F2500.000
G1 X56.866 Y30.665 Z15.287 F2500.000
G1 X55.874 Y30.665 Z15.646 F2500.000
G1 X54.881 Y30.665 Z15.969 F2500.000
G1 X53.889 Y30.665 Z16.259 F2500.000
G1 X52.897 Y30.665 Z16.515 F2500.000
G1 X51.905 Y30.665 Z16.742 F2500.000
G1 X50.913 Y30.665 Z16.937 F2500.000
G1 X49.921 Y30.665 Z17.104 F2500.000
G1 X48.929 Y30.665 Z17.242 F2500.000
G1 X47.937 Y30.665 Z17.355 F2500.000
G1 X46.945 Y30.665 Z17.440 F2500.000
G1 X45.953 Y30.665 Z17.501 F2500.000
G1 X44.960 Y30.665 Z17.539 F2500.000
G1 X43.968 Y30.665 Z17.558 F2500.000
G1 X42.976 Y30.665 Z17.568 F2500.000
G1 X41.984 Y30.665 Z17.574 F2500.000
G1 X40.000 Y30.665 Z17.578 F2500.000
G1 X38.016 Y30.665 Z17.574 F2500.000
G1 X37.024 Y30.665 Z17.567 F2500.000
G1 X36.032 Y30.665 Z17.559 F2500.000
G1 X35.040 Y30.665 Z17.539 F2500.000
G1 X34.047 Y30.665 Z17.501 F2500.000
G1 X33.055 Y30.665 Z17.441 F2500.000
G1 X32.063 Y30.665 Z17.354 F2500.000
G1 X31.071 Y30.665 Z17.243 F2500.000
G1 X30.079 Y30.665 Z17.103 F2500.000
G1 X29.087 Y30.665 Z16.937 F2500.000
G1 X28.095 Y30.665 Z16.741 F2500.000
G1 X27.103 Y30.665 Z16.515 F2500.000
G1 X26.111 Y30.665 Z16.258 F2500.000
G1 X25.119 Y30.665 Z15.969 F2500.000
G1 X24.126 Y30.665 Z15.645 F2500.000
G1 X23.134 Y30.665 Z15.287 F2500.000
G1 X22.142 Y30.665 Z14.890 F2500.000
G1 X21.150 Y30.665 Z14.455 F2500.000
G1 X20.158 Y30.665 Z13.979 F2500.000
G1 X19.166 Y30.665 Z13.458 F2500.000
G1 X18.174 Y30.665 Z12.893 F2500.000
G1 X17.182 Y30.665 Z12.280 F2500.000
G1 X16.190 Y30.665 Z11.613 F2500.000
G1 X15.198 Y30.665 Z10.891 F2500.000
G1 X14.206 Y30.665 Z10.112 F2500.000
G1 X13.213 Y30.665 Z9.266 F2500.000
G1 X12.221 Y30.665 Z8.800 F2500.000
G1 X6.269 Y30.665 Z8.800 F2500.000
(End of step 5.)
G0 Z19.770
G0 X6.367 Y37.065
(Begin step 6.)
G0 X6.367 Y37.065
(part 1)
G1 X6.367 Y37.065 Z8.800 F2500.000
G1 X12.302 Y37.065 Z8.800 F2500.000
G1 X13.292 Y37.065 Z9.238 F2500.000
G1 X14.281 Y37.065 Z10.078 F2500.000
G1 X15.270 Y37.065 Z10.855 F2500.000
G1 X16.259 Y37.065 Z11.571 F2500.000
G1 X17.248 Y37.065 Z12.234 F2500.000
G1 X18.238 Y37.065 Z12.846 F2500.000
G1 X19.227 Y37.065 Z13.409 F2500.000
G1 X20.216 Y37.065 Z13.927 F2500.000
G1 X21.205 Y37.065 Z14.402 F2500.000
G1 X22.194 Y37.065 Z14.835 F2500.000
G1 X23.184 Y37.065 Z15.231 F2500.000
G1 X24.173 Y37.065 Z15.589 F2500.000
G1 X25.162 Y37.065 Z15.913 F2500.000
G1 X26.151 Y37.065 Z16.201 F2500.000
G1 X27.140 Y37.065 Z16.458 F2500.000
G1 X28.130 Y37.065 Z16.685 F2500.000
G1 X29.119 Y37.065 Z16.881 F2500.000
G1 X30.108 Y37.065 Z17.049 F2500.000
G1 X31.097 Y37.065 Z17.188 F2500.000
G1 X32.086 Y37.065 Z17.301 F2500.000
G1 X33.076 Y37.065 Z17.387 F2500.000
G1 X34.065 Y37.065 Z17.448 F2500.000
G1 X35.054 Y37.065 Z17.486 F2500.000
G1 X36.043 Y37.065 Z17.505 F2500.000
G1 X37.032 Y37.065 Z17.515 F2500.000
G1 X40.000 Y37.065 Z17.525 F2500.000
G1 X42.968 Y37.065 Z17.515 F2500.000
G1 X43.957 Y37.065 Z17.505 F2500.000
G1 X44.946 Y37.065 Z17.486 F2500.000
G1 X45.935 Y37.065 Z17.447 F2500.000
G1 X46.924 Y37.065 Z17.386 F2500.000
G1 X47.914 Y37.065 Z17.301 F2500.000
G1 X48.903 Y37.065 Z17.188 F2500.000
G1 X49.892 Y37.065 Z17.049 F2500.000
G1 X50.881 Y37.065 Z16.881 F2500.000
G1 X51.870 Y37.065 Z16.686 F2500.000
G1 X52.860 Y37.065 Z16.458 F2500.000
G1 X53.849 Y37.065 Z16.201 F2500.000
G1 X54.838 Y37.065 Z15.913 F2500.000
G1 X55.827 Y37.065 Z15.589 F2500.000
G1 X56.816 Y37.065 Z15.231 F2500.000
G1 X57.806 Y37.065 Z14.835 F2500.000
G1 X58.795 Y37.065 Z14.402 F2500.000
G1 X59.784 Y37.065 Z13.927 F2500.000
G1 X60.773 Y37.065 Z13.409 F2500.000
G1 X61.762 Y37.065 Z12.847 F2500.000
G1 X62.752 Y37.065 Z12.234 F2500.000
G1 X63.741 Y37.065 Z11.571 F2500.000
G1 X64.730 Y37.065 Z10.854 F2500.000
G1 X65.719 Y37.065 Z10.079 F2500.000
G1 X66.708 Y37.065 Z9.239 F2500.000
G1 X67.698 Y37.065 Z8.800 F2500.000
G1 X73.633 Y37.065 Z8.800 F2500.000
(End of step 6.)
G0 Z19.770
G0 X73.534 Y43.465
(Begin step 7.)
G0 X73.534 Y43.465
(part 1)
G1 X73.534 Y43.465 Z8.800 F2500.000
G1 X67.617 Y43.465 Z8.800 F2500.000
G1 X66.630 Y43.465 Z9.210 F2500.000
G1 X65.644 Y43.465 Z10.046 F2500.000
G1 X64.658 Y43.465 Z10.817 F2500.000
G1 X63.671 Y43.465 Z11.532 F2500.000
G1 X62.685 Y43.465 Z12.191 F2500.000
G1 X61.699 Y43.465 Z12.800 F2500.000
G1 X60.712 Y43.465 Z13.360 F2500.000
G1 X59.726 Y43.465 Z13.876 F2500.000
G1 X58.740 Y43.465 Z14.349 F2500.000
G1 X57.753 Y43.465 Z14.781 F2500.000
G1 X56.767 Y43.465 Z15.175 F2500.000
G1 X55.781 Y43.465 Z15.533 F2500.000
G1 X54.795 Y43.465 Z15.857 F2500.000
G1 X53.808 Y43.465 Z16.144 F2500.000
G1 X52.822 Y43.465 Z16.404 F2500.000
G1 X51.836 Y43.465 Z16.630 F2500.000
G1 X50.849 Y43.465 Z16.826 F2500.000
G1 X49.863 Y43.465 Z16.994 F2500.000
G1 X48.877 Y43.465 Z17.134 F2500.000
G1 X47.890 Y43.465 Z17.247 F2500.000
G1 X46.904 Y43.465 Z17.334 F2500.000
