(Exported by FreeCAD)
(Post Processor: grbl_post)
(Output Time:2023-08-27 13:13:26.621158)
(Begin preamble)
G17 G90
G21
(Begin operation: 6 ball L24 Q007)
(Path: 6 ball L24 Q007)
(6 ball L24 Q007)
(Begin toolchange)
( M6 T4 )
M3 S24000
(Finish operation: 6 ball L24 Q007)
(Begin operation: Fixture)
(Path: Fixture)
G54
(Finish operation: Fixture)
(Begin operation: Surface001)
(Path: Surface001)
(Surface001)
(Surface001)
(Tool type: ballend)
(Compensated Tool Path. Diameter: 6.0)
(Sample interval: 1.0)
(Step over %: 15.0)
()
G0 Z21.770
(Beginning of Single-pass layer.)
G0 X40.000 Y51.943
(Begin step 0.)
(part 1.)
G1 X40.000 Y51.943 Z16.368 F2500.000
G1 X39.989 Y51.243 Z16.373 F2500.000
G1 X39.655 Y29.546 Z16.552 F2500.000
G1 X39.705 Y29.397 Z16.554 F2500.000
G1 X40.305 Y29.397 Z16.554 F2500.000
G1 X40.344 Y29.556 Z16.553 F2500.000
G1 X40.000 Y51.943 Z16.368 F2500.000
(Break)
G0 Z19.770
G0 X40.000 Y110.457
(part 3.)
G1 X40.000 Y110.457 Z15.881 F2500.000
G1 X39.997 Y110.257 Z15.883 F2500.000
G1 X39.394 Y71.062 Z16.205 F2500.000
G1 X38.742 Y28.667 Z16.544 F2500.000
G1 X38.770 Y28.497 Z16.546 F2500.000
G1 X39.570 Y28.497 Z16.560 F2500.000
G1 X40.370 Y28.497 Z16.561 F2500.000
G1 X41.170 Y28.497 Z16.547 F2500.000
G1 X41.259 Y28.607 Z16.544 F2500.000
G1 X40.561 Y74.001 Z16.181 F2500.000
G1 X40.000 Y110.457 Z15.881 F2500.000
(Break)
G0 Z19.770
G0 X40.000 Y168.971
(part 5.)
G1 X40.000 Y168.971 Z15.394 F2500.000
G1 X39.997 Y168.771 Z15.396 F2500.000
G1 X39.499 Y136.375 Z15.663 F2500.000
G1 X38.963 Y101.579 Z15.941 F2500.000
G1 X37.828 Y27.788 Z16.516 F2500.000
G1 X37.835 Y27.597 Z16.517 F2500.000
G1 X38.675 Y27.597 Z16.551 F2500.000
G1 X39.515 Y27.597 Z16.567 F2500.000
G1 X40.355 Y27.597 Z16.568 F2500.000
G1 X41.195 Y27.597 Z16.554 F2500.000
G1 X42.035 Y27.597 Z16.524 F2500.000
G1 X42.174 Y27.657 Z16.517 F2500.000
G1 X41.552 Y68.053 Z16.205 F2500.000
G1 X40.977 Y105.448 Z15.911 F2500.000
G1 X40.390 Y143.644 Z15.603 F2500.000
G1 X40.000 Y168.971 Z15.394 F2500.000
(Break)
G0 Z19.770
G0 X40.210 Y213.833
(part 7.)
G1 X40.210 Y213.833 Z15.020 F2500.000
G1 X39.810 Y213.833 Z15.020 F2500.000
G1 X39.787 Y213.653 Z15.022 F2500.000
G1 X39.237 Y177.857 Z15.312 F2500.000
G1 X38.523 Y131.462 Z15.676 F2500.000
G1 X37.840 Y87.068 Z16.016 F2500.000
G1 X36.914 Y26.875 Z16.468 F2500.000
G1 X36.934 Y26.697 Z16.471 F2500.000
G1 X37.791 Y26.697 Z16.523 F2500.000
G1 X38.648 Y26.697 Z16.557 F2500.000
G1 X39.506 Y26.697 Z16.575 F2500.000
G1 X40.363 Y26.697 Z16.577 F2500.000
G1 X41.220 Y26.697 Z16.561 F2500.000
G1 X42.077 Y26.697 Z16.530 F2500.000
G1 X42.934 Y26.697 Z16.480 F2500.000
G1 X43.088 Y26.743 Z16.470 F2500.000
G1 X42.162 Y86.936 Z16.017 F2500.000
G1 X41.470 Y131.931 Z15.673 F2500.000
G1 X40.805 Y175.125 Z15.334 F2500.000
G1 X40.210 Y213.833 Z15.020 F2500.000
(Break)
G0 Z19.770
G0 X41.096 Y214.732
(part 9.)
G1 X41.096 Y214.732 Z14.995 F2500.000
G1 X40.430 Y214.732 Z15.011 F2500.000
G1 X39.763 Y214.732 Z15.013 F2500.000
G1 X39.096 Y214.732 Z15.001 F2500.000
G1 X38.904 Y214.725 Z14.995 F2500.000
G1 X38.261 Y172.930 Z15.316 F2500.000
G1 X37.658 Y133.735 Z15.611 F2500.000
G1 X36.000 Y25.947 Z16.402 F2500.000
G1 X36.047 Y25.797 Z16.407 F2500.000
G1 X37.022 Y25.797 Z16.486 F2500.000
G1 X37.997 Y25.797 Z16.540 F2500.000
G1 X38.972 Y25.797 Z16.574 F2500.000
G1 X39.947 Y25.797 Z16.585 F2500.000
G1 X40.922 Y25.797 Z16.576 F2500.000
G1 X41.897 Y25.797 Z16.545 F2500.000
G1 X42.872 Y25.797 Z16.492 F2500.000
G1 X43.847 Y25.797 Z16.417 F2500.000
G1 X44.002 Y25.842 Z16.403 F2500.000
G1 X42.325 Y134.829 Z15.603 F2500.000
G1 X41.618 Y180.824 Z15.256 F2500.000
G1 X41.096 Y214.732 Z14.995 F2500.000
(Break)
G0 Z19.770
G0 X41.983 Y215.632
(part 11.)
G1 X41.983 Y215.632 Z14.944 F2500.000
G1 X41.033 Y215.632 Z14.990 F2500.000
G1 X40.083 Y215.632 Z15.007 F2500.000
G1 X39.133 Y215.632 Z14.995 F2500.000
G1 X38.183 Y215.632 Z14.954 F2500.000
G1 X38.017 Y215.598 Z14.944 F2500.000
G1 X36.962 Y147.006 Z15.445 F2500.000
G1 X35.085 Y25.020 Z16.316 F2500.000
G1 X35.161 Y24.897 Z16.325 F2500.000
G1 X36.121 Y24.897 Z16.421 F2500.000
G1 X37.081 Y24.897 Z16.497 F2500.000
G1 X38.041 Y24.897 Z16.550 F2500.000
G1 X39.001 Y24.897 Z16.582 F2500.000
G1 X39.961 Y24.897 Z16.593 F2500.000
G1 X40.921 Y24.897 Z16.584 F2500.000
G1 X41.881 Y24.897 Z16.554 F2500.000
G1 X42.841 Y24.897 Z16.502 F2500.000
G1 X43.801 Y24.897 Z16.429 F2500.000
G1 X44.761 Y24.897 Z16.334 F2500.000
G1 X44.916 Y24.942 Z16.315 F2500.000
G1 X43.144 Y140.128 Z15.494 F2500.000
G1 X41.983 Y215.632 Z14.944 F2500.000
(Break)
G0 Z19.770
G0 X42.869 Y216.532
(part 13.)
G1 X42.869 Y216.532 Z14.867 F2500.000
G1 X41.935 Y216.532 Z14.939 F2500.000
G1 X41.002 Y216.532 Z14.983 F2500.000
G1 X40.069 Y216.532 Z14.999 F2500.000
G1 X39.135 Y216.532 Z14.987 F2500.000
G1 X38.202 Y216.532 Z14.947 F2500.000
G1 X37.269 Y216.532 Z14.879 F2500.000
G1 X37.130 Y216.470 Z14.867 F2500.000
G1 X36.349 Y165.676 Z15.224 F2500.000
G1 X34.780 Y63.688 Z15.930 F2500.000
G1 X34.171 Y24.093 Z16.208 F2500.000
G1 X34.274 Y23.997 Z16.223 F2500.000
G1 X35.224 Y23.997 Z16.340 F2500.000
G1 X36.174 Y23.997 Z16.434 F2500.000
G1 X37.124 Y23.997 Z16.508 F2500.000
G1 X38.074 Y23.997 Z16.559 F2500.000
G1 X39.024 Y23.997 Z16.589 F2500.000
G1 X39.974 Y23.997 Z16.600 F2500.000
G1 X40.924 Y23.997 Z16.590 F2500.000
G1 X41.874 Y23.997 Z16.562 F2500.000
G1 X42.824 Y23.997 Z16.511 F2500.000
G1 X43.774 Y23.997 Z16.440 F2500.000
G1 X44.724 Y23.997 Z16.346 F2500.000
G1 X45.674 Y23.997 Z16.231 F2500.000
G1 X45.830 Y24.041 Z16.209 F2500.000
G1 X45.273 Y60.237 Z15.954 F2500.000
G1 X43.646 Y166.024 Z15.222 F2500.000
G1 X42.869 Y216.532 Z14.867 F2500.000
(Break)
G0 Z19.770
G0 X43.755 Y217.433
(part 15.)
G1 X43.755 Y217.433 Z14.765 F2500.000
G1 X42.830 Y217.433 Z14.863 F2500.000
G1 X41.905 Y217.433 Z14.933 F2500.000
G1 X40.980 Y217.433 Z14.975 F2500.000
G1 X40.055 Y217.433 Z14.992 F2500.000
G1 X39.130 Y217.433 Z14.979 F2500.000
G1 X38.205 Y217.433 Z14.940 F2500.000
G1 X37.280 Y217.433 Z14.873 F2500.000
G1 X36.355 Y217.433 Z14.778 F2500.000
G1 X36.244 Y217.343 Z14.766 F2500.000
G1 X34.041 Y74.160 Z15.730 F2500.000
G1 X33.257 Y23.166 Z16.080 F2500.000
G1 X33.387 Y23.097 Z16.101 F2500.000
G1 X34.330 Y23.097 Z16.239 F2500.000
G1 X35.273 Y23.097 Z16.354 F2500.000
G1 X36.216 Y23.097 Z16.447 F2500.000
G1 X37.159 Y23.097 Z16.518 F2500.000
G1 X38.102 Y23.097 Z16.568 F2500.000
G1 X39.045 Y23.097 Z16.598 F2500.000
G1 X39.987 Y23.097 Z16.608 F2500.000
G1 X40.930 Y23.097 Z16.598 F2500.000
G1 X41.873 Y23.097 Z16.569 F2500.000
G1 X42.816 Y23.097 Z16.519 F2500.000
G1 X43.759 Y23.097 Z16.449 F2500.000
G1 X44.702 Y23.097 Z16.357 F2500.000
G1 X45.645 Y23.097 Z16.243 F2500.000
G1 X46.587 Y23.097 Z16.106 F2500.000
G1 X46.744 Y23.140 Z16.081 F2500.000
G1 X45.661 Y93.532 Z15.599 F2500.000
G1 X43.755 Y217.433 Z14.765 F2500.000
(Break)
G0 Z19.770
G0 X44.641 Y218.333
(part 17.)
G1 X44.641 Y218.333 Z14.639 F2500.000
G1 X43.721 Y218.333 Z14.762 F2500.000
G1 X42.801 Y218.333 Z14.858 F2500.000
G1 X41.881 Y218.333 Z14.927 F2500.000
G1 X40.961 Y218.333 Z14.969 F2500.000
G1 X40.041 Y218.333 Z14.985 F2500.000
G1 X39.121 Y218.333 Z14.971 F2500.000
G1 X38.201 Y218.333 Z14.932 F2500.000
G1 X37.281 Y218.333 Z14.865 F2500.000
G1 X36.361 Y218.333 Z14.771 F2500.000
G1 X35.441 Y218.333 Z14.651 F2500.000
G1 X35.357 Y218.215 Z14.640 F2500.000
G1 X33.819 Y118.227 Z15.291 F2500.000
G1 X33.005 Y65.333 Z15.640 F2500.000
G1 X32.342 Y22.238 Z15.931 F2500.000
G1 X32.501 Y22.197 Z15.959 F2500.000
G1 X33.438 Y22.197 Z16.118 F2500.000
G1 X34.376 Y22.197 Z16.254 F2500.000
G1 X35.313 Y22.197 Z16.367 F2500.000
G1 X36.251 Y22.197 Z16.457 F2500.000
G1 X37.188 Y22.197 Z16.527 F2500.000
G1 X38.126 Y22.197 Z16.577 F2500.000
G1 X39.063 Y22.197 Z16.605 F2500.000
G1 X40.001 Y22.197 Z16.615 F2500.000
G1 X40.938 Y22.197 Z16.605 F2500.000
G1 X41.876 Y22.197 Z16.577 F2500.000
G1 X42.813 Y22.197 Z16.527 F2500.000
G1 X43.751 Y22.197 Z16.457 F2500.000
G1 X44.688 Y22.197 Z16.366 F2500.000
G1 X45.626 Y22.197 Z16.253 F2500.000
G1 X46.563 Y22.197 Z16.118 F2500.000
G1 X47.501 Y22.197 Z15.960 F2500.000
G1 X47.658 Y22.240 Z15.930 F2500.000
G1 X47.221 Y50.636 Z15.738 F2500.000
G1 X46.214 Y116.129 Z15.304 F2500.000
G1 X44.641 Y218.333 Z14.639 F2500.000
(Break)
G0 Z19.770
G0 X45.528 Y219.232
(part 19.)
G1 X45.528 Y219.232 Z14.487 F2500.000
G1 X44.611 Y219.232 Z14.635 F2500.000
G1 X43.694 Y219.232 Z14.757 F2500.000
G1 X42.778 Y219.232 Z14.851 F2500.000
G1 X41.861 Y219.232 Z14.920 F2500.000
G1 X40.944 Y219.232 Z14.962 F2500.000
G1 X40.028 Y219.232 Z14.977 F2500.000
G1 X39.111 Y219.232 Z14.964 F2500.000
G1 X38.194 Y219.232 Z14.923 F2500.000
G1 X37.278 Y219.232 Z14.856 F2500.000
G1 X36.361 Y219.232 Z14.763 F2500.000
G1 X35.444 Y219.232 Z14.643 F2500.000
G1 X34.528 Y219.232 Z14.497 F2500.000
G1 X34.470 Y219.088 Z14.488 F2500.000
G1 X32.563 Y95.102 Z15.273 F2500.000
G1 X31.723 Y40.509 Z15.630 F2500.000
G1 X31.428 Y21.311 Z15.759 F2500.000
G1 X31.614 Y21.297 Z15.797 F2500.000
G1 X32.602 Y21.297 Z15.986 F2500.000
G1 X33.590 Y21.297 Z16.149 F2500.000
G1 X34.579 Y21.297 Z16.287 F2500.000
G1 X35.567 Y21.297 Z16.401 F2500.000
G1 X36.555 Y21.297 Z16.490 F2500.000
G1 X37.543 Y21.297 Z16.556 F2500.000
G1 X38.532 Y21.297 Z16.599 F2500.000
G1 X39.520 Y21.297 Z16.619 F2500.000
G1 X40.508 Y21.297 Z16.618 F2500.000
G1 X41.496 Y21.297 Z16.597 F2500.000
G1 X42.485 Y21.297 Z16.554 F2500.000
G1 X43.473 Y21.297 Z16.488 F2500.000
G1 X44.461 Y21.297 Z16.398 F2500.000
G1 X45.449 Y21.297 Z16.283 F2500.000
G1 X46.438 Y21.297 Z16.145 F2500.000
G1 X47.426 Y21.297 Z15.982 F2500.000
G1 X48.414 Y21.297 Z15.792 F2500.000
G1 X48.572 Y21.339 Z15.758 F2500.000
G1 X48.172 Y47.336 Z15.585 F2500.000
G1 X47.437 Y95.130 Z15.274 F2500.000
G1 X46.778 Y137.925 Z15.000 F2500.000
G1 X45.528 Y219.232 Z14.487 F2500.000
(Break)
G0 Z19.770
G0 X46.414 Y220.132
(part 21.)
G1 X46.414 Y220.132 Z14.313 F2500.000
G1 X45.429 Y220.132 Z14.497 F2500.000
G1 X44.445 Y220.132 Z14.652 F2500.000
G1 X43.460 Y220.132 Z14.775 F2500.000
G1 X42.475 Y220.132 Z14.870 F2500.000
G1 X41.491 Y220.132 Z14.933 F2500.000
G1 X40.506 Y220.132 Z14.965 F2500.000
G1 X39.522 Y220.132 Z14.966 F2500.000
G1 X38.537 Y220.132 Z14.934 F2500.000
G1 X37.552 Y220.132 Z14.872 F2500.000
G1 X36.568 Y220.132 Z14.778 F2500.000
G1 X35.583 Y220.132 Z14.656 F2500.000
G1 X34.598 Y220.132 Z14.502 F2500.000
G1 X33.614 Y220.132 Z14.318 F2500.000
G1 X33.583 Y219.960 Z14.313 F2500.000
G1 X32.673 Y160.767 Z14.673 F2500.000
G1 X31.658 Y94.775 Z15.084 F2500.000
G1 X31.098 Y58.379 Z15.315 F2500.000
G1 X30.517 Y20.584 Z15.562 F2500.000
G1 X30.527 Y20.397 Z15.566 F2500.000
G1 X31.517 Y20.397 Z15.786 F2500.000
G1 X32.506 Y20.397 Z15.978 F2500.000
G1 X33.496 Y20.397 Z16.144 F2500.000
G1 X34.485 Y20.397 Z16.284 F2500.000
G1 X35.475 Y20.397 Z16.399 F2500.000
G1 X36.464 Y20.397 Z16.490 F2500.000
G1 X37.454 Y20.397 Z16.558 F2500.000
G1 X38.443 Y20.397 Z16.603 F2500.000
G1 X39.433 Y20.397 Z16.626 F2500.000
G1 X40.422 Y20.397 Z16.628 F2500.000
G1 X41.412 Y20.397 Z16.608 F2500.000
G1 X42.401 Y20.397 Z16.567 F2500.000
G1 X43.390 Y20.397 Z16.502 F2500.000
G1 X44.380 Y20.397 Z16.414 F2500.000
G1 X45.369 Y20.397 Z16.303 F2500.000
G1 X46.359 Y20.397 Z16.166 F2500.000
G1 X47.348 Y20.397 Z16.004 F2500.000
G1 X48.338 Y20.397 Z15.816 F2500.000
G1 X49.327 Y20.397 Z15.600 F2500.000
G1 X49.486 Y20.439 Z15.563 F2500.000
G1 X49.172 Y40.836 Z15.429 F2500.000
G1 X48.326 Y95.830 Z15.077 F2500.000
G1 X47.326 Y160.822 Z14.673 F2500.000
G1 X46.414 Y220.132 Z14.313 F2500.000
(Break)
G0 Z19.770
G0 X47.300 Y221.032
(part 23.)
G1 X47.300 Y221.032 Z14.113 F2500.000
G1 X46.327 Y221.032 Z14.321 F2500.000
G1 X45.353 Y221.032 Z14.502 F2500.000
G1 X44.380 Y221.032 Z14.653 F2500.000
G1 X43.407 Y221.032 Z14.774 F2500.000
G1 X42.433 Y221.032 Z14.866 F2500.000
G1 X41.460 Y221.032 Z14.927 F2500.000
G1 X40.487 Y221.032 Z14.958 F2500.000
G1 X39.513 Y221.032 Z14.958 F2500.000
G1 X38.540 Y221.032 Z14.926 F2500.000
G1 X37.567 Y221.032 Z14.866 F2500.000
G1 X36.593 Y221.032 Z14.774 F2500.000
G1 X35.620 Y221.032 Z14.653 F2500.000
G1 X34.647 Y221.032 Z14.502 F2500.000
G1 X33.673 Y221.032 Z14.321 F2500.000
G1 X32.700 Y221.032 Z14.113 F2500.000
G1 X32.109 Y182.637 Z14.338 F2500.000
G1 X31.143 Y119.845 Z14.716 F2500.000
G1 X30.234 Y60.752 Z15.081 F2500.000
G1 X29.602 Y19.657 Z15.343 F2500.000
G1 X29.641 Y19.497 Z15.355 F2500.000
G1 X30.622 Y19.497 Z15.598 F2500.000
G1 X31.603 Y19.497 Z15.812 F2500.000
G1 X32.584 Y19.497 Z16.001 F2500.000
G1 X33.564 Y19.497 Z16.163 F2500.000
G1 X34.545 Y19.497 Z16.300 F2500.000
G1 X35.526 Y19.497 Z16.413 F2500.000
G1 X36.507 Y19.497 Z16.502 F2500.000
G1 X37.488 Y19.497 Z16.568 F2500.000
G1 X38.469 Y19.497 Z16.611 F2500.000
G1 X39.450 Y19.497 Z16.634 F2500.000
G1 X40.431 Y19.497 Z16.636 F2500.000
G1 X41.412 Y19.497 Z16.615 F2500.000
G1 X42.393 Y19.497 Z16.574 F2500.000
G1 X43.374 Y19.497 Z16.511 F2500.000
G1 X44.355 Y19.497 Z16.424 F2500.000
G1 X45.336 Y19.497 Z16.315 F2500.000
G1 X46.317 Y19.497 Z16.181 F2500.000
G1 X47.298 Y19.497 Z16.022 F2500.000
G1 X48.279 Y19.497 Z15.837 F2500.000
G1 X49.260 Y19.497 Z15.625 F2500.000
G1 X50.241 Y19.497 Z15.385 F2500.000
G1 X50.400 Y19.538 Z15.344 F2500.000
G1 X49.751 Y61.733 Z15.075 F2500.000
G1 X48.960 Y113.127 Z14.756 F2500.000
G1 X47.957 Y178.319 Z14.363 F2500.000
G1 X47.300 Y221.032 Z14.113 F2500.000
(Break)
G0 Z19.770
G0 X48.186 Y221.933
(part 25.)
G1 X48.186 Y221.933 Z13.887 F2500.000
G1 X47.233 Y221.933 Z14.119 F2500.000
G1 X46.280 Y221.933 Z14.323 F2500.000
G1 X45.328 Y221.933 Z14.499 F2500.000
G1 X44.375 Y221.933 Z14.645 F2500.000
G1 X43.422 Y221.933 Z14.764 F2500.000
G1 X42.469 Y221.933 Z14.855 F2500.000
G1 X41.516 Y221.933 Z14.917 F2500.000
G1 X40.563 Y221.933 Z14.949 F2500.000
G1 X39.610 Y221.933 Z14.951 F2500.000
G1 X38.657 Y221.933 Z14.925 F2500.000
G1 X37.704 Y221.933 Z14.869 F2500.000
G1 X36.751 Y221.933 Z14.783 F2500.000
G1 X35.798 Y221.933 Z14.669 F2500.000
G1 X34.845 Y221.933 Z14.527 F2500.000
G1 X33.892 Y221.933 Z14.357 F2500.000
G1 X32.939 Y221.933 Z14.158 F2500.000
G1 X31.986 Y221.933 Z13.931 F2500.000
G1 X31.813 Y221.905 Z13.887 F2500.000
G1 X31.078 Y174.111 Z14.161 F2500.000
G1 X30.260 Y120.917 Z14.473 F2500.000
G1 X29.521 Y72.923 Z14.763 F2500.000
G1 X28.691 Y18.929 Z15.098 F2500.000
G1 X28.688 Y18.729 Z15.100 F2500.000
G1 X28.754 Y18.597 Z15.121 F2500.000
G1 X29.728 Y18.597 Z15.388 F2500.000
G1 X30.702 Y18.597 Z15.626 F2500.000
G1 X31.676 Y18.597 Z15.836 F2500.000
G1 X32.650 Y18.597 Z16.021 F2500.000
G1 X33.624 Y18.597 Z16.180 F2500.000
G1 X34.597 Y18.597 Z16.315 F2500.000
G1 X35.571 Y18.597 Z16.425 F2500.000
G1 X36.545 Y18.597 Z16.513 F2500.000
G1 X37.519 Y18.597 Z16.578 F2500.000
G1 X38.493 Y18.597 Z16.621 F2500.000
G1 X39.467 Y18.597 Z16.642 F2500.000
G1 X40.441 Y18.597 Z16.643 F2500.000
G1 X41.415 Y18.597 Z16.622 F2500.000
G1 X42.389 Y18.597 Z16.583 F2500.000
G1 X43.363 Y18.597 Z16.520 F2500.000
G1 X44.337 Y18.597 Z16.435 F2500.000
G1 X45.310 Y18.597 Z16.326 F2500.000
G1 X46.284 Y18.597 Z16.194 F2500.000
G1 X47.258 Y18.597 Z16.037 F2500.000
G1 X48.232 Y18.597 Z15.854 F2500.000
G1 X49.206 Y18.597 Z15.646 F2500.000
G1 X50.180 Y18.597 Z15.411 F2500.000
G1 X51.154 Y18.597 Z15.148 F2500.000
G1 X51.314 Y18.637 Z15.100 F2500.000
G1 X50.597 Y65.232 Z14.810 F2500.000
G1 X49.785 Y118.025 Z14.491 F2500.000
G1 X49.154 Y159.021 Z14.248 F2500.000
G1 X48.186 Y221.933 Z13.887 F2500.000
(Break)
G0 Z19.770
G0 X49.073 Y222.833
(part 27.)
G1 X49.073 Y222.833 Z13.638 F2500.000
G1 X48.125 Y222.833 Z13.893 F2500.000
G1 X47.178 Y222.833 Z14.123 F2500.000
G1 X46.231 Y222.833 Z14.324 F2500.000
G1 X45.283 Y222.833 Z14.497 F2500.000
G1 X44.336 Y222.833 Z14.643 F2500.000
G1 X43.388 Y222.833 Z14.760 F2500.000
G1 X42.441 Y222.833 Z14.850 F2500.000
G1 X41.494 Y222.833 Z14.911 F2500.000
G1 X40.546 Y222.833 Z14.942 F2500.000
G1 X39.599 Y222.833 Z14.944 F2500.000
G1 X38.652 Y222.833 Z14.916 F2500.000
G1 X37.704 Y222.833 Z14.861 F2500.000
G1 X36.757 Y222.833 Z14.776 F2500.000
G1 X35.809 Y222.833 Z14.663 F2500.000
G1 X34.862 Y222.833 Z14.521 F2500.000
G1 X33.915 Y222.833 Z14.352 F2500.000
G1 X32.967 Y222.833 Z14.156 F2500.000
G1 X32.020 Y222.833 Z13.930 F2500.000
G1 X31.073 Y222.833 Z13.679 F2500.000
G1 X30.927 Y222.778 Z13.638 F2500.000
G1 X30.136 Y171.384 Z13.924 F2500.000
G1 X29.318 Y118.190 Z14.229 F2500.000
G1 X28.622 Y72.996 Z14.496 F2500.000
G1 X27.789 Y18.802 Z14.824 F2500.000
G1 X27.773 Y17.802 Z14.832 F2500.000
G1 X27.867 Y17.697 Z14.863 F2500.000
G1 X28.835 Y17.697 Z15.153 F2500.000
G1 X29.803 Y17.697 Z15.416 F2500.000
G1 X30.771 Y17.697 Z15.650 F2500.000
G1 X31.739 Y17.697 Z15.857 F2500.000
G1 X32.707 Y17.697 Z16.039 F2500.000
G1 X33.675 Y17.697 Z16.196 F2500.000
G1 X34.643 Y17.697 Z16.328 F2500.000
G1 X35.611 Y17.697 Z16.437 F2500.000
G1 X36.579 Y17.697 Z16.523 F2500.000
G1 X37.547 Y17.697 Z16.587 F2500.000
G1 X38.515 Y17.697 Z16.628 F2500.000
G1 X39.483 Y17.697 Z16.650 F2500.000
G1 X40.451 Y17.697 Z16.649 F2500.000
G1 X41.419 Y17.697 Z16.630 F2500.000
G1 X42.387 Y17.697 Z16.590 F2500.000
G1 X43.355 Y17.697 Z16.528 F2500.000
G1 X44.323 Y17.697 Z16.443 F2500.000
G1 X45.291 Y17.697 Z16.336 F2500.000
G1 X46.259 Y17.697 Z16.205 F2500.000
G1 X47.227 Y17.697 Z16.051 F2500.000
G1 X48.195 Y17.697 Z15.870 F2500.000
G1 X49.163 Y17.697 Z15.665 F2500.000
G1 X50.131 Y17.697 Z15.433 F2500.000
G1 X51.099 Y17.697 Z15.172 F2500.000
G1 X52.067 Y17.697 Z14.883 F2500.000
G1 X52.228 Y17.737 Z14.832 F2500.000
G1 X51.446 Y68.531 Z14.523 F2500.000
G1 X50.634 Y121.324 Z14.211 F2500.000
G1 X49.674 Y183.717 Z13.854 F2500.000
G1 X49.073 Y222.833 Z13.638 F2500.000
(Break)
G0 Z19.770
G0 X49.959 Y223.732
(part 29.)
G1 X49.959 Y223.732 Z13.363 F2500.000
G1 X48.969 Y223.732 Z13.657 F2500.000
G1 X47.979 Y223.732 Z13.922 F2500.000
G1 X46.989 Y223.732 Z14.158 F2500.000
G1 X45.999 Y223.732 Z14.361 F2500.000
G1 X45.009 Y223.732 Z14.535 F2500.000
G1 X44.019 Y223.732 Z14.677 F2500.000
G1 X43.029 Y223.732 Z14.789 F2500.000
G1 X42.039 Y223.732 Z14.872 F2500.000
G1 X41.049 Y223.732 Z14.921 F2500.000
G1 X40.059 Y223.732 Z14.939 F2500.000
G1 X39.069 Y223.732 Z14.925 F2500.000
G1 X38.079 Y223.732 Z14.879 F2500.000
G1 X37.089 Y223.732 Z14.801 F2500.000
G1 X36.099 Y223.732 Z14.693 F2500.000
G1 X35.109 Y223.732 Z14.553 F2500.000
G1 X34.119 Y223.732 Z14.383 F2500.000
G1 X33.129 Y223.732 Z14.183 F2500.000
G1 X32.139 Y223.732 Z13.952 F2500.000
G1 X31.149 Y223.732 Z13.690 F2500.000
G1 X30.159 Y223.732 Z13.399 F2500.000
G1 X30.040 Y223.650 Z13.364 F2500.000
G1 X29.194 Y168.657 Z13.661 F2500.000
G1 X28.471 Y121.662 Z13.924 F2500.000
G1 X27.496 Y58.270 Z14.290 F2500.000
G1 X26.859 Y16.875 Z14.536 F2500.000
G1 X26.981 Y16.797 Z14.580 F2500.000
G1 X27.944 Y16.797 Z14.895 F2500.000
G1 X28.907 Y16.797 Z15.183 F2500.000
G1 X29.869 Y16.797 Z15.443 F2500.000
G1 X30.832 Y16.797 Z15.673 F2500.000
G1 X31.795 Y16.797 Z15.877 F2500.000
G1 X32.758 Y16.797 Z16.056 F2500.000
G1 X33.721 Y16.797 Z16.211 F2500.000
G1 X34.684 Y16.797 Z16.342 F2500.000
G1 X35.647 Y16.797 Z16.448 F2500.000
G1 X36.610 Y16.797 Z16.532 F2500.000
G1 X37.573 Y16.797 Z16.595 F2500.000
G1 X38.536 Y16.797 Z16.636 F2500.000
G1 X39.499 Y16.797 Z16.658 F2500.000
G1 X40.462 Y16.797 Z16.657 F2500.000
G1 X41.425 Y16.797 Z16.638 F2500.000
G1 X42.388 Y16.797 Z16.596 F2500.000
G1 X43.351 Y16.797 Z16.536 F2500.000
G1 X44.314 Y16.797 Z16.452 F2500.000
G1 X45.277 Y16.797 Z16.346 F2500.000
G1 X46.240 Y16.797 Z16.217 F2500.000
G1 X47.203 Y16.797 Z16.063 F2500.000
G1 X48.166 Y16.797 Z15.884 F2500.000
G1 X49.129 Y16.797 Z15.681 F2500.000
G1 X50.092 Y16.797 Z15.453 F2500.000
G1 X51.055 Y16.797 Z15.194 F2500.000
G1 X52.018 Y16.797 Z14.907 F2500.000
G1 X52.981 Y16.797 Z14.593 F2500.000
G1 X53.142 Y16.836 Z14.536 F2500.000
G1 X52.486 Y59.431 Z14.283 F2500.000
G1 X51.520 Y122.223 Z13.921 F2500.000
G1 X50.567 Y184.216 Z13.575 F2500.000
G1 X49.959 Y223.732 Z13.363 F2500.000
(Break)
G0 Z19.770
G0 X50.845 Y224.632
(part 31.)
G1 X50.845 Y224.632 Z13.064 F2500.000
G1 X49.863 Y224.632 Z13.384 F2500.000
G1 X48.882 Y224.632 Z13.674 F2500.000
G1 X47.900 Y224.632 Z13.934 F2500.000
G1 X46.918 Y224.632 Z14.165 F2500.000
G1 X45.936 Y224.632 Z14.364 F2500.000
G1 X44.954 Y224.632 Z14.534 F2500.000
G1 X43.972 Y224.632 Z14.676 F2500.000
G1 X42.991 Y224.632 Z14.785 F2500.000
G1 X42.009 Y224.632 Z14.866 F2500.000
G1 X41.027 Y224.632 Z14.915 F2500.000
G1 X40.045 Y224.632 Z14.931 F2500.000
G1 X39.063 Y224.632 Z14.918 F2500.000
G1 X38.082 Y224.632 Z14.871 F2500.000
G1 X37.100 Y224.632 Z14.794 F2500.000
G1 X36.118 Y224.632 Z14.687 F2500.000
G1 X35.136 Y224.632 Z14.548 F2500.000
G1 X34.154 Y224.632 Z14.382 F2500.000
G1 X33.172 Y224.632 Z14.185 F2500.000
G1 X32.191 Y224.632 Z13.957 F2500.000
G1 X31.209 Y224.632 Z13.700 F2500.000
G1 X30.227 Y224.632 Z13.412 F2500.000
G1 X29.245 Y224.632 Z13.094 F2500.000
G1 X29.153 Y224.523 Z13.064 F2500.000
G1 X28.426 Y177.228 Z13.312 F2500.000
G1 X27.683 Y128.934 Z13.573 F2500.000
G1 X26.984 Y83.540 Z13.826 F2500.000
G1 X25.945 Y15.948 Z14.214 F2500.000
G1 X26.094 Y15.898 Z14.271 F2500.000
G1 X27.087 Y15.898 Z14.627 F2500.000
G1 X28.080 Y15.898 Z14.949 F2500.000
G1 X29.072 Y15.898 Z15.240 F2500.000
G1 X30.065 Y15.898 Z15.501 F2500.000
G1 X31.058 Y15.898 Z15.733 F2500.000
G1 X32.051 Y15.898 Z15.936 F2500.000
G1 X33.044 Y15.898 Z16.114 F2500.000
G1 X34.037 Y15.898 Z16.264 F2500.000
G1 X35.030 Y15.898 Z16.391 F2500.000
G1 X36.022 Y15.898 Z16.492 F2500.000
G1 X37.015 Y15.898 Z16.570 F2500.000
G1 X38.008 Y15.898 Z16.624 F2500.000
G1 X39.001 Y15.898 Z16.657 F2500.000
G1 X39.994 Y15.898 Z16.667 F2500.000
G1 X40.987 Y15.898 Z16.657 F2500.000
G1 X41.980 Y15.898 Z16.625 F2500.000
G1 X42.972 Y15.898 Z16.570 F2500.000
G1 X43.965 Y15.898 Z16.493 F2500.000
G1 X44.958 Y15.898 Z16.391 F2500.000
G1 X45.951 Y15.898 Z16.267 F2500.000
G1 X46.944 Y15.898 Z16.116 F2500.000
G1 X47.937 Y15.898 Z15.939 F2500.000
G1 X48.930 Y15.898 Z15.736 F2500.000
G1 X49.922 Y15.898 Z15.504 F2500.000
G1 X50.915 Y15.898 Z15.243 F2500.000
G1 X51.908 Y15.898 Z14.953 F2500.000
G1 X52.901 Y15.898 Z14.631 F2500.000
G1 X53.894 Y15.898 Z14.275 F2500.000
G1 X54.055 Y15.935 Z14.214 F2500.000
G1 X53.357 Y61.330 Z13.952 F2500.000
G1 X52.317 Y128.922 Z13.573 F2500.000
G1 X51.475 Y183.715 Z13.277 F2500.000
G1 X50.845 Y224.632 Z13.064 F2500.000
(Break)
G0 Z19.770
G0 X51.731 Y225.532
(part 33.)
G1 X51.731 Y225.532 Z12.738 F2500.000
G1 X50.756 Y225.532 Z13.085 F2500.000
G1 X49.781 Y225.532 Z13.401 F2500.000
G1 X48.806 Y225.532 Z13.687 F2500.000
G1 X47.831 Y225.532 Z13.943 F2500.000
G1 X46.856 Y225.532 Z14.170 F2500.000
G1 X45.881 Y225.532 Z14.366 F2500.000
G1 X44.906 Y225.532 Z14.535 F2500.000
G1 X43.931 Y225.532 Z14.673 F2500.000
G1 X42.956 Y225.532 Z14.782 F2500.000
G1 X41.981 Y225.532 Z14.860 F2500.000
G1 X41.006 Y225.532 Z14.908 F2500.000
G1 X40.031 Y225.532 Z14.924 F2500.000
G1 X39.056 Y225.532 Z14.910 F2500.000
G1 X38.081 Y225.532 Z14.864 F2500.000
G1 X37.106 Y225.532 Z14.788 F2500.000
G1 X36.131 Y225.532 Z14.681 F2500.000
G1 X35.156 Y225.532 Z14.544 F2500.000
G1 X34.181 Y225.532 Z14.378 F2500.000
G1 X33.206 Y225.532 Z14.183 F2500.000
G1 X32.231 Y225.532 Z13.959 F2500.000
G1 X31.256 Y225.532 Z13.704 F2500.000
G1 X30.281 Y225.532 Z13.420 F2500.000
G1 X29.306 Y225.532 Z13.105 F2500.000
G1 X28.331 Y225.532 Z12.761 F2500.000
G1 X28.266 Y225.395 Z12.738 F2500.000
G1 X27.402 Y169.202 Z13.025 F2500.000
G1 X26.796 Y129.807 Z13.233 F2500.000
G1 X25.870 Y69.614 Z13.559 F2500.000
G1 X25.030 Y15.020 Z13.862 F2500.000
G1 X25.207 Y14.998 Z13.936 F2500.000
G1 X26.194 Y14.998 Z14.319 F2500.000
G1 X27.181 Y14.998 Z14.667 F2500.000
G1 X28.167 Y14.998 Z14.985 F2500.000
G1 X29.154 Y14.998 Z15.272 F2500.000
G1 X30.141 Y14.998 Z15.529 F2500.000
G1 X31.127 Y14.998 Z15.757 F2500.000
G1 X32.114 Y14.998 Z15.958 F2500.000
G1 X33.101 Y14.998 Z16.132 F2500.000
G1 X34.087 Y14.998 Z16.280 F2500.000
G1 X35.074 Y14.998 Z16.402 F2500.000
G1 X36.061 Y14.998 Z16.503 F2500.000
G1 X37.047 Y14.998 Z16.579 F2500.000
G1 X38.034 Y14.998 Z16.633 F2500.000
G1 X39.021 Y14.998 Z16.664 F2500.000
G1 X40.007 Y14.998 Z16.675 F2500.000
G1 X40.994 Y14.998 Z16.664 F2500.000
G1 X41.981 Y14.998 Z16.632 F2500.000
G1 X42.967 Y14.998 Z16.579 F2500.000
G1 X43.954 Y14.998 Z16.502 F2500.000
G1 X44.941 Y14.998 Z16.401 F2500.000
G1 X45.927 Y14.998 Z16.278 F2500.000
G1 X46.914 Y14.998 Z16.130 F2500.000
G1 X47.901 Y14.998 Z15.955 F2500.000
G1 X48.887 Y14.998 Z15.754 F2500.000
G1 X49.874 Y14.998 Z15.525 F2500.000
G1 X50.861 Y14.998 Z15.268 F2500.000
G1 X51.847 Y14.998 Z14.981 F2500.000
G1 X52.834 Y14.998 Z14.663 F2500.000
G1 X53.821 Y14.998 Z14.313 F2500.000
G1 X54.807 Y14.998 Z13.929 F2500.000
G1 X54.969 Y15.035 Z13.862 F2500.000
G1 X54.259 Y61.229 Z13.605 F2500.000
G1 X53.188 Y130.821 Z13.227 F2500.000
G1 X52.373 Y183.815 Z12.949 F2500.000
G1 X51.731 Y225.532 Z12.738 F2500.000
(Break)
G0 Z19.770
G0 X52.618 Y226.432
(part 35.)
G1 X52.618 Y226.432 Z12.386 F2500.000
G1 X51.648 Y226.432 Z12.759 F2500.000
G1 X50.679 Y226.432 Z13.101 F2500.000
G1 X49.710 Y226.432 Z13.413 F2500.000
G1 X48.741 Y226.432 Z13.696 F2500.000
G1 X47.772 Y226.432 Z13.949 F2500.000
G1 X46.802 Y226.432 Z14.173 F2500.000
G1 X45.833 Y226.432 Z14.368 F2500.000
G1 X44.864 Y226.432 Z14.533 F2500.000
G1 X43.895 Y226.432 Z14.669 F2500.000
G1 X42.925 Y226.432 Z14.777 F2500.000
G1 X41.956 Y226.432 Z14.854 F2500.000
G1 X40.987 Y226.432 Z14.900 F2500.000
G1 X40.018 Y226.432 Z14.917 F2500.000
G1 X39.048 Y226.432 Z14.901 F2500.000
G1 X38.079 Y226.432 Z14.856 F2500.000
G1 X37.110 Y226.432 Z14.781 F2500.000
G1 X36.141 Y226.432 Z14.674 F2500.000
G1 X35.172 Y226.432 Z14.539 F2500.000
G1 X34.202 Y226.432 Z14.375 F2500.000
G1 X33.233 Y226.432 Z14.181 F2500.000
G1 X32.264 Y226.432 Z13.958 F2500.000
G1 X31.295 Y226.432 Z13.706 F2500.000
G1 X30.325 Y226.432 Z13.424 F2500.000
G1 X29.356 Y226.432 Z13.113 F2500.000
G1 X28.387 Y226.432 Z12.772 F2500.000
G1 X27.418 Y226.432 Z12.400 F2500.000
G1 X27.380 Y226.268 Z12.387 F2500.000
G1 X27.137 Y210.470 Z12.463 F2500.000
G1 X26.328 Y157.876 Z12.726 F2500.000
G1 X25.694 Y116.681 Z12.939 F2500.000
G1 X24.233 Y21.692 Z13.440 F2500.000
G1 X24.119 Y14.293 Z13.482 F2500.000
G1 X24.121 Y14.098 Z13.485 F2500.000
G1 X25.108 Y14.098 Z13.906 F2500.000
G1 X26.096 Y14.098 Z14.293 F2500.000
G1 X27.083 Y14.098 Z14.646 F2500.000
G1 X28.071 Y14.098 Z14.966 F2500.000
G1 X29.058 Y14.098 Z15.255 F2500.000
G1 X30.046 Y14.098 Z15.515 F2500.000
G1 X31.033 Y14.098 Z15.745 F2500.000
G1 X32.021 Y14.098 Z15.948 F2500.000
G1 X33.008 Y14.098 Z16.125 F2500.000
G1 X33.996 Y14.098 Z16.276 F2500.000
G1 X34.983 Y14.098 Z16.402 F2500.000
G1 X35.971 Y14.098 Z16.503 F2500.000
G1 X36.958 Y14.098 Z16.582 F2500.000
G1 X37.946 Y14.098 Z16.637 F2500.000
G1 X38.933 Y14.098 Z16.670 F2500.000
G1 X39.921 Y14.098 Z16.682 F2500.000
G1 X40.908 Y14.098 Z16.674 F2500.000
G1 X41.896 Y14.098 Z16.644 F2500.000
G1 X42.883 Y14.098 Z16.592 F2500.000
G1 X43.871 Y14.098 Z16.516 F2500.000
G1 X44.858 Y14.098 Z16.420 F2500.000
G1 X45.846 Y14.098 Z16.297 F2500.000
G1 X46.833 Y14.098 Z16.151 F2500.000
G1 X47.821 Y14.098 Z15.978 F2500.000
G1 X48.808 Y14.098 Z15.780 F2500.000
G1 X49.796 Y14.098 Z15.553 F2500.000
G1 X50.783 Y14.098 Z15.299 F2500.000
G1 X51.771 Y14.098 Z15.015 F2500.000
G1 X52.758 Y14.098 Z14.699 F2500.000
G1 X53.746 Y14.098 Z14.351 F2500.000
G1 X54.733 Y14.098 Z13.970 F2500.000
G1 X55.721 Y14.098 Z13.555 F2500.000
G1 X55.883 Y14.134 Z13.483 F2500.000
G1 X55.162 Y61.028 Z13.231 F2500.000
G1 X53.856 Y145.918 Z12.787 F2500.000
G1 X53.189 Y189.313 Z12.567 F2500.000
G1 X52.618 Y226.432 Z12.386 F2500.000
(Break)
G0 Z19.770
G0 X53.504 Y227.332
(part 37.)
G1 X53.504 Y227.332 Z12.007 F2500.000
G1 X52.504 Y227.332 Z12.422 F2500.000
G1 X51.504 Y227.332 Z12.802 F2500.000
G1 X50.504 Y227.332 Z13.151 F2500.000
G1 X49.504 Y227.332 Z13.467 F2500.000
G1 X48.504 Y227.332 Z13.752 F2500.000
G1 X47.504 Y227.332 Z14.006 F2500.000
G1 X46.504 Y227.332 Z14.228 F2500.000
G1 X45.504 Y227.332 Z14.420 F2500.000
G1 X44.504 Y227.332 Z14.580 F2500.000
G1 X43.504 Y227.332 Z14.709 F2500.000
G1 X42.504 Y227.332 Z14.807 F2500.000
G1 X41.504 Y227.332 Z14.872 F2500.000
G1 X40.504 Y227.332 Z14.905 F2500.000
G1 X39.504 Y227.332 Z14.906 F2500.000
G1 X38.504 Y227.332 Z14.872 F2500.000
G1 X37.504 Y227.332 Z14.807 F2500.000
G1 X36.504 Y227.332 Z14.710 F2500.000
G1 X35.504 Y227.332 Z14.581 F2500.000
G1 X34.504 Y227.332 Z14.421 F2500.000
G1 X33.504 Y227.332 Z14.230 F2500.000
G1 X32.504 Y227.332 Z14.008 F2500.000
G1 X31.504 Y227.332 Z13.754 F2500.000
G1 X30.504 Y227.332 Z13.469 F2500.000
G1 X29.504 Y227.332 Z13.153 F2500.000
G1 X28.504 Y227.332 Z12.805 F2500.000
G1 X27.504 Y227.332 Z12.425 F2500.000
G1 X26.504 Y227.332 Z12.011 F2500.000
G1 X26.493 Y227.140 Z12.008 F2500.000
G1 X26.475 Y225.941 Z12.013 F2500.000
G1 X25.401 Y156.149 Z12.349 F2500.000
G1 X24.358 Y88.357 Z12.687 F2500.000
G1 X23.343 Y22.365 Z13.022 F2500.000
G1 X23.205 Y13.366 Z13.070 F2500.000
G1 X23.234 Y13.197 Z13.086 F2500.000
G1 X24.216 Y13.197 Z13.538 F2500.000
G1 X25.199 Y13.197 Z13.954 F2500.000
G1 X26.181 Y13.197 Z14.335 F2500.000
G1 X27.163 Y13.197 Z14.683 F2500.000
G1 X28.146 Y13.197 Z14.998 F2500.000
G1 X29.128 Y13.197 Z15.284 F2500.000
G1 X30.110 Y13.197 Z15.540 F2500.000
G1 X31.093 Y13.197 Z15.768 F2500.000
G1 X32.075 Y13.197 Z15.968 F2500.000
G1 X33.057 Y13.197 Z16.142 F2500.000
G1 X34.040 Y13.197 Z16.290 F2500.000
G1 X35.022 Y13.197 Z16.414 F2500.000
G1 X36.004 Y13.197 Z16.514 F2500.000
G1 X36.987 Y13.197 Z16.591 F2500.000
G1 X37.969 Y13.197 Z16.645 F2500.000
G1 X38.951 Y13.197 Z16.677 F2500.000
G1 X39.934 Y13.197 Z16.690 F2500.000
G1 X40.916 Y13.197 Z16.680 F2500.000
G1 X41.899 Y13.197 Z16.651 F2500.000
G1 X42.881 Y13.197 Z16.600 F2500.000
G1 X43.863 Y13.197 Z16.525 F2500.000
G1 X44.846 Y13.197 Z16.429 F2500.000
G1 X45.828 Y13.197 Z16.309 F2500.000
G1 X46.810 Y13.197 Z16.163 F2500.000
G1 X47.793 Y13.197 Z15.993 F2500.000
G1 X48.775 Y13.197 Z15.796 F2500.000
G1 X49.757 Y13.197 Z15.572 F2500.000
G1 X50.740 Y13.197 Z15.320 F2500.000
G1 X51.722 Y13.197 Z15.039 F2500.000
G1 X52.704 Y13.197 Z14.727 F2500.000
G1 X53.687 Y13.197 Z14.384 F2500.000
G1 X54.669 Y13.197 Z14.007 F2500.000
G1 X55.651 Y13.197 Z13.596 F2500.000
G1 X56.634 Y13.197 Z13.149 F2500.000
G1 X56.797 Y13.233 Z13.070 F2500.000
G1 X55.213 Y116.221 Z12.547 F2500.000
G1 X54.521 Y161.216 Z12.324 F2500.000
G1 X53.737 Y212.210 Z12.077 F2500.000
G1 X53.504 Y227.332 Z12.007 F2500.000
(Break)
G0 Z19.770
G0 X54.390 Y228.232
(part 39.)
G1 X54.390 Y228.232 Z11.601 F2500.000
G1 X53.404 Y228.232 Z12.039 F2500.000
G1 X52.418 Y228.232 Z12.445 F2500.000
G1 X51.432 Y228.232 Z12.818 F2500.000
G1 X50.445 Y228.232 Z13.161 F2500.000
G1 X49.459 Y228.232 Z13.470 F2500.000
G1 X48.473 Y228.232 Z13.752 F2500.000
G1 X47.487 Y228.232 Z14.001 F2500.000
G1 X46.501 Y228.232 Z14.219 F2500.000
G1 X45.514 Y228.232 Z14.409 F2500.000
G1 X44.528 Y228.232 Z14.568 F2500.000
G1 X43.542 Y228.232 Z14.696 F2500.000
G1 X42.556 Y228.232 Z14.794 F2500.000
G1 X41.570 Y228.232 Z14.861 F2500.000
G1 X40.583 Y228.232 Z14.897 F2500.000
G1 X39.597 Y228.232 Z14.899 F2500.000
G1 X38.611 Y228.232 Z14.870 F2500.000
G1 X37.625 Y228.232 Z14.809 F2500.000
G1 X36.638 Y228.232 Z14.717 F2500.000
G1 X35.652 Y228.232 Z14.594 F2500.000
G1 X34.666 Y228.232 Z14.440 F2500.000
G1 X33.680 Y228.232 Z14.256 F2500.000
G1 X32.694 Y228.232 Z14.044 F2500.000
G1 X31.707 Y228.232 Z13.800 F2500.000
G1 X30.721 Y228.232 Z13.524 F2500.000
G1 X29.735 Y228.232 Z13.220 F2500.000
G1 X28.749 Y228.232 Z12.884 F2500.000
G1 X27.763 Y228.232 Z12.516 F2500.000
G1 X26.776 Y228.232 Z12.116 F2500.000
G1 X25.790 Y228.232 Z11.683 F2500.000
G1 X25.609 Y228.213 Z11.601 F2500.000
G1 X24.437 Y152.022 Z11.953 F2500.000
G1 X22.296 Y12.838 Z12.622 F2500.000
G1 X22.290 Y12.438 Z12.625 F2500.000
G1 X22.347 Y12.297 Z12.656 F2500.000
G1 X23.325 Y12.297 Z13.141 F2500.000
G1 X24.303 Y12.297 Z13.587 F2500.000
G1 X25.280 Y12.297 Z13.998 F2500.000
G1 X26.258 Y12.297 Z14.374 F2500.000
G1 X27.236 Y12.297 Z14.717 F2500.000
G1 X28.214 Y12.297 Z15.029 F2500.000
G1 X29.192 Y12.297 Z15.311 F2500.000
G1 X30.169 Y12.297 Z15.563 F2500.000
G1 X31.147 Y12.297 Z15.789 F2500.000
G1 X32.125 Y12.297 Z15.986 F2500.000
G1 X33.103 Y12.297 Z16.156 F2500.000
G1 X34.080 Y12.297 Z16.304 F2500.000
G1 X35.058 Y12.297 Z16.425 F2500.000
G1 X36.036 Y12.297 Z16.524 F2500.000
G1 X37.014 Y12.297 Z16.601 F2500.000
G1 X37.992 Y12.297 Z16.654 F2500.000
G1 X38.969 Y12.297 Z16.686 F2500.000
G1 X39.947 Y12.297 Z16.698 F2500.000
G1 X40.925 Y12.297 Z16.688 F2500.000
G1 X41.903 Y12.297 Z16.659 F2500.000
G1 X42.880 Y12.297 Z16.607 F2500.000
G1 X43.858 Y12.297 Z16.533 F2500.000
G1 X44.836 Y12.297 Z16.437 F2500.000
G1 X45.814 Y12.297 Z16.319 F2500.000
G1 X46.792 Y12.297 Z16.173 F2500.000
G1 X47.769 Y12.297 Z16.006 F2500.000
G1 X48.747 Y12.297 Z15.811 F2500.000
G1 X49.725 Y12.297 Z15.589 F2500.000
G1 X50.703 Y12.297 Z15.340 F2500.000
G1 X51.680 Y12.297 Z15.061 F2500.000
G1 X52.658 Y12.297 Z14.752 F2500.000
G1 X53.636 Y12.297 Z14.412 F2500.000
G1 X54.614 Y12.297 Z14.040 F2500.000
G1 X55.592 Y12.297 Z13.633 F2500.000
G1 X56.569 Y12.297 Z13.191 F2500.000
G1 X57.547 Y12.297 Z12.710 F2500.000
G1 X57.711 Y12.333 Z12.624 F2500.000
G1 X55.558 Y152.316 Z11.952 F2500.000
G1 X54.390 Y228.232 Z11.601 F2500.000
(Break)
G0 Z19.770
G0 X55.276 Y229.132
(part 41.)
G1 X55.276 Y229.132 Z11.166 F2500.000
G1 X54.296 Y229.132 Z11.634 F2500.000
G1 X53.315 Y229.132 Z12.067 F2500.000
G1 X52.335 Y229.132 Z12.468 F2500.000
G1 X51.354 Y229.132 Z12.838 F2500.000
G1 X50.373 Y229.132 Z13.175 F2500.000
G1 X49.393 Y229.132 Z13.482 F2500.000
G1 X48.412 Y229.132 Z13.759 F2500.000
G1 X47.431 Y229.132 Z14.005 F2500.000
G1 X46.451 Y229.132 Z14.223 F2500.000
G1 X45.470 Y229.132 Z14.410 F2500.000
G1 X44.489 Y229.132 Z14.566 F2500.000
G1 X43.509 Y229.132 Z14.693 F2500.000
G1 X42.528 Y229.132 Z14.789 F2500.000
G1 X41.547 Y229.132 Z14.855 F2500.000
G1 X40.567 Y229.132 Z14.889 F2500.000
G1 X39.586 Y229.132 Z14.892 F2500.000
G1 X38.606 Y229.132 Z14.863 F2500.000
G1 X37.625 Y229.132 Z14.801 F2500.000
G1 X36.644 Y229.132 Z14.710 F2500.000
G1 X35.664 Y229.132 Z14.588 F2500.000
G1 X34.683 Y229.132 Z14.436 F2500.000
G1 X33.702 Y229.132 Z14.254 F2500.000
G1 X32.722 Y229.132 Z14.041 F2500.000
G1 X31.741 Y229.132 Z13.799 F2500.000
G1 X30.760 Y229.132 Z13.527 F2500.000
G1 X29.780 Y229.132 Z13.225 F2500.000
G1 X28.799 Y229.132 Z12.892 F2500.000
G1 X27.818 Y229.132 Z12.528 F2500.000
G1 X26.838 Y229.132 Z12.132 F2500.000
G1 X25.857 Y229.132 Z11.704 F2500.000
G1 X24.876 Y229.132 Z11.241 F2500.000
G1 X24.723 Y229.085 Z11.166 F2500.000
G1 X23.957 Y179.291 Z11.385 F2500.000
G1 X21.930 Y47.507 Z11.984 F2500.000
G1 X21.388 Y12.311 Z12.141 F2500.000
G1 X21.376 Y11.511 Z12.147 F2500.000
G1 X21.460 Y11.398 Z12.195 F2500.000
G1 X22.434 Y11.398 Z12.713 F2500.000
G1 X23.408 Y11.398 Z13.191 F2500.000
G1 X24.382 Y11.398 Z13.631 F2500.000
G1 X25.355 Y11.398 Z14.038 F2500.000
G1 X26.329 Y11.398 Z14.410 F2500.000
G1 X27.303 Y11.398 Z14.749 F2500.000
G1 X28.276 Y11.398 Z15.058 F2500.000
G1 X29.250 Y11.398 Z15.336 F2500.000
G1 X30.224 Y11.398 Z15.586 F2500.000
G1 X31.197 Y11.398 Z15.808 F2500.000
G1 X32.171 Y11.398 Z16.003 F2500.000
G1 X33.145 Y11.398 Z16.173 F2500.000
G1 X34.118 Y11.398 Z16.318 F2500.000
G1 X35.092 Y11.398 Z16.438 F2500.000
G1 X36.066 Y11.398 Z16.535 F2500.000
G1 X37.039 Y11.398 Z16.610 F2500.000
G1 X38.013 Y11.398 Z16.662 F2500.000
G1 X38.987 Y11.398 Z16.694 F2500.000
G1 X39.960 Y11.398 Z16.705 F2500.000
G1 X40.934 Y11.398 Z16.695 F2500.000
G1 X41.908 Y11.398 Z16.665 F2500.000
G1 X42.882 Y11.398 Z16.615 F2500.000
G1 X43.855 Y11.398 Z16.542 F2500.000
G1 X44.829 Y11.398 Z16.447 F2500.000
G1 X45.803 Y11.398 Z16.328 F2500.000
G1 X46.776 Y11.398 Z16.186 F2500.000
G1 X47.750 Y11.398 Z16.018 F2500.000
G1 X48.724 Y11.398 Z15.825 F2500.000
G1 X49.697 Y11.398 Z15.605 F2500.000
G1 X50.671 Y11.398 Z15.358 F2500.000
G1 X51.645 Y11.398 Z15.082 F2500.000
G1 X52.618 Y11.398 Z14.776 F2500.000
G1 X53.592 Y11.398 Z14.438 F2500.000
G1 X54.566 Y11.398 Z14.070 F2500.000
G1 X55.539 Y11.398 Z13.666 F2500.000
G1 X56.513 Y11.398 Z13.228 F2500.000
G1 X57.487 Y11.398 Z12.753 F2500.000
G1 X58.460 Y11.398 Z12.239 F2500.000
G1 X58.625 Y11.432 Z12.147 F2500.000
G1 X56.410 Y155.415 Z11.493 F2500.000
G1 X55.276 Y229.132 Z11.166 F2500.000
(Break)
G0 Z19.770
G0 X56.163 Y230.032
(part 43.)
G1 X56.163 Y230.032 Z10.702 F2500.000
G1 X55.187 Y230.032 Z11.199 F2500.000
G1 X54.211 Y230.032 Z11.662 F2500.000
G1 X53.235 Y230.032 Z12.091 F2500.000
G1 X52.260 Y230.032 Z12.488 F2500.000
G1 X51.284 Y230.032 Z12.853 F2500.000
G1 X50.308 Y230.032 Z13.186 F2500.000
G1 X49.332 Y230.032 Z13.490 F2500.000
G1 X48.357 Y230.032 Z13.764 F2500.000
G1 X47.381 Y230.032 Z14.009 F2500.000
G1 X46.405 Y230.032 Z14.222 F2500.000
G1 X45.429 Y230.032 Z14.408 F2500.000
G1 X44.454 Y230.032 Z14.564 F2500.000
G1 X43.478 Y230.032 Z14.689 F2500.000
G1 X42.502 Y230.032 Z14.783 F2500.000
G1 X41.526 Y230.032 Z14.849 F2500.000
G1 X40.551 Y230.032 Z14.882 F2500.000
G1 X39.575 Y230.032 Z14.884 F2500.000
G1 X38.599 Y230.032 Z14.854 F2500.000
G1 X37.623 Y230.032 Z14.793 F2500.000
G1 X36.648 Y230.032 Z14.703 F2500.000
G1 X35.672 Y230.032 Z14.582 F2500.000
G1 X34.696 Y230.032 Z14.429 F2500.000
G1 X33.720 Y230.032 Z14.248 F2500.000
G1 X32.745 Y230.032 Z14.038 F2500.000
G1 X31.769 Y230.032 Z13.797 F2500.000
G1 X30.793 Y230.032 Z13.528 F2500.000
G1 X29.817 Y230.032 Z13.227 F2500.000
G1 X28.842 Y230.032 Z12.897 F2500.000
G1 X27.866 Y230.032 Z12.537 F2500.000
G1 X26.890 Y230.032 Z12.144 F2500.000
G1 X25.914 Y230.032 Z11.719 F2500.000
G1 X24.938 Y230.032 Z11.261 F2500.000
G1 X23.963 Y230.032 Z10.767 F2500.000
G1 X23.836 Y229.958 Z10.703 F2500.000
G1 X20.462 Y10.584 Z11.633 F2500.000
G1 X20.574 Y10.498 Z11.701 F2500.000
G1 X21.569 Y10.498 Z12.267 F2500.000
G1 X22.564 Y10.498 Z12.788 F2500.000
G1 X23.558 Y10.498 Z13.273 F2500.000
G1 X24.553 Y10.498 Z13.716 F2500.000
G1 X25.548 Y10.498 Z14.124 F2500.000
G1 X26.543 Y10.498 Z14.498 F2500.000
G1 X27.538 Y10.498 Z14.837 F2500.000
G1 X28.533 Y10.498 Z15.144 F2500.000
G1 X29.528 Y10.498 Z15.419 F2500.000
G1 X30.522 Y10.498 Z15.666 F2500.000
G1 X31.517 Y10.498 Z15.883 F2500.000
G1 X32.512 Y10.498 Z16.074 F2500.000
G1 X33.507 Y10.498 Z16.238 F2500.000
G1 X34.502 Y10.498 Z16.376 F2500.000
G1 X35.497 Y10.498 Z16.489 F2500.000
G1 X36.492 Y10.498 Z16.579 F2500.000
G1 X37.487 Y10.498 Z16.644 F2500.000
G1 X38.481 Y10.498 Z16.688 F2500.000
G1 X39.476 Y10.498 Z16.709 F2500.000
G1 X40.471 Y10.498 Z16.710 F2500.000
G1 X41.466 Y10.498 Z16.690 F2500.000
G1 X42.461 Y10.498 Z16.647 F2500.000
G1 X43.456 Y10.498 Z16.583 F2500.000
G1 X44.451 Y10.498 Z16.495 F2500.000
G1 X45.446 Y10.498 Z16.383 F2500.000
G1 X46.440 Y10.498 Z16.245 F2500.000
G1 X47.435 Y10.498 Z16.083 F2500.000
G1 X48.430 Y10.498 Z15.894 F2500.000
G1 X49.425 Y10.498 Z15.678 F2500.000
G1 X50.420 Y10.498 Z15.432 F2500.000
G1 X51.415 Y10.498 Z15.159 F2500.000
G1 X52.410 Y10.498 Z14.854 F2500.000
G1 X53.405 Y10.498 Z14.517 F2500.000
G1 X54.399 Y10.498 Z14.145 F2500.000
G1 X55.394 Y10.498 Z13.739 F2500.000
G1 X56.389 Y10.498 Z13.297 F2500.000
G1 X57.384 Y10.498 Z12.815 F2500.000
G1 X58.379 Y10.498 Z12.295 F2500.000
G1 X59.374 Y10.498 Z11.732 F2500.000
G1 X59.539 Y10.531 Z11.633 F2500.000
G1 X56.163 Y230.032 Z10.702 F2500.000
(Break)
G0 Z19.770
G0 X57.049 Y230.932
(part 45.)
G1 X57.049 Y230.932 Z10.209 F2500.000
G1 X56.049 Y230.932 Z10.752 F2500.000
G1 X55.049 Y230.932 Z11.255 F2500.000
G1 X54.049 Y230.932 Z11.725 F2500.000
G1 X53.049 Y230.932 Z12.159 F2500.000
G1 X52.049 Y230.932 Z12.559 F2500.000
G1 X51.049 Y230.932 Z12.927 F2500.000
G1 X50.049 Y230.932 Z13.262 F2500.000
G1 X49.049 Y230.932 Z13.565 F2500.000
G1 X48.049 Y230.932 Z13.837 F2500.000
G1 X47.049 Y230.932 Z14.077 F2500.000
G1 X46.049 Y230.932 Z14.287 F2500.000
G1 X45.049 Y230.932 Z14.465 F2500.000
G1 X44.049 Y230.932 Z14.612 F2500.000
G1 X43.049 Y230.932 Z14.727 F2500.000
G1 X42.049 Y230.932 Z14.809 F2500.000
G1 X41.049 Y230.932 Z14.861 F2500.000
G1 X40.049 Y230.932 Z14.880 F2500.000
G1 X39.049 Y230.932 Z14.865 F2500.000
G1 X38.049 Y230.932 Z14.816 F2500.000
G1 X37.049 Y230.932 Z14.736 F2500.000
G1 X36.049 Y230.932 Z14.624 F2500.000
G1 X35.049 Y230.932 Z14.480 F2500.000
G1 X34.049 Y230.932 Z14.305 F2500.000
G1 X33.049 Y230.932 Z14.099 F2500.000
G1 X32.049 Y230.932 Z13.862 F2500.000
G1 X31.049 Y230.932 Z13.593 F2500.000
G1 X30.049 Y230.932 Z13.293 F2500.000
G1 X29.049 Y230.932 Z12.961 F2500.000
G1 X28.049 Y230.932 Z12.597 F2500.000
G1 X27.049 Y230.932 Z12.200 F2500.000
G1 X26.049 Y230.932 Z11.769 F2500.000
G1 X25.049 Y230.932 Z11.303 F2500.000
G1 X24.049 Y230.932 Z10.803 F2500.000
G1 X23.049 Y230.932 Z10.264 F2500.000
G1 X22.949 Y230.831 Z10.210 F2500.000
G1 X22.623 Y209.633 Z10.292 F2500.000
G1 X20.618 Y79.248 Z10.813 F2500.000
G1 X19.547 Y9.657 Z11.080 F2500.000
G1 X19.687 Y9.598 Z11.169 F2500.000
G1 X20.677 Y9.598 Z11.773 F2500.000
G1 X21.668 Y9.598 Z12.332 F2500.000
G1 X22.658 Y9.598 Z12.848 F2500.000
G1 X23.648 Y9.598 Z13.325 F2500.000
G1 X24.638 Y9.598 Z13.763 F2500.000
G1 X25.629 Y9.598 Z14.166 F2500.000
G1 X26.619 Y9.598 Z14.535 F2500.000
G1 X27.609 Y9.598 Z14.870 F2500.000
G1 X28.599 Y9.598 Z15.173 F2500.000
G1 X29.590 Y9.598 Z15.445 F2500.000
G1 X30.580 Y9.598 Z15.688 F2500.000
G1 X31.570 Y9.598 Z15.904 F2500.000
G1 X32.560 Y9.598 Z16.091 F2500.000
G1 X33.551 Y9.598 Z16.253 F2500.000
G1 X34.541 Y9.598 Z16.389 F2500.000
G1 X35.531 Y9.598 Z16.500 F2500.000
G1 X36.521 Y9.598 Z16.589 F2500.000
G1 X37.511 Y9.598 Z16.653 F2500.000
G1 X38.502 Y9.598 Z16.696 F2500.000
G1 X39.492 Y9.598 Z16.716 F2500.000
G1 X40.482 Y9.598 Z16.717 F2500.000
G1 X41.472 Y9.598 Z16.696 F2500.000
G1 X42.463 Y9.598 Z16.655 F2500.000
G1 X43.453 Y9.598 Z16.591 F2500.000
G1 X44.443 Y9.598 Z16.503 F2500.000
G1 X45.433 Y9.598 Z16.392 F2500.000
G1 X46.424 Y9.598 Z16.257 F2500.000
G1 X47.414 Y9.598 Z16.096 F2500.000
G1 X48.404 Y9.598 Z15.909 F2500.000
G1 X49.394 Y9.598 Z15.694 F2500.000
G1 X50.385 Y9.598 Z15.451 F2500.000
G1 X51.375 Y9.598 Z15.181 F2500.000
G1 X52.365 Y9.598 Z14.878 F2500.000
G1 X53.355 Y9.598 Z14.544 F2500.000
G1 X54.346 Y9.598 Z14.177 F2500.000
G1 X55.336 Y9.598 Z13.774 F2500.000
G1 X56.326 Y9.598 Z13.337 F2500.000
G1 X57.316 Y9.598 Z12.861 F2500.000
G1 X58.307 Y9.598 Z12.346 F2500.000
G1 X59.297 Y9.598 Z11.789 F2500.000
G1 X60.287 Y9.598 Z11.186 F2500.000
G1 X60.453 Y9.631 Z11.081 F2500.000
G1 X59.278 Y86.022 Z10.786 F2500.000
G1 X57.740 Y186.010 Z10.386 F2500.000
G1 X57.049 Y230.932 Z10.209 F2500.000
(Break)
G0 Z19.770
G0 X57.935 Y231.832
(part 47.)
G1 X57.935 Y231.832 Z9.684 F2500.000
G1 X56.941 Y231.832 Z10.259 F2500.000
G1 X55.946 Y231.832 Z10.794 F2500.000
G1 X54.952 Y231.832 Z11.293 F2500.000
G1 X53.957 Y231.832 Z11.757 F2500.000
G1 X52.963 Y231.832 Z12.185 F2500.000
G1 X51.969 Y231.832 Z12.580 F2500.000
G1 X50.974 Y231.832 Z12.944 F2500.000
G1 X49.980 Y231.832 Z13.275 F2500.000
G1 X48.985 Y231.832 Z13.574 F2500.000
G1 X47.991 Y231.832 Z13.843 F2500.000
G1 X46.996 Y231.832 Z14.080 F2500.000
G1 X46.002 Y231.832 Z14.286 F2500.000
G1 X45.007 Y231.832 Z14.463 F2500.000
G1 X44.013 Y231.832 Z14.608 F2500.000
G1 X43.019 Y231.832 Z14.722 F2500.000
G1 X42.024 Y231.832 Z14.804 F2500.000
G1 X41.030 Y231.832 Z14.854 F2500.000
G1 X40.035 Y231.832 Z14.872 F2500.000
G1 X39.041 Y231.832 Z14.857 F2500.000
G1 X38.046 Y231.832 Z14.809 F2500.000
G1 X37.052 Y231.832 Z14.729 F2500.000
G1 X36.057 Y231.832 Z14.616 F2500.000
G1 X35.063 Y231.832 Z14.475 F2500.000
G1 X34.069 Y231.832 Z14.300 F2500.000
G1 X33.074 Y231.832 Z14.095 F2500.000
G1 X32.080 Y231.832 Z13.861 F2500.000
G1 X31.085 Y231.832 Z13.594 F2500.000
G1 X30.091 Y231.832 Z13.297 F2500.000
G1 X29.096 Y231.832 Z12.968 F2500.000
G1 X28.102 Y231.832 Z12.607 F2500.000
G1 X27.107 Y231.832 Z12.214 F2500.000
G1 X26.113 Y231.832 Z11.788 F2500.000
G1 X25.119 Y231.832 Z11.327 F2500.000
G1 X24.124 Y231.832 Z10.831 F2500.000
G1 X23.130 Y231.832 Z10.298 F2500.000
G1 X22.135 Y231.832 Z9.726 F2500.000
G1 X22.063 Y231.703 Z9.685 F2500.000
G1 X19.928 Y92.919 Z10.195 F2500.000
G1 X19.282 Y50.924 Z10.345 F2500.000
G1 X19.180 Y44.325 Z10.365 F2500.000
G1 X19.165 Y43.325 Z10.371 F2500.000
G1 X18.633 Y8.729 Z10.489 F2500.000
G1 X18.800 Y8.697 Z10.603 F2500.000
G1 X19.786 Y8.697 Z11.245 F2500.000
G1 X20.772 Y8.697 Z11.839 F2500.000
G1 X21.759 Y8.697 Z12.393 F2500.000
G1 X22.745 Y8.697 Z12.904 F2500.000
G1 X23.731 Y8.697 Z13.374 F2500.000
G1 X24.717 Y8.697 Z13.808 F2500.000
G1 X25.703 Y8.697 Z14.206 F2500.000
G1 X26.689 Y8.697 Z14.570 F2500.000
G1 X27.675 Y8.697 Z14.901 F2500.000
G1 X28.661 Y8.697 Z15.201 F2500.000
G1 X29.647 Y8.697 Z15.469 F2500.000
G1 X30.633 Y8.697 Z15.710 F2500.000
G1 X31.619 Y8.697 Z15.923 F2500.000
G1 X32.605 Y8.697 Z16.107 F2500.000
G1 X33.591 Y8.697 Z16.267 F2500.000
G1 X34.577 Y8.697 Z16.402 F2500.000
G1 X35.563 Y8.697 Z16.511 F2500.000
G1 X36.549 Y8.697 Z16.599 F2500.000
G1 X37.535 Y8.697 Z16.662 F2500.000
G1 X38.521 Y8.697 Z16.704 F2500.000
G1 X39.507 Y8.697 Z16.724 F2500.000
G1 X40.493 Y8.697 Z16.724 F2500.000
G1 X41.479 Y8.697 Z16.704 F2500.000
G1 X42.466 Y8.697 Z16.662 F2500.000
G1 X43.452 Y8.697 Z16.599 F2500.000
G1 X44.438 Y8.697 Z16.511 F2500.000
G1 X45.424 Y8.697 Z16.402 F2500.000
G1 X46.410 Y8.697 Z16.267 F2500.000
G1 X47.396 Y8.697 Z16.108 F2500.000
G1 X48.382 Y8.697 Z15.922 F2500.000
G1 X49.368 Y8.697 Z15.710 F2500.000
G1 X50.354 Y8.697 Z15.468 F2500.000
G1 X51.340 Y8.697 Z15.200 F2500.000
G1 X52.326 Y8.697 Z14.900 F2500.000
G1 X53.312 Y8.697 Z14.570 F2500.000
G1 X54.298 Y8.697 Z14.206 F2500.000
G1 X55.284 Y8.697 Z13.808 F2500.000
G1 X56.270 Y8.697 Z13.374 F2500.000
G1 X57.256 Y8.697 Z12.903 F2500.000
G1 X58.242 Y8.697 Z12.393 F2500.000
G1 X59.228 Y8.697 Z11.840 F2500.000
G1 X60.214 Y8.697 Z11.245 F2500.000
G1 X61.200 Y8.697 Z10.603 F2500.000
G1 X61.367 Y8.730 Z10.490 F2500.000
G1 X60.749 Y48.925 Z10.352 F2500.000
G1 X59.974 Y99.319 Z10.172 F2500.000
G1 X57.935 Y231.832 Z9.684 F2500.000
(Break)
G0 Z19.770
G0 X58.822 Y232.732
(part 49.)
G1 X58.822 Y232.732 Z9.125 F2500.000
G1 X57.832 Y232.732 Z9.734 F2500.000
G1 X56.843 Y232.732 Z10.303 F2500.000
G1 X55.853 Y232.732 Z10.832 F2500.000
G1 X54.864 Y232.732 Z11.325 F2500.000
G1 X53.874 Y232.732 Z11.783 F2500.000
G1 X52.885 Y232.732 Z12.207 F2500.000
G1 X51.895 Y232.732 Z12.599 F2500.000
G1 X50.906 Y232.732 Z12.957 F2500.000
G1 X49.916 Y232.732 Z13.285 F2500.000
G1 X48.927 Y232.732 Z13.581 F2500.000
G1 X47.937 Y232.732 Z13.847 F2500.000
G1 X46.948 Y232.732 Z14.082 F2500.000
G1 X45.958 Y232.732 Z14.287 F2500.000
G1 X44.969 Y232.732 Z14.461 F2500.000
G1 X43.979 Y232.732 Z14.604 F2500.000
G1 X42.990 Y232.732 Z14.717 F2500.000
G1 X42.000 Y232.732 Z14.798 F2500.000
G1 X41.011 Y232.732 Z14.847 F2500.000
G1 X40.022 Y232.732 Z14.865 F2500.000
G1 X39.032 Y232.732 Z14.848 F2500.000
G1 X38.043 Y232.732 Z14.800 F2500.000
G1 X37.053 Y232.732 Z14.722 F2500.000
G1 X36.064 Y232.732 Z14.610 F2500.000
G1 X35.074 Y232.732 Z14.468 F2500.000
G1 X34.085 Y232.732 Z14.296 F2500.000
G1 X33.095 Y232.732 Z14.091 F2500.000
G1 X32.106 Y232.732 Z13.858 F2500.000
G1 X31.116 Y232.732 Z13.593 F2500.000
G1 X30.127 Y232.732 Z13.299 F2500.000
G1 X29.137 Y232.732 Z12.972 F2500.000
G1 X28.148 Y232.732 Z12.615 F2500.000
G1 X27.158 Y232.732 Z12.224 F2500.000
G1 X26.169 Y232.732 Z11.802 F2500.000
G1 X25.179 Y232.732 Z11.346 F2500.000
G1 X24.190 Y232.732 Z10.854 F2500.000
G1 X23.200 Y232.732 Z10.326 F2500.000
G1 X22.211 Y232.732 Z9.760 F2500.000
G1 X21.222 Y232.732 Z9.153 F2500.000
G1 X21.176 Y232.576 Z9.125 F2500.000
G1 X20.139 Y165.184 Z9.355 F2500.000
G1 X19.278 Y109.190 Z9.541 F2500.000
G1 X18.432 Y54.197 Z9.716 F2500.000
G1 X17.718 Y7.802 Z9.856 F2500.000
G1 X17.914 Y7.798 Z9.997 F2500.000
G1 X18.896 Y7.798 Z10.679 F2500.000
G1 X19.878 Y7.798 Z11.315 F2500.000
G1 X20.860 Y7.798 Z11.903 F2500.000
G1 X21.843 Y7.798 Z12.449 F2500.000
G1 X22.825 Y7.798 Z12.955 F2500.000
G1 X23.807 Y7.798 Z13.420 F2500.000
G1 X24.789 Y7.798 Z13.850 F2500.000
G1 X25.771 Y7.798 Z14.243 F2500.000
G1 X26.754 Y7.798 Z14.602 F2500.000
G1 X27.736 Y7.798 Z14.930 F2500.000
G1 X28.718 Y7.798 Z15.226 F2500.000
G1 X29.700 Y7.798 Z15.493 F2500.000
G1 X30.683 Y7.798 Z15.730 F2500.000
G1 X31.665 Y7.798 Z15.941 F2500.000
G1 X32.647 Y7.798 Z16.123 F2500.000
G1 X33.629 Y7.798 Z16.281 F2500.000
G1 X34.611 Y7.798 Z16.414 F2500.000
G1 X35.594 Y7.798 Z16.522 F2500.000
G1 X36.576 Y7.798 Z16.608 F2500.000
G1 X37.558 Y7.798 Z16.671 F2500.000
G1 X38.540 Y7.798 Z16.712 F2500.000
G1 X39.523 Y7.798 Z16.732 F2500.000
G1 X40.505 Y7.798 Z16.732 F2500.000
G1 X41.487 Y7.798 Z16.711 F2500.000
G1 X42.469 Y7.798 Z16.669 F2500.000
G1 X43.451 Y7.798 Z16.606 F2500.000
G1 X44.434 Y7.798 Z16.520 F2500.000
G1 X45.416 Y7.798 Z16.411 F2500.000
G1 X46.398 Y7.798 Z16.277 F2500.000
G1 X47.380 Y7.798 Z16.118 F2500.000
G1 X48.363 Y7.798 Z15.935 F2500.000
G1 X49.345 Y7.798 Z15.724 F2500.000
G1 X50.327 Y7.798 Z15.485 F2500.000
G1 X51.309 Y7.798 Z15.219 F2500.000
G1 X52.291 Y7.798 Z14.921 F2500.000
G1 X53.274 Y7.798 Z14.593 F2500.000
G1 X54.256 Y7.798 Z14.232 F2500.000
G1 X55.238 Y7.798 Z13.838 F2500.000
G1 X56.220 Y7.798 Z13.408 F2500.000
G1 X57.203 Y7.798 Z12.941 F2500.000
G1 X58.185 Y7.798 Z12.434 F2500.000
G1 X59.167 Y7.798 Z11.887 F2500.000
G1 X60.149 Y7.798 Z11.298 F2500.000
G1 X61.131 Y7.798 Z10.660 F2500.000
G1 X62.114 Y7.798 Z9.978 F2500.000
G1 X62.281 Y7.830 Z9.856 F2500.000
G1 X61.569 Y54.124 Z9.716 F2500.000
G1 X60.703 Y110.417 Z9.537 F2500.000
G1 X58.822 Y232.732 Z9.125 F2500.000
(Break)
G0 Z19.770
G0 X59.708 Y233.632
(part 51.)
G1 X59.708 Y233.632 Z8.530 F2500.000
G1 X58.723 Y233.632 Z9.176 F2500.000
G1 X57.738 Y233.632 Z9.778 F2500.000
G1 X56.753 Y233.632 Z10.341 F2500.000
G1 X55.768 Y233.632 Z10.864 F2500.000
G1 X54.783 Y233.632 Z11.352 F2500.000
G1 X53.798 Y233.632 Z11.807 F2500.000
G1 X52.813 Y233.632 Z12.226 F2500.000
G1 X51.828 Y233.632 Z12.615 F2500.000
G1 X50.843 Y233.632 Z12.969 F2500.000
G1 X49.858 Y233.632 Z13.295 F2500.000
G1 X48.873 Y233.632 Z13.587 F2500.000
G1 X47.888 Y233.632 Z13.852 F2500.000
G1 X46.903 Y233.632 Z14.083 F2500.000
G1 X45.918 Y233.632 Z14.287 F2500.000
G1 X44.933 Y233.632 Z14.458 F2500.000
G1 X43.948 Y233.632 Z14.601 F2500.000
G1 X42.963 Y233.632 Z14.712 F2500.000
G1 X41.978 Y233.632 Z14.791 F2500.000
G1 X40.993 Y233.632 Z14.841 F2500.000
G1 X40.008 Y233.632 Z14.857 F2500.000
G1 X39.023 Y233.632 Z14.841 F2500.000
G1 X38.038 Y233.632 Z14.792 F2500.000
G1 X37.053 Y233.632 Z14.713 F2500.000
G1 X36.068 Y233.632 Z14.603 F2500.000
G1 X35.083 Y233.632 Z14.461 F2500.000
G1 X34.098 Y233.632 Z14.290 F2500.000
G1 X33.113 Y233.632 Z14.087 F2500.000
G1 X32.128 Y233.632 Z13.855 F2500.000
G1 X31.143 Y233.632 Z13.592 F2500.000
G1 X30.158 Y233.632 Z13.300 F2500.000
G1 X29.173 Y233.632 Z12.974 F2500.000
G1 X28.188 Y233.632 Z12.621 F2500.000
G1 X27.203 Y233.632 Z12.232 F2500.000
G1 X26.218 Y233.632 Z11.813 F2500.000
G1 X25.233 Y233.632 Z11.360 F2500.000
G1 X24.248 Y233.632 Z10.872 F2500.000
G1 X23.263 Y233.632 Z10.350 F2500.000
G1 X22.278 Y233.632 Z9.788 F2500.000
G1 X21.293 Y233.632 Z9.185 F2500.000
G1 X20.308 Y233.632 Z8.541 F2500.000
G1 X20.289 Y233.448 Z8.531 F2500.000
G1 X20.277 Y232.648 Z8.533 F2500.000
G1 X19.351 Y172.455 Z8.718 F2500.000
G1 X18.416 Y111.663 Z8.898 F2500.000
G1 X17.576 Y57.069 Z9.049 F2500.000
G1 X16.816 Y7.675 Z9.176 F2500.000
G1 X16.807 Y7.075 Z9.178 F2500.000
G1 X16.827 Y6.897 Z9.197 F2500.000
G1 X17.810 Y6.897 Z9.936 F2500.000
G1 X18.793 Y6.897 Z10.622 F2500.000
G1 X19.776 Y6.897 Z11.262 F2500.000
G1 X20.759 Y6.897 Z11.856 F2500.000
G1 X21.742 Y6.897 Z12.407 F2500.000
G1 X22.725 Y6.897 Z12.916 F2500.000
G1 X23.708 Y6.897 Z13.385 F2500.000
G1 X24.691 Y6.897 Z13.819 F2500.000
G1 X25.674 Y6.897 Z14.215 F2500.000
G1 X26.657 Y6.897 Z14.579 F2500.000
G1 X27.640 Y6.897 Z14.909 F2500.000
G1 X28.623 Y6.897 Z15.208 F2500.000
G1 X29.606 Y6.897 Z15.477 F2500.000
G1 X30.589 Y6.897 Z15.718 F2500.000
G1 X31.572 Y6.897 Z15.930 F2500.000
G1 X32.555 Y6.897 Z16.116 F2500.000
G1 X33.538 Y6.897 Z16.276 F2500.000
G1 X34.521 Y6.897 Z16.410 F2500.000
G1 X35.504 Y6.897 Z16.521 F2500.000
G1 X36.487 Y6.897 Z16.609 F2500.000
G1 X37.470 Y6.897 Z16.673 F2500.000
G1 X38.453 Y6.897 Z16.717 F2500.000
G1 X39.436 Y6.897 Z16.738 F2500.000
G1 X40.419 Y6.897 Z16.740 F2500.000
G1 X41.401 Y6.897 Z16.722 F2500.000
G1 X42.384 Y6.897 Z16.681 F2500.000
G1 X43.367 Y6.897 Z16.620 F2500.000
G1 X44.350 Y6.897 Z16.536 F2500.000
G1 X45.333 Y6.897 Z16.428 F2500.000
G1 X46.316 Y6.897 Z16.298 F2500.000
G1 X47.299 Y6.897 Z16.141 F2500.000
G1 X48.282 Y6.897 Z15.960 F2500.000
G1 X49.265 Y6.897 Z15.751 F2500.000
G1 X50.248 Y6.897 Z15.515 F2500.000
G1 X51.231 Y6.897 Z15.250 F2500.000
G1 X52.214 Y6.897 Z14.955 F2500.000
G1 X53.197 Y6.897 Z14.630 F2500.000
G1 X54.180 Y6.897 Z14.271 F2500.000
G1 X55.163 Y6.897 Z13.880 F2500.000
G1 X56.146 Y6.897 Z13.452 F2500.000
G1 X57.129 Y6.897 Z12.988 F2500.000
G1 X58.112 Y6.897 Z12.485 F2500.000
G1 X59.095 Y6.897 Z11.940 F2500.000
G1 X60.078 Y6.897 Z11.353 F2500.000
G1 X61.061 Y6.897 Z10.720 F2500.000
G1 X62.044 Y6.897 Z10.041 F2500.000
G1 X63.027 Y6.897 Z9.310 F2500.000
G1 X63.195 Y6.929 Z9.179 F2500.000
G1 X62.451 Y55.323 Z9.054 F2500.000
G1 X61.552 Y113.716 Z8.892 F2500.000
G1 X60.602 Y175.509 Z8.709 F2500.000
G1 X59.708 Y233.632 Z8.530 F2500.000
(Break)
G0 Z19.770
G0 X60.594 Y234.532
(part 53.)
G1 X60.594 Y234.532 Z7.897 F2500.000
G1 X59.594 Y234.532 Z8.595 F2500.000
G1 X58.594 Y234.532 Z9.244 F2500.000
G1 X57.594 Y234.532 Z9.851 F2500.000
G1 X56.594 Y234.532 Z10.415 F2500.000
G1 X55.594 Y234.532 Z10.943 F2500.000
G1 X54.594 Y234.532 Z11.432 F2500.000
G1 X53.594 Y234.532 Z11.885 F2500.000
G1 X52.594 Y234.532 Z12.305 F2500.000
G1 X51.594 Y234.532 Z12.691 F2500.000
G1 X50.594 Y234.532 Z13.046 F2500.000
G1 X49.594 Y234.532 Z13.367 F2500.000
G1 X48.594 Y234.532 Z13.657 F2500.000
G1 X47.594 Y234.532 Z13.914 F2500.000
G1 X46.594 Y234.532 Z14.143 F2500.000
G1 X45.594 Y234.532 Z14.338 F2500.000
G1 X44.594 Y234.532 Z14.504 F2500.000
G1 X43.594 Y234.532 Z14.636 F2500.000
G1 X42.594 Y234.532 Z14.738 F2500.000
G1 X41.594 Y234.532 Z14.806 F2500.000
G1 X40.594 Y234.532 Z14.844 F2500.000
G1 X39.594 Y234.532 Z14.846 F2500.000
G1 X38.594 Y234.532 Z14.815 F2500.000
G1 X37.594 Y234.532 Z14.753 F2500.000
G1 X36.594 Y234.532 Z14.657 F2500.000
G1 X35.594 Y234.532 Z14.531 F2500.000
G1 X34.594 Y234.532 Z14.371 F2500.000
G1 X33.594 Y234.532 Z14.182 F2500.000
G1 X32.594 Y234.532 Z13.959 F2500.000
G1 X31.594 Y234.532 Z13.708 F2500.000
G1 X30.594 Y234.532 Z13.424 F2500.000
G1 X29.594 Y234.532 Z13.108 F2500.000
G1 X28.594 Y234.532 Z12.760 F2500.000
G1 X27.594 Y234.532 Z12.381 F2500.000
G1 X26.594 Y234.532 Z11.967 F2500.000
G1 X25.594 Y234.532 Z11.520 F2500.000
G1 X24.594 Y234.532 Z11.037 F2500.000
G1 X23.594 Y234.532 Z10.518 F2500.000
G1 X22.594 Y234.532 Z9.961 F2500.000
G1 X21.594 Y234.532 Z9.362 F2500.000
G1 X20.594 Y234.532 Z8.721 F2500.000
G1 X19.594 Y234.532 Z8.032 F2500.000
G1 X19.406 Y234.521 Z7.897 F2500.000
G1 X18.508 Y176.128 Z8.055 F2500.000
G1 X17.572 Y115.335 Z8.210 F2500.000
G1 X16.686 Y57.742 Z8.345 F2500.000
G1 X15.896 Y6.348 Z8.452 F2500.000
G1 X15.893 Y6.148 Z8.454 F2500.000
G1 X15.940 Y5.997 Z8.496 F2500.000
G1 X16.920 Y5.997 Z9.281 F2500.000
G1 X17.900 Y5.997 Z10.013 F2500.000
G1 X18.879 Y5.997 Z10.694 F2500.000
G1 X19.859 Y5.997 Z11.327 F2500.000
G1 X20.838 Y5.997 Z11.915 F2500.000
G1 X21.818 Y5.997 Z12.459 F2500.000
G1 X22.797 Y5.997 Z12.963 F2500.000
G1 X23.777 Y5.997 Z13.428 F2500.000
G1 X24.757 Y5.997 Z13.858 F2500.000
G1 X25.736 Y5.997 Z14.250 F2500.000
G1 X26.716 Y5.997 Z14.610 F2500.000
G1 X27.695 Y5.997 Z14.937 F2500.000
G1 X28.675 Y5.997 Z15.233 F2500.000
G1 X29.655 Y5.997 Z15.499 F2500.000
G1 X30.634 Y5.997 Z15.737 F2500.000
G1 X31.614 Y5.997 Z15.948 F2500.000
G1 X32.593 Y5.997 Z16.131 F2500.000
G1 X33.573 Y5.997 Z16.290 F2500.000
G1 X34.553 Y5.997 Z16.422 F2500.000
G1 X35.532 Y5.997 Z16.533 F2500.000
G1 X36.512 Y5.997 Z16.618 F2500.000
G1 X37.491 Y5.997 Z16.683 F2500.000
G1 X38.471 Y5.997 Z16.724 F2500.000
G1 X39.451 Y5.997 Z16.747 F2500.000
G1 X40.430 Y5.997 Z16.748 F2500.000
G1 X41.410 Y5.997 Z16.729 F2500.000
G1 X42.389 Y5.997 Z16.689 F2500.000
G1 X43.369 Y5.997 Z16.627 F2500.000
G1 X44.348 Y5.997 Z16.544 F2500.000
G1 X45.328 Y5.997 Z16.436 F2500.000
G1 X46.308 Y5.997 Z16.307 F2500.000
G1 X47.287 Y5.997 Z16.152 F2500.000
G1 X48.267 Y5.997 Z15.972 F2500.000
G1 X49.246 Y5.997 Z15.764 F2500.000
G1 X50.226 Y5.997 Z15.530 F2500.000
G1 X51.206 Y5.997 Z15.267 F2500.000
G1 X52.185 Y5.997 Z14.975 F2500.000
G1 X53.165 Y5.997 Z14.651 F2500.000
G1 X54.144 Y5.997 Z14.296 F2500.000
G1 X55.124 Y5.997 Z13.908 F2500.000
G1 X56.104 Y5.997 Z13.482 F2500.000
G1 X57.083 Y5.997 Z13.023 F2500.000
G1 X58.063 Y5.997 Z12.522 F2500.000
G1 X59.042 Y5.997 Z11.983 F2500.000
G1 X60.022 Y5.997 Z11.401 F2500.000
G1 X61.002 Y5.997 Z10.773 F2500.000
G1 X61.981 Y5.997 Z10.099 F2500.000
G1 X62.961 Y5.997 Z9.373 F2500.000
G1 X63.940 Y5.997 Z8.595 F2500.000
G1 X64.109 Y6.028 Z8.454 F2500.000
G1 X63.337 Y56.222 Z8.348 F2500.000
G1 X62.454 Y113.616 Z8.214 F2500.000
G1 X61.494 Y176.008 Z8.056 F2500.000
G1 X60.594 Y234.532 Z7.897 F2500.000
(Break)
G0 Z19.770
G0 X61.480 Y235.432
(part 55.)
G1 X61.480 Y235.432 Z7.222 F2500.000
G1 X60.485 Y235.432 Z7.963 F2500.000
G1 X59.490 Y235.432 Z8.653 F2500.000
G1 X58.494 Y235.432 Z9.296 F2500.000
G1 X57.499 Y235.432 Z9.896 F2500.000
G1 X56.504 Y235.432 Z10.454 F2500.000
G1 X55.508 Y235.432 Z10.975 F2500.000
G1 X54.513 Y235.432 Z11.459 F2500.000
G1 X53.518 Y235.432 Z11.908 F2500.000
G1 X52.522 Y235.432 Z12.324 F2500.000
G1 X51.527 Y235.432 Z12.707 F2500.000
G1 X50.531 Y235.432 Z13.058 F2500.000
G1 X49.536 Y235.432 Z13.375 F2500.000
G1 X48.541 Y235.432 Z13.663 F2500.000
G1 X47.545 Y235.432 Z13.919 F2500.000
G1 X46.550 Y235.432 Z14.144 F2500.000
G1 X45.555 Y235.432 Z14.337 F2500.000
G1 X44.559 Y235.432 Z14.501 F2500.000
G1 X43.564 Y235.432 Z14.631 F2500.000
G1 X42.569 Y235.432 Z14.733 F2500.000
G1 X41.573 Y235.432 Z14.801 F2500.000
G1 X40.578 Y235.432 Z14.836 F2500.000
G1 X39.583 Y235.432 Z14.839 F2500.000
G1 X38.587 Y235.432 Z14.809 F2500.000
G1 X37.592 Y235.432 Z14.746 F2500.000
G1 X36.597 Y235.432 Z14.650 F2500.000
G1 X35.601 Y235.432 Z14.524 F2500.000
G1 X34.606 Y235.432 Z14.365 F2500.000
G1 X33.611 Y235.432 Z14.177 F2500.000
G1 X32.615 Y235.432 Z13.957 F2500.000
G1 X31.620 Y235.432 Z13.706 F2500.000
G1 X30.624 Y235.432 Z13.423 F2500.000
G1 X29.629 Y235.432 Z13.110 F2500.000
G1 X28.634 Y235.432 Z12.765 F2500.000
G1 X27.638 Y235.432 Z12.388 F2500.000
G1 X26.643 Y235.432 Z11.978 F2500.000
G1 X25.648 Y235.432 Z11.535 F2500.000
G1 X24.652 Y235.432 Z11.055 F2500.000
G1 X23.657 Y235.432 Z10.541 F2500.000
G1 X22.662 Y235.432 Z9.989 F2500.000
G1 X21.666 Y235.432 Z9.395 F2500.000
G1 X20.671 Y235.432 Z8.759 F2500.000
G1 X19.676 Y235.432 Z8.078 F2500.000
G1 X18.680 Y235.432 Z7.345 F2500.000
G1 X18.519 Y235.393 Z7.223 F2500.000
G1 X17.624 Y177.200 Z7.357 F2500.000
G1 X16.741 Y119.807 Z7.478 F2500.000
G1 X15.867 Y63.014 Z7.585 F2500.000
G1 X14.978 Y5.220 Z7.681 F2500.000
G1 X15.054 Y5.098 Z7.750 F2500.000
G1 X16.050 Y5.098 Z8.600 F2500.000
G1 X17.046 Y5.098 Z9.391 F2500.000
G1 X18.042 Y5.098 Z10.127 F2500.000
G1 X19.038 Y5.098 Z10.811 F2500.000
G1 X20.034 Y5.098 Z11.446 F2500.000
G1 X21.030 Y5.098 Z12.036 F2500.000
G1 X22.026 Y5.098 Z12.582 F2500.000
G1 X23.022 Y5.098 Z13.084 F2500.000
G1 X24.018 Y5.098 Z13.549 F2500.000
G1 X25.014 Y5.098 Z13.975 F2500.000
G1 X26.010 Y5.098 Z14.365 F2500.000
G1 X27.006 Y5.098 Z14.720 F2500.000
G1 X28.002 Y5.098 Z15.043 F2500.000
G1 X28.998 Y5.098 Z15.334 F2500.000
G1 X29.994 Y5.098 Z15.594 F2500.000
G1 X30.990 Y5.098 Z15.826 F2500.000
G1 X31.986 Y5.098 Z16.030 F2500.000
G1 X32.982 Y5.098 Z16.206 F2500.000
G1 X33.978 Y5.098 Z16.356 F2500.000
G1 X34.974 Y5.098 Z16.481 F2500.000
G1 X35.970 Y5.098 Z16.581 F2500.000
G1 X36.966 Y5.098 Z16.659 F2500.000
G1 X37.962 Y5.098 Z16.714 F2500.000
G1 X38.958 Y5.098 Z16.746 F2500.000
G1 X39.954 Y5.098 Z16.757 F2500.000
G1 X40.950 Y5.098 Z16.748 F2500.000
G1 X41.946 Y5.098 Z16.716 F2500.000
G1 X42.942 Y5.098 Z16.665 F2500.000
G1 X43.938 Y5.098 Z16.589 F2500.000
G1 X44.934 Y5.098 Z16.491 F2500.000
G1 X45.930 Y5.098 Z16.369 F2500.000
G1 X46.926 Y5.098 Z16.221 F2500.000
G1 X47.922 Y5.098 Z16.047 F2500.000
G1 X48.918 Y5.098 Z15.846 F2500.000
G1 X49.914 Y5.098 Z15.617 F2500.000
G1 X50.910 Y5.098 Z15.359 F2500.000
G1 X51.906 Y5.098 Z15.071 F2500.000
G1 X52.902 Y5.098 Z14.752 F2500.000
G1 X53.898 Y5.098 Z14.400 F2500.000
G1 X54.894 Y5.098 Z14.012 F2500.000
G1 X55.890 Y5.098 Z13.590 F2500.000
G1 X56.886 Y5.098 Z13.129 F2500.000
G1 X57.882 Y5.098 Z12.630 F2500.000
G1 X58.878 Y5.098 Z12.089 F2500.000
G1 X59.874 Y5.098 Z11.503 F2500.000
G1 X60.870 Y5.098 Z10.873 F2500.000
G1 X61.866 Y5.098 Z10.193 F2500.000
G1 X62.862 Y5.098 Z9.462 F2500.000
G1 X63.858 Y5.098 Z8.676 F2500.000
G1 X64.854 Y5.098 Z7.830 F2500.000
G1 X65.023 Y5.128 Z7.681 F2500.000
G1 X64.134 Y62.921 Z7.585 F2500.000
G1 X63.279 Y118.514 Z7.480 F2500.000
G1 X62.378 Y177.107 Z7.357 F2500.000
G1 X61.480 Y235.432 Z7.222 F2500.000
(Break)
G0 Z19.770
G0 X62.367 Y236.332
(part 57.)
G1 X62.367 Y236.332 Z6.503 F2500.000
G1 X61.375 Y236.332 Z7.291 F2500.000
G1 X60.384 Y236.332 Z8.023 F2500.000
G1 X59.393 Y236.332 Z8.705 F2500.000
G1 X58.402 Y236.332 Z9.340 F2500.000
G1 X57.411 Y236.332 Z9.934 F2500.000
G1 X56.420 Y236.332 Z10.488 F2500.000
G1 X55.429 Y236.332 Z11.005 F2500.000
G1 X54.438 Y236.332 Z11.485 F2500.000
G1 X53.447 Y236.332 Z11.929 F2500.000
G1 X52.455 Y236.332 Z12.342 F2500.000
G1 X51.464 Y236.332 Z12.720 F2500.000
G1 X50.473 Y236.332 Z13.067 F2500.000
G1 X49.482 Y236.332 Z13.383 F2500.000
G1 X48.491 Y236.332 Z13.667 F2500.000
G1 X47.500 Y236.332 Z13.920 F2500.000
G1 X46.509 Y236.332 Z14.143 F2500.000
G1 X45.518 Y236.332 Z14.336 F2500.000
G1 X44.527 Y236.332 Z14.497 F2500.000
G1 X43.535 Y236.332 Z14.628 F2500.000
G1 X42.544 Y236.332 Z14.727 F2500.000
G1 X41.553 Y236.332 Z14.794 F2500.000
G1 X40.562 Y236.332 Z14.829 F2500.000
G1 X39.571 Y236.332 Z14.830 F2500.000
G1 X38.580 Y236.332 Z14.801 F2500.000
G1 X37.589 Y236.332 Z14.738 F2500.000
G1 X36.598 Y236.332 Z14.643 F2500.000
G1 X35.607 Y236.332 Z14.517 F2500.000
G1 X34.615 Y236.332 Z14.360 F2500.000
G1 X33.624 Y236.332 Z14.171 F2500.000
G1 X32.633 Y236.332 Z13.952 F2500.000
G1 X31.642 Y236.332 Z13.703 F2500.000
G1 X30.651 Y236.332 Z13.423 F2500.000
G1 X29.660 Y236.332 Z13.111 F2500.000
G1 X28.669 Y236.332 Z12.768 F2500.000
G1 X27.678 Y236.332 Z12.394 F2500.000
G1 X26.687 Y236.332 Z11.986 F2500.000
G1 X25.695 Y236.332 Z11.546 F2500.000
G1 X24.704 Y236.332 Z11.071 F2500.000
G1 X23.713 Y236.332 Z10.560 F2500.000
G1 X22.722 Y236.332 Z10.011 F2500.000
G1 X21.731 Y236.332 Z9.422 F2500.000
G1 X20.740 Y236.332 Z8.792 F2500.000
G1 X19.749 Y236.332 Z8.117 F2500.000
G1 X18.758 Y236.332 Z7.392 F2500.000
G1 X17.767 Y236.332 Z6.613 F2500.000
G1 X17.632 Y236.266 Z6.503 F2500.000
G1 X16.725 Y177.273 Z6.612 F2500.000
G1 X15.848 Y120.279 Z6.705 F2500.000
G1 X14.879 Y57.287 Z6.793 F2500.000
G1 X14.073 Y4.893 Z6.853 F2500.000
G1 X14.064 Y4.293 Z6.855 F2500.000
G1 X14.167 Y4.197 Z6.952 F2500.000
G1 X15.159 Y4.197 Z7.856 F2500.000
G1 X16.152 Y4.197 Z8.697 F2500.000
G1 X17.144 Y4.197 Z9.479 F2500.000
G1 X18.136 Y4.197 Z10.208 F2500.000
G1 X19.128 Y4.197 Z10.884 F2500.000
G1 X20.121 Y4.197 Z11.513 F2500.000
G1 X21.113 Y4.197 Z12.095 F2500.000
G1 X22.105 Y4.197 Z12.634 F2500.000
G1 X23.098 Y4.197 Z13.133 F2500.000
G1 X24.090 Y4.197 Z13.591 F2500.000
G1 X25.082 Y4.197 Z14.013 F2500.000
G1 X26.075 Y4.197 Z14.400 F2500.000
G1 X27.067 Y4.197 Z14.751 F2500.000
G1 X28.059 Y4.197 Z15.070 F2500.000
G1 X29.052 Y4.197 Z15.358 F2500.000
G1 X30.044 Y4.197 Z15.616 F2500.000
G1 X31.036 Y4.197 Z15.845 F2500.000
G1 X32.028 Y4.197 Z16.046 F2500.000
G1 X33.021 Y4.197 Z16.219 F2500.000
G1 X34.013 Y4.197 Z16.369 F2500.000
G1 X35.005 Y4.197 Z16.492 F2500.000
G1 X35.998 Y4.197 Z16.591 F2500.000
G1 X36.990 Y4.197 Z16.668 F2500.000
G1 X37.982 Y4.197 Z16.722 F2500.000
G1 X38.975 Y4.197 Z16.754 F2500.000
G1 X39.967 Y4.197 Z16.765 F2500.000
G1 X40.959 Y4.197 Z16.755 F2500.000
G1 X41.952 Y4.197 Z16.725 F2500.000
G1 X42.944 Y4.197 Z16.672 F2500.000
G1 X43.936 Y4.197 Z16.597 F2500.000
G1 X44.928 Y4.197 Z16.499 F2500.000
G1 X45.921 Y4.197 Z16.378 F2500.000
G1 X46.913 Y4.197 Z16.230 F2500.000
G1 X47.905 Y4.197 Z16.058 F2500.000
G1 X48.898 Y4.197 Z15.859 F2500.000
G1 X49.890 Y4.197 Z15.632 F2500.000
G1 X50.882 Y4.197 Z15.376 F2500.000
G1 X51.875 Y4.197 Z15.091 F2500.000
G1 X52.867 Y4.197 Z14.773 F2500.000
G1 X53.859 Y4.197 Z14.424 F2500.000
G1 X54.852 Y4.197 Z14.040 F2500.000
G1 X55.844 Y4.197 Z13.620 F2500.000
G1 X56.836 Y4.197 Z13.165 F2500.000
G1 X57.828 Y4.197 Z12.668 F2500.000
G1 X58.821 Y4.197 Z12.132 F2500.000
G1 X59.813 Y4.197 Z11.553 F2500.000
G1 X60.805 Y4.197 Z10.928 F2500.000
G1 X61.798 Y4.197 Z10.254 F2500.000
G1 X62.790 Y4.197 Z9.529 F2500.000
G1 X63.782 Y4.197 Z8.751 F2500.000
G1 X64.775 Y4.197 Z7.914 F2500.000
G1 X65.767 Y4.197 Z7.016 F2500.000
G1 X65.937 Y4.227 Z6.855 F2500.000
G1 X65.119 Y57.421 Z6.793 F2500.000
G1 X64.174 Y118.813 Z6.707 F2500.000
G1 X63.482 Y163.808 Z6.635 F2500.000
G1 X63.307 Y175.207 Z6.613 F2500.000
G1 X63.276 Y177.207 Z6.612 F2500.000
G1 X62.367 Y236.332 Z6.503 F2500.000
(Break)
G0 Z19.770
G0 X63.253 Y237.232
(part 59.)
G1 X63.253 Y237.232 Z5.733 F2500.000
G1 X62.266 Y237.232 Z6.573 F2500.000
G1 X61.278 Y237.232 Z7.352 F2500.000
G1 X60.291 Y237.232 Z8.077 F2500.000
G1 X59.304 Y237.232 Z8.752 F2500.000
G1 X58.317 Y237.232 Z9.383 F2500.000
G1 X57.329 Y237.232 Z9.970 F2500.000
G1 X56.342 Y237.232 Z10.519 F2500.000
G1 X55.355 Y237.232 Z11.031 F2500.000
G1 X54.368 Y237.232 Z11.507 F2500.000
G1 X53.380 Y237.232 Z11.948 F2500.000
G1 X52.393 Y237.232 Z12.356 F2500.000
G1 X51.406 Y237.232 Z12.733 F2500.000
G1 X50.419 Y237.232 Z13.077 F2500.000
G1 X49.432 Y237.232 Z13.389 F2500.000
G1 X48.444 Y237.232 Z13.671 F2500.000
G1 X47.457 Y237.232 Z13.923 F2500.000
G1 X46.470 Y237.232 Z14.143 F2500.000
G1 X45.483 Y237.232 Z14.334 F2500.000
G1 X44.495 Y237.232 Z14.495 F2500.000
G1 X43.508 Y237.232 Z14.623 F2500.000
G1 X42.521 Y237.232 Z14.721 F2500.000
G1 X41.534 Y237.232 Z14.787 F2500.000
G1 X40.546 Y237.232 Z14.822 F2500.000
G1 X39.559 Y237.232 Z14.824 F2500.000
G1 X38.572 Y237.232 Z14.792 F2500.000
G1 X37.585 Y237.232 Z14.730 F2500.000
G1 X36.598 Y237.232 Z14.635 F2500.000
G1 X35.610 Y237.232 Z14.510 F2500.000
G1 X34.623 Y237.232 Z14.353 F2500.000
G1 X33.636 Y237.232 Z14.165 F2500.000
G1 X32.649 Y237.232 Z13.948 F2500.000
G1 X31.661 Y237.232 Z13.699 F2500.000
G1 X30.674 Y237.232 Z13.421 F2500.000
G1 X29.687 Y237.232 Z13.111 F2500.000
G1 X28.700 Y237.232 Z12.771 F2500.000
G1 X27.712 Y237.232 Z12.398 F2500.000
G1 X26.725 Y237.232 Z11.994 F2500.000
G1 X25.738 Y237.232 Z11.555 F2500.000
G1 X24.751 Y237.232 Z11.083 F2500.000
G1 X23.763 Y237.232 Z10.575 F2500.000
G1 X22.776 Y237.232 Z10.031 F2500.000
G1 X21.789 Y237.232 Z9.448 F2500.000
G1 X20.802 Y237.232 Z8.821 F2500.000
G1 X19.815 Y237.232 Z8.151 F2500.000
G1 X18.827 Y237.232 Z7.432 F2500.000
G1 X17.840 Y237.232 Z6.660 F2500.000
G1 X16.853 Y237.232 Z5.826 F2500.000
G1 X16.746 Y237.138 Z5.733 F2500.000
G1 X15.832 Y177.745 Z5.813 F2500.000
G1 X14.968 Y121.552 Z5.877 F2500.000
G1 X14.531 Y93.155 Z5.904 F2500.000
G1 X14.494 Y90.755 Z5.903 F2500.000
G1 X14.426 Y86.356 Z5.910 F2500.000
G1 X14.380 Y83.356 Z5.910 F2500.000
G1 X14.309 Y78.757 Z5.917 F2500.000
G1 X14.122 Y66.558 Z5.927 F2500.000
G1 X14.103 Y65.359 Z5.925 F2500.000
G1 X14.057 Y62.359 Z5.931 F2500.000
G1 X13.150 Y3.366 Z5.972 F2500.000
G1 X13.280 Y3.297 Z6.106 F2500.000
G1 X14.269 Y3.297 Z7.061 F2500.000
G1 X15.258 Y3.297 Z7.957 F2500.000
G1 X16.247 Y3.297 Z8.788 F2500.000
G1 X17.236 Y3.297 Z9.562 F2500.000
G1 X18.225 Y3.297 Z10.282 F2500.000
G1 X19.214 Y3.297 Z10.952 F2500.000
G1 X20.202 Y3.297 Z11.574 F2500.000
G1 X21.191 Y3.297 Z12.151 F2500.000
G1 X22.180 Y3.297 Z12.684 F2500.000
G1 X23.169 Y3.297 Z13.179 F2500.000
G1 X24.158 Y3.297 Z13.633 F2500.000
G1 X25.147 Y3.297 Z14.050 F2500.000
G1 X26.136 Y3.297 Z14.432 F2500.000
G1 X27.125 Y3.297 Z14.781 F2500.000
G1 X28.114 Y3.297 Z15.097 F2500.000
G1 X29.102 Y3.297 Z15.382 F2500.000
G1 X30.091 Y3.297 Z15.637 F2500.000
G1 X31.080 Y3.297 Z15.864 F2500.000
G1 X32.069 Y3.297 Z16.063 F2500.000
G1 X33.058 Y3.297 Z16.235 F2500.000
G1 X34.047 Y3.297 Z16.382 F2500.000
G1 X35.036 Y3.297 Z16.504 F2500.000
G1 X36.025 Y3.297 Z16.602 F2500.000
G1 X37.014 Y3.297 Z16.677 F2500.000
G1 X38.002 Y3.297 Z16.730 F2500.000
G1 X38.991 Y3.297 Z16.761 F2500.000
G1 X39.980 Y3.297 Z16.772 F2500.000
G1 X40.969 Y3.297 Z16.763 F2500.000
G1 X41.958 Y3.297 Z16.732 F2500.000
G1 X42.947 Y3.297 Z16.680 F2500.000
G1 X43.936 Y3.297 Z16.605 F2500.000
G1 X44.925 Y3.297 Z16.509 F2500.000
G1 X45.914 Y3.297 Z16.387 F2500.000
G1 X46.902 Y3.297 Z16.241 F2500.000
G1 X47.891 Y3.297 Z16.070 F2500.000
G1 X48.880 Y3.297 Z15.873 F2500.000
G1 X49.869 Y3.297 Z15.647 F2500.000
G1 X50.858 Y3.297 Z15.392 F2500.000
G1 X51.847 Y3.297 Z15.109 F2500.000
G1 X52.836 Y3.297 Z14.794 F2500.000
G1 X53.825 Y3.297 Z14.447 F2500.000
G1 X54.814 Y3.297 Z14.066 F2500.000
G1 X55.802 Y3.297 Z13.650 F2500.000
G1 X56.791 Y3.297 Z13.197 F2500.000
G1 X57.780 Y3.297 Z12.705 F2500.000
G1 X58.769 Y3.297 Z12.173 F2500.000
G1 X59.758 Y3.297 Z11.598 F2500.000
G1 X60.747 Y3.297 Z10.977 F2500.000
G1 X61.736 Y3.297 Z10.310 F2500.000
G1 X62.725 Y3.297 Z9.591 F2500.000
G1 X63.714 Y3.297 Z8.819 F2500.000
G1 X64.702 Y3.297 Z7.991 F2500.000
G1 X65.691 Y3.297 Z7.100 F2500.000
G1 X66.680 Y3.297 Z6.145 F2500.000
G1 X66.851 Y3.326 Z5.973 F2500.000
G1 X65.943 Y62.319 Z5.931 F2500.000
G1 X65.005 Y123.312 Z5.875 F2500.000
G1 X64.162 Y178.106 Z5.813 F2500.000
G1 X63.253 Y237.232 Z5.733 F2500.000
(Break)
G0 Z19.770
G0 X64.139 Y238.132
(part 61.)
G1 X64.139 Y238.132 Z4.905 F2500.000
G1 X63.155 Y238.132 Z5.803 F2500.000
G1 X62.172 Y238.132 Z6.636 F2500.000
G1 X61.188 Y238.132 Z7.406 F2500.000
G1 X60.204 Y238.132 Z8.125 F2500.000
G1 X59.221 Y238.132 Z8.795 F2500.000
G1 X58.237 Y238.132 Z9.420 F2500.000
G1 X57.253 Y238.132 Z10.003 F2500.000
G1 X56.270 Y238.132 Z10.547 F2500.000
G1 X55.286 Y238.132 Z11.053 F2500.000
G1 X54.302 Y238.132 Z11.527 F2500.000
G1 X53.319 Y238.132 Z11.964 F2500.000
G1 X52.335 Y238.132 Z12.370 F2500.000
G1 X51.351 Y238.132 Z12.742 F2500.000
G1 X50.368 Y238.132 Z13.084 F2500.000
G1 X49.384 Y238.132 Z13.395 F2500.000
G1 X48.400 Y238.132 Z13.674 F2500.000
G1 X47.417 Y238.132 Z13.923 F2500.000
G1 X46.433 Y238.132 Z14.144 F2500.000
G1 X45.449 Y238.132 Z14.332 F2500.000
G1 X44.466 Y238.132 Z14.490 F2500.000
G1 X43.482 Y238.132 Z14.619 F2500.000
G1 X42.498 Y238.132 Z14.716 F2500.000
G1 X41.515 Y238.132 Z14.781 F2500.000
G1 X40.531 Y238.132 Z14.815 F2500.000
G1 X39.547 Y238.132 Z14.816 F2500.000
G1 X38.564 Y238.132 Z14.785 F2500.000
G1 X37.580 Y238.132 Z14.722 F2500.000
G1 X36.596 Y238.132 Z14.628 F2500.000
G1 X35.613 Y238.132 Z14.502 F2500.000
G1 X34.629 Y238.132 Z14.346 F2500.000
G1 X33.645 Y238.132 Z14.160 F2500.000
G1 X32.662 Y238.132 Z13.942 F2500.000
G1 X31.678 Y238.132 Z13.695 F2500.000
G1 X30.694 Y238.132 Z13.418 F2500.000
G1 X29.711 Y238.132 Z13.110 F2500.000
G1 X28.727 Y238.132 Z12.771 F2500.000
G1 X27.743 Y238.132 Z12.401 F2500.000
G1 X26.760 Y238.132 Z11.998 F2500.000
G1 X25.776 Y238.132 Z11.562 F2500.000
G1 X24.792 Y238.132 Z11.092 F2500.000
G1 X23.808 Y238.132 Z10.589 F2500.000
G1 X22.825 Y238.132 Z10.048 F2500.000
G1 X21.841 Y238.132 Z9.468 F2500.000
G1 X20.857 Y238.132 Z8.846 F2500.000
G1 X19.874 Y238.132 Z8.180 F2500.000
G1 X18.890 Y238.132 Z7.466 F2500.000
G1 X17.906 Y238.132 Z6.699 F2500.000
G1 X16.923 Y238.132 Z5.871 F2500.000
G1 X15.939 Y238.132 Z4.980 F2500.000
G1 X15.859 Y238.011 Z4.905 F2500.000
G1 X15.241 Y197.815 Z4.940 F2500.000
G1 X15.087 Y187.817 Z4.948 F2500.000
G1 X15.072 Y186.817 Z4.946 F2500.000
G1 X15.022 Y183.617 Z4.951 F2500.000
G1 X14.183 Y129.024 Z4.985 F2500.000
G1 X14.032 Y119.225 Z4.991 F2500.000
G1 X14.016 Y118.225 Z4.988 F2500.000
G1 X13.995 Y116.825 Z4.992 F2500.000
G1 X13.463 Y82.229 Z5.007 F2500.000
G1 X13.140 Y61.232 Z5.013 F2500.000
G1 X13.097 Y58.432 Z5.016 F2500.000
G1 X12.235 Y2.439 Z5.031 F2500.000
G1 X12.394 Y2.397 Z5.202 F2500.000
G1 X13.379 Y2.397 Z6.219 F2500.000
G1 X14.365 Y2.397 Z7.165 F2500.000
G1 X15.351 Y2.397 Z8.050 F2500.000
G1 X16.336 Y2.397 Z8.873 F2500.000
G1 X17.322 Y2.397 Z9.639 F2500.000
G1 X18.308 Y2.397 Z10.351 F2500.000
G1 X19.294 Y2.397 Z11.017 F2500.000
G1 X20.279 Y2.397 Z11.633 F2500.000
G1 X21.265 Y2.397 Z12.204 F2500.000
G1 X22.251 Y2.397 Z12.733 F2500.000
G1 X23.236 Y2.397 Z13.221 F2500.000
G1 X24.222 Y2.397 Z13.671 F2500.000
G1 X25.208 Y2.397 Z14.084 F2500.000
G1 X26.194 Y2.397 Z14.464 F2500.000
G1 X27.179 Y2.397 Z14.809 F2500.000
G1 X28.165 Y2.397 Z15.122 F2500.000
G1 X29.151 Y2.397 Z15.405 F2500.000
G1 X30.136 Y2.397 Z15.658 F2500.000
G1 X31.122 Y2.397 Z15.882 F2500.000
G1 X32.108 Y2.397 Z16.078 F2500.000
G1 X33.094 Y2.397 Z16.250 F2500.000
G1 X34.079 Y2.397 Z16.394 F2500.000
G1 X35.065 Y2.397 Z16.515 F2500.000
G1 X36.051 Y2.397 Z16.613 F2500.000
G1 X37.036 Y2.397 Z16.687 F2500.000
G1 X38.022 Y2.397 Z16.739 F2500.000
G1 X39.008 Y2.397 Z16.770 F2500.000
G1 X39.994 Y2.397 Z16.779 F2500.000
G1 X40.979 Y2.397 Z16.770 F2500.000
G1 X41.965 Y2.397 Z16.740 F2500.000
G1 X42.951 Y2.397 Z16.688 F2500.000
G1 X43.936 Y2.397 Z16.614 F2500.000
G1 X44.922 Y2.397 Z16.517 F2500.000
G1 X45.908 Y2.397 Z16.396 F2500.000
G1 X46.894 Y2.397 Z16.252 F2500.000
G1 X47.879 Y2.397 Z16.080 F2500.000
G1 X48.865 Y2.397 Z15.885 F2500.000
G1 X49.851 Y2.397 Z15.661 F2500.000
G1 X50.836 Y2.397 Z15.408 F2500.000
G1 X51.822 Y2.397 Z15.126 F2500.000
G1 X52.808 Y2.397 Z14.814 F2500.000
G1 X53.794 Y2.397 Z14.469 F2500.000
G1 X54.779 Y2.397 Z14.089 F2500.000
G1 X55.765 Y2.397 Z13.677 F2500.000
G1 X56.751 Y2.397 Z13.227 F2500.000
G1 X57.736 Y2.397 Z12.740 F2500.000
G1 X58.722 Y2.397 Z12.211 F2500.000
G1 X59.708 Y2.397 Z11.641 F2500.000
G1 X60.694 Y2.397 Z11.025 F2500.000
G1 X61.679 Y2.397 Z10.361 F2500.000
G1 X62.665 Y2.397 Z9.649 F2500.000
G1 X63.651 Y2.397 Z8.884 F2500.000
G1 X64.636 Y2.397 Z8.061 F2500.000
G1 X65.622 Y2.397 Z7.178 F2500.000
G1 X66.608 Y2.397 Z6.231 F2500.000
G1 X67.594 Y2.397 Z5.215 F2500.000
G1 X67.765 Y2.426 Z5.031 F2500.000
G1 X66.919 Y57.419 Z5.017 F2500.000
G1 X66.894 Y59.019 Z5.013 F2500.000
G1 X66.885 Y59.619 Z5.016 F2500.000
G1 X65.895 Y124.011 Z4.988 F2500.000
G1 X64.981 Y183.404 Z4.951 F2500.000
G1 X64.139 Y238.132 Z4.905 F2500.000
(Break)
G0 Z19.770
G0 X65.025 Y239.032
(part 63.)
G1 X65.025 Y239.032 Z4.011 F2500.000
G1 X64.045 Y239.032 Z4.981 F2500.000
G1 X63.065 Y239.032 Z5.871 F2500.000
G1 X62.084 Y239.032 Z6.694 F2500.000
G1 X61.104 Y239.032 Z7.459 F2500.000
G1 X60.123 Y239.032 Z8.170 F2500.000
G1 X59.143 Y239.032 Z8.834 F2500.000
G1 X58.163 Y239.032 Z9.454 F2500.000
G1 X57.182 Y239.032 Z10.031 F2500.000
G1 X56.202 Y239.032 Z10.571 F2500.000
G1 X55.221 Y239.032 Z11.075 F2500.000
G1 X54.241 Y239.032 Z11.543 F2500.000
G1 X53.261 Y239.032 Z11.979 F2500.000
G1 X52.280 Y239.032 Z12.382 F2500.000
G1 X51.300 Y239.032 Z12.751 F2500.000
G1 X50.319 Y239.032 Z13.091 F2500.000
G1 X49.339 Y239.032 Z13.398 F2500.000
G1 X48.359 Y239.032 Z13.676 F2500.000
G1 X47.378 Y239.032 Z13.923 F2500.000
G1 X46.398 Y239.032 Z14.143 F2500.000
G1 X45.418 Y239.032 Z14.329 F2500.000
G1 X44.437 Y239.032 Z14.487 F2500.000
G1 X43.457 Y239.032 Z14.614 F2500.000
G1 X42.476 Y239.032 Z14.710 F2500.000
G1 X41.496 Y239.032 Z14.774 F2500.000
G1 X40.516 Y239.032 Z14.806 F2500.000
G1 X39.535 Y239.032 Z14.808 F2500.000
G1 X38.555 Y239.032 Z14.777 F2500.000
G1 X37.574 Y239.032 Z14.714 F2500.000
G1 X36.594 Y239.032 Z14.620 F2500.000
G1 X35.614 Y239.032 Z14.495 F2500.000
G1 X34.633 Y239.032 Z14.338 F2500.000
G1 X33.653 Y239.032 Z14.153 F2500.000
G1 X32.672 Y239.032 Z13.935 F2500.000
G1 X31.692 Y239.032 Z13.689 F2500.000
G1 X30.712 Y239.032 Z13.413 F2500.000
G1 X29.731 Y239.032 Z13.107 F2500.000
G1 X28.751 Y239.032 Z12.770 F2500.000
G1 X27.770 Y239.032 Z12.402 F2500.000
G1 X26.790 Y239.032 Z12.001 F2500.000
G1 X25.810 Y239.032 Z11.567 F2500.000
G1 X24.829 Y239.032 Z11.100 F2500.000
G1 X23.849 Y239.032 Z10.598 F2500.000
G1 X22.868 Y239.032 Z10.060 F2500.000
G1 X21.888 Y239.032 Z9.485 F2500.000
G1 X20.908 Y239.032 Z8.867 F2500.000
G1 X19.927 Y239.032 Z8.206 F2500.000
G1 X18.947 Y239.032 Z7.497 F2500.000
G1 X17.967 Y239.032 Z6.734 F2500.000
G1 X16.986 Y239.032 Z5.915 F2500.000
G1 X16.006 Y239.032 Z5.029 F2500.000
G1 X15.025 Y239.032 Z4.063 F2500.000
G1 X14.972 Y238.883 Z4.011 F2500.000
G1 X14.191 Y188.089 Z4.026 F2500.000
G1 X13.339 Y132.696 Z4.033 F2500.000
G1 X13.244 Y126.497 Z4.031 F2500.000
G1 X13.139 Y119.697 Z4.034 F2500.000
G1 X13.096 Y116.898 Z4.031 F2500.000
G1 X13.087 Y116.298 Z4.034 F2500.000
G1 X13.053 Y114.098 Z4.031 F2500.000
G1 X12.957 Y107.899 Z4.034 F2500.000
G1 X12.941 Y106.799 Z4.031 F2500.000
G1 X12.899 Y104.099 Z4.034 F2500.000
G1 X12.307 Y65.604 Z4.033 F2500.000
G1 X12.271 Y63.304 Z4.030 F2500.000
G1 X12.231 Y60.704 Z4.033 F2500.000
G1 X11.321 Y1.511 Z4.026 F2500.000
G1 X11.507 Y1.498 Z4.239 F2500.000
G1 X12.507 Y1.498 Z5.337 F2500.000
G1 X13.507 Y1.498 Z6.360 F2500.000
G1 X14.507 Y1.498 Z7.312 F2500.000
G1 X15.507 Y1.498 Z8.198 F2500.000
G1 X16.507 Y1.498 Z9.022 F2500.000
G1 X17.507 Y1.498 Z9.790 F2500.000
G1 X18.507 Y1.498 Z10.502 F2500.000
G1 X19.507 Y1.498 Z11.166 F2500.000
G1 X20.507 Y1.498 Z11.781 F2500.000
G1 X21.507 Y1.498 Z12.350 F2500.000
G1 X22.507 Y1.498 Z12.874 F2500.000
G1 X23.507 Y1.498 Z13.359 F2500.000
G1 X24.507 Y1.498 Z13.805 F2500.000
G1 X25.507 Y1.498 Z14.214 F2500.000
G1 X26.507 Y1.498 Z14.588 F2500.000
G1 X27.507 Y1.498 Z14.927 F2500.000
G1 X28.507 Y1.498 Z15.234 F2500.000
G1 X29.507 Y1.498 Z15.508 F2500.000
G1 X30.507 Y1.498 Z15.754 F2500.000
G1 X31.507 Y1.498 Z15.971 F2500.000
G1 X32.507 Y1.498 Z16.160 F2500.000
G1 X33.507 Y1.498 Z16.321 F2500.000
G1 X34.507 Y1.498 Z16.458 F2500.000
G1 X35.507 Y1.498 Z16.570 F2500.000
G1 X36.507 Y1.498 Z16.658 F2500.000
G1 X37.507 Y1.498 Z16.720 F2500.000
G1 X38.507 Y1.498 Z16.763 F2500.000
G1 X39.507 Y1.498 Z16.784 F2500.000
G1 X40.507 Y1.498 Z16.784 F2500.000
G1 X41.507 Y1.498 Z16.764 F2500.000
G1 X42.507 Y1.498 Z16.720 F2500.000
G1 X43.507 Y1.498 Z16.657 F2500.000
G1 X44.507 Y1.498 Z16.569 F2500.000
G1 X45.507 Y1.498 Z16.456 F2500.000
G1 X46.507 Y1.498 Z16.319 F2500.000
G1 X47.507 Y1.498 Z16.157 F2500.000
G1 X48.507 Y1.498 Z15.967 F2500.000
G1 X49.507 Y1.498 Z15.751 F2500.000
G1 X50.507 Y1.498 Z15.505 F2500.000
G1 X51.507 Y1.498 Z15.230 F2500.000
G1 X52.507 Y1.498 Z14.923 F2500.000
G1 X53.507 Y1.498 Z14.583 F2500.000
G1 X54.507 Y1.498 Z14.208 F2500.000
G1 X55.507 Y1.498 Z13.799 F2500.000
G1 X56.507 Y1.498 Z13.353 F2500.000
G1 X57.507 Y1.498 Z12.867 F2500.000
G1 X58.507 Y1.498 Z12.342 F2500.000
G1 X59.507 Y1.498 Z11.773 F2500.000
G1 X60.507 Y1.498 Z11.157 F2500.000
G1 X61.507 Y1.498 Z10.492 F2500.000
G1 X62.507 Y1.498 Z9.779 F2500.000
G1 X63.507 Y1.498 Z9.011 F2500.000
G1 X64.507 Y1.498 Z8.186 F2500.000
G1 X65.507 Y1.498 Z7.299 F2500.000
G1 X66.507 Y1.498 Z6.346 F2500.000
G1 X67.507 Y1.498 Z5.323 F2500.000
G1 X68.507 Y1.498 Z4.224 F2500.000
G1 X68.679 Y1.525 Z4.026 F2500.000
G1 X68.593 Y7.124 Z4.024 F2500.000
G1 X68.507 Y12.724 Z4.028 F2500.000
G1 X67.876 Y53.719 Z4.032 F2500.000
G1 X67.848 Y55.519 Z4.029 F2500.000
G1 X67.778 Y60.118 Z4.033 F2500.000
G1 X67.521 Y76.816 Z4.034 F2500.000
G1 X66.661 Y132.710 Z4.033 F2500.000
G1 X65.806 Y188.303 Z4.026 F2500.000
G1 X65.025 Y239.032 Z4.011 F2500.000
(Break)
G0 Z19.770
G0 X65.912 Y239.932
(part 65.)
G1 X65.912 Y239.932 Z3.038 F2500.000
G1 X64.915 Y239.932 Z4.110 F2500.000
G1 X63.919 Y239.932 Z5.085 F2500.000
G1 X62.923 Y239.932 Z5.980 F2500.000
G1 X61.927 Y239.932 Z6.808 F2500.000
G1 X60.931 Y239.932 Z7.575 F2500.000
G1 X59.935 Y239.932 Z8.289 F2500.000
G1 X58.939 Y239.932 Z8.955 F2500.000
G1 X57.942 Y239.932 Z9.574 F2500.000
G1 X56.946 Y239.932 Z10.154 F2500.000
G1 X55.950 Y239.932 Z10.694 F2500.000
G1 X54.954 Y239.932 Z11.197 F2500.000
G1 X53.958 Y239.932 Z11.663 F2500.000
G1 X52.962 Y239.932 Z12.096 F2500.000
G1 X51.965 Y239.932 Z12.494 F2500.000
G1 X50.969 Y239.932 Z12.860 F2500.000
G1 X49.973 Y239.932 Z13.194 F2500.000
G1 X48.977 Y239.932 Z13.497 F2500.000
G1 X47.981 Y239.932 Z13.768 F2500.000
G1 X46.985 Y239.932 Z14.007 F2500.000
G1 X45.989 Y239.932 Z14.216 F2500.000
G1 X44.992 Y239.932 Z14.393 F2500.000
G1 X43.996 Y239.932 Z14.540 F2500.000
G1 X43.000 Y239.932 Z14.653 F2500.000
G1 X42.004 Y239.932 Z14.737 F2500.000
G1 X41.008 Y239.932 Z14.787 F2500.000
G1 X40.012 Y239.932 Z14.805 F2500.000
G1 X39.015 Y239.932 Z14.788 F2500.000
G1 X38.019 Y239.932 Z14.738 F2500.000
G1 X37.023 Y239.932 Z14.656 F2500.000
G1 X36.027 Y239.932 Z14.543 F2500.000
G1 X35.031 Y239.932 Z14.397 F2500.000
G1 X34.035 Y239.932 Z14.220 F2500.000
G1 X33.039 Y239.932 Z14.013 F2500.000
G1 X32.042 Y239.932 Z13.774 F2500.000
G1 X31.046 Y239.932 Z13.503 F2500.000
G1 X30.050 Y239.932 Z13.201 F2500.000
G1 X29.054 Y239.932 Z12.869 F2500.000
G1 X28.058 Y239.932 Z12.503 F2500.000
G1 X27.062 Y239.932 Z12.105 F2500.000
G1 X26.065 Y239.932 Z11.674 F2500.000
G1 X25.069 Y239.932 Z11.208 F2500.000
G1 X24.073 Y239.932 Z10.706 F2500.000
G1 X23.077 Y239.932 Z10.167 F2500.000
G1 X22.081 Y239.932 Z9.588 F2500.000
G1 X21.085 Y239.932 Z8.970 F2500.000
G1 X20.089 Y239.932 Z8.306 F2500.000
G1 X19.092 Y239.932 Z7.593 F2500.000
G1 X18.096 Y239.932 Z6.827 F2500.000
G1 X17.100 Y239.932 Z6.000 F2500.000
G1 X16.104 Y239.932 Z5.106 F2500.000
G1 X15.108 Y239.932 Z4.134 F2500.000
G1 X14.112 Y239.932 Z3.065 F2500.000
G1 X14.086 Y239.756 Z3.038 F2500.000
G1 X14.070 Y238.756 Z3.036 F2500.000
G1 X13.735 Y216.958 Z3.033 F2500.000
G1 X13.664 Y212.359 Z3.029 F2500.000
G1 X13.157 Y179.363 Z3.022 F2500.000
G1 X13.120 Y176.963 Z3.018 F2500.000
G1 X13.101 Y175.763 Z3.021 F2500.000
G1 X12.717 Y150.766 Z3.012 F2500.000
G1 X12.698 Y149.566 Z3.009 F2500.000
G1 X12.677 Y148.167 Z3.011 F2500.000
G1 X10.410 Y0.784 Z2.951 F2500.000
G1 X10.420 Y0.598 Z2.968 F2500.000
G1 X11.420 Y0.598 Z4.156 F2500.000
G1 X12.420 Y0.598 Z5.261 F2500.000
G1 X13.420 Y0.598 Z6.288 F2500.000
G1 X14.420 Y0.598 Z7.246 F2500.000
G1 X15.420 Y0.598 Z8.137 F2500.000
G1 X16.420 Y0.598 Z8.967 F2500.000
G1 X17.420 Y0.598 Z9.739 F2500.000
G1 X18.420 Y0.598 Z10.456 F2500.000
G1 X19.420 Y0.598 Z11.121 F2500.000
G1 X20.420 Y0.598 Z11.741 F2500.000
G1 X21.420 Y0.598 Z12.313 F2500.000
G1 X22.420 Y0.598 Z12.841 F2500.000
G1 X23.420 Y0.598 Z13.331 F2500.000
G1 X24.420 Y0.598 Z13.780 F2500.000
G1 X25.420 Y0.598 Z14.191 F2500.000
G1 X26.420 Y0.598 Z14.567 F2500.000
G1 X27.420 Y0.598 Z14.909 F2500.000
G1 X28.420 Y0.598 Z15.217 F2500.000
G1 X29.420 Y0.598 Z15.496 F2500.000
G1 X30.420 Y0.598 Z15.744 F2500.000
G1 X31.420 Y0.598 Z15.962 F2500.000
G1 X32.420 Y0.598 Z16.153 F2500.000
G1 X33.420 Y0.598 Z16.317 F2500.000
G1 X34.420 Y0.598 Z16.454 F2500.000
G1 X35.420 Y0.598 Z16.569 F2500.000
G1 X36.420 Y0.598 Z16.659 F2500.000
G1 X37.420 Y0.598 Z16.724 F2500.000
G1 X38.420 Y0.598 Z16.769 F2500.000
G1 X39.420 Y0.598 Z16.792 F2500.000
G1 X40.420 Y0.598 Z16.793 F2500.000
G1 X41.420 Y0.598 Z16.774 F2500.000
G1 X42.420 Y0.598 Z16.733 F2500.000
G1 X43.420 Y0.598 Z16.671 F2500.000
G1 X44.420 Y0.598 Z16.585 F2500.000
G1 X45.420 Y0.598 Z16.473 F2500.000
G1 X46.420 Y0.598 Z16.340 F2500.000
G1 X47.420 Y0.598 Z16.181 F2500.000
G1 X48.420 Y0.598 Z15.995 F2500.000
G1 X49.420 Y0.598 Z15.780 F2500.000
G1 X50.420 Y0.598 Z15.537 F2500.000
G1 X51.420 Y0.598 Z15.264 F2500.000
G1 X52.420 Y0.598 Z14.960 F2500.000
G1 X53.420 Y0.598 Z14.624 F2500.000
G1 X54.420 Y0.598 Z14.253 F2500.000
G1 X55.420 Y0.598 Z13.848 F2500.000
G1 X56.420 Y0.598 Z13.406 F2500.000
G1 X57.420 Y0.598 Z12.922 F2500.000
G1 X58.420 Y0.598 Z12.401 F2500.000
G1 X59.420 Y0.598 Z11.835 F2500.000
G1 X60.420 Y0.598 Z11.223 F2500.000
G1 X61.420 Y0.598 Z10.565 F2500.000
G1 X62.420 Y0.598 Z9.857 F2500.000
G1 X63.420 Y0.598 Z9.094 F2500.000
G1 X64.420 Y0.598 Z8.274 F2500.000
G1 X65.420 Y0.598 Z7.393 F2500.000
G1 X66.420 Y0.598 Z6.446 F2500.000
G1 X67.420 Y0.598 Z5.430 F2500.000
G1 X68.420 Y0.598 Z4.338 F2500.000
G1 X69.420 Y0.598 Z3.163 F2500.000
G1 X69.593 Y0.624 Z2.952 F2500.000
G1 X69.405 Y12.823 Z2.957 F2500.000
G1 X69.381 Y14.423 Z2.955 F2500.000
G1 X69.341 Y17.023 Z2.959 F2500.000
G1 X69.141 Y30.021 Z2.962 F2500.000
G1 X69.131 Y30.621 Z2.965 F2500.000
G1 X68.910 Y45.019 Z2.970 F2500.000
G1 X68.901 Y45.619 Z2.968 F2500.000
G1 X68.888 Y46.419 Z2.971 F2500.000
G1 X68.848 Y49.019 Z2.970 F2500.000
G1 X68.652 Y61.817 Z2.977 F2500.000
G1 X68.630 Y63.217 Z2.975 F2500.000
G1 X68.590 Y65.817 Z2.979 F2500.000
G1 X68.547 Y68.616 Z2.977 F2500.000
G1 X68.150 Y94.413 Z2.991 F2500.000
G1 X68.042 Y101.413 Z2.990 F2500.000
G1 X68.006 Y103.812 Z2.994 F2500.000
G1 X67.802 Y117.011 Z3.000 F2500.000
G1 X67.762 Y119.610 Z2.997 F2500.000
G1 X67.753 Y120.210 Z3.000 F2500.000
G1 X67.670 Y125.610 Z3.003 F2500.000
G1 X67.369 Y145.207 Z3.007 F2500.000
G1 X67.326 Y148.007 Z3.011 F2500.000
G1 X67.313 Y148.807 Z3.009 F2500.000
G1 X67.301 Y149.607 Z3.001 F2500.000
G1 X67.292 Y150.207 Z3.010 F2500.000
G1 X67.270 Y151.607 Z3.012 F2500.000
G1 X67.212 Y155.406 Z3.010 F2500.000
G1 X67.196 Y156.406 Z3.014 F2500.000
G1 X66.843 Y179.403 Z3.022 F2500.000
G1 X66.754 Y185.203 Z3.021 F2500.000
G1 X66.550 Y198.401 Z3.028 F2500.000
G1 X66.529 Y199.801 Z3.025 F2500.000
G1 X66.507 Y201.201 Z3.028 F2500.000
G1 X66.498 Y201.801 Z3.025 F2500.000
G1 X66.458 Y204.400 Z3.030 F2500.000
G1 X65.988 Y234.997 Z3.037 F2500.000
G1 X65.935 Y238.396 Z3.035 F2500.000
G1 X65.912 Y239.932 Z3.038 F2500.000
(Break)
G0 Z19.770
G0 X70.205 Y-0.302
(part 67.)
G1 X70.205 Y-0.302 Z2.167 F2500.000
G1 X70.390 Y-0.236 Z1.938 F2500.000
G1 X70.494 Y-0.069 Z1.814 F2500.000
G1 X70.501 Y0.130 Z1.805 F2500.000
G1 X70.427 Y4.929 Z1.804 F2500.000
G1 X70.390 Y7.329 Z1.809 F2500.000
G1 X70.368 Y8.729 Z1.807 F2500.000
G1 X70.162 Y22.127 Z1.817 F2500.000
G1 X70.125 Y24.527 Z1.815 F2500.000
G1 X70.070 Y28.127 Z1.821 F2500.000
G1 X69.851 Y42.325 Z1.827 F2500.000
G1 X69.839 Y43.125 Z1.830 F2500.000
G1 X69.775 Y47.324 Z1.830 F2500.000
G1 X69.673 Y53.924 Z1.836 F2500.000
G1 X69.652 Y55.323 Z1.834 F2500.000
G1 X69.593 Y59.123 Z1.840 F2500.000
G1 X69.412 Y70.922 Z1.844 F2500.000
G1 X69.316 Y77.121 Z1.850 F2500.000
G1 X69.295 Y78.521 Z1.848 F2500.000
G1 X69.270 Y80.120 Z1.853 F2500.000
G1 X69.162 Y87.120 Z1.855 F2500.000
G1 X69.067 Y93.319 Z1.861 F2500.000
G1 X69.021 Y96.319 Z1.860 F2500.000
G1 X68.950 Y100.918 Z1.866 F2500.000
G1 X68.935 Y101.918 Z1.864 F2500.000
G1 X68.802 Y110.517 Z1.872 F2500.000
G1 X68.790 Y111.317 Z1.870 F2500.000
G1 X68.686 Y118.116 Z1.878 F2500.000
G1 X68.498 Y130.315 Z1.883 F2500.000
G1 X68.470 Y132.114 Z1.887 F2500.000
G1 X68.298 Y143.313 Z1.892 F2500.000
G1 X67.969 Y164.710 Z1.910 F2500.000
G1 X67.953 Y165.710 Z1.908 F2500.000
G1 X67.932 Y167.110 Z1.912 F2500.000
G1 X67.870 Y171.110 Z1.911 F2500.000
G1 X67.821 Y174.309 Z1.917 F2500.000
G1 X67.606 Y188.308 Z1.925 F2500.000
G1 X67.443 Y198.906 Z1.935 F2500.000
G1 X67.412 Y200.906 Z1.934 F2500.000
G1 X67.400 Y201.706 Z1.937 F2500.000
G1 X67.194 Y215.104 Z1.944 F2500.000
G1 X67.184 Y215.704 Z1.948 F2500.000
G1 X66.803 Y240.501 Z1.966 F2500.000
G1 X66.755 Y240.692 Z2.018 F2500.000
G1 X66.602 Y240.815 Z2.194 F2500.000
G1 X66.404 Y240.833 Z2.431 F2500.000
G1 X65.407 Y240.833 Z3.562 F2500.000
G1 X64.411 Y240.833 Z4.584 F2500.000
G1 X63.415 Y240.833 Z5.518 F2500.000
G1 X62.419 Y240.833 Z6.379 F2500.000
G1 X61.422 Y240.833 Z7.176 F2500.000
G1 X60.426 Y240.833 Z7.916 F2500.000
G1 X59.430 Y240.833 Z8.606 F2500.000
G1 X58.434 Y240.833 Z9.249 F2500.000
G1 X57.438 Y240.833 Z9.848 F2500.000
G1 X56.441 Y240.833 Z10.408 F2500.000
G1 X55.445 Y240.833 Z10.929 F2500.000
G1 X54.449 Y240.833 Z11.414 F2500.000
G1 X53.453 Y240.833 Z11.863 F2500.000
G1 X52.456 Y240.833 Z12.279 F2500.000
G1 X51.460 Y240.833 Z12.661 F2500.000
G1 X50.464 Y240.833 Z13.011 F2500.000
G1 X49.468 Y240.833 Z13.330 F2500.000
G1 X48.471 Y240.833 Z13.616 F2500.000
G1 X47.475 Y240.833 Z13.872 F2500.000
G1 X46.479 Y240.833 Z14.096 F2500.000
G1 X45.483 Y240.833 Z14.289 F2500.000
G1 X44.487 Y240.833 Z14.451 F2500.000
G1 X43.490 Y240.833 Z14.582 F2500.000
G1 X42.494 Y240.833 Z14.680 F2500.000
G1 X41.498 Y240.833 Z14.747 F2500.000
G1 X40.502 Y240.833 Z14.780 F2500.000
G1 X39.505 Y240.833 Z14.780 F2500.000
G1 X38.509 Y240.833 Z14.747 F2500.000
G1 X37.513 Y240.833 Z14.681 F2500.000
G1 X36.517 Y240.833 Z14.583 F2500.000
G1 X35.521 Y240.833 Z14.452 F2500.000
G1 X34.524 Y240.833 Z14.291 F2500.000
G1 X33.528 Y240.833 Z14.098 F2500.000
G1 X32.532 Y240.833 Z13.874 F2500.000
G1 X31.536 Y240.833 Z13.618 F2500.000
G1 X30.539 Y240.833 Z13.332 F2500.000
G1 X29.543 Y240.833 Z13.014 F2500.000
G1 X28.547 Y240.833 Z12.664 F2500.000
G1 X27.551 Y240.833 Z12.282 F2500.000
G1 X26.555 Y240.833 Z11.866 F2500.000
G1 X25.558 Y240.833 Z11.417 F2500.000
G1 X24.562 Y240.833 Z10.933 F2500.000
G1 X23.566 Y240.833 Z10.412 F2500.000
G1 X22.570 Y240.833 Z9.853 F2500.000
G1 X21.573 Y240.833 Z9.253 F2500.000
G1 X20.577 Y240.833 Z8.610 F2500.000
G1 X19.581 Y240.833 Z7.921 F2500.000
G1 X18.585 Y240.833 Z7.181 F2500.000
G1 X17.588 Y240.833 Z6.385 F2500.000
G1 X16.592 Y240.833 Z5.525 F2500.000
G1 X15.596 Y240.833 Z4.591 F2500.000
G1 X14.600 Y240.833 Z3.569 F2500.000
G1 X13.604 Y240.833 Z2.440 F2500.000
G1 X13.405 Y240.817 Z2.202 F2500.000
G1 X13.249 Y240.698 Z2.023 F2500.000
G1 X13.197 Y240.509 Z1.966 F2500.000
G1 X13.163 Y238.309 Z1.961 F2500.000
G1 X13.154 Y237.709 Z1.964 F2500.000
G1 X12.834 Y216.911 Z1.949 F2500.000
G1 X12.803 Y214.912 Z1.944 F2500.000
G1 X12.785 Y213.712 Z1.946 F2500.000
G1 X12.490 Y194.514 Z1.929 F2500.000
G1 X12.339 Y184.715 Z1.925 F2500.000
G1 X12.327 Y183.915 Z1.920 F2500.000
G1 X12.290 Y181.516 Z1.922 F2500.000
G1 X12.130 Y171.117 Z1.912 F2500.000
G1 X12.068 Y167.117 Z1.912 F2500.000
G1 X12.047 Y165.717 Z1.908 F2500.000
G1 X12.031 Y164.718 Z1.910 F2500.000
G1 X11.822 Y151.119 Z1.901 F2500.000
G1 X11.797 Y149.519 Z1.896 F2500.000
G1 X11.745 Y146.120 Z1.897 F2500.000
G1 X11.601 Y136.721 Z1.888 F2500.000
G1 X11.530 Y132.121 Z1.887 F2500.000
G1 X11.502 Y130.322 Z1.883 F2500.000
G1 X11.478 Y128.722 Z1.885 F2500.000
G1 X11.210 Y111.324 Z1.870 F2500.000
G1 X10.850 Y87.927 Z1.858 F2500.000
G1 X10.838 Y87.127 Z1.854 F2500.000
G1 X10.804 Y84.927 Z1.856 F2500.000
G1 X10.161 Y43.132 Z1.830 F2500.000
G1 X10.118 Y40.332 Z1.825 F2500.000
G1 X10.056 Y36.333 Z1.826 F2500.000
G1 X9.709 Y13.735 Z1.810 F2500.000
G1 X9.675 Y11.536 Z1.812 F2500.000
G1 X9.629 Y8.536 Z1.807 F2500.000
G1 X9.610 Y7.336 Z1.809 F2500.000
G1 X9.576 Y5.136 Z1.805 F2500.000
G1 X9.500 Y0.137 Z1.805 F2500.000
G1 X9.504 Y-0.063 Z1.812 F2500.000
G1 X9.605 Y-0.231 Z1.931 F2500.000
G1 X9.788 Y-0.302 Z2.158 F2500.000
G1 X9.988 Y-0.303 Z2.414 F2500.000
G1 X10.975 Y-0.303 Z3.624 F2500.000
G1 X11.962 Y-0.303 Z4.751 F2500.000
G1 X12.949 Y-0.303 Z5.801 F2500.000
G1 X13.935 Y-0.303 Z6.778 F2500.000
G1 X14.922 Y-0.303 Z7.690 F2500.000
G1 X15.909 Y-0.303 Z8.539 F2500.000
G1 X16.896 Y-0.303 Z9.330 F2500.000
G1 X17.883 Y-0.303 Z10.067 F2500.000
G1 X18.870 Y-0.303 Z10.752 F2500.000
G1 X19.857 Y-0.303 Z11.388 F2500.000
G1 X20.844 Y-0.303 Z11.979 F2500.000
G1 X21.831 Y-0.303 Z12.526 F2500.000
G1 X22.817 Y-0.303 Z13.032 F2500.000
G1 X23.804 Y-0.303 Z13.499 F2500.000
G1 X24.791 Y-0.303 Z13.928 F2500.000
G1 X25.778 Y-0.303 Z14.321 F2500.000
G1 X26.765 Y-0.303 Z14.679 F2500.000
G1 X27.752 Y-0.303 Z15.006 F2500.000
G1 X28.739 Y-0.303 Z15.300 F2500.000
G1 X29.726 Y-0.303 Z15.565 F2500.000
G1 X30.713 Y-0.303 Z15.801 F2500.000
G1 X31.699 Y-0.303 Z16.009 F2500.000
G1 X32.686 Y-0.303 Z16.189 F2500.000
G1 X33.673 Y-0.303 Z16.345 F2500.000
G1 X34.660 Y-0.303 Z16.475 F2500.000
G1 X35.647 Y-0.303 Z16.581 F2500.000
G1 X36.634 Y-0.303 Z16.664 F2500.000
G1 X37.621 Y-0.303 Z16.725 F2500.000
G1 X38.608 Y-0.303 Z16.764 F2500.000
G1 X39.595 Y-0.303 Z16.783 F2500.000
G1 X40.581 Y-0.303 Z16.781 F2500.000
G1 X41.568 Y-0.303 Z16.759 F2500.000
G1 X42.555 Y-0.303 Z16.716 F2500.000
G1 X43.542 Y-0.303 Z16.651 F2500.000
G1 X44.529 Y-0.303 Z16.564 F2500.000
G1 X45.516 Y-0.303 Z16.454 F2500.000
G1 X46.503 Y-0.303 Z16.319 F2500.000
G1 X47.490 Y-0.303 Z16.159 F2500.000
G1 X48.476 Y-0.303 Z15.973 F2500.000
G1 X49.463 Y-0.303 Z15.761 F2500.000
G1 X50.450 Y-0.303 Z15.520 F2500.000
G1 X51.437 Y-0.303 Z15.250 F2500.000
G1 X52.424 Y-0.303 Z14.950 F2500.000
G1 X53.411 Y-0.303 Z14.618 F2500.000
G1 X54.398 Y-0.303 Z14.253 F2500.000
G1 X55.385 Y-0.303 Z13.854 F2500.000
G1 X56.372 Y-0.303 Z13.418 F2500.000
G1 X57.358 Y-0.303 Z12.945 F2500.000
G1 X58.345 Y-0.303 Z12.432 F2500.000
G1 X59.332 Y-0.303 Z11.877 F2500.000
G1 X60.319 Y-0.303 Z11.278 F2500.000
G1 X61.306 Y-0.303 Z10.633 F2500.000
G1 X62.293 Y-0.303 Z9.939 F2500.000
G1 X63.280 Y-0.303 Z9.193 F2500.000
G1 X64.267 Y-0.303 Z8.392 F2500.000
G1 X65.254 Y-0.303 Z7.532 F2500.000
G1 X66.240 Y-0.303 Z6.609 F2500.000
G1 X67.227 Y-0.303 Z5.619 F2500.000
G1 X68.214 Y-0.303 Z4.556 F2500.000
G1 X69.201 Y-0.303 Z3.415 F2500.000
G1 X70.205 Y-0.302 Z2.167 F2500.000
(Break)
G0 Z19.770
G0 X70.220 Y-1.202
(part 69.)
G1 X70.220 Y-1.202 Z1.761 F2500.000
G1 X70.418 Y-1.182 Z1.513 F2500.000
G1 X70.611 Y-1.130 Z1.293 F2500.000
G1 X70.793 Y-1.046 Z1.102 F2500.000
G1 X70.958 Y-0.934 Z0.942 F2500.000
G1 X71.102 Y-0.795 Z0.815 F2500.000
G1 X71.221 Y-0.635 Z0.716 F2500.000
G1 X71.312 Y-0.457 Z0.645 F2500.000
G1 X71.372 Y-0.267 Z0.601 F2500.000
G1 X71.400 Y-0.069 Z0.581 F2500.000
G1 X71.401 Y0.131 Z0.579 F2500.000
G1 X71.388 Y0.931 Z0.576 F2500.000
G1 X71.385 Y1.131 Z0.579 F2500.000
G1 X71.203 Y12.996 Z0.586 F2500.000
G1 X71.028 Y24.328 Z0.590 F2500.000
G1 X70.898 Y32.827 Z0.597 F2500.000
G1 X70.851 Y35.860 Z0.596 F2500.000
G1 X70.142 Y81.921 Z0.627 F2500.000
G1 X70.095 Y85.021 Z0.626 F2500.000
G1 X70.044 Y88.320 Z0.631 F2500.000
G1 X69.938 Y95.220 Z0.633 F2500.000
G1 X69.924 Y96.119 Z0.637 F2500.000
G1 X69.853 Y100.719 Z0.637 F2500.000
G1 X69.807 Y103.719 Z0.642 F2500.000
G1 X69.616 Y116.117 Z0.651 F2500.000
G1 X69.570 Y119.117 Z0.650 F2500.000
G1 X69.549 Y120.517 Z0.654 F2500.000
G1 X69.464 Y126.016 Z0.656 F2500.000
G1 X69.189 Y143.914 Z0.673 F2500.000
G1 X69.137 Y147.313 Z0.672 F2500.000
G1 X69.115 Y148.713 Z0.676 F2500.000
G1 X69.020 Y154.913 Z0.679 F2500.000
G1 X68.915 Y161.712 Z0.687 F2500.000
G1 X68.903 Y162.512 Z0.684 F2500.000
G1 X68.887 Y163.512 Z0.689 F2500.000
G1 X68.826 Y167.511 Z0.690 F2500.000
G1 X68.783 Y170.311 Z0.695 F2500.000
G1 X68.767 Y171.311 Z0.693 F2500.000
G1 X68.721 Y174.310 Z0.698 F2500.000
G1 X68.509 Y188.109 Z0.708 F2500.000
G1 X68.475 Y190.308 Z0.713 F2500.000
G1 X68.149 Y211.506 Z0.731 F2500.000
G1 X67.857 Y230.504 Z0.753 F2500.000
G1 X67.835 Y231.903 Z0.751 F2500.000
G1 X67.808 Y233.703 Z0.757 F2500.000
G1 X67.780 Y235.503 Z0.756 F2500.000
G1 X67.703 Y240.502 Z0.764 F2500.000
G1 X67.690 Y240.702 Z0.773 F2500.000
G1 X67.645 Y240.896 Z0.806 F2500.000
G1 X67.569 Y241.081 Z0.864 F2500.000
G1 X67.463 Y241.250 Z0.949 F2500.000
G1 X67.330 Y241.400 Z1.062 F2500.000
G1 X67.175 Y241.525 Z1.204 F2500.000
G1 X67.001 Y241.623 Z1.375 F2500.000
G1 X66.813 Y241.691 Z1.574 F2500.000
G1 X66.616 Y241.727 Z1.800 F2500.000
G1 X66.416 Y241.732 Z2.044 F2500.000
G1 X65.420 Y241.732 Z3.199 F2500.000
G1 X64.424 Y241.732 Z4.239 F2500.000
G1 X63.428 Y241.732 Z5.188 F2500.000
G1 X62.431 Y241.732 Z6.060 F2500.000
G1 X61.435 Y241.732 Z6.867 F2500.000
G1 X60.439 Y241.732 Z7.616 F2500.000
G1 X59.443 Y241.732 Z8.313 F2500.000
G1 X58.447 Y241.732 Z8.962 F2500.000
G1 X57.450 Y241.732 Z9.567 F2500.000
G1 X56.454 Y241.732 Z10.132 F2500.000
G1 X55.458 Y241.732 Z10.658 F2500.000
G1 X54.462 Y241.732 Z11.146 F2500.000
G1 X53.465 Y241.732 Z11.600 F2500.000
G1 X52.469 Y241.732 Z12.019 F2500.000
G1 X51.473 Y241.732 Z12.405 F2500.000
G1 X50.477 Y241.732 Z12.758 F2500.000
G1 X49.481 Y241.732 Z13.079 F2500.000
G1 X48.484 Y241.732 Z13.368 F2500.000
G1 X47.488 Y241.732 Z13.626 F2500.000
G1 X46.492 Y241.732 Z13.852 F2500.000
G1 X45.496 Y241.732 Z14.047 F2500.000
G1 X44.499 Y241.732 Z14.211 F2500.000
G1 X43.503 Y241.732 Z14.343 F2500.000
G1 X42.507 Y241.732 Z14.442 F2500.000
G1 X41.511 Y241.732 Z14.510 F2500.000
G1 X40.514 Y241.732 Z14.544 F2500.000
G1 X39.518 Y241.732 Z14.544 F2500.000
G1 X38.522 Y241.732 Z14.511 F2500.000
G1 X37.526 Y241.732 Z14.445 F2500.000
G1 X36.530 Y241.732 Z14.346 F2500.000
G1 X35.533 Y241.732 Z14.216 F2500.000
G1 X34.537 Y241.732 Z14.053 F2500.000
G1 X33.541 Y241.732 Z13.859 F2500.000
G1 X32.545 Y241.732 Z13.634 F2500.000
G1 X31.548 Y241.732 Z13.377 F2500.000
G1 X30.552 Y241.732 Z13.089 F2500.000
G1 X29.556 Y241.732 Z12.769 F2500.000
G1 X28.560 Y241.732 Z12.417 F2500.000
G1 X27.564 Y241.732 Z12.032 F2500.000
G1 X26.567 Y241.732 Z11.614 F2500.000
G1 X25.571 Y241.732 Z11.162 F2500.000
G1 X24.575 Y241.732 Z10.674 F2500.000
G1 X23.579 Y241.732 Z10.150 F2500.000
G1 X22.582 Y241.732 Z9.587 F2500.000
G1 X21.586 Y241.732 Z8.982 F2500.000
G1 X20.590 Y241.732 Z8.335 F2500.000
G1 X19.594 Y241.732 Z7.639 F2500.000
G1 X18.597 Y241.732 Z6.893 F2500.000
G1 X17.601 Y241.732 Z6.088 F2500.000
G1 X16.605 Y241.732 Z5.218 F2500.000
G1 X15.609 Y241.732 Z4.272 F2500.000
G1 X14.613 Y241.732 Z3.235 F2500.000
G1 X13.616 Y241.732 Z2.084 F2500.000
G1 X13.416 Y241.730 Z1.839 F2500.000
G1 X13.219 Y241.699 Z1.610 F2500.000
G1 X13.029 Y241.636 Z1.406 F2500.000
G1 X12.853 Y241.543 Z1.230 F2500.000
G1 X12.694 Y241.422 Z1.083 F2500.000
G1 X12.557 Y241.276 Z0.966 F2500.000
G1 X12.447 Y241.110 Z0.876 F2500.000
G1 X12.365 Y240.928 Z0.814 F2500.000
G1 X12.315 Y240.734 Z0.777 F2500.000
G1 X12.297 Y240.535 Z0.764 F2500.000
G1 X12.224 Y235.736 Z0.756 F2500.000
G1 X12.184 Y233.136 Z0.756 F2500.000
G1 X12.165 Y231.936 Z0.751 F2500.000
G1 X12.144 Y230.536 Z0.753 F2500.000
G1 X12.131 Y229.736 Z0.749 F2500.000
G1 X12.122 Y229.136 Z0.751 F2500.000
G1 X12.088 Y226.937 Z0.747 F2500.000
G1 X12.082 Y226.537 Z0.749 F2500.000
G1 X12.014 Y222.137 Z0.742 F2500.000
G1 X11.867 Y212.538 Z0.735 F2500.000
G1 X11.845 Y211.139 Z0.730 F2500.000
G1 X11.833 Y210.339 Z0.732 F2500.000
G1 X11.781 Y206.939 Z0.726 F2500.000
G1 X11.639 Y197.740 Z0.720 F2500.000
G1 X11.630 Y197.140 Z0.716 F2500.000
G1 X11.615 Y196.140 Z0.718 F2500.000
G1 X11.513 Y189.541 Z0.709 F2500.000
G1 X11.507 Y189.141 Z0.712 F2500.000
G1 X11.498 Y188.541 Z0.709 F2500.000
G1 X11.350 Y178.942 Z0.703 F2500.000
G1 X11.335 Y177.943 Z0.699 F2500.000
G1 X11.190 Y168.544 Z0.693 F2500.000
G1 X11.175 Y167.544 Z0.688 F2500.000
G1 X11.150 Y165.944 Z0.691 F2500.000
G1 X11.079 Y161.345 Z0.684 F2500.000
G1 X10.941 Y152.346 Z0.679 F2500.000
G1 X10.932 Y151.746 Z0.675 F2500.000
G1 X10.919 Y150.946 Z0.678 F2500.000
G1 X10.661 Y134.148 Z0.665 F2500.000
G1 X10.593 Y129.748 Z0.658 F2500.000
G1 X10.584 Y129.148 Z0.661 F2500.000
G1 X10.566 Y127.948 Z0.657 F2500.000
G1 X10.553 Y127.149 Z0.659 F2500.000
G1 X10.052 Y94.552 Z0.633 F2500.000
G1 X9.978 Y89.753 Z0.632 F2500.000
G1 X9.932 Y86.753 Z0.627 F2500.000
G1 X9.781 Y76.954 Z0.624 F2500.000
G1 X9.729 Y73.555 Z0.618 F2500.000
G1 X9.698 Y71.555 Z0.620 F2500.000
G1 X9.649 Y68.356 Z0.615 F2500.000
G1 X9.360 Y49.558 Z0.607 F2500.000
G1 X9.344 Y48.558 Z0.603 F2500.000
G1 X9.332 Y47.758 Z0.606 F2500.000
G1 X9.175 Y37.559 Z0.600 F2500.000
G1 X9.151 Y35.959 Z0.595 F2500.000
G1 X9.092 Y32.160 Z0.597 F2500.000
G1 X8.901 Y19.761 Z0.587 F2500.000
G1 X8.600 Y0.164 Z0.579 F2500.000
G1 X8.598 Y-0.036 Z0.579 F2500.000
G1 X8.621 Y-0.235 Z0.596 F2500.000
G1 X8.676 Y-0.427 Z0.636 F2500.000
G1 X8.762 Y-0.607 Z0.703 F2500.000
G1 X8.877 Y-0.771 Z0.796 F2500.000
G1 X9.017 Y-0.913 Z0.920 F2500.000
G1 X9.179 Y-1.030 Z1.073 F2500.000
G1 X9.358 Y-1.118 Z1.259 F2500.000
G1 X9.549 Y-1.176 Z1.475 F2500.000
G1 X9.748 Y-1.201 Z1.719 F2500.000
G1 X9.948 Y-1.202 Z1.979 F2500.000
G1 X10.935 Y-1.202 Z3.209 F2500.000
G1 X11.921 Y-1.202 Z4.354 F2500.000
G1 X12.908 Y-1.202 Z5.419 F2500.000
G1 X13.895 Y-1.202 Z6.412 F2500.000
G1 X14.882 Y-1.202 Z7.336 F2500.000
G1 X15.869 Y-1.202 Z8.198 F2500.000
G1 X16.856 Y-1.202 Z9.000 F2500.000
G1 X17.843 Y-1.202 Z9.746 F2500.000
G1 X18.830 Y-1.202 Z10.440 F2500.000
G1 X19.816 Y-1.202 Z11.085 F2500.000
G1 X20.803 Y-1.202 Z11.683 F2500.000
G1 X21.790 Y-1.202 Z12.237 F2500.000
G1 X22.777 Y-1.202 Z12.748 F2500.000
G1 X23.764 Y-1.202 Z13.220 F2500.000
G1 X24.751 Y-1.202 Z13.654 F2500.000
G1 X25.738 Y-1.202 Z14.052 F2500.000
G1 X26.725 Y-1.202 Z14.415 F2500.000
G1 X27.712 Y-1.202 Z14.745 F2500.000
G1 X28.698 Y-1.202 Z15.043 F2500.000
G1 X29.685 Y-1.202 Z15.311 F2500.000
G1 X30.672 Y-1.202 Z15.549 F2500.000
G1 X31.659 Y-1.202 Z15.760 F2500.000
G1 X32.646 Y-1.202 Z15.943 F2500.000
G1 X33.633 Y-1.202 Z16.100 F2500.000
G1 X34.620 Y-1.202 Z16.232 F2500.000
G1 X35.607 Y-1.202 Z16.340 F2500.000
G1 X36.594 Y-1.202 Z16.425 F2500.000
G1 X37.580 Y-1.202 Z16.487 F2500.000
G1 X38.567 Y-1.202 Z16.527 F2500.000
G1 X39.554 Y-1.202 Z16.546 F2500.000
