(Exported by FreeCAD)
(Post Processor: grbl_post)
(Output Time:2023-10-21 19:19:56.567944)
(Begin preamble)
G17 G90
G21
(Begin operation: Fixture)
(Path: Fixture)
G54
(Finish operation: Fixture)
(Begin operation: TC: 3.175 Z1 UP Helicoidale007)
(Path: TC: 3.175 Z1 UP Helicoidale007)
(TC: 3.175 Z1 UP Helicoidale007)
(Begin toolchange)
( M6 T3 )
M3 S24000
(Finish operation: TC: 3.175 Z1 UP Helicoidale007)
(Begin operation: Profile)
(Path: Profile)
(Profile)
(Compensated Tool Path. Diameter: 3.17)
G0 Z5.000
G0 X126.635 Y449.238
G0 Z3.000
G1 X126.635 Y449.238 Z-1.057 F100.000
G2 X132.661 Y438.981 Z-1.057 I-65.753 J-45.526 K0.000 F2000.000
G2 X140.814 Y413.857 Z-1.057 I-87.887 J-42.408 K0.000 F2000.000
G2 X141.412 Y384.524 Z-1.057 I-88.835 J-16.483 K0.000 F2000.000
G2 X137.228 Y366.122 Z-1.057 I-129.874 J19.853 K0.000 F2000.000
G2 X129.956 Y344.929 Z-1.057 I-425.223 J134.057 K0.000 F2000.000
G3 X124.935 Y329.876 Z-1.057 I231.363 J-85.541 K0.000 F2000.000
G3 X122.052 Y317.222 Z-1.057 I93.501 J-27.956 K0.000 F2000.000
G3 X123.380 Y288.467 Z-1.057 I66.956 J-11.316 K0.000 F2000.000
G3 X128.385 Y275.010 Z-1.057 I78.905 J21.688 K0.000 F2000.000
G3 X136.499 Y261.005 Z-1.057 I94.762 J45.550 K0.000 F2000.000
G2 X142.630 Y252.034 Z-1.057 I-299.799 J-211.444 K0.000 F2000.000
G2 X157.645 Y227.525 Z-1.057 I-664.509 J-423.970 K0.000 F2000.000
G2 X169.312 Y206.001 Z-1.057 I-293.731 J-173.144 K0.000 F2000.000
G2 X179.132 Y183.461 Z-1.057 I-198.143 J-99.727 K0.000 F2000.000
G2 X186.616 Y156.904 Z-1.057 I-150.032 J-56.618 K0.000 F2000.000
G2 X188.967 Y132.355 Z-1.057 I-124.979 J-24.351 K0.000 F2000.000
G2 X181.559 Y90.201 Z-1.057 I-125.802 J0.377 K0.000 F2000.000
G2 X166.074 Y58.897 Z-1.057 I-150.615 J55.024 K0.000 F2000.000
G2 X152.550 Y42.291 Z-1.057 I-73.394 J45.963 K0.000 F2000.000
G2 X134.670 Y28.648 Z-1.057 I-74.868 J79.579 K0.000 F2000.000
G2 X114.179 Y18.343 Z-1.057 I-77.669 J128.911 K0.000 F2000.000
G2 X88.159 Y9.702 Z-1.057 I-80.242 J198.130 K0.000 F2000.000
G2 X50.663 Y2.393 Z-1.057 I-80.734 J314.377 K0.000 F2000.000
G2 X-0.875 Y-1.675 Z-1.057 I-64.398 J487.351 K0.000 F2000.000
G2 X-38.310 Y0.432 Z-1.057 I8.730 J488.808 K0.000 F2000.000
G2 X-68.966 Y4.628 Z-1.057 I31.070 J341.083 K0.000 F2000.000
G2 X-97.964 Y11.654 Z-1.057 I42.434 J238.492 K0.000 F2000.000
G2 X-121.307 Y20.661 Z-1.057 I49.044 J161.853 K0.000 F2000.000
G2 X-142.101 Y33.007 Z-1.057 I51.327 J110.137 K0.000 F2000.000
G2 X-163.320 Y54.679 Z-1.057 I53.599 J73.701 K0.000 F2000.000
G2 X-174.340 Y73.227 Z-1.057 I146.549 J99.615 K0.000 F2000.000
G2 X-183.018 Y94.076 Z-1.057 I125.246 J64.366 K0.000 F2000.000
G2 X-188.777 Y139.417 Z-1.057 I117.118 J37.911 K0.000 F2000.000
G2 X-183.859 Y168.419 Z-1.057 I144.676 J-9.613 K0.000 F2000.000
G2 X-173.234 Y197.494 Z-1.057 I199.200 J-56.318 K0.000 F2000.000
G2 X-156.970 Y228.729 Z-1.057 I315.925 J-144.644 K0.000 F2000.000
G2 X-141.603 Y254.187 Z-1.057 I858.807 J-501.060 K0.000 F2000.000
G3 X-132.640 Y268.146 Z-1.057 I-93.339 J69.783 K0.000 F2000.000
G3 X-125.941 Y283.859 Z-1.057 I-71.293 J39.680 K0.000 F2000.000
G3 X-123.046 Y308.355 Z-1.057 I-64.271 J20.014 K0.000 F2000.000
G3 X-124.870 Y320.588 Z-1.057 I-81.546 J-5.906 K0.000 F2000.000
G3 X-128.528 Y333.405 Z-1.057 I-122.990 J-28.169 K0.000 F2000.000
G3 X-133.039 Y345.959 Z-1.057 I-485.002 J-167.190 K0.000 F2000.000
G2 X-139.942 Y365.640 Z-1.057 I307.229 J118.810 K0.000 F2000.000
G2 X-143.491 Y379.949 Z-1.057 I116.489 J36.483 K0.000 F2000.000
G2 X-144.845 Y403.570 Z-1.057 I89.238 J16.967 K0.000 F2000.000
G2 X-137.471 Y433.931 Z-1.057 I98.273 J-7.792 K0.000 F2000.000
G2 X-116.181 Y463.422 Z-1.057 I73.625 J-30.722 K0.000 F2000.000
G2 X-96.365 Y476.504 Z-1.057 I62.687 J-73.405 K0.000 F2000.000
G2 X-76.605 Y484.223 Z-1.057 I56.990 J-116.738 K0.000 F2000.000
G2 X-44.631 Y490.567 Z-1.057 I52.009 J-178.373 K0.000 F2000.000
G2 X-5.272 Y492.171 Z-1.057 I31.595 J-291.706 K0.000 F2000.000
G3 X1.030 Y492.173 Z-1.057 I3.124 J73.753 K0.000 F2000.000
G2 X28.304 Y491.983 Z-1.057 I11.552 J-298.941 K0.000 F2000.000
G2 X52.821 Y489.441 Z-1.057 I-10.642 J-222.190 K0.000 F2000.000
G2 X76.482 Y483.915 Z-1.057 I-24.212 J-157.095 K0.000 F2000.000
G2 X98.102 Y474.695 Z-1.057 I-33.507 J-108.522 K0.000 F2000.000
G2 X110.979 Y466.053 Z-1.057 I-41.700 J-76.050 K0.000 F2000.000
G2 X126.635 Y449.238 Z-1.057 I-50.097 J-62.340 K0.000 F2000.000
G1 X126.635 Y449.238 Z-2.113 F100.000
G2 X132.661 Y438.981 Z-2.113 I-65.753 J-45.526 K0.000 F2000.000
G2 X140.814 Y413.857 Z-2.113 I-87.887 J-42.408 K0.000 F2000.000
G2 X141.412 Y384.524 Z-2.113 I-88.835 J-16.483 K0.000 F2000.000
G2 X137.228 Y366.122 Z-2.113 I-129.874 J19.853 K0.000 F2000.000
G2 X129.956 Y344.929 Z-2.113 I-425.223 J134.057 K0.000 F2000.000
G3 X124.935 Y329.876 Z-2.113 I231.363 J-85.541 K0.000 F2000.000
G3 X122.052 Y317.222 Z-2.113 I93.501 J-27.956 K0.000 F2000.000
G3 X123.380 Y288.467 Z-2.113 I66.956 J-11.316 K0.000 F2000.000
G3 X128.385 Y275.010 Z-2.113 I78.905 J21.688 K0.000 F2000.000
G3 X136.499 Y261.005 Z-2.113 I94.762 J45.550 K0.000 F2000.000
G2 X142.630 Y252.034 Z-2.113 I-299.799 J-211.444 K0.000 F2000.000
G2 X157.645 Y227.525 Z-2.113 I-664.509 J-423.970 K0.000 F2000.000
G2 X169.312 Y206.001 Z-2.113 I-293.731 J-173.144 K0.000 F2000.000
G2 X179.132 Y183.461 Z-2.113 I-198.143 J-99.727 K0.000 F2000.000
G2 X186.616 Y156.904 Z-2.113 I-150.032 J-56.618 K0.000 F2000.000
G2 X188.967 Y132.355 Z-2.113 I-124.979 J-24.351 K0.000 F2000.000
G2 X181.559 Y90.201 Z-2.113 I-125.802 J0.377 K0.000 F2000.000
G2 X166.074 Y58.897 Z-2.113 I-150.615 J55.024 K0.000 F2000.000
G2 X152.550 Y42.291 Z-2.113 I-73.394 J45.963 K0.000 F2000.000
G2 X134.670 Y28.648 Z-2.113 I-74.868 J79.579 K0.000 F2000.000
G2 X114.179 Y18.343 Z-2.113 I-77.669 J128.911 K0.000 F2000.000
G2 X88.159 Y9.702 Z-2.113 I-80.242 J198.130 K0.000 F2000.000
G2 X50.663 Y2.393 Z-2.113 I-80.734 J314.377 K0.000 F2000.000
G2 X-0.875 Y-1.675 Z-2.113 I-64.398 J487.351 K0.000 F2000.000
G2 X-38.310 Y0.432 Z-2.113 I8.730 J488.808 K0.000 F2000.000
G2 X-68.966 Y4.628 Z-2.113 I31.070 J341.083 K0.000 F2000.000
G2 X-97.964 Y11.654 Z-2.113 I42.434 J238.492 K0.000 F2000.000
G2 X-121.307 Y20.661 Z-2.113 I49.044 J161.853 K0.000 F2000.000
G2 X-142.101 Y33.007 Z-2.113 I51.327 J110.137 K0.000 F2000.000
G2 X-163.320 Y54.679 Z-2.113 I53.599 J73.701 K0.000 F2000.000
G2 X-174.340 Y73.227 Z-2.113 I146.549 J99.615 K0.000 F2000.000
G2 X-183.018 Y94.076 Z-2.113 I125.246 J64.366 K0.000 F2000.000
G2 X-188.777 Y139.417 Z-2.113 I117.118 J37.911 K0.000 F2000.000
G2 X-183.859 Y168.419 Z-2.113 I144.676 J-9.613 K0.000 F2000.000
G2 X-173.234 Y197.494 Z-2.113 I199.200 J-56.318 K0.000 F2000.000
G2 X-156.970 Y228.729 Z-2.113 I315.925 J-144.644 K0.000 F2000.000
G2 X-141.603 Y254.187 Z-2.113 I858.807 J-501.060 K0.000 F2000.000
G3 X-132.640 Y268.146 Z-2.113 I-93.339 J69.783 K0.000 F2000.000
G3 X-125.941 Y283.859 Z-2.113 I-71.293 J39.680 K0.000 F2000.000
G3 X-123.046 Y308.355 Z-2.113 I-64.271 J20.014 K0.000 F2000.000
G3 X-124.870 Y320.588 Z-2.113 I-81.546 J-5.906 K0.000 F2000.000
G3 X-128.528 Y333.405 Z-2.113 I-122.990 J-28.169 K0.000 F2000.000
G3 X-133.039 Y345.959 Z-2.113 I-485.002 J-167.190 K0.000 F2000.000
G2 X-139.942 Y365.640 Z-2.113 I307.229 J118.810 K0.000 F2000.000
G2 X-143.491 Y379.949 Z-2.113 I116.489 J36.483 K0.000 F2000.000
G2 X-144.845 Y403.570 Z-2.113 I89.238 J16.967 K0.000 F2000.000
G2 X-137.471 Y433.931 Z-2.113 I98.273 J-7.792 K0.000 F2000.000
G2 X-116.181 Y463.422 Z-2.113 I73.625 J-30.722 K0.000 F2000.000
G2 X-96.365 Y476.504 Z-2.113 I62.687 J-73.405 K0.000 F2000.000
G2 X-76.605 Y484.223 Z-2.113 I56.990 J-116.738 K0.000 F2000.000
G2 X-44.631 Y490.567 Z-2.113 I52.009 J-178.373 K0.000 F2000.000
G2 X-5.272 Y492.171 Z-2.113 I31.595 J-291.706 K0.000 F2000.000
G3 X1.030 Y492.173 Z-2.113 I3.124 J73.753 K0.000 F2000.000
G2 X28.304 Y491.983 Z-2.113 I11.552 J-298.941 K0.000 F2000.000
G2 X52.821 Y489.441 Z-2.113 I-10.642 J-222.190 K0.000 F2000.000
G2 X76.482 Y483.915 Z-2.113 I-24.212 J-157.095 K0.000 F2000.000
G2 X98.102 Y474.695 Z-2.113 I-33.507 J-108.522 K0.000 F2000.000
G2 X110.979 Y466.053 Z-2.113 I-41.700 J-76.050 K0.000 F2000.000
G2 X126.635 Y449.238 Z-2.113 I-50.097 J-62.340 K0.000 F2000.000
G1 X126.635 Y449.238 Z-3.170 F100.000
G2 X132.661 Y438.981 Z-3.170 I-65.753 J-45.526 K0.000 F2000.000
G2 X140.814 Y413.857 Z-3.170 I-87.887 J-42.408 K0.000 F2000.000
G2 X141.412 Y384.524 Z-3.170 I-88.835 J-16.483 K0.000 F2000.000
G2 X137.228 Y366.122 Z-3.170 I-129.874 J19.853 K0.000 F2000.000
G2 X129.956 Y344.929 Z-3.170 I-425.223 J134.057 K0.000 F2000.000
G3 X124.935 Y329.876 Z-3.170 I231.363 J-85.541 K0.000 F2000.000
G3 X122.052 Y317.222 Z-3.170 I93.501 J-27.956 K0.000 F2000.000
G3 X123.380 Y288.467 Z-3.170 I66.956 J-11.316 K0.000 F2000.000
G3 X128.385 Y275.010 Z-3.170 I78.905 J21.688 K0.000 F2000.000
G3 X136.499 Y261.005 Z-3.170 I94.762 J45.550 K0.000 F2000.000
G2 X142.630 Y252.034 Z-3.170 I-299.799 J-211.444 K0.000 F2000.000
G2 X157.645 Y227.525 Z-3.170 I-664.509 J-423.970 K0.000 F2000.000
G2 X169.312 Y206.001 Z-3.170 I-293.731 J-173.144 K0.000 F2000.000
G2 X179.132 Y183.461 Z-3.170 I-198.143 J-99.727 K0.000 F2000.000
G2 X186.616 Y156.904 Z-3.170 I-150.032 J-56.618 K0.000 F2000.000
G2 X188.967 Y132.355 Z-3.170 I-124.979 J-24.351 K0.000 F2000.000
G2 X181.559 Y90.201 Z-3.170 I-125.802 J0.377 K0.000 F2000.000
G2 X166.074 Y58.897 Z-3.170 I-150.615 J55.024 K0.000 F2000.000
G2 X152.550 Y42.291 Z-3.170 I-73.394 J45.963 K0.000 F2000.000
G2 X134.670 Y28.648 Z-3.170 I-74.868 J79.579 K0.000 F2000.000
G2 X114.179 Y18.343 Z-3.170 I-77.669 J128.911 K0.000 F2000.000
G2 X88.159 Y9.702 Z-3.170 I-80.242 J198.130 K0.000 F2000.000
G2 X50.663 Y2.393 Z-3.170 I-80.734 J314.377 K0.000 F2000.000
G2 X-0.875 Y-1.675 Z-3.170 I-64.398 J487.351 K0.000 F2000.000
G2 X-38.310 Y0.432 Z-3.170 I8.730 J488.808 K0.000 F2000.000
G2 X-68.966 Y4.628 Z-3.170 I31.070 J341.083 K0.000 F2000.000
G2 X-97.964 Y11.654 Z-3.170 I42.434 J238.492 K0.000 F2000.000
G2 X-121.307 Y20.661 Z-3.170 I49.044 J161.853 K0.000 F2000.000
G2 X-142.101 Y33.007 Z-3.170 I51.327 J110.137 K0.000 F2000.000
G2 X-163.320 Y54.679 Z-3.170 I53.599 J73.701 K0.000 F2000.000
G2 X-174.340 Y73.227 Z-3.170 I146.549 J99.615 K0.000 F2000.000
G2 X-183.018 Y94.076 Z-3.170 I125.246 J64.366 K0.000 F2000.000
G2 X-188.777 Y139.417 Z-3.170 I117.118 J37.911 K0.000 F2000.000
G2 X-183.859 Y168.419 Z-3.170 I144.676 J-9.613 K0.000 F2000.000
G2 X-173.234 Y197.494 Z-3.170 I199.200 J-56.318 K0.000 F2000.000
G2 X-156.970 Y228.729 Z-3.170 I315.925 J-144.644 K0.000 F2000.000
G2 X-141.603 Y254.187 Z-3.170 I858.807 J-501.060 K0.000 F2000.000
G3 X-132.640 Y268.146 Z-3.170 I-93.339 J69.783 K0.000 F2000.000
G3 X-125.941 Y283.859 Z-3.170 I-71.293 J39.680 K0.000 F2000.000
G3 X-123.046 Y308.355 Z-3.170 I-64.271 J20.014 K0.000 F2000.000
G3 X-124.870 Y320.588 Z-3.170 I-81.546 J-5.906 K0.000 F2000.000
G3 X-128.528 Y333.405 Z-3.170 I-122.990 J-28.169 K0.000 F2000.000
G3 X-133.039 Y345.959 Z-3.170 I-485.002 J-167.190 K0.000 F2000.000
G2 X-139.942 Y365.640 Z-3.170 I307.229 J118.810 K0.000 F2000.000
G2 X-143.491 Y379.949 Z-3.170 I116.489 J36.483 K0.000 F2000.000
G2 X-144.845 Y403.570 Z-3.170 I89.238 J16.967 K0.000 F2000.000
G2 X-137.471 Y433.931 Z-3.170 I98.273 J-7.792 K0.000 F2000.000
G2 X-116.181 Y463.422 Z-3.170 I73.625 J-30.722 K0.000 F2000.000
G2 X-96.365 Y476.504 Z-3.170 I62.687 J-73.405 K0.000 F2000.000
G2 X-76.605 Y484.223 Z-3.170 I56.990 J-116.738 K0.000 F2000.000
G2 X-44.631 Y490.567 Z-3.170 I52.009 J-178.373 K0.000 F2000.000
G2 X-5.272 Y492.171 Z-3.170 I31.595 J-291.706 K0.000 F2000.000
G3 X1.030 Y492.173 Z-3.170 I3.124 J73.753 K0.000 F2000.000
G2 X28.304 Y491.983 Z-3.170 I11.552 J-298.941 K0.000 F2000.000
G2 X52.821 Y489.441 Z-3.170 I-10.642 J-222.190 K0.000 F2000.000
G2 X76.482 Y483.915 Z-3.170 I-24.212 J-157.095 K0.000 F2000.000
G2 X98.102 Y474.695 Z-3.170 I-33.507 J-108.522 K0.000 F2000.000
G2 X110.979 Y466.053 Z-3.170 I-41.700 J-76.050 K0.000 F2000.000
G2 X126.635 Y449.238 Z-3.170 I-50.097 J-62.340 K0.000 F2000.000
G1 X126.635 Y449.238 Z-4.227 F100.000
G2 X132.661 Y438.981 Z-4.227 I-65.753 J-45.526 K0.000 F2000.000
G2 X140.814 Y413.857 Z-4.227 I-87.887 J-42.408 K0.000 F2000.000
G2 X141.412 Y384.524 Z-4.227 I-88.835 J-16.483 K0.000 F2000.000
G2 X137.228 Y366.122 Z-4.227 I-129.874 J19.853 K0.000 F2000.000
G2 X129.956 Y344.929 Z-4.227 I-425.223 J134.057 K0.000 F2000.000
G3 X124.935 Y329.876 Z-4.227 I231.363 J-85.541 K0.000 F2000.000
G3 X122.052 Y317.222 Z-4.227 I93.501 J-27.956 K0.000 F2000.000
G3 X123.380 Y288.467 Z-4.227 I66.956 J-11.316 K0.000 F2000.000
G3 X128.385 Y275.010 Z-4.227 I78.905 J21.688 K0.000 F2000.000
G3 X136.499 Y261.005 Z-4.227 I94.762 J45.550 K0.000 F2000.000
G2 X142.630 Y252.034 Z-4.227 I-299.799 J-211.444 K0.000 F2000.000
G2 X157.645 Y227.525 Z-4.227 I-664.509 J-423.970 K0.000 F2000.000
G2 X169.312 Y206.001 Z-4.227 I-293.731 J-173.144 K0.000 F2000.000
G2 X179.132 Y183.461 Z-4.227 I-198.143 J-99.727 K0.000 F2000.000
G2 X186.616 Y156.904 Z-4.227 I-150.032 J-56.618 K0.000 F2000.000
G2 X188.967 Y132.355 Z-4.227 I-124.979 J-24.351 K0.000 F2000.000
G2 X181.559 Y90.201 Z-4.227 I-125.802 J0.377 K0.000 F2000.000
G2 X166.074 Y58.897 Z-4.227 I-150.615 J55.024 K0.000 F2000.000
G2 X152.550 Y42.291 Z-4.227 I-73.394 J45.963 K0.000 F2000.000
G2 X134.670 Y28.648 Z-4.227 I-74.868 J79.579 K0.000 F2000.000
G2 X114.179 Y18.343 Z-4.227 I-77.669 J128.911 K0.000 F2000.000
G2 X88.159 Y9.702 Z-4.227 I-80.242 J198.130 K0.000 F2000.000
G2 X50.663 Y2.393 Z-4.227 I-80.734 J314.377 K0.000 F2000.000
G2 X-0.875 Y-1.675 Z-4.227 I-64.398 J487.351 K0.000 F2000.000
G2 X-38.310 Y0.432 Z-4.227 I8.730 J488.808 K0.000 F2000.000
G2 X-68.966 Y4.628 Z-4.227 I31.070 J341.083 K0.000 F2000.000
G2 X-97.964 Y11.654 Z-4.227 I42.434 J238.492 K0.000 F2000.000
G2 X-121.307 Y20.661 Z-4.227 I49.044 J161.853 K0.000 F2000.000
G2 X-142.101 Y33.007 Z-4.227 I51.327 J110.137 K0.000 F2000.000
G2 X-163.320 Y54.679 Z-4.227 I53.599 J73.701 K0.000 F2000.000
G2 X-174.340 Y73.227 Z-4.227 I146.549 J99.615 K0.000 F2000.000
G2 X-183.018 Y94.076 Z-4.227 I125.246 J64.366 K0.000 F2000.000
G2 X-188.777 Y139.417 Z-4.227 I117.118 J37.911 K0.000 F2000.000
G2 X-183.859 Y168.419 Z-4.227 I144.676 J-9.613 K0.000 F2000.000
G2 X-173.234 Y197.494 Z-4.227 I199.200 J-56.318 K0.000 F2000.000
G2 X-156.970 Y228.729 Z-4.227 I315.925 J-144.644 K0.000 F2000.000
G2 X-141.603 Y254.187 Z-4.227 I858.807 J-501.060 K0.000 F2000.000
G3 X-132.640 Y268.146 Z-4.227 I-93.339 J69.783 K0.000 F2000.000
G3 X-125.941 Y283.859 Z-4.227 I-71.293 J39.680 K0.000 F2000.000
G3 X-123.046 Y308.355 Z-4.227 I-64.271 J20.014 K0.000 F2000.000
G3 X-124.870 Y320.588 Z-4.227 I-81.546 J-5.906 K0.000 F2000.000
G3 X-128.528 Y333.405 Z-4.227 I-122.990 J-28.169 K0.000 F2000.000
G3 X-133.039 Y345.959 Z-4.227 I-485.002 J-167.190 K0.000 F2000.000
G2 X-139.942 Y365.640 Z-4.227 I307.229 J118.810 K0.000 F2000.000
G2 X-143.491 Y379.949 Z-4.227 I116.489 J36.483 K0.000 F2000.000
G2 X-144.845 Y403.570 Z-4.227 I89.238 J16.967 K0.000 F2000.000
G2 X-137.471 Y433.931 Z-4.227 I98.273 J-7.792 K0.000 F2000.000
G2 X-116.181 Y463.422 Z-4.227 I73.625 J-30.722 K0.000 F2000.000
G2 X-96.365 Y476.504 Z-4.227 I62.687 J-73.405 K0.000 F2000.000
G2 X-76.605 Y484.223 Z-4.227 I56.990 J-116.738 K0.000 F2000.000
G2 X-44.631 Y490.567 Z-4.227 I52.009 J-178.373 K0.000 F2000.000
G2 X-5.272 Y492.171 Z-4.227 I31.595 J-291.706 K0.000 F2000.000
G3 X1.030 Y492.173 Z-4.227 I3.124 J73.753 K0.000 F2000.000
G2 X28.304 Y491.983 Z-4.227 I11.552 J-298.941 K0.000 F2000.000
G2 X52.821 Y489.441 Z-4.227 I-10.642 J-222.190 K0.000 F2000.000
G2 X76.482 Y483.915 Z-4.227 I-24.212 J-157.095 K0.000 F2000.000
G2 X98.102 Y474.695 Z-4.227 I-33.507 J-108.522 K0.000 F2000.000
G2 X110.979 Y466.053 Z-4.227 I-41.700 J-76.050 K0.000 F2000.000
G2 X126.635 Y449.238 Z-4.227 I-50.097 J-62.340 K0.000 F2000.000
G1 X126.635 Y449.238 Z-5.000 F100.000
G2 X132.661 Y438.981 Z-5.000 I-65.753 J-45.526 K0.000 F2000.000
G2 X140.814 Y413.857 Z-5.000 I-87.887 J-42.408 K0.000 F2000.000
G2 X141.412 Y384.524 Z-5.000 I-88.835 J-16.483 K0.000 F2000.000
G2 X137.228 Y366.122 Z-5.000 I-129.874 J19.853 K0.000 F2000.000
G2 X129.956 Y344.929 Z-5.000 I-425.223 J134.057 K0.000 F2000.000
G3 X124.935 Y329.876 Z-5.000 I231.363 J-85.541 K0.000 F2000.000
G3 X122.052 Y317.222 Z-5.000 I93.501 J-27.956 K0.000 F2000.000
G3 X123.380 Y288.467 Z-5.000 I66.956 J-11.316 K0.000 F2000.000
G3 X128.385 Y275.010 Z-5.000 I78.905 J21.688 K0.000 F2000.000
G3 X136.499 Y261.005 Z-5.000 I94.762 J45.550 K0.000 F2000.000
G2 X142.630 Y252.034 Z-5.000 I-299.799 J-211.444 K0.000 F2000.000
G2 X157.645 Y227.525 Z-5.000 I-664.509 J-423.970 K0.000 F2000.000
G2 X169.312 Y206.001 Z-5.000 I-293.731 J-173.144 K0.000 F2000.000
G2 X179.132 Y183.461 Z-5.000 I-198.143 J-99.727 K0.000 F2000.000
G2 X186.616 Y156.904 Z-5.000 I-150.032 J-56.618 K0.000 F2000.000
G2 X188.967 Y132.355 Z-5.000 I-124.979 J-24.351 K0.000 F2000.000
G2 X181.559 Y90.201 Z-5.000 I-125.802 J0.377 K0.000 F2000.000
G2 X166.074 Y58.897 Z-5.000 I-150.615 J55.024 K0.000 F2000.000
G2 X152.550 Y42.291 Z-5.000 I-73.394 J45.963 K0.000 F2000.000
G2 X134.670 Y28.648 Z-5.000 I-74.868 J79.579 K0.000 F2000.000
G2 X114.179 Y18.343 Z-5.000 I-77.669 J128.911 K0.000 F2000.000
G2 X88.159 Y9.702 Z-5.000 I-80.242 J198.130 K0.000 F2000.000
G2 X50.663 Y2.393 Z-5.000 I-80.734 J314.377 K0.000 F2000.000
G2 X-0.875 Y-1.675 Z-5.000 I-64.398 J487.351 K0.000 F2000.000
G2 X-38.310 Y0.432 Z-5.000 I8.730 J488.808 K0.000 F2000.000
G2 X-68.966 Y4.628 Z-5.000 I31.070 J341.083 K0.000 F2000.000
G2 X-97.964 Y11.654 Z-5.000 I42.434 J238.492 K0.000 F2000.000
G2 X-121.307 Y20.661 Z-5.000 I49.044 J161.853 K0.000 F2000.000
G2 X-142.101 Y33.007 Z-5.000 I51.327 J110.137 K0.000 F2000.000
G2 X-163.320 Y54.679 Z-5.000 I53.599 J73.701 K0.000 F2000.000
G2 X-174.340 Y73.227 Z-5.000 I146.549 J99.615 K0.000 F2000.000
G2 X-183.018 Y94.076 Z-5.000 I125.246 J64.366 K0.000 F2000.000
G2 X-188.777 Y139.417 Z-5.000 I117.118 J37.911 K0.000 F2000.000
G2 X-183.859 Y168.419 Z-5.000 I144.676 J-9.613 K0.000 F2000.000
G2 X-173.234 Y197.494 Z-5.000 I199.200 J-56.318 K0.000 F2000.000
G2 X-156.970 Y228.729 Z-5.000 I315.925 J-144.644 K0.000 F2000.000
G2 X-141.603 Y254.187 Z-5.000 I858.807 J-501.060 K0.000 F2000.000
G3 X-132.640 Y268.146 Z-5.000 I-93.339 J69.783 K0.000 F2000.000
G3 X-125.941 Y283.859 Z-5.000 I-71.293 J39.680 K0.000 F2000.000
G3 X-123.046 Y308.355 Z-5.000 I-64.271 J20.014 K0.000 F2000.000
G3 X-124.870 Y320.588 Z-5.000 I-81.546 J-5.906 K0.000 F2000.000
G3 X-128.528 Y333.405 Z-5.000 I-122.990 J-28.169 K0.000 F2000.000
G3 X-133.039 Y345.959 Z-5.000 I-485.002 J-167.190 K0.000 F2000.000
G2 X-139.942 Y365.640 Z-5.000 I307.229 J118.810 K0.000 F2000.000
G2 X-143.491 Y379.949 Z-5.000 I116.489 J36.483 K0.000 F2000.000
G2 X-144.845 Y403.570 Z-5.000 I89.238 J16.967 K0.000 F2000.000
G2 X-137.471 Y433.931 Z-5.000 I98.273 J-7.792 K0.000 F2000.000
G2 X-116.181 Y463.422 Z-5.000 I73.625 J-30.722 K0.000 F2000.000
G2 X-96.365 Y476.504 Z-5.000 I62.687 J-73.405 K0.000 F2000.000
G2 X-76.605 Y484.223 Z-5.000 I56.990 J-116.738 K0.000 F2000.000
G2 X-44.631 Y490.567 Z-5.000 I52.009 J-178.373 K0.000 F2000.000
G2 X-5.272 Y492.171 Z-5.000 I31.595 J-291.706 K0.000 F2000.000
G3 X1.030 Y492.173 Z-5.000 I3.124 J73.753 K0.000 F2000.000
G2 X28.304 Y491.983 Z-5.000 I11.552 J-298.941 K0.000 F2000.000
G2 X52.821 Y489.441 Z-5.000 I-10.642 J-222.190 K0.000 F2000.000
G2 X76.482 Y483.915 Z-5.000 I-24.212 J-157.095 K0.000 F2000.000
G2 X98.102 Y474.695 Z-5.000 I-33.507 J-108.522 K0.000 F2000.000
G2 X110.979 Y466.053 Z-5.000 I-41.700 J-76.050 K0.000 F2000.000
G2 X126.635 Y449.238 Z-5.000 I-50.097 J-62.340 K0.000 F2000.000
G0 Z5.000
G0 Z5.000
(Finish operation: Profile)
(Begin postamble)
M5
G17 G90
M2
