(Exported by FreeCAD)
(Post Processor: grbl_post)
(Output Time:2023-08-27 11:12:02.964749)
(Begin preamble)
G17 G90
G21
(Begin operation: 8 Z1 UP helicoidale001)
(Path: 8 Z1 UP helicoidale001)
(8 Z1 UP helicoidale001)
(Begin toolchange)
( M6 T7 )
M3 S24000
(Finish operation: 8 Z1 UP helicoidale001)
(Begin operation: Fixture)
(Path: Fixture)
G54
(Finish operation: Fixture)
(Begin operation: Surface)
(Path: Surface)
(Surface)
(Surface)
(Tool type: endmill)
(Compensated Tool Path. Diameter: 8.0)
(Sample interval: 1.0)
(Step over %: 80.0)
()
G0 Z28.500
(Beginning of Single-pass layer.)
G0 X41.638 Y210.923
(Begin step 0.)
(part 1.)
G1 X41.638 Y210.923 Z33.587 F2500.000
G1 X41.438 Y210.923 Z33.587 F2500.000
G1 X41.364 Y210.800 Z33.586 F2500.000
G1 X41.499 Y202.001 Z33.513 F2500.000
G1 X41.638 Y210.923 Z33.587 F2500.000
(Break)
G0 Z26.500
G0 X45.151 Y23.203
G0 Z26.500
(part 3.)
G1 X45.151 Y23.203 Z32.009 F2500.000
G1 X45.162 Y23.903 Z32.015 F2500.000
G1 X45.856 Y68.997 Z32.379 F2500.000
G1 X46.554 Y114.392 Z32.738 F2500.000
G1 X47.292 Y162.386 Z33.109 F2500.000
G1 X48.135 Y217.180 Z33.525 F2500.000
G1 X48.081 Y217.323 Z33.530 F2500.000
G1 X47.138 Y217.323 Z33.579 F2500.000
G1 X46.195 Y217.323 Z33.607 F2500.000
G1 X45.252 Y217.323 Z33.623 F2500.000
G1 X44.310 Y217.323 Z33.632 F2500.000
G1 X42.424 Y217.323 Z33.639 F2500.000
G1 X40.538 Y217.323 Z33.639 F2500.000
G1 X38.652 Y217.323 Z33.632 F2500.000
G1 X37.710 Y217.323 Z33.623 F2500.000
G1 X36.767 Y217.323 Z33.607 F2500.000
G1 X35.824 Y217.323 Z33.577 F2500.000
G1 X34.881 Y217.323 Z33.527 F2500.000
G1 X34.865 Y217.142 Z33.525 F2500.000
G1 X35.699 Y162.948 Z33.114 F2500.000
G1 X36.409 Y116.754 Z32.757 F2500.000
G1 X37.031 Y76.359 Z32.438 F2500.000
G1 X37.846 Y23.365 Z32.010 F2500.000
G1 X37.886 Y23.203 Z32.009 F2500.000
G1 X39.703 Y23.203 Z32.023 F2500.000
G1 X41.519 Y23.203 Z32.026 F2500.000
G1 X43.335 Y23.203 Z32.023 F2500.000
G1 X45.151 Y23.203 Z32.009 F2500.000
(Break)
G1 X45.852 Y22.492 Z31.992 F2500.000
G1 X46.552 Y21.781 Z31.964 F2500.000
G1 X47.252 Y21.069 Z31.922 F2500.000
G1 X47.952 Y20.358 Z31.862 F2500.000
G1 X48.653 Y19.647 Z31.787 F2500.000
G1 X49.353 Y18.936 Z31.693 F2500.000
G1 X50.053 Y18.225 Z31.583 F2500.000
G1 X50.753 Y17.514 Z31.456 F2500.000
G1 X51.454 Y16.803 Z31.311 F2500.000
(part 5.)
G1 X51.454 Y16.803 Z31.311 F2500.000
G1 X51.466 Y17.603 Z31.317 F2500.000
G1 X52.349 Y74.996 Z31.663 F2500.000
G1 X53.112 Y124.590 Z31.968 F2500.000
G1 X53.721 Y164.185 Z32.216 F2500.000
G1 X54.635 Y223.578 Z32.597 F2500.000
G1 X54.582 Y223.723 Z32.611 F2500.000
G1 X53.611 Y223.723 Z32.834 F2500.000
G1 X52.641 Y223.723 Z33.028 F2500.000
G1 X51.671 Y223.723 Z33.193 F2500.000
G1 X50.700 Y223.723 Z33.334 F2500.000
G1 X49.730 Y223.723 Z33.447 F2500.000
G1 X48.760 Y223.723 Z33.535 F2500.000
G1 X47.789 Y223.723 Z33.601 F2500.000
G1 X46.819 Y223.723 Z33.644 F2500.000
G1 X45.848 Y223.723 Z33.668 F2500.000
G1 X43.908 Y223.723 Z33.687 F2500.000
G1 X41.967 Y223.723 Z33.693 F2500.000
G1 X39.056 Y223.723 Z33.687 F2500.000
G1 X37.115 Y223.723 Z33.667 F2500.000
G1 X36.145 Y223.723 Z33.643 F2500.000
G1 X35.174 Y223.723 Z33.599 F2500.000
G1 X34.204 Y223.723 Z33.532 F2500.000
G1 X33.234 Y223.723 Z33.443 F2500.000
G1 X32.263 Y223.723 Z33.329 F2500.000
G1 X31.293 Y223.723 Z33.187 F2500.000
G1 X30.323 Y223.723 Z33.022 F2500.000
G1 X29.352 Y223.723 Z32.826 F2500.000
G1 X28.382 Y223.723 Z32.602 F2500.000
G1 X28.366 Y223.542 Z32.597 F2500.000
G1 X29.289 Y163.549 Z32.211 F2500.000
G1 X30.449 Y88.158 Z31.743 F2500.000
G1 X31.544 Y16.966 Z31.312 F2500.000
G1 X31.583 Y16.803 Z31.318 F2500.000
G1 X32.576 Y16.803 Z31.508 F2500.000
G1 X33.570 Y16.803 Z31.664 F2500.000
G1 X34.563 Y16.803 Z31.785 F2500.000
G1 X35.557 Y16.803 Z31.872 F2500.000
G1 X36.550 Y16.803 Z31.925 F2500.000
G1 X37.544 Y16.803 Z31.951 F2500.000
G1 X39.531 Y16.803 Z31.969 F2500.000
G1 X41.518 Y16.803 Z31.973 F2500.000
G1 X43.505 Y16.803 Z31.969 F2500.000
G1 X45.492 Y16.803 Z31.951 F2500.000
G1 X46.486 Y16.803 Z31.924 F2500.000
G1 X47.480 Y16.803 Z31.870 F2500.000
G1 X48.473 Y16.803 Z31.781 F2500.000
G1 X49.467 Y16.803 Z31.659 F2500.000
G1 X50.460 Y16.803 Z31.502 F2500.000
G1 X51.454 Y16.803 Z31.311 F2500.000
(Break)
G1 X52.154 Y16.092 Z31.150 F2500.000
G1 X52.854 Y15.381 Z30.972 F2500.000
G1 X53.555 Y14.669 Z30.779 F2500.000
G1 X54.255 Y13.958 Z30.567 F2500.000
G1 X54.955 Y13.247 Z30.339 F2500.000
G1 X55.655 Y12.536 Z30.093 F2500.000
G1 X56.356 Y11.825 Z29.828 F2500.000
G1 X57.056 Y11.114 Z29.547 F2500.000
G1 X57.756 Y10.403 Z29.246 F2500.000
(part 7.)
G1 X57.756 Y10.403 Z29.246 F2500.000
G1 X57.762 Y10.803 Z29.248 F2500.000
G1 X58.031 Y28.301 Z29.330 F2500.000
G1 X59.434 Y119.490 Z29.776 F2500.000
G1 X61.134 Y229.977 Z30.335 F2500.000
G1 X61.082 Y230.123 Z30.362 F2500.000
G1 X60.102 Y230.123 Z30.815 F2500.000
G1 X59.122 Y230.123 Z31.227 F2500.000
G1 X58.142 Y230.123 Z31.603 F2500.000
G1 X57.162 Y230.123 Z31.944 F2500.000
G1 X56.182 Y230.123 Z32.249 F2500.000
G1 X55.202 Y230.123 Z32.521 F2500.000
G1 X54.222 Y230.123 Z32.763 F2500.000
G1 X53.242 Y230.123 Z32.975 F2500.000
G1 X52.262 Y230.123 Z33.158 F2500.000
G1 X51.282 Y230.123 Z33.312 F2500.000
G1 X50.302 Y230.123 Z33.441 F2500.000
G1 X49.322 Y230.123 Z33.544 F2500.000
G1 X48.342 Y230.123 Z33.622 F2500.000
G1 X47.362 Y230.123 Z33.676 F2500.000
G1 X46.382 Y230.123 Z33.710 F2500.000
G1 X45.402 Y230.123 Z33.728 F2500.000
G1 X43.442 Y230.123 Z33.742 F2500.000
G1 X41.482 Y230.123 Z33.747 F2500.000
G1 X39.522 Y230.123 Z33.743 F2500.000
G1 X37.562 Y230.123 Z33.728 F2500.000
G1 X36.582 Y230.123 Z33.709 F2500.000
G1 X35.602 Y230.123 Z33.675 F2500.000
G1 X34.622 Y230.123 Z33.620 F2500.000
G1 X33.642 Y230.123 Z33.540 F2500.000
G1 X32.662 Y230.123 Z33.437 F2500.000
G1 X31.682 Y230.123 Z33.307 F2500.000
G1 X30.702 Y230.123 Z33.151 F2500.000
G1 X29.722 Y230.123 Z32.968 F2500.000
G1 X28.742 Y230.123 Z32.755 F2500.000
G1 X27.762 Y230.123 Z32.512 F2500.000
G1 X26.782 Y230.123 Z32.239 F2500.000
G1 X25.802 Y230.123 Z31.932 F2500.000
G1 X24.822 Y230.123 Z31.590 F2500.000
G1 X23.842 Y230.123 Z31.213 F2500.000
G1 X22.862 Y230.123 Z30.799 F2500.000
G1 X21.882 Y230.123 Z30.345 F2500.000
G1 X21.867 Y229.942 Z30.335 F2500.000
G1 X21.876 Y229.342 Z30.330 F2500.000
G1 X23.186 Y144.152 Z29.899 F2500.000
G1 X24.106 Y84.359 Z29.602 F2500.000
G1 X25.241 Y10.568 Z29.247 F2500.000
G1 X25.279 Y10.403 Z29.261 F2500.000
G1 X26.279 Y10.403 Z29.672 F2500.000
G1 X27.079 Y10.403 Z29.974 F2500.000
G1 X27.879 Y10.403 Z30.254 F2500.000
G1 X28.579 Y10.403 Z30.480 F2500.000
G1 X29.279 Y10.403 Z30.690 F2500.000
G1 X29.479 Y10.403 Z30.745 F2500.000
G1 X30.079 Y10.403 Z30.907 F2500.000
G1 X30.879 Y10.403 Z31.106 F2500.000
G1 X31.479 Y10.403 Z31.239 F2500.000
G1 X32.079 Y10.403 Z31.360 F2500.000
G1 X32.879 Y10.403 Z31.503 F2500.000
G1 X33.679 Y10.403 Z31.623 F2500.000
G1 X34.379 Y10.403 Z31.711 F2500.000
G1 X35.079 Y10.403 Z31.781 F2500.000
G1 X35.279 Y10.403 Z31.797 F2500.000
G1 X35.879 Y10.403 Z31.840 F2500.000
G1 X36.479 Y10.403 Z31.871 F2500.000
G1 X37.279 Y10.403 Z31.894 F2500.000
G1 X38.079 Y10.403 Z31.905 F2500.000
G1 X39.679 Y10.403 Z31.916 F2500.000
G1 X41.679 Y10.403 Z31.920 F2500.000
G1 X43.679 Y10.403 Z31.915 F2500.000
G1 X45.479 Y10.403 Z31.898 F2500.000
G1 X46.079 Y10.403 Z31.885 F2500.000
G1 X46.879 Y10.403 Z31.854 F2500.000
G1 X47.479 Y10.403 Z31.816 F2500.000
G1 X48.079 Y10.403 Z31.766 F2500.000
G1 X48.879 Y10.403 Z31.680 F2500.000
G1 X49.679 Y10.403 Z31.572 F2500.000
G1 X50.379 Y10.403 Z31.458 F2500.000
G1 X51.079 Y10.403 Z31.329 F2500.000
G1 X51.879 Y10.403 Z31.161 F2500.000
G1 X52.679 Y10.403 Z30.970 F2500.000
G1 X53.279 Y10.403 Z30.813 F2500.000
G1 X53.879 Y10.403 Z30.644 F2500.000
G1 X54.679 Y10.403 Z30.398 F2500.000
G1 X55.279 Y10.403 Z30.200 F2500.000
G1 X55.479 Y10.403 Z30.132 F2500.000
G1 X56.179 Y10.403 Z29.879 F2500.000
G1 X57.079 Y10.403 Z29.530 F2500.000
G1 X57.756 Y10.403 Z29.246 F2500.000
(Break)
G0 Z26.500
G0 X18.942 Y4.003
G0 Z26.500
(part 9.)
G1 X18.942 Y4.003 Z25.637 F2500.000
G1 X19.342 Y4.003 Z25.916 F2500.000
G1 X19.842 Y4.003 Z26.253 F2500.000
G1 X20.342 Y4.003 Z26.578 F2500.000
G1 X20.842 Y4.003 Z26.889 F2500.000
G1 X21.342 Y4.003 Z27.190 F2500.000
G1 X21.842 Y4.003 Z27.480 F2500.000
G1 X22.342 Y4.003 Z27.757 F2500.000
G1 X22.842 Y4.003 Z28.026 F2500.000
G1 X23.342 Y4.003 Z28.284 F2500.000
G1 X23.842 Y4.003 Z28.531 F2500.000
G1 X24.342 Y4.003 Z28.769 F2500.000
G1 X24.842 Y4.003 Z28.998 F2500.000
G1 X25.342 Y4.003 Z29.215 F2500.000
G1 X26.342 Y4.003 Z29.626 F2500.000
G1 X26.842 Y4.003 Z29.818 F2500.000
G1 X27.342 Y4.003 Z30.001 F2500.000
G1 X27.842 Y4.003 Z30.175 F2500.000
G1 X28.342 Y4.003 Z30.340 F2500.000
G1 X28.842 Y4.003 Z30.496 F2500.000
G1 X29.342 Y4.003 Z30.644 F2500.000
G1 X30.342 Y4.003 Z30.915 F2500.000
G1 X30.842 Y4.003 Z31.035 F2500.000
G1 X31.342 Y4.003 Z31.150 F2500.000
G1 X31.842 Y4.003 Z31.254 F2500.000
G1 X32.342 Y4.003 Z31.351 F2500.000
G1 X32.842 Y4.003 Z31.439 F2500.000
G1 X33.342 Y4.003 Z31.518 F2500.000
G1 X33.842 Y4.003 Z31.590 F2500.000
G1 X34.342 Y4.003 Z31.651 F2500.000
G1 X34.842 Y4.003 Z31.704 F2500.000
G1 X35.342 Y4.003 Z31.748 F2500.000
G1 X35.842 Y4.003 Z31.784 F2500.000
G1 X36.342 Y4.003 Z31.811 F2500.000
G1 X36.842 Y4.003 Z31.830 F2500.000
G1 X37.842 Y4.003 Z31.850 F2500.000
G1 X38.942 Y4.003 Z31.859 F2500.000
G1 X41.542 Y4.003 Z31.867 F2500.000
G1 X44.042 Y4.003 Z31.859 F2500.000
G1 X45.042 Y4.003 Z31.851 F2500.000
G1 X46.042 Y4.003 Z31.832 F2500.000
G1 X46.542 Y4.003 Z31.816 F2500.000
G1 X47.042 Y4.003 Z31.791 F2500.000
G1 X47.542 Y4.003 Z31.758 F2500.000
G1 X48.042 Y4.003 Z31.716 F2500.000
G1 X48.542 Y4.003 Z31.664 F2500.000
G1 X49.042 Y4.003 Z31.604 F2500.000
G1 X49.542 Y4.003 Z31.536 F2500.000
G1 X50.042 Y4.003 Z31.458 F2500.000
G1 X50.542 Y4.003 Z31.372 F2500.000
G1 X51.042 Y4.003 Z31.279 F2500.000
G1 X51.542 Y4.003 Z31.175 F2500.000
G1 X52.042 Y4.003 Z31.064 F2500.000
G1 X52.542 Y4.003 Z30.943 F2500.000
G1 X53.042 Y4.003 Z30.814 F2500.000
G1 X53.542 Y4.003 Z30.678 F2500.000
G1 X54.042 Y4.003 Z30.532 F2500.000
G1 X54.542 Y4.003 Z30.378 F2500.000
G1 X55.042 Y4.003 Z30.214 F2500.000
G1 X55.542 Y4.003 Z30.042 F2500.000
G1 X56.042 Y4.003 Z29.861 F2500.000
G1 X56.542 Y4.003 Z29.672 F2500.000
G1 X57.042 Y4.003 Z29.473 F2500.000
G1 X57.542 Y4.003 Z29.266 F2500.000
G1 X58.042 Y4.003 Z29.048 F2500.000
G1 X58.542 Y4.003 Z28.823 F2500.000
G1 X59.042 Y4.003 Z28.588 F2500.000
G1 X59.542 Y4.003 Z28.343 F2500.000
G1 X60.042 Y4.003 Z28.086 F2500.000
G1 X60.542 Y4.003 Z27.822 F2500.000
G1 X61.042 Y4.003 Z27.545 F2500.000
G1 X61.542 Y4.003 Z27.258 F2500.000
G1 X62.042 Y4.003 Z26.961 F2500.000
G1 X62.542 Y4.003 Z26.651 F2500.000
G1 X63.042 Y4.003 Z26.329 F2500.000
G1 X63.542 Y4.003 Z25.997 F2500.000
G1 X63.942 Y4.003 Z25.720 F2500.000
G1 X64.060 Y4.086 Z25.637 F2500.000
G1 X64.989 Y64.479 Z25.808 F2500.000
G1 X65.948 Y126.872 Z25.972 F2500.000
G1 X66.837 Y184.665 Z26.112 F2500.000
G1 X66.862 Y186.264 Z26.113 F2500.000
G1 X67.154 Y205.262 Z26.158 F2500.000
G1 X67.634 Y236.459 Z26.224 F2500.000
G1 X67.500 Y236.523 Z26.336 F2500.000
G1 X66.500 Y236.523 Z27.125 F2500.000
G1 X65.500 Y236.523 Z27.854 F2500.000
G1 X64.500 Y236.523 Z28.526 F2500.000
G1 X63.500 Y236.523 Z29.144 F2500.000
G1 X62.500 Y236.523 Z29.714 F2500.000
G1 X61.500 Y236.523 Z30.236 F2500.000
G1 X60.500 Y236.523 Z30.714 F2500.000
G1 X59.500 Y236.523 Z31.149 F2500.000
G1 X58.500 Y236.523 Z31.545 F2500.000
G1 X57.500 Y236.523 Z31.902 F2500.000
G1 X56.500 Y236.523 Z32.224 F2500.000
G1 X55.500 Y236.523 Z32.510 F2500.000
G1 X54.500 Y236.523 Z32.764 F2500.000
G1 X53.500 Y236.523 Z32.985 F2500.000
G1 X52.500 Y236.523 Z33.177 F2500.000
G1 X51.500 Y236.523 Z33.340 F2500.000
G1 X50.500 Y236.523 Z33.475 F2500.000
G1 X49.500 Y236.523 Z33.583 F2500.000
G1 X48.500 Y236.523 Z33.666 F2500.000
G1 X47.500 Y236.523 Z33.724 F2500.000
G1 X46.500 Y236.523 Z33.761 F2500.000
G1 X45.500 Y236.523 Z33.779 F2500.000
G1 X44.500 Y236.523 Z33.790 F2500.000
G1 X42.500 Y236.523 Z33.799 F2500.000
G1 X40.500 Y236.523 Z33.799 F2500.000
G1 X38.500 Y236.523 Z33.790 F2500.000
G1 X37.500 Y236.523 Z33.778 F2500.000
G1 X36.500 Y236.523 Z33.761 F2500.000
G1 X35.500 Y236.523 Z33.724 F2500.000
G1 X34.500 Y236.523 Z33.666 F2500.000
G1 X33.500 Y236.523 Z33.583 F2500.000
G1 X32.500 Y236.523 Z33.475 F2500.000
G1 X31.500 Y236.523 Z33.340 F2500.000
G1 X30.500 Y236.523 Z33.177 F2500.000
G1 X29.500 Y236.523 Z32.985 F2500.000
G1 X28.500 Y236.523 Z32.764 F2500.000
G1 X27.500 Y236.523 Z32.511 F2500.000
G1 X26.500 Y236.523 Z32.224 F2500.000
G1 X25.500 Y236.523 Z31.902 F2500.000
G1 X24.500 Y236.523 Z31.545 F2500.000
G1 X23.500 Y236.523 Z31.150 F2500.000
G1 X22.500 Y236.523 Z30.713 F2500.000
G1 X21.500 Y236.523 Z30.236 F2500.000
G1 X20.500 Y236.523 Z29.714 F2500.000
G1 X19.500 Y236.523 Z29.144 F2500.000
G1 X18.500 Y236.523 Z28.525 F2500.000
G1 X17.500 Y236.523 Z27.853 F2500.000
G1 X16.500 Y236.523 Z27.124 F2500.000
G1 X15.500 Y236.523 Z26.336 F2500.000
G1 X15.366 Y236.458 Z26.224 F2500.000
G1 X16.166 Y184.465 Z26.111 F2500.000
G1 X17.018 Y129.071 Z25.978 F2500.000
G1 X18.011 Y64.479 Z25.808 F2500.000
G1 X18.942 Y4.003 Z25.637 F2500.000
(End of step 0.)
G0 Z28.500
(Finish operation: Surface)
(Begin operation: Array)
(Path: Array)
(Surface)
(Surface)
(Tool type: endmill)
(Compensated Tool Path. Diameter: 8.0)
(Sample interval: 1.0)
(Step over %: 80.0)
()
G0 Z24.500
(Beginning of Single-pass layer.)
G0 X41.638 Y210.923
(Begin step 0.)
(part 1.)
G1 X41.638 Y210.923 Z29.587 F2500.000
G1 X41.438 Y210.923 Z29.587 F2500.000
G1 X41.364 Y210.800 Z29.586 F2500.000
G1 X41.499 Y202.001 Z29.513 F2500.000
G1 X41.638 Y210.923 Z29.587 F2500.000
(Break)
G0 Z22.500
G0 X45.151 Y23.203
G0 Z22.500
(part 3.)
G1 X45.151 Y23.203 Z28.009 F2500.000
G1 X45.162 Y23.903 Z28.015 F2500.000
G1 X45.856 Y68.997 Z28.379 F2500.000
G1 X46.554 Y114.392 Z28.738 F2500.000
G1 X47.292 Y162.386 Z29.109 F2500.000
G1 X48.135 Y217.180 Z29.525 F2500.000
G1 X48.081 Y217.323 Z29.530 F2500.000
G1 X47.138 Y217.323 Z29.579 F2500.000
G1 X46.195 Y217.323 Z29.607 F2500.000
G1 X45.252 Y217.323 Z29.623 F2500.000
G1 X44.310 Y217.323 Z29.632 F2500.000
G1 X42.424 Y217.323 Z29.639 F2500.000
G1 X40.538 Y217.323 Z29.639 F2500.000
G1 X38.652 Y217.323 Z29.632 F2500.000
G1 X37.710 Y217.323 Z29.623 F2500.000
G1 X36.767 Y217.323 Z29.607 F2500.000
G1 X35.824 Y217.323 Z29.577 F2500.000
G1 X34.881 Y217.323 Z29.527 F2500.000
G1 X34.865 Y217.142 Z29.525 F2500.000
G1 X35.699 Y162.948 Z29.114 F2500.000
G1 X36.409 Y116.754 Z28.757 F2500.000
G1 X37.031 Y76.359 Z28.438 F2500.000
G1 X37.846 Y23.365 Z28.010 F2500.000
G1 X37.886 Y23.203 Z28.009 F2500.000
G1 X39.703 Y23.203 Z28.023 F2500.000
G1 X41.519 Y23.203 Z28.026 F2500.000
G1 X43.335 Y23.203 Z28.023 F2500.000
G1 X45.151 Y23.203 Z28.009 F2500.000
(Break)
G1 X45.852 Y22.492 Z27.992 F2500.000
G1 X46.552 Y21.781 Z27.964 F2500.000
G1 X47.252 Y21.069 Z27.922 F2500.000
G1 X47.952 Y20.358 Z27.862 F2500.000
G1 X48.653 Y19.647 Z27.787 F2500.000
G1 X49.353 Y18.936 Z27.693 F2500.000
G1 X50.053 Y18.225 Z27.583 F2500.000
G1 X50.753 Y17.514 Z27.456 F2500.000
G1 X51.454 Y16.803 Z27.311 F2500.000
(part 5.)
G1 X51.454 Y16.803 Z27.311 F2500.000
G1 X51.466 Y17.603 Z27.317 F2500.000
G1 X52.349 Y74.996 Z27.663 F2500.000
G1 X53.112 Y124.590 Z27.968 F2500.000
G1 X53.721 Y164.185 Z28.216 F2500.000
G1 X54.635 Y223.578 Z28.597 F2500.000
G1 X54.582 Y223.723 Z28.611 F2500.000
G1 X53.611 Y223.723 Z28.834 F2500.000
G1 X52.641 Y223.723 Z29.028 F2500.000
G1 X51.671 Y223.723 Z29.193 F2500.000
G1 X50.700 Y223.723 Z29.334 F2500.000
G1 X49.730 Y223.723 Z29.447 F2500.000
G1 X48.760 Y223.723 Z29.535 F2500.000
G1 X47.789 Y223.723 Z29.601 F2500.000
G1 X46.819 Y223.723 Z29.644 F2500.000
G1 X45.848 Y223.723 Z29.668 F2500.000
G1 X43.908 Y223.723 Z29.687 F2500.000
G1 X41.967 Y223.723 Z29.693 F2500.000
G1 X39.056 Y223.723 Z29.687 F2500.000
G1 X37.115 Y223.723 Z29.667 F2500.000
G1 X36.145 Y223.723 Z29.643 F2500.000
G1 X35.174 Y223.723 Z29.599 F2500.000
G1 X34.204 Y223.723 Z29.532 F2500.000
G1 X33.234 Y223.723 Z29.443 F2500.000
G1 X32.263 Y223.723 Z29.329 F2500.000
G1 X31.293 Y223.723 Z29.187 F2500.000
G1 X30.323 Y223.723 Z29.022 F2500.000
G1 X29.352 Y223.723 Z28.826 F2500.000
G1 X28.382 Y223.723 Z28.602 F2500.000
G1 X28.366 Y223.542 Z28.597 F2500.000
G1 X29.289 Y163.549 Z28.211 F2500.000
G1 X30.449 Y88.158 Z27.743 F2500.000
G1 X31.544 Y16.966 Z27.312 F2500.000
G1 X31.583 Y16.803 Z27.318 F2500.000
G1 X32.576 Y16.803 Z27.508 F2500.000
G1 X33.570 Y16.803 Z27.664 F2500.000
G1 X34.563 Y16.803 Z27.785 F2500.000
G1 X35.557 Y16.803 Z27.872 F2500.000
G1 X36.550 Y16.803 Z27.925 F2500.000
G1 X37.544 Y16.803 Z27.951 F2500.000
G1 X39.531 Y16.803 Z27.969 F2500.000
G1 X41.518 Y16.803 Z27.973 F2500.000
G1 X43.505 Y16.803 Z27.969 F2500.000
G1 X45.492 Y16.803 Z27.951 F2500.000
G1 X46.486 Y16.803 Z27.924 F2500.000
G1 X47.480 Y16.803 Z27.870 F2500.000
G1 X48.473 Y16.803 Z27.781 F2500.000
G1 X49.467 Y16.803 Z27.659 F2500.000
G1 X50.460 Y16.803 Z27.502 F2500.000
G1 X51.454 Y16.803 Z27.311 F2500.000
(Break)
G1 X52.154 Y16.092 Z27.150 F2500.000
G1 X52.854 Y15.381 Z26.972 F2500.000
G1 X53.555 Y14.669 Z26.779 F2500.000
G1 X54.255 Y13.958 Z26.567 F2500.000
G1 X54.955 Y13.247 Z26.339 F2500.000
G1 X55.655 Y12.536 Z26.093 F2500.000
G1 X56.356 Y11.825 Z25.828 F2500.000
G1 X57.056 Y11.114 Z25.547 F2500.000
G1 X57.756 Y10.403 Z25.246 F2500.000
(part 7.)
G1 X57.756 Y10.403 Z25.246 F2500.000
G1 X57.762 Y10.803 Z25.248 F2500.000
G1 X58.031 Y28.301 Z25.330 F2500.000
G1 X59.434 Y119.490 Z25.776 F2500.000
G1 X61.134 Y229.977 Z26.335 F2500.000
G1 X61.082 Y230.123 Z26.362 F2500.000
G1 X60.102 Y230.123 Z26.815 F2500.000
G1 X59.122 Y230.123 Z27.227 F2500.000
G1 X58.142 Y230.123 Z27.603 F2500.000
G1 X57.162 Y230.123 Z27.944 F2500.000
G1 X56.182 Y230.123 Z28.249 F2500.000
G1 X55.202 Y230.123 Z28.521 F2500.000
G1 X54.222 Y230.123 Z28.763 F2500.000
G1 X53.242 Y230.123 Z28.975 F2500.000
G1 X52.262 Y230.123 Z29.158 F2500.000
G1 X51.282 Y230.123 Z29.312 F2500.000
G1 X50.302 Y230.123 Z29.441 F2500.000
G1 X49.322 Y230.123 Z29.544 F2500.000
G1 X48.342 Y230.123 Z29.622 F2500.000
G1 X47.362 Y230.123 Z29.676 F2500.000
G1 X46.382 Y230.123 Z29.710 F2500.000
G1 X45.402 Y230.123 Z29.728 F2500.000
G1 X43.442 Y230.123 Z29.742 F2500.000
G1 X41.482 Y230.123 Z29.747 F2500.000
G1 X39.522 Y230.123 Z29.743 F2500.000
G1 X37.562 Y230.123 Z29.728 F2500.000
G1 X36.582 Y230.123 Z29.709 F2500.000
G1 X35.602 Y230.123 Z29.675 F2500.000
G1 X34.622 Y230.123 Z29.620 F2500.000
G1 X33.642 Y230.123 Z29.540 F2500.000
G1 X32.662 Y230.123 Z29.437 F2500.000
G1 X31.682 Y230.123 Z29.307 F2500.000
G1 X30.702 Y230.123 Z29.151 F2500.000
G1 X29.722 Y230.123 Z28.968 F2500.000
G1 X28.742 Y230.123 Z28.755 F2500.000
G1 X27.762 Y230.123 Z28.512 F2500.000
G1 X26.782 Y230.123 Z28.239 F2500.000
G1 X25.802 Y230.123 Z27.932 F2500.000
G1 X24.822 Y230.123 Z27.590 F2500.000
G1 X23.842 Y230.123 Z27.213 F2500.000
G1 X22.862 Y230.123 Z26.799 F2500.000
G1 X21.882 Y230.123 Z26.345 F2500.000
G1 X21.867 Y229.942 Z26.335 F2500.000
G1 X21.876 Y229.342 Z26.330 F2500.000
G1 X23.186 Y144.152 Z25.899 F2500.000
G1 X24.106 Y84.359 Z25.602 F2500.000
G1 X25.241 Y10.568 Z25.247 F2500.000
G1 X25.279 Y10.403 Z25.261 F2500.000
G1 X26.279 Y10.403 Z25.672 F2500.000
G1 X27.079 Y10.403 Z25.974 F2500.000
G1 X27.879 Y10.403 Z26.254 F2500.000
G1 X28.579 Y10.403 Z26.480 F2500.000
G1 X29.279 Y10.403 Z26.690 F2500.000
G1 X29.479 Y10.403 Z26.745 F2500.000
G1 X30.079 Y10.403 Z26.907 F2500.000
G1 X30.879 Y10.403 Z27.106 F2500.000
G1 X31.479 Y10.403 Z27.239 F2500.000
G1 X32.079 Y10.403 Z27.360 F2500.000
G1 X32.879 Y10.403 Z27.503 F2500.000
G1 X33.679 Y10.403 Z27.623 F2500.000
G1 X34.379 Y10.403 Z27.711 F2500.000
G1 X35.079 Y10.403 Z27.781 F2500.000
G1 X35.279 Y10.403 Z27.797 F2500.000
G1 X35.879 Y10.403 Z27.840 F2500.000
G1 X36.479 Y10.403 Z27.871 F2500.000
G1 X37.279 Y10.403 Z27.894 F2500.000
G1 X38.079 Y10.403 Z27.905 F2500.000
G1 X39.679 Y10.403 Z27.916 F2500.000
G1 X41.679 Y10.403 Z27.920 F2500.000
G1 X43.679 Y10.403 Z27.915 F2500.000
G1 X45.479 Y10.403 Z27.898 F2500.000
G1 X46.079 Y10.403 Z27.885 F2500.000
G1 X46.879 Y10.403 Z27.854 F2500.000
G1 X47.479 Y10.403 Z27.816 F2500.000
G1 X48.079 Y10.403 Z27.766 F2500.000
G1 X48.879 Y10.403 Z27.680 F2500.000
G1 X49.679 Y10.403 Z27.572 F2500.000
G1 X50.379 Y10.403 Z27.458 F2500.000
G1 X51.079 Y10.403 Z27.329 F2500.000
G1 X51.879 Y10.403 Z27.161 F2500.000
G1 X52.679 Y10.403 Z26.970 F2500.000
G1 X53.279 Y10.403 Z26.813 F2500.000
G1 X53.879 Y10.403 Z26.644 F2500.000
G1 X54.679 Y10.403 Z26.398 F2500.000
G1 X55.279 Y10.403 Z26.200 F2500.000
G1 X55.479 Y10.403 Z26.132 F2500.000
G1 X56.179 Y10.403 Z25.879 F2500.000
G1 X57.079 Y10.403 Z25.530 F2500.000
G1 X57.756 Y10.403 Z25.246 F2500.000
(Break)
G0 Z22.500
G0 X18.942 Y4.003
G0 Z22.500
(part 9.)
G1 X18.942 Y4.003 Z21.637 F2500.000
G1 X19.342 Y4.003 Z21.916 F2500.000
G1 X19.842 Y4.003 Z22.253 F2500.000
G1 X20.342 Y4.003 Z22.578 F2500.000
G1 X20.842 Y4.003 Z22.889 F2500.000
G1 X21.342 Y4.003 Z23.190 F2500.000
G1 X21.842 Y4.003 Z23.480 F2500.000
G1 X22.342 Y4.003 Z23.757 F2500.000
G1 X22.842 Y4.003 Z24.026 F2500.000
G1 X23.342 Y4.003 Z24.284 F2500.000
G1 X23.842 Y4.003 Z24.531 F2500.000
G1 X24.342 Y4.003 Z24.769 F2500.000
G1 X24.842 Y4.003 Z24.998 F2500.000
G1 X25.342 Y4.003 Z25.215 F2500.000
G1 X26.342 Y4.003 Z25.626 F2500.000
G1 X26.842 Y4.003 Z25.818 F2500.000
G1 X27.342 Y4.003 Z26.001 F2500.000
G1 X27.842 Y4.003 Z26.175 F2500.000
G1 X28.342 Y4.003 Z26.340 F2500.000
G1 X28.842 Y4.003 Z26.496 F2500.000
G1 X29.342 Y4.003 Z26.644 F2500.000
G1 X30.342 Y4.003 Z26.915 F2500.000
G1 X30.842 Y4.003 Z27.035 F2500.000
G1 X31.342 Y4.003 Z27.150 F2500.000
G1 X31.842 Y4.003 Z27.254 F2500.000
G1 X32.342 Y4.003 Z27.351 F2500.000
G1 X32.842 Y4.003 Z27.439 F2500.000
G1 X33.342 Y4.003 Z27.518 F2500.000
G1 X33.842 Y4.003 Z27.590 F2500.000
G1 X34.342 Y4.003 Z27.651 F2500.000
G1 X34.842 Y4.003 Z27.704 F2500.000
G1 X35.342 Y4.003 Z27.748 F2500.000
G1 X35.842 Y4.003 Z27.784 F2500.000
G1 X36.342 Y4.003 Z27.811 F2500.000
G1 X36.842 Y4.003 Z27.830 F2500.000
G1 X37.842 Y4.003 Z27.850 F2500.000
G1 X38.942 Y4.003 Z27.859 F2500.000
G1 X41.542 Y4.003 Z27.867 F2500.000
G1 X44.042 Y4.003 Z27.859 F2500.000
G1 X45.042 Y4.003 Z27.851 F2500.000
G1 X46.042 Y4.003 Z27.832 F2500.000
G1 X46.542 Y4.003 Z27.816 F2500.000
G1 X47.042 Y4.003 Z27.791 F2500.000
G1 X47.542 Y4.003 Z27.758 F2500.000
G1 X48.042 Y4.003 Z27.716 F2500.000
G1 X48.542 Y4.003 Z27.664 F2500.000
G1 X49.042 Y4.003 Z27.604 F2500.000
G1 X49.542 Y4.003 Z27.536 F2500.000
G1 X50.042 Y4.003 Z27.458 F2500.000
G1 X50.542 Y4.003 Z27.372 F2500.000
G1 X51.042 Y4.003 Z27.279 F2500.000
G1 X51.542 Y4.003 Z27.175 F2500.000
G1 X52.042 Y4.003 Z27.064 F2500.000
G1 X52.542 Y4.003 Z26.943 F2500.000
G1 X53.042 Y4.003 Z26.814 F2500.000
G1 X53.542 Y4.003 Z26.678 F2500.000
G1 X54.042 Y4.003 Z26.532 F2500.000
G1 X54.542 Y4.003 Z26.378 F2500.000
G1 X55.042 Y4.003 Z26.214 F2500.000
G1 X55.542 Y4.003 Z26.042 F2500.000
G1 X56.042 Y4.003 Z25.861 F2500.000
G1 X56.542 Y4.003 Z25.672 F2500.000
G1 X57.042 Y4.003 Z25.473 F2500.000
G1 X57.542 Y4.003 Z25.266 F2500.000
G1 X58.042 Y4.003 Z25.048 F2500.000
G1 X58.542 Y4.003 Z24.823 F2500.000
G1 X59.042 Y4.003 Z24.588 F2500.000
G1 X59.542 Y4.003 Z24.343 F2500.000
G1 X60.042 Y4.003 Z24.086 F2500.000
G1 X60.542 Y4.003 Z23.822 F2500.000
G1 X61.042 Y4.003 Z23.545 F2500.000
G1 X61.542 Y4.003 Z23.258 F2500.000
G1 X62.042 Y4.003 Z22.961 F2500.000
G1 X62.542 Y4.003 Z22.651 F2500.000
G1 X63.042 Y4.003 Z22.329 F2500.000
G1 X63.542 Y4.003 Z21.997 F2500.000
G1 X63.942 Y4.003 Z21.720 F2500.000
G1 X64.060 Y4.086 Z21.637 F2500.000
G1 X64.989 Y64.479 Z21.808 F2500.000
G1 X65.948 Y126.872 Z21.972 F2500.000
G1 X66.837 Y184.665 Z22.112 F2500.000
G1 X66.862 Y186.264 Z22.113 F2500.000
G1 X67.154 Y205.262 Z22.158 F2500.000
G1 X67.634 Y236.459 Z22.224 F2500.000
G1 X67.500 Y236.523 Z22.336 F2500.000
G1 X66.500 Y236.523 Z23.125 F2500.000
G1 X65.500 Y236.523 Z23.854 F2500.000
G1 X64.500 Y236.523 Z24.526 F2500.000
G1 X63.500 Y236.523 Z25.144 F2500.000
G1 X62.500 Y236.523 Z25.714 F2500.000
G1 X61.500 Y236.523 Z26.236 F2500.000
G1 X60.500 Y236.523 Z26.714 F2500.000
G1 X59.500 Y236.523 Z27.149 F2500.000
G1 X58.500 Y236.523 Z27.545 F2500.000
G1 X57.500 Y236.523 Z27.902 F2500.000
G1 X56.500 Y236.523 Z28.224 F2500.000
G1 X55.500 Y236.523 Z28.510 F2500.000
G1 X54.500 Y236.523 Z28.764 F2500.000
G1 X53.500 Y236.523 Z28.985 F2500.000
G1 X52.500 Y236.523 Z29.177 F2500.000
G1 X51.500 Y236.523 Z29.340 F2500.000
G1 X50.500 Y236.523 Z29.475 F2500.000
G1 X49.500 Y236.523 Z29.583 F2500.000
G1 X48.500 Y236.523 Z29.666 F2500.000
G1 X47.500 Y236.523 Z29.724 F2500.000
G1 X46.500 Y236.523 Z29.761 F2500.000
G1 X45.500 Y236.523 Z29.779 F2500.000
G1 X44.500 Y236.523 Z29.790 F2500.000
G1 X42.500 Y236.523 Z29.799 F2500.000
G1 X40.500 Y236.523 Z29.799 F2500.000
G1 X38.500 Y236.523 Z29.790 F2500.000
G1 X37.500 Y236.523 Z29.778 F2500.000
G1 X36.500 Y236.523 Z29.761 F2500.000
G1 X35.500 Y236.523 Z29.724 F2500.000
G1 X34.500 Y236.523 Z29.666 F2500.000
G1 X33.500 Y236.523 Z29.583 F2500.000
G1 X32.500 Y236.523 Z29.475 F2500.000
G1 X31.500 Y236.523 Z29.340 F2500.000
G1 X30.500 Y236.523 Z29.177 F2500.000
G1 X29.500 Y236.523 Z28.985 F2500.000
G1 X28.500 Y236.523 Z28.764 F2500.000
G1 X27.500 Y236.523 Z28.511 F2500.000
G1 X26.500 Y236.523 Z28.224 F2500.000
G1 X25.500 Y236.523 Z27.902 F2500.000
G1 X24.500 Y236.523 Z27.545 F2500.000
G1 X23.500 Y236.523 Z27.150 F2500.000
G1 X22.500 Y236.523 Z26.713 F2500.000
G1 X21.500 Y236.523 Z26.236 F2500.000
G1 X20.500 Y236.523 Z25.714 F2500.000
G1 X19.500 Y236.523 Z25.144 F2500.000
G1 X18.500 Y236.523 Z24.525 F2500.000
G1 X17.500 Y236.523 Z23.853 F2500.000
G1 X16.500 Y236.523 Z23.124 F2500.000
G1 X15.500 Y236.523 Z22.336 F2500.000
G1 X15.366 Y236.458 Z22.224 F2500.000
G1 X16.166 Y184.465 Z22.111 F2500.000
G1 X17.018 Y129.071 Z21.978 F2500.000
G1 X18.011 Y64.479 Z21.808 F2500.000
G1 X18.942 Y4.003 Z21.637 F2500.000
(End of step 0.)
G0 Z24.500
(Surface)
(Surface)
(Tool type: endmill)
(Compensated Tool Path. Diameter: 8.0)
(Sample interval: 1.0)
(Step over %: 80.0)
()
G0 Z20.500
(Beginning of Single-pass layer.)
G0 X41.638 Y210.923
(Begin step 0.)
(part 1.)
G1 X41.638 Y210.923 Z25.587 F2500.000
G1 X41.438 Y210.923 Z25.587 F2500.000
G1 X41.364 Y210.800 Z25.586 F2500.000
G1 X41.499 Y202.001 Z25.513 F2500.000
G1 X41.638 Y210.923 Z25.587 F2500.000
(Break)
G0 Z18.500
G0 X45.151 Y23.203
G0 Z18.500
(part 3.)
G1 X45.151 Y23.203 Z24.009 F2500.000
G1 X45.162 Y23.903 Z24.015 F2500.000
G1 X45.856 Y68.997 Z24.379 F2500.000
G1 X46.554 Y114.392 Z24.738 F2500.000
G1 X47.292 Y162.386 Z25.109 F2500.000
G1 X48.135 Y217.180 Z25.525 F2500.000
G1 X48.081 Y217.323 Z25.530 F2500.000
G1 X47.138 Y217.323 Z25.579 F2500.000
G1 X46.195 Y217.323 Z25.607 F2500.000
G1 X45.252 Y217.323 Z25.623 F2500.000
G1 X44.310 Y217.323 Z25.632 F2500.000
G1 X42.424 Y217.323 Z25.639 F2500.000
G1 X40.538 Y217.323 Z25.639 F2500.000
G1 X38.652 Y217.323 Z25.632 F2500.000
G1 X37.710 Y217.323 Z25.623 F2500.000
G1 X36.767 Y217.323 Z25.607 F2500.000
G1 X35.824 Y217.323 Z25.577 F2500.000
G1 X34.881 Y217.323 Z25.527 F2500.000
G1 X34.865 Y217.142 Z25.525 F2500.000
G1 X35.699 Y162.948 Z25.114 F2500.000
G1 X36.409 Y116.754 Z24.757 F2500.000
G1 X37.031 Y76.359 Z24.438 F2500.000
G1 X37.846 Y23.365 Z24.010 F2500.000
G1 X37.886 Y23.203 Z24.009 F2500.000
G1 X39.703 Y23.203 Z24.023 F2500.000
G1 X41.519 Y23.203 Z24.026 F2500.000
G1 X43.335 Y23.203 Z24.023 F2500.000
G1 X45.151 Y23.203 Z24.009 F2500.000
(Break)
G1 X45.852 Y22.492 Z23.992 F2500.000
G1 X46.552 Y21.781 Z23.964 F2500.000
G1 X47.252 Y21.069 Z23.922 F2500.000
G1 X47.952 Y20.358 Z23.862 F2500.000
G1 X48.653 Y19.647 Z23.787 F2500.000
G1 X49.353 Y18.936 Z23.693 F2500.000
G1 X50.053 Y18.225 Z23.583 F2500.000
G1 X50.753 Y17.514 Z23.456 F2500.000
G1 X51.454 Y16.803 Z23.311 F2500.000
(part 5.)
G1 X51.454 Y16.803 Z23.311 F2500.000
G1 X51.466 Y17.603 Z23.317 F2500.000
G1 X52.349 Y74.996 Z23.663 F2500.000
G1 X53.112 Y124.590 Z23.968 F2500.000
G1 X53.721 Y164.185 Z24.216 F2500.000
G1 X54.635 Y223.578 Z24.597 F2500.000
G1 X54.582 Y223.723 Z24.611 F2500.000
G1 X53.611 Y223.723 Z24.834 F2500.000
G1 X52.641 Y223.723 Z25.028 F2500.000
G1 X51.671 Y223.723 Z25.193 F2500.000
G1 X50.700 Y223.723 Z25.334 F2500.000
G1 X49.730 Y223.723 Z25.447 F2500.000
G1 X48.760 Y223.723 Z25.535 F2500.000
G1 X47.789 Y223.723 Z25.601 F2500.000
G1 X46.819 Y223.723 Z25.644 F2500.000
G1 X45.848 Y223.723 Z25.668 F2500.000
G1 X43.908 Y223.723 Z25.687 F2500.000
G1 X41.967 Y223.723 Z25.693 F2500.000
G1 X39.056 Y223.723 Z25.687 F2500.000
G1 X37.115 Y223.723 Z25.667 F2500.000
G1 X36.145 Y223.723 Z25.643 F2500.000
G1 X35.174 Y223.723 Z25.599 F2500.000
G1 X34.204 Y223.723 Z25.532 F2500.000
G1 X33.234 Y223.723 Z25.443 F2500.000
G1 X32.263 Y223.723 Z25.329 F2500.000
G1 X31.293 Y223.723 Z25.187 F2500.000
G1 X30.323 Y223.723 Z25.022 F2500.000
G1 X29.352 Y223.723 Z24.826 F2500.000
G1 X28.382 Y223.723 Z24.602 F2500.000
G1 X28.366 Y223.542 Z24.597 F2500.000
G1 X29.289 Y163.549 Z24.211 F2500.000
G1 X30.449 Y88.158 Z23.743 F2500.000
G1 X31.544 Y16.966 Z23.312 F2500.000
G1 X31.583 Y16.803 Z23.318 F2500.000
G1 X32.576 Y16.803 Z23.508 F2500.000
G1 X33.570 Y16.803 Z23.664 F2500.000
G1 X34.563 Y16.803 Z23.785 F2500.000
G1 X35.557 Y16.803 Z23.872 F2500.000
G1 X36.550 Y16.803 Z23.925 F2500.000
G1 X37.544 Y16.803 Z23.951 F2500.000
G1 X39.531 Y16.803 Z23.969 F2500.000
G1 X41.518 Y16.803 Z23.973 F2500.000
G1 X43.505 Y16.803 Z23.969 F2500.000
G1 X45.492 Y16.803 Z23.951 F2500.000
G1 X46.486 Y16.803 Z23.924 F2500.000
G1 X47.480 Y16.803 Z23.870 F2500.000
G1 X48.473 Y16.803 Z23.781 F2500.000
G1 X49.467 Y16.803 Z23.659 F2500.000
G1 X50.460 Y16.803 Z23.502 F2500.000
G1 X51.454 Y16.803 Z23.311 F2500.000
(Break)
G1 X52.154 Y16.092 Z23.150 F2500.000
G1 X52.854 Y15.381 Z22.972 F2500.000
G1 X53.555 Y14.669 Z22.779 F2500.000
G1 X54.255 Y13.958 Z22.567 F2500.000
G1 X54.955 Y13.247 Z22.339 F2500.000
G1 X55.655 Y12.536 Z22.093 F2500.000
G1 X56.356 Y11.825 Z21.828 F2500.000
G1 X57.056 Y11.114 Z21.547 F2500.000
G1 X57.756 Y10.403 Z21.246 F2500.000
(part 7.)
G1 X57.756 Y10.403 Z21.246 F2500.000
G1 X57.762 Y10.803 Z21.248 F2500.000
G1 X58.031 Y28.301 Z21.330 F2500.000
G1 X59.434 Y119.490 Z21.776 F2500.000
G1 X61.134 Y229.977 Z22.335 F2500.000
G1 X61.082 Y230.123 Z22.362 F2500.000
G1 X60.102 Y230.123 Z22.815 F2500.000
G1 X59.122 Y230.123 Z23.227 F2500.000
G1 X58.142 Y230.123 Z23.603 F2500.000
G1 X57.162 Y230.123 Z23.944 F2500.000
G1 X56.182 Y230.123 Z24.249 F2500.000
G1 X55.202 Y230.123 Z24.521 F2500.000
G1 X54.222 Y230.123 Z24.763 F2500.000
G1 X53.242 Y230.123 Z24.975 F2500.000
G1 X52.262 Y230.123 Z25.158 F2500.000
G1 X51.282 Y230.123 Z25.312 F2500.000
G1 X50.302 Y230.123 Z25.441 F2500.000
G1 X49.322 Y230.123 Z25.544 F2500.000
G1 X48.342 Y230.123 Z25.622 F2500.000
G1 X47.362 Y230.123 Z25.676 F2500.000
G1 X46.382 Y230.123 Z25.710 F2500.000
G1 X45.402 Y230.123 Z25.728 F2500.000
G1 X43.442 Y230.123 Z25.742 F2500.000
G1 X41.482 Y230.123 Z25.747 F2500.000
G1 X39.522 Y230.123 Z25.743 F2500.000
G1 X37.562 Y230.123 Z25.728 F2500.000
G1 X36.582 Y230.123 Z25.709 F2500.000
G1 X35.602 Y230.123 Z25.675 F2500.000
G1 X34.622 Y230.123 Z25.620 F2500.000
G1 X33.642 Y230.123 Z25.540 F2500.000
G1 X32.662 Y230.123 Z25.437 F2500.000
G1 X31.682 Y230.123 Z25.307 F2500.000
G1 X30.702 Y230.123 Z25.151 F2500.000
G1 X29.722 Y230.123 Z24.968 F2500.000
G1 X28.742 Y230.123 Z24.755 F2500.000
G1 X27.762 Y230.123 Z24.512 F2500.000
G1 X26.782 Y230.123 Z24.239 F2500.000
G1 X25.802 Y230.123 Z23.932 F2500.000
G1 X24.822 Y230.123 Z23.590 F2500.000
G1 X23.842 Y230.123 Z23.213 F2500.000
G1 X22.862 Y230.123 Z22.799 F2500.000
G1 X21.882 Y230.123 Z22.345 F2500.000
G1 X21.867 Y229.942 Z22.335 F2500.000
G1 X21.876 Y229.342 Z22.330 F2500.000
G1 X23.186 Y144.152 Z21.899 F2500.000
G1 X24.106 Y84.359 Z21.602 F2500.000
G1 X25.241 Y10.568 Z21.247 F2500.000
G1 X25.279 Y10.403 Z21.261 F2500.000
G1 X26.279 Y10.403 Z21.672 F2500.000
G1 X27.079 Y10.403 Z21.974 F2500.000
G1 X27.879 Y10.403 Z22.254 F2500.000
G1 X28.579 Y10.403 Z22.480 F2500.000
G1 X29.279 Y10.403 Z22.690 F2500.000
G1 X29.479 Y10.403 Z22.745 F2500.000
G1 X30.079 Y10.403 Z22.907 F2500.000
G1 X30.879 Y10.403 Z23.106 F2500.000
G1 X31.479 Y10.403 Z23.239 F2500.000
G1 X32.079 Y10.403 Z23.360 F2500.000
G1 X32.879 Y10.403 Z23.503 F2500.000
G1 X33.679 Y10.403 Z23.623 F2500.000
G1 X34.379 Y10.403 Z23.711 F2500.000
G1 X35.079 Y10.403 Z23.781 F2500.000
G1 X35.279 Y10.403 Z23.797 F2500.000
G1 X35.879 Y10.403 Z23.840 F2500.000
G1 X36.479 Y10.403 Z23.871 F2500.000
G1 X37.279 Y10.403 Z23.894 F2500.000
G1 X38.079 Y10.403 Z23.905 F2500.000
G1 X39.679 Y10.403 Z23.916 F2500.000
G1 X41.679 Y10.403 Z23.920 F2500.000
G1 X43.679 Y10.403 Z23.915 F2500.000
G1 X45.479 Y10.403 Z23.898 F2500.000
G1 X46.079 Y10.403 Z23.885 F2500.000
G1 X46.879 Y10.403 Z23.854 F2500.000
G1 X47.479 Y10.403 Z23.816 F2500.000
G1 X48.079 Y10.403 Z23.766 F2500.000
G1 X48.879 Y10.403 Z23.680 F2500.000
G1 X49.679 Y10.403 Z23.572 F2500.000
G1 X50.379 Y10.403 Z23.458 F2500.000
G1 X51.079 Y10.403 Z23.329 F2500.000
G1 X51.879 Y10.403 Z23.161 F2500.000
G1 X52.679 Y10.403 Z22.970 F2500.000
G1 X53.279 Y10.403 Z22.813 F2500.000
G1 X53.879 Y10.403 Z22.644 F2500.000
G1 X54.679 Y10.403 Z22.398 F2500.000
G1 X55.279 Y10.403 Z22.200 F2500.000
G1 X55.479 Y10.403 Z22.132 F2500.000
G1 X56.179 Y10.403 Z21.879 F2500.000
G1 X57.079 Y10.403 Z21.530 F2500.000
G1 X57.756 Y10.403 Z21.246 F2500.000
(Break)
G0 Z18.500
G0 X18.942 Y4.003
G0 Z18.500
(part 9.)
G1 X18.942 Y4.003 Z17.637 F2500.000
G1 X19.342 Y4.003 Z17.916 F2500.000
G1 X19.842 Y4.003 Z18.253 F2500.000
G1 X20.342 Y4.003 Z18.578 F2500.000
G1 X20.842 Y4.003 Z18.889 F2500.000
G1 X21.342 Y4.003 Z19.190 F2500.000
G1 X21.842 Y4.003 Z19.480 F2500.000
G1 X22.342 Y4.003 Z19.757 F2500.000
G1 X22.842 Y4.003 Z20.026 F2500.000
G1 X23.342 Y4.003 Z20.284 F2500.000
G1 X23.842 Y4.003 Z20.531 F2500.000
G1 X24.342 Y4.003 Z20.769 F2500.000
G1 X24.842 Y4.003 Z20.998 F2500.000
G1 X25.342 Y4.003 Z21.215 F2500.000
G1 X26.342 Y4.003 Z21.626 F2500.000
G1 X26.842 Y4.003 Z21.818 F2500.000
G1 X27.342 Y4.003 Z22.001 F2500.000
G1 X27.842 Y4.003 Z22.175 F2500.000
G1 X28.342 Y4.003 Z22.340 F2500.000
G1 X28.842 Y4.003 Z22.496 F2500.000
G1 X29.342 Y4.003 Z22.644 F2500.000
G1 X30.342 Y4.003 Z22.915 F2500.000
G1 X30.842 Y4.003 Z23.035 F2500.000
G1 X31.342 Y4.003 Z23.150 F2500.000
G1 X31.842 Y4.003 Z23.254 F2500.000
G1 X32.342 Y4.003 Z23.351 F2500.000
G1 X32.842 Y4.003 Z23.439 F2500.000
G1 X33.342 Y4.003 Z23.518 F2500.000
G1 X33.842 Y4.003 Z23.590 F2500.000
G1 X34.342 Y4.003 Z23.651 F2500.000
G1 X34.842 Y4.003 Z23.704 F2500.000
G1 X35.342 Y4.003 Z23.748 F2500.000
G1 X35.842 Y4.003 Z23.784 F2500.000
G1 X36.342 Y4.003 Z23.811 F2500.000
G1 X36.842 Y4.003 Z23.830 F2500.000
G1 X37.842 Y4.003 Z23.850 F2500.000
G1 X38.942 Y4.003 Z23.859 F2500.000
G1 X41.542 Y4.003 Z23.867 F2500.000
G1 X44.042 Y4.003 Z23.859 F2500.000
G1 X45.042 Y4.003 Z23.851 F2500.000
G1 X46.042 Y4.003 Z23.832 F2500.000
G1 X46.542 Y4.003 Z23.816 F2500.000
G1 X47.042 Y4.003 Z23.791 F2500.000
G1 X47.542 Y4.003 Z23.758 F2500.000
G1 X48.042 Y4.003 Z23.716 F2500.000
G1 X48.542 Y4.003 Z23.664 F2500.000
G1 X49.042 Y4.003 Z23.604 F2500.000
G1 X49.542 Y4.003 Z23.536 F2500.000
G1 X50.042 Y4.003 Z23.458 F2500.000
G1 X50.542 Y4.003 Z23.372 F2500.000
G1 X51.042 Y4.003 Z23.279 F2500.000
G1 X51.542 Y4.003 Z23.175 F2500.000
G1 X52.042 Y4.003 Z23.064 F2500.000
G1 X52.542 Y4.003 Z22.943 F2500.000
G1 X53.042 Y4.003 Z22.814 F2500.000
G1 X53.542 Y4.003 Z22.678 F2500.000
G1 X54.042 Y4.003 Z22.532 F2500.000
G1 X54.542 Y4.003 Z22.378 F2500.000
G1 X55.042 Y4.003 Z22.214 F2500.000
G1 X55.542 Y4.003 Z22.042 F2500.000
G1 X56.042 Y4.003 Z21.861 F2500.000
G1 X56.542 Y4.003 Z21.672 F2500.000
G1 X57.042 Y4.003 Z21.473 F2500.000
G1 X57.542 Y4.003 Z21.266 F2500.000
G1 X58.042 Y4.003 Z21.048 F2500.000
G1 X58.542 Y4.003 Z20.823 F2500.000
G1 X59.042 Y4.003 Z20.588 F2500.000
G1 X59.542 Y4.003 Z20.343 F2500.000
G1 X60.042 Y4.003 Z20.086 F2500.000
G1 X60.542 Y4.003 Z19.822 F2500.000
G1 X61.042 Y4.003 Z19.545 F2500.000
G1 X61.542 Y4.003 Z19.258 F2500.000
G1 X62.042 Y4.003 Z18.961 F2500.000
G1 X62.542 Y4.003 Z18.651 F2500.000
G1 X63.042 Y4.003 Z18.329 F2500.000
G1 X63.542 Y4.003 Z17.997 F2500.000
G1 X63.942 Y4.003 Z17.720 F2500.000
G1 X64.060 Y4.086 Z17.637 F2500.000
G1 X64.989 Y64.479 Z17.808 F2500.000
G1 X65.948 Y126.872 Z17.972 F2500.000
G1 X66.837 Y184.665 Z18.112 F2500.000
G1 X66.862 Y186.264 Z18.113 F2500.000
G1 X67.154 Y205.262 Z18.158 F2500.000
G1 X67.634 Y236.459 Z18.224 F2500.000
G1 X67.500 Y236.523 Z18.336 F2500.000
G1 X66.500 Y236.523 Z19.125 F2500.000
G1 X65.500 Y236.523 Z19.854 F2500.000
G1 X64.500 Y236.523 Z20.526 F2500.000
G1 X63.500 Y236.523 Z21.144 F2500.000
G1 X62.500 Y236.523 Z21.714 F2500.000
G1 X61.500 Y236.523 Z22.236 F2500.000
G1 X60.500 Y236.523 Z22.714 F2500.000
G1 X59.500 Y236.523 Z23.149 F2500.000
G1 X58.500 Y236.523 Z23.545 F2500.000
G1 X57.500 Y236.523 Z23.902 F2500.000
G1 X56.500 Y236.523 Z24.224 F2500.000
G1 X55.500 Y236.523 Z24.510 F2500.000
G1 X54.500 Y236.523 Z24.764 F2500.000
G1 X53.500 Y236.523 Z24.985 F2500.000
G1 X52.500 Y236.523 Z25.177 F2500.000
G1 X51.500 Y236.523 Z25.340 F2500.000
G1 X50.500 Y236.523 Z25.475 F2500.000
G1 X49.500 Y236.523 Z25.583 F2500.000
G1 X48.500 Y236.523 Z25.666 F2500.000
G1 X47.500 Y236.523 Z25.724 F2500.000
G1 X46.500 Y236.523 Z25.761 F2500.000
G1 X45.500 Y236.523 Z25.779 F2500.000
G1 X44.500 Y236.523 Z25.790 F2500.000
G1 X42.500 Y236.523 Z25.799 F2500.000
G1 X40.500 Y236.523 Z25.799 F2500.000
G1 X38.500 Y236.523 Z25.790 F2500.000
G1 X37.500 Y236.523 Z25.778 F2500.000
G1 X36.500 Y236.523 Z25.761 F2500.000
G1 X35.500 Y236.523 Z25.724 F2500.000
G1 X34.500 Y236.523 Z25.666 F2500.000
G1 X33.500 Y236.523 Z25.583 F2500.000
G1 X32.500 Y236.523 Z25.475 F2500.000
G1 X31.500 Y236.523 Z25.340 F2500.000
G1 X30.500 Y236.523 Z25.177 F2500.000
G1 X29.500 Y236.523 Z24.985 F2500.000
G1 X28.500 Y236.523 Z24.764 F2500.000
G1 X27.500 Y236.523 Z24.511 F2500.000
G1 X26.500 Y236.523 Z24.224 F2500.000
G1 X25.500 Y236.523 Z23.902 F2500.000
G1 X24.500 Y236.523 Z23.545 F2500.000
G1 X23.500 Y236.523 Z23.150 F2500.000
G1 X22.500 Y236.523 Z22.713 F2500.000
G1 X21.500 Y236.523 Z22.236 F2500.000
G1 X20.500 Y236.523 Z21.714 F2500.000
G1 X19.500 Y236.523 Z21.144 F2500.000
G1 X18.500 Y236.523 Z20.525 F2500.000
G1 X17.500 Y236.523 Z19.853 F2500.000
G1 X16.500 Y236.523 Z19.124 F2500.000
G1 X15.500 Y236.523 Z18.336 F2500.000
G1 X15.366 Y236.458 Z18.224 F2500.000
G1 X16.166 Y184.465 Z18.111 F2500.000
G1 X17.018 Y129.071 Z17.978 F2500.000
G1 X18.011 Y64.479 Z17.808 F2500.000
G1 X18.942 Y4.003 Z17.637 F2500.000
(End of step 0.)
G0 Z20.500
(Surface)
(Surface)
(Tool type: endmill)
(Compensated Tool Path. Diameter: 8.0)
(Sample interval: 1.0)
(Step over %: 80.0)
()
G0 Z16.500
(Beginning of Single-pass layer.)
G0 X41.638 Y210.923
(Begin step 0.)
(part 1.)
G1 X41.638 Y210.923 Z21.587 F2500.000
G1 X41.438 Y210.923 Z21.587 F2500.000
G1 X41.364 Y210.800 Z21.586 F2500.000
G1 X41.499 Y202.001 Z21.513 F2500.000
G1 X41.638 Y210.923 Z21.587 F2500.000
(Break)
G0 Z14.500
G0 X45.151 Y23.203
G0 Z14.500
(part 3.)
G1 X45.151 Y23.203 Z20.009 F2500.000
G1 X45.162 Y23.903 Z20.015 F2500.000
G1 X45.856 Y68.997 Z20.379 F2500.000
G1 X46.554 Y114.392 Z20.738 F2500.000
G1 X47.292 Y162.386 Z21.109 F2500.000
G1 X48.135 Y217.180 Z21.525 F2500.000
G1 X48.081 Y217.323 Z21.530 F2500.000
G1 X47.138 Y217.323 Z21.579 F2500.000
G1 X46.195 Y217.323 Z21.607 F2500.000
G1 X45.252 Y217.323 Z21.623 F2500.000
G1 X44.310 Y217.323 Z21.632 F2500.000
G1 X42.424 Y217.323 Z21.639 F2500.000
G1 X40.538 Y217.323 Z21.639 F2500.000
G1 X38.652 Y217.323 Z21.632 F2500.000
G1 X37.710 Y217.323 Z21.623 F2500.000
G1 X36.767 Y217.323 Z21.607 F2500.000
G1 X35.824 Y217.323 Z21.577 F2500.000
G1 X34.881 Y217.323 Z21.527 F2500.000
G1 X34.865 Y217.142 Z21.525 F2500.000
G1 X35.699 Y162.948 Z21.114 F2500.000
G1 X36.409 Y116.754 Z20.757 F2500.000
G1 X37.031 Y76.359 Z20.438 F2500.000
G1 X37.846 Y23.365 Z20.010 F2500.000
G1 X37.886 Y23.203 Z20.009 F2500.000
G1 X39.703 Y23.203 Z20.023 F2500.000
G1 X41.519 Y23.203 Z20.026 F2500.000
G1 X43.335 Y23.203 Z20.023 F2500.000
G1 X45.151 Y23.203 Z20.009 F2500.000
(Break)
G1 X45.852 Y22.492 Z19.992 F2500.000
G1 X46.552 Y21.781 Z19.964 F2500.000
G1 X47.252 Y21.069 Z19.922 F2500.000
G1 X47.952 Y20.358 Z19.862 F2500.000
G1 X48.653 Y19.647 Z19.787 F2500.000
G1 X49.353 Y18.936 Z19.693 F2500.000
G1 X50.053 Y18.225 Z19.583 F2500.000
G1 X50.753 Y17.514 Z19.456 F2500.000
G1 X51.454 Y16.803 Z19.311 F2500.000
(part 5.)
G1 X51.454 Y16.803 Z19.311 F2500.000
G1 X51.466 Y17.603 Z19.317 F2500.000
G1 X52.349 Y74.996 Z19.663 F2500.000
G1 X53.112 Y124.590 Z19.968 F2500.000
G1 X53.721 Y164.185 Z20.216 F2500.000
G1 X54.635 Y223.578 Z20.597 F2500.000
G1 X54.582 Y223.723 Z20.611 F2500.000
G1 X53.611 Y223.723 Z20.834 F2500.000
G1 X52.641 Y223.723 Z21.028 F2500.000
G1 X51.671 Y223.723 Z21.193 F2500.000
G1 X50.700 Y223.723 Z21.334 F2500.000
G1 X49.730 Y223.723 Z21.447 F2500.000
G1 X48.760 Y223.723 Z21.535 F2500.000
G1 X47.789 Y223.723 Z21.601 F2500.000
G1 X46.819 Y223.723 Z21.644 F2500.000
G1 X45.848 Y223.723 Z21.668 F2500.000
G1 X43.908 Y223.723 Z21.687 F2500.000
G1 X41.967 Y223.723 Z21.693 F2500.000
G1 X39.056 Y223.723 Z21.687 F2500.000
G1 X37.115 Y223.723 Z21.667 F2500.000
G1 X36.145 Y223.723 Z21.643 F2500.000
G1 X35.174 Y223.723 Z21.599 F2500.000
G1 X34.204 Y223.723 Z21.532 F2500.000
G1 X33.234 Y223.723 Z21.443 F2500.000
G1 X32.263 Y223.723 Z21.329 F2500.000
G1 X31.293 Y223.723 Z21.187 F2500.000
G1 X30.323 Y223.723 Z21.022 F2500.000
G1 X29.352 Y223.723 Z20.826 F2500.000
G1 X28.382 Y223.723 Z20.602 F2500.000
G1 X28.366 Y223.542 Z20.597 F2500.000
G1 X29.289 Y163.549 Z20.211 F2500.000
G1 X30.449 Y88.158 Z19.743 F2500.000
G1 X31.544 Y16.966 Z19.312 F2500.000
G1 X31.583 Y16.803 Z19.318 F2500.000
G1 X32.576 Y16.803 Z19.508 F2500.000
G1 X33.570 Y16.803 Z19.664 F2500.000
G1 X34.563 Y16.803 Z19.785 F2500.000
G1 X35.557 Y16.803 Z19.872 F2500.000
G1 X36.550 Y16.803 Z19.925 F2500.000
G1 X37.544 Y16.803 Z19.951 F2500.000
G1 X39.531 Y16.803 Z19.969 F2500.000
G1 X41.518 Y16.803 Z19.973 F2500.000
G1 X43.505 Y16.803 Z19.969 F2500.000
G1 X45.492 Y16.803 Z19.951 F2500.000
G1 X46.486 Y16.803 Z19.924 F2500.000
G1 X47.480 Y16.803 Z19.870 F2500.000
G1 X48.473 Y16.803 Z19.781 F2500.000
G1 X49.467 Y16.803 Z19.659 F2500.000
G1 X50.460 Y16.803 Z19.502 F2500.000
G1 X51.454 Y16.803 Z19.311 F2500.000
(Break)
G1 X52.154 Y16.092 Z19.150 F2500.000
G1 X52.854 Y15.381 Z18.972 F2500.000
G1 X53.555 Y14.669 Z18.779 F2500.000
G1 X54.255 Y13.958 Z18.567 F2500.000
G1 X54.955 Y13.247 Z18.339 F2500.000
G1 X55.655 Y12.536 Z18.093 F2500.000
G1 X56.356 Y11.825 Z17.828 F2500.000
G1 X57.056 Y11.114 Z17.547 F2500.000
G1 X57.756 Y10.403 Z17.246 F2500.000
(part 7.)
G1 X57.756 Y10.403 Z17.246 F2500.000
G1 X57.762 Y10.803 Z17.248 F2500.000
G1 X58.031 Y28.301 Z17.330 F2500.000
G1 X59.434 Y119.490 Z17.776 F2500.000
G1 X61.134 Y229.977 Z18.335 F2500.000
G1 X61.082 Y230.123 Z18.362 F2500.000
G1 X60.102 Y230.123 Z18.815 F2500.000
G1 X59.122 Y230.123 Z19.227 F2500.000
G1 X58.142 Y230.123 Z19.603 F2500.000
G1 X57.162 Y230.123 Z19.944 F2500.000
G1 X56.182 Y230.123 Z20.249 F2500.000
G1 X55.202 Y230.123 Z20.521 F2500.000
G1 X54.222 Y230.123 Z20.763 F2500.000
G1 X53.242 Y230.123 Z20.975 F2500.000
G1 X52.262 Y230.123 Z21.158 F2500.000
G1 X51.282 Y230.123 Z21.312 F2500.000
G1 X50.302 Y230.123 Z21.441 F2500.000
G1 X49.322 Y230.123 Z21.544 F2500.000
G1 X48.342 Y230.123 Z21.622 F2500.000
G1 X47.362 Y230.123 Z21.676 F2500.000
G1 X46.382 Y230.123 Z21.710 F2500.000
G1 X45.402 Y230.123 Z21.728 F2500.000
G1 X43.442 Y230.123 Z21.742 F2500.000
G1 X41.482 Y230.123 Z21.747 F2500.000
G1 X39.522 Y230.123 Z21.743 F2500.000
G1 X37.562 Y230.123 Z21.728 F2500.000
G1 X36.582 Y230.123 Z21.709 F2500.000
G1 X35.602 Y230.123 Z21.675 F2500.000
G1 X34.622 Y230.123 Z21.620 F2500.000
G1 X33.642 Y230.123 Z21.540 F2500.000
G1 X32.662 Y230.123 Z21.437 F2500.000
G1 X31.682 Y230.123 Z21.307 F2500.000
G1 X30.702 Y230.123 Z21.151 F2500.000
G1 X29.722 Y230.123 Z20.968 F2500.000
G1 X28.742 Y230.123 Z20.755 F2500.000
G1 X27.762 Y230.123 Z20.512 F2500.000
G1 X26.782 Y230.123 Z20.239 F2500.000
G1 X25.802 Y230.123 Z19.932 F2500.000
G1 X24.822 Y230.123 Z19.590 F2500.000
G1 X23.842 Y230.123 Z19.213 F2500.000
G1 X22.862 Y230.123 Z18.799 F2500.000
G1 X21.882 Y230.123 Z18.345 F2500.000
G1 X21.867 Y229.942 Z18.335 F2500.000
G1 X21.876 Y229.342 Z18.330 F2500.000
G1 X23.186 Y144.152 Z17.899 F2500.000
G1 X24.106 Y84.359 Z17.602 F2500.000
G1 X25.241 Y10.568 Z17.247 F2500.000
G1 X25.279 Y10.403 Z17.261 F2500.000
G1 X26.279 Y10.403 Z17.672 F2500.000
G1 X27.079 Y10.403 Z17.974 F2500.000
G1 X27.879 Y10.403 Z18.254 F2500.000
G1 X28.579 Y10.403 Z18.480 F2500.000
G1 X29.279 Y10.403 Z18.690 F2500.000
G1 X29.479 Y10.403 Z18.745 F2500.000
G1 X30.079 Y10.403 Z18.907 F2500.000
G1 X30.879 Y10.403 Z19.106 F2500.000
G1 X31.479 Y10.403 Z19.239 F2500.000
G1 X32.079 Y10.403 Z19.360 F2500.000
G1 X32.879 Y10.403 Z19.503 F2500.000
G1 X33.679 Y10.403 Z19.623 F2500.000
G1 X34.379 Y10.403 Z19.711 F2500.000
G1 X35.079 Y10.403 Z19.781 F2500.000
G1 X35.279 Y10.403 Z19.797 F2500.000
G1 X35.879 Y10.403 Z19.840 F2500.000
G1 X36.479 Y10.403 Z19.871 F2500.000
G1 X37.279 Y10.403 Z19.894 F2500.000
G1 X38.079 Y10.403 Z19.905 F2500.000
G1 X39.679 Y10.403 Z19.916 F2500.000
G1 X41.679 Y10.403 Z19.920 F2500.000
G1 X43.679 Y10.403 Z19.915 F2500.000
G1 X45.479 Y10.403 Z19.898 F2500.000
G1 X46.079 Y10.403 Z19.885 F2500.000
G1 X46.879 Y10.403 Z19.854 F2500.000
G1 X47.479 Y10.403 Z19.816 F2500.000
G1 X48.079 Y10.403 Z19.766 F2500.000
G1 X48.879 Y10.403 Z19.680 F2500.000
G1 X49.679 Y10.403 Z19.572 F2500.000
G1 X50.379 Y10.403 Z19.458 F2500.000
G1 X51.079 Y10.403 Z19.329 F2500.000
G1 X51.879 Y10.403 Z19.161 F2500.000
G1 X52.679 Y10.403 Z18.970 F2500.000
G1 X53.279 Y10.403 Z18.813 F2500.000
G1 X53.879 Y10.403 Z18.644 F2500.000
G1 X54.679 Y10.403 Z18.398 F2500.000
G1 X55.279 Y10.403 Z18.200 F2500.000
G1 X55.479 Y10.403 Z18.132 F2500.000
G1 X56.179 Y10.403 Z17.879 F2500.000
G1 X57.079 Y10.403 Z17.530 F2500.000
G1 X57.756 Y10.403 Z17.246 F2500.000
(Break)
G0 Z14.500
G0 X18.942 Y4.003
G0 Z14.500
(part 9.)
G1 X18.942 Y4.003 Z13.637 F2500.000
G1 X19.342 Y4.003 Z13.916 F2500.000
G1 X19.842 Y4.003 Z14.253 F2500.000
G1 X20.342 Y4.003 Z14.578 F2500.000
G1 X20.842 Y4.003 Z14.889 F2500.000
G1 X21.342 Y4.003 Z15.190 F2500.000
G1 X21.842 Y4.003 Z15.480 F2500.000
G1 X22.342 Y4.003 Z15.757 F2500.000
G1 X22.842 Y4.003 Z16.026 F2500.000
G1 X23.342 Y4.003 Z16.284 F2500.000
G1 X23.842 Y4.003 Z16.531 F2500.000
G1 X24.342 Y4.003 Z16.769 F2500.000
G1 X24.842 Y4.003 Z16.998 F2500.000
G1 X25.342 Y4.003 Z17.215 F2500.000
G1 X26.342 Y4.003 Z17.626 F2500.000
G1 X26.842 Y4.003 Z17.818 F2500.000
G1 X27.342 Y4.003 Z18.001 F2500.000
G1 X27.842 Y4.003 Z18.175 F2500.000
G1 X28.342 Y4.003 Z18.340 F2500.000
G1 X28.842 Y4.003 Z18.496 F2500.000
G1 X29.342 Y4.003 Z18.644 F2500.000
G1 X30.342 Y4.003 Z18.915 F2500.000
G1 X30.842 Y4.003 Z19.035 F2500.000
G1 X31.342 Y4.003 Z19.150 F2500.000
G1 X31.842 Y4.003 Z19.254 F2500.000
G1 X32.342 Y4.003 Z19.351 F2500.000
G1 X32.842 Y4.003 Z19.439 F2500.000
G1 X33.342 Y4.003 Z19.518 F2500.000
G1 X33.842 Y4.003 Z19.590 F2500.000
G1 X34.342 Y4.003 Z19.651 F2500.000
G1 X34.842 Y4.003 Z19.704 F2500.000
G1 X35.342 Y4.003 Z19.748 F2500.000
G1 X35.842 Y4.003 Z19.784 F2500.000
G1 X36.342 Y4.003 Z19.811 F2500.000
G1 X36.842 Y4.003 Z19.830 F2500.000
G1 X37.842 Y4.003 Z19.850 F2500.000
G1 X38.942 Y4.003 Z19.859 F2500.000
G1 X41.542 Y4.003 Z19.867 F2500.000
G1 X44.042 Y4.003 Z19.859 F2500.000
G1 X45.042 Y4.003 Z19.851 F2500.000
G1 X46.042 Y4.003 Z19.832 F2500.000
G1 X46.542 Y4.003 Z19.816 F2500.000
G1 X47.042 Y4.003 Z19.791 F2500.000
G1 X47.542 Y4.003 Z19.758 F2500.000
G1 X48.042 Y4.003 Z19.716 F2500.000
G1 X48.542 Y4.003 Z19.664 F2500.000
G1 X49.042 Y4.003 Z19.604 F2500.000
G1 X49.542 Y4.003 Z19.536 F2500.000
G1 X50.042 Y4.003 Z19.458 F2500.000
G1 X50.542 Y4.003 Z19.372 F2500.000
G1 X51.042 Y4.003 Z19.279 F2500.000
G1 X51.542 Y4.003 Z19.175 F2500.000
G1 X52.042 Y4.003 Z19.064 F2500.000
G1 X52.542 Y4.003 Z18.943 F2500.000
G1 X53.042 Y4.003 Z18.814 F2500.000
G1 X53.542 Y4.003 Z18.678 F2500.000
G1 X54.042 Y4.003 Z18.532 F2500.000
G1 X54.542 Y4.003 Z18.378 F2500.000
G1 X55.042 Y4.003 Z18.214 F2500.000
G1 X55.542 Y4.003 Z18.042 F2500.000
G1 X56.042 Y4.003 Z17.861 F2500.000
G1 X56.542 Y4.003 Z17.672 F2500.000
G1 X57.042 Y4.003 Z17.473 F2500.000
G1 X57.542 Y4.003 Z17.266 F2500.000
G1 X58.042 Y4.003 Z17.048 F2500.000
G1 X58.542 Y4.003 Z16.823 F2500.000
G1 X59.042 Y4.003 Z16.588 F2500.000
G1 X59.542 Y4.003 Z16.343 F2500.000
G1 X60.042 Y4.003 Z16.086 F2500.000
G1 X60.542 Y4.003 Z15.822 F2500.000
G1 X61.042 Y4.003 Z15.545 F2500.000
G1 X61.542 Y4.003 Z15.258 F2500.000
G1 X62.042 Y4.003 Z14.961 F2500.000
G1 X62.542 Y4.003 Z14.651 F2500.000
G1 X63.042 Y4.003 Z14.329 F2500.000
G1 X63.542 Y4.003 Z13.997 F2500.000
G1 X63.942 Y4.003 Z13.720 F2500.000
G1 X64.060 Y4.086 Z13.637 F2500.000
G1 X64.989 Y64.479 Z13.808 F2500.000
G1 X65.948 Y126.872 Z13.972 F2500.000
G1 X66.837 Y184.665 Z14.112 F2500.000
G1 X66.862 Y186.264 Z14.113 F2500.000
G1 X67.154 Y205.262 Z14.158 F2500.000
G1 X67.634 Y236.459 Z14.224 F2500.000
G1 X67.500 Y236.523 Z14.336 F2500.000
G1 X66.500 Y236.523 Z15.125 F2500.000
G1 X65.500 Y236.523 Z15.854 F2500.000
G1 X64.500 Y236.523 Z16.526 F2500.000
G1 X63.500 Y236.523 Z17.144 F2500.000
G1 X62.500 Y236.523 Z17.714 F2500.000
G1 X61.500 Y236.523 Z18.236 F2500.000
G1 X60.500 Y236.523 Z18.714 F2500.000
G1 X59.500 Y236.523 Z19.149 F2500.000
G1 X58.500 Y236.523 Z19.545 F2500.000
G1 X57.500 Y236.523 Z19.902 F2500.000
G1 X56.500 Y236.523 Z20.224 F2500.000
G1 X55.500 Y236.523 Z20.510 F2500.000
G1 X54.500 Y236.523 Z20.764 F2500.000
G1 X53.500 Y236.523 Z20.985 F2500.000
G1 X52.500 Y236.523 Z21.177 F2500.000
G1 X51.500 Y236.523 Z21.340 F2500.000
G1 X50.500 Y236.523 Z21.475 F2500.000
G1 X49.500 Y236.523 Z21.583 F2500.000
G1 X48.500 Y236.523 Z21.666 F2500.000
G1 X47.500 Y236.523 Z21.724 F2500.000
G1 X46.500 Y236.523 Z21.761 F2500.000
G1 X45.500 Y236.523 Z21.779 F2500.000
G1 X44.500 Y236.523 Z21.790 F2500.000
G1 X42.500 Y236.523 Z21.799 F2500.000
G1 X40.500 Y236.523 Z21.799 F2500.000
G1 X38.500 Y236.523 Z21.790 F2500.000
G1 X37.500 Y236.523 Z21.778 F2500.000
G1 X36.500 Y236.523 Z21.761 F2500.000
G1 X35.500 Y236.523 Z21.724 F2500.000
G1 X34.500 Y236.523 Z21.666 F2500.000
G1 X33.500 Y236.523 Z21.583 F2500.000
G1 X32.500 Y236.523 Z21.475 F2500.000
G1 X31.500 Y236.523 Z21.340 F2500.000
G1 X30.500 Y236.523 Z21.177 F2500.000
G1 X29.500 Y236.523 Z20.985 F2500.000
G1 X28.500 Y236.523 Z20.764 F2500.000
G1 X27.500 Y236.523 Z20.511 F2500.000
G1 X26.500 Y236.523 Z20.224 F2500.000
G1 X25.500 Y236.523 Z19.902 F2500.000
G1 X24.500 Y236.523 Z19.545 F2500.000
G1 X23.500 Y236.523 Z19.150 F2500.000
G1 X22.500 Y236.523 Z18.713 F2500.000
G1 X21.500 Y236.523 Z18.236 F2500.000
G1 X20.500 Y236.523 Z17.714 F2500.000
G1 X19.500 Y236.523 Z17.144 F2500.000
G1 X18.500 Y236.523 Z16.525 F2500.000
G1 X17.500 Y236.523 Z15.853 F2500.000
G1 X16.500 Y236.523 Z15.124 F2500.000
G1 X15.500 Y236.523 Z14.336 F2500.000
G1 X15.366 Y236.458 Z14.224 F2500.000
G1 X16.166 Y184.465 Z14.111 F2500.000
G1 X17.018 Y129.071 Z13.978 F2500.000
G1 X18.011 Y64.479 Z13.808 F2500.000
G1 X18.942 Y4.003 Z13.637 F2500.000
(End of step 0.)
G0 Z16.500
(Surface)
(Surface)
(Tool type: endmill)
(Compensated Tool Path. Diameter: 8.0)
(Sample interval: 1.0)
(Step over %: 80.0)
()
G0 Z12.500
(Beginning of Single-pass layer.)
G0 X41.638 Y210.923
(Begin step 0.)
(part 1.)
G1 X41.638 Y210.923 Z17.587 F2500.000
G1 X41.438 Y210.923 Z17.587 F2500.000
G1 X41.364 Y210.800 Z17.586 F2500.000
G1 X41.499 Y202.001 Z17.513 F2500.000
G1 X41.638 Y210.923 Z17.587 F2500.000
(Break)
G0 Z10.500
G0 X45.151 Y23.203
G0 Z10.500
(part 3.)
G1 X45.151 Y23.203 Z16.009 F2500.000
G1 X45.162 Y23.903 Z16.015 F2500.000
G1 X45.856 Y68.997 Z16.379 F2500.000
G1 X46.554 Y114.392 Z16.738 F2500.000
G1 X47.292 Y162.386 Z17.109 F2500.000
G1 X48.135 Y217.180 Z17.525 F2500.000
G1 X48.081 Y217.323 Z17.530 F2500.000
G1 X47.138 Y217.323 Z17.579 F2500.000
G1 X46.195 Y217.323 Z17.607 F2500.000
G1 X45.252 Y217.323 Z17.623 F2500.000
G1 X44.310 Y217.323 Z17.632 F2500.000
G1 X42.424 Y217.323 Z17.639 F2500.000
G1 X40.538 Y217.323 Z17.639 F2500.000
G1 X38.652 Y217.323 Z17.632 F2500.000
G1 X37.710 Y217.323 Z17.623 F2500.000
G1 X36.767 Y217.323 Z17.607 F2500.000
G1 X35.824 Y217.323 Z17.577 F2500.000
G1 X34.881 Y217.323 Z17.527 F2500.000
G1 X34.865 Y217.142 Z17.525 F2500.000
G1 X35.699 Y162.948 Z17.114 F2500.000
G1 X36.409 Y116.754 Z16.757 F2500.000
G1 X37.031 Y76.359 Z16.438 F2500.000
G1 X37.846 Y23.365 Z16.010 F2500.000
G1 X37.886 Y23.203 Z16.009 F2500.000
G1 X39.703 Y23.203 Z16.023 F2500.000
G1 X41.519 Y23.203 Z16.026 F2500.000
G1 X43.335 Y23.203 Z16.023 F2500.000
G1 X45.151 Y23.203 Z16.009 F2500.000
(Break)
G1 X45.852 Y22.492 Z15.992 F2500.000
G1 X46.552 Y21.781 Z15.964 F2500.000
G1 X47.252 Y21.069 Z15.922 F2500.000
G1 X47.952 Y20.358 Z15.862 F2500.000
G1 X48.653 Y19.647 Z15.787 F2500.000
G1 X49.353 Y18.936 Z15.693 F2500.000
G1 X50.053 Y18.225 Z15.583 F2500.000
G1 X50.753 Y17.514 Z15.456 F2500.000
G1 X51.454 Y16.803 Z15.311 F2500.000
(part 5.)
G1 X51.454 Y16.803 Z15.311 F2500.000
G1 X51.466 Y17.603 Z15.317 F2500.000
G1 X52.349 Y74.996 Z15.663 F2500.000
G1 X53.112 Y124.590 Z15.968 F2500.000
G1 X53.721 Y164.185 Z16.216 F2500.000
G1 X54.635 Y223.578 Z16.597 F2500.000
G1 X54.582 Y223.723 Z16.611 F2500.000
G1 X53.611 Y223.723 Z16.834 F2500.000
G1 X52.641 Y223.723 Z17.028 F2500.000
G1 X51.671 Y223.723 Z17.193 F2500.000
G1 X50.700 Y223.723 Z17.334 F2500.000
G1 X49.730 Y223.723 Z17.447 F2500.000
G1 X48.760 Y223.723 Z17.535 F2500.000
G1 X47.789 Y223.723 Z17.601 F2500.000
G1 X46.819 Y223.723 Z17.644 F2500.000
G1 X45.848 Y223.723 Z17.668 F2500.000
G1 X43.908 Y223.723 Z17.687 F2500.000
G1 X41.967 Y223.723 Z17.693 F2500.000
G1 X39.056 Y223.723 Z17.687 F2500.000
G1 X37.115 Y223.723 Z17.667 F2500.000
G1 X36.145 Y223.723 Z17.643 F2500.000
G1 X35.174 Y223.723 Z17.599 F2500.000
G1 X34.204 Y223.723 Z17.532 F2500.000
G1 X33.234 Y223.723 Z17.443 F2500.000
G1 X32.263 Y223.723 Z17.329 F2500.000
G1 X31.293 Y223.723 Z17.187 F2500.000
G1 X30.323 Y223.723 Z17.022 F2500.000
G1 X29.352 Y223.723 Z16.826 F2500.000
G1 X28.382 Y223.723 Z16.602 F2500.000
G1 X28.366 Y223.542 Z16.597 F2500.000
G1 X29.289 Y163.549 Z16.211 F2500.000
G1 X30.449 Y88.158 Z15.743 F2500.000
G1 X31.544 Y16.966 Z15.312 F2500.000
G1 X31.583 Y16.803 Z15.318 F2500.000
G1 X32.576 Y16.803 Z15.508 F2500.000
G1 X33.570 Y16.803 Z15.664 F2500.000
G1 X34.563 Y16.803 Z15.785 F2500.000
G1 X35.557 Y16.803 Z15.872 F2500.000
G1 X36.550 Y16.803 Z15.925 F2500.000
G1 X37.544 Y16.803 Z15.951 F2500.000
G1 X39.531 Y16.803 Z15.969 F2500.000
G1 X41.518 Y16.803 Z15.973 F2500.000
G1 X43.505 Y16.803 Z15.969 F2500.000
G1 X45.492 Y16.803 Z15.951 F2500.000
G1 X46.486 Y16.803 Z15.924 F2500.000
G1 X47.480 Y16.803 Z15.870 F2500.000
G1 X48.473 Y16.803 Z15.781 F2500.000
G1 X49.467 Y16.803 Z15.659 F2500.000
G1 X50.460 Y16.803 Z15.502 F2500.000
G1 X51.454 Y16.803 Z15.311 F2500.000
(Break)
G1 X52.154 Y16.092 Z15.150 F2500.000
G1 X52.854 Y15.381 Z14.972 F2500.000
G1 X53.555 Y14.669 Z14.779 F2500.000
G1 X54.255 Y13.958 Z14.567 F2500.000
G1 X54.955 Y13.247 Z14.339 F2500.000
G1 X55.655 Y12.536 Z14.093 F2500.000
G1 X56.356 Y11.825 Z13.828 F2500.000
G1 X57.056 Y11.114 Z13.547 F2500.000
G1 X57.756 Y10.403 Z13.246 F2500.000
(part 7.)
G1 X57.756 Y10.403 Z13.246 F2500.000
G1 X57.762 Y10.803 Z13.248 F2500.000
G1 X58.031 Y28.301 Z13.330 F2500.000
G1 X59.434 Y119.490 Z13.776 F2500.000
G1 X61.134 Y229.977 Z14.335 F2500.000
G1 X61.082 Y230.123 Z14.362 F2500.000
G1 X60.102 Y230.123 Z14.815 F2500.000
G1 X59.122 Y230.123 Z15.227 F2500.000
G1 X58.142 Y230.123 Z15.603 F2500.000
G1 X57.162 Y230.123 Z15.944 F2500.000
G1 X56.182 Y230.123 Z16.249 F2500.000
G1 X55.202 Y230.123 Z16.521 F2500.000
G1 X54.222 Y230.123 Z16.763 F2500.000
G1 X53.242 Y230.123 Z16.975 F2500.000
G1 X52.262 Y230.123 Z17.158 F2500.000
G1 X51.282 Y230.123 Z17.312 F2500.000
G1 X50.302 Y230.123 Z17.441 F2500.000
G1 X49.322 Y230.123 Z17.544 F2500.000
G1 X48.342 Y230.123 Z17.622 F2500.000
G1 X47.362 Y230.123 Z17.676 F2500.000
G1 X46.382 Y230.123 Z17.710 F2500.000
G1 X45.402 Y230.123 Z17.728 F2500.000
G1 X43.442 Y230.123 Z17.742 F2500.000
G1 X41.482 Y230.123 Z17.747 F2500.000
G1 X39.522 Y230.123 Z17.743 F2500.000
G1 X37.562 Y230.123 Z17.728 F2500.000
G1 X36.582 Y230.123 Z17.709 F2500.000
G1 X35.602 Y230.123 Z17.675 F2500.000
G1 X34.622 Y230.123 Z17.620 F2500.000
G1 X33.642 Y230.123 Z17.540 F2500.000
G1 X32.662 Y230.123 Z17.437 F2500.000
G1 X31.682 Y230.123 Z17.307 F2500.000
G1 X30.702 Y230.123 Z17.151 F2500.000
G1 X29.722 Y230.123 Z16.968 F2500.000
G1 X28.742 Y230.123 Z16.755 F2500.000
G1 X27.762 Y230.123 Z16.512 F2500.000
G1 X26.782 Y230.123 Z16.239 F2500.000
G1 X25.802 Y230.123 Z15.932 F2500.000
G1 X24.822 Y230.123 Z15.590 F2500.000
G1 X23.842 Y230.123 Z15.213 F2500.000
G1 X22.862 Y230.123 Z14.799 F2500.000
G1 X21.882 Y230.123 Z14.345 F2500.000
G1 X21.867 Y229.942 Z14.335 F2500.000
G1 X21.876 Y229.342 Z14.330 F2500.000
G1 X23.186 Y144.152 Z13.899 F2500.000
G1 X24.106 Y84.359 Z13.602 F2500.000
G1 X25.241 Y10.568 Z13.247 F2500.000
G1 X25.279 Y10.403 Z13.261 F2500.000
G1 X26.279 Y10.403 Z13.672 F2500.000
G1 X27.079 Y10.403 Z13.974 F2500.000
G1 X27.879 Y10.403 Z14.254 F2500.000
G1 X28.579 Y10.403 Z14.480 F2500.000
G1 X29.279 Y10.403 Z14.690 F2500.000
G1 X29.479 Y10.403 Z14.745 F2500.000
G1 X30.079 Y10.403 Z14.907 F2500.000
G1 X30.879 Y10.403 Z15.106 F2500.000
G1 X31.479 Y10.403 Z15.239 F2500.000
G1 X32.079 Y10.403 Z15.360 F2500.000
G1 X32.879 Y10.403 Z15.503 F2500.000
G1 X33.679 Y10.403 Z15.623 F2500.000
G1 X34.379 Y10.403 Z15.711 F2500.000
G1 X35.079 Y10.403 Z15.781 F2500.000
G1 X35.279 Y10.403 Z15.797 F2500.000
G1 X35.879 Y10.403 Z15.840 F2500.000
G1 X36.479 Y10.403 Z15.871 F2500.000
G1 X37.279 Y10.403 Z15.894 F2500.000
G1 X38.079 Y10.403 Z15.905 F2500.000
G1 X39.679 Y10.403 Z15.916 F2500.000
G1 X41.679 Y10.403 Z15.920 F2500.000
G1 X43.679 Y10.403 Z15.915 F2500.000
G1 X45.479 Y10.403 Z15.898 F2500.000
G1 X46.079 Y10.403 Z15.885 F2500.000
G1 X46.879 Y10.403 Z15.854 F2500.000
G1 X47.479 Y10.403 Z15.816 F2500.000
G1 X48.079 Y10.403 Z15.766 F2500.000
G1 X48.879 Y10.403 Z15.680 F2500.000
G1 X49.679 Y10.403 Z15.572 F2500.000
G1 X50.379 Y10.403 Z15.458 F2500.000
G1 X51.079 Y10.403 Z15.329 F2500.000
G1 X51.879 Y10.403 Z15.161 F2500.000
G1 X52.679 Y10.403 Z14.970 F2500.000
G1 X53.279 Y10.403 Z14.813 F2500.000
G1 X53.879 Y10.403 Z14.644 F2500.000
G1 X54.679 Y10.403 Z14.398 F2500.000
G1 X55.279 Y10.403 Z14.200 F2500.000
G1 X55.479 Y10.403 Z14.132 F2500.000
G1 X56.179 Y10.403 Z13.879 F2500.000
G1 X57.079 Y10.403 Z13.530 F2500.000
G1 X57.756 Y10.403 Z13.246 F2500.000
(Break)
G0 Z10.500
G0 X18.942 Y4.003
G0 Z10.500
(part 9.)
G1 X18.942 Y4.003 Z9.637 F2500.000
G1 X19.342 Y4.003 Z9.916 F2500.000
G1 X19.842 Y4.003 Z10.253 F2500.000
G1 X20.342 Y4.003 Z10.578 F2500.000
G1 X20.842 Y4.003 Z10.889 F2500.000
G1 X21.342 Y4.003 Z11.190 F2500.000
G1 X21.842 Y4.003 Z11.480 F2500.000
G1 X22.342 Y4.003 Z11.757 F2500.000
G1 X22.842 Y4.003 Z12.026 F2500.000
G1 X23.342 Y4.003 Z12.284 F2500.000
G1 X23.842 Y4.003 Z12.531 F2500.000
G1 X24.342 Y4.003 Z12.769 F2500.000
G1 X24.842 Y4.003 Z12.998 F2500.000
G1 X25.342 Y4.003 Z13.215 F2500.000
G1 X26.342 Y4.003 Z13.626 F2500.000
G1 X26.842 Y4.003 Z13.818 F2500.000
G1 X27.342 Y4.003 Z14.001 F2500.000
G1 X27.842 Y4.003 Z14.175 F2500.000
G1 X28.342 Y4.003 Z14.340 F2500.000
G1 X28.842 Y4.003 Z14.496 F2500.000
G1 X29.342 Y4.003 Z14.644 F2500.000
G1 X30.342 Y4.003 Z14.915 F2500.000
G1 X30.842 Y4.003 Z15.035 F2500.000
G1 X31.342 Y4.003 Z15.150 F2500.000
G1 X31.842 Y4.003 Z15.254 F2500.000
G1 X32.342 Y4.003 Z15.351 F2500.000
G1 X32.842 Y4.003 Z15.439 F2500.000
G1 X33.342 Y4.003 Z15.518 F2500.000
G1 X33.842 Y4.003 Z15.590 F2500.000
G1 X34.342 Y4.003 Z15.651 F2500.000
G1 X34.842 Y4.003 Z15.704 F2500.000
G1 X35.342 Y4.003 Z15.748 F2500.000
G1 X35.842 Y4.003 Z15.784 F2500.000
G1 X36.342 Y4.003 Z15.811 F2500.000
G1 X36.842 Y4.003 Z15.830 F2500.000
G1 X37.842 Y4.003 Z15.850 F2500.000
G1 X38.942 Y4.003 Z15.859 F2500.000
G1 X41.542 Y4.003 Z15.867 F2500.000
G1 X44.042 Y4.003 Z15.859 F2500.000
G1 X45.042 Y4.003 Z15.851 F2500.000
G1 X46.042 Y4.003 Z15.832 F2500.000
G1 X46.542 Y4.003 Z15.816 F2500.000
G1 X47.042 Y4.003 Z15.791 F2500.000
G1 X47.542 Y4.003 Z15.758 F2500.000
G1 X48.042 Y4.003 Z15.716 F2500.000
G1 X48.542 Y4.003 Z15.664 F2500.000
G1 X49.042 Y4.003 Z15.604 F2500.000
G1 X49.542 Y4.003 Z15.536 F2500.000
G1 X50.042 Y4.003 Z15.458 F2500.000
G1 X50.542 Y4.003 Z15.372 F2500.000
G1 X51.042 Y4.003 Z15.279 F2500.000
G1 X51.542 Y4.003 Z15.175 F2500.000
G1 X52.042 Y4.003 Z15.064 F2500.000
G1 X52.542 Y4.003 Z14.943 F2500.000
G1 X53.042 Y4.003 Z14.814 F2500.000
G1 X53.542 Y4.003 Z14.678 F2500.000
G1 X54.042 Y4.003 Z14.532 F2500.000
G1 X54.542 Y4.003 Z14.378 F2500.000
G1 X55.042 Y4.003 Z14.214 F2500.000
G1 X55.542 Y4.003 Z14.042 F2500.000
G1 X56.042 Y4.003 Z13.861 F2500.000
G1 X56.542 Y4.003 Z13.672 F2500.000
G1 X57.042 Y4.003 Z13.473 F2500.000
G1 X57.542 Y4.003 Z13.266 F2500.000
G1 X58.042 Y4.003 Z13.048 F2500.000
G1 X58.542 Y4.003 Z12.823 F2500.000
G1 X59.042 Y4.003 Z12.588 F2500.000
G1 X59.542 Y4.003 Z12.343 F2500.000
G1 X60.042 Y4.003 Z12.086 F2500.000
G1 X60.542 Y4.003 Z11.822 F2500.000
G1 X61.042 Y4.003 Z11.545 F2500.000
G1 X61.542 Y4.003 Z11.258 F2500.000
G1 X62.042 Y4.003 Z10.961 F2500.000
G1 X62.542 Y4.003 Z10.651 F2500.000
G1 X63.042 Y4.003 Z10.329 F2500.000
G1 X63.542 Y4.003 Z9.997 F2500.000
G1 X63.942 Y4.003 Z9.720 F2500.000
G1 X64.060 Y4.086 Z9.637 F2500.000
G1 X64.989 Y64.479 Z9.808 F2500.000
G1 X65.948 Y126.872 Z9.972 F2500.000
G1 X66.837 Y184.665 Z10.112 F2500.000
G1 X66.862 Y186.264 Z10.113 F2500.000
G1 X67.154 Y205.262 Z10.158 F2500.000
G1 X67.634 Y236.459 Z10.224 F2500.000
G1 X67.500 Y236.523 Z10.336 F2500.000
G1 X66.500 Y236.523 Z11.125 F2500.000
G1 X65.500 Y236.523 Z11.854 F2500.000
G1 X64.500 Y236.523 Z12.526 F2500.000
G1 X63.500 Y236.523 Z13.144 F2500.000
G1 X62.500 Y236.523 Z13.714 F2500.000
G1 X61.500 Y236.523 Z14.236 F2500.000
G1 X60.500 Y236.523 Z14.714 F2500.000
G1 X59.500 Y236.523 Z15.149 F2500.000
G1 X58.500 Y236.523 Z15.545 F2500.000
G1 X57.500 Y236.523 Z15.902 F2500.000
G1 X56.500 Y236.523 Z16.224 F2500.000
G1 X55.500 Y236.523 Z16.510 F2500.000
G1 X54.500 Y236.523 Z16.764 F2500.000
G1 X53.500 Y236.523 Z16.985 F2500.000
G1 X52.500 Y236.523 Z17.177 F2500.000
G1 X51.500 Y236.523 Z17.340 F2500.000
G1 X50.500 Y236.523 Z17.475 F2500.000
G1 X49.500 Y236.523 Z17.583 F2500.000
G1 X48.500 Y236.523 Z17.666 F2500.000
G1 X47.500 Y236.523 Z17.724 F2500.000
G1 X46.500 Y236.523 Z17.761 F2500.000
G1 X45.500 Y236.523 Z17.779 F2500.000
G1 X44.500 Y236.523 Z17.790 F2500.000
G1 X42.500 Y236.523 Z17.799 F2500.000
G1 X40.500 Y236.523 Z17.799 F2500.000
G1 X38.500 Y236.523 Z17.790 F2500.000
G1 X37.500 Y236.523 Z17.778 F2500.000
G1 X36.500 Y236.523 Z17.761 F2500.000
G1 X35.500 Y236.523 Z17.724 F2500.000
G1 X34.500 Y236.523 Z17.666 F2500.000
G1 X33.500 Y236.523 Z17.583 F2500.000
G1 X32.500 Y236.523 Z17.475 F2500.000
G1 X31.500 Y236.523 Z17.340 F2500.000
G1 X30.500 Y236.523 Z17.177 F2500.000
G1 X29.500 Y236.523 Z16.985 F2500.000
G1 X28.500 Y236.523 Z16.764 F2500.000
G1 X27.500 Y236.523 Z16.511 F2500.000
G1 X26.500 Y236.523 Z16.224 F2500.000
G1 X25.500 Y236.523 Z15.902 F2500.000
G1 X24.500 Y236.523 Z15.545 F2500.000
G1 X23.500 Y236.523 Z15.150 F2500.000
G1 X22.500 Y236.523 Z14.713 F2500.000
G1 X21.500 Y236.523 Z14.236 F2500.000
G1 X20.500 Y236.523 Z13.714 F2500.000
G1 X19.500 Y236.523 Z13.144 F2500.000
G1 X18.500 Y236.523 Z12.525 F2500.000
G1 X17.500 Y236.523 Z11.853 F2500.000
G1 X16.500 Y236.523 Z11.124 F2500.000
G1 X15.500 Y236.523 Z10.336 F2500.000
G1 X15.366 Y236.458 Z10.224 F2500.000
G1 X16.166 Y184.465 Z10.111 F2500.000
G1 X17.018 Y129.071 Z9.978 F2500.000
G1 X18.011 Y64.479 Z9.808 F2500.000
G1 X18.942 Y4.003 Z9.637 F2500.000
(End of step 0.)
G0 Z12.500
(Finish operation: Array)
(Begin postamble)
M5
G17 G90
M2
