(Exported by FreeCAD)
(Post Processor: grbl_post)
(Output Time:2024-01-07 21:31:22.559509)
(Begin preamble)
G17 G90
G21
(Begin operation: TC: 6.35 Z2 Q635)
(Path: TC: 6.35 Z2 Q635)
(TC: 6.35 Z2 Q635)
(Begin toolchange)
( M6 T14 )
M3 S24000
(Finish operation: TC: 6.35 Z2 Q635)
(Begin operation: Fixture)
(Path: Fixture)
G54
(Finish operation: Fixture)
(Begin operation: Surface)
(Path: Surface)
(Surface)
(Surface)
(Tool type: endmill)
(Compensated Tool Path. Diameter: 6.35)
(Sample interval: 1.0)
(Step over %: 80.0)
()
G0 Z21.770
(Beginning of Multi-pass layers.)
(Layer 0 begins)
(Begin step 0.)
G0 X-32.912 Y-1.655
(part 1)
G1 X-32.912 Y-1.655 Z16.800 F2500.000
G1 X-11.968 Y-1.655 Z16.800 F2500.000
G1 X-10.971 Y-1.655 Z16.970 F2500.000
G1 X-9.973 Y-1.655 Z17.167 F2500.000
G1 X-8.976 Y-1.655 Z17.336 F2500.000
G1 X-7.979 Y-1.655 Z17.476 F2500.000
G1 X-6.981 Y-1.655 Z17.590 F2500.000
G1 X-5.984 Y-1.655 Z17.678 F2500.000
G1 X-4.987 Y-1.655 Z17.742 F2500.000
G1 X-3.989 Y-1.655 Z17.782 F2500.000
G1 X-2.992 Y-1.655 Z17.799 F2500.000
G1 X-1.995 Y-1.655 Z17.800 F2500.000
G1 X2.992 Y-1.655 Z17.799 F2500.000
G1 X3.989 Y-1.655 Z17.782 F2500.000
G1 X4.987 Y-1.655 Z17.742 F2500.000
G1 X5.984 Y-1.655 Z17.678 F2500.000
G1 X6.981 Y-1.655 Z17.590 F2500.000
G1 X7.979 Y-1.655 Z17.476 F2500.000
G1 X8.976 Y-1.655 Z17.336 F2500.000
G1 X9.973 Y-1.655 Z17.167 F2500.000
G1 X10.971 Y-1.655 Z16.970 F2500.000
G1 X11.968 Y-1.655 Z16.800 F2500.000
G1 X32.912 Y-1.655 Z16.800 F2500.000
(End of step 0.)
G0 Z19.770
G0 X33.325 Y3.425
(Begin step 1.)
G0 X33.325 Y3.425
(part 1)
G1 X33.325 Y3.425 Z16.800 F2500.000
G1 X12.435 Y3.425 Z16.800 F2500.000
G1 X11.440 Y3.425 Z16.936 F2500.000
G1 X10.445 Y3.425 Z17.134 F2500.000
G1 X9.450 Y3.425 Z17.302 F2500.000
G1 X8.456 Y3.425 Z17.445 F2500.000
G1 X7.461 Y3.425 Z17.560 F2500.000
G1 X6.466 Y3.425 Z17.648 F2500.000
G1 X5.471 Y3.425 Z17.714 F2500.000
G1 X4.477 Y3.425 Z17.756 F2500.000
G1 X3.482 Y3.425 Z17.778 F2500.000
G1 X2.487 Y3.425 Z17.790 F2500.000
G1 X0.497 Y3.425 Z17.797 F2500.000
G1 X-1.492 Y3.425 Z17.795 F2500.000
G1 X-2.487 Y3.425 Z17.790 F2500.000
G1 X-3.482 Y3.425 Z17.777 F2500.000
G1 X-4.477 Y3.425 Z17.756 F2500.000
G1 X-5.471 Y3.425 Z17.714 F2500.000
G1 X-6.466 Y3.425 Z17.648 F2500.000
G1 X-7.461 Y3.425 Z17.559 F2500.000
G1 X-8.456 Y3.425 Z17.445 F2500.000
G1 X-9.450 Y3.425 Z17.302 F2500.000
G1 X-10.445 Y3.425 Z17.134 F2500.000
G1 X-11.440 Y3.425 Z16.935 F2500.000
G1 X-12.435 Y3.425 Z16.800 F2500.000
G1 X-33.325 Y3.425 Z16.800 F2500.000
(End of step 1.)
G0 Z19.770
G0 X-33.247 Y8.505
(Begin step 2.)
G0 X-33.247 Y8.505
(part 1)
G1 X-33.247 Y8.505 Z16.800 F2500.000
G1 X-12.406 Y8.505 Z16.800 F2500.000
G1 X-11.413 Y8.505 Z16.891 F2500.000
G1 X-10.421 Y8.505 Z17.089 F2500.000
G1 X-9.428 Y8.505 Z17.258 F2500.000
G1 X-8.436 Y8.505 Z17.401 F2500.000
G1 X-7.443 Y8.505 Z17.516 F2500.000
G1 X-6.451 Y8.505 Z17.606 F2500.000
G1 X-5.458 Y8.505 Z17.671 F2500.000
G1 X-4.466 Y8.505 Z17.714 F2500.000
G1 X-3.474 Y8.505 Z17.736 F2500.000
G1 X-1.489 Y8.505 Z17.753 F2500.000
G1 X0.496 Y8.505 Z17.755 F2500.000
G1 X2.481 Y8.505 Z17.747 F2500.000
G1 X3.474 Y8.505 Z17.737 F2500.000
G1 X4.466 Y8.505 Z17.714 F2500.000
G1 X5.458 Y8.505 Z17.671 F2500.000
G1 X6.451 Y8.505 Z17.606 F2500.000
G1 X7.443 Y8.505 Z17.516 F2500.000
G1 X8.436 Y8.505 Z17.401 F2500.000
G1 X9.428 Y8.505 Z17.259 F2500.000
G1 X10.421 Y8.505 Z17.089 F2500.000
G1 X11.413 Y8.505 Z16.890 F2500.000
G1 X12.406 Y8.505 Z16.800 F2500.000
G1 X33.247 Y8.505 Z16.800 F2500.000
(End of step 2.)
G0 Z19.770
G0 X33.169 Y13.585
(Begin step 3.)
G0 X33.169 Y13.585
(part 1)
G1 X33.169 Y13.585 Z16.800 F2500.000
G1 X12.376 Y13.585 Z16.800 F2500.000
G1 X11.386 Y13.585 Z16.846 F2500.000
G1 X10.396 Y13.585 Z17.045 F2500.000
G1 X9.406 Y13.585 Z17.215 F2500.000
G1 X8.416 Y13.585 Z17.357 F2500.000
G1 X7.426 Y13.585 Z17.473 F2500.000
G1 X6.436 Y13.585 Z17.564 F2500.000
G1 X5.446 Y13.585 Z17.628 F2500.000
G1 X4.456 Y13.585 Z17.671 F2500.000
G1 X3.465 Y13.585 Z17.694 F2500.000
G1 X1.485 Y13.585 Z17.710 F2500.000
G1 X-0.495 Y13.585 Z17.713 F2500.000
G1 X-2.475 Y13.585 Z17.705 F2500.000
G1 X-3.465 Y13.585 Z17.693 F2500.000
G1 X-4.456 Y13.585 Z17.672 F2500.000
G1 X-5.446 Y13.585 Z17.628 F2500.000
G1 X-6.436 Y13.585 Z17.563 F2500.000
G1 X-7.426 Y13.585 Z17.473 F2500.000
G1 X-8.416 Y13.585 Z17.357 F2500.000
G1 X-9.406 Y13.585 Z17.215 F2500.000
G1 X-10.396 Y13.585 Z17.045 F2500.000
G1 X-11.386 Y13.585 Z16.846 F2500.000
G1 X-12.376 Y13.585 Z16.800 F2500.000
G1 X-33.169 Y13.585 Z16.800 F2500.000
(End of step 3.)
G0 Z19.770
G0 X-33.091 Y18.665
(Begin step 4.)
G0 X-33.091 Y18.665
(part 1)
G1 X-33.091 Y18.665 Z16.800 F2500.000
G1 X-11.360 Y18.665 Z16.801 F2500.000
G1 X-10.372 Y18.665 Z17.000 F2500.000
G1 X-9.384 Y18.665 Z17.171 F2500.000
G1 X-8.396 Y18.665 Z17.314 F2500.000
G1 X-7.408 Y18.665 Z17.430 F2500.000
G1 X-6.421 Y18.665 Z17.520 F2500.000
G1 X-5.433 Y18.665 Z17.586 F2500.000
G1 X-4.445 Y18.665 Z17.629 F2500.000
G1 X-3.457 Y18.665 Z17.651 F2500.000
G1 X-2.469 Y18.665 Z17.662 F2500.000
G1 X-1.482 Y18.665 Z17.668 F2500.000
G1 X0.494 Y18.665 Z17.671 F2500.000
G1 X2.469 Y18.665 Z17.662 F2500.000
G1 X3.457 Y18.665 Z17.652 F2500.000
G1 X4.445 Y18.665 Z17.628 F2500.000
G1 X5.433 Y18.665 Z17.587 F2500.000
G1 X6.421 Y18.665 Z17.521 F2500.000
G1 X7.408 Y18.665 Z17.430 F2500.000
G1 X8.396 Y18.665 Z17.314 F2500.000
G1 X9.384 Y18.665 Z17.170 F2500.000
G1 X10.372 Y18.665 Z17.000 F2500.000
G1 X11.360 Y18.665 Z16.801 F2500.000
G1 X33.091 Y18.665 Z16.800 F2500.000
(End of step 4.)
G0 Z19.770
G0 X33.013 Y23.745
(Begin step 5.)
G0 X33.013 Y23.745
(part 1)
G1 X33.013 Y23.745 Z16.800 F2500.000
G1 X11.333 Y23.745 Z16.800 F2500.000
G1 X10.347 Y23.745 Z16.955 F2500.000
G1 X9.362 Y23.745 Z17.126 F2500.000
G1 X8.376 Y23.745 Z17.270 F2500.000
G1 X7.391 Y23.745 Z17.387 F2500.000
G1 X6.405 Y23.745 Z17.478 F2500.000
G1 X5.420 Y23.745 Z17.544 F2500.000
G1 X4.435 Y23.745 Z17.587 F2500.000
G1 X3.449 Y23.745 Z17.610 F2500.000
G1 X2.464 Y23.745 Z17.620 F2500.000
G1 X0.493 Y23.745 Z17.628 F2500.000
G1 X-1.478 Y23.745 Z17.625 F2500.000
G1 X-2.464 Y23.745 Z17.620 F2500.000
G1 X-3.449 Y23.745 Z17.610 F2500.000
G1 X-4.435 Y23.745 Z17.587 F2500.000
G1 X-5.420 Y23.745 Z17.544 F2500.000
G1 X-6.405 Y23.745 Z17.478 F2500.000
G1 X-7.391 Y23.745 Z17.387 F2500.000
G1 X-8.376 Y23.745 Z17.269 F2500.000
G1 X-9.362 Y23.745 Z17.126 F2500.000
G1 X-10.347 Y23.745 Z16.956 F2500.000
G1 X-11.333 Y23.745 Z16.800 F2500.000
G1 X-33.013 Y23.745 Z16.800 F2500.000
(End of step 5.)
G0 Z19.770
G0 X-32.934 Y28.825
(Begin step 6.)
G0 X-32.934 Y28.825
(part 1)
G1 X-32.934 Y28.825 Z16.800 F2500.000
G1 X-10.978 Y28.825 Z16.800 F2500.000
G1 X-9.980 Y28.825 Z16.974 F2500.000
G1 X-8.982 Y28.825 Z17.138 F2500.000
G1 X-7.984 Y28.825 Z17.274 F2500.000
G1 X-6.986 Y28.825 Z17.383 F2500.000
G1 X-5.988 Y28.825 Z17.465 F2500.000
G1 X-4.990 Y28.825 Z17.523 F2500.000
G1 X-3.992 Y28.825 Z17.557 F2500.000
G1 X-2.994 Y28.825 Z17.573 F2500.000
G1 X-1.996 Y28.825 Z17.582 F2500.000
G1 X0.000 Y28.825 Z17.587 F2500.000
G1 X1.996 Y28.825 Z17.582 F2500.000
G1 X2.994 Y28.825 Z17.574 F2500.000
G1 X3.992 Y28.825 Z17.557 F2500.000
G1 X4.990 Y28.825 Z17.522 F2500.000
G1 X5.988 Y28.825 Z17.465 F2500.000
G1 X6.986 Y28.825 Z17.382 F2500.000
G1 X7.984 Y28.825 Z17.273 F2500.000
G1 X8.982 Y28.825 Z17.138 F2500.000
G1 X9.980 Y28.825 Z16.973 F2500.000
G1 X10.978 Y28.825 Z16.800 F2500.000
G1 X32.934 Y28.825 Z16.800 F2500.000
(End of step 6.)
G0 Z19.770
G0 X32.856 Y33.905
(Begin step 7.)
G0 X32.856 Y33.905
(part 1)
G1 X32.856 Y33.905 Z16.800 F2500.000
G1 X10.952 Y33.905 Z16.800 F2500.000
G1 X9.956 Y33.905 Z16.929 F2500.000
G1 X8.961 Y33.905 Z17.094 F2500.000
G1 X7.965 Y33.905 Z17.230 F2500.000
G1 X6.970 Y33.905 Z17.340 F2500.000
G1 X5.974 Y33.905 Z17.423 F2500.000
G1 X4.978 Y33.905 Z17.480 F2500.000
G1 X3.983 Y33.905 Z17.515 F2500.000
G1 X2.987 Y33.905 Z17.532 F2500.000
G1 X1.991 Y33.905 Z17.539 F2500.000
G1 X0.000 Y33.905 Z17.542 F2500.000
G1 X-1.991 Y33.905 Z17.539 F2500.000
G1 X-2.987 Y33.905 Z17.531 F2500.000
G1 X-3.983 Y33.905 Z17.514 F2500.000
G1 X-4.978 Y33.905 Z17.481 F2500.000
G1 X-5.974 Y33.905 Z17.423 F2500.000
G1 X-6.970 Y33.905 Z17.340 F2500.000
G1 X-7.965 Y33.905 Z17.231 F2500.000
G1 X-8.961 Y33.905 Z17.095 F2500.000
G1 X-9.956 Y33.905 Z16.929 F2500.000
G1 X-10.952 Y33.905 Z16.800 F2500.000
G1 X-32.856 Y33.905 Z16.800 F2500.000
(End of step 7.)
G0 Z19.770
G0 X-32.778 Y38.985
(Begin step 8.)
G0 X-32.778 Y38.985
(part 1)
G1 X-32.778 Y38.985 Z16.800 F2500.000
G1 X-10.926 Y38.985 Z16.800 F2500.000
G1 X-9.933 Y38.985 Z16.885 F2500.000
G1 X-8.940 Y38.985 Z17.050 F2500.000
G1 X-7.946 Y38.985 Z17.187 F2500.000
G1 X-6.953 Y38.985 Z17.297 F2500.000
G1 X-5.960 Y38.985 Z17.379 F2500.000
G1 X-4.966 Y38.985 Z17.438 F2500.000
G1 X-3.973 Y38.985 Z17.473 F2500.000
G1 X-2.980 Y38.985 Z17.488 F2500.000
G1 X-1.987 Y38.985 Z17.497 F2500.000
G1 X0.000 Y38.985 Z17.502 F2500.000
G1 X1.987 Y38.985 Z17.497 F2500.000
G1 X2.980 Y38.985 Z17.488 F2500.000
G1 X3.973 Y38.985 Z17.472 F2500.000
G1 X4.966 Y38.985 Z17.438 F2500.000
G1 X5.960 Y38.985 Z17.379 F2500.000
G1 X6.953 Y38.985 Z17.297 F2500.000
G1 X7.946 Y38.985 Z17.188 F2500.000
G1 X8.940 Y38.985 Z17.050 F2500.000
G1 X9.933 Y38.985 Z16.885 F2500.000
G1 X10.926 Y38.985 Z16.800 F2500.000
G1 X32.778 Y38.985 Z16.800 F2500.000
(End of step 8.)
G0 Z19.770
G0 X32.700 Y44.065
(Begin step 9.)
G0 X32.700 Y44.065
(part 1)
G1 X32.700 Y44.065 Z16.800 F2500.000
G1 X10.900 Y44.065 Z16.800 F2500.000
G1 X9.909 Y44.065 Z16.841 F2500.000
G1 X8.918 Y44.065 Z17.007 F2500.000
G1 X7.927 Y44.065 Z17.144 F2500.000
G1 X6.936 Y44.065 Z17.255 F2500.000
G1 X5.945 Y44.065 Z17.337 F2500.000
G1 X4.955 Y44.065 Z17.396 F2500.000
G1 X3.964 Y44.065 Z17.431 F2500.000
G1 X2.973 Y44.065 Z17.447 F2500.000
G1 X1.982 Y44.065 Z17.455 F2500.000
G1 X0.000 Y44.065 Z17.459 F2500.000
G1 X-1.982 Y44.065 Z17.454 F2500.000
G1 X-2.973 Y44.065 Z17.446 F2500.000
G1 X-3.964 Y44.065 Z17.430 F2500.000
G1 X-4.955 Y44.065 Z17.396 F2500.000
G1 X-5.945 Y44.065 Z17.338 F2500.000
G1 X-6.936 Y44.065 Z17.253 F2500.000
G1 X-7.927 Y44.065 Z17.144 F2500.000
G1 X-8.918 Y44.065 Z17.007 F2500.000
G1 X-9.909 Y44.065 Z16.841 F2500.000
G1 X-10.900 Y44.065 Z16.800 F2500.000
G1 X-32.700 Y44.065 Z16.800 F2500.000
(End of step 9.)
G0 Z19.770
G0 X-32.622 Y49.145
(Begin step 10.)
G0 X-32.622 Y49.145
(part 1)
G1 X-32.622 Y49.145 Z16.800 F2500.000
G1 X-9.885 Y49.145 Z16.800 F2500.000
G1 X-8.897 Y49.145 Z16.963 F2500.000
G1 X-7.908 Y49.145 Z17.101 F2500.000
G1 X-6.920 Y49.145 Z17.212 F2500.000
G1 X-5.931 Y49.145 Z17.296 F2500.000
G1 X-4.943 Y49.145 Z17.354 F2500.000
G1 X-3.954 Y49.145 Z17.388 F2500.000
G1 X-2.966 Y49.145 Z17.405 F2500.000
G1 X-0.989 Y49.145 Z17.416 F2500.000
G1 X0.000 Y49.145 Z17.418 F2500.000
G1 X1.977 Y49.145 Z17.413 F2500.000
G1 X2.966 Y49.145 Z17.405 F2500.000
G1 X3.954 Y49.145 Z17.388 F2500.000
G1 X4.943 Y49.145 Z17.354 F2500.000
G1 X5.931 Y49.145 Z17.295 F2500.000
G1 X6.920 Y49.145 Z17.211 F2500.000
G1 X7.908 Y49.145 Z17.101 F2500.000
G1 X8.897 Y49.145 Z16.962 F2500.000
G1 X9.885 Y49.145 Z16.800 F2500.000
G1 X32.622 Y49.145 Z16.800 F2500.000
(End of step 10.)
G0 Z19.770
G0 X32.544 Y54.225
(Begin step 11.)
G0 X32.544 Y54.225
(part 1)
G1 X32.544 Y54.225 Z16.800 F2500.000
G1 X9.862 Y54.225 Z16.800 F2500.000
G1 X8.876 Y54.225 Z16.919 F2500.000
G1 X7.889 Y54.225 Z17.058 F2500.000
G1 X6.903 Y54.225 Z17.168 F2500.000
G1 X5.917 Y54.225 Z17.252 F2500.000
G1 X4.931 Y54.225 Z17.311 F2500.000
G1 X3.945 Y54.225 Z17.346 F2500.000
G1 X2.959 Y54.225 Z17.363 F2500.000
G1 X0.986 Y54.225 Z17.373 F2500.000
G1 X0.000 Y54.225 Z17.374 F2500.000
G1 X-1.972 Y54.225 Z17.370 F2500.000
G1 X-2.959 Y54.225 Z17.363 F2500.000
G1 X-3.945 Y54.225 Z17.345 F2500.000
G1 X-4.931 Y54.225 Z17.311 F2500.000
G1 X-5.917 Y54.225 Z17.252 F2500.000
G1 X-6.903 Y54.225 Z17.168 F2500.000
G1 X-7.889 Y54.225 Z17.058 F2500.000
G1 X-8.876 Y54.225 Z16.920 F2500.000
G1 X-9.862 Y54.225 Z16.800 F2500.000
G1 X-32.544 Y54.225 Z16.800 F2500.000
(End of step 11.)
G0 Z19.770
G0 X-32.466 Y59.305
(Begin step 12.)
G0 X-32.466 Y59.305
(part 1)
G1 X-32.466 Y59.305 Z16.800 F2500.000
G1 X-9.490 Y59.305 Z16.800 F2500.000
G1 X-7.492 Y59.305 Z17.061 F2500.000
G1 X-6.493 Y59.305 Z17.162 F2500.000
G1 X-5.494 Y59.305 Z17.238 F2500.000
G1 X-4.495 Y59.305 Z17.287 F2500.000
G1 X-3.496 Y59.305 Z17.313 F2500.000
G1 X-2.497 Y59.305 Z17.324 F2500.000
G1 X-1.498 Y59.305 Z17.330 F2500.000
G1 X0.499 Y59.305 Z17.332 F2500.000
G1 X2.497 Y59.305 Z17.324 F2500.000
G1 X3.496 Y59.305 Z17.313 F2500.000
G1 X4.495 Y59.305 Z17.287 F2500.000
G1 X5.494 Y59.305 Z17.238 F2500.000
G1 X6.493 Y59.305 Z17.163 F2500.000
G1 X7.492 Y59.305 Z17.061 F2500.000
G1 X9.490 Y59.305 Z16.800 F2500.000
G1 X32.466 Y59.305 Z16.800 F2500.000
(End of step 12.)
G0 Z19.770
G0 X32.387 Y64.385
(Begin step 13.)
G0 X32.387 Y64.385
(part 1)
G1 X32.387 Y64.385 Z16.800 F2500.000
G1 X9.467 Y64.385 Z16.800 F2500.000
G1 X8.471 Y64.385 Z16.886 F2500.000
G1 X7.474 Y64.385 Z17.018 F2500.000
G1 X6.477 Y64.385 Z17.121 F2500.000
G1 X5.481 Y64.385 Z17.196 F2500.000
G1 X4.484 Y64.385 Z17.244 F2500.000
G1 X3.488 Y64.385 Z17.270 F2500.000
G1 X2.491 Y64.385 Z17.282 F2500.000
G1 X1.495 Y64.385 Z17.287 F2500.000
G1 X-0.498 Y64.385 Z17.291 F2500.000
G1 X-2.491 Y64.385 Z17.282 F2500.000
G1 X-3.488 Y64.385 Z17.271 F2500.000
G1 X-4.484 Y64.385 Z17.245 F2500.000
G1 X-5.481 Y64.385 Z17.196 F2500.000
G1 X-6.477 Y64.385 Z17.119 F2500.000
G1 X-7.474 Y64.385 Z17.017 F2500.000
G1 X-8.471 Y64.385 Z16.888 F2500.000
G1 X-9.467 Y64.385 Z16.800 F2500.000
G1 X-32.387 Y64.385 Z16.800 F2500.000
(End of step 13.)
G0 Z19.770
G0 X-32.309 Y69.465
(Begin step 14.)
G0 X-32.309 Y69.465
(part 1)
G1 X-32.309 Y69.465 Z16.800 F2500.000
G1 X-9.444 Y69.465 Z16.800 F2500.000
G1 X-8.450 Y69.465 Z16.844 F2500.000
G1 X-7.456 Y69.465 Z16.975 F2500.000
G1 X-6.462 Y69.465 Z17.078 F2500.000
G1 X-5.468 Y69.465 Z17.153 F2500.000
G1 X-4.474 Y69.465 Z17.203 F2500.000
G1 X-3.479 Y69.465 Z17.228 F2500.000
G1 X-2.485 Y69.465 Z17.240 F2500.000
G1 X-1.491 Y69.465 Z17.246 F2500.000
G1 X0.497 Y69.465 Z17.248 F2500.000
G1 X2.485 Y69.465 Z17.240 F2500.000
G1 X3.479 Y69.465 Z17.228 F2500.000
G1 X4.474 Y69.465 Z17.203 F2500.000
G1 X5.468 Y69.465 Z17.153 F2500.000
G1 X6.462 Y69.465 Z17.078 F2500.000
G1 X7.456 Y69.465 Z16.975 F2500.000
G1 X8.450 Y69.465 Z16.844 F2500.000
G1 X9.444 Y69.465 Z16.800 F2500.000
G1 X32.309 Y69.465 Z16.800 F2500.000
(End of step 14.)
G0 Z19.770
G0 X32.231 Y74.545
(Begin step 15.)
G0 X32.231 Y74.545
(part 1)
G1 X32.231 Y74.545 Z16.800 F2500.000
G1 X8.430 Y74.545 Z16.801 F2500.000
G1 X7.438 Y74.545 Z16.930 F2500.000
G1 X6.446 Y74.545 Z17.036 F2500.000
G1 X5.455 Y74.545 Z17.112 F2500.000
G1 X4.463 Y74.545 Z17.160 F2500.000
G1 X3.471 Y74.545 Z17.187 F2500.000
G1 X2.479 Y74.545 Z17.198 F2500.000
G1 X0.496 Y74.545 Z17.206 F2500.000
G1 X-0.496 Y74.545 Z17.206 F2500.000
G1 X-2.479 Y74.545 Z17.197 F2500.000
G1 X-3.471 Y74.545 Z17.187 F2500.000
G1 X-4.463 Y74.545 Z17.160 F2500.000
G1 X-5.455 Y74.545 Z17.112 F2500.000
G1 X-6.446 Y74.545 Z17.036 F2500.000
G1 X-7.438 Y74.545 Z16.932 F2500.000
G1 X-8.430 Y74.545 Z16.800 F2500.000
G1 X-32.231 Y74.545 Z16.800 F2500.000
(End of step 15.)
G0 Z19.770
G0 X-32.153 Y79.625
(Begin step 16.)
G0 X-32.153 Y79.625
(part 1)
G1 X-32.153 Y79.625 Z16.800 F2500.000
G1 X-8.409 Y79.625 Z16.800 F2500.000
G1 X-7.420 Y79.625 Z16.890 F2500.000
G1 X-6.431 Y79.625 Z16.993 F2500.000
G1 X-5.441 Y79.625 Z17.069 F2500.000
G1 X-4.452 Y79.625 Z17.118 F2500.000
G1 X-3.463 Y79.625 Z17.144 F2500.000
G1 X-2.473 Y79.625 Z17.155 F2500.000
G1 X-0.495 Y79.625 Z17.164 F2500.000
G1 X0.495 Y79.625 Z17.164 F2500.000
G1 X2.473 Y79.625 Z17.156 F2500.000
G1 X3.463 Y79.625 Z17.144 F2500.000
G1 X4.452 Y79.625 Z17.118 F2500.000
G1 X5.441 Y79.625 Z17.069 F2500.000
G1 X6.431 Y79.625 Z16.991 F2500.000
G1 X7.420 Y79.625 Z16.889 F2500.000
G1 X8.409 Y79.625 Z16.800 F2500.000
G1 X32.153 Y79.625 Z16.800 F2500.000
(End of step 16.)
G0 Z19.770
G0 X32.075 Y84.705
(Begin step 17.)
G0 X32.075 Y84.705
(part 1)
G1 X32.075 Y84.705 Z16.800 F2500.000
G1 X8.389 Y84.705 Z16.800 F2500.000
G1 X7.402 Y84.705 Z16.847 F2500.000
G1 X6.415 Y84.705 Z16.951 F2500.000
G1 X5.428 Y84.705 Z17.026 F2500.000
G1 X4.441 Y84.705 Z17.075 F2500.000
G1 X3.454 Y84.705 Z17.102 F2500.000
G1 X2.467 Y84.705 Z17.113 F2500.000
G1 X1.480 Y84.705 Z17.119 F2500.000
G1 X-0.493 Y84.705 Z17.122 F2500.000
G1 X-2.467 Y84.705 Z17.113 F2500.000
G1 X-3.454 Y84.705 Z17.102 F2500.000
G1 X-4.441 Y84.705 Z17.075 F2500.000
G1 X-5.428 Y84.705 Z17.026 F2500.000
G1 X-6.415 Y84.705 Z16.951 F2500.000
G1 X-7.402 Y84.705 Z16.846 F2500.000
G1 X-8.389 Y84.705 Z16.800 F2500.000
G1 X-32.075 Y84.705 Z16.800 F2500.000
(End of step 17.)
G0 Z19.770
G0 X-31.997 Y89.785
(Begin step 18.)
G0 X-31.997 Y89.785
(part 1)
G1 X-31.997 Y89.785 Z16.800 F2500.000
G1 X-7.999 Y89.785 Z16.800 F2500.000
G1 X-6.999 Y89.785 Z16.847 F2500.000
G1 X-5.999 Y89.785 Z16.942 F2500.000
G1 X-4.999 Y89.785 Z17.008 F2500.000
G1 X-4.000 Y89.785 Z17.048 F2500.000
G1 X-3.000 Y89.785 Z17.066 F2500.000
G1 X-2.000 Y89.785 Z17.074 F2500.000
G1 X0.000 Y89.785 Z17.080 F2500.000
G1 X1.000 Y89.785 Z17.078 F2500.000
G1 X3.000 Y89.785 Z17.065 F2500.000
G1 X4.000 Y89.785 Z17.047 F2500.000
G1 X4.999 Y89.785 Z17.008 F2500.000
G1 X5.999 Y89.785 Z16.942 F2500.000
G1 X6.999 Y89.785 Z16.848 F2500.000
G1 X7.999 Y89.785 Z16.800 F2500.000
G1 X31.997 Y89.785 Z16.800 F2500.000
(End of step 18.)
G0 Z19.770
G0 X31.919 Y94.865
(Begin step 19.)
G0 X31.919 Y94.865
(part 1)
G1 X31.919 Y94.865 Z16.800 F2500.000
G1 X7.980 Y94.865 Z16.800 F2500.000
G1 X6.982 Y94.865 Z16.806 F2500.000
G1 X5.985 Y94.865 Z16.899 F2500.000
G1 X4.987 Y94.865 Z16.967 F2500.000
G1 X3.990 Y94.865 Z17.005 F2500.000
G1 X2.992 Y94.865 Z17.024 F2500.000
G1 X1.995 Y94.865 Z17.032 F2500.000
G1 X0.000 Y94.865 Z17.038 F2500.000
G1 X-1.995 Y94.865 Z17.032 F2500.000
G1 X-2.992 Y94.865 Z17.023 F2500.000
G1 X-3.990 Y94.865 Z17.005 F2500.000
G1 X-4.987 Y94.865 Z16.967 F2500.000
G1 X-5.985 Y94.865 Z16.900 F2500.000
G1 X-6.982 Y94.865 Z16.806 F2500.000
G1 X-7.980 Y94.865 Z16.800 F2500.000
G1 X-31.919 Y94.865 Z16.800 F2500.000
(End of step 19.)
G0 Z19.770
G0 X-31.840 Y99.945
(Begin step 20.)
G0 X-31.840 Y99.945
(part 1)
G1 X-31.840 Y99.945 Z16.800 F2500.000
G1 X-6.965 Y99.945 Z16.800 F2500.000
G1 X-5.970 Y99.945 Z16.858 F2500.000
G1 X-4.975 Y99.945 Z16.925 F2500.000
G1 X-3.980 Y99.945 Z16.963 F2500.000
G1 X-2.985 Y99.945 Z16.981 F2500.000
G1 X-1.990 Y99.945 Z16.990 F2500.000
G1 X0.000 Y99.945 Z16.995 F2500.000
G1 X0.995 Y99.945 Z16.994 F2500.000
G1 X2.985 Y99.945 Z16.982 F2500.000
G1 X3.980 Y99.945 Z16.964 F2500.000
G1 X4.975 Y99.945 Z16.925 F2500.000
G1 X5.970 Y99.945 Z16.857 F2500.000
G1 X6.965 Y99.945 Z16.800 F2500.000
G1 X31.840 Y99.945 Z16.800 F2500.000
(End of step 20.)
G0 Z19.770
G0 X31.762 Y105.025
(Begin step 21.)
G0 X31.762 Y105.025
(part 1)
G1 X31.762 Y105.025 Z16.800 F2500.000
G1 X6.948 Y105.025 Z16.800 F2500.000
G1 X5.955 Y105.025 Z16.816 F2500.000
G1 X4.963 Y105.025 Z16.882 F2500.000
G1 X3.970 Y105.025 Z16.921 F2500.000
G1 X2.978 Y105.025 Z16.939 F2500.000
G1 X1.985 Y105.025 Z16.948 F2500.000
G1 X0.000 Y105.025 Z16.952 F2500.000
G1 X-1.985 Y105.025 Z16.948 F2500.000
G1 X-2.978 Y105.025 Z16.940 F2500.000
G1 X-3.970 Y105.025 Z16.922 F2500.000
G1 X-4.963 Y105.025 Z16.882 F2500.000
G1 X-5.955 Y105.025 Z16.815 F2500.000
G1 X-6.948 Y105.025 Z16.800 F2500.000
G1 X-31.762 Y105.025 Z16.800 F2500.000
(End of step 21.)
G0 Z19.770
G0 X-31.684 Y110.105
(Begin step 22.)
G0 X-31.684 Y110.105
(part 1)
G1 X-31.684 Y110.105 Z16.800 F2500.000
G1 X-5.941 Y110.105 Z16.800 F2500.000
G1 X-3.961 Y110.105 Z16.880 F2500.000
G1 X-2.970 Y110.105 Z16.897 F2500.000
G1 X-1.980 Y110.105 Z16.905 F2500.000
G1 X0.000 Y110.105 Z16.911 F2500.000
G1 X1.980 Y110.105 Z16.905 F2500.000
G1 X2.970 Y110.105 Z16.896 F2500.000
G1 X3.961 Y110.105 Z16.880 F2500.000
G1 X5.941 Y110.105 Z16.800 F2500.000
G1 X31.684 Y110.105 Z16.800 F2500.000
(End of step 22.)
G0 Z19.770
G0 X31.606 Y115.185
(Begin step 23.)
G0 X31.606 Y115.185
(part 1)
G1 X31.606 Y115.185 Z16.800 F2500.000
G1 X4.938 Y115.185 Z16.800 F2500.000
G1 X3.951 Y115.185 Z16.837 F2500.000
G1 X2.963 Y115.185 Z16.855 F2500.000
G1 X1.975 Y115.185 Z16.863 F2500.000
G1 X0.000 Y115.185 Z16.869 F2500.000
G1 X-1.975 Y115.185 Z16.863 F2500.000
G1 X-2.963 Y115.185 Z16.855 F2500.000
G1 X-3.951 Y115.185 Z16.837 F2500.000
G1 X-4.938 Y115.185 Z16.800 F2500.000
G1 X-31.606 Y115.185 Z16.800 F2500.000
(End of step 23.)
G0 Z19.770
G0 X-31.528 Y120.265
(Begin step 24.)
G0 X-31.528 Y120.265
(part 1)
G1 X-31.528 Y120.265 Z16.800 F2500.000
G1 X-3.941 Y120.265 Z16.800 F2500.000
G1 X-1.970 Y120.265 Z16.821 F2500.000
G1 X0.000 Y120.265 Z16.826 F2500.000
G1 X1.970 Y120.265 Z16.820 F2500.000
G1 X2.956 Y120.265 Z16.813 F2500.000
G1 X3.941 Y120.265 Z16.800 F2500.000
G1 X31.528 Y120.265 Z16.800 F2500.000
(End of step 24.)
G0 Z19.770
G0 X31.450 Y125.345
(Begin step 25.)
G0 X31.450 Y125.345
(part 1)
G1 X31.450 Y125.345 Z16.800 F2500.000
G1 X-31.450 Y125.345 Z16.800 F2500.000
(End of step 25.)
G0 Z19.770
G0 X-31.372 Y130.425
(Begin step 26.)
G0 X-31.372 Y130.425
(part 1)
G1 X-31.372 Y130.425 Z16.800 F2500.000
G1 X31.372 Y130.425 Z16.800 F2500.000
(End of step 26.)
G0 Z19.770
G0 X31.293 Y135.505
(Begin step 27.)
G0 X31.293 Y135.505
(part 1)
G1 X31.293 Y135.505 Z16.800 F2500.000
G1 X-31.293 Y135.505 Z16.800 F2500.000
(End of step 27.)
G0 Z19.770
G0 X-31.215 Y140.585
(Begin step 28.)
G0 X-31.215 Y140.585
(part 1)
G1 X-31.215 Y140.585 Z16.800 F2500.000
G1 X31.215 Y140.585 Z16.800 F2500.000
(End of step 28.)
G0 Z19.770
G0 X31.137 Y145.665
(Begin step 29.)
G0 X31.137 Y145.665
(part 1)
G1 X31.137 Y145.665 Z16.800 F2500.000
G1 X-31.137 Y145.665 Z16.800 F2500.000
(End of step 29.)
G0 Z19.770
G0 X-31.059 Y150.745
(Begin step 30.)
G0 X-31.059 Y150.745
(part 1)
G1 X-31.059 Y150.745 Z16.800 F2500.000
G1 X31.059 Y150.745 Z16.800 F2500.000
(End of step 30.)
G0 Z19.770
G0 X30.981 Y155.825
(Begin step 31.)
G0 X30.981 Y155.825
(part 1)
G1 X30.981 Y155.825 Z16.800 F2500.000
G1 X-30.981 Y155.825 Z16.800 F2500.000
(End of step 31.)
G0 Z19.770
G0 X-30.903 Y160.905
(Begin step 32.)
G0 X-30.903 Y160.905
(part 1)
G1 X-30.903 Y160.905 Z16.800 F2500.000
G1 X30.903 Y160.905 Z16.800 F2500.000
(End of step 32.)
G0 Z19.770
G0 X30.825 Y165.985
(Begin step 33.)
G0 X30.825 Y165.985
(part 1)
G1 X30.825 Y165.985 Z16.800 F2500.000
G1 X-30.825 Y165.985 Z16.800 F2500.000
(End of step 33.)
G0 Z19.770
G0 X-30.746 Y171.065
(Begin step 34.)
G0 X-30.746 Y171.065
(part 1)
G1 X-30.746 Y171.065 Z16.800 F2500.000
G1 X30.746 Y171.065 Z16.800 F2500.000
(End of step 34.)
G0 Z19.770
G0 X30.668 Y176.145
(Begin step 35.)
G0 X30.668 Y176.145
(part 1)
G1 X30.668 Y176.145 Z16.800 F2500.000
G1 X-30.668 Y176.145 Z16.800 F2500.000
(End of step 35.)
G0 Z19.770
G0 X-30.590 Y181.225
(Begin step 36.)
G0 X-30.590 Y181.225
(part 1)
G1 X-30.590 Y181.225 Z16.800 F2500.000
G1 X30.590 Y181.225 Z16.800 F2500.000
(End of step 36.)
G0 Z19.770
G0 X30.512 Y186.305
(Begin step 37.)
G0 X30.512 Y186.305
(part 1)
G1 X30.512 Y186.305 Z16.800 F2500.000
G1 X-30.512 Y186.305 Z16.800 F2500.000
(End of step 37.)
G0 Z19.770
G0 X-30.434 Y191.385
(Begin step 38.)
G0 X-30.434 Y191.385
(part 1)
G1 X-30.434 Y191.385 Z16.800 F2500.000
G1 X30.434 Y191.385 Z16.800 F2500.000
(End of step 38.)
G0 Z19.770
G0 X30.356 Y196.465
(Begin step 39.)
G0 X30.356 Y196.465
(part 1)
G1 X30.356 Y196.465 Z16.800 F2500.000
G1 X-30.356 Y196.465 Z16.800 F2500.000
(End of step 39.)
G0 Z19.770
G0 X-30.278 Y201.545
(Begin step 40.)
G0 X-30.278 Y201.545
(part 1)
G1 X-30.278 Y201.545 Z16.800 F2500.000
G1 X30.278 Y201.545 Z16.800 F2500.000
(End of step 40.)
G0 Z19.770
G0 X30.199 Y206.625
(Begin step 41.)
G0 X30.199 Y206.625
(part 1)
G1 X30.199 Y206.625 Z16.800 F2500.000
G1 X-30.199 Y206.625 Z16.800 F2500.000
(End of step 41.)
G0 Z19.770
G0 X-30.121 Y211.705
(Begin step 42.)
G0 X-30.121 Y211.705
(part 1)
G1 X-30.121 Y211.705 Z16.800 F2500.000
G1 X30.121 Y211.705 Z16.800 F2500.000
(End of step 42.)
G0 Z19.770
G0 X30.043 Y216.785
(Begin step 43.)
G0 X30.043 Y216.785
(part 1)
G1 X30.043 Y216.785 Z16.800 F2500.000
G1 X-30.043 Y216.785 Z16.800 F2500.000
(End of step 43.)
G0 Z19.770
G0 X-29.965 Y221.865
(Begin step 44.)
G0 X-29.965 Y221.865
(part 1)
G1 X-29.965 Y221.865 Z16.800 F2500.000
G1 X29.965 Y221.865 Z16.800 F2500.000
(End of step 44.)
G0 Z19.770
G0 X29.887 Y226.945
(Begin step 45.)
G0 X29.887 Y226.945
(part 1)
G1 X29.887 Y226.945 Z16.800 F2500.000
G1 X-29.887 Y226.945 Z16.800 F2500.000
(End of step 45.)
G0 Z19.770
G0 X-29.809 Y232.025
(Begin step 46.)
G0 X-29.809 Y232.025
(part 1)
G1 X-29.809 Y232.025 Z16.800 F2500.000
G1 X29.809 Y232.025 Z16.800 F2500.000
(End of step 46.)
G0 Z19.770
G0 X29.731 Y237.105
(Begin step 47.)
G0 X29.731 Y237.105
(part 1)
G1 X29.731 Y237.105 Z16.800 F2500.000
G1 X-29.731 Y237.105 Z16.800 F2500.000
(End of step 47.)
G0 Z19.770
G0 X-29.212 Y242.185
(Begin step 48.)
G0 X-29.212 Y242.185
(part 1)
G1 X-29.212 Y242.185 Z16.800 F2500.000
G1 X29.212 Y242.185 Z16.800 F2500.000
(End of step 48.)
(End of layer 0)
(Layer 1 begins)
(Layer transition)
G0 Z19.770
G0 X-32.912 Y-1.655
(Begin step 0.)
G0 X-32.912 Y-1.655
(part 1)
G1 X-32.912 Y-1.655 Z13.625 F2500.000
G1 X-20.944 Y-1.655 Z13.625 F2500.000
G1 X-19.947 Y-1.655 Z13.635 F2500.000
G1 X-18.950 Y-1.655 Z14.166 F2500.000
G1 X-17.952 Y-1.655 Z14.652 F2500.000
G1 X-16.955 Y-1.655 Z15.095 F2500.000
G1 X-15.958 Y-1.655 Z15.497 F2500.000
G1 X-14.960 Y-1.655 Z15.862 F2500.000
G1 X-13.963 Y-1.655 Z16.189 F2500.000
G1 X-12.965 Y-1.655 Z16.482 F2500.000
G1 X-11.968 Y-1.655 Z16.742 F2500.000
G1 X-10.971 Y-1.655 Z16.970 F2500.000
G1 X-9.973 Y-1.655 Z17.167 F2500.000
G1 X-8.976 Y-1.655 Z17.336 F2500.000
G1 X-7.979 Y-1.655 Z17.476 F2500.000
G1 X-6.981 Y-1.655 Z17.590 F2500.000
G1 X-5.984 Y-1.655 Z17.678 F2500.000
G1 X-4.987 Y-1.655 Z17.742 F2500.000
G1 X-3.989 Y-1.655 Z17.782 F2500.000
G1 X-2.992 Y-1.655 Z17.799 F2500.000
G1 X-1.995 Y-1.655 Z17.800 F2500.000
G1 X2.992 Y-1.655 Z17.799 F2500.000
G1 X3.989 Y-1.655 Z17.782 F2500.000
G1 X4.987 Y-1.655 Z17.742 F2500.000
G1 X5.984 Y-1.655 Z17.678 F2500.000
G1 X6.981 Y-1.655 Z17.590 F2500.000
G1 X7.979 Y-1.655 Z17.476 F2500.000
G1 X8.976 Y-1.655 Z17.336 F2500.000
G1 X9.973 Y-1.655 Z17.167 F2500.000
G1 X10.971 Y-1.655 Z16.970 F2500.000
G1 X11.968 Y-1.655 Z16.742 F2500.000
G1 X12.965 Y-1.655 Z16.482 F2500.000
G1 X13.963 Y-1.655 Z16.190 F2500.000
G1 X14.960 Y-1.655 Z15.862 F2500.000
G1 X15.958 Y-1.655 Z15.498 F2500.000
G1 X16.955 Y-1.655 Z15.095 F2500.000
G1 X17.952 Y-1.655 Z14.652 F2500.000
G1 X18.950 Y-1.655 Z14.166 F2500.000
G1 X19.947 Y-1.655 Z13.636 F2500.000
G1 X20.944 Y-1.655 Z13.625 F2500.000
G1 X32.912 Y-1.655 Z13.625 F2500.000
(End of step 0.)
G0 Z19.770
G0 X33.325 Y3.425
(Begin step 1.)
G0 X33.325 Y3.425
(part 1)
G1 X33.325 Y3.425 Z13.625 F2500.000
G1 X20.393 Y3.425 Z13.625 F2500.000
G1 X19.398 Y3.425 Z14.132 F2500.000
G1 X18.403 Y3.425 Z14.616 F2500.000
G1 X17.409 Y3.425 Z15.058 F2500.000
G1 X16.414 Y3.425 Z15.460 F2500.000
G1 X15.419 Y3.425 Z15.825 F2500.000
G1 X14.424 Y3.425 Z16.152 F2500.000
G1 X13.430 Y3.425 Z16.447 F2500.000
G1 X12.435 Y3.425 Z16.707 F2500.000
G1 X11.440 Y3.425 Z16.936 F2500.000
G1 X10.445 Y3.425 Z17.134 F2500.000
G1 X9.450 Y3.425 Z17.302 F2500.000
G1 X8.456 Y3.425 Z17.445 F2500.000
G1 X7.461 Y3.425 Z17.560 F2500.000
G1 X6.466 Y3.425 Z17.648 F2500.000
G1 X5.471 Y3.425 Z17.714 F2500.000
G1 X4.477 Y3.425 Z17.756 F2500.000
G1 X3.482 Y3.425 Z17.778 F2500.000
G1 X2.487 Y3.425 Z17.790 F2500.000
G1 X0.497 Y3.425 Z17.797 F2500.000
G1 X-1.492 Y3.425 Z17.795 F2500.000
G1 X-2.487 Y3.425 Z17.790 F2500.000
G1 X-3.482 Y3.425 Z17.777 F2500.000
G1 X-4.477 Y3.425 Z17.756 F2500.000
G1 X-5.471 Y3.425 Z17.714 F2500.000
G1 X-6.466 Y3.425 Z17.648 F2500.000
G1 X-7.461 Y3.425 Z17.559 F2500.000
G1 X-8.456 Y3.425 Z17.445 F2500.000
G1 X-9.450 Y3.425 Z17.302 F2500.000
G1 X-10.445 Y3.425 Z17.134 F2500.000
G1 X-11.440 Y3.425 Z16.935 F2500.000
G1 X-12.435 Y3.425 Z16.707 F2500.000
G1 X-13.430 Y3.425 Z16.446 F2500.000
G1 X-14.424 Y3.425 Z16.152 F2500.000
G1 X-15.419 Y3.425 Z15.825 F2500.000
G1 X-16.414 Y3.425 Z15.460 F2500.000
G1 X-17.409 Y3.425 Z15.058 F2500.000
G1 X-18.403 Y3.425 Z14.616 F2500.000
G1 X-19.398 Y3.425 Z14.131 F2500.000
G1 X-20.393 Y3.425 Z13.625 F2500.000
G1 X-33.325 Y3.425 Z13.625 F2500.000
(End of step 1.)
G0 Z19.770
G0 X-33.247 Y8.505
(Begin step 2.)
G0 X-33.247 Y8.505
(part 1)
G1 X-33.247 Y8.505 Z13.625 F2500.000
G1 X-20.345 Y8.505 Z13.625 F2500.000
G1 X-19.353 Y8.505 Z14.089 F2500.000
G1 X-18.360 Y8.505 Z14.573 F2500.000
G1 X-17.368 Y8.505 Z15.015 F2500.000
G1 X-16.375 Y8.505 Z15.416 F2500.000
G1 X-15.383 Y8.505 Z15.780 F2500.000
G1 X-14.391 Y8.505 Z16.108 F2500.000
G1 X-13.398 Y8.505 Z16.401 F2500.000
G1 X-12.406 Y8.505 Z16.661 F2500.000
G1 X-11.413 Y8.505 Z16.891 F2500.000
G1 X-10.421 Y8.505 Z17.089 F2500.000
G1 X-9.428 Y8.505 Z17.258 F2500.000
G1 X-8.436 Y8.505 Z17.401 F2500.000
G1 X-7.443 Y8.505 Z17.516 F2500.000
G1 X-6.451 Y8.505 Z17.606 F2500.000
G1 X-5.458 Y8.505 Z17.671 F2500.000
G1 X-4.466 Y8.505 Z17.714 F2500.000
G1 X-3.474 Y8.505 Z17.736 F2500.000
G1 X-1.489 Y8.505 Z17.753 F2500.000
G1 X0.496 Y8.505 Z17.755 F2500.000
G1 X2.481 Y8.505 Z17.747 F2500.000
G1 X3.474 Y8.505 Z17.737 F2500.000
G1 X4.466 Y8.505 Z17.714 F2500.000
G1 X5.458 Y8.505 Z17.671 F2500.000
G1 X6.451 Y8.505 Z17.606 F2500.000
G1 X7.443 Y8.505 Z17.516 F2500.000
G1 X8.436 Y8.505 Z17.401 F2500.000
G1 X9.428 Y8.505 Z17.259 F2500.000
G1 X10.421 Y8.505 Z17.089 F2500.000
G1 X11.413 Y8.505 Z16.890 F2500.000
G1 X12.406 Y8.505 Z16.661 F2500.000
G1 X13.398 Y8.505 Z16.401 F2500.000
G1 X14.391 Y8.505 Z16.108 F2500.000
G1 X15.383 Y8.505 Z15.780 F2500.000
G1 X16.375 Y8.505 Z15.416 F2500.000
G1 X17.368 Y8.505 Z15.015 F2500.000
G1 X18.360 Y8.505 Z14.573 F2500.000
G1 X19.353 Y8.505 Z14.090 F2500.000
G1 X20.345 Y8.505 Z13.625 F2500.000
G1 X33.247 Y8.505 Z13.625 F2500.000
(End of step 2.)
G0 Z19.770
G0 X33.169 Y13.585
(Begin step 3.)
G0 X33.169 Y13.585
(part 1)
G1 X33.169 Y13.585 Z13.625 F2500.000
G1 X20.297 Y13.585 Z13.625 F2500.000
G1 X19.307 Y13.585 Z14.049 F2500.000
G1 X18.317 Y13.585 Z14.531 F2500.000
G1 X17.327 Y13.585 Z14.971 F2500.000
G1 X16.337 Y13.585 Z15.372 F2500.000
G1 X15.347 Y13.585 Z15.735 F2500.000
G1 X14.357 Y13.585 Z16.063 F2500.000
G1 X13.367 Y13.585 Z16.356 F2500.000
G1 X12.376 Y13.585 Z16.617 F2500.000
G1 X11.386 Y13.585 Z16.846 F2500.000
G1 X10.396 Y13.585 Z17.045 F2500.000
G1 X9.406 Y13.585 Z17.215 F2500.000
G1 X8.416 Y13.585 Z17.357 F2500.000
G1 X7.426 Y13.585 Z17.473 F2500.000
G1 X6.436 Y13.585 Z17.564 F2500.000
G1 X5.446 Y13.585 Z17.628 F2500.000
G1 X4.456 Y13.585 Z17.671 F2500.000
G1 X3.465 Y13.585 Z17.694 F2500.000
G1 X1.485 Y13.585 Z17.710 F2500.000
G1 X-0.495 Y13.585 Z17.713 F2500.000
G1 X-2.475 Y13.585 Z17.705 F2500.000
G1 X-3.465 Y13.585 Z17.693 F2500.000
G1 X-4.456 Y13.585 Z17.672 F2500.000
G1 X-5.446 Y13.585 Z17.628 F2500.000
G1 X-6.436 Y13.585 Z17.563 F2500.000
G1 X-7.426 Y13.585 Z17.473 F2500.000
G1 X-8.416 Y13.585 Z17.357 F2500.000
G1 X-9.406 Y13.585 Z17.215 F2500.000
G1 X-10.396 Y13.585 Z17.045 F2500.000
G1 X-11.386 Y13.585 Z16.846 F2500.000
G1 X-12.376 Y13.585 Z16.616 F2500.000
G1 X-13.367 Y13.585 Z16.356 F2500.000
G1 X-14.357 Y13.585 Z16.063 F2500.000
G1 X-15.347 Y13.585 Z15.735 F2500.000
G1 X-16.337 Y13.585 Z15.372 F2500.000
G1 X-17.327 Y13.585 Z14.971 F2500.000
G1 X-18.317 Y13.585 Z14.531 F2500.000
G1 X-19.307 Y13.585 Z14.049 F2500.000
G1 X-20.297 Y13.585 Z13.625 F2500.000
G1 X-33.169 Y13.585 Z13.625 F2500.000
(End of step 3.)
G0 Z19.770
G0 X-33.091 Y18.665
(Begin step 4.)
G0 X-33.091 Y18.665
(part 1)
G1 X-33.091 Y18.665 Z13.625 F2500.000
G1 X-20.250 Y18.665 Z13.625 F2500.000
G1 X-19.262 Y18.665 Z14.007 F2500.000
G1 X-18.274 Y18.665 Z14.488 F2500.000
G1 X-17.286 Y18.665 Z14.927 F2500.000
G1 X-16.298 Y18.665 Z15.327 F2500.000
G1 X-15.311 Y18.665 Z15.691 F2500.000
G1 X-14.323 Y18.665 Z16.016 F2500.000
G1 X-13.335 Y18.665 Z16.311 F2500.000
G1 X-12.347 Y18.665 Z16.571 F2500.000
G1 X-11.360 Y18.665 Z16.801 F2500.000
G1 X-10.372 Y18.665 Z17.000 F2500.000
G1 X-9.384 Y18.665 Z17.171 F2500.000
G1 X-8.396 Y18.665 Z17.314 F2500.000
G1 X-7.408 Y18.665 Z17.430 F2500.000
G1 X-6.421 Y18.665 Z17.520 F2500.000
G1 X-5.433 Y18.665 Z17.586 F2500.000
G1 X-4.445 Y18.665 Z17.629 F2500.000
G1 X-3.457 Y18.665 Z17.651 F2500.000
G1 X-2.469 Y18.665 Z17.662 F2500.000
G1 X-1.482 Y18.665 Z17.668 F2500.000
G1 X0.494 Y18.665 Z17.671 F2500.000
G1 X2.469 Y18.665 Z17.662 F2500.000
G1 X3.457 Y18.665 Z17.652 F2500.000
G1 X4.445 Y18.665 Z17.628 F2500.000
G1 X5.433 Y18.665 Z17.587 F2500.000
G1 X6.421 Y18.665 Z17.521 F2500.000
G1 X7.408 Y18.665 Z17.430 F2500.000
G1 X8.396 Y18.665 Z17.314 F2500.000
G1 X9.384 Y18.665 Z17.170 F2500.000
G1 X10.372 Y18.665 Z17.000 F2500.000
G1 X11.360 Y18.665 Z16.801 F2500.000
G1 X12.347 Y18.665 Z16.571 F2500.000
G1 X13.335 Y18.665 Z16.311 F2500.000
G1 X14.323 Y18.665 Z16.016 F2500.000
G1 X15.311 Y18.665 Z15.691 F2500.000
G1 X16.298 Y18.665 Z15.327 F2500.000
G1 X17.286 Y18.665 Z14.928 F2500.000
G1 X18.274 Y18.665 Z14.488 F2500.000
G1 X19.262 Y18.665 Z14.007 F2500.000
G1 X20.250 Y18.665 Z13.625 F2500.000
G1 X33.091 Y18.665 Z13.625 F2500.000
(End of step 4.)
G0 Z19.770
G0 X33.013 Y23.745
(Begin step 5.)
G0 X33.013 Y23.745
(part 1)
G1 X33.013 Y23.745 Z13.625 F2500.000
G1 X20.202 Y23.745 Z13.625 F2500.000
G1 X19.216 Y23.745 Z13.966 F2500.000
G1 X18.231 Y23.745 Z14.445 F2500.000
G1 X17.245 Y23.745 Z14.883 F2500.000
G1 X16.260 Y23.745 Z15.283 F2500.000
G1 X15.274 Y23.745 Z15.645 F2500.000
G1 X14.289 Y23.745 Z15.971 F2500.000
G1 X13.304 Y23.745 Z16.265 F2500.000
G1 X12.318 Y23.745 Z16.526 F2500.000
G1 X11.333 Y23.745 Z16.754 F2500.000
G1 X10.347 Y23.745 Z16.955 F2500.000
G1 X9.362 Y23.745 Z17.126 F2500.000
G1 X8.376 Y23.745 Z17.270 F2500.000
G1 X7.391 Y23.745 Z17.387 F2500.000
G1 X6.405 Y23.745 Z17.478 F2500.000
G1 X5.420 Y23.745 Z17.544 F2500.000
G1 X4.435 Y23.745 Z17.587 F2500.000
G1 X3.449 Y23.745 Z17.610 F2500.000
G1 X2.464 Y23.745 Z17.620 F2500.000
G1 X0.493 Y23.745 Z17.628 F2500.000
G1 X-1.478 Y23.745 Z17.625 F2500.000
G1 X-2.464 Y23.745 Z17.620 F2500.000
G1 X-3.449 Y23.745 Z17.610 F2500.000
G1 X-4.435 Y23.745 Z17.587 F2500.000
G1 X-5.420 Y23.745 Z17.544 F2500.000
G1 X-6.405 Y23.745 Z17.478 F2500.000
G1 X-7.391 Y23.745 Z17.387 F2500.000
G1 X-8.376 Y23.745 Z17.269 F2500.000
G1 X-9.362 Y23.745 Z17.126 F2500.000
G1 X-10.347 Y23.745 Z16.956 F2500.000
G1 X-11.333 Y23.745 Z16.755 F2500.000
G1 X-12.318 Y23.745 Z16.525 F2500.000
G1 X-13.304 Y23.745 Z16.265 F2500.000
G1 X-14.289 Y23.745 Z15.972 F2500.000
G1 X-15.274 Y23.745 Z15.645 F2500.000
G1 X-16.260 Y23.745 Z15.282 F2500.000
G1 X-17.245 Y23.745 Z14.883 F2500.000
G1 X-18.231 Y23.745 Z14.445 F2500.000
G1 X-19.216 Y23.745 Z13.965 F2500.000
G1 X-20.202 Y23.745 Z13.625 F2500.000
G1 X-33.013 Y23.745 Z13.625 F2500.000
(End of step 5.)
G0 Z19.770
G0 X-32.934 Y28.825
(Begin step 6.)
G0 X-32.934 Y28.825
(part 1)
G1 X-32.934 Y28.825 Z13.625 F2500.000
G1 X-19.960 Y28.825 Z13.625 F2500.000
G1 X-18.962 Y28.825 Z14.029 F2500.000
G1 X-17.964 Y28.825 Z14.505 F2500.000
G1 X-16.966 Y28.825 Z14.939 F2500.000
G1 X-15.968 Y28.825 Z15.335 F2500.000
G1 X-14.970 Y28.825 Z15.693 F2500.000
G1 X-13.972 Y28.825 Z16.015 F2500.000
G1 X-12.974 Y28.825 Z16.302 F2500.000
G1 X-11.976 Y28.825 Z16.558 F2500.000
G1 X-10.978 Y28.825 Z16.781 F2500.000
G1 X-9.980 Y28.825 Z16.974 F2500.000
G1 X-8.982 Y28.825 Z17.138 F2500.000
G1 X-7.984 Y28.825 Z17.274 F2500.000
G1 X-6.986 Y28.825 Z17.383 F2500.000
G1 X-5.988 Y28.825 Z17.465 F2500.000
G1 X-4.990 Y28.825 Z17.523 F2500.000
G1 X-3.992 Y28.825 Z17.557 F2500.000
G1 X-2.994 Y28.825 Z17.573 F2500.000
G1 X-1.996 Y28.825 Z17.582 F2500.000
G1 X0.000 Y28.825 Z17.587 F2500.000
G1 X1.996 Y28.825 Z17.582 F2500.000
G1 X2.994 Y28.825 Z17.574 F2500.000
G1 X3.992 Y28.825 Z17.557 F2500.000
G1 X4.990 Y28.825 Z17.522 F2500.000
G1 X5.988 Y28.825 Z17.465 F2500.000
G1 X6.986 Y28.825 Z17.382 F2500.000
G1 X7.984 Y28.825 Z17.273 F2500.000
G1 X8.982 Y28.825 Z17.138 F2500.000
G1 X9.980 Y28.825 Z16.973 F2500.000
G1 X10.978 Y28.825 Z16.781 F2500.000
G1 X11.976 Y28.825 Z16.557 F2500.000
G1 X12.974 Y28.825 Z16.303 F2500.000
G1 X13.972 Y28.825 Z16.015 F2500.000
G1 X14.970 Y28.825 Z15.693 F2500.000
G1 X15.968 Y28.825 Z15.335 F2500.000
G1 X16.966 Y28.825 Z14.940 F2500.000
G1 X17.964 Y28.825 Z14.504 F2500.000
G1 X18.962 Y28.825 Z14.030 F2500.000
G1 X19.960 Y28.825 Z13.625 F2500.000
G1 X32.934 Y28.825 Z13.625 F2500.000
(End of step 6.)
G0 Z19.770
G0 X32.856 Y33.905
(Begin step 7.)
G0 X32.856 Y33.905
(part 1)
G1 X32.856 Y33.905 Z13.625 F2500.000
G1 X19.913 Y33.905 Z13.625 F2500.000
G1 X18.917 Y33.905 Z13.987 F2500.000
G1 X17.922 Y33.905 Z14.462 F2500.000
G1 X16.926 Y33.905 Z14.896 F2500.000
G1 X15.930 Y33.905 Z15.291 F2500.000
G1 X14.935 Y33.905 Z15.647 F2500.000
G1 X13.939 Y33.905 Z15.969 F2500.000
G1 X12.943 Y33.905 Z16.257 F2500.000
G1 X11.948 Y33.905 Z16.512 F2500.000
G1 X10.952 Y33.905 Z16.737 F2500.000
G1 X9.956 Y33.905 Z16.929 F2500.000
G1 X8.961 Y33.905 Z17.094 F2500.000
G1 X7.965 Y33.905 Z17.230 F2500.000
G1 X6.970 Y33.905 Z17.340 F2500.000
G1 X5.974 Y33.905 Z17.423 F2500.000
G1 X4.978 Y33.905 Z17.480 F2500.000
G1 X3.983 Y33.905 Z17.515 F2500.000
G1 X2.987 Y33.905 Z17.532 F2500.000
G1 X1.991 Y33.905 Z17.539 F2500.000
G1 X0.000 Y33.905 Z17.542 F2500.000
G1 X-1.991 Y33.905 Z17.539 F2500.000
G1 X-2.987 Y33.905 Z17.531 F2500.000
G1 X-3.983 Y33.905 Z17.514 F2500.000
G1 X-4.978 Y33.905 Z17.481 F2500.000
G1 X-5.974 Y33.905 Z17.423 F2500.000
G1 X-6.970 Y33.905 Z17.340 F2500.000
G1 X-7.965 Y33.905 Z17.231 F2500.000
G1 X-8.961 Y33.905 Z17.095 F2500.000
G1 X-9.956 Y33.905 Z16.929 F2500.000
G1 X-10.952 Y33.905 Z16.737 F2500.000
G1 X-11.948 Y33.905 Z16.513 F2500.000
G1 X-12.943 Y33.905 Z16.258 F2500.000
G1 X-13.939 Y33.905 Z15.968 F2500.000
G1 X-14.935 Y33.905 Z15.647 F2500.000
G1 X-15.930 Y33.905 Z15.290 F2500.000
G1 X-16.926 Y33.905 Z14.895 F2500.000
G1 X-17.922 Y33.905 Z14.462 F2500.000
G1 X-18.917 Y33.905 Z13.987 F2500.000
G1 X-19.913 Y33.905 Z13.625 F2500.000
G1 X-32.856 Y33.905 Z13.625 F2500.000
(End of step 7.)
G0 Z19.770
G0 X-32.778 Y38.985
(Begin step 8.)
G0 X-32.778 Y38.985
(part 1)
G1 X-32.778 Y38.985 Z13.625 F2500.000
G1 X-19.866 Y38.985 Z13.625 F2500.000
G1 X-18.872 Y38.985 Z13.946 F2500.000
G1 X-17.879 Y38.985 Z14.420 F2500.000
G1 X-16.886 Y38.985 Z14.852 F2500.000
G1 X-15.892 Y38.985 Z15.246 F2500.000
G1 X-14.899 Y38.985 Z15.603 F2500.000
G1 X-13.906 Y38.985 Z15.925 F2500.000
G1 X-12.913 Y38.985 Z16.212 F2500.000
G1 X-11.919 Y38.985 Z16.468 F2500.000
G1 X-10.926 Y38.985 Z16.691 F2500.000
G1 X-9.933 Y38.985 Z16.885 F2500.000
G1 X-8.940 Y38.985 Z17.050 F2500.000
G1 X-7.946 Y38.985 Z17.187 F2500.000
G1 X-6.953 Y38.985 Z17.297 F2500.000
G1 X-5.960 Y38.985 Z17.379 F2500.000
G1 X-4.966 Y38.985 Z17.438 F2500.000
G1 X-3.973 Y38.985 Z17.473 F2500.000
G1 X-2.980 Y38.985 Z17.488 F2500.000
G1 X-1.987 Y38.985 Z17.497 F2500.000
G1 X0.000 Y38.985 Z17.502 F2500.000
G1 X1.987 Y38.985 Z17.497 F2500.000
G1 X2.980 Y38.985 Z17.488 F2500.000
G1 X3.973 Y38.985 Z17.472 F2500.000
G1 X4.966 Y38.985 Z17.438 F2500.000
G1 X5.960 Y38.985 Z17.379 F2500.000
G1 X6.953 Y38.985 Z17.297 F2500.000
G1 X7.946 Y38.985 Z17.188 F2500.000
G1 X8.940 Y38.985 Z17.050 F2500.000
G1 X9.933 Y38.985 Z16.885 F2500.000
G1 X10.926 Y38.985 Z16.691 F2500.000
G1 X11.919 Y38.985 Z16.468 F2500.000
G1 X12.913 Y38.985 Z16.212 F2500.000
G1 X13.906 Y38.985 Z15.925 F2500.000
G1 X14.899 Y38.985 Z15.602 F2500.000
G1 X15.892 Y38.985 Z15.246 F2500.000
G1 X16.886 Y38.985 Z14.852 F2500.000
G1 X17.879 Y38.985 Z14.420 F2500.000
G1 X18.872 Y38.985 Z13.947 F2500.000
G1 X19.866 Y38.985 Z13.625 F2500.000
G1 X32.778 Y38.985 Z13.625 F2500.000
(End of step 8.)
G0 Z19.770
G0 X32.700 Y44.065
(Begin step 9.)
G0 X32.700 Y44.065
(part 1)
G1 X32.700 Y44.065 Z13.625 F2500.000
G1 X19.818 Y44.065 Z13.625 F2500.000
G1 X18.827 Y44.065 Z13.905 F2500.000
G1 X17.836 Y44.065 Z14.377 F2500.000
G1 X16.845 Y44.065 Z14.809 F2500.000
G1 X15.855 Y44.065 Z15.202 F2500.000
G1 X14.864 Y44.065 Z15.558 F2500.000
G1 X13.873 Y44.065 Z15.879 F2500.000
G1 X12.882 Y44.065 Z16.167 F2500.000
G1 X11.891 Y44.065 Z16.423 F2500.000
G1 X10.900 Y44.065 Z16.647 F2500.000
G1 X9.909 Y44.065 Z16.841 F2500.000
G1 X8.918 Y44.065 Z17.007 F2500.000
G1 X7.927 Y44.065 Z17.144 F2500.000
G1 X6.936 Y44.065 Z17.255 F2500.000
G1 X5.945 Y44.065 Z17.337 F2500.000
G1 X4.955 Y44.065 Z17.396 F2500.000
G1 X3.964 Y44.065 Z17.431 F2500.000
G1 X2.973 Y44.065 Z17.447 F2500.000
G1 X1.982 Y44.065 Z17.455 F2500.000
G1 X0.000 Y44.065 Z17.459 F2500.000
G1 X-1.982 Y44.065 Z17.454 F2500.000
G1 X-2.973 Y44.065 Z17.446 F2500.000
G1 X-3.964 Y44.065 Z17.430 F2500.000
G1 X-4.955 Y44.065 Z17.396 F2500.000
G1 X-5.945 Y44.065 Z17.338 F2500.000
G1 X-6.936 Y44.065 Z17.253 F2500.000
G1 X-7.927 Y44.065 Z17.144 F2500.000
G1 X-8.918 Y44.065 Z17.007 F2500.000
G1 X-9.909 Y44.065 Z16.841 F2500.000
G1 X-10.900 Y44.065 Z16.647 F2500.000
G1 X-11.891 Y44.065 Z16.423 F2500.000
G1 X-12.882 Y44.065 Z16.167 F2500.000
G1 X-13.873 Y44.065 Z15.880 F2500.000
G1 X-14.864 Y44.065 Z15.558 F2500.000
G1 X-15.855 Y44.065 Z15.202 F2500.000
G1 X-16.845 Y44.065 Z14.809 F2500.000
G1 X-17.836 Y44.065 Z14.377 F2500.000
G1 X-18.827 Y44.065 Z13.905 F2500.000
G1 X-19.818 Y44.065 Z13.625 F2500.000
G1 X-32.700 Y44.065 Z13.625 F2500.000
(End of step 9.)
G0 Z19.770
G0 X-32.622 Y49.145
(Begin step 10.)
G0 X-32.622 Y49.145
(part 1)
G1 X-32.622 Y49.145 Z13.625 F2500.000
G1 X-19.771 Y49.145 Z13.625 F2500.000
G1 X-18.782 Y49.145 Z13.862 F2500.000
G1 X-17.794 Y49.145 Z14.335 F2500.000
G1 X-16.805 Y49.145 Z14.765 F2500.000
G1 X-15.817 Y49.145 Z15.157 F2500.000
G1 X-14.828 Y49.145 Z15.514 F2500.000
G1 X-13.840 Y49.145 Z15.836 F2500.000
G1 X-12.851 Y49.145 Z16.123 F2500.000
G1 X-11.863 Y49.145 Z16.378 F2500.000
G1 X-10.874 Y49.145 Z16.602 F2500.000
G1 X-9.885 Y49.145 Z16.797 F2500.000
G1 X-8.897 Y49.145 Z16.963 F2500.000
G1 X-7.908 Y49.145 Z17.101 F2500.000
G1 X-6.920 Y49.145 Z17.212 F2500.000
G1 X-5.931 Y49.145 Z17.296 F2500.000
G1 X-4.943 Y49.145 Z17.354 F2500.000
G1 X-3.954 Y49.145 Z17.388 F2500.000
G1 X-2.966 Y49.145 Z17.405 F2500.000
G1 X-0.989 Y49.145 Z17.416 F2500.000
G1 X0.000 Y49.145 Z17.418 F2500.000
G1 X1.977 Y49.145 Z17.413 F2500.000
G1 X2.966 Y49.145 Z17.405 F2500.000
G1 X3.954 Y49.145 Z17.388 F2500.000
G1 X4.943 Y49.145 Z17.354 F2500.000
G1 X5.931 Y49.145 Z17.295 F2500.000
G1 X6.920 Y49.145 Z17.211 F2500.000
G1 X7.908 Y49.145 Z17.101 F2500.000
G1 X8.897 Y49.145 Z16.962 F2500.000
G1 X9.885 Y49.145 Z16.796 F2500.000
G1 X10.874 Y49.145 Z16.603 F2500.000
G1 X11.863 Y49.145 Z16.377 F2500.000
G1 X12.851 Y49.145 Z16.123 F2500.000
G1 X13.840 Y49.145 Z15.835 F2500.000
G1 X14.828 Y49.145 Z15.514 F2500.000
G1 X15.817 Y49.145 Z15.157 F2500.000
G1 X16.805 Y49.145 Z14.766 F2500.000
G1 X17.794 Y49.145 Z14.334 F2500.000
G1 X18.782 Y49.145 Z13.862 F2500.000
G1 X19.771 Y49.145 Z13.625 F2500.000
G1 X32.622 Y49.145 Z13.625 F2500.000
(End of step 10.)
G0 Z19.770
G0 X32.544 Y54.225
(Begin step 11.)
G0 X32.544 Y54.225
(part 1)
G1 X32.544 Y54.225 Z13.625 F2500.000
G1 X19.723 Y54.225 Z13.625 F2500.000
G1 X18.737 Y54.225 Z13.822 F2500.000
G1 X17.751 Y54.225 Z14.292 F2500.000
G1 X16.765 Y54.225 Z14.722 F2500.000
G1 X15.779 Y54.225 Z15.114 F2500.000
G1 X14.793 Y54.225 Z15.468 F2500.000
G1 X13.806 Y54.225 Z15.791 F2500.000
G1 X12.820 Y54.225 Z16.079 F2500.000
G1 X11.834 Y54.225 Z16.333 F2500.000
G1 X10.848 Y54.225 Z16.559 F2500.000
G1 X9.862 Y54.225 Z16.753 F2500.000
G1 X8.876 Y54.225 Z16.919 F2500.000
G1 X7.889 Y54.225 Z17.058 F2500.000
G1 X6.903 Y54.225 Z17.168 F2500.000
G1 X5.917 Y54.225 Z17.252 F2500.000
G1 X4.931 Y54.225 Z17.311 F2500.000
G1 X3.945 Y54.225 Z17.346 F2500.000
G1 X2.959 Y54.225 Z17.363 F2500.000
G1 X0.986 Y54.225 Z17.373 F2500.000
G1 X0.000 Y54.225 Z17.374 F2500.000
G1 X-1.972 Y54.225 Z17.370 F2500.000
G1 X-2.959 Y54.225 Z17.363 F2500.000
G1 X-3.945 Y54.225 Z17.345 F2500.000
G1 X-4.931 Y54.225 Z17.311 F2500.000
G1 X-5.917 Y54.225 Z17.252 F2500.000
G1 X-6.903 Y54.225 Z17.168 F2500.000
G1 X-7.889 Y54.225 Z17.058 F2500.000
G1 X-8.876 Y54.225 Z16.920 F2500.000
G1 X-9.862 Y54.225 Z16.754 F2500.000
G1 X-10.848 Y54.225 Z16.558 F2500.000
G1 X-11.834 Y54.225 Z16.334 F2500.000
G1 X-12.820 Y54.225 Z16.079 F2500.000
G1 X-13.806 Y54.225 Z15.791 F2500.000
G1 X-14.793 Y54.225 Z15.470 F2500.000
G1 X-15.779 Y54.225 Z15.114 F2500.000
G1 X-16.765 Y54.225 Z14.722 F2500.000
G1 X-17.751 Y54.225 Z14.291 F2500.000
G1 X-18.737 Y54.225 Z13.822 F2500.000
G1 X-19.723 Y54.225 Z13.625 F2500.000
G1 X-32.544 Y54.225 Z13.625 F2500.000
(End of step 11.)
G0 Z19.770
G0 X-32.466 Y59.305
(Begin step 12.)
G0 X-32.466 Y59.305
(part 1)
G1 X-32.466 Y59.305 Z13.625 F2500.000
G1 X-19.479 Y59.305 Z13.625 F2500.000
G1 X-18.480 Y59.305 Z13.886 F2500.000
G1 X-17.481 Y59.305 Z14.351 F2500.000
G1 X-16.483 Y59.305 Z14.778 F2500.000
G1 X-15.484 Y59.305 Z15.165 F2500.000
G1 X-14.485 Y59.305 Z15.517 F2500.000
G1 X-13.486 Y59.305 Z15.834 F2500.000
G1 X-12.487 Y59.305 Z16.115 F2500.000
G1 X-11.488 Y59.305 Z16.365 F2500.000
G1 X-10.489 Y59.305 Z16.584 F2500.000
G1 X-9.490 Y59.305 Z16.772 F2500.000
G1 X-8.491 Y59.305 Z16.931 F2500.000
G1 X-7.492 Y59.305 Z17.061 F2500.000
G1 X-6.493 Y59.305 Z17.162 F2500.000
G1 X-5.494 Y59.305 Z17.238 F2500.000
G1 X-4.495 Y59.305 Z17.287 F2500.000
G1 X-3.496 Y59.305 Z17.313 F2500.000
G1 X-2.497 Y59.305 Z17.324 F2500.000
G1 X-1.498 Y59.305 Z17.330 F2500.000
G1 X0.499 Y59.305 Z17.332 F2500.000
G1 X2.497 Y59.305 Z17.324 F2500.000
G1 X3.496 Y59.305 Z17.313 F2500.000
G1 X4.495 Y59.305 Z17.287 F2500.000
G1 X5.494 Y59.305 Z17.238 F2500.000
G1 X6.493 Y59.305 Z17.163 F2500.000
G1 X7.492 Y59.305 Z17.061 F2500.000
G1 X8.491 Y59.305 Z16.931 F2500.000
G1 X9.490 Y59.305 Z16.772 F2500.000
G1 X10.489 Y59.305 Z16.584 F2500.000
G1 X11.488 Y59.305 Z16.366 F2500.000
G1 X12.487 Y59.305 Z16.116 F2500.000
G1 X13.486 Y59.305 Z15.834 F2500.000
G1 X14.485 Y59.305 Z15.516 F2500.000
G1 X15.484 Y59.305 Z15.165 F2500.000
G1 X16.483 Y59.305 Z14.778 F2500.000
G1 X17.481 Y59.305 Z14.352 F2500.000
G1 X18.480 Y59.305 Z13.885 F2500.000
G1 X19.479 Y59.305 Z13.625 F2500.000
G1 X32.466 Y59.305 Z13.625 F2500.000
(End of step 12.)
G0 Z19.770
G0 X32.387 Y64.385
(Begin step 13.)
G0 X32.387 Y64.385
(part 1)
G1 X32.387 Y64.385 Z13.625 F2500.000
G1 X19.432 Y64.385 Z13.625 F2500.000
G1 X18.436 Y64.385 Z13.844 F2500.000
G1 X17.439 Y64.385 Z14.309 F2500.000
G1 X16.443 Y64.385 Z14.735 F2500.000
G1 X15.446 Y64.385 Z15.121 F2500.000
G1 X14.450 Y64.385 Z15.472 F2500.000
G1 X13.453 Y64.385 Z15.788 F2500.000
G1 X12.457 Y64.385 Z16.071 F2500.000
G1 X11.460 Y64.385 Z16.320 F2500.000
G1 X10.464 Y64.385 Z16.540 F2500.000
G1 X9.467 Y64.385 Z16.728 F2500.000
G1 X8.471 Y64.385 Z16.886 F2500.000
G1 X7.474 Y64.385 Z17.018 F2500.000
G1 X6.477 Y64.385 Z17.121 F2500.000
G1 X5.481 Y64.385 Z17.196 F2500.000
G1 X4.484 Y64.385 Z17.244 F2500.000
G1 X3.488 Y64.385 Z17.270 F2500.000
G1 X2.491 Y64.385 Z17.282 F2500.000
G1 X1.495 Y64.385 Z17.287 F2500.000
G1 X-0.498 Y64.385 Z17.291 F2500.000
G1 X-2.491 Y64.385 Z17.282 F2500.000
G1 X-3.488 Y64.385 Z17.271 F2500.000
G1 X-4.484 Y64.385 Z17.245 F2500.000
G1 X-5.481 Y64.385 Z17.196 F2500.000
G1 X-6.477 Y64.385 Z17.119 F2500.000
G1 X-7.474 Y64.385 Z17.017 F2500.000
G1 X-8.471 Y64.385 Z16.888 F2500.000
G1 X-9.467 Y64.385 Z16.729 F2500.000
G1 X-10.464 Y64.385 Z16.540 F2500.000
G1 X-11.460 Y64.385 Z16.322 F2500.000
G1 X-12.457 Y64.385 Z16.070 F2500.000
G1 X-13.453 Y64.385 Z15.789 F2500.000
G1 X-14.450 Y64.385 Z15.472 F2500.000
G1 X-15.446 Y64.385 Z15.121 F2500.000
G1 X-16.443 Y64.385 Z14.735 F2500.000
G1 X-17.439 Y64.385 Z14.310 F2500.000
G1 X-18.436 Y64.385 Z13.844 F2500.000
G1 X-19.432 Y64.385 Z13.625 F2500.000
G1 X-32.387 Y64.385 Z13.625 F2500.000
(End of step 13.)
G0 Z19.770
G0 X-32.309 Y69.465
(Begin step 14.)
G0 X-32.309 Y69.465
(part 1)
G1 X-32.309 Y69.465 Z13.625 F2500.000
G1 X-19.386 Y69.465 Z13.625 F2500.000
G1 X-18.391 Y69.465 Z13.803 F2500.000
G1 X-17.397 Y69.465 Z14.267 F2500.000
G1 X-16.403 Y69.465 Z14.691 F2500.000
G1 X-15.409 Y69.465 Z15.077 F2500.000
G1 X-14.415 Y69.465 Z15.429 F2500.000
G1 X-13.421 Y69.465 Z15.744 F2500.000
G1 X-12.427 Y69.465 Z16.027 F2500.000
G1 X-11.433 Y69.465 Z16.277 F2500.000
G1 X-10.438 Y69.465 Z16.496 F2500.000
G1 X-9.444 Y69.465 Z16.685 F2500.000
G1 X-8.450 Y69.465 Z16.844 F2500.000
G1 X-7.456 Y69.465 Z16.975 F2500.000
G1 X-6.462 Y69.465 Z17.078 F2500.000
G1 X-5.468 Y69.465 Z17.153 F2500.000
G1 X-4.474 Y69.465 Z17.203 F2500.000
G1 X-3.479 Y69.465 Z17.228 F2500.000
G1 X-2.485 Y69.465 Z17.240 F2500.000
G1 X-1.491 Y69.465 Z17.246 F2500.000
G1 X0.497 Y69.465 Z17.248 F2500.000
G1 X2.485 Y69.465 Z17.240 F2500.000
G1 X3.479 Y69.465 Z17.228 F2500.000
G1 X4.474 Y69.465 Z17.203 F2500.000
G1 X5.468 Y69.465 Z17.153 F2500.000
G1 X6.462 Y69.465 Z17.078 F2500.000
G1 X7.456 Y69.465 Z16.975 F2500.000
G1 X8.450 Y69.465 Z16.844 F2500.000
G1 X9.444 Y69.465 Z16.684 F2500.000
G1 X10.438 Y69.465 Z16.496 F2500.000
G1 X11.433 Y69.465 Z16.277 F2500.000
G1 X12.427 Y69.465 Z16.027 F2500.000
G1 X13.421 Y69.465 Z15.744 F2500.000
G1 X14.415 Y69.465 Z15.427 F2500.000
G1 X15.409 Y69.465 Z15.078 F2500.000
G1 X16.403 Y69.465 Z14.691 F2500.000
G1 X17.397 Y69.465 Z14.267 F2500.000
G1 X18.391 Y69.465 Z13.802 F2500.000
G1 X19.386 Y69.465 Z13.625 F2500.000
G1 X32.309 Y69.465 Z13.625 F2500.000
(End of step 14.)
G0 Z19.770
G0 X32.231 Y74.545
(Begin step 15.)
G0 X32.231 Y74.545
(part 1)
G1 X32.231 Y74.545 Z13.625 F2500.000
G1 X19.339 Y74.545 Z13.625 F2500.000
G1 X18.347 Y74.545 Z13.761 F2500.000
G1 X17.355 Y74.545 Z14.224 F2500.000
G1 X16.364 Y74.545 Z14.648 F2500.000
G1 X15.372 Y74.545 Z15.035 F2500.000
G1 X14.380 Y74.545 Z15.385 F2500.000
G1 X13.388 Y74.545 Z15.699 F2500.000
G1 X12.397 Y74.545 Z15.982 F2500.000
G1 X11.405 Y74.545 Z16.233 F2500.000
G1 X10.413 Y74.545 Z16.452 F2500.000
G1 X9.421 Y74.545 Z16.641 F2500.000
G1 X8.430 Y74.545 Z16.801 F2500.000
G1 X7.438 Y74.545 Z16.930 F2500.000
G1 X6.446 Y74.545 Z17.036 F2500.000
G1 X5.455 Y74.545 Z17.112 F2500.000
G1 X4.463 Y74.545 Z17.160 F2500.000
G1 X3.471 Y74.545 Z17.187 F2500.000
G1 X2.479 Y74.545 Z17.198 F2500.000
G1 X1.488 Y74.545 Z17.203 F2500.000
G1 X-0.496 Y74.545 Z17.206 F2500.000
G1 X-2.479 Y74.545 Z17.197 F2500.000
G1 X-3.471 Y74.545 Z17.187 F2500.000
G1 X-4.463 Y74.545 Z17.160 F2500.000
G1 X-5.455 Y74.545 Z17.112 F2500.000
G1 X-6.446 Y74.545 Z17.036 F2500.000
G1 X-7.438 Y74.545 Z16.932 F2500.000
G1 X-8.430 Y74.545 Z16.800 F2500.000
G1 X-9.421 Y74.545 Z16.641 F2500.000
G1 X-10.413 Y74.545 Z16.452 F2500.000
G1 X-11.405 Y74.545 Z16.233 F2500.000
G1 X-12.397 Y74.545 Z15.982 F2500.000
G1 X-13.388 Y74.545 Z15.699 F2500.000
G1 X-14.380 Y74.545 Z15.383 F2500.000
G1 X-15.372 Y74.545 Z15.035 F2500.000
G1 X-16.364 Y74.545 Z14.648 F2500.000
G1 X-17.355 Y74.545 Z14.225 F2500.000
G1 X-18.347 Y74.545 Z13.761 F2500.000
G1 X-19.339 Y74.545 Z13.625 F2500.000
G1 X-32.231 Y74.545 Z13.625 F2500.000
(End of step 15.)
G0 Z19.770
G0 X-32.153 Y79.625
(Begin step 16.)
G0 X-32.153 Y79.625
(part 1)
G1 X-32.153 Y79.625 Z13.625 F2500.000
G1 X-19.292 Y79.625 Z13.625 F2500.000
G1 X-18.302 Y79.625 Z13.719 F2500.000
G1 X-17.313 Y79.625 Z14.182 F2500.000
G1 X-16.324 Y79.625 Z14.604 F2500.000
G1 X-15.335 Y79.625 Z14.990 F2500.000
G1 X-14.345 Y79.625 Z15.339 F2500.000
G1 X-13.356 Y79.625 Z15.656 F2500.000
G1 X-12.367 Y79.625 Z15.938 F2500.000
G1 X-11.377 Y79.625 Z16.188 F2500.000
G1 X-10.388 Y79.625 Z16.407 F2500.000
G1 X-9.399 Y79.625 Z16.598 F2500.000
G1 X-8.409 Y79.625 Z16.757 F2500.000
G1 X-7.420 Y79.625 Z16.890 F2500.000
G1 X-6.431 Y79.625 Z16.993 F2500.000
G1 X-5.441 Y79.625 Z17.069 F2500.000
G1 X-4.452 Y79.625 Z17.118 F2500.000
G1 X-3.463 Y79.625 Z17.144 F2500.000
G1 X-2.473 Y79.625 Z17.155 F2500.000
G1 X-0.495 Y79.625 Z17.164 F2500.000
G1 X1.484 Y79.625 Z17.161 F2500.000
G1 X2.473 Y79.625 Z17.156 F2500.000
G1 X3.463 Y79.625 Z17.144 F2500.000
G1 X4.452 Y79.625 Z17.118 F2500.000
G1 X5.441 Y79.625 Z17.069 F2500.000
G1 X6.431 Y79.625 Z16.991 F2500.000
G1 X7.420 Y79.625 Z16.889 F2500.000
G1 X8.409 Y79.625 Z16.758 F2500.000
G1 X9.399 Y79.625 Z16.598 F2500.000
G1 X10.388 Y79.625 Z16.409 F2500.000
G1 X11.377 Y79.625 Z16.189 F2500.000
G1 X12.367 Y79.625 Z15.937 F2500.000
G1 X13.356 Y79.625 Z15.655 F2500.000
G1 X14.345 Y79.625 Z15.340 F2500.000
G1 X15.335 Y79.625 Z14.990 F2500.000
G1 X16.324 Y79.625 Z14.603 F2500.000
G1 X17.313 Y79.625 Z14.182 F2500.000
G1 X18.302 Y79.625 Z13.719 F2500.000
G1 X19.292 Y79.625 Z13.625 F2500.000
G1 X32.153 Y79.625 Z13.625 F2500.000
(End of step 16.)
G0 Z19.770
G0 X32.075 Y84.705
(Begin step 17.)
G0 X32.075 Y84.705
(part 1)
G1 X32.075 Y84.705 Z13.625 F2500.000
G1 X19.245 Y84.705 Z13.625 F2500.000
G1 X18.258 Y84.705 Z13.678 F2500.000
G1 X17.271 Y84.705 Z14.140 F2500.000
G1 X16.284 Y84.705 Z14.561 F2500.000
G1 X15.297 Y84.705 Z14.947 F2500.000
G1 X14.310 Y84.705 Z15.296 F2500.000
G1 X13.323 Y84.705 Z15.612 F2500.000
G1 X12.336 Y84.705 Z15.895 F2500.000
G1 X11.350 Y84.705 Z16.145 F2500.000
G1 X10.363 Y84.705 Z16.365 F2500.000
G1 X9.376 Y84.705 Z16.554 F2500.000
G1 X8.389 Y84.705 Z16.715 F2500.000
G1 X7.402 Y84.705 Z16.847 F2500.000
G1 X6.415 Y84.705 Z16.951 F2500.000
G1 X5.428 Y84.705 Z17.026 F2500.000
G1 X4.441 Y84.705 Z17.075 F2500.000
G1 X3.454 Y84.705 Z17.102 F2500.000
G1 X2.467 Y84.705 Z17.113 F2500.000
G1 X1.480 Y84.705 Z17.119 F2500.000
G1 X-0.493 Y84.705 Z17.122 F2500.000
G1 X-2.467 Y84.705 Z17.113 F2500.000
G1 X-3.454 Y84.705 Z17.102 F2500.000
G1 X-4.441 Y84.705 Z17.075 F2500.000
G1 X-5.428 Y84.705 Z17.026 F2500.000
G1 X-6.415 Y84.705 Z16.951 F2500.000
G1 X-7.402 Y84.705 Z16.846 F2500.000
G1 X-8.389 Y84.705 Z16.715 F2500.000
G1 X-9.376 Y84.705 Z16.554 F2500.000
G1 X-10.363 Y84.705 Z16.365 F2500.000
G1 X-11.350 Y84.705 Z16.144 F2500.000
G1 X-12.336 Y84.705 Z15.894 F2500.000
G1 X-13.323 Y84.705 Z15.612 F2500.000
G1 X-14.310 Y84.705 Z15.296 F2500.000
G1 X-15.297 Y84.705 Z14.947 F2500.000
G1 X-16.284 Y84.705 Z14.561 F2500.000
G1 X-17.271 Y84.705 Z14.140 F2500.000
G1 X-18.258 Y84.705 Z13.677 F2500.000
G1 X-19.245 Y84.705 Z13.625 F2500.000
G1 X-32.075 Y84.705 Z13.625 F2500.000
(End of step 17.)
G0 Z19.770
G0 X-31.997 Y89.785
(Begin step 18.)
G0 X-31.997 Y89.785
(part 1)
G1 X-31.997 Y89.785 Z13.625 F2500.000
G1 X-18.998 Y89.785 Z13.625 F2500.000
G1 X-17.998 Y89.785 Z13.742 F2500.000
G1 X-16.998 Y89.785 Z14.200 F2500.000
G1 X-15.998 Y89.785 Z14.618 F2500.000
G1 X-14.998 Y89.785 Z15.000 F2500.000
G1 X-13.999 Y89.785 Z15.344 F2500.000
G1 X-12.999 Y89.785 Z15.655 F2500.000
G1 X-11.999 Y89.785 Z15.931 F2500.000
G1 X-10.999 Y89.785 Z16.176 F2500.000
G1 X-9.999 Y89.785 Z16.390 F2500.000
G1 X-8.999 Y89.785 Z16.571 F2500.000
G1 X-7.999 Y89.785 Z16.725 F2500.000
G1 X-6.999 Y89.785 Z16.847 F2500.000
G1 X-5.999 Y89.785 Z16.942 F2500.000
G1 X-4.999 Y89.785 Z17.008 F2500.000
G1 X-4.000 Y89.785 Z17.048 F2500.000
G1 X-3.000 Y89.785 Z17.066 F2500.000
G1 X-2.000 Y89.785 Z17.074 F2500.000
G1 X0.000 Y89.785 Z17.080 F2500.000
G1 X1.000 Y89.785 Z17.078 F2500.000
G1 X3.000 Y89.785 Z17.065 F2500.000
G1 X4.000 Y89.785 Z17.047 F2500.000
G1 X4.999 Y89.785 Z17.008 F2500.000
G1 X5.999 Y89.785 Z16.942 F2500.000
G1 X6.999 Y89.785 Z16.848 F2500.000
G1 X7.999 Y89.785 Z16.725 F2500.000
G1 X8.999 Y89.785 Z16.571 F2500.000
G1 X9.999 Y89.785 Z16.390 F2500.000
G1 X10.999 Y89.785 Z16.177 F2500.000
G1 X11.999 Y89.785 Z15.931 F2500.000
G1 X12.999 Y89.785 Z15.655 F2500.000
G1 X13.999 Y89.785 Z15.343 F2500.000
G1 X14.998 Y89.785 Z14.999 F2500.000
G1 X15.998 Y89.785 Z14.619 F2500.000
G1 X16.998 Y89.785 Z14.200 F2500.000
G1 X17.998 Y89.785 Z13.742 F2500.000
G1 X18.998 Y89.785 Z13.625 F2500.000
G1 X31.997 Y89.785 Z13.625 F2500.000
(End of step 18.)
G0 Z19.770
G0 X31.919 Y94.865
(Begin step 19.)
G0 X31.919 Y94.865
(part 1)
G1 X31.919 Y94.865 Z13.625 F2500.000
G1 X18.952 Y94.865 Z13.625 F2500.000
G1 X17.954 Y94.865 Z13.700 F2500.000
G1 X16.957 Y94.865 Z14.157 F2500.000
G1 X15.959 Y94.865 Z14.575 F2500.000
G1 X14.962 Y94.865 Z14.956 F2500.000
G1 X13.964 Y94.865 Z15.301 F2500.000
G1 X12.967 Y94.865 Z15.611 F2500.000
G1 X11.969 Y94.865 Z15.888 F2500.000
G1 X10.972 Y94.865 Z16.133 F2500.000
G1 X9.975 Y94.865 Z16.346 F2500.000
G1 X8.977 Y94.865 Z16.529 F2500.000
G1 X7.980 Y94.865 Z16.682 F2500.000
G1 X6.982 Y94.865 Z16.806 F2500.000
G1 X5.985 Y94.865 Z16.899 F2500.000
G1 X4.987 Y94.865 Z16.967 F2500.000
G1 X3.990 Y94.865 Z17.005 F2500.000
G1 X2.992 Y94.865 Z17.024 F2500.000
G1 X1.995 Y94.865 Z17.032 F2500.000
G1 X0.000 Y94.865 Z17.038 F2500.000
G1 X-1.995 Y94.865 Z17.032 F2500.000
G1 X-2.992 Y94.865 Z17.023 F2500.000
G1 X-3.990 Y94.865 Z17.005 F2500.000
G1 X-4.987 Y94.865 Z16.967 F2500.000
G1 X-5.985 Y94.865 Z16.900 F2500.000
G1 X-6.982 Y94.865 Z16.806 F2500.000
G1 X-7.980 Y94.865 Z16.682 F2500.000
G1 X-8.977 Y94.865 Z16.529 F2500.000
G1 X-9.975 Y94.865 Z16.345 F2500.000
G1 X-10.972 Y94.865 Z16.131 F2500.000
G1 X-11.969 Y94.865 Z15.888 F2500.000
G1 X-12.967 Y94.865 Z15.611 F2500.000
G1 X-13.964 Y94.865 Z15.301 F2500.000
G1 X-14.962 Y94.865 Z14.956 F2500.000
G1 X-15.959 Y94.865 Z14.574 F2500.000
G1 X-16.957 Y94.865 Z14.157 F2500.000
G1 X-17.954 Y94.865 Z13.700 F2500.000
G1 X-18.952 Y94.865 Z13.625 F2500.000
G1 X-31.919 Y94.865 Z13.625 F2500.000
(End of step 19.)
G0 Z19.770
G0 X-31.840 Y99.945
(Begin step 20.)
G0 X-31.840 Y99.945
(part 1)
G1 X-31.840 Y99.945 Z13.625 F2500.000
G1 X-18.905 Y99.945 Z13.625 F2500.000
G1 X-17.910 Y99.945 Z13.658 F2500.000
G1 X-16.915 Y99.945 Z14.115 F2500.000
G1 X-15.920 Y99.945 Z14.532 F2500.000
G1 X-14.925 Y99.945 Z14.913 F2500.000
G1 X-13.930 Y99.945 Z15.257 F2500.000
G1 X-12.935 Y99.945 Z15.567 F2500.000
G1 X-11.940 Y99.945 Z15.843 F2500.000
G1 X-10.945 Y99.945 Z16.089 F2500.000
G1 X-9.950 Y99.945 Z16.303 F2500.000
G1 X-8.955 Y99.945 Z16.486 F2500.000
G1 X-7.960 Y99.945 Z16.640 F2500.000
G1 X-6.965 Y99.945 Z16.763 F2500.000
G1 X-5.970 Y99.945 Z16.858 F2500.000
G1 X-4.975 Y99.945 Z16.925 F2500.000
G1 X-3.980 Y99.945 Z16.963 F2500.000
G1 X-2.985 Y99.945 Z16.981 F2500.000
G1 X-1.990 Y99.945 Z16.990 F2500.000
G1 X0.000 Y99.945 Z16.995 F2500.000
G1 X0.995 Y99.945 Z16.994 F2500.000
G1 X2.985 Y99.945 Z16.982 F2500.000
G1 X3.980 Y99.945 Z16.964 F2500.000
G1 X4.975 Y99.945 Z16.925 F2500.000
G1 X5.970 Y99.945 Z16.857 F2500.000
G1 X6.965 Y99.945 Z16.763 F2500.000
G1 X7.960 Y99.945 Z16.640 F2500.000
G1 X8.955 Y99.945 Z16.485 F2500.000
G1 X9.950 Y99.945 Z16.303 F2500.000
G1 X10.945 Y99.945 Z16.090 F2500.000
G1 X11.940 Y99.945 Z15.844 F2500.000
G1 X12.935 Y99.945 Z15.567 F2500.000
G1 X13.930 Y99.945 Z15.257 F2500.000
G1 X14.925 Y99.945 Z14.912 F2500.000
G1 X15.920 Y99.945 Z14.533 F2500.000
G1 X16.915 Y99.945 Z14.115 F2500.000
G1 X17.910 Y99.945 Z13.658 F2500.000
G1 X18.905 Y99.945 Z13.625 F2500.000
G1 X31.840 Y99.945 Z13.625 F2500.000
(End of step 20.)
G0 Z19.770
G0 X31.762 Y105.025
(Begin step 21.)
G0 X31.762 Y105.025
(part 1)
G1 X31.762 Y105.025 Z13.625 F2500.000
G1 X17.866 Y105.025 Z13.625 F2500.000
G1 X16.874 Y105.025 Z14.073 F2500.000
G1 X15.881 Y105.025 Z14.489 F2500.000
G1 X14.889 Y105.025 Z14.869 F2500.000
G1 X13.896 Y105.025 Z15.212 F2500.000
G1 X12.903 Y105.025 Z15.523 F2500.000
G1 X11.911 Y105.025 Z15.801 F2500.000
G1 X10.918 Y105.025 Z16.046 F2500.000
G1 X9.926 Y105.025 Z16.258 F2500.000
G1 X8.933 Y105.025 Z16.443 F2500.000
G1 X7.941 Y105.025 Z16.597 F2500.000
G1 X6.948 Y105.025 Z16.720 F2500.000
G1 X5.955 Y105.025 Z16.816 F2500.000
G1 X4.963 Y105.025 Z16.882 F2500.000
G1 X3.970 Y105.025 Z16.921 F2500.000
G1 X2.978 Y105.025 Z16.939 F2500.000
G1 X1.985 Y105.025 Z16.948 F2500.000
G1 X0.000 Y105.025 Z16.952 F2500.000
G1 X-1.985 Y105.025 Z16.948 F2500.000
G1 X-2.978 Y105.025 Z16.940 F2500.000
G1 X-3.970 Y105.025 Z16.922 F2500.000
G1 X-4.963 Y105.025 Z16.882 F2500.000
G1 X-5.955 Y105.025 Z16.815 F2500.000
G1 X-6.948 Y105.025 Z16.721 F2500.000
G1 X-7.941 Y105.025 Z16.597 F2500.000
G1 X-8.933 Y105.025 Z16.443 F2500.000
G1 X-9.926 Y105.025 Z16.259 F2500.000
G1 X-10.918 Y105.025 Z16.045 F2500.000
G1 X-11.911 Y105.025 Z15.800 F2500.000
G1 X-12.903 Y105.025 Z15.524 F2500.000
G1 X-13.896 Y105.025 Z15.213 F2500.000
G1 X-14.889 Y105.025 Z14.869 F2500.000
G1 X-15.881 Y105.025 Z14.490 F2500.000
G1 X-16.874 Y105.025 Z14.073 F2500.000
G1 X-17.866 Y105.025 Z13.625 F2500.000
G1 X-31.762 Y105.025 Z13.625 F2500.000
(End of step 21.)
G0 Z19.770
G0 X-31.684 Y110.105
(Begin step 22.)
G0 X-31.684 Y110.105
(part 1)
G1 X-31.684 Y110.105 Z13.625 F2500.000
G1 X-17.822 Y110.105 Z13.625 F2500.000
G1 X-16.832 Y110.105 Z14.031 F2500.000
G1 X-15.842 Y110.105 Z14.446 F2500.000
G1 X-14.852 Y110.105 Z14.826 F2500.000
G1 X-13.862 Y110.105 Z15.170 F2500.000
G1 X-12.872 Y110.105 Z15.479 F2500.000
G1 X-11.882 Y110.105 Z15.757 F2500.000
G1 X-10.891 Y110.105 Z16.002 F2500.000
G1 X-9.901 Y110.105 Z16.216 F2500.000
G1 X-8.911 Y110.105 Z16.400 F2500.000
G1 X-7.921 Y110.105 Z16.554 F2500.000
G1 X-6.931 Y110.105 Z16.677 F2500.000
G1 X-5.941 Y110.105 Z16.773 F2500.000
G1 X-4.951 Y110.105 Z16.840 F2500.000
G1 X-3.961 Y110.105 Z16.880 F2500.000
G1 X-2.970 Y110.105 Z16.897 F2500.000
G1 X-1.980 Y110.105 Z16.905 F2500.000
G1 X0.000 Y110.105 Z16.911 F2500.000
G1 X1.980 Y110.105 Z16.905 F2500.000
G1 X2.970 Y110.105 Z16.896 F2500.000
G1 X3.961 Y110.105 Z16.880 F2500.000
G1 X4.951 Y110.105 Z16.839 F2500.000
G1 X5.941 Y110.105 Z16.773 F2500.000
G1 X6.931 Y110.105 Z16.678 F2500.000
G1 X7.921 Y110.105 Z16.554 F2500.000
G1 X8.911 Y110.105 Z16.400 F2500.000
G1 X9.901 Y110.105 Z16.216 F2500.000
G1 X10.891 Y110.105 Z16.002 F2500.000
G1 X11.882 Y110.105 Z15.756 F2500.000
G1 X12.872 Y110.105 Z15.479 F2500.000
G1 X13.862 Y110.105 Z15.169 F2500.000
G1 X14.852 Y110.105 Z14.825 F2500.000
G1 X15.842 Y110.105 Z14.446 F2500.000
G1 X16.832 Y110.105 Z14.031 F2500.000
G1 X17.822 Y110.105 Z13.625 F2500.000
G1 X31.684 Y110.105 Z13.625 F2500.000
(End of step 22.)
G0 Z19.770
G0 X31.606 Y115.185
(Begin step 23.)
G0 X31.606 Y115.185
(part 1)
G1 X31.606 Y115.185 Z13.625 F2500.000
G1 X17.778 Y115.185 Z13.625 F2500.000
G1 X16.791 Y115.185 Z13.989 F2500.000
G1 X15.803 Y115.185 Z14.404 F2500.000
G1 X14.815 Y115.185 Z14.782 F2500.000
G1 X13.828 Y115.185 Z15.126 F2500.000
G1 X12.840 Y115.185 Z15.435 F2500.000
G1 X11.852 Y115.185 Z15.712 F2500.000
G1 X10.865 Y115.185 Z15.958 F2500.000
G1 X9.877 Y115.185 Z16.173 F2500.000
G1 X8.889 Y115.185 Z16.357 F2500.000
G1 X7.902 Y115.185 Z16.511 F2500.000
G1 X6.914 Y115.185 Z16.636 F2500.000
G1 X5.926 Y115.185 Z16.731 F2500.000
G1 X4.938 Y115.185 Z16.798 F2500.000
G1 X3.951 Y115.185 Z16.837 F2500.000
G1 X2.963 Y115.185 Z16.855 F2500.000
G1 X1.975 Y115.185 Z16.863 F2500.000
G1 X0.000 Y115.185 Z16.869 F2500.000
G1 X-1.975 Y115.185 Z16.863 F2500.000
G1 X-2.963 Y115.185 Z16.855 F2500.000
G1 X-3.951 Y115.185 Z16.837 F2500.000
G1 X-4.938 Y115.185 Z16.798 F2500.000
G1 X-5.926 Y115.185 Z16.731 F2500.000
G1 X-6.914 Y115.185 Z16.635 F2500.000
G1 X-7.902 Y115.185 Z16.511 F2500.000
G1 X-8.889 Y115.185 Z16.356 F2500.000
G1 X-9.877 Y115.185 Z16.173 F2500.000
G1 X-10.865 Y115.185 Z15.959 F2500.000
G1 X-11.852 Y115.185 Z15.713 F2500.000
G1 X-12.840 Y115.185 Z15.435 F2500.000
G1 X-13.828 Y115.185 Z15.126 F2500.000
G1 X-14.815 Y115.185 Z14.782 F2500.000
G1 X-15.803 Y115.185 Z14.403 F2500.000
G1 X-16.791 Y115.185 Z13.989 F2500.000
G1 X-17.778 Y115.185 Z13.625 F2500.000
G1 X-31.606 Y115.185 Z13.625 F2500.000
(End of step 23.)
G0 Z19.770
G0 X-31.528 Y120.265
(Begin step 24.)
G0 X-31.528 Y120.265
(part 1)
G1 X-31.528 Y120.265 Z13.625 F2500.000
G1 X-17.734 Y120.265 Z13.625 F2500.000
G1 X-16.749 Y120.265 Z13.947 F2500.000
G1 X-15.764 Y120.265 Z14.362 F2500.000
G1 X-14.779 Y120.265 Z14.740 F2500.000
G1 X-13.793 Y120.265 Z15.083 F2500.000
G1 X-12.808 Y120.265 Z15.393 F2500.000
G1 X-11.823 Y120.265 Z15.670 F2500.000
G1 X-10.838 Y120.265 Z15.916 F2500.000
G1 X-9.852 Y120.265 Z16.130 F2500.000
G1 X-8.867 Y120.265 Z16.314 F2500.000
G1 X-7.882 Y120.265 Z16.469 F2500.000
G1 X-6.897 Y120.265 Z16.594 F2500.000
G1 X-5.911 Y120.265 Z16.689 F2500.000
G1 X-4.926 Y120.265 Z16.756 F2500.000
G1 X-3.941 Y120.265 Z16.795 F2500.000
G1 X-2.956 Y120.265 Z16.812 F2500.000
G1 X-1.970 Y120.265 Z16.821 F2500.000
G1 X0.000 Y120.265 Z16.826 F2500.000
G1 X0.985 Y120.265 Z16.825 F2500.000
G1 X2.956 Y120.265 Z16.813 F2500.000
G1 X3.941 Y120.265 Z16.794 F2500.000
G1 X4.926 Y120.265 Z16.755 F2500.000
G1 X5.911 Y120.265 Z16.689 F2500.000
G1 X6.897 Y120.265 Z16.594 F2500.000
G1 X7.882 Y120.265 Z16.469 F2500.000
G1 X8.867 Y120.265 Z16.314 F2500.000
G1 X9.852 Y120.265 Z16.130 F2500.000
G1 X10.838 Y120.265 Z15.915 F2500.000
G1 X11.823 Y120.265 Z15.670 F2500.000
G1 X12.808 Y120.265 Z15.393 F2500.000
G1 X13.793 Y120.265 Z15.083 F2500.000
G1 X14.779 Y120.265 Z14.739 F2500.000
G1 X15.764 Y120.265 Z14.362 F2500.000
G1 X16.749 Y120.265 Z13.947 F2500.000
G1 X17.734 Y120.265 Z13.625 F2500.000
G1 X31.528 Y120.265 Z13.625 F2500.000
(End of step 24.)
G0 Z19.770
G0 X31.450 Y125.345
(Begin step 25.)
G0 X31.450 Y125.345
(part 1)
G1 X31.450 Y125.345 Z13.625 F2500.000
G1 X17.472 Y125.345 Z13.625 F2500.000
G1 X16.474 Y125.345 Z14.007 F2500.000
G1 X15.475 Y125.345 Z14.417 F2500.000
G1 X14.477 Y125.345 Z14.791 F2500.000
G1 X13.478 Y125.345 Z15.130 F2500.000
G1 X12.480 Y125.345 Z15.435 F2500.000
G1 X11.482 Y125.345 Z15.707 F2500.000
G1 X10.483 Y125.345 Z15.947 F2500.000
G1 X9.485 Y125.345 Z16.155 F2500.000
G1 X8.486 Y125.345 Z16.331 F2500.000
G1 X7.488 Y125.345 Z16.477 F2500.000
G1 X6.490 Y125.345 Z16.591 F2500.000
G1 X5.491 Y125.345 Z16.678 F2500.000
G1 X4.493 Y125.345 Z16.733 F2500.000
G1 X3.494 Y125.345 Z16.763 F2500.000
G1 X2.496 Y125.345 Z16.774 F2500.000
G1 X1.498 Y125.345 Z16.781 F2500.000
G1 X-0.499 Y125.345 Z16.784 F2500.000
G1 X-2.496 Y125.345 Z16.775 F2500.000
G1 X-3.494 Y125.345 Z16.763 F2500.000
G1 X-4.493 Y125.345 Z16.733 F2500.000
G1 X-5.491 Y125.345 Z16.678 F2500.000
G1 X-6.490 Y125.345 Z16.591 F2500.000
G1 X-7.488 Y125.345 Z16.477 F2500.000
G1 X-8.486 Y125.345 Z16.331 F2500.000
G1 X-9.485 Y125.345 Z16.154 F2500.000
G1 X-10.483 Y125.345 Z15.947 F2500.000
G1 X-11.482 Y125.345 Z15.707 F2500.000
G1 X-12.480 Y125.345 Z15.435 F2500.000
G1 X-13.478 Y125.345 Z15.130 F2500.000
G1 X-14.477 Y125.345 Z14.792 F2500.000
G1 X-15.475 Y125.345 Z14.417 F2500.000
G1 X-16.474 Y125.345 Z14.007 F2500.000
G1 X-17.472 Y125.345 Z13.625 F2500.000
G1 X-31.450 Y125.345 Z13.625 F2500.000
(End of step 25.)
G0 Z19.770
G0 X-31.372 Y130.425
(Begin step 26.)
G0 X-31.372 Y130.425
(part 1)
G1 X-31.372 Y130.425 Z13.625 F2500.000
G1 X-17.429 Y130.425 Z13.625 F2500.000
G1 X-16.433 Y130.425 Z13.965 F2500.000
G1 X-15.437 Y130.425 Z14.376 F2500.000
G1 X-14.441 Y130.425 Z14.749 F2500.000
G1 X-13.445 Y130.425 Z15.087 F2500.000
G1 X-12.449 Y130.425 Z15.392 F2500.000
G1 X-11.453 Y130.425 Z15.664 F2500.000
G1 X-10.457 Y130.425 Z15.903 F2500.000
G1 X-9.461 Y130.425 Z16.112 F2500.000
G1 X-8.465 Y130.425 Z16.288 F2500.000
G1 X-7.469 Y130.425 Z16.435 F2500.000
G1 X-6.474 Y130.425 Z16.550 F2500.000
G1 X-5.478 Y130.425 Z16.636 F2500.000
G1 X-4.482 Y130.425 Z16.691 F2500.000
G1 X-3.486 Y130.425 Z16.721 F2500.000
G1 X-2.490 Y130.425 Z16.733 F2500.000
G1 X-0.498 Y130.425 Z16.742 F2500.000
G1 X0.498 Y130.425 Z16.741 F2500.000
G1 X2.490 Y130.425 Z16.733 F2500.000
G1 X3.486 Y130.425 Z16.721 F2500.000
G1 X4.482 Y130.425 Z16.691 F2500.000
G1 X5.478 Y130.425 Z16.636 F2500.000
G1 X6.474 Y130.425 Z16.550 F2500.000
G1 X7.469 Y130.425 Z16.435 F2500.000
G1 X8.465 Y130.425 Z16.289 F2500.000
G1 X9.461 Y130.425 Z16.111 F2500.000
G1 X10.457 Y130.425 Z15.904 F2500.000
G1 X11.453 Y130.425 Z15.664 F2500.000
G1 X12.449 Y130.425 Z15.392 F2500.000
G1 X13.445 Y130.425 Z15.087 F2500.000
G1 X14.441 Y130.425 Z14.749 F2500.000
G1 X15.437 Y130.425 Z14.376 F2500.000
G1 X16.433 Y130.425 Z13.965 F2500.000
G1 X17.429 Y130.425 Z13.625 F2500.000
G1 X31.372 Y130.425 Z13.625 F2500.000
(End of step 26.)
G0 Z19.770
G0 X31.293 Y135.505
(Begin step 27.)
G0 X31.293 Y135.505
(part 1)
G1 X31.293 Y135.505 Z13.625 F2500.000
G1 X17.385 Y135.505 Z13.625 F2500.000
G1 X16.392 Y135.505 Z13.923 F2500.000
G1 X15.398 Y135.505 Z14.332 F2500.000
G1 X14.405 Y135.505 Z14.706 F2500.000
G1 X13.411 Y135.505 Z15.044 F2500.000
G1 X12.418 Y135.505 Z15.349 F2500.000
G1 X11.425 Y135.505 Z15.620 F2500.000
G1 X10.431 Y135.505 Z15.860 F2500.000
G1 X9.438 Y135.505 Z16.068 F2500.000
G1 X8.444 Y135.505 Z16.245 F2500.000
G1 X7.451 Y135.505 Z16.391 F2500.000
G1 X6.457 Y135.505 Z16.507 F2500.000
G1 X5.464 Y135.505 Z16.594 F2500.000
G1 X4.470 Y135.505 Z16.650 F2500.000
G1 X3.477 Y135.505 Z16.679 F2500.000
G1 X2.484 Y135.505 Z16.689 F2500.000
G1 X1.490 Y135.505 Z16.696 F2500.000
G1 X-0.497 Y135.505 Z16.699 F2500.000
G1 X-2.484 Y135.505 Z16.690 F2500.000
G1 X-3.477 Y135.505 Z16.679 F2500.000
G1 X-4.470 Y135.505 Z16.650 F2500.000
G1 X-5.464 Y135.505 Z16.594 F2500.000
G1 X-6.457 Y135.505 Z16.508 F2500.000
G1 X-7.451 Y135.505 Z16.392 F2500.000
G1 X-8.444 Y135.505 Z16.245 F2500.000
G1 X-9.438 Y135.505 Z16.067 F2500.000
G1 X-10.431 Y135.505 Z15.861 F2500.000
G1 X-11.425 Y135.505 Z15.620 F2500.000
G1 X-12.418 Y135.505 Z15.349 F2500.000
G1 X-13.411 Y135.505 Z15.044 F2500.000
G1 X-14.405 Y135.505 Z14.706 F2500.000
G1 X-15.398 Y135.505 Z14.332 F2500.000
G1 X-16.392 Y135.505 Z13.923 F2500.000
G1 X-17.385 Y135.505 Z13.625 F2500.000
G1 X-31.293 Y135.505 Z13.625 F2500.000
(End of step 27.)
G0 Z19.770
G0 X-31.215 Y140.585
(Begin step 28.)
G0 X-31.215 Y140.585
(part 1)
G1 X-31.215 Y140.585 Z13.625 F2500.000
G1 X-17.342 Y140.585 Z13.625 F2500.000
G1 X-16.351 Y140.585 Z13.882 F2500.000
G1 X-15.360 Y140.585 Z14.291 F2500.000
G1 X-14.369 Y140.585 Z14.664 F2500.000
G1 X-13.378 Y140.585 Z15.002 F2500.000
G1 X-12.387 Y140.585 Z15.306 F2500.000
G1 X-11.396 Y140.585 Z15.578 F2500.000
G1 X-10.405 Y140.585 Z15.818 F2500.000
G1 X-9.414 Y140.585 Z16.026 F2500.000
G1 X-8.423 Y140.585 Z16.203 F2500.000
G1 X-7.432 Y140.585 Z16.350 F2500.000
G1 X-6.441 Y140.585 Z16.466 F2500.000
G1 X-5.450 Y140.585 Z16.552 F2500.000
G1 X-4.459 Y140.585 Z16.608 F2500.000
G1 X-3.468 Y140.585 Z16.637 F2500.000
G1 X-2.477 Y140.585 Z16.648 F2500.000
G1 X-0.495 Y140.585 Z16.656 F2500.000
G1 X2.477 Y140.585 Z16.649 F2500.000
G1 X3.468 Y140.585 Z16.637 F2500.000
G1 X4.459 Y140.585 Z16.608 F2500.000
G1 X5.450 Y140.585 Z16.552 F2500.000
G1 X6.441 Y140.585 Z16.466 F2500.000
G1 X7.432 Y140.585 Z16.350 F2500.000
G1 X8.423 Y140.585 Z16.203 F2500.000
G1 X9.414 Y140.585 Z16.026 F2500.000
G1 X10.405 Y140.585 Z15.818 F2500.000
G1 X11.396 Y140.585 Z15.578 F2500.000
G1 X12.387 Y140.585 Z15.306 F2500.000
G1 X13.378 Y140.585 Z15.001 F2500.000
G1 X14.369 Y140.585 Z14.664 F2500.000
G1 X15.360 Y140.585 Z14.291 F2500.000
G1 X16.351 Y140.585 Z13.882 F2500.000
G1 X17.342 Y140.585 Z13.625 F2500.000
G1 X31.215 Y140.585 Z13.625 F2500.000
(End of step 28.)
G0 Z19.770
G0 X31.137 Y145.665
(Begin step 29.)
G0 X31.137 Y145.665
(part 1)
G1 X31.137 Y145.665 Z13.625 F2500.000
G1 X17.298 Y145.665 Z13.625 F2500.000
G1 X16.310 Y145.665 Z13.839 F2500.000
G1 X15.321 Y145.665 Z14.248 F2500.000
G1 X14.333 Y145.665 Z14.619 F2500.000
G1 X13.344 Y145.665 Z14.959 F2500.000
G1 X12.356 Y145.665 Z15.262 F2500.000
G1 X11.368 Y145.665 Z15.534 F2500.000
G1 X10.379 Y145.665 Z15.775 F2500.000
G1 X9.391 Y145.665 Z15.983 F2500.000
G1 X8.402 Y145.665 Z16.160 F2500.000
G1 X7.414 Y145.665 Z16.308 F2500.000
G1 X6.425 Y145.665 Z16.424 F2500.000
G1 X5.437 Y145.665 Z16.510 F2500.000
G1 X4.448 Y145.665 Z16.565 F2500.000
G1 X3.460 Y145.665 Z16.594 F2500.000
G1 X2.471 Y145.665 Z16.606 F2500.000
G1 X1.483 Y145.665 Z16.612 F2500.000
G1 X-0.494 Y145.665 Z16.615 F2500.000
G1 X-2.471 Y145.665 Z16.607 F2500.000
G1 X-3.460 Y145.665 Z16.594 F2500.000
G1 X-4.448 Y145.665 Z16.566 F2500.000
G1 X-5.437 Y145.665 Z16.509 F2500.000
G1 X-6.425 Y145.665 Z16.422 F2500.000
G1 X-7.414 Y145.665 Z16.308 F2500.000
G1 X-8.402 Y145.665 Z16.160 F2500.000
G1 X-9.391 Y145.665 Z15.983 F2500.000
G1 X-10.379 Y145.665 Z15.775 F2500.000
G1 X-11.368 Y145.665 Z15.534 F2500.000
G1 X-12.356 Y145.665 Z15.261 F2500.000
G1 X-13.344 Y145.665 Z14.959 F2500.000
G1 X-14.333 Y145.665 Z14.619 F2500.000
G1 X-15.321 Y145.665 Z14.248 F2500.000
G1 X-16.310 Y145.665 Z13.839 F2500.000
G1 X-17.298 Y145.665 Z13.625 F2500.000
G1 X-31.137 Y145.665 Z13.625 F2500.000
(End of step 29.)
G0 Z19.770
G0 X-31.059 Y150.745
(Begin step 30.)
G0 X-31.059 Y150.745
(part 1)
G1 X-31.059 Y150.745 Z13.625 F2500.000
G1 X-17.255 Y150.745 Z13.625 F2500.000
G1 X-16.269 Y150.745 Z13.798 F2500.000
G1 X-15.283 Y150.745 Z14.205 F2500.000
G1 X-14.297 Y150.745 Z14.577 F2500.000
G1 X-13.311 Y150.745 Z14.915 F2500.000
G1 X-12.325 Y150.745 Z15.220 F2500.000
G1 X-11.339 Y150.745 Z15.492 F2500.000
G1 X-10.353 Y150.745 Z15.732 F2500.000
G1 X-9.367 Y150.745 Z15.940 F2500.000
G1 X-8.381 Y150.745 Z16.117 F2500.000
G1 X-7.395 Y150.745 Z16.265 F2500.000
G1 X-6.409 Y150.745 Z16.382 F2500.000
G1 X-5.423 Y150.745 Z16.468 F2500.000
G1 X-4.437 Y150.745 Z16.524 F2500.000
G1 X-3.451 Y150.745 Z16.552 F2500.000
G1 X-2.465 Y150.745 Z16.564 F2500.000
G1 X-0.493 Y150.745 Z16.573 F2500.000
G1 X1.479 Y150.745 Z16.570 F2500.000
G1 X2.465 Y150.745 Z16.564 F2500.000
G1 X3.451 Y150.745 Z16.552 F2500.000
G1 X4.437 Y150.745 Z16.523 F2500.000
G1 X5.423 Y150.745 Z16.468 F2500.000
G1 X6.409 Y150.745 Z16.382 F2500.000
G1 X7.395 Y150.745 Z16.265 F2500.000
G1 X8.381 Y150.745 Z16.117 F2500.000
G1 X9.367 Y150.745 Z15.940 F2500.000
G1 X10.353 Y150.745 Z15.732 F2500.000
G1 X11.339 Y150.745 Z15.492 F2500.000
G1 X12.325 Y150.745 Z15.220 F2500.000
G1 X13.311 Y150.745 Z14.914 F2500.000
G1 X14.297 Y150.745 Z14.577 F2500.000
G1 X15.283 Y150.745 Z14.205 F2500.000
G1 X16.269 Y150.745 Z13.798 F2500.000
G1 X17.255 Y150.745 Z13.625 F2500.000
G1 X31.059 Y150.745 Z13.625 F2500.000
(End of step 30.)
G0 Z19.770
G0 X30.981 Y155.825
(Begin step 31.)
G0 X30.981 Y155.825
(part 1)
G1 X30.981 Y155.825 Z13.625 F2500.000
G1 X16.990 Y155.825 Z13.625 F2500.000
G1 X15.990 Y155.825 Z13.858 F2500.000
G1 X14.991 Y155.825 Z14.262 F2500.000
G1 X13.991 Y155.825 Z14.631 F2500.000
G1 X12.992 Y155.825 Z14.964 F2500.000
G1 X11.993 Y155.825 Z15.264 F2500.000
G1 X10.993 Y155.825 Z15.530 F2500.000
G1 X9.994 Y155.825 Z15.763 F2500.000
G1 X8.994 Y155.825 Z15.964 F2500.000
G1 X7.995 Y155.825 Z16.134 F2500.000
G1 X6.996 Y155.825 Z16.271 F2500.000
G1 X5.996 Y155.825 Z16.377 F2500.000
G1 X4.997 Y155.825 Z16.453 F2500.000
G1 X3.998 Y155.825 Z16.497 F2500.000
G1 X2.998 Y155.825 Z16.516 F2500.000
G1 X1.999 Y155.825 Z16.525 F2500.000
G1 X0.000 Y155.825 Z16.531 F2500.000
G1 X-1.999 Y155.825 Z16.525 F2500.000
G1 X-2.998 Y155.825 Z16.516 F2500.000
G1 X-3.998 Y155.825 Z16.497 F2500.000
G1 X-4.997 Y155.825 Z16.453 F2500.000
G1 X-5.996 Y155.825 Z16.377 F2500.000
G1 X-6.996 Y155.825 Z16.271 F2500.000
G1 X-7.995 Y155.825 Z16.133 F2500.000
G1 X-8.994 Y155.825 Z15.964 F2500.000
G1 X-9.994 Y155.825 Z15.763 F2500.000
G1 X-10.993 Y155.825 Z15.529 F2500.000
G1 X-11.993 Y155.825 Z15.263 F2500.000
G1 X-12.992 Y155.825 Z14.965 F2500.000
G1 X-13.991 Y155.825 Z14.631 F2500.000
G1 X-14.991 Y155.825 Z14.262 F2500.000
G1 X-15.990 Y155.825 Z13.858 F2500.000
G1 X-16.990 Y155.825 Z13.625 F2500.000
G1 X-30.981 Y155.825 Z13.625 F2500.000
(End of step 31.)
G0 Z19.770
G0 X-30.903 Y160.905
(Begin step 32.)
G0 X-30.903 Y160.905
(part 1)
G1 X-30.903 Y160.905 Z13.625 F2500.000
G1 X-16.947 Y160.905 Z13.625 F2500.000
G1 X-15.950 Y160.905 Z13.816 F2500.000
G1 X-14.953 Y160.905 Z14.220 F2500.000
G1 X-13.956 Y160.905 Z14.587 F2500.000
G1 X-12.959 Y160.905 Z14.922 F2500.000
G1 X-11.962 Y160.905 Z15.221 F2500.000
G1 X-10.965 Y160.905 Z15.486 F2500.000
G1 X-9.969 Y160.905 Z15.718 F2500.000
G1 X-8.972 Y160.905 Z15.921 F2500.000
G1 X-7.975 Y160.905 Z16.091 F2500.000
G1 X-6.978 Y160.905 Z16.229 F2500.000
G1 X-5.981 Y160.905 Z16.335 F2500.000
G1 X-4.984 Y160.905 Z16.410 F2500.000
G1 X-3.987 Y160.905 Z16.455 F2500.000
G1 X-2.991 Y160.905 Z16.475 F2500.000
G1 X-1.994 Y160.905 Z16.483 F2500.000
G1 X0.000 Y160.905 Z16.488 F2500.000
G1 X0.997 Y160.905 Z16.487 F2500.000
G1 X2.991 Y160.905 Z16.475 F2500.000
G1 X3.987 Y160.905 Z16.455 F2500.000
G1 X4.984 Y160.905 Z16.410 F2500.000
G1 X5.981 Y160.905 Z16.335 F2500.000
G1 X6.978 Y160.905 Z16.229 F2500.000
G1 X7.975 Y160.905 Z16.091 F2500.000
G1 X8.972 Y160.905 Z15.921 F2500.000
G1 X9.969 Y160.905 Z15.718 F2500.000
G1 X10.965 Y160.905 Z15.486 F2500.000
G1 X11.962 Y160.905 Z15.221 F2500.000
G1 X12.959 Y160.905 Z14.922 F2500.000
G1 X13.956 Y160.905 Z14.587 F2500.000
G1 X14.953 Y160.905 Z14.220 F2500.000
G1 X15.950 Y160.905 Z13.816 F2500.000
G1 X16.947 Y160.905 Z13.625 F2500.000
G1 X30.903 Y160.905 Z13.625 F2500.000
(End of step 32.)
G0 Z19.770
G0 X30.825 Y165.985
(Begin step 33.)
G0 X30.825 Y165.985
(part 1)
G1 X30.825 Y165.985 Z13.625 F2500.000
G1 X16.904 Y165.985 Z13.625 F2500.000
G1 X15.909 Y165.985 Z13.776 F2500.000
G1 X14.915 Y165.985 Z14.178 F2500.000
G1 X13.921 Y165.985 Z14.545 F2500.000
G1 X12.926 Y165.985 Z14.878 F2500.000
G1 X11.932 Y165.985 Z15.177 F2500.000
G1 X10.938 Y165.985 Z15.444 F2500.000
G1 X9.943 Y165.985 Z15.678 F2500.000
G1 X8.949 Y165.985 Z15.879 F2500.000
G1 X7.955 Y165.985 Z16.049 F2500.000
G1 X6.960 Y165.985 Z16.187 F2500.000
G1 X5.966 Y165.985 Z16.294 F2500.000
G1 X4.972 Y165.985 Z16.369 F2500.000
G1 X3.977 Y165.985 Z16.413 F2500.000
G1 X2.983 Y165.985 Z16.432 F2500.000
G1 X1.989 Y165.985 Z16.441 F2500.000
G1 X0.000 Y165.985 Z16.446 F2500.000
G1 X-1.989 Y165.985 Z16.441 F2500.000
G1 X-2.983 Y165.985 Z16.432 F2500.000
G1 X-3.977 Y165.985 Z16.413 F2500.000
G1 X-4.972 Y165.985 Z16.369 F2500.000
G1 X-5.966 Y165.985 Z16.294 F2500.000
G1 X-6.960 Y165.985 Z16.187 F2500.000
G1 X-7.955 Y165.985 Z16.049 F2500.000
G1 X-8.949 Y165.985 Z15.879 F2500.000
G1 X-9.943 Y165.985 Z15.678 F2500.000
G1 X-10.938 Y165.985 Z15.444 F2500.000
G1 X-11.932 Y165.985 Z15.177 F2500.000
G1 X-12.926 Y165.985 Z14.879 F2500.000
G1 X-13.921 Y165.985 Z14.545 F2500.000
G1 X-14.915 Y165.985 Z14.178 F2500.000
G1 X-15.909 Y165.985 Z13.776 F2500.000
G1 X-16.904 Y165.985 Z13.625 F2500.000
G1 X-30.825 Y165.985 Z13.625 F2500.000
(End of step 33.)
G0 Z19.770
G0 X-30.746 Y171.065
(Begin step 34.)
G0 X-30.746 Y171.065
(part 1)
G1 X-30.746 Y171.065 Z13.625 F2500.000
G1 X-16.861 Y171.065 Z13.625 F2500.000
G1 X-15.869 Y171.065 Z13.733 F2500.000
G1 X-14.877 Y171.065 Z14.136 F2500.000
G1 X-13.885 Y171.065 Z14.504 F2500.000
G1 X-12.894 Y171.065 Z14.836 F2500.000
G1 X-11.902 Y171.065 Z15.136 F2500.000
G1 X-10.910 Y171.065 Z15.402 F2500.000
G1 X-9.918 Y171.065 Z15.635 F2500.000
G1 X-8.926 Y171.065 Z15.837 F2500.000
G1 X-7.935 Y171.065 Z16.007 F2500.000
G1 X-6.943 Y171.065 Z16.145 F2500.000
G1 X-5.951 Y171.065 Z16.251 F2500.000
G1 X-4.959 Y171.065 Z16.327 F2500.000
G1 X-3.967 Y171.065 Z16.371 F2500.000
G1 X-2.975 Y171.065 Z16.390 F2500.000
G1 X-1.984 Y171.065 Z16.399 F2500.000
G1 X0.000 Y171.065 Z16.404 F2500.000
G1 X1.984 Y171.065 Z16.398 F2500.000
G1 X2.975 Y171.065 Z16.390 F2500.000
G1 X3.967 Y171.065 Z16.371 F2500.000
G1 X4.959 Y171.065 Z16.326 F2500.000
G1 X5.951 Y171.065 Z16.252 F2500.000
G1 X6.943 Y171.065 Z16.145 F2500.000
G1 X7.935 Y171.065 Z16.007 F2500.000
G1 X8.926 Y171.065 Z15.836 F2500.000
G1 X9.918 Y171.065 Z15.635 F2500.000
G1 X10.910 Y171.065 Z15.402 F2500.000
G1 X11.902 Y171.065 Z15.135 F2500.000
G1 X12.894 Y171.065 Z14.836 F2500.000
G1 X13.885 Y171.065 Z14.503 F2500.000
G1 X14.877 Y171.065 Z14.136 F2500.000
G1 X15.869 Y171.065 Z13.733 F2500.000
G1 X16.861 Y171.065 Z13.625 F2500.000
G1 X30.746 Y171.065 Z13.625 F2500.000
(End of step 34.)
G0 Z19.770
G0 X30.668 Y176.145
(Begin step 35.)
G0 X30.668 Y176.145
(part 1)
G1 X30.668 Y176.145 Z13.625 F2500.000
G1 X16.818 Y176.145 Z13.625 F2500.000
G1 X15.829 Y176.145 Z13.693 F2500.000
G1 X14.839 Y176.145 Z14.094 F2500.000
G1 X13.850 Y176.145 Z14.461 F2500.000
G1 X12.861 Y176.145 Z14.794 F2500.000
G1 X11.872 Y176.145 Z15.093 F2500.000
G1 X10.882 Y176.145 Z15.359 F2500.000
G1 X9.893 Y176.145 Z15.593 F2500.000
G1 X8.904 Y176.145 Z15.794 F2500.000
G1 X7.914 Y176.145 Z15.963 F2500.000
G1 X6.925 Y176.145 Z16.102 F2500.000
G1 X5.936 Y176.145 Z16.209 F2500.000
G1 X4.946 Y176.145 Z16.284 F2500.000
G1 X3.957 Y176.145 Z16.329 F2500.000
G1 X2.968 Y176.145 Z16.348 F2500.000
G1 X1.979 Y176.145 Z16.356 F2500.000
G1 X0.000 Y176.145 Z16.362 F2500.000
G1 X-1.979 Y176.145 Z16.356 F2500.000
G1 X-2.968 Y176.145 Z16.348 F2500.000
G1 X-3.957 Y176.145 Z16.329 F2500.000
G1 X-4.946 Y176.145 Z16.284 F2500.000
G1 X-5.936 Y176.145 Z16.209 F2500.000
G1 X-6.925 Y176.145 Z16.103 F2500.000
G1 X-7.914 Y176.145 Z15.964 F2500.000
G1 X-8.904 Y176.145 Z15.794 F2500.000
G1 X-9.893 Y176.145 Z15.592 F2500.000
G1 X-10.882 Y176.145 Z15.359 F2500.000
G1 X-11.872 Y176.145 Z15.093 F2500.000
G1 X-12.861 Y176.145 Z14.793 F2500.000
G1 X-13.850 Y176.145 Z14.461 F2500.000
G1 X-14.839 Y176.145 Z14.094 F2500.000
G1 X-15.829 Y176.145 Z13.693 F2500.000
G1 X-16.818 Y176.145 Z13.625 F2500.000
G1 X-30.668 Y176.145 Z13.625 F2500.000
(End of step 35.)
G0 Z19.770
G0 X-30.590 Y181.225
(Begin step 36.)
G0 X-30.590 Y181.225
(part 1)
G1 X-30.590 Y181.225 Z13.625 F2500.000
G1 X-16.775 Y181.225 Z13.625 F2500.000
G1 X-15.788 Y181.225 Z13.651 F2500.000
G1 X-14.802 Y181.225 Z14.053 F2500.000
G1 X-13.815 Y181.225 Z14.420 F2500.000
G1 X-12.828 Y181.225 Z14.751 F2500.000
G1 X-11.841 Y181.225 Z15.050 F2500.000
G1 X-10.855 Y181.225 Z15.316 F2500.000
G1 X-9.868 Y181.225 Z15.550 F2500.000
G1 X-8.881 Y181.225 Z15.752 F2500.000
G1 X-7.894 Y181.225 Z15.922 F2500.000
G1 X-6.907 Y181.225 Z16.061 F2500.000
G1 X-5.921 Y181.225 Z16.166 F2500.000
G1 X-4.934 Y181.225 Z16.243 F2500.000
G1 X-3.947 Y181.225 Z16.285 F2500.000
G1 X-2.960 Y181.225 Z16.305 F2500.000
G1 X-1.974 Y181.225 Z16.314 F2500.000
G1 X0.000 Y181.225 Z16.319 F2500.000
G1 X1.974 Y181.225 Z16.314 F2500.000
G1 X2.960 Y181.225 Z16.305 F2500.000
G1 X3.947 Y181.225 Z16.286 F2500.000
G1 X4.934 Y181.225 Z16.243 F2500.000
G1 X5.921 Y181.225 Z16.168 F2500.000
G1 X6.907 Y181.225 Z16.061 F2500.000
G1 X7.894 Y181.225 Z15.921 F2500.000
G1 X8.881 Y181.225 Z15.752 F2500.000
G1 X9.868 Y181.225 Z15.550 F2500.000
G1 X10.855 Y181.225 Z15.316 F2500.000
G1 X11.841 Y181.225 Z15.049 F2500.000
G1 X12.828 Y181.225 Z14.752 F2500.000
G1 X13.815 Y181.225 Z14.420 F2500.000
G1 X14.802 Y181.225 Z14.053 F2500.000
G1 X15.788 Y181.225 Z13.651 F2500.000
G1 X16.775 Y181.225 Z13.625 F2500.000
G1 X30.590 Y181.225 Z13.625 F2500.000
(End of step 36.)
G0 Z19.770
G0 X30.512 Y186.305
(Begin step 37.)
G0 X30.512 Y186.305
(part 1)
G1 X30.512 Y186.305 Z13.625 F2500.000
G1 X15.748 Y186.305 Z13.625 F2500.000
G1 X14.764 Y186.305 Z14.011 F2500.000
G1 X13.780 Y186.305 Z14.377 F2500.000
G1 X12.795 Y186.305 Z14.709 F2500.000
G1 X11.811 Y186.305 Z15.007 F2500.000
G1 X10.827 Y186.305 Z15.273 F2500.000
G1 X9.843 Y186.305 Z15.508 F2500.000
G1 X8.858 Y186.305 Z15.710 F2500.000
G1 X7.874 Y186.305 Z15.880 F2500.000
G1 X6.890 Y186.305 Z16.018 F2500.000
G1 X5.906 Y186.305 Z16.125 F2500.000
G1 X4.921 Y186.305 Z16.201 F2500.000
G1 X3.937 Y186.305 Z16.244 F2500.000
G1 X2.953 Y186.305 Z16.264 F2500.000
G1 X0.984 Y186.305 Z16.276 F2500.000
G1 X0.000 Y186.305 Z16.277 F2500.000
G1 X-1.969 Y186.305 Z16.272 F2500.000
G1 X-2.953 Y186.305 Z16.263 F2500.000
G1 X-3.937 Y186.305 Z16.245 F2500.000
G1 X-4.921 Y186.305 Z16.200 F2500.000
G1 X-5.906 Y186.305 Z16.126 F2500.000
G1 X-6.890 Y186.305 Z16.019 F2500.000
G1 X-7.874 Y186.305 Z15.880 F2500.000
G1 X-8.858 Y186.305 Z15.710 F2500.000
G1 X-9.843 Y186.305 Z15.508 F2500.000
G1 X-10.827 Y186.305 Z15.274 F2500.000
G1 X-11.811 Y186.305 Z15.007 F2500.000
G1 X-12.795 Y186.305 Z14.709 F2500.000
G1 X-13.780 Y186.305 Z14.378 F2500.000
G1 X-14.764 Y186.305 Z14.012 F2500.000
G1 X-15.748 Y186.305 Z13.625 F2500.000
G1 X-30.512 Y186.305 Z13.625 F2500.000
(End of step 37.)
G0 Z19.770
G0 X-30.434 Y191.385
(Begin step 38.)
G0 X-30.434 Y191.385
(part 1)
G1 X-30.434 Y191.385 Z13.625 F2500.000
G1 X-16.464 Y191.385 Z13.625 F2500.000
G1 X-15.466 Y191.385 Z13.670 F2500.000
G1 X-14.469 Y191.385 Z14.068 F2500.000
G1 X-13.471 Y191.385 Z14.431 F2500.000
G1 X-12.473 Y191.385 Z14.758 F2500.000
G1 X-11.475 Y191.385 Z15.052 F2500.000
G1 X-10.477 Y191.385 Z15.312 F2500.000
G1 X-9.479 Y191.385 Z15.538 F2500.000
G1 X-8.482 Y191.385 Z15.733 F2500.000
G1 X-7.484 Y191.385 Z15.894 F2500.000
G1 X-6.486 Y191.385 Z16.022 F2500.000
G1 X-5.488 Y191.385 Z16.118 F2500.000
G1 X-4.490 Y191.385 Z16.181 F2500.000
G1 X-3.492 Y191.385 Z16.213 F2500.000
G1 X-2.495 Y191.385 Z16.226 F2500.000
G1 X-0.499 Y191.385 Z16.235 F2500.000
G1 X1.497 Y191.385 Z16.232 F2500.000
G1 X2.495 Y191.385 Z16.226 F2500.000
G1 X3.492 Y191.385 Z16.213 F2500.000
G1 X4.490 Y191.385 Z16.181 F2500.000
G1 X5.488 Y191.385 Z16.118 F2500.000
G1 X6.486 Y191.385 Z16.022 F2500.000
G1 X7.484 Y191.385 Z15.894 F2500.000
G1 X8.482 Y191.385 Z15.733 F2500.000
G1 X9.479 Y191.385 Z15.538 F2500.000
G1 X10.477 Y191.385 Z15.312 F2500.000
G1 X11.475 Y191.385 Z15.052 F2500.000
G1 X12.473 Y191.385 Z14.759 F2500.000
G1 X13.471 Y191.385 Z14.431 F2500.000
G1 X14.469 Y191.385 Z14.069 F2500.000
G1 X15.466 Y191.385 Z13.669 F2500.000
G1 X16.464 Y191.385 Z13.625 F2500.000
G1 X30.434 Y191.385 Z13.625 F2500.000
(End of step 38.)
G0 Z19.770
G0 X30.356 Y196.465
(Begin step 39.)
G0 X30.356 Y196.465
(part 1)
G1 X30.356 Y196.465 Z13.625 F2500.000
G1 X16.422 Y196.465 Z13.625 F2500.000
G1 X15.427 Y196.465 Z13.630 F2500.000
G1 X14.431 Y196.465 Z14.026 F2500.000
G1 X13.436 Y196.465 Z14.389 F2500.000
G1 X12.441 Y196.465 Z14.716 F2500.000
G1 X11.446 Y196.465 Z15.010 F2500.000
G1 X10.450 Y196.465 Z15.269 F2500.000
G1 X9.455 Y196.465 Z15.496 F2500.000
G1 X8.460 Y196.465 Z15.690 F2500.000
G1 X7.465 Y196.465 Z15.852 F2500.000
G1 X6.469 Y196.465 Z15.980 F2500.000
G1 X5.474 Y196.465 Z16.076 F2500.000
G1 X4.479 Y196.465 Z16.138 F2500.000
G1 X3.483 Y196.465 Z16.170 F2500.000
G1 X2.488 Y196.465 Z16.184 F2500.000
G1 X0.498 Y196.465 Z16.192 F2500.000
G1 X-0.498 Y196.465 Z16.192 F2500.000
G1 X-2.488 Y196.465 Z16.184 F2500.000
G1 X-3.483 Y196.465 Z16.171 F2500.000
G1 X-4.479 Y196.465 Z16.138 F2500.000
G1 X-5.474 Y196.465 Z16.076 F2500.000
G1 X-6.469 Y196.465 Z15.980 F2500.000
G1 X-7.465 Y196.465 Z15.851 F2500.000
G1 X-8.460 Y196.465 Z15.690 F2500.000
G1 X-9.455 Y196.465 Z15.497 F2500.000
G1 X-10.450 Y196.465 Z15.269 F2500.000
G1 X-11.446 Y196.465 Z15.009 F2500.000
G1 X-12.441 Y196.465 Z14.716 F2500.000
G1 X-13.436 Y196.465 Z14.389 F2500.000
G1 X-14.431 Y196.465 Z14.026 F2500.000
G1 X-15.427 Y196.465 Z13.630 F2500.000
G1 X-16.422 Y196.465 Z13.625 F2500.000
G1 X-30.356 Y196.465 Z13.625 F2500.000
(End of step 39.)
G0 Z19.770
G0 X-30.278 Y201.545
(Begin step 40.)
G0 X-30.278 Y201.545
(part 1)
G1 X-30.278 Y201.545 Z13.625 F2500.000
G1 X-15.387 Y201.545 Z13.625 F2500.000
G1 X-13.402 Y201.545 Z14.346 F2500.000
G1 X-12.409 Y201.545 Z14.674 F2500.000
G1 X-11.416 Y201.545 Z14.967 F2500.000
G1 X-10.423 Y201.545 Z15.227 F2500.000
G1 X-9.431 Y201.545 Z15.454 F2500.000
G1 X-8.438 Y201.545 Z15.649 F2500.000
G1 X-7.445 Y201.545 Z15.810 F2500.000
G1 X-6.453 Y201.545 Z15.938 F2500.000
G1 X-5.460 Y201.545 Z16.034 F2500.000
G1 X-4.467 Y201.545 Z16.097 F2500.000
G1 X-3.474 Y201.545 Z16.129 F2500.000
G1 X-2.482 Y201.545 Z16.142 F2500.000
G1 X-0.496 Y201.545 Z16.150 F2500.000
G1 X1.489 Y201.545 Z16.147 F2500.000
G1 X2.482 Y201.545 Z16.141 F2500.000
G1 X3.474 Y201.545 Z16.128 F2500.000
G1 X4.467 Y201.545 Z16.097 F2500.000
G1 X5.460 Y201.545 Z16.034 F2500.000
G1 X6.453 Y201.545 Z15.938 F2500.000
G1 X7.445 Y201.545 Z15.810 F2500.000
G1 X8.438 Y201.545 Z15.649 F2500.000
G1 X9.431 Y201.545 Z15.454 F2500.000
G1 X10.423 Y201.545 Z15.227 F2500.000
G1 X11.416 Y201.545 Z14.967 F2500.000
G1 X12.409 Y201.545 Z14.674 F2500.000
G1 X13.402 Y201.545 Z14.346 F2500.000
G1 X15.387 Y201.545 Z13.625 F2500.000
G1 X30.278 Y201.545 Z13.625 F2500.000
(End of step 40.)
G0 Z19.770
G0 X30.199 Y206.625
(Begin step 41.)
G0 X30.199 Y206.625
(part 1)
G1 X30.199 Y206.625 Z13.625 F2500.000
G1 X15.347 Y206.625 Z13.625 F2500.000
G1 X14.357 Y206.625 Z13.944 F2500.000
G1 X13.367 Y206.625 Z14.305 F2500.000
G1 X12.377 Y206.625 Z14.631 F2500.000
G1 X11.387 Y206.625 Z14.925 F2500.000
G1 X10.397 Y206.625 Z15.185 F2500.000
G1 X9.406 Y206.625 Z15.412 F2500.000
G1 X8.416 Y206.625 Z15.606 F2500.000
G1 X7.426 Y206.625 Z15.768 F2500.000
G1 X6.436 Y206.625 Z15.896 F2500.000
G1 X5.446 Y206.625 Z15.992 F2500.000
G1 X4.456 Y206.625 Z16.055 F2500.000
G1 X3.466 Y206.625 Z16.087 F2500.000
G1 X2.475 Y206.625 Z16.099 F2500.000
G1 X1.485 Y206.625 Z16.105 F2500.000
G1 X-0.495 Y206.625 Z16.108 F2500.000
G1 X-2.475 Y206.625 Z16.099 F2500.000
G1 X-3.466 Y206.625 Z16.086 F2500.000
G1 X-4.456 Y206.625 Z16.055 F2500.000
G1 X-5.446 Y206.625 Z15.992 F2500.000
G1 X-6.436 Y206.625 Z15.896 F2500.000
G1 X-7.426 Y206.625 Z15.768 F2500.000
G1 X-8.416 Y206.625 Z15.606 F2500.000
G1 X-9.406 Y206.625 Z15.412 F2500.000
G1 X-10.397 Y206.625 Z15.185 F2500.000
G1 X-11.387 Y206.625 Z14.925 F2500.000
G1 X-12.377 Y206.625 Z14.631 F2500.000
G1 X-13.367 Y206.625 Z14.305 F2500.000
G1 X-14.357 Y206.625 Z13.944 F2500.000
G1 X-15.347 Y206.625 Z13.625 F2500.000
G1 X-30.199 Y206.625 Z13.625 F2500.000
(End of step 41.)
G0 Z19.770
G0 X-30.121 Y211.705
(Begin step 42.)
G0 X-30.121 Y211.705
(part 1)
G1 X-30.121 Y211.705 Z13.625 F2500.000
G1 X-15.308 Y211.705 Z13.625 F2500.000
G1 X-14.320 Y211.705 Z13.903 F2500.000
G1 X-13.332 Y211.705 Z14.264 F2500.000
G1 X-12.345 Y211.705 Z14.590 F2500.000
G1 X-11.357 Y211.705 Z14.883 F2500.000
G1 X-10.370 Y211.705 Z15.142 F2500.000
G1 X-9.382 Y211.705 Z15.370 F2500.000
G1 X-8.394 Y211.705 Z15.564 F2500.000
G1 X-7.407 Y211.705 Z15.726 F2500.000
G1 X-6.419 Y211.705 Z15.854 F2500.000
G1 X-5.432 Y211.705 Z15.949 F2500.000
G1 X-4.444 Y211.705 Z16.013 F2500.000
G1 X-3.457 Y211.705 Z16.045 F2500.000
G1 X-2.469 Y211.705 Z16.056 F2500.000
G1 X-1.481 Y211.705 Z16.063 F2500.000
G1 X0.494 Y211.705 Z16.066 F2500.000
G1 X2.469 Y211.705 Z16.056 F2500.000
G1 X3.457 Y211.705 Z16.044 F2500.000
G1 X4.444 Y211.705 Z16.013 F2500.000
G1 X5.432 Y211.705 Z15.949 F2500.000
G1 X6.419 Y211.705 Z15.854 F2500.000
G1 X7.407 Y211.705 Z15.726 F2500.000
G1 X8.394 Y211.705 Z15.564 F2500.000
G1 X9.382 Y211.705 Z15.370 F2500.000
G1 X10.370 Y211.705 Z15.142 F2500.000
G1 X11.357 Y211.705 Z14.883 F2500.000
G1 X12.345 Y211.705 Z14.590 F2500.000
G1 X13.332 Y211.705 Z14.264 F2500.000
G1 X14.320 Y211.705 Z13.903 F2500.000
G1 X15.308 Y211.705 Z13.625 F2500.000
G1 X30.121 Y211.705 Z13.625 F2500.000
(End of step 42.)
G0 Z19.770
G0 X30.043 Y216.785
(Begin step 43.)
G0 X30.043 Y216.785
(part 1)
G1 X30.043 Y216.785 Z13.625 F2500.000
G1 X15.268 Y216.785 Z13.625 F2500.000
G1 X14.283 Y216.785 Z13.861 F2500.000
G1 X13.298 Y216.785 Z14.222 F2500.000
G1 X12.313 Y216.785 Z14.548 F2500.000
G1 X11.328 Y216.785 Z14.840 F2500.000
G1 X10.343 Y216.785 Z15.101 F2500.000
G1 X9.358 Y216.785 Z15.328 F2500.000
G1 X8.373 Y216.785 Z15.522 F2500.000
G1 X7.388 Y216.785 Z15.684 F2500.000
G1 X6.403 Y216.785 Z15.812 F2500.000
G1 X5.418 Y216.785 Z15.909 F2500.000
G1 X4.433 Y216.785 Z15.971 F2500.000
G1 X3.448 Y216.785 Z16.003 F2500.000
G1 X2.463 Y216.785 Z16.015 F2500.000
G1 X0.493 Y216.785 Z16.024 F2500.000
G1 X-1.478 Y216.785 Z16.021 F2500.000
G1 X-2.463 Y216.785 Z16.015 F2500.000
G1 X-3.448 Y216.785 Z16.003 F2500.000
G1 X-4.433 Y216.785 Z15.971 F2500.000
G1 X-5.418 Y216.785 Z15.909 F2500.000
G1 X-6.403 Y216.785 Z15.812 F2500.000
G1 X-7.388 Y216.785 Z15.684 F2500.000
G1 X-8.373 Y216.785 Z15.522 F2500.000
G1 X-9.358 Y216.785 Z15.328 F2500.000
G1 X-10.343 Y216.785 Z15.101 F2500.000
G1 X-11.328 Y216.785 Z14.840 F2500.000
G1 X-12.313 Y216.785 Z14.548 F2500.000
G1 X-13.298 Y216.785 Z14.222 F2500.000
G1 X-14.283 Y216.785 Z13.861 F2500.000
G1 X-15.268 Y216.785 Z13.625 F2500.000
G1 X-30.043 Y216.785 Z13.625 F2500.000
(End of step 43.)
G0 Z19.770
G0 X-29.965 Y221.865
(Begin step 44.)
G0 X-29.965 Y221.865
(part 1)
G1 X-29.965 Y221.865 Z13.625 F2500.000
G1 X-14.982 Y221.865 Z13.625 F2500.000
G1 X-13.984 Y221.865 Z13.919 F2500.000
G1 X-12.985 Y221.865 Z14.276 F2500.000
G1 X-11.986 Y221.865 Z14.597 F2500.000
G1 X-10.987 Y221.865 Z14.884 F2500.000
G1 X-9.988 Y221.865 Z15.139 F2500.000
G1 X-8.989 Y221.865 Z15.357 F2500.000
G1 X-7.991 Y221.865 Z15.544 F2500.000
G1 X-6.992 Y221.865 Z15.695 F2500.000
G1 X-5.993 Y221.865 Z15.814 F2500.000
G1 X-4.994 Y221.865 Z15.897 F2500.000
G1 X-3.995 Y221.865 Z15.946 F2500.000
G1 X-2.996 Y221.865 Z15.967 F2500.000
G1 X-1.998 Y221.865 Z15.976 F2500.000
G1 X0.000 Y221.865 Z15.982 F2500.000
G1 X1.998 Y221.865 Z15.976 F2500.000
G1 X2.996 Y221.865 Z15.967 F2500.000
G1 X3.995 Y221.865 Z15.946 F2500.000
G1 X4.994 Y221.865 Z15.897 F2500.000
G1 X5.993 Y221.865 Z15.814 F2500.000
G1 X6.992 Y221.865 Z15.695 F2500.000
G1 X7.991 Y221.865 Z15.544 F2500.000
G1 X8.989 Y221.865 Z15.357 F2500.000
G1 X9.988 Y221.865 Z15.139 F2500.000
G1 X10.987 Y221.865 Z14.884 F2500.000
G1 X11.986 Y221.865 Z14.597 F2500.000
G1 X12.985 Y221.865 Z14.276 F2500.000
G1 X13.984 Y221.865 Z13.919 F2500.000
G1 X14.982 Y221.865 Z13.625 F2500.000
G1 X29.965 Y221.865 Z13.625 F2500.000
(End of step 44.)
G0 Z19.770
G0 X29.887 Y226.945
(Begin step 45.)
G0 X29.887 Y226.945
(part 1)
G1 X29.887 Y226.945 Z13.625 F2500.000
G1 X14.943 Y226.945 Z13.625 F2500.000
G1 X13.947 Y226.945 Z13.879 F2500.000
G1 X12.951 Y226.945 Z14.234 F2500.000
G1 X11.955 Y226.945 Z14.556 F2500.000
G1 X10.959 Y226.945 Z14.843 F2500.000
G1 X9.962 Y226.945 Z15.097 F2500.000
G1 X8.966 Y226.945 Z15.316 F2500.000
G1 X7.970 Y226.945 Z15.501 F2500.000
G1 X6.974 Y226.945 Z15.654 F2500.000
G1 X5.977 Y226.945 Z15.772 F2500.000
G1 X4.981 Y226.945 Z15.854 F2500.000
G1 X3.985 Y226.945 Z15.904 F2500.000
G1 X2.989 Y226.945 Z15.924 F2500.000
G1 X1.992 Y226.945 Z15.934 F2500.000
G1 X0.000 Y226.945 Z15.939 F2500.000
G1 X-1.992 Y226.945 Z15.934 F2500.000
G1 X-2.989 Y226.945 Z15.925 F2500.000
G1 X-3.985 Y226.945 Z15.904 F2500.000
G1 X-4.981 Y226.945 Z15.854 F2500.000
G1 X-5.977 Y226.945 Z15.772 F2500.000
G1 X-6.974 Y226.945 Z15.654 F2500.000
G1 X-7.970 Y226.945 Z15.501 F2500.000
G1 X-8.966 Y226.945 Z15.316 F2500.000
G1 X-9.962 Y226.945 Z15.097 F2500.000
G1 X-10.959 Y226.945 Z14.843 F2500.000
G1 X-11.955 Y226.945 Z14.556 F2500.000
G1 X-12.951 Y226.945 Z14.234 F2500.000
G1 X-13.947 Y226.945 Z13.879 F2500.000
G1 X-14.943 Y226.945 Z13.625 F2500.000
G1 X-29.887 Y226.945 Z13.625 F2500.000
(End of step 45.)
G0 Z19.770
G0 X-29.809 Y232.025
(Begin step 46.)
G0 X-29.809 Y232.025
(part 1)
G1 X-29.809 Y232.025 Z13.625 F2500.000
G1 X-14.904 Y232.025 Z13.625 F2500.000
G1 X-13.911 Y232.025 Z13.838 F2500.000
G1 X-12.917 Y232.025 Z14.193 F2500.000
G1 X-11.923 Y232.025 Z14.514 F2500.000
G1 X-10.930 Y232.025 Z14.801 F2500.000
G1 X-9.936 Y232.025 Z15.054 F2500.000
G1 X-8.943 Y232.025 Z15.274 F2500.000
G1 X-7.949 Y232.025 Z15.459 F2500.000
G1 X-6.955 Y232.025 Z15.612 F2500.000
G1 X-5.962 Y232.025 Z15.730 F2500.000
G1 X-4.968 Y232.025 Z15.813 F2500.000
G1 X-3.974 Y232.025 Z15.862 F2500.000
G1 X-2.981 Y232.025 Z15.883 F2500.000
G1 X-1.987 Y232.025 Z15.891 F2500.000
G1 X0.000 Y232.025 Z15.897 F2500.000
G1 X1.987 Y232.025 Z15.891 F2500.000
G1 X2.981 Y232.025 Z15.883 F2500.000
G1 X3.974 Y232.025 Z15.862 F2500.000
G1 X4.968 Y232.025 Z15.813 F2500.000
G1 X5.962 Y232.025 Z15.730 F2500.000
G1 X6.955 Y232.025 Z15.611 F2500.000
G1 X7.949 Y232.025 Z15.460 F2500.000
G1 X8.943 Y232.025 Z15.274 F2500.000
G1 X9.936 Y232.025 Z15.054 F2500.000
G1 X10.930 Y232.025 Z14.801 F2500.000
G1 X11.923 Y232.025 Z14.514 F2500.000
G1 X12.917 Y232.025 Z14.193 F2500.000
G1 X13.911 Y232.025 Z13.838 F2500.000
G1 X14.904 Y232.025 Z13.625 F2500.000
G1 X29.809 Y232.025 Z13.625 F2500.000
(End of step 46.)
G0 Z19.770
G0 X29.731 Y237.105
(Begin step 47.)
G0 X29.731 Y237.105
(part 1)
G1 X29.731 Y237.105 Z13.625 F2500.000
G1 X14.865 Y237.105 Z13.625 F2500.000
G1 X13.874 Y237.105 Z13.796 F2500.000
G1 X12.883 Y237.105 Z14.151 F2500.000
G1 X11.892 Y237.105 Z14.472 F2500.000
G1 X10.901 Y237.105 Z14.759 F2500.000
G1 X9.910 Y237.105 Z15.013 F2500.000
G1 X8.919 Y237.105 Z15.232 F2500.000
G1 X7.928 Y237.105 Z15.418 F2500.000
G1 X6.937 Y237.105 Z15.570 F2500.000
G1 X5.946 Y237.105 Z15.687 F2500.000
G1 X4.955 Y237.105 Z15.771 F2500.000
G1 X3.964 Y237.105 Z15.820 F2500.000
G1 X2.973 Y237.105 Z15.841 F2500.000
G1 X1.982 Y237.105 Z15.849 F2500.000
G1 X0.000 Y237.105 Z15.855 F2500.000
G1 X-1.982 Y237.105 Z15.849 F2500.000
G1 X-2.973 Y237.105 Z15.841 F2500.000
G1 X-3.964 Y237.105 Z15.820 F2500.000
G1 X-4.955 Y237.105 Z15.771 F2500.000
G1 X-5.946 Y237.105 Z15.687 F2500.000
G1 X-6.937 Y237.105 Z15.570 F2500.000
G1 X-7.928 Y237.105 Z15.418 F2500.000
G1 X-8.919 Y237.105 Z15.232 F2500.000
G1 X-9.910 Y237.105 Z15.012 F2500.000
G1 X-10.901 Y237.105 Z14.759 F2500.000
G1 X-11.892 Y237.105 Z14.472 F2500.000
G1 X-12.883 Y237.105 Z14.152 F2500.000
G1 X-13.874 Y237.105 Z13.796 F2500.000
G1 X-14.865 Y237.105 Z13.625 F2500.000
G1 X-29.731 Y237.105 Z13.625 F2500.000
(End of step 47.)
G0 Z19.770
G0 X-29.212 Y242.185
(Begin step 48.)
G0 X-29.212 Y242.185
(part 1)
G1 X-29.212 Y242.185 Z13.625 F2500.000
G1 X-14.359 Y242.185 Z13.625 F2500.000
G1 X-13.368 Y242.185 Z13.775 F2500.000
G1 X-12.378 Y242.185 Z14.130 F2500.000
G1 X-11.388 Y242.185 Z14.450 F2500.000
G1 X-10.398 Y242.185 Z14.736 F2500.000
G1 X-9.407 Y242.185 Z14.989 F2500.000
G1 X-8.417 Y242.185 Z15.208 F2500.000
G1 X-7.427 Y242.185 Z15.393 F2500.000
G1 X-6.437 Y242.185 Z15.544 F2500.000
G1 X-5.446 Y242.185 Z15.661 F2500.000
G1 X-4.456 Y242.185 Z15.743 F2500.000
G1 X-3.466 Y242.185 Z15.789 F2500.000
G1 X-2.476 Y242.185 Z15.803 F2500.000
G1 X-1.485 Y242.185 Z15.809 F2500.000
G1 X0.495 Y242.185 Z15.812 F2500.000
G1 X2.476 Y242.185 Z15.803 F2500.000
G1 X3.466 Y242.185 Z15.789 F2500.000
G1 X4.456 Y242.185 Z15.743 F2500.000
G1 X5.446 Y242.185 Z15.661 F2500.000
G1 X6.437 Y242.185 Z15.544 F2500.000
G1 X7.427 Y242.185 Z15.393 F2500.000
G1 X8.417 Y242.185 Z15.208 F2500.000
G1 X9.407 Y242.185 Z14.989 F2500.000
G1 X10.398 Y242.185 Z14.736 F2500.000
G1 X11.388 Y242.185 Z14.450 F2500.000
G1 X12.378 Y242.185 Z14.130 F2500.000
G1 X13.368 Y242.185 Z13.775 F2500.000
G1 X14.359 Y242.185 Z13.625 F2500.000
G1 X29.212 Y242.185 Z13.625 F2500.000
(End of step 48.)
(End of layer 1)
(Layer 2 begins)
(Layer transition)
G0 Z19.770
G0 X-32.912 Y-1.655
(Begin step 0.)
G0 X-32.912 Y-1.655
(part 1)
G1 X-32.912 Y-1.655 Z10.450 F2500.000
G1 X-24.934 Y-1.655 Z10.450 F2500.000
G1 X-23.936 Y-1.655 Z11.009 F2500.000
G1 X-22.939 Y-1.655 Z11.747 F2500.000
G1 X-21.942 Y-1.655 Z12.429 F2500.000
G1 X-20.944 Y-1.655 Z13.057 F2500.000
G1 X-19.947 Y-1.655 Z13.635 F2500.000
G1 X-18.950 Y-1.655 Z14.166 F2500.000
G1 X-17.952 Y-1.655 Z14.652 F2500.000
G1 X-16.955 Y-1.655 Z15.095 F2500.000
G1 X-15.958 Y-1.655 Z15.497 F2500.000
G1 X-14.960 Y-1.655 Z15.862 F2500.000
G1 X-13.963 Y-1.655 Z16.189 F2500.000
G1 X-12.965 Y-1.655 Z16.482 F2500.000
G1 X-11.968 Y-1.655 Z16.742 F2500.000
G1 X-10.971 Y-1.655 Z16.970 F2500.000
G1 X-9.973 Y-1.655 Z17.167 F2500.000
G1 X-8.976 Y-1.655 Z17.336 F2500.000
G1 X-7.979 Y-1.655 Z17.476 F2500.000
G1 X-6.981 Y-1.655 Z17.590 F2500.000
G1 X-5.984 Y-1.655 Z17.678 F2500.000
G1 X-4.987 Y-1.655 Z17.742 F2500.000
G1 X-3.989 Y-1.655 Z17.782 F2500.000
G1 X-2.992 Y-1.655 Z17.799 F2500.000
G1 X-1.995 Y-1.655 Z17.800 F2500.000
G1 X2.992 Y-1.655 Z17.799 F2500.000
G1 X3.989 Y-1.655 Z17.782 F2500.000
G1 X4.987 Y-1.655 Z17.742 F2500.000
G1 X5.984 Y-1.655 Z17.678 F2500.000
G1 X6.981 Y-1.655 Z17.590 F2500.000
G1 X7.979 Y-1.655 Z17.476 F2500.000
G1 X8.976 Y-1.655 Z17.336 F2500.000
G1 X9.973 Y-1.655 Z17.167 F2500.000
G1 X10.971 Y-1.655 Z16.970 F2500.000
G1 X11.968 Y-1.655 Z16.742 F2500.000
G1 X12.965 Y-1.655 Z16.482 F2500.000
G1 X13.963 Y-1.655 Z16.190 F2500.000
G1 X14.960 Y-1.655 Z15.862 F2500.000
G1 X15.958 Y-1.655 Z15.498 F2500.000
G1 X16.955 Y-1.655 Z15.095 F2500.000
G1 X17.952 Y-1.655 Z14.652 F2500.000
G1 X18.950 Y-1.655 Z14.166 F2500.000
G1 X19.947 Y-1.655 Z13.636 F2500.000
G1 X20.944 Y-1.655 Z13.058 F2500.000
G1 X21.942 Y-1.655 Z12.429 F2500.000
G1 X22.939 Y-1.655 Z11.747 F2500.000
G1 X23.936 Y-1.655 Z11.009 F2500.000
G1 X24.934 Y-1.655 Z10.450 F2500.000
G1 X32.912 Y-1.655 Z10.450 F2500.000
(End of step 0.)
G0 Z19.770
G0 X33.325 Y3.425
(Begin step 1.)
G0 X33.325 Y3.425
(part 1)
G1 X33.325 Y3.425 Z10.450 F2500.000
G1 X25.367 Y3.425 Z10.450 F2500.000
G1 X24.372 Y3.425 Z10.982 F2500.000
G1 X23.377 Y3.425 Z11.719 F2500.000
G1 X22.383 Y3.425 Z12.398 F2500.000
G1 X21.388 Y3.425 Z13.025 F2500.000
G1 X20.393 Y3.425 Z13.602 F2500.000
G1 X19.398 Y3.425 Z14.132 F2500.000
G1 X18.403 Y3.425 Z14.616 F2500.000
G1 X17.409 Y3.425 Z15.058 F2500.000
G1 X16.414 Y3.425 Z15.460 F2500.000
G1 X15.419 Y3.425 Z15.825 F2500.000
G1 X14.424 Y3.425 Z16.152 F2500.000
G1 X13.430 Y3.425 Z16.447 F2500.000
G1 X12.435 Y3.425 Z16.707 F2500.000
G1 X11.440 Y3.425 Z16.936 F2500.000
G1 X10.445 Y3.425 Z17.134 F2500.000
G1 X9.450 Y3.425 Z17.302 F2500.000
G1 X8.456 Y3.425 Z17.445 F2500.000
