(Exported by FreeCAD)
(Post Processor: grbl_post)
(Output Time:2023-08-26 17:28:12.827424)
(Begin preamble)
G17 G90
G21
(Begin operation: 8 Z1 UP helicoidale001)
(Path: 8 Z1 UP helicoidale001)
(8 Z1 UP helicoidale001)
(Begin toolchange)
( M6 T7 )
M3 S24000
(Finish operation: 8 Z1 UP helicoidale001)
(Begin operation: Fixture)
(Path: Fixture)
G54
(Finish operation: Fixture)
(Begin operation: Surface)
(Path: Surface)
(Surface)
(Surface)
(Tool type: endmill)
(Compensated Tool Path. Diameter: 8.0)
(Sample interval: 1.0)
(Step over %: 50.0)
()
G0 Z28.500
(Beginning of Multi-pass layers.)
(Layer 0 begins)
(Begin step 0.)
G0 X-9.032 Y-244.261
(part 1)
G1 X-9.032 Y-244.261 Z21.500 F2500.000
G1 X54.232 Y-244.261 Z21.500 F2500.000
(End of step 0.)
G0 Z26.500
G0 X-11.599 Y-240.261
G0 Z25.500
(Begin step 1.)
G0 X-11.599 Y-240.261
(part 1)
G1 X-11.599 Y-240.261 Z21.500 F2500.000
G1 X56.799 Y-240.261 Z21.500 F2500.000
(End of step 1.)
G0 Z26.500
G0 X-11.537 Y-236.261
G0 Z25.500
(Begin step 2.)
G0 X-11.537 Y-236.261
(part 1)
G1 X-11.537 Y-236.261 Z21.500 F2500.000
G1 X56.737 Y-236.261 Z21.500 F2500.000
(End of step 2.)
G0 Z26.500
G0 X-11.476 Y-232.261
G0 Z25.500
(Begin step 3.)
G0 X-11.476 Y-232.261
(part 1)
G1 X-11.476 Y-232.261 Z21.500 F2500.000
G1 X56.676 Y-232.261 Z21.500 F2500.000
(End of step 3.)
G0 Z26.500
G0 X-11.414 Y-228.261
G0 Z25.500
(Begin step 4.)
G0 X-11.414 Y-228.261
(part 1)
G1 X-11.414 Y-228.261 Z21.500 F2500.000
G1 X56.614 Y-228.261 Z21.500 F2500.000
(End of step 4.)
G0 Z26.500
G0 X-11.353 Y-224.261
G0 Z25.500
(Begin step 5.)
G0 X-11.353 Y-224.261
(part 1)
G1 X-11.353 Y-224.261 Z21.500 F2500.000
G1 X56.553 Y-224.261 Z21.500 F2500.000
(End of step 5.)
G0 Z26.500
G0 X-11.291 Y-220.261
G0 Z25.500
(Begin step 6.)
G0 X-11.291 Y-220.261
(part 1)
G1 X-11.291 Y-220.261 Z21.500 F2500.000
G1 X56.491 Y-220.261 Z21.500 F2500.000
(End of step 6.)
G0 Z26.500
G0 X-11.229 Y-216.261
G0 Z25.500
(Begin step 7.)
G0 X-11.229 Y-216.261
(part 1)
G1 X-11.229 Y-216.261 Z21.500 F2500.000
G1 X56.429 Y-216.261 Z21.500 F2500.000
(End of step 7.)
G0 Z26.500
G0 X-11.168 Y-212.261
G0 Z25.500
(Begin step 8.)
G0 X-11.168 Y-212.261
(part 1)
G1 X-11.168 Y-212.261 Z21.500 F2500.000
G1 X56.368 Y-212.261 Z21.500 F2500.000
(End of step 8.)
G0 Z26.500
G0 X-11.106 Y-208.261
G0 Z25.500
(Begin step 9.)
G0 X-11.106 Y-208.261
(part 1)
G1 X-11.106 Y-208.261 Z21.500 F2500.000
G1 X56.306 Y-208.261 Z21.500 F2500.000
(End of step 9.)
G0 Z26.500
G0 X-11.045 Y-204.261
G0 Z25.500
(Begin step 10.)
G0 X-11.045 Y-204.261
(part 1)
G1 X-11.045 Y-204.261 Z21.500 F2500.000
G1 X56.245 Y-204.261 Z21.500 F2500.000
(End of step 10.)
G0 Z26.500
G0 X-10.983 Y-200.261
G0 Z25.500
(Begin step 11.)
G0 X-10.983 Y-200.261
(part 1)
G1 X-10.983 Y-200.261 Z21.500 F2500.000
G1 X56.183 Y-200.261 Z21.500 F2500.000
(End of step 11.)
G0 Z26.500
G0 X-10.922 Y-196.261
G0 Z25.500
(Begin step 12.)
G0 X-10.922 Y-196.261
(part 1)
G1 X-10.922 Y-196.261 Z21.500 F2500.000
G1 X56.122 Y-196.261 Z21.500 F2500.000
(End of step 12.)
G0 Z26.500
G0 X-10.860 Y-192.261
G0 Z25.500
(Begin step 13.)
G0 X-10.860 Y-192.261
(part 1)
G1 X-10.860 Y-192.261 Z21.500 F2500.000
G1 X56.060 Y-192.261 Z21.500 F2500.000
(End of step 13.)
G0 Z26.500
G0 X-10.799 Y-188.261
G0 Z25.500
(Begin step 14.)
G0 X-10.799 Y-188.261
(part 1)
G1 X-10.799 Y-188.261 Z21.500 F2500.000
G1 X55.999 Y-188.261 Z21.500 F2500.000
(End of step 14.)
G0 Z26.500
G0 X-10.737 Y-184.261
G0 Z25.500
(Begin step 15.)
G0 X-10.737 Y-184.261
(part 1)
G1 X-10.737 Y-184.261 Z21.500 F2500.000
G1 X55.937 Y-184.261 Z21.500 F2500.000
(End of step 15.)
G0 Z26.500
G0 X-10.676 Y-180.261
G0 Z25.500
(Begin step 16.)
G0 X-10.676 Y-180.261
(part 1)
G1 X-10.676 Y-180.261 Z21.500 F2500.000
G1 X55.876 Y-180.261 Z21.500 F2500.000
(End of step 16.)
G0 Z26.500
G0 X-10.614 Y-176.261
G0 Z25.500
(Begin step 17.)
G0 X-10.614 Y-176.261
(part 1)
G1 X-10.614 Y-176.261 Z21.500 F2500.000
G1 X55.814 Y-176.261 Z21.500 F2500.000
(End of step 17.)
G0 Z26.500
G0 X-10.553 Y-172.261
G0 Z25.500
(Begin step 18.)
G0 X-10.553 Y-172.261
(part 1)
G1 X-10.553 Y-172.261 Z21.500 F2500.000
G1 X55.753 Y-172.261 Z21.500 F2500.000
(End of step 18.)
G0 Z26.500
G0 X-10.491 Y-168.261
G0 Z25.500
(Begin step 19.)
G0 X-10.491 Y-168.261
(part 1)
G1 X-10.491 Y-168.261 Z21.500 F2500.000
G1 X55.691 Y-168.261 Z21.500 F2500.000
(End of step 19.)
G0 Z26.500
G0 X-10.430 Y-164.261
G0 Z25.500
(Begin step 20.)
G0 X-10.430 Y-164.261
(part 1)
G1 X-10.430 Y-164.261 Z21.500 F2500.000
G1 X55.630 Y-164.261 Z21.500 F2500.000
(End of step 20.)
G0 Z26.500
G0 X-10.368 Y-160.261
G0 Z25.500
(Begin step 21.)
G0 X-10.368 Y-160.261
(part 1)
G1 X-10.368 Y-160.261 Z21.500 F2500.000
G1 X55.568 Y-160.261 Z21.500 F2500.000
(End of step 21.)
G0 Z26.500
G0 X-10.307 Y-156.261
G0 Z25.500
(Begin step 22.)
G0 X-10.307 Y-156.261
(part 1)
G1 X-10.307 Y-156.261 Z21.500 F2500.000
G1 X55.507 Y-156.261 Z21.500 F2500.000
(End of step 22.)
G0 Z26.500
G0 X-10.245 Y-152.261
G0 Z25.500
(Begin step 23.)
G0 X-10.245 Y-152.261
(part 1)
G1 X-10.245 Y-152.261 Z21.500 F2500.000
G1 X55.445 Y-152.261 Z21.500 F2500.000
(End of step 23.)
G0 Z26.500
G0 X-10.183 Y-148.261
G0 Z25.500
(Begin step 24.)
G0 X-10.183 Y-148.261
(part 1)
G1 X-10.183 Y-148.261 Z21.500 F2500.000
G1 X55.383 Y-148.261 Z21.500 F2500.000
(End of step 24.)
G0 Z26.500
G0 X-10.122 Y-144.261
G0 Z25.500
(Begin step 25.)
G0 X-10.122 Y-144.261
(part 1)
G1 X-10.122 Y-144.261 Z21.500 F2500.000
G1 X55.322 Y-144.261 Z21.500 F2500.000
(End of step 25.)
G0 Z26.500
G0 X-10.060 Y-140.261
G0 Z25.500
(Begin step 26.)
G0 X-10.060 Y-140.261
(part 1)
G1 X-10.060 Y-140.261 Z21.500 F2500.000
G1 X55.260 Y-140.261 Z21.500 F2500.000
(End of step 26.)
G0 Z26.500
G0 X-9.999 Y-136.261
G0 Z25.500
(Begin step 27.)
G0 X-9.999 Y-136.261
(part 1)
G1 X-9.999 Y-136.261 Z21.500 F2500.000
G1 X55.199 Y-136.261 Z21.500 F2500.000
(End of step 27.)
G0 Z26.500
G0 X-9.937 Y-132.261
G0 Z25.500
(Begin step 28.)
G0 X-9.937 Y-132.261
(part 1)
G1 X-9.937 Y-132.261 Z21.500 F2500.000
G1 X55.137 Y-132.261 Z21.500 F2500.000
(End of step 28.)
G0 Z26.500
G0 X-9.876 Y-128.261
G0 Z25.500
(Begin step 29.)
G0 X-9.876 Y-128.261
(part 1)
G1 X-9.876 Y-128.261 Z21.500 F2500.000
G1 X55.076 Y-128.261 Z21.500 F2500.000
(End of step 29.)
G0 Z26.500
G0 X-9.814 Y-124.261
G0 Z25.500
(Begin step 30.)
G0 X-9.814 Y-124.261
(part 1)
G1 X-9.814 Y-124.261 Z21.500 F2500.000
G1 X55.014 Y-124.261 Z21.500 F2500.000
(End of step 30.)
G0 Z26.500
G0 X-9.753 Y-120.261
G0 Z25.500
(Begin step 31.)
G0 X-9.753 Y-120.261
(part 1)
G1 X-9.753 Y-120.261 Z21.500 F2500.000
G1 X54.953 Y-120.261 Z21.500 F2500.000
(End of step 31.)
G0 Z26.500
G0 X-9.691 Y-116.261
G0 Z25.500
(Begin step 32.)
G0 X-9.691 Y-116.261
(part 1)
G1 X-9.691 Y-116.261 Z21.500 F2500.000
G1 X54.891 Y-116.261 Z21.500 F2500.000
(End of step 32.)
G0 Z26.500
G0 X-9.630 Y-112.261
G0 Z25.500
(Begin step 33.)
G0 X-9.630 Y-112.261
(part 1)
G1 X-9.630 Y-112.261 Z21.500 F2500.000
G1 X54.830 Y-112.261 Z21.500 F2500.000
(End of step 33.)
G0 Z26.500
G0 X-9.568 Y-108.261
G0 Z25.500
(Begin step 34.)
G0 X-9.568 Y-108.261
(part 1)
G1 X-9.568 Y-108.261 Z21.500 F2500.000
G1 X54.768 Y-108.261 Z21.500 F2500.000
(End of step 34.)
G0 Z26.500
G0 X-9.507 Y-104.261
G0 Z25.500
(Begin step 35.)
G0 X-9.507 Y-104.261
(part 1)
G1 X-9.507 Y-104.261 Z21.500 F2500.000
G1 X54.707 Y-104.261 Z21.500 F2500.000
(End of step 35.)
G0 Z26.500
G0 X-9.445 Y-100.261
G0 Z25.500
(Begin step 36.)
G0 X-9.445 Y-100.261
(part 1)
G1 X-9.445 Y-100.261 Z21.500 F2500.000
G1 X54.645 Y-100.261 Z21.500 F2500.000
(End of step 36.)
G0 Z26.500
G0 X-9.384 Y-96.261
G0 Z25.500
(Begin step 37.)
G0 X-9.384 Y-96.261
(part 1)
G1 X-9.384 Y-96.261 Z21.500 F2500.000
G1 X54.584 Y-96.261 Z21.500 F2500.000
(End of step 37.)
G0 Z26.500
G0 X-9.322 Y-92.261
G0 Z25.500
(Begin step 38.)
G0 X-9.322 Y-92.261
(part 1)
G1 X-9.322 Y-92.261 Z21.500 F2500.000
G1 X54.522 Y-92.261 Z21.500 F2500.000
(End of step 38.)
G0 Z26.500
G0 X-9.260 Y-88.261
G0 Z25.500
(Begin step 39.)
G0 X-9.260 Y-88.261
(part 1)
G1 X-9.260 Y-88.261 Z21.500 F2500.000
G1 X54.460 Y-88.261 Z21.500 F2500.000
(End of step 39.)
G0 Z26.500
G0 X-9.199 Y-84.261
G0 Z25.500
(Begin step 40.)
G0 X-9.199 Y-84.261
(part 1)
G1 X-9.199 Y-84.261 Z21.500 F2500.000
G1 X54.399 Y-84.261 Z21.500 F2500.000
(End of step 40.)
G0 Z26.500
G0 X-9.137 Y-80.261
G0 Z25.500
(Begin step 41.)
G0 X-9.137 Y-80.261
(part 1)
G1 X-9.137 Y-80.261 Z21.500 F2500.000
G1 X54.337 Y-80.261 Z21.500 F2500.000
(End of step 41.)
G0 Z26.500
G0 X-9.076 Y-76.261
G0 Z25.500
(Begin step 42.)
G0 X-9.076 Y-76.261
(part 1)
G1 X-9.076 Y-76.261 Z21.500 F2500.000
G1 X54.276 Y-76.261 Z21.500 F2500.000
(End of step 42.)
G0 Z26.500
G0 X-9.014 Y-72.261
G0 Z25.500
(Begin step 43.)
G0 X-9.014 Y-72.261
(part 1)
G1 X-9.014 Y-72.261 Z21.500 F2500.000
G1 X54.214 Y-72.261 Z21.500 F2500.000
(End of step 43.)
G0 Z26.500
G0 X-8.953 Y-68.261
G0 Z25.500
(Begin step 44.)
G0 X-8.953 Y-68.261
(part 1)
G1 X-8.953 Y-68.261 Z21.500 F2500.000
G1 X54.153 Y-68.261 Z21.500 F2500.000
(End of step 44.)
G0 Z26.500
G0 X-8.891 Y-64.261
G0 Z25.500
(Begin step 45.)
G0 X-8.891 Y-64.261
(part 1)
G1 X-8.891 Y-64.261 Z21.500 F2500.000
G1 X54.091 Y-64.261 Z21.500 F2500.000
(End of step 45.)
G0 Z26.500
G0 X-8.830 Y-60.261
G0 Z25.500
(Begin step 46.)
G0 X-8.830 Y-60.261
(part 1)
G1 X-8.830 Y-60.261 Z21.500 F2500.000
G1 X54.030 Y-60.261 Z21.500 F2500.000
(End of step 46.)
G0 Z26.500
G0 X-8.768 Y-56.261
G0 Z25.500
(Begin step 47.)
G0 X-8.768 Y-56.261
(part 1)
G1 X-8.768 Y-56.261 Z21.500 F2500.000
G1 X53.968 Y-56.261 Z21.500 F2500.000
(End of step 47.)
G0 Z26.500
G0 X-8.707 Y-52.261
G0 Z25.500
(Begin step 48.)
G0 X-8.707 Y-52.261
(part 1)
G1 X-8.707 Y-52.261 Z21.500 F2500.000
G1 X53.907 Y-52.261 Z21.500 F2500.000
(End of step 48.)
G0 Z26.500
G0 X-8.645 Y-48.261
G0 Z25.500
(Begin step 49.)
G0 X-8.645 Y-48.261
(part 1)
G1 X-8.645 Y-48.261 Z21.500 F2500.000
G1 X53.845 Y-48.261 Z21.500 F2500.000
(End of step 49.)
G0 Z26.500
G0 X-8.584 Y-44.261
G0 Z25.500
(Begin step 50.)
G0 X-8.584 Y-44.261
(part 1)
G1 X-8.584 Y-44.261 Z21.500 F2500.000
G1 X53.784 Y-44.261 Z21.500 F2500.000
(End of step 50.)
G0 Z26.500
G0 X-8.522 Y-40.261
G0 Z25.500
(Begin step 51.)
G0 X-8.522 Y-40.261
(part 1)
G1 X-8.522 Y-40.261 Z21.500 F2500.000
G1 X53.722 Y-40.261 Z21.500 F2500.000
(End of step 51.)
G0 Z26.500
G0 X-8.461 Y-36.261
G0 Z25.500
(Begin step 52.)
G0 X-8.461 Y-36.261
(part 1)
G1 X-8.461 Y-36.261 Z21.500 F2500.000
G1 X53.661 Y-36.261 Z21.500 F2500.000
(End of step 52.)
G0 Z26.500
G0 X-8.399 Y-32.261
G0 Z25.500
(Begin step 53.)
G0 X-8.399 Y-32.261
(part 1)
G1 X-8.399 Y-32.261 Z21.500 F2500.000
G1 X53.599 Y-32.261 Z21.500 F2500.000
(End of step 53.)
G0 Z26.500
G0 X-8.337 Y-28.261
G0 Z25.500
(Begin step 54.)
G0 X-8.337 Y-28.261
(part 1)
G1 X-8.337 Y-28.261 Z21.500 F2500.000
G1 X53.537 Y-28.261 Z21.500 F2500.000
(End of step 54.)
G0 Z26.500
G0 X-8.276 Y-24.261
G0 Z25.500
(Begin step 55.)
G0 X-8.276 Y-24.261
(part 1)
G1 X-8.276 Y-24.261 Z21.500 F2500.000
G1 X53.476 Y-24.261 Z21.500 F2500.000
(End of step 55.)
G0 Z26.500
G0 X-8.214 Y-20.261
G0 Z25.500
(Begin step 56.)
G0 X-8.214 Y-20.261
(part 1)
G1 X-8.214 Y-20.261 Z21.500 F2500.000
G1 X53.414 Y-20.261 Z21.500 F2500.000
(End of step 56.)
G0 Z26.500
G0 X-8.153 Y-16.261
G0 Z25.500
(Begin step 57.)
G0 X-8.153 Y-16.261
(part 1)
G1 X-8.153 Y-16.261 Z21.500 F2500.000
G1 X53.353 Y-16.261 Z21.500 F2500.000
(End of step 57.)
G0 Z26.500
G0 X-8.091 Y-12.261
G0 Z25.500
(Begin step 58.)
G0 X-8.091 Y-12.261
(part 1)
G1 X-8.091 Y-12.261 Z21.500 F2500.000
G1 X53.291 Y-12.261 Z21.500 F2500.000
(End of step 58.)
G0 Z26.500
G0 X-8.030 Y-8.261
G0 Z25.500
(Begin step 59.)
G0 X-8.030 Y-8.261
(part 1)
G1 X-8.030 Y-8.261 Z21.500 F2500.000
G1 X53.230 Y-8.261 Z21.500 F2500.000
(End of step 59.)
G0 Z26.500
G0 X-7.968 Y-4.261
G0 Z25.500
(Begin step 60.)
G0 X-7.968 Y-4.261
(part 1)
G1 X-7.968 Y-4.261 Z21.500 F2500.000
G1 X53.168 Y-4.261 Z21.500 F2500.000
(End of step 60.)
G0 Z26.500
G0 X-7.907 Y-0.261
G0 Z25.500
(Begin step 61.)
G0 X-7.907 Y-0.261
(part 1)
G1 X-7.907 Y-0.261 Z21.500 F2500.000
G1 X53.107 Y-0.261 Z21.500 F2500.000
(End of step 61.)
G0 Z26.500
G0 X-5.332 Y3.739
G0 Z25.500
(Begin step 62.)
G0 X-5.332 Y3.739
(part 1)
G1 X-5.332 Y3.739 Z21.500 F2500.000
G1 X50.532 Y3.739 Z21.500 F2500.000
(End of step 62.)
(End of layer 0)
(Layer 1 begins)
(Layer transition)
G0 Z26.500
G0 X-9.032 Y-244.261
(Begin step 0.)
G0 X-9.032 Y-244.261
(part 1)
G1 X-9.032 Y-244.261 Z19.500 F2500.000
G1 X54.232 Y-244.261 Z19.500 F2500.000
(End of step 0.)
G0 Z26.500
G0 X-11.599 Y-240.261
G0 Z23.500
(Begin step 1.)
G0 X-11.599 Y-240.261
(part 1)
G1 X-11.599 Y-240.261 Z19.500 F2500.000
G1 X56.799 Y-240.261 Z19.500 F2500.000
(End of step 1.)
G0 Z26.500
G0 X-11.537 Y-236.261
G0 Z23.500
(Begin step 2.)
G0 X-11.537 Y-236.261
(part 1)
G1 X-11.537 Y-236.261 Z19.500 F2500.000
G1 X56.737 Y-236.261 Z19.500 F2500.000
(End of step 2.)
G0 Z26.500
G0 X-11.476 Y-232.261
G0 Z23.500
(Begin step 3.)
G0 X-11.476 Y-232.261
(part 1)
G1 X-11.476 Y-232.261 Z19.500 F2500.000
G1 X56.676 Y-232.261 Z19.500 F2500.000
(End of step 3.)
G0 Z26.500
G0 X-11.414 Y-228.261
G0 Z23.500
(Begin step 4.)
G0 X-11.414 Y-228.261
(part 1)
G1 X-11.414 Y-228.261 Z19.500 F2500.000
G1 X56.614 Y-228.261 Z19.500 F2500.000
(End of step 4.)
G0 Z26.500
G0 X-11.353 Y-224.261
G0 Z23.500
(Begin step 5.)
G0 X-11.353 Y-224.261
(part 1)
G1 X-11.353 Y-224.261 Z19.500 F2500.000
G1 X56.553 Y-224.261 Z19.500 F2500.000
(End of step 5.)
G0 Z26.500
G0 X-11.291 Y-220.261
G0 Z23.500
(Begin step 6.)
G0 X-11.291 Y-220.261
(part 1)
G1 X-11.291 Y-220.261 Z19.500 F2500.000
G1 X56.491 Y-220.261 Z19.500 F2500.000
(End of step 6.)
G0 Z26.500
G0 X-11.229 Y-216.261
G0 Z23.500
(Begin step 7.)
G0 X-11.229 Y-216.261
(part 1)
G1 X-11.229 Y-216.261 Z19.500 F2500.000
G1 X56.429 Y-216.261 Z19.500 F2500.000
(End of step 7.)
G0 Z26.500
G0 X-11.168 Y-212.261
G0 Z23.500
(Begin step 8.)
G0 X-11.168 Y-212.261
(part 1)
G1 X-11.168 Y-212.261 Z19.500 F2500.000
G1 X56.368 Y-212.261 Z19.500 F2500.000
(End of step 8.)
G0 Z26.500
G0 X-11.106 Y-208.261
G0 Z23.500
(Begin step 9.)
G0 X-11.106 Y-208.261
(part 1)
G1 X-11.106 Y-208.261 Z19.500 F2500.000
G1 X56.306 Y-208.261 Z19.500 F2500.000
(End of step 9.)
G0 Z26.500
G0 X-11.045 Y-204.261
G0 Z23.500
(Begin step 10.)
G0 X-11.045 Y-204.261
(part 1)
G1 X-11.045 Y-204.261 Z19.500 F2500.000
G1 X56.245 Y-204.261 Z19.500 F2500.000
(End of step 10.)
G0 Z26.500
G0 X-10.983 Y-200.261
G0 Z23.500
(Begin step 11.)
G0 X-10.983 Y-200.261
(part 1)
G1 X-10.983 Y-200.261 Z19.500 F2500.000
G1 X56.183 Y-200.261 Z19.500 F2500.000
(End of step 11.)
G0 Z26.500
G0 X-10.922 Y-196.261
G0 Z23.500
(Begin step 12.)
G0 X-10.922 Y-196.261
(part 1)
G1 X-10.922 Y-196.261 Z19.500 F2500.000
G1 X56.122 Y-196.261 Z19.500 F2500.000
(End of step 12.)
G0 Z26.500
G0 X-10.860 Y-192.261
G0 Z23.500
(Begin step 13.)
G0 X-10.860 Y-192.261
(part 1)
G1 X-10.860 Y-192.261 Z19.500 F2500.000
G1 X56.060 Y-192.261 Z19.500 F2500.000
(End of step 13.)
G0 Z26.500
G0 X-10.799 Y-188.261
G0 Z23.500
(Begin step 14.)
G0 X-10.799 Y-188.261
(part 1)
G1 X-10.799 Y-188.261 Z19.500 F2500.000
G1 X55.999 Y-188.261 Z19.500 F2500.000
(End of step 14.)
G0 Z26.500
G0 X-10.737 Y-184.261
G0 Z23.500
(Begin step 15.)
G0 X-10.737 Y-184.261
(part 1)
G1 X-10.737 Y-184.261 Z19.500 F2500.000
G1 X55.937 Y-184.261 Z19.500 F2500.000
(End of step 15.)
G0 Z26.500
G0 X-10.676 Y-180.261
G0 Z23.500
(Begin step 16.)
G0 X-10.676 Y-180.261
(part 1)
G1 X-10.676 Y-180.261 Z19.500 F2500.000
G1 X55.876 Y-180.261 Z19.500 F2500.000
(End of step 16.)
G0 Z26.500
G0 X-10.614 Y-176.261
G0 Z23.500
(Begin step 17.)
G0 X-10.614 Y-176.261
(part 1)
G1 X-10.614 Y-176.261 Z19.500 F2500.000
G1 X55.814 Y-176.261 Z19.500 F2500.000
(End of step 17.)
G0 Z26.500
G0 X-10.553 Y-172.261
G0 Z23.500
(Begin step 18.)
G0 X-10.553 Y-172.261
(part 1)
G1 X-10.553 Y-172.261 Z19.500 F2500.000
G1 X55.753 Y-172.261 Z19.500 F2500.000
(End of step 18.)
G0 Z26.500
G0 X-10.491 Y-168.261
G0 Z23.500
(Begin step 19.)
G0 X-10.491 Y-168.261
(part 1)
G1 X-10.491 Y-168.261 Z19.500 F2500.000
G1 X55.691 Y-168.261 Z19.500 F2500.000
(End of step 19.)
G0 Z26.500
G0 X-10.430 Y-164.261
G0 Z23.500
(Begin step 20.)
G0 X-10.430 Y-164.261
(part 1)
G1 X-10.430 Y-164.261 Z19.500 F2500.000
G1 X55.630 Y-164.261 Z19.500 F2500.000
(End of step 20.)
G0 Z26.500
G0 X-10.368 Y-160.261
G0 Z23.500
(Begin step 21.)
G0 X-10.368 Y-160.261
(part 1)
G1 X-10.368 Y-160.261 Z19.500 F2500.000
G1 X55.568 Y-160.261 Z19.500 F2500.000
(End of step 21.)
G0 Z26.500
G0 X-10.307 Y-156.261
G0 Z23.500
(Begin step 22.)
G0 X-10.307 Y-156.261
(part 1)
G1 X-10.307 Y-156.261 Z19.500 F2500.000
G1 X55.507 Y-156.261 Z19.500 F2500.000
(End of step 22.)
G0 Z26.500
G0 X-10.245 Y-152.261
G0 Z23.500
(Begin step 23.)
G0 X-10.245 Y-152.261
(part 1)
G1 X-10.245 Y-152.261 Z19.500 F2500.000
G1 X55.445 Y-152.261 Z19.500 F2500.000
(End of step 23.)
G0 Z26.500
G0 X-10.183 Y-148.261
G0 Z23.500
(Begin step 24.)
G0 X-10.183 Y-148.261
(part 1)
G1 X-10.183 Y-148.261 Z19.500 F2500.000
G1 X55.383 Y-148.261 Z19.500 F2500.000
(End of step 24.)
G0 Z26.500
G0 X-10.122 Y-144.261
G0 Z23.500
(Begin step 25.)
G0 X-10.122 Y-144.261
(part 1)
G1 X-10.122 Y-144.261 Z19.500 F2500.000
G1 X55.322 Y-144.261 Z19.500 F2500.000
(End of step 25.)
G0 Z26.500
G0 X-10.060 Y-140.261
G0 Z23.500
(Begin step 26.)
G0 X-10.060 Y-140.261
(part 1)
G1 X-10.060 Y-140.261 Z19.500 F2500.000
G1 X55.260 Y-140.261 Z19.500 F2500.000
(End of step 26.)
G0 Z26.500
G0 X-9.999 Y-136.261
G0 Z23.500
(Begin step 27.)
G0 X-9.999 Y-136.261
(part 1)
G1 X-9.999 Y-136.261 Z19.500 F2500.000
G1 X55.199 Y-136.261 Z19.500 F2500.000
(End of step 27.)
G0 Z26.500
G0 X-9.937 Y-132.261
G0 Z23.500
(Begin step 28.)
G0 X-9.937 Y-132.261
(part 1)
G1 X-9.937 Y-132.261 Z19.500 F2500.000
G1 X55.137 Y-132.261 Z19.500 F2500.000
(End of step 28.)
G0 Z26.500
G0 X-9.876 Y-128.261
G0 Z23.500
(Begin step 29.)
G0 X-9.876 Y-128.261
(part 1)
G1 X-9.876 Y-128.261 Z19.500 F2500.000
G1 X55.076 Y-128.261 Z19.500 F2500.000
(End of step 29.)
G0 Z26.500
G0 X-9.814 Y-124.261
G0 Z23.500
(Begin step 30.)
G0 X-9.814 Y-124.261
(part 1)
G1 X-9.814 Y-124.261 Z19.500 F2500.000
G1 X55.014 Y-124.261 Z19.500 F2500.000
(End of step 30.)
G0 Z26.500
G0 X-9.753 Y-120.261
G0 Z23.500
(Begin step 31.)
G0 X-9.753 Y-120.261
(part 1)
G1 X-9.753 Y-120.261 Z19.500 F2500.000
G1 X54.953 Y-120.261 Z19.500 F2500.000
(End of step 31.)
G0 Z26.500
G0 X-9.691 Y-116.261
G0 Z23.500
(Begin step 32.)
G0 X-9.691 Y-116.261
(part 1)
G1 X-9.691 Y-116.261 Z19.500 F2500.000
G1 X54.891 Y-116.261 Z19.500 F2500.000
(End of step 32.)
G0 Z26.500
G0 X-9.630 Y-112.261
G0 Z23.500
(Begin step 33.)
G0 X-9.630 Y-112.261
(part 1)
G1 X-9.630 Y-112.261 Z19.500 F2500.000
G1 X54.830 Y-112.261 Z19.500 F2500.000
(End of step 33.)
G0 Z26.500
G0 X-9.568 Y-108.261
G0 Z23.500
(Begin step 34.)
G0 X-9.568 Y-108.261
(part 1)
G1 X-9.568 Y-108.261 Z19.500 F2500.000
G1 X54.768 Y-108.261 Z19.500 F2500.000
(End of step 34.)
G0 Z26.500
G0 X-9.507 Y-104.261
G0 Z23.500
(Begin step 35.)
G0 X-9.507 Y-104.261
(part 1)
G1 X-9.507 Y-104.261 Z19.500 F2500.000
G1 X54.707 Y-104.261 Z19.500 F2500.000
(End of step 35.)
G0 Z26.500
G0 X-9.445 Y-100.261
G0 Z23.500
(Begin step 36.)
G0 X-9.445 Y-100.261
(part 1)
G1 X-9.445 Y-100.261 Z19.500 F2500.000
G1 X54.645 Y-100.261 Z19.500 F2500.000
(End of step 36.)
G0 Z26.500
G0 X-9.384 Y-96.261
G0 Z23.500
(Begin step 37.)
G0 X-9.384 Y-96.261
(part 1)
G1 X-9.384 Y-96.261 Z19.500 F2500.000
G1 X54.584 Y-96.261 Z19.500 F2500.000
(End of step 37.)
G0 Z26.500
G0 X-9.322 Y-92.261
G0 Z23.500
(Begin step 38.)
G0 X-9.322 Y-92.261
(part 1)
G1 X-9.322 Y-92.261 Z19.500 F2500.000
G1 X54.522 Y-92.261 Z19.500 F2500.000
(End of step 38.)
G0 Z26.500
G0 X-9.260 Y-88.261
G0 Z23.500
(Begin step 39.)
G0 X-9.260 Y-88.261
(part 1)
G1 X-9.260 Y-88.261 Z19.500 F2500.000
G1 X54.460 Y-88.261 Z19.500 F2500.000
(End of step 39.)
G0 Z26.500
G0 X-9.199 Y-84.261
G0 Z23.500
(Begin step 40.)
G0 X-9.199 Y-84.261
(part 1)
G1 X-9.199 Y-84.261 Z19.500 F2500.000
G1 X54.399 Y-84.261 Z19.500 F2500.000
(End of step 40.)
G0 Z26.500
G0 X-9.137 Y-80.261
G0 Z23.500
(Begin step 41.)
G0 X-9.137 Y-80.261
(part 1)
G1 X-9.137 Y-80.261 Z19.500 F2500.000
G1 X54.337 Y-80.261 Z19.500 F2500.000
(End of step 41.)
G0 Z26.500
G0 X-9.076 Y-76.261
G0 Z23.500
(Begin step 42.)
G0 X-9.076 Y-76.261
(part 1)
G1 X-9.076 Y-76.261 Z19.500 F2500.000
G1 X54.276 Y-76.261 Z19.500 F2500.000
(End of step 42.)
G0 Z26.500
G0 X-9.014 Y-72.261
G0 Z23.500
(Begin step 43.)
G0 X-9.014 Y-72.261
(part 1)
G1 X-9.014 Y-72.261 Z19.500 F2500.000
G1 X54.214 Y-72.261 Z19.500 F2500.000
(End of step 43.)
G0 Z26.500
G0 X-8.953 Y-68.261
G0 Z23.500
(Begin step 44.)
G0 X-8.953 Y-68.261
(part 1)
G1 X-8.953 Y-68.261 Z19.500 F2500.000
G1 X54.153 Y-68.261 Z19.500 F2500.000
(End of step 44.)
G0 Z26.500
G0 X-8.891 Y-64.261
G0 Z23.500
(Begin step 45.)
G0 X-8.891 Y-64.261
(part 1)
G1 X-8.891 Y-64.261 Z19.500 F2500.000
G1 X54.091 Y-64.261 Z19.500 F2500.000
(End of step 45.)
G0 Z26.500
G0 X-8.830 Y-60.261
G0 Z23.500
(Begin step 46.)
G0 X-8.830 Y-60.261
(part 1)
G1 X-8.830 Y-60.261 Z19.500 F2500.000
G1 X54.030 Y-60.261 Z19.500 F2500.000
(End of step 46.)
G0 Z26.500
G0 X-8.768 Y-56.261
G0 Z23.500
(Begin step 47.)
G0 X-8.768 Y-56.261
(part 1)
G1 X-8.768 Y-56.261 Z19.500 F2500.000
G1 X53.968 Y-56.261 Z19.500 F2500.000
(End of step 47.)
G0 Z26.500
G0 X-8.707 Y-52.261
G0 Z23.500
(Begin step 48.)
G0 X-8.707 Y-52.261
(part 1)
G1 X-8.707 Y-52.261 Z19.500 F2500.000
G1 X53.907 Y-52.261 Z19.500 F2500.000
(End of step 48.)
G0 Z26.500
G0 X-8.645 Y-48.261
G0 Z23.500
(Begin step 49.)
G0 X-8.645 Y-48.261
(part 1)
G1 X-8.645 Y-48.261 Z19.500 F2500.000
G1 X53.845 Y-48.261 Z19.500 F2500.000
(End of step 49.)
G0 Z26.500
G0 X-8.584 Y-44.261
G0 Z23.500
(Begin step 50.)
G0 X-8.584 Y-44.261
(part 1)
G1 X-8.584 Y-44.261 Z19.500 F2500.000
G1 X53.784 Y-44.261 Z19.500 F2500.000
(End of step 50.)
G0 Z26.500
G0 X-8.522 Y-40.261
G0 Z23.500
(Begin step 51.)
G0 X-8.522 Y-40.261
(part 1)
G1 X-8.522 Y-40.261 Z19.500 F2500.000
G1 X53.722 Y-40.261 Z19.500 F2500.000
(End of step 51.)
G0 Z26.500
G0 X-8.461 Y-36.261
G0 Z23.500
(Begin step 52.)
G0 X-8.461 Y-36.261
(part 1)
G1 X-8.461 Y-36.261 Z19.500 F2500.000
G1 X53.661 Y-36.261 Z19.500 F2500.000
(End of step 52.)
G0 Z26.500
G0 X-8.399 Y-32.261
G0 Z23.500
(Begin step 53.)
G0 X-8.399 Y-32.261
(part 1)
G1 X-8.399 Y-32.261 Z19.500 F2500.000
G1 X53.599 Y-32.261 Z19.500 F2500.000
(End of step 53.)
G0 Z26.500
G0 X-8.337 Y-28.261
G0 Z23.500
(Begin step 54.)
G0 X-8.337 Y-28.261
(part 1)
G1 X-8.337 Y-28.261 Z19.500 F2500.000
G1 X53.537 Y-28.261 Z19.500 F2500.000
(End of step 54.)
G0 Z26.500
G0 X-8.276 Y-24.261
G0 Z23.500
(Begin step 55.)
G0 X-8.276 Y-24.261
(part 1)
G1 X-8.276 Y-24.261 Z19.500 F2500.000
G1 X53.476 Y-24.261 Z19.500 F2500.000
(End of step 55.)
G0 Z26.500
G0 X-8.214 Y-20.261
G0 Z23.500
(Begin step 56.)
G0 X-8.214 Y-20.261
(part 1)
G1 X-8.214 Y-20.261 Z19.500 F2500.000
G1 X53.414 Y-20.261 Z19.500 F2500.000
(End of step 56.)
G0 Z26.500
G0 X-8.153 Y-16.261
G0 Z23.500
(Begin step 57.)
G0 X-8.153 Y-16.261
(part 1)
G1 X-8.153 Y-16.261 Z19.500 F2500.000
G1 X53.353 Y-16.261 Z19.500 F2500.000
(End of step 57.)
G0 Z26.500
G0 X-8.091 Y-12.261
G0 Z23.500
(Begin step 58.)
G0 X-8.091 Y-12.261
(part 1)
G1 X-8.091 Y-12.261 Z19.500 F2500.000
G1 X53.291 Y-12.261 Z19.500 F2500.000
(End of step 58.)
G0 Z26.500
G0 X-8.030 Y-8.261
G0 Z23.500
(Begin step 59.)
G0 X-8.030 Y-8.261
(part 1)
G1 X-8.030 Y-8.261 Z19.500 F2500.000
G1 X53.230 Y-8.261 Z19.500 F2500.000
(End of step 59.)
G0 Z26.500
G0 X-7.968 Y-4.261
G0 Z23.500
(Begin step 60.)
G0 X-7.968 Y-4.261
(part 1)
G1 X-7.968 Y-4.261 Z19.500 F2500.000
G1 X53.168 Y-4.261 Z19.500 F2500.000
(End of step 60.)
G0 Z26.500
G0 X-7.907 Y-0.261
G0 Z23.500
(Begin step 61.)
G0 X-7.907 Y-0.261
(part 1)
G1 X-7.907 Y-0.261 Z19.500 F2500.000
G1 X53.107 Y-0.261 Z19.500 F2500.000
(End of step 61.)
G0 Z26.500
G0 X-5.332 Y3.739
G0 Z23.500
(Begin step 62.)
G0 X-5.332 Y3.739
(part 1)
G1 X-5.332 Y3.739 Z19.500 F2500.000
G1 X50.532 Y3.739 Z19.500 F2500.000
(End of step 62.)
(End of layer 1)
(Layer 2 begins)
(Layer transition)
G0 Z26.500
G0 X-9.032 Y-244.261
(Begin step 0.)
G0 X-9.032 Y-244.261
(part 1)
G1 X-9.032 Y-244.261 Z17.500 F2500.000
G1 X54.232 Y-244.261 Z17.500 F2500.000
(End of step 0.)
G0 Z26.500
G0 X-11.599 Y-240.261
G0 Z21.500
(Begin step 1.)
G0 X-11.599 Y-240.261
(part 1)
G1 X-11.599 Y-240.261 Z17.500 F2500.000
G1 X56.799 Y-240.261 Z17.500 F2500.000
(End of step 1.)
G0 Z26.500
G0 X-11.537 Y-236.261
G0 Z21.500
(Begin step 2.)
G0 X-11.537 Y-236.261
(part 1)
G1 X-11.537 Y-236.261 Z17.500 F2500.000
G1 X56.737 Y-236.261 Z17.500 F2500.000
(End of step 2.)
G0 Z26.500
G0 X-11.476 Y-232.261
G0 Z21.500
(Begin step 3.)
G0 X-11.476 Y-232.261
(part 1)
G1 X-11.476 Y-232.261 Z17.500 F2500.000
G1 X56.676 Y-232.261 Z17.500 F2500.000
(End of step 3.)
G0 Z26.500
G0 X-11.414 Y-228.261
G0 Z21.500
(Begin step 4.)
G0 X-11.414 Y-228.261
(part 1)
G1 X-11.414 Y-228.261 Z17.500 F2500.000
G1 X56.614 Y-228.261 Z17.500 F2500.000
(End of step 4.)
G0 Z26.500
G0 X-11.353 Y-224.261
G0 Z21.500
(Begin step 5.)
G0 X-11.353 Y-224.261
(part 1)
G1 X-11.353 Y-224.261 Z17.500 F2500.000
G1 X56.553 Y-224.261 Z17.500 F2500.000
(End of step 5.)
G0 Z26.500
G0 X-11.291 Y-220.261
G0 Z21.500
(Begin step 6.)
G0 X-11.291 Y-220.261
(part 1)
G1 X-11.291 Y-220.261 Z17.500 F2500.000
G1 X56.491 Y-220.261 Z17.500 F2500.000
(End of step 6.)
G0 Z26.500
G0 X-11.229 Y-216.261
G0 Z21.500
(Begin step 7.)
G0 X-11.229 Y-216.261
(part 1)
G1 X-11.229 Y-216.261 Z17.500 F2500.000
G1 X56.429 Y-216.261 Z17.500 F2500.000
(End of step 7.)
G0 Z26.500
G0 X-11.168 Y-212.261
G0 Z21.500
(Begin step 8.)
G0 X-11.168 Y-212.261
(part 1)
G1 X-11.168 Y-212.261 Z17.500 F2500.000
G1 X56.368 Y-212.261 Z17.500 F2500.000
(End of step 8.)
G0 Z26.500
G0 X-11.106 Y-208.261
G0 Z21.500
(Begin step 9.)
G0 X-11.106 Y-208.261
(part 1)
G1 X-11.106 Y-208.261 Z17.500 F2500.000
G1 X56.306 Y-208.261 Z17.500 F2500.000
(End of step 9.)
G0 Z26.500
G0 X-11.045 Y-204.261
G0 Z21.500
(Begin step 10.)
G0 X-11.045 Y-204.261
(part 1)
G1 X-11.045 Y-204.261 Z17.500 F2500.000
G1 X56.245 Y-204.261 Z17.500 F2500.000
(End of step 10.)
G0 Z26.500
G0 X-10.983 Y-200.261
G0 Z21.500
(Begin step 11.)
G0 X-10.983 Y-200.261
(part 1)
G1 X-10.983 Y-200.261 Z17.500 F2500.000
G1 X56.183 Y-200.261 Z17.500 F2500.000
(End of step 11.)
G0 Z26.500
G0 X-10.922 Y-196.261
G0 Z21.500
(Begin step 12.)
G0 X-10.922 Y-196.261
(part 1)
G1 X-10.922 Y-196.261 Z17.500 F2500.000
G1 X56.122 Y-196.261 Z17.500 F2500.000
(End of step 12.)
G0 Z26.500
G0 X-10.860 Y-192.261
G0 Z21.500
(Begin step 13.)
G0 X-10.860 Y-192.261
(part 1)
G1 X-10.860 Y-192.261 Z17.500 F2500.000
G1 X56.060 Y-192.261 Z17.500 F2500.000
(End of step 13.)
G0 Z26.500
G0 X-10.799 Y-188.261
G0 Z21.500
(Begin step 14.)
G0 X-10.799 Y-188.261
(part 1)
G1 X-10.799 Y-188.261 Z17.500 F2500.000
G1 X55.999 Y-188.261 Z17.500 F2500.000
(End of step 14.)
G0 Z26.500
G0 X-10.737 Y-184.261
G0 Z21.500
(Begin step 15.)
G0 X-10.737 Y-184.261
(part 1)
G1 X-10.737 Y-184.261 Z17.500 F2500.000
G1 X55.937 Y-184.261 Z17.500 F2500.000
(End of step 15.)
G0 Z26.500
G0 X-10.676 Y-180.261
G0 Z21.500
(Begin step 16.)
G0 X-10.676 Y-180.261
(part 1)
G1 X-10.676 Y-180.261 Z17.500 F2500.000
G1 X55.876 Y-180.261 Z17.500 F2500.000
(End of step 16.)
G0 Z26.500
G0 X-10.614 Y-176.261
G0 Z21.500
(Begin step 17.)
G0 X-10.614 Y-176.261
(part 1)
G1 X-10.614 Y-176.261 Z17.500 F2500.000
G1 X55.814 Y-176.261 Z17.500 F2500.000
(End of step 17.)
G0 Z26.500
G0 X-10.553 Y-172.261
G0 Z21.500
(Begin step 18.)
G0 X-10.553 Y-172.261
(part 1)
G1 X-10.553 Y-172.261 Z17.500 F2500.000
G1 X55.753 Y-172.261 Z17.500 F2500.000
(End of step 18.)
G0 Z26.500
G0 X-10.491 Y-168.261
G0 Z21.500
(Begin step 19.)
G0 X-10.491 Y-168.261
(part 1)
G1 X-10.491 Y-168.261 Z17.500 F2500.000
G1 X55.691 Y-168.261 Z17.500 F2500.000
(End of step 19.)
G0 Z26.500
G0 X-10.430 Y-164.261
G0 Z21.500
(Begin step 20.)
G0 X-10.430 Y-164.261
(part 1)
G1 X-10.430 Y-164.261 Z17.500 F2500.000
G1 X55.630 Y-164.261 Z17.500 F2500.000
(End of step 20.)
G0 Z26.500
G0 X-10.368 Y-160.261
G0 Z21.500
(Begin step 21.)
G0 X-10.368 Y-160.261
(part 1)
G1 X-10.368 Y-160.261 Z17.500 F2500.000
G1 X55.568 Y-160.261 Z17.500 F2500.000
(End of step 21.)
G0 Z26.500
G0 X-10.307 Y-156.261
G0 Z21.500
(Begin step 22.)
G0 X-10.307 Y-156.261
(part 1)
G1 X-10.307 Y-156.261 Z17.500 F2500.000
G1 X55.507 Y-156.261 Z17.500 F2500.000
(End of step 22.)
G0 Z26.500
G0 X-10.245 Y-152.261
G0 Z21.500
(Begin step 23.)
G0 X-10.245 Y-152.261
(part 1)
G1 X-10.245 Y-152.261 Z17.500 F2500.000
G1 X55.445 Y-152.261 Z17.500 F2500.000
(End of step 23.)
G0 Z26.500
G0 X-10.183 Y-148.261
G0 Z21.500
(Begin step 24.)
G0 X-10.183 Y-148.261
(part 1)
G1 X-10.183 Y-148.261 Z17.500 F2500.000
G1 X55.383 Y-148.261 Z17.500 F2500.000
(End of step 24.)
G0 Z26.500
G0 X-10.122 Y-144.261
G0 Z21.500
(Begin step 25.)
G0 X-10.122 Y-144.261
(part 1)
G1 X-10.122 Y-144.261 Z17.500 F2500.000
G1 X55.322 Y-144.261 Z17.500 F2500.000
(End of step 25.)
G0 Z26.500
G0 X-10.060 Y-140.261
G0 Z21.500
(Begin step 26.)
G0 X-10.060 Y-140.261
(part 1)
G1 X-10.060 Y-140.261 Z17.500 F2500.000
G1 X55.260 Y-140.261 Z17.500 F2500.000
(End of step 26.)
G0 Z26.500
G0 X-9.999 Y-136.261
G0 Z21.500
(Begin step 27.)
G0 X-9.999 Y-136.261
(part 1)
G1 X-9.999 Y-136.261 Z17.500 F2500.000
G1 X55.199 Y-136.261 Z17.500 F2500.000
(End of step 27.)
G0 Z26.500
G0 X-9.937 Y-132.261
G0 Z21.500
(Begin step 28.)
G0 X-9.937 Y-132.261
(part 1)
G1 X-9.937 Y-132.261 Z17.500 F2500.000
G1 X55.137 Y-132.261 Z17.500 F2500.000
(End of step 28.)
G0 Z26.500
G0 X-9.876 Y-128.261
G0 Z21.500
(Begin step 29.)
G0 X-9.876 Y-128.261
(part 1)
G1 X-9.876 Y-128.261 Z17.500 F2500.000
G1 X55.076 Y-128.261 Z17.500 F2500.000
(End of step 29.)
G0 Z26.500
G0 X-9.814 Y-124.261
G0 Z21.500
(Begin step 30.)
G0 X-9.814 Y-124.261
(part 1)
G1 X-9.814 Y-124.261 Z17.500 F2500.000
G1 X55.014 Y-124.261 Z17.500 F2500.000
(End of step 30.)
G0 Z26.500
G0 X-9.753 Y-120.261
G0 Z21.500
(Begin step 31.)
G0 X-9.753 Y-120.261
(part 1)
G1 X-9.753 Y-120.261 Z17.500 F2500.000
G1 X54.953 Y-120.261 Z17.500 F2500.000
(End of step 31.)
G0 Z26.500
G0 X-9.691 Y-116.261
G0 Z21.500
(Begin step 32.)
G0 X-9.691 Y-116.261
(part 1)
G1 X-9.691 Y-116.261 Z17.500 F2500.000
G1 X54.891 Y-116.261 Z17.500 F2500.000
(End of step 32.)
G0 Z26.500
G0 X-9.630 Y-112.261
G0 Z21.500
(Begin step 33.)
G0 X-9.630 Y-112.261
(part 1)
G1 X-9.630 Y-112.261 Z17.500 F2500.000
G1 X54.830 Y-112.261 Z17.500 F2500.000
(End of step 33.)
G0 Z26.500
G0 X-9.568 Y-108.261
G0 Z21.500
(Begin step 34.)
G0 X-9.568 Y-108.261
(part 1)
G1 X-9.568 Y-108.261 Z17.500 F2500.000
G1 X54.768 Y-108.261 Z17.500 F2500.000
(End of step 34.)
G0 Z26.500
G0 X-9.507 Y-104.261
G0 Z21.500
(Begin step 35.)
G0 X-9.507 Y-104.261
(part 1)
G1 X-9.507 Y-104.261 Z17.500 F2500.000
G1 X54.707 Y-104.261 Z17.500 F2500.000
(End of step 35.)
G0 Z26.500
G0 X-9.445 Y-100.261
G0 Z21.500
(Begin step 36.)
G0 X-9.445 Y-100.261
(part 1)
G1 X-9.445 Y-100.261 Z17.500 F2500.000
G1 X54.645 Y-100.261 Z17.500 F2500.000
(End of step 36.)
G0 Z26.500
G0 X-9.384 Y-96.261
G0 Z21.500
(Begin step 37.)
G0 X-9.384 Y-96.261
(part 1)
G1 X-9.384 Y-96.261 Z17.500 F2500.000
G1 X54.584 Y-96.261 Z17.500 F2500.000
(End of step 37.)
G0 Z26.500
G0 X-9.322 Y-92.261
G0 Z21.500
(Begin step 38.)
G0 X-9.322 Y-92.261
(part 1)
G1 X-9.322 Y-92.261 Z17.500 F2500.000
G1 X54.522 Y-92.261 Z17.500 F2500.000
(End of step 38.)
G0 Z26.500
G0 X-9.260 Y-88.261
G0 Z21.500
(Begin step 39.)
G0 X-9.260 Y-88.261
(part 1)
G1 X-9.260 Y-88.261 Z17.500 F2500.000
G1 X54.460 Y-88.261 Z17.500 F2500.000
(End of step 39.)
G0 Z26.500
G0 X-9.199 Y-84.261
G0 Z21.500
(Begin step 40.)
G0 X-9.199 Y-84.261
(part 1)
G1 X-9.199 Y-84.261 Z17.500 F2500.000
G1 X54.399 Y-84.261 Z17.500 F2500.000
(End of step 40.)
G0 Z26.500
G0 X-9.137 Y-80.261
G0 Z21.500
(Begin step 41.)
G0 X-9.137 Y-80.261
(part 1)
G1 X-9.137 Y-80.261 Z17.500 F2500.000
G1 X54.337 Y-80.261 Z17.500 F2500.000
(End of step 41.)
G0 Z26.500
G0 X-9.076 Y-76.261
G0 Z21.500
(Begin step 42.)
G0 X-9.076 Y-76.261
(part 1)
G1 X-9.076 Y-76.261 Z17.500 F2500.000
G1 X54.276 Y-76.261 Z17.500 F2500.000
(End of step 42.)
G0 Z26.500
G0 X-9.014 Y-72.261
G0 Z21.500
(Begin step 43.)
G0 X-9.014 Y-72.261
(part 1)
G1 X-9.014 Y-72.261 Z17.500 F2500.000
G1 X54.214 Y-72.261 Z17.500 F2500.000
(End of step 43.)
G0 Z26.500
G0 X-8.953 Y-68.261
G0 Z21.500
(Begin step 44.)
G0 X-8.953 Y-68.261
(part 1)
G1 X-8.953 Y-68.261 Z17.500 F2500.000
G1 X54.153 Y-68.261 Z17.500 F2500.000
(End of step 44.)
G0 Z26.500
G0 X-8.891 Y-64.261
G0 Z21.500
(Begin step 45.)
G0 X-8.891 Y-64.261
(part 1)
G1 X-8.891 Y-64.261 Z17.500 F2500.000
G1 X54.091 Y-64.261 Z17.500 F2500.000
(End of step 45.)
G0 Z26.500
G0 X-8.830 Y-60.261
G0 Z21.500
(Begin step 46.)
G0 X-8.830 Y-60.261
(part 1)
G1 X-8.830 Y-60.261 Z17.500 F2500.000
G1 X54.030 Y-60.261 Z17.500 F2500.000
(End of step 46.)
G0 Z26.500
G0 X-8.768 Y-56.261
G0 Z21.500
(Begin step 47.)
G0 X-8.768 Y-56.261
(part 1)
G1 X-8.768 Y-56.261 Z17.500 F2500.000
G1 X53.968 Y-56.261 Z17.500 F2500.000
(End of step 47.)
G0 Z26.500
G0 X-8.707 Y-52.261
G0 Z21.500
(Begin step 48.)
G0 X-8.707 Y-52.261
(part 1)
G1 X-8.707 Y-52.261 Z17.500 F2500.000
G1 X53.907 Y-52.261 Z17.500 F2500.000
(End of step 48.)
G0 Z26.500
G0 X-8.645 Y-48.261
G0 Z21.500
(Begin step 49.)
G0 X-8.645 Y-48.261
(part 1)
G1 X-8.645 Y-48.261 Z17.500 F2500.000
G1 X53.845 Y-48.261 Z17.500 F2500.000
(End of step 49.)
G0 Z26.500
G0 X-8.584 Y-44.261
G0 Z21.500
(Begin step 50.)
G0 X-8.584 Y-44.261
(part 1)
G1 X-8.584 Y-44.261 Z17.500 F2500.000
G1 X53.784 Y-44.261 Z17.500 F2500.000
(End of step 50.)
G0 Z26.500
G0 X-8.522 Y-40.261
G0 Z21.500
(Begin step 51.)
G0 X-8.522 Y-40.261
(part 1)
G1 X-8.522 Y-40.261 Z17.500 F2500.000
G1 X53.722 Y-40.261 Z17.500 F2500.000
(End of step 51.)
G0 Z26.500
G0 X-8.461 Y-36.261
G0 Z21.500
(Begin step 52.)
G0 X-8.461 Y-36.261
(part 1)
G1 X-8.461 Y-36.261 Z17.500 F2500.000
G1 X53.661 Y-36.261 Z17.500 F2500.000
(End of step 52.)
G0 Z26.500
G0 X-8.399 Y-32.261
G0 Z21.500
(Begin step 53.)
G0 X-8.399 Y-32.261
(part 1)
G1 X-8.399 Y-32.261 Z17.500 F2500.000
G1 X53.599 Y-32.261 Z17.500 F2500.000
(End of step 53.)
G0 Z26.500
G0 X-8.337 Y-28.261
G0 Z21.500
(Begin step 54.)
G0 X-8.337 Y-28.261
(part 1)
G1 X-8.337 Y-28.261 Z17.500 F2500.000
G1 X53.537 Y-28.261 Z17.500 F2500.000
(End of step 54.)
G0 Z26.500
G0 X-8.276 Y-24.261
G0 Z21.500
(Begin step 55.)
G0 X-8.276 Y-24.261
(part 1)
G1 X-8.276 Y-24.261 Z17.500 F2500.000
G1 X53.476 Y-24.261 Z17.500 F2500.000
(End of step 55.)
G0 Z26.500
G0 X-8.214 Y-20.261
G0 Z21.500
(Begin step 56.)
G0 X-8.214 Y-20.261
(part 1)
G1 X-8.214 Y-20.261 Z17.500 F2500.000
G1 X53.414 Y-20.261 Z17.500 F2500.000
(End of step 56.)
G0 Z26.500
G0 X-8.153 Y-16.261
G0 Z21.500
(Begin step 57.)
G0 X-8.153 Y-16.261
(part 1)
G1 X-8.153 Y-16.261 Z17.500 F2500.000
G1 X53.353 Y-16.261 Z17.500 F2500.000
(End of step 57.)
G0 Z26.500
G0 X-8.091 Y-12.261
G0 Z21.500
(Begin step 58.)
G0 X-8.091 Y-12.261
(part 1)
G1 X-8.091 Y-12.261 Z17.500 F2500.000
G1 X53.291 Y-12.261 Z17.500 F2500.000
(End of step 58.)
G0 Z26.500
G0 X-8.030 Y-8.261
G0 Z21.500
(Begin step 59.)
G0 X-8.030 Y-8.261
(part 1)
G1 X-8.030 Y-8.261 Z17.500 F2500.000
G1 X53.230 Y-8.261 Z17.500 F2500.000
(End of step 59.)
G0 Z26.500
G0 X-7.968 Y-4.261
G0 Z21.500
(Begin step 60.)
G0 X-7.968 Y-4.261
(part 1)
G1 X-7.968 Y-4.261 Z17.500 F2500.000
G1 X53.168 Y-4.261 Z17.500 F2500.000
(End of step 60.)
G0 Z26.500
G0 X-7.907 Y-0.261
G0 Z21.500
(Begin step 61.)
G0 X-7.907 Y-0.261
(part 1)
G1 X-7.907 Y-0.261 Z17.500 F2500.000
G1 X53.107 Y-0.261 Z17.500 F2500.000
(End of step 61.)
G0 Z26.500
G0 X-5.332 Y3.739
G0 Z21.500
(Begin step 62.)
G0 X-5.332 Y3.739
(part 1)
G1 X-5.332 Y3.739 Z17.500 F2500.000
G1 X50.532 Y3.739 Z17.500 F2500.000
(End of step 62.)
(End of layer 2)
(Layer 3 begins)
(Layer transition)
G0 Z26.500
G0 X-9.032 Y-244.261
(Begin step 0.)
G0 X-9.032 Y-244.261
(part 1)
G1 X-9.032 Y-244.261 Z15.500 F2500.000
G1 X10.738 Y-244.261 Z15.500 F2500.000
G1 X11.726 Y-244.261 Z15.695 F2500.000
G1 X12.715 Y-244.261 Z15.927 F2500.000
G1 X13.703 Y-244.261 Z16.129 F2500.000
G1 X14.692 Y-244.261 Z16.302 F2500.000
G1 X15.681 Y-244.261 Z16.447 F2500.000
G1 X16.669 Y-244.261 Z16.566 F2500.000
G1 X17.658 Y-244.261 Z16.659 F2500.000
G1 X18.646 Y-244.261 Z16.728 F2500.000
G1 X19.635 Y-244.261 Z16.774 F2500.000
G1 X20.623 Y-244.261 Z16.797 F2500.000
G1 X21.612 Y-244.261 Z16.800 F2500.000
G1 X24.577 Y-244.261 Z16.797 F2500.000
G1 X25.566 Y-244.261 Z16.774 F2500.000
G1 X26.554 Y-244.261 Z16.728 F2500.000
G1 X27.543 Y-244.261 Z16.659 F2500.000
G1 X28.531 Y-244.261 Z16.566 F2500.000
G1 X29.520 Y-244.261 Z16.447 F2500.000
G1 X30.508 Y-244.261 Z16.302 F2500.000
G1 X31.497 Y-244.261 Z16.129 F2500.000
G1 X32.485 Y-244.261 Z15.927 F2500.000
G1 X33.474 Y-244.261 Z15.695 F2500.000
G1 X34.462 Y-244.261 Z15.500 F2500.000
G1 X54.232 Y-244.261 Z15.500 F2500.000
(End of step 0.)
G0 Z26.500
G0 X-11.599 Y-240.261
G0 Z19.500
(Begin step 1.)
G0 X-11.599 Y-240.261
(part 1)
G1 X-11.599 Y-240.261 Z15.500 F2500.000
G1 X8.227 Y-240.261 Z15.500 F2500.000
G1 X9.218 Y-240.261 Z15.710 F2500.000
G1 X10.209 Y-240.261 Z15.940 F2500.000
G1 X11.200 Y-240.261 Z16.141 F2500.000
G1 X12.192 Y-240.261 Z16.312 F2500.000
G1 X13.183 Y-240.261 Z16.456 F2500.000
G1 X14.174 Y-240.261 Z16.573 F2500.000
G1 X15.166 Y-240.261 Z16.665 F2500.000
G1 X16.157 Y-240.261 Z16.732 F2500.000
G1 X17.148 Y-240.261 Z16.776 F2500.000
G1 X18.139 Y-240.261 Z16.797 F2500.000
G1 X19.131 Y-240.261 Z16.800 F2500.000
G1 X27.061 Y-240.261 Z16.797 F2500.000
G1 X28.052 Y-240.261 Z16.776 F2500.000
G1 X29.043 Y-240.261 Z16.733 F2500.000
G1 X30.034 Y-240.261 Z16.665 F2500.000
G1 X31.026 Y-240.261 Z16.573 F2500.000
G1 X32.017 Y-240.261 Z16.456 F2500.000
G1 X33.008 Y-240.261 Z16.312 F2500.000
G1 X34.000 Y-240.261 Z16.141 F2500.000
G1 X34.991 Y-240.261 Z15.940 F2500.000
G1 X35.982 Y-240.261 Z15.710 F2500.000
G1 X36.973 Y-240.261 Z15.500 F2500.000
G1 X56.799 Y-240.261 Z15.500 F2500.000
(End of step 1.)
G0 Z26.500
G0 X-11.537 Y-236.261
G0 Z19.500
(Begin step 2.)
G0 X-11.537 Y-236.261
(part 1)
G1 X-11.537 Y-236.261 Z15.500 F2500.000
G1 X8.253 Y-236.261 Z15.500 F2500.000
G1 X9.242 Y-236.261 Z15.674 F2500.000
G1 X10.231 Y-236.261 Z15.905 F2500.000
G1 X11.221 Y-236.261 Z16.105 F2500.000
G1 X12.210 Y-236.261 Z16.276 F2500.000
G1 X13.200 Y-236.261 Z16.422 F2500.000
G1 X14.189 Y-236.261 Z16.539 F2500.000
G1 X15.179 Y-236.261 Z16.631 F2500.000
G1 X16.168 Y-236.261 Z16.699 F2500.000
G1 X17.158 Y-236.261 Z16.745 F2500.000
G1 X18.147 Y-236.261 Z16.771 F2500.000
G1 X19.137 Y-236.261 Z16.784 F2500.000
G1 X20.126 Y-236.261 Z16.791 F2500.000
G1 X22.105 Y-236.261 Z16.797 F2500.000
G1 X25.074 Y-236.261 Z16.791 F2500.000
G1 X26.063 Y-236.261 Z16.784 F2500.000
G1 X27.053 Y-236.261 Z16.771 F2500.000
G1 X28.042 Y-236.261 Z16.745 F2500.000
G1 X29.032 Y-236.261 Z16.699 F2500.000
G1 X30.021 Y-236.261 Z16.631 F2500.000
G1 X31.011 Y-236.261 Z16.539 F2500.000
G1 X32.000 Y-236.261 Z16.422 F2500.000
G1 X32.990 Y-236.261 Z16.276 F2500.000
G1 X33.979 Y-236.261 Z16.105 F2500.000
G1 X34.969 Y-236.261 Z15.904 F2500.000
G1 X35.958 Y-236.261 Z15.674 F2500.000
G1 X36.947 Y-236.261 Z15.500 F2500.000
G1 X56.737 Y-236.261 Z15.500 F2500.000
(End of step 2.)
G0 Z26.500
G0 X-11.476 Y-232.261
G0 Z19.500
(Begin step 3.)
G0 X-11.476 Y-232.261
(part 1)
G1 X-11.476 Y-232.261 Z15.500 F2500.000
G1 X8.278 Y-232.261 Z15.500 F2500.000
G1 X9.266 Y-232.261 Z15.639 F2500.000
G1 X10.254 Y-232.261 Z15.869 F2500.000
G1 X11.241 Y-232.261 Z16.070 F2500.000
G1 X12.229 Y-232.261 Z16.243 F2500.000
G1 X13.217 Y-232.261 Z16.387 F2500.000
G1 X14.205 Y-232.261 Z16.505 F2500.000
G1 X15.192 Y-232.261 Z16.598 F2500.000
G1 X16.180 Y-232.261 Z16.666 F2500.000
G1 X17.168 Y-232.261 Z16.711 F2500.000
G1 X18.155 Y-232.261 Z16.737 F2500.000
G1 X19.143 Y-232.261 Z16.750 F2500.000
G1 X20.131 Y-232.261 Z16.758 F2500.000
G1 X23.094 Y-232.261 Z16.764 F2500.000
G1 X25.069 Y-232.261 Z16.758 F2500.000
G1 X26.057 Y-232.261 Z16.751 F2500.000
G1 X27.045 Y-232.261 Z16.738 F2500.000
G1 X28.032 Y-232.261 Z16.712 F2500.000
G1 X29.020 Y-232.261 Z16.666 F2500.000
G1 X30.008 Y-232.261 Z16.598 F2500.000
G1 X30.995 Y-232.261 Z16.505 F2500.000
G1 X31.983 Y-232.261 Z16.387 F2500.000
G1 X32.971 Y-232.261 Z16.243 F2500.000
G1 X33.959 Y-232.261 Z16.071 F2500.000
G1 X34.946 Y-232.261 Z15.870 F2500.000
G1 X35.934 Y-232.261 Z15.638 F2500.000
G1 X36.922 Y-232.261 Z15.500 F2500.000
G1 X56.676 Y-232.261 Z15.500 F2500.000
(End of step 3.)
G0 Z26.500
G0 X-11.414 Y-228.261
G0 Z19.500
(Begin step 4.)
G0 X-11.414 Y-228.261
(part 1)
G1 X-11.414 Y-228.261 Z15.500 F2500.000
G1 X8.304 Y-228.261 Z15.500 F2500.000
G1 X9.290 Y-228.261 Z15.603 F2500.000
G1 X10.276 Y-228.261 Z15.834 F2500.000
G1 X11.262 Y-228.261 Z16.035 F2500.000
G1 X12.248 Y-228.261 Z16.207 F2500.000
G1 X13.234 Y-228.261 Z16.353 F2500.000
G1 X14.220 Y-228.261 Z16.470 F2500.000
G1 X15.206 Y-228.261 Z16.564 F2500.000
G1 X16.192 Y-228.261 Z16.633 F2500.000
G1 X17.177 Y-228.261 Z16.679 F2500.000
G1 X18.163 Y-228.261 Z16.704 F2500.000
G1 X19.149 Y-228.261 Z16.717 F2500.000
G1 X20.135 Y-228.261 Z16.724 F2500.000
G1 X23.093 Y-228.261 Z16.731 F2500.000
G1 X25.065 Y-228.261 Z16.725 F2500.000
G1 X27.037 Y-228.261 Z16.705 F2500.000
G1 X28.023 Y-228.261 Z16.679 F2500.000
G1 X29.008 Y-228.261 Z16.633 F2500.000
G1 X29.994 Y-228.261 Z16.565 F2500.000
G1 X30.980 Y-228.261 Z16.471 F2500.000
G1 X31.966 Y-228.261 Z16.353 F2500.000
G1 X32.952 Y-228.261 Z16.208 F2500.000
G1 X33.938 Y-228.261 Z16.035 F2500.000
G1 X34.924 Y-228.261 Z15.835 F2500.000
G1 X35.910 Y-228.261 Z15.603 F2500.000
G1 X36.896 Y-228.261 Z15.500 F2500.000
G1 X56.614 Y-228.261 Z15.500 F2500.000
(End of step 4.)
G0 Z26.500
G0 X-11.353 Y-224.261
G0 Z19.500
(Begin step 5.)
G0 X-11.353 Y-224.261
(part 1)
G1 X-11.353 Y-224.261 Z15.500 F2500.000
G1 X8.620 Y-224.261 Z15.500 F2500.000
G1 X9.618 Y-224.261 Z15.642 F2500.000
G1 X10.617 Y-224.261 Z15.868 F2500.000
G1 X11.615 Y-224.261 Z16.061 F2500.000
G1 X12.614 Y-224.261 Z16.228 F2500.000
G1 X13.613 Y-224.261 Z16.365 F2500.000
G1 X14.611 Y-224.261 Z16.475 F2500.000
G1 X15.610 Y-224.261 Z16.561 F2500.000
G1 X16.608 Y-224.261 Z16.621 F2500.000
G1 X17.607 Y-224.261 Z16.658 F2500.000
G1 X18.606 Y-224.261 Z16.677 F2500.000
G1 X19.604 Y-224.261 Z16.687 F2500.000
G1 X20.603 Y-224.261 Z16.693 F2500.000
G1 X22.600 Y-224.261 Z16.698 F2500.000
G1 X24.597 Y-224.261 Z16.694 F2500.000
G1 X25.596 Y-224.261 Z16.687 F2500.000
G1 X26.594 Y-224.261 Z16.677 F2500.000
G1 X27.593 Y-224.261 Z16.658 F2500.000
G1 X28.592 Y-224.261 Z16.621 F2500.000
G1 X29.590 Y-224.261 Z16.561 F2500.000
G1 X30.589 Y-224.261 Z16.476 F2500.000
G1 X31.587 Y-224.261 Z16.365 F2500.000
G1 X32.586 Y-224.261 Z16.228 F2500.000
G1 X33.585 Y-224.261 Z16.061 F2500.000
G1 X34.583 Y-224.261 Z15.868 F2500.000
G1 X35.582 Y-224.261 Z15.642 F2500.000
G1 X36.580 Y-224.261 Z15.500 F2500.000
G1 X56.553 Y-224.261 Z15.500 F2500.000
(End of step 5.)
G0 Z26.500
G0 X-11.291 Y-220.261
G0 Z19.500
(Begin step 6.)
G0 X-11.291 Y-220.261
(part 1)
G1 X-11.291 Y-220.261 Z15.500 F2500.000
G1 X8.645 Y-220.261 Z15.500 F2500.000
G1 X9.642 Y-220.261 Z15.608 F2500.000
G1 X10.638 Y-220.261 Z15.833 F2500.000
G1 X11.635 Y-220.261 Z16.028 F2500.000
G1 X12.632 Y-220.261 Z16.194 F2500.000
G1 X13.629 Y-220.261 Z16.332 F2500.000
G1 X14.626 Y-220.261 Z16.442 F2500.000
G1 X15.622 Y-220.261 Z16.528 F2500.000
G1 X16.619 Y-220.261 Z16.587 F2500.000
G1 X17.616 Y-220.261 Z16.625 F2500.000
G1 X18.613 Y-220.261 Z16.645 F2500.000
G1 X19.610 Y-220.261 Z16.655 F2500.000
G1 X20.606 Y-220.261 Z16.661 F2500.000
G1 X22.600 Y-220.261 Z16.665 F2500.000
G1 X25.590 Y-220.261 Z16.655 F2500.000
G1 X26.587 Y-220.261 Z16.644 F2500.000
G1 X27.584 Y-220.261 Z16.626 F2500.000
G1 X28.581 Y-220.261 Z16.587 F2500.000
G1 X29.578 Y-220.261 Z16.528 F2500.000
G1 X30.574 Y-220.261 Z16.443 F2500.000
G1 X31.571 Y-220.261 Z16.332 F2500.000
G1 X32.568 Y-220.261 Z16.194 F2500.000
G1 X33.565 Y-220.261 Z16.028 F2500.000
G1 X34.562 Y-220.261 Z15.833 F2500.000
G1 X35.558 Y-220.261 Z15.607 F2500.000
G1 X36.555 Y-220.261 Z15.500 F2500.000
G1 X56.491 Y-220.261 Z15.500 F2500.000
(End of step 6.)
G0 Z26.500
G0 X-11.229 Y-216.261
G0 Z19.500
(Begin step 7.)
G0 X-11.229 Y-216.261
(part 1)
G1 X-11.229 Y-216.261 Z15.500 F2500.000
G1 X8.670 Y-216.261 Z15.500 F2500.000
G1 X9.665 Y-216.261 Z15.572 F2500.000
G1 X10.660 Y-216.261 Z15.798 F2500.000
G1 X11.655 Y-216.261 Z15.993 F2500.000
G1 X12.650 Y-216.261 Z16.159 F2500.000
G1 X13.645 Y-216.261 Z16.296 F2500.000
G1 X14.640 Y-216.261 Z16.409 F2500.000
G1 X15.635 Y-216.261 Z16.494 F2500.000
G1 X16.630 Y-216.261 Z16.555 F2500.000
G1 X17.625 Y-216.261 Z16.592 F2500.000
G1 X18.620 Y-216.261 Z16.611 F2500.000
G1 X19.615 Y-216.261 Z16.621 F2500.000
G1 X20.610 Y-216.261 Z16.627 F2500.000
G1 X22.600 Y-216.261 Z16.631 F2500.000
G1 X25.585 Y-216.261 Z16.621 F2500.000
G1 X26.580 Y-216.261 Z16.611 F2500.000
G1 X27.575 Y-216.261 Z16.592 F2500.000
G1 X28.570 Y-216.261 Z16.555 F2500.000
G1 X29.565 Y-216.261 Z16.494 F2500.000
G1 X30.560 Y-216.261 Z16.409 F2500.000
G1 X31.555 Y-216.261 Z16.298 F2500.000
G1 X32.550 Y-216.261 Z16.158 F2500.000
G1 X33.545 Y-216.261 Z15.992 F2500.000
G1 X34.540 Y-216.261 Z15.797 F2500.000
G1 X35.535 Y-216.261 Z15.572 F2500.000
G1 X36.530 Y-216.261 Z15.500 F2500.000
G1 X56.429 Y-216.261 Z15.500 F2500.000
(End of step 7.)
G0 Z26.500
G0 X-11.168 Y-212.261
G0 Z19.500
(Begin step 8.)
G0 X-11.168 Y-212.261
(part 1)
G1 X-11.168 Y-212.261 Z15.500 F2500.000
G1 X8.696 Y-212.261 Z15.500 F2500.000
G1 X9.689 Y-212.261 Z15.536 F2500.000
G1 X10.682 Y-212.261 Z15.762 F2500.000
G1 X11.675 Y-212.261 Z15.958 F2500.000
G1 X12.668 Y-212.261 Z16.125 F2500.000
G1 X13.661 Y-212.261 Z16.263 F2500.000
G1 X14.655 Y-212.261 Z16.375 F2500.000
G1 X15.648 Y-212.261 Z16.460 F2500.000
G1 X16.641 Y-212.261 Z16.521 F2500.000
G1 X17.634 Y-212.261 Z16.559 F2500.000
G1 X18.627 Y-212.261 Z16.579 F2500.000
G1 X20.614 Y-212.261 Z16.593 F2500.000
G1 X22.600 Y-212.261 Z16.598 F2500.000
G1 X24.586 Y-212.261 Z16.594 F2500.000
G1 X25.580 Y-212.261 Z16.588 F2500.000
G1 X26.573 Y-212.261 Z16.579 F2500.000
G1 X27.566 Y-212.261 Z16.559 F2500.000
G1 X28.559 Y-212.261 Z16.521 F2500.000
G1 X29.552 Y-212.261 Z16.460 F2500.000
G1 X30.545 Y-212.261 Z16.374 F2500.000
G1 X31.539 Y-212.261 Z16.263 F2500.000
G1 X32.532 Y-212.261 Z16.125 F2500.000
G1 X33.525 Y-212.261 Z15.958 F2500.000
G1 X34.518 Y-212.261 Z15.762 F2500.000
G1 X35.511 Y-212.261 Z15.536 F2500.000
G1 X36.504 Y-212.261 Z15.500 F2500.000
G1 X56.368 Y-212.261 Z15.500 F2500.000
(End of step 8.)
G0 Z26.500
G0 X-11.106 Y-208.261
G0 Z19.500
(Begin step 9.)
G0 X-11.106 Y-208.261
(part 1)
G1 X-11.106 Y-208.261 Z15.500 F2500.000
G1 X9.712 Y-208.261 Z15.502 F2500.000
G1 X10.704 Y-208.261 Z15.727 F2500.000
G1 X11.695 Y-208.261 Z15.923 F2500.000
G1 X12.686 Y-208.261 Z16.091 F2500.000
G1 X13.678 Y-208.261 Z16.229 F2500.000
G1 X14.669 Y-208.261 Z16.341 F2500.000
G1 X15.660 Y-208.261 Z16.425 F2500.000
G1 X16.652 Y-208.261 Z16.488 F2500.000
G1 X17.643 Y-208.261 Z16.526 F2500.000
G1 X18.635 Y-208.261 Z16.545 F2500.000
G1 X19.626 Y-208.261 Z16.555 F2500.000
G1 X20.617 Y-208.261 Z16.561 F2500.000
G1 X22.600 Y-208.261 Z16.565 F2500.000
G1 X24.583 Y-208.261 Z16.560 F2500.000
G1 X26.565 Y-208.261 Z16.545 F2500.000
G1 X27.557 Y-208.261 Z16.525 F2500.000
G1 X28.548 Y-208.261 Z16.488 F2500.000
G1 X29.540 Y-208.261 Z16.426 F2500.000
G1 X30.531 Y-208.261 Z16.341 F2500.000
G1 X31.522 Y-208.261 Z16.229 F2500.000
G1 X32.514 Y-208.261 Z16.090 F2500.000
G1 X33.505 Y-208.261 Z15.923 F2500.000
G1 X34.496 Y-208.261 Z15.726 F2500.000
G1 X35.488 Y-208.261 Z15.502 F2500.000
G1 X56.306 Y-208.261 Z15.500 F2500.000
(End of step 9.)
G0 Z26.500
G0 X-11.045 Y-204.261
G0 Z19.500
(Begin step 10.)
G0 X-11.045 Y-204.261
(part 1)
G1 X-11.045 Y-204.261 Z15.500 F2500.000
G1 X9.736 Y-204.261 Z15.500 F2500.000
G1 X11.715 Y-204.261 Z15.888 F2500.000
G1 X12.704 Y-204.261 Z16.056 F2500.000
G1 X13.694 Y-204.261 Z16.195 F2500.000
G1 X14.684 Y-204.261 Z16.308 F2500.000
G1 X15.673 Y-204.261 Z16.394 F2500.000
G1 X16.663 Y-204.261 Z16.454 F2500.000
G1 X17.652 Y-204.261 Z16.493 F2500.000
G1 X18.642 Y-204.261 Z16.512 F2500.000
G1 X19.631 Y-204.261 Z16.522 F2500.000
G1 X22.600 Y-204.261 Z16.530 F2500.000
G1 X23.590 Y-204.261 Z16.530 F2500.000
G1 X25.569 Y-204.261 Z16.522 F2500.000
G1 X26.558 Y-204.261 Z16.511 F2500.000
G1 X27.548 Y-204.261 Z16.492 F2500.000
G1 X28.537 Y-204.261 Z16.455 F2500.000
G1 X29.527 Y-204.261 Z16.394 F2500.000
G1 X30.516 Y-204.261 Z16.307 F2500.000
G1 X31.506 Y-204.261 Z16.195 F2500.000
G1 X32.496 Y-204.261 Z16.055 F2500.000
G1 X33.485 Y-204.261 Z15.889 F2500.000
G1 X35.464 Y-204.261 Z15.500 F2500.000
G1 X56.245 Y-204.261 Z15.500 F2500.000
(End of step 10.)
G0 Z26.500
G0 X-10.983 Y-200.261
G0 Z19.500
(Begin step 11.)
G0 X-10.983 Y-200.261
(part 1)
G1 X-10.983 Y-200.261 Z15.500 F2500.000
G1 X9.759 Y-200.261 Z15.500 F2500.000
G1 X10.747 Y-200.261 Z15.658 F2500.000
G1 X11.735 Y-200.261 Z15.853 F2500.000
G1 X12.723 Y-200.261 Z16.022 F2500.000
G1 X13.710 Y-200.261 Z16.161 F2500.000
G1 X14.698 Y-200.261 Z16.273 F2500.000
G1 X15.686 Y-200.261 Z16.360 F2500.000
G1 X16.674 Y-200.261 Z16.421 F2500.000
G1 X17.661 Y-200.261 Z16.459 F2500.000
G1 X18.649 Y-200.261 Z16.478 F2500.000
G1 X19.637 Y-200.261 Z16.487 F2500.000
G1 X20.625 Y-200.261 Z16.494 F2500.000
G1 X22.600 Y-200.261 Z16.498 F2500.000
G1 X24.575 Y-200.261 Z16.495 F2500.000
G1 X25.563 Y-200.261 Z16.488 F2500.000
G1 X26.551 Y-200.261 Z16.477 F2500.000
G1 X27.539 Y-200.261 Z16.460 F2500.000
G1 X28.526 Y-200.261 Z16.421 F2500.000
G1 X29.514 Y-200.261 Z16.361 F2500.000
G1 X30.502 Y-200.261 Z16.273 F2500.000
G1 X31.490 Y-200.261 Z16.162 F2500.000
G1 X32.477 Y-200.261 Z16.022 F2500.000
G1 X33.465 Y-200.261 Z15.854 F2500.000
G1 X34.453 Y-200.261 Z15.657 F2500.000
G1 X35.441 Y-200.261 Z15.500 F2500.000
G1 X56.183 Y-200.261 Z15.500 F2500.000
(End of step 11.)
G0 Z26.500
G0 X-10.922 Y-196.261
G0 Z19.500
(Begin step 12.)
G0 X-10.922 Y-196.261
(part 1)
G1 X-10.922 Y-196.261 Z15.500 F2500.000
G1 X9.783 Y-196.261 Z15.500 F2500.000
G1 X10.769 Y-196.261 Z15.622 F2500.000
G1 X11.755 Y-196.261 Z15.820 F2500.000
G1 X12.741 Y-196.261 Z15.987 F2500.000
G1 X13.727 Y-196.261 Z16.126 F2500.000
G1 X14.713 Y-196.261 Z16.241 F2500.000
G1 X15.698 Y-196.261 Z16.327 F2500.000
G1 X16.684 Y-196.261 Z16.389 F2500.000
G1 X17.670 Y-196.261 Z16.426 F2500.000
G1 X18.656 Y-196.261 Z16.446 F2500.000
G1 X19.642 Y-196.261 Z16.456 F2500.000
G1 X22.600 Y-196.261 Z16.465 F2500.000
G1 X25.558 Y-196.261 Z16.455 F2500.000
G1 X26.544 Y-196.261 Z16.446 F2500.000
G1 X27.530 Y-196.261 Z16.426 F2500.000
G1 X28.516 Y-196.261 Z16.388 F2500.000
G1 X29.502 Y-196.261 Z16.327 F2500.000
G1 X30.487 Y-196.261 Z16.239 F2500.000
G1 X31.473 Y-196.261 Z16.126 F2500.000
G1 X32.459 Y-196.261 Z15.987 F2500.000
G1 X33.445 Y-196.261 Z15.819 F2500.000
G1 X34.431 Y-196.261 Z15.622 F2500.000
G1 X35.417 Y-196.261 Z15.500 F2500.000
G1 X56.122 Y-196.261 Z15.500 F2500.000
(End of step 12.)
G0 Z26.500
G0 X-10.860 Y-192.261
G0 Z19.500
(Begin step 13.)
G0 X-10.860 Y-192.261
(part 1)
G1 X-10.860 Y-192.261 Z15.500 F2500.000
G1 X10.115 Y-192.261 Z15.500 F2500.000
G1 X11.114 Y-192.261 Z15.655 F2500.000
G1 X12.112 Y-192.261 Z15.845 F2500.000
G1 X13.111 Y-192.261 Z16.007 F2500.000
G1 X14.110 Y-192.261 Z16.139 F2500.000
G1 X15.109 Y-192.261 Z16.244 F2500.000
G1 X16.108 Y-192.261 Z16.321 F2500.000
G1 X17.107 Y-192.261 Z16.373 F2500.000
G1 X18.105 Y-192.261 Z16.403 F2500.000
G1 X19.104 Y-192.261 Z16.417 F2500.000
G1 X20.103 Y-192.261 Z16.425 F2500.000
G1 X22.101 Y-192.261 Z16.432 F2500.000
G1 X25.097 Y-192.261 Z16.425 F2500.000
G1 X26.096 Y-192.261 Z16.418 F2500.000
G1 X27.095 Y-192.261 Z16.403 F2500.000
G1 X28.093 Y-192.261 Z16.373 F2500.000
G1 X29.092 Y-192.261 Z16.322 F2500.000
G1 X30.091 Y-192.261 Z16.244 F2500.000
G1 X31.090 Y-192.261 Z16.139 F2500.000
G1 X32.089 Y-192.261 Z16.007 F2500.000
G1 X33.088 Y-192.261 Z15.846 F2500.000
G1 X34.086 Y-192.261 Z15.657 F2500.000
G1 X35.085 Y-192.261 Z15.500 F2500.000
G1 X56.060 Y-192.261 Z15.500 F2500.000
(End of step 13.)
G0 Z26.500
G0 X-10.799 Y-188.261
G0 Z19.500
(Begin step 14.)
G0 X-10.799 Y-188.261
(part 1)
G1 X-10.799 Y-188.261 Z15.500 F2500.000
G1 X10.138 Y-188.261 Z15.500 F2500.000
G1 X11.135 Y-188.261 Z15.621 F2500.000
G1 X12.132 Y-188.261 Z15.811 F2500.000
G1 X13.129 Y-188.261 Z15.972 F2500.000
G1 X14.126 Y-188.261 Z16.105 F2500.000
G1 X15.123 Y-188.261 Z16.210 F2500.000
G1 X16.120 Y-188.261 Z16.287 F2500.000
G1 X17.117 Y-188.261 Z16.340 F2500.000
G1 X18.114 Y-188.261 Z16.370 F2500.000
G1 X19.111 Y-188.261 Z16.384 F2500.000
G1 X20.108 Y-188.261 Z16.392 F2500.000
G1 X22.102 Y-188.261 Z16.398 F2500.000
G1 X25.092 Y-188.261 Z16.392 F2500.000
G1 X26.089 Y-188.261 Z16.384 F2500.000
G1 X27.086 Y-188.261 Z16.369 F2500.000
G1 X28.083 Y-188.261 Z16.340 F2500.000
G1 X29.080 Y-188.261 Z16.288 F2500.000
G1 X30.077 Y-188.261 Z16.209 F2500.000
G1 X31.074 Y-188.261 Z16.105 F2500.000
G1 X32.071 Y-188.261 Z15.973 F2500.000
G1 X33.068 Y-188.261 Z15.812 F2500.000
G1 X34.065 Y-188.261 Z15.621 F2500.000
G1 X35.062 Y-188.261 Z15.500 F2500.000
G1 X55.999 Y-188.261 Z15.500 F2500.000
(End of step 14.)
G0 Z26.500
G0 X-10.737 Y-184.261
G0 Z19.500
(Begin step 15.)
G0 X-10.737 Y-184.261
(part 1)
G1 X-10.737 Y-184.261 Z15.500 F2500.000
G1 X10.161 Y-184.261 Z15.500 F2500.000
G1 X11.156 Y-184.261 Z15.587 F2500.000
G1 X12.151 Y-184.261 Z15.777 F2500.000
G1 X13.146 Y-184.261 Z15.938 F2500.000
G1 X14.141 Y-184.261 Z16.071 F2500.000
G1 X15.136 Y-184.261 Z16.176 F2500.000
G1 X16.132 Y-184.261 Z16.255 F2500.000
G1 X17.127 Y-184.261 Z16.308 F2500.000
G1 X18.122 Y-184.261 Z16.337 F2500.000
G1 X19.117 Y-184.261 Z16.351 F2500.000
G1 X20.112 Y-184.261 Z16.359 F2500.000
G1 X23.098 Y-184.261 Z16.365 F2500.000
G1 X25.088 Y-184.261 Z16.358 F2500.000
G1 X26.083 Y-184.261 Z16.351 F2500.000
G1 X27.078 Y-184.261 Z16.336 F2500.000
G1 X28.073 Y-184.261 Z16.307 F2500.000
G1 X29.068 Y-184.261 Z16.255 F2500.000
G1 X30.064 Y-184.261 Z16.176 F2500.000
G1 X31.059 Y-184.261 Z16.071 F2500.000
G1 X32.054 Y-184.261 Z15.939 F2500.000
G1 X33.049 Y-184.261 Z15.778 F2500.000
G1 X34.044 Y-184.261 Z15.587 F2500.000
G1 X35.039 Y-184.261 Z15.500 F2500.000
G1 X55.937 Y-184.261 Z15.500 F2500.000
(End of step 15.)
G0 Z26.500
G0 X-10.676 Y-180.261
G0 Z19.500
(Begin step 16.)
G0 X-10.676 Y-180.261
(part 1)
G1 X-10.676 Y-180.261 Z15.500 F2500.000
G1 X10.184 Y-180.261 Z15.500 F2500.000
G1 X11.177 Y-180.261 Z15.553 F2500.000
G1 X12.170 Y-180.261 Z15.744 F2500.000
G1 X13.164 Y-180.261 Z15.904 F2500.000
G1 X14.157 Y-180.261 Z16.037 F2500.000
G1 X15.150 Y-180.261 Z16.143 F2500.000
G1 X16.144 Y-180.261 Z16.221 F2500.000
G1 X17.137 Y-180.261 Z16.274 F2500.000
G1 X18.130 Y-180.261 Z16.304 F2500.000
G1 X19.123 Y-180.261 Z16.318 F2500.000
G1 X20.117 Y-180.261 Z16.326 F2500.000
G1 X22.103 Y-180.261 Z16.331 F2500.000
G1 X25.083 Y-180.261 Z16.325 F2500.000
G1 X26.077 Y-180.261 Z16.318 F2500.000
G1 X27.070 Y-180.261 Z16.303 F2500.000
G1 X28.063 Y-180.261 Z16.273 F2500.000
G1 X29.056 Y-180.261 Z16.222 F2500.000
G1 X30.050 Y-180.261 Z16.143 F2500.000
G1 X31.043 Y-180.261 Z16.037 F2500.000
G1 X32.036 Y-180.261 Z15.905 F2500.000
G1 X33.030 Y-180.261 Z15.743 F2500.000
G1 X34.023 Y-180.261 Z15.553 F2500.000
G1 X35.016 Y-180.261 Z15.500 F2500.000
G1 X55.876 Y-180.261 Z15.500 F2500.000
(End of step 16.)
G0 Z26.500
G0 X-10.614 Y-176.261
G0 Z19.500
(Begin step 17.)
G0 X-10.614 Y-176.261
(part 1)
G1 X-10.614 Y-176.261 Z15.500 F2500.000
G1 X10.207 Y-176.261 Z15.500 F2500.000
G1 X11.198 Y-176.261 Z15.518 F2500.000
G1 X12.190 Y-176.261 Z15.709 F2500.000
G1 X13.181 Y-176.261 Z15.869 F2500.000
G1 X14.173 Y-176.261 Z16.004 F2500.000
G1 X15.164 Y-176.261 Z16.110 F2500.000
G1 X16.155 Y-176.261 Z16.188 F2500.000
G1 X17.147 Y-176.261 Z16.241 F2500.000
G1 X18.138 Y-176.261 Z16.270 F2500.000
G1 X19.130 Y-176.261 Z16.285 F2500.000
G1 X20.121 Y-176.261 Z16.292 F2500.000
G1 X23.096 Y-176.261 Z16.299 F2500.000
G1 X25.079 Y-176.261 Z16.292 F2500.000
G1 X27.062 Y-176.261 Z16.271 F2500.000
G1 X28.053 Y-176.261 Z16.241 F2500.000
G1 X29.045 Y-176.261 Z16.188 F2500.000
G1 X30.036 Y-176.261 Z16.110 F2500.000
G1 X31.027 Y-176.261 Z16.004 F2500.000
G1 X32.019 Y-176.261 Z15.871 F2500.000
G1 X33.010 Y-176.261 Z15.709 F2500.000
G1 X34.002 Y-176.261 Z15.518 F2500.000
G1 X34.993 Y-176.261 Z15.500 F2500.000
G1 X55.814 Y-176.261 Z15.500 F2500.000
(End of step 17.)
G0 Z26.500
G0 X-10.553 Y-172.261
G0 Z19.500
(Begin step 18.)
G0 X-10.553 Y-172.261
(part 1)
G1 X-10.553 Y-172.261 Z15.500 F2500.000
G1 X11.219 Y-172.261 Z15.500 F2500.000
G1 X12.209 Y-172.261 Z15.675 F2500.000
G1 X13.199 Y-172.261 Z15.836 F2500.000
G1 X14.188 Y-172.261 Z15.970 F2500.000
G1 X15.178 Y-172.261 Z16.076 F2500.000
G1 X16.167 Y-172.261 Z16.155 F2500.000
G1 X17.157 Y-172.261 Z16.208 F2500.000
G1 X18.147 Y-172.261 Z16.238 F2500.000
G1 X19.136 Y-172.261 Z16.251 F2500.000
G1 X20.126 Y-172.261 Z16.259 F2500.000
G1 X23.095 Y-172.261 Z16.265 F2500.000
G1 X25.074 Y-172.261 Z16.259 F2500.000
G1 X26.064 Y-172.261 Z16.251 F2500.000
G1 X27.053 Y-172.261 Z16.237 F2500.000
G1 X28.043 Y-172.261 Z16.208 F2500.000
G1 X29.033 Y-172.261 Z16.154 F2500.000
G1 X30.022 Y-172.261 Z16.076 F2500.000
G1 X31.012 Y-172.261 Z15.971 F2500.000
G1 X32.001 Y-172.261 Z15.837 F2500.000
G1 X32.991 Y-172.261 Z15.675 F2500.000
G1 X33.981 Y-172.261 Z15.500 F2500.000
G1 X55.753 Y-172.261 Z15.500 F2500.000
(End of step 18.)
G0 Z26.500
G0 X-10.491 Y-168.261
G0 Z19.500
(Begin step 19.)
G0 X-10.491 Y-168.261
(part 1)
G1 X-10.491 Y-168.261 Z15.500 F2500.000
G1 X11.240 Y-168.261 Z15.500 F2500.000
G1 X12.228 Y-168.261 Z15.640 F2500.000
G1 X13.216 Y-168.261 Z15.803 F2500.000
G1 X14.204 Y-168.261 Z15.937 F2500.000
G1 X15.192 Y-168.261 Z16.042 F2500.000
G1 X16.179 Y-168.261 Z16.122 F2500.000
G1 X17.167 Y-168.261 Z16.175 F2500.000
G1 X18.155 Y-168.261 Z16.203 F2500.000
G1 X20.131 Y-168.261 Z16.226 F2500.000
G1 X23.094 Y-168.261 Z16.232 F2500.000
G1 X25.069 Y-168.261 Z16.226 F2500.000
G1 X27.045 Y-168.261 Z16.204 F2500.000
G1 X28.033 Y-168.261 Z16.175 F2500.000
G1 X29.021 Y-168.261 Z16.121 F2500.000
G1 X30.008 Y-168.261 Z16.043 F2500.000
G1 X30.996 Y-168.261 Z15.936 F2500.000
G1 X31.984 Y-168.261 Z15.803 F2500.000
G1 X32.972 Y-168.261 Z15.641 F2500.000
G1 X33.960 Y-168.261 Z15.500 F2500.000
G1 X55.691 Y-168.261 Z15.500 F2500.000
(End of step 19.)
G0 Z26.500
G0 X-10.430 Y-164.261
G0 Z19.500
(Begin step 20.)
G0 X-10.430 Y-164.261
(part 1)
G1 X-10.430 Y-164.261 Z15.500 F2500.000
G1 X11.261 Y-164.261 Z15.500 F2500.000
G1 X12.247 Y-164.261 Z15.607 F2500.000
G1 X13.233 Y-164.261 Z15.769 F2500.000
G1 X14.219 Y-164.261 Z15.904 F2500.000
G1 X15.205 Y-164.261 Z16.010 F2500.000
G1 X16.191 Y-164.261 Z16.089 F2500.000
G1 X17.177 Y-164.261 Z16.142 F2500.000
G1 X18.163 Y-164.261 Z16.169 F2500.000
G1 X19.149 Y-164.261 Z16.185 F2500.000
G1 X20.135 Y-164.261 Z16.193 F2500.000
G1 X23.093 Y-164.261 Z16.199 F2500.000
G1 X25.065 Y-164.261 Z16.192 F2500.000
G1 X26.051 Y-164.261 Z16.184 F2500.000
G1 X27.037 Y-164.261 Z16.170 F2500.000
G1 X28.023 Y-164.261 Z16.142 F2500.000
G1 X29.009 Y-164.261 Z16.089 F2500.000
G1 X29.995 Y-164.261 Z16.009 F2500.000
G1 X30.981 Y-164.261 Z15.902 F2500.000
G1 X31.967 Y-164.261 Z15.768 F2500.000
G1 X32.953 Y-164.261 Z15.606 F2500.000
G1 X33.939 Y-164.261 Z15.500 F2500.000
G1 X55.630 Y-164.261 Z15.500 F2500.000
(End of step 20.)
G0 Z26.500
G0 X-10.368 Y-160.261
G0 Z19.500
(Begin step 21.)
G0 X-10.368 Y-160.261
(part 1)
G1 X-10.368 Y-160.261 Z15.500 F2500.000
G1 X11.611 Y-160.261 Z15.500 F2500.000
G1 X12.610 Y-160.261 Z15.632 F2500.000
G1 X13.609 Y-160.261 Z15.787 F2500.000
G1 X14.608 Y-160.261 Z15.913 F2500.000
G1 X15.607 Y-160.261 Z16.011 F2500.000
G1 X16.606 Y-160.261 Z16.080 F2500.000
G1 X17.605 Y-160.261 Z16.124 F2500.000
G1 X18.604 Y-160.261 Z16.145 F2500.000
G1 X20.602 Y-160.261 Z16.161 F2500.000
G1 X22.600 Y-160.261 Z16.166 F2500.000
G1 X24.598 Y-160.261 Z16.162 F2500.000
G1 X26.596 Y-160.261 Z16.145 F2500.000
G1 X27.595 Y-160.261 Z16.123 F2500.000
G1 X28.594 Y-160.261 Z16.080 F2500.000
G1 X29.593 Y-160.261 Z16.010 F2500.000
G1 X30.592 Y-160.261 Z15.914 F2500.000
G1 X31.591 Y-160.261 Z15.788 F2500.000
G1 X32.590 Y-160.261 Z15.631 F2500.000
G1 X33.589 Y-160.261 Z15.500 F2500.000
G1 X55.568 Y-160.261 Z15.500 F2500.000
(End of step 21.)
G0 Z26.500
G0 X-10.307 Y-156.261
G0 Z19.500
(Begin step 22.)
G0 X-10.307 Y-156.261
(part 1)
G1 X-10.307 Y-156.261 Z15.500 F2500.000
G1 X11.631 Y-156.261 Z15.500 F2500.000
G1 X12.628 Y-156.261 Z15.598 F2500.000
G1 X13.625 Y-156.261 Z15.753 F2500.000
G1 X14.623 Y-156.261 Z15.878 F2500.000
G1 X15.620 Y-156.261 Z15.977 F2500.000
G1 X16.617 Y-156.261 Z16.047 F2500.000
G1 X17.614 Y-156.261 Z16.090 F2500.000
G1 X18.611 Y-156.261 Z16.112 F2500.000
G1 X19.608 Y-156.261 Z16.123 F2500.000
G1 X22.600 Y-156.261 Z16.132 F2500.000
G1 X24.594 Y-156.261 Z16.128 F2500.000
G1 X26.589 Y-156.261 Z16.112 F2500.000
G1 X27.586 Y-156.261 Z16.091 F2500.000
G1 X28.583 Y-156.261 Z16.047 F2500.000
G1 X29.580 Y-156.261 Z15.977 F2500.000
G1 X30.577 Y-156.261 Z15.878 F2500.000
G1 X31.575 Y-156.261 Z15.754 F2500.000
G1 X32.572 Y-156.261 Z15.599 F2500.000
G1 X33.569 Y-156.261 Z15.500 F2500.000
G1 X55.507 Y-156.261 Z15.500 F2500.000
(End of step 22.)
G0 Z26.500
G0 X-10.245 Y-152.261
G0 Z19.500
(Begin step 23.)
G0 X-10.245 Y-152.261
(part 1)
G1 X-10.245 Y-152.261 Z15.500 F2500.000
G1 X11.652 Y-152.261 Z15.500 F2500.000
G1 X12.647 Y-152.261 Z15.565 F2500.000
G1 X13.642 Y-152.261 Z15.720 F2500.000
G1 X14.638 Y-152.261 Z15.846 F2500.000
G1 X15.633 Y-152.261 Z15.944 F2500.000
G1 X16.628 Y-152.261 Z16.014 F2500.000
G1 X17.623 Y-152.261 Z16.057 F2500.000
G1 X18.619 Y-152.261 Z16.079 F2500.000
G1 X19.614 Y-152.261 Z16.089 F2500.000
G1 X20.609 Y-152.261 Z16.095 F2500.000
G1 X22.600 Y-152.261 Z16.099 F2500.000
G1 X24.591 Y-152.261 Z16.095 F2500.000
G1 X26.581 Y-152.261 Z16.079 F2500.000
G1 X27.577 Y-152.261 Z16.057 F2500.000
G1 X28.572 Y-152.261 Z16.014 F2500.000
G1 X29.567 Y-152.261 Z15.944 F2500.000
G1 X30.562 Y-152.261 Z15.846 F2500.000
G1 X31.558 Y-152.261 Z15.720 F2500.000
G1 X32.553 Y-152.261 Z15.565 F2500.000
G1 X33.548 Y-152.261 Z15.500 F2500.000
G1 X55.445 Y-152.261 Z15.500 F2500.000
(End of step 23.)
G0 Z26.500
G0 X-10.183 Y-148.261
G0 Z19.500
(Begin step 24.)
G0 X-10.183 Y-148.261
(part 1)
G1 X-10.183 Y-148.261 Z15.500 F2500.000
G1 X11.672 Y-148.261 Z15.500 F2500.000
G1 X12.666 Y-148.261 Z15.531 F2500.000
G1 X13.659 Y-148.261 Z15.687 F2500.000
G1 X14.652 Y-148.261 Z15.813 F2500.000
G1 X15.646 Y-148.261 Z15.911 F2500.000
G1 X16.639 Y-148.261 Z15.981 F2500.000
G1 X17.633 Y-148.261 Z16.024 F2500.000
G1 X18.626 Y-148.261 Z16.046 F2500.000
G1 X20.613 Y-148.261 Z16.062 F2500.000
G1 X22.600 Y-148.261 Z16.066 F2500.000
G1 X24.587 Y-148.261 Z16.062 F2500.000
G1 X26.574 Y-148.261 Z16.045 F2500.000
G1 X27.567 Y-148.261 Z16.024 F2500.000
G1 X28.561 Y-148.261 Z15.981 F2500.000
G1 X29.554 Y-148.261 Z15.910 F2500.000
G1 X30.548 Y-148.261 Z15.813 F2500.000
G1 X31.541 Y-148.261 Z15.687 F2500.000
G1 X32.534 Y-148.261 Z15.531 F2500.000
G1 X33.528 Y-148.261 Z15.500 F2500.000
G1 X55.383 Y-148.261 Z15.500 F2500.000
(End of step 24.)
G0 Z26.500
G0 X-10.122 Y-144.261
G0 Z19.500
(Begin step 25.)
G0 X-10.122 Y-144.261
(part 1)
G1 X-10.122 Y-144.261 Z15.500 F2500.000
G1 X12.684 Y-144.261 Z15.500 F2500.000
G1 X13.676 Y-144.261 Z15.652 F2500.000
G1 X14.667 Y-144.261 Z15.780 F2500.000
G1 X15.659 Y-144.261 Z15.877 F2500.000
G1 X16.651 Y-144.261 Z15.947 F2500.000
G1 X17.642 Y-144.261 Z15.991 F2500.000
G1 X18.634 Y-144.261 Z16.013 F2500.000
G1 X20.617 Y-144.261 Z16.029 F2500.000
G1 X22.600 Y-144.261 Z16.033 F2500.000
G1 X24.583 Y-144.261 Z16.029 F2500.000
G1 X26.566 Y-144.261 Z16.011 F2500.000
G1 X27.558 Y-144.261 Z15.991 F2500.000
G1 X28.549 Y-144.261 Z15.947 F2500.000
G1 X29.541 Y-144.261 Z15.878 F2500.000
G1 X30.533 Y-144.261 Z15.779 F2500.000
G1 X31.524 Y-144.261 Z15.653 F2500.000
G1 X32.516 Y-144.261 Z15.500 F2500.000
G1 X55.322 Y-144.261 Z15.500 F2500.000
(End of step 25.)
G0 Z26.500
G0 X-10.060 Y-140.261
G0 Z19.500
(Begin step 26.)
G0 X-10.060 Y-140.261
(part 1)
G1 X-10.060 Y-140.261 Z15.500 F2500.000
G1 X12.703 Y-140.261 Z15.500 F2500.000
G1 X13.693 Y-140.261 Z15.620 F2500.000
G1 X14.682 Y-140.261 Z15.747 F2500.000
G1 X15.672 Y-140.261 Z15.845 F2500.000
G1 X16.662 Y-140.261 Z15.915 F2500.000
G1 X17.651 Y-140.261 Z15.958 F2500.000
G1 X18.641 Y-140.261 Z15.979 F2500.000
G1 X20.621 Y-140.261 Z15.995 F2500.000
G1 X22.600 Y-140.261 Z15.999 F2500.000
G1 X24.579 Y-140.261 Z15.995 F2500.000
G1 X26.559 Y-140.261 Z15.979 F2500.000
G1 X27.549 Y-140.261 Z15.958 F2500.000
G1 X28.538 Y-140.261 Z15.915 F2500.000
G1 X29.528 Y-140.261 Z15.844 F2500.000
G1 X30.518 Y-140.261 Z15.746 F2500.000
G1 X31.507 Y-140.261 Z15.620 F2500.000
G1 X32.497 Y-140.261 Z15.500 F2500.000
G1 X55.260 Y-140.261 Z15.500 F2500.000
(End of step 26.)
G0 Z26.500
G0 X-9.999 Y-136.261
G0 Z19.500
(Begin step 27.)
G0 X-9.999 Y-136.261
(part 1)
G1 X-9.999 Y-136.261 Z15.500 F2500.000
G1 X12.722 Y-136.261 Z15.500 F2500.000
G1 X13.709 Y-136.261 Z15.585 F2500.000
G1 X14.697 Y-136.261 Z15.713 F2500.000
G1 X15.685 Y-136.261 Z15.811 F2500.000
G1 X16.673 Y-136.261 Z15.881 F2500.000
G1 X17.661 Y-136.261 Z15.924 F2500.000
G1 X18.649 Y-136.261 Z15.946 F2500.000
G1 X20.624 Y-136.261 Z15.962 F2500.000
G1 X22.600 Y-136.261 Z15.966 F2500.000
G1 X24.576 Y-136.261 Z15.962 F2500.000
G1 X25.564 Y-136.261 Z15.957 F2500.000
G1 X26.551 Y-136.261 Z15.946 F2500.000
G1 X27.539 Y-136.261 Z15.925 F2500.000
G1 X28.527 Y-136.261 Z15.880 F2500.000
G1 X29.515 Y-136.261 Z15.812 F2500.000
G1 X30.503 Y-136.261 Z15.713 F2500.000
G1 X31.491 Y-136.261 Z15.585 F2500.000
G1 X32.478 Y-136.261 Z15.500 F2500.000
G1 X55.199 Y-136.261 Z15.500 F2500.000
(End of step 27.)
G0 Z26.500
G0 X-9.937 Y-132.261
G0 Z19.500
(Begin step 28.)
G0 X-9.937 Y-132.261
(part 1)
G1 X-9.937 Y-132.261 Z15.500 F2500.000
G1 X12.740 Y-132.261 Z15.500 F2500.000
G1 X13.726 Y-132.261 Z15.552 F2500.000
G1 X14.712 Y-132.261 Z15.680 F2500.000
G1 X15.698 Y-132.261 Z15.778 F2500.000
G1 X16.684 Y-132.261 Z15.849 F2500.000
G1 X17.670 Y-132.261 Z15.890 F2500.000
G1 X18.656 Y-132.261 Z15.913 F2500.000
G1 X19.642 Y-132.261 Z15.923 F2500.000
G1 X20.628 Y-132.261 Z15.929 F2500.000
G1 X22.600 Y-132.261 Z15.932 F2500.000
G1 X24.572 Y-132.261 Z15.929 F2500.000
G1 X25.558 Y-132.261 Z15.923 F2500.000
G1 X26.544 Y-132.261 Z15.912 F2500.000
G1 X27.530 Y-132.261 Z15.891 F2500.000
G1 X28.516 Y-132.261 Z15.849 F2500.000
G1 X29.502 Y-132.261 Z15.778 F2500.000
G1 X30.488 Y-132.261 Z15.680 F2500.000
G1 X31.474 Y-132.261 Z15.552 F2500.000
G1 X32.460 Y-132.261 Z15.500 F2500.000
G1 X55.137 Y-132.261 Z15.500 F2500.000
(End of step 28.)
G0 Z26.500
G0 X-9.876 Y-128.261
G0 Z19.500
(Begin step 29.)
G0 X-9.876 Y-128.261
(part 1)
G1 X-9.876 Y-128.261 Z15.500 F2500.000
G1 X13.107 Y-128.261 Z15.500 F2500.000
G1 X14.106 Y-128.261 Z15.570 F2500.000
G1 X15.106 Y-128.261 Z15.687 F2500.000
G1 X16.105 Y-128.261 Z15.776 F2500.000
G1 X17.104 Y-128.261 Z15.837 F2500.000
G1 X18.103 Y-128.261 Z15.870 F2500.000
G1 X19.103 Y-128.261 Z15.884 F2500.000
G1 X21.101 Y-128.261 Z15.897 F2500.000
G1 X23.100 Y-128.261 Z15.900 F2500.000
G1 X25.098 Y-128.261 Z15.893 F2500.000
G1 X26.097 Y-128.261 Z15.884 F2500.000
G1 X27.097 Y-128.261 Z15.870 F2500.000
G1 X28.096 Y-128.261 Z15.836 F2500.000
G1 X29.095 Y-128.261 Z15.775 F2500.000
G1 X30.094 Y-128.261 Z15.688 F2500.000
G1 X31.094 Y-128.261 Z15.570 F2500.000
G1 X32.093 Y-128.261 Z15.500 F2500.000
G1 X55.076 Y-128.261 Z15.500 F2500.000
(End of step 29.)
G0 Z26.500
G0 X-9.814 Y-124.261
G0 Z19.500
(Begin step 30.)
G0 X-9.814 Y-124.261
(part 1)
G1 X-9.814 Y-124.261 Z15.500 F2500.000
G1 X13.125 Y-124.261 Z15.500 F2500.000
G1 X14.122 Y-124.261 Z15.535 F2500.000
G1 X15.120 Y-124.261 Z15.653 F2500.000
G1 X16.117 Y-124.261 Z15.743 F2500.000
G1 X17.115 Y-124.261 Z15.803 F2500.000
G1 X18.112 Y-124.261 Z15.836 F2500.000
G1 X19.109 Y-124.261 Z15.852 F2500.000
G1 X21.104 Y-124.261 Z15.864 F2500.000
G1 X23.099 Y-124.261 Z15.866 F2500.000
G1 X25.093 Y-124.261 Z15.860 F2500.000
G1 X26.091 Y-124.261 Z15.852 F2500.000
G1 X27.088 Y-124.261 Z15.837 F2500.000
G1 X28.085 Y-124.261 Z15.803 F2500.000
G1 X29.083 Y-124.261 Z15.743 F2500.000
G1 X30.080 Y-124.261 Z15.653 F2500.000
G1 X31.078 Y-124.261 Z15.536 F2500.000
G1 X32.075 Y-124.261 Z15.500 F2500.000
G1 X55.014 Y-124.261 Z15.500 F2500.000
(End of step 30.)
G0 Z26.500
G0 X-9.753 Y-120.261
G0 Z19.500
(Begin step 31.)
G0 X-9.753 Y-120.261
(part 1)
G1 X-9.753 Y-120.261 Z15.500 F2500.000
G1 X13.143 Y-120.261 Z15.500 F2500.000
G1 X14.139 Y-120.261 Z15.503 F2500.000
G1 X15.134 Y-120.261 Z15.621 F2500.000
G1 X16.129 Y-120.261 Z15.710 F2500.000
G1 X17.125 Y-120.261 Z15.770 F2500.000
G1 X18.120 Y-120.261 Z15.803 F2500.000
G1 X19.116 Y-120.261 Z15.818 F2500.000
G1 X21.107 Y-120.261 Z15.831 F2500.000
G1 X23.098 Y-120.261 Z15.833 F2500.000
G1 X25.089 Y-120.261 Z15.826 F2500.000
G1 X26.084 Y-120.261 Z15.818 F2500.000
G1 X27.080 Y-120.261 Z15.803 F2500.000
G1 X28.075 Y-120.261 Z15.770 F2500.000
G1 X29.071 Y-120.261 Z15.710 F2500.000
G1 X30.066 Y-120.261 Z15.621 F2500.000
G1 X31.061 Y-120.261 Z15.503 F2500.000
G1 X32.057 Y-120.261 Z15.500 F2500.000
G1 X54.953 Y-120.261 Z15.500 F2500.000
(End of step 31.)
G0 Z26.500
G0 X-9.691 Y-116.261
G0 Z19.500
(Begin step 32.)
G0 X-9.691 Y-116.261
(part 1)
G1 X-9.691 Y-116.261 Z15.500 F2500.000
G1 X14.155 Y-116.261 Z15.500 F2500.000
G1 X16.142 Y-116.261 Z15.677 F2500.000
G1 X17.135 Y-116.261 Z15.737 F2500.000
G1 X18.129 Y-116.261 Z15.769 F2500.000
G1 X19.122 Y-116.261 Z15.785 F2500.000
G1 X21.110 Y-116.261 Z15.797 F2500.000
G1 X23.097 Y-116.261 Z15.800 F2500.000
G1 X25.084 Y-116.261 Z15.793 F2500.000
G1 X26.078 Y-116.261 Z15.785 F2500.000
G1 X27.071 Y-116.261 Z15.770 F2500.000
G1 X28.065 Y-116.261 Z15.736 F2500.000
G1 X29.058 Y-116.261 Z15.677 F2500.000
G1 X31.045 Y-116.261 Z15.500 F2500.000
G1 X54.891 Y-116.261 Z15.500 F2500.000
(End of step 32.)
G0 Z26.500
G0 X-9.630 Y-112.261
G0 Z19.500
(Begin step 33.)
G0 X-9.630 Y-112.261
(part 1)
G1 X-9.630 Y-112.261 Z15.500 F2500.000
G1 X14.171 Y-112.261 Z15.500 F2500.000
G1 X15.162 Y-112.261 Z15.555 F2500.000
G1 X16.154 Y-112.261 Z15.643 F2500.000
G1 X17.146 Y-112.261 Z15.704 F2500.000
G1 X18.137 Y-112.261 Z15.737 F2500.000
G1 X20.121 Y-112.261 Z15.759 F2500.000
G1 X21.112 Y-112.261 Z15.764 F2500.000
G1 X23.096 Y-112.261 Z15.766 F2500.000
G1 X25.079 Y-112.261 Z15.760 F2500.000
G1 X26.071 Y-112.261 Z15.751 F2500.000
G1 X27.063 Y-112.261 Z15.737 F2500.000
G1 X28.054 Y-112.261 Z15.704 F2500.000
G1 X29.046 Y-112.261 Z15.643 F2500.000
G1 X30.038 Y-112.261 Z15.554 F2500.000
G1 X31.029 Y-112.261 Z15.500 F2500.000
G1 X54.830 Y-112.261 Z15.500 F2500.000
(End of step 33.)
G0 Z26.500
G0 X-9.568 Y-108.261
G0 Z19.500
(Begin step 34.)
G0 X-9.568 Y-108.261
(part 1)
G1 X-9.568 Y-108.261 Z15.500 F2500.000
G1 X14.187 Y-108.261 Z15.500 F2500.000
G1 X15.177 Y-108.261 Z15.521 F2500.000
G1 X16.166 Y-108.261 Z15.611 F2500.000
G1 X17.156 Y-108.261 Z15.671 F2500.000
G1 X18.146 Y-108.261 Z15.704 F2500.000
G1 X19.136 Y-108.261 Z15.719 F2500.000
G1 X20.126 Y-108.261 Z15.726 F2500.000
G1 X23.095 Y-108.261 Z15.733 F2500.000
G1 X25.074 Y-108.261 Z15.727 F2500.000
G1 X26.064 Y-108.261 Z15.718 F2500.000
G1 X27.054 Y-108.261 Z15.704 F2500.000
G1 X28.044 Y-108.261 Z15.671 F2500.000
G1 X29.034 Y-108.261 Z15.611 F2500.000
G1 X30.023 Y-108.261 Z15.521 F2500.000
G1 X31.013 Y-108.261 Z15.500 F2500.000
G1 X54.768 Y-108.261 Z15.500 F2500.000
(End of step 34.)
G0 Z26.500
G0 X-9.507 Y-104.261
G0 Z19.500
(Begin step 35.)
G0 X-9.507 Y-104.261
(part 1)
G1 X-9.507 Y-104.261 Z15.500 F2500.000
G1 X15.191 Y-104.261 Z15.500 F2500.000
G1 X16.179 Y-104.261 Z15.578 F2500.000
G1 X17.167 Y-104.261 Z15.638 F2500.000
G1 X18.154 Y-104.261 Z15.671 F2500.000
G1 X19.142 Y-104.261 Z15.685 F2500.000
G1 X20.130 Y-104.261 Z15.693 F2500.000
G1 X23.094 Y-104.261 Z15.700 F2500.000
G1 X25.070 Y-104.261 Z15.693 F2500.000
G1 X26.058 Y-104.261 Z15.686 F2500.000
G1 X27.046 Y-104.261 Z15.670 F2500.000
G1 X28.033 Y-104.261 Z15.638 F2500.000
G1 X29.021 Y-104.261 Z15.577 F2500.000
G1 X30.009 Y-104.261 Z15.500 F2500.000
G1 X54.707 Y-104.261 Z15.500 F2500.000
(End of step 35.)
G0 Z26.500
G0 X-9.445 Y-100.261
G0 Z19.500
(Begin step 36.)
G0 X-9.445 Y-100.261
(part 1)
G1 X-9.445 Y-100.261 Z15.500 F2500.000
G1 X15.205 Y-100.261 Z15.500 F2500.000
G1 X16.191 Y-100.261 Z15.545 F2500.000
G1 X17.177 Y-100.261 Z15.605 F2500.000
G1 X18.163 Y-100.261 Z15.638 F2500.000
G1 X19.149 Y-100.261 Z15.652 F2500.000
G1 X20.135 Y-100.261 Z15.660 F2500.000
G1 X22.107 Y-100.261 Z15.667 F2500.000
G1 X25.065 Y-100.261 Z15.660 F2500.000
G1 X26.051 Y-100.261 Z15.653 F2500.000
G1 X27.037 Y-100.261 Z15.638 F2500.000
G1 X28.023 Y-100.261 Z15.604 F2500.000
G1 X29.009 Y-100.261 Z15.544 F2500.000
G1 X29.995 Y-100.261 Z15.500 F2500.000
G1 X54.645 Y-100.261 Z15.500 F2500.000
(End of step 36.)
G0 Z26.500
G0 X-9.384 Y-96.261
G0 Z19.500
(Begin step 37.)
G0 X-9.384 Y-96.261
(part 1)
G1 X-9.384 Y-96.261 Z15.500 F2500.000
G1 X15.604 Y-96.261 Z15.500 F2500.000
G1 X16.603 Y-96.261 Z15.539 F2500.000
G1 X17.603 Y-96.261 Z15.589 F2500.000
G1 X18.602 Y-96.261 Z15.612 F2500.000
G1 X20.601 Y-96.261 Z15.629 F2500.000
G1 X22.600 Y-96.261 Z15.634 F2500.000
G1 X24.599 Y-96.261 Z15.629 F2500.000
G1 X26.598 Y-96.261 Z15.612 F2500.000
G1 X27.597 Y-96.261 Z15.588 F2500.000
G1 X28.597 Y-96.261 Z15.539 F2500.000
G1 X29.596 Y-96.261 Z15.500 F2500.000
G1 X54.584 Y-96.261 Z15.500 F2500.000
(End of step 37.)
G0 Z26.500
G0 X-9.322 Y-92.261
G0 Z19.500
(Begin step 38.)
G0 X-9.322 Y-92.261
(part 1)
G1 X-9.322 Y-92.261 Z15.500 F2500.000
G1 X15.617 Y-92.261 Z15.500 F2500.000
G1 X16.615 Y-92.261 Z15.507 F2500.000
G1 X17.612 Y-92.261 Z15.555 F2500.000
G1 X18.610 Y-92.261 Z15.579 F2500.000
G1 X19.607 Y-92.261 Z15.590 F2500.000
G1 X20.605 Y-92.261 Z15.596 F2500.000
G1 X22.600 Y-92.261 Z15.600 F2500.000
G1 X24.595 Y-92.261 Z15.596 F2500.000
G1 X25.593 Y-92.261 Z15.590 F2500.000
G1 X26.590 Y-92.261 Z15.579 F2500.000
G1 X27.588 Y-92.261 Z15.556 F2500.000
G1 X28.585 Y-92.261 Z15.507 F2500.000
G1 X29.583 Y-92.261 Z15.500 F2500.000
G1 X54.522 Y-92.261 Z15.500 F2500.000
(End of step 38.)
G0 Z26.500
G0 X-9.260 Y-88.261
G0 Z19.500
(Begin step 39.)
G0 X-9.260 Y-88.261
(part 1)
G1 X-9.260 Y-88.261 Z15.500 F2500.000
G1 X16.626 Y-88.261 Z15.500 F2500.000
G1 X18.617 Y-88.261 Z15.546 F2500.000
G1 X20.609 Y-88.261 Z15.563 F2500.000
G1 X22.600 Y-88.261 Z15.567 F2500.000
G1 X24.591 Y-88.261 Z15.563 F2500.000
G1 X26.583 Y-88.261 Z15.546 F2500.000
G1 X28.574 Y-88.261 Z15.500 F2500.000
G1 X54.460 Y-88.261 Z15.500 F2500.000
(End of step 39.)
G0 Z26.500
G0 X-9.199 Y-84.261
G0 Z19.500
(Begin step 40.)
G0 X-9.199 Y-84.261
(part 1)
G1 X-9.199 Y-84.261 Z15.500 F2500.000
G1 X17.631 Y-84.261 Z15.500 F2500.000
G1 X19.619 Y-84.261 Z15.524 F2500.000
G1 X20.613 Y-84.261 Z15.530 F2500.000
G1 X22.600 Y-84.261 Z15.534 F2500.000
G1 X24.587 Y-84.261 Z15.530 F2500.000
G1 X25.581 Y-84.261 Z15.523 F2500.000
G1 X27.569 Y-84.261 Z15.500 F2500.000
G1 X54.399 Y-84.261 Z15.500 F2500.000
(End of step 40.)
G0 Z26.500
G0 X-9.137 Y-80.261
G0 Z19.500
(Begin step 41.)
G0 X-9.137 Y-80.261
(part 1)
G1 X-9.137 Y-80.261 Z15.500 F2500.000
G1 X54.337 Y-80.261 Z15.500 F2500.000
(End of step 41.)
G0 Z26.500
G0 X-9.076 Y-76.261
G0 Z19.500
(Begin step 42.)
G0 X-9.076 Y-76.261
(part 1)
G1 X-9.076 Y-76.261 Z15.500 F2500.000
G1 X54.276 Y-76.261 Z15.500 F2500.000
(End of step 42.)
G0 Z26.500
G0 X-9.014 Y-72.261
G0 Z19.500
(Begin step 43.)
G0 X-9.014 Y-72.261
(part 1)
G1 X-9.014 Y-72.261 Z15.500 F2500.000
G1 X54.214 Y-72.261 Z15.500 F2500.000
(End of step 43.)
G0 Z26.500
G0 X-8.953 Y-68.261
G0 Z19.500
(Begin step 44.)
G0 X-8.953 Y-68.261
(part 1)
G1 X-8.953 Y-68.261 Z15.500 F2500.000
G1 X54.153 Y-68.261 Z15.500 F2500.000
(End of step 44.)
G0 Z26.500
G0 X-8.891 Y-64.261
G0 Z19.500
(Begin step 45.)
G0 X-8.891 Y-64.261
(part 1)
G1 X-8.891 Y-64.261 Z15.500 F2500.000
G1 X54.091 Y-64.261 Z15.500 F2500.000
(End of step 45.)
G0 Z26.500
G0 X-8.830 Y-60.261
G0 Z19.500
(Begin step 46.)
G0 X-8.830 Y-60.261
(part 1)
G1 X-8.830 Y-60.261 Z15.500 F2500.000
G1 X54.030 Y-60.261 Z15.500 F2500.000
(End of step 46.)
G0 Z26.500
G0 X-8.768 Y-56.261
G0 Z19.500
(Begin step 47.)
G0 X-8.768 Y-56.261
(part 1)
G1 X-8.768 Y-56.261 Z15.500 F2500.000
G1 X53.968 Y-56.261 Z15.500 F2500.000
(End of step 47.)
G0 Z26.500
G0 X-8.707 Y-52.261
G0 Z19.500
(Begin step 48.)
G0 X-8.707 Y-52.261
(part 1)
G1 X-8.707 Y-52.261 Z15.500 F2500.000
G1 X53.907 Y-52.261 Z15.500 F2500.000
(End of step 48.)
G0 Z26.500
G0 X-8.645 Y-48.261
G0 Z19.500
(Begin step 49.)
G0 X-8.645 Y-48.261
(part 1)
G1 X-8.645 Y-48.261 Z15.500 F2500.000
G1 X53.845 Y-48.261 Z15.500 F2500.000
(End of step 49.)
G0 Z26.500
G0 X-8.584 Y-44.261
G0 Z19.500
(Begin step 50.)
G0 X-8.584 Y-44.261
(part 1)
G1 X-8.584 Y-44.261 Z15.500 F2500.000
G1 X53.784 Y-44.261 Z15.500 F2500.000
(End of step 50.)
G0 Z26.500
G0 X-8.522 Y-40.261
G0 Z19.500
(Begin step 51.)
G0 X-8.522 Y-40.261
(part 1)
G1 X-8.522 Y-40.261 Z15.500 F2500.000
G1 X53.722 Y-40.261 Z15.500 F2500.000
(End of step 51.)
G0 Z26.500
G0 X-8.461 Y-36.261
G0 Z19.500
(Begin step 52.)
G0 X-8.461 Y-36.261
(part 1)
G1 X-8.461 Y-36.261 Z15.500 F2500.000
G1 X53.661 Y-36.261 Z15.500 F2500.000
(End of step 52.)
G0 Z26.500
G0 X-8.399 Y-32.261
G0 Z19.500
(Begin step 53.)
G0 X-8.399 Y-32.261
(part 1)
G1 X-8.399 Y-32.261 Z15.500 F2500.000
G1 X53.599 Y-32.261 Z15.500 F2500.000
(End of step 53.)
G0 Z26.500
G0 X-8.337 Y-28.261
G0 Z19.500
(Begin step 54.)
G0 X-8.337 Y-28.261
(part 1)
G1 X-8.337 Y-28.261 Z15.500 F2500.000
G1 X53.537 Y-28.261 Z15.500 F2500.000
(End of step 54.)
G0 Z26.500
G0 X-8.276 Y-24.261
G0 Z19.500
(Begin step 55.)
G0 X-8.276 Y-24.261
(part 1)
G1 X-8.276 Y-24.261 Z15.500 F2500.000
G1 X53.476 Y-24.261 Z15.500 F2500.000
(End of step 55.)
G0 Z26.500
G0 X-8.214 Y-20.261
G0 Z19.500
(Begin step 56.)
G0 X-8.214 Y-20.261
(part 1)
G1 X-8.214 Y-20.261 Z15.500 F2500.000
G1 X53.414 Y-20.261 Z15.500 F2500.000
(End of step 56.)
G0 Z26.500
G0 X-8.153 Y-16.261
G0 Z19.500
(Begin step 57.)
G0 X-8.153 Y-16.261
(part 1)
G1 X-8.153 Y-16.261 Z15.500 F2500.000
G1 X53.353 Y-16.261 Z15.500 F2500.000
(End of step 57.)
G0 Z26.500
G0 X-8.091 Y-12.261
G0 Z19.500
(Begin step 58.)
G0 X-8.091 Y-12.261
(part 1)
G1 X-8.091 Y-12.261 Z15.500 F2500.000
G1 X53.291 Y-12.261 Z15.500 F2500.000
(End of step 58.)
G0 Z26.500
G0 X-8.030 Y-8.261
G0 Z19.500
(Begin step 59.)
G0 X-8.030 Y-8.261
(part 1)
G1 X-8.030 Y-8.261 Z15.500 F2500.000
G1 X53.230 Y-8.261 Z15.500 F2500.000
(End of step 59.)
G0 Z26.500
G0 X-7.968 Y-4.261
G0 Z19.500
(Begin step 60.)
G0 X-7.968 Y-4.261
(part 1)
G1 X-7.968 Y-4.261 Z15.500 F2500.000
G1 X53.168 Y-4.261 Z15.500 F2500.000
(End of step 60.)
G0 Z26.500
G0 X-7.907 Y-0.261
G0 Z19.500
(Begin step 61.)
G0 X-7.907 Y-0.261
(part 1)
G1 X-7.907 Y-0.261 Z15.500 F2500.000
G1 X53.107 Y-0.261 Z15.500 F2500.000
(End of step 61.)
G0 Z26.500
G0 X-5.332 Y3.739
G0 Z19.500
(Begin step 62.)
G0 X-5.332 Y3.739
(part 1)
G1 X-5.332 Y3.739 Z15.500 F2500.000
G1 X50.532 Y3.739 Z15.500 F2500.000
(End of step 62.)
(End of layer 3)
(Layer 4 begins)
(Layer transition)
G0 Z26.500
G0 X-9.032 Y-244.261
(Begin step 0.)
G0 X-9.032 Y-244.261
(part 1)
G1 X-9.032 Y-244.261 Z13.500 F2500.000
G1 X4.807 Y-244.261 Z13.500 F2500.000
G1 X5.795 Y-244.261 Z13.588 F2500.000
G1 X6.784 Y-244.261 Z14.033 F2500.000
G1 X7.772 Y-244.261 Z14.438 F2500.000
G1 X8.761 Y-244.261 Z14.805 F2500.000
G1 X9.749 Y-244.261 Z15.136 F2500.000
G1 X10.738 Y-244.261 Z15.432 F2500.000
G1 X11.726 Y-244.261 Z27.000 F2500.000
G1 X33.474 Y-244.261 Z27.000 F2500.000
G1 X34.462 Y-244.261 Z15.432 F2500.000
G1 X35.451 Y-244.261 Z15.136 F2500.000
G1 X36.439 Y-244.261 Z14.805 F2500.000
G1 X37.428 Y-244.261 Z14.438 F2500.000
G1 X38.416 Y-244.261 Z14.033 F2500.000
G1 X39.405 Y-244.261 Z13.588 F2500.000
G1 X40.393 Y-244.261 Z13.500 F2500.000
G1 X54.232 Y-244.261 Z13.500 F2500.000
(End of step 0.)
G0 Z26.500
G0 X-11.599 Y-240.261
G0 Z17.500
(Begin step 1.)
G0 X-11.599 Y-240.261
(part 1)
G1 X-11.599 Y-240.261 Z13.500 F2500.000
G1 X2.279 Y-240.261 Z13.500 F2500.000
G1 X3.270 Y-240.261 Z13.609 F2500.000
G1 X4.262 Y-240.261 Z14.053 F2500.000
G1 X5.253 Y-240.261 Z14.457 F2500.000
G1 X6.244 Y-240.261 Z14.823 F2500.000
G1 X7.235 Y-240.261 Z15.152 F2500.000
G1 X8.227 Y-240.261 Z15.448 F2500.000
G1 X9.218 Y-240.261 Z27.000 F2500.000
G1 X35.982 Y-240.261 Z27.000 F2500.000
G1 X36.973 Y-240.261 Z15.448 F2500.000
G1 X37.965 Y-240.261 Z15.152 F2500.000
G1 X38.956 Y-240.261 Z14.823 F2500.000
G1 X39.947 Y-240.261 Z14.457 F2500.000
G1 X40.938 Y-240.261 Z14.053 F2500.000
G1 X41.930 Y-240.261 Z13.608 F2500.000
G1 X42.921 Y-240.261 Z13.500 F2500.000
G1 X56.799 Y-240.261 Z13.500 F2500.000
(End of step 1.)
G0 Z26.500
G0 X-11.537 Y-236.261
G0 Z17.500
(Begin step 2.)
G0 X-11.537 Y-236.261
(part 1)
G1 X-11.537 Y-236.261 Z13.500 F2500.000
G1 X2.316 Y-236.261 Z13.500 F2500.000
G1 X3.305 Y-236.261 Z13.575 F2500.000
G1 X4.295 Y-236.261 Z14.018 F2500.000
G1 X5.284 Y-236.261 Z14.422 F2500.000
G1 X6.274 Y-236.261 Z14.787 F2500.000
G1 X7.263 Y-236.261 Z15.117 F2500.000
G1 X8.253 Y-236.261 Z15.411 F2500.000
G1 X9.242 Y-236.261 Z27.000 F2500.000
G1 X35.958 Y-236.261 Z27.000 F2500.000
G1 X36.947 Y-236.261 Z15.411 F2500.000
G1 X37.937 Y-236.261 Z15.117 F2500.000
G1 X38.926 Y-236.261 Z14.787 F2500.000
G1 X39.916 Y-236.261 Z14.421 F2500.000
G1 X40.905 Y-236.261 Z14.018 F2500.000
G1 X41.895 Y-236.261 Z13.575 F2500.000
G1 X42.884 Y-236.261 Z13.500 F2500.000
G1 X56.737 Y-236.261 Z13.500 F2500.000
(End of step 2.)
G0 Z26.500
G0 X-11.476 Y-232.261
G0 Z17.500
(Begin step 3.)
G0 X-11.476 Y-232.261
(part 1)
G1 X-11.476 Y-232.261 Z13.500 F2500.000
G1 X2.352 Y-232.261 Z13.500 F2500.000
G1 X3.340 Y-232.261 Z13.541 F2500.000
G1 X4.328 Y-232.261 Z13.983 F2500.000
G1 X5.315 Y-232.261 Z14.386 F2500.000
G1 X6.303 Y-232.261 Z14.752 F2500.000
G1 X7.291 Y-232.261 Z15.080 F2500.000
G1 X8.278 Y-232.261 Z15.376 F2500.000
G1 X9.266 Y-232.261 Z27.000 F2500.000
G1 X35.934 Y-232.261 Z27.000 F2500.000
G1 X36.922 Y-232.261 Z15.376 F2500.000
G1 X37.909 Y-232.261 Z15.081 F2500.000
G1 X38.897 Y-232.261 Z14.752 F2500.000
G1 X39.885 Y-232.261 Z14.386 F2500.000
G1 X40.872 Y-232.261 Z13.984 F2500.000
G1 X41.860 Y-232.261 Z13.541 F2500.000
G1 X42.848 Y-232.261 Z13.500 F2500.000
G1 X56.676 Y-232.261 Z13.500 F2500.000
(End of step 3.)
G0 Z26.500
G0 X-11.414 Y-228.261
G0 Z17.500
(Begin step 4.)
G0 X-11.414 Y-228.261
(part 1)
G1 X-11.414 Y-228.261 Z13.500 F2500.000
G1 X2.389 Y-228.261 Z13.500 F2500.000
G1 X3.375 Y-228.261 Z13.509 F2500.000
G1 X4.361 Y-228.261 Z13.950 F2500.000
G1 X5.346 Y-228.261 Z14.351 F2500.000
G1 X6.332 Y-228.261 Z14.717 F2500.000
G1 X7.318 Y-228.261 Z15.046 F2500.000
G1 X8.304 Y-228.261 Z15.341 F2500.000
G1 X9.290 Y-228.261 Z27.000 F2500.000
G1 X35.910 Y-228.261 Z27.000 F2500.000
G1 X36.896 Y-228.261 Z15.341 F2500.000
G1 X37.882 Y-228.261 Z15.046 F2500.000
G1 X38.868 Y-228.261 Z14.717 F2500.000
G1 X39.854 Y-228.261 Z14.351 F2500.000
G1 X40.839 Y-228.261 Z13.950 F2500.000
G1 X41.825 Y-228.261 Z13.508 F2500.000
G1 X42.811 Y-228.261 Z13.500 F2500.000
G1 X56.614 Y-228.261 Z13.500 F2500.000
(End of step 4.)
G0 Z26.500
G0 X-11.353 Y-224.261
G0 Z17.500
(Begin step 5.)
G0 X-11.353 Y-224.261
(part 1)
G1 X-11.353 Y-224.261 Z13.500 F2500.000
G1 X2.628 Y-224.261 Z13.500 F2500.000
G1 X3.627 Y-224.261 Z13.575 F2500.000
G1 X4.625 Y-224.261 Z14.013 F2500.000
G1 X5.624 Y-224.261 Z14.412 F2500.000
G1 X6.622 Y-224.261 Z14.772 F2500.000
G1 X7.621 Y-224.261 Z15.096 F2500.000
G1 X8.620 Y-224.261 Z15.385 F2500.000
G1 X9.618 Y-224.261 Z27.000 F2500.000
G1 X35.582 Y-224.261 Z27.000 F2500.000
G1 X36.580 Y-224.261 Z15.385 F2500.000
G1 X37.579 Y-224.261 Z15.096 F2500.000
G1 X38.578 Y-224.261 Z14.772 F2500.000
G1 X39.576 Y-224.261 Z14.411 F2500.000
G1 X40.575 Y-224.261 Z14.013 F2500.000
G1 X41.573 Y-224.261 Z13.575 F2500.000
G1 X42.572 Y-224.261 Z13.500 F2500.000
G1 X56.553 Y-224.261 Z13.500 F2500.000
(End of step 5.)
G0 Z26.500
G0 X-11.291 Y-220.261
G0 Z17.500
(Begin step 6.)
G0 X-11.291 Y-220.261
(part 1)
G1 X-11.291 Y-220.261 Z13.500 F2500.000
G1 X2.664 Y-220.261 Z13.500 F2500.000
G1 X3.661 Y-220.261 Z13.542 F2500.000
G1 X4.658 Y-220.261 Z13.980 F2500.000
G1 X5.654 Y-220.261 Z14.377 F2500.000
G1 X6.651 Y-220.261 Z14.737 F2500.000
G1 X7.648 Y-220.261 Z15.061 F2500.000
G1 X8.645 Y-220.261 Z15.351 F2500.000
G1 X9.642 Y-220.261 Z27.000 F2500.000
G1 X35.558 Y-220.261 Z27.000 F2500.000
G1 X36.555 Y-220.261 Z15.351 F2500.000
G1 X37.552 Y-220.261 Z15.061 F2500.000
G1 X38.549 Y-220.261 Z14.737 F2500.000
G1 X39.546 Y-220.261 Z14.377 F2500.000
G1 X40.542 Y-220.261 Z13.979 F2500.000
G1 X41.539 Y-220.261 Z13.543 F2500.000
G1 X42.536 Y-220.261 Z13.500 F2500.000
G1 X56.491 Y-220.261 Z13.500 F2500.000
(End of step 6.)
G0 Z26.500
G0 X-11.229 Y-216.261
G0 Z17.500
(Begin step 7.)
G0 X-11.229 Y-216.261
(part 1)
G1 X-11.229 Y-216.261 Z13.500 F2500.000
G1 X2.700 Y-216.261 Z13.500 F2500.000
G1 X3.695 Y-216.261 Z13.509 F2500.000
G1 X4.690 Y-216.261 Z13.945 F2500.000
G1 X5.685 Y-216.261 Z14.341 F2500.000
G1 X6.680 Y-216.261 Z14.702 F2500.000
G1 X7.675 Y-216.261 Z15.025 F2500.000
G1 X8.670 Y-216.261 Z15.313 F2500.000
G1 X9.665 Y-216.261 Z27.000 F2500.000
G1 X35.535 Y-216.261 Z27.000 F2500.000
G1 X36.530 Y-216.261 Z15.314 F2500.000
G1 X37.525 Y-216.261 Z15.025 F2500.000
G1 X38.520 Y-216.261 Z14.701 F2500.000
G1 X39.515 Y-216.261 Z14.341 F2500.000
G1 X40.510 Y-216.261 Z13.945 F2500.000
G1 X41.505 Y-216.261 Z13.509 F2500.000
G1 X42.500 Y-216.261 Z13.500 F2500.000
G1 X56.429 Y-216.261 Z13.500 F2500.000
(End of step 7.)
G0 Z26.500
G0 X-11.168 Y-212.261
G0 Z17.500
(Begin step 8.)
G0 X-11.168 Y-212.261
(part 1)
G1 X-11.168 Y-212.261 Z13.500 F2500.000
G1 X3.730 Y-212.261 Z13.500 F2500.000
G1 X4.723 Y-212.261 Z13.911 F2500.000
G1 X5.716 Y-212.261 Z14.308 F2500.000
G1 X6.709 Y-212.261 Z14.667 F2500.000
G1 X7.702 Y-212.261 Z14.991 F2500.000
G1 X8.696 Y-212.261 Z15.279 F2500.000
G1 X9.689 Y-212.261 Z27.000 F2500.000
G1 X35.511 Y-212.261 Z27.000 F2500.000
G1 X36.504 Y-212.261 Z15.280 F2500.000
G1 X37.498 Y-212.261 Z14.990 F2500.000
G1 X38.491 Y-212.261 Z14.667 F2500.000
G1 X39.484 Y-212.261 Z14.308 F2500.000
G1 X40.477 Y-212.261 Z13.910 F2500.000
G1 X41.470 Y-212.261 Z13.500 F2500.000
G1 X56.368 Y-212.261 Z13.500 F2500.000
(End of step 8.)
G0 Z26.500
G0 X-11.106 Y-208.261
G0 Z17.500
(Begin step 9.)
G0 X-11.106 Y-208.261
(part 1)
G1 X-11.106 Y-208.261 Z13.500 F2500.000
G1 X3.764 Y-208.261 Z13.500 F2500.000
G1 X4.755 Y-208.261 Z13.877 F2500.000
G1 X5.747 Y-208.261 Z14.273 F2500.000
G1 X6.738 Y-208.261 Z14.631 F2500.000
G1 X7.730 Y-208.261 Z14.955 F2500.000
G1 X8.721 Y-208.261 Z15.244 F2500.000
G1 X9.712 Y-208.261 Z27.000 F2500.000
G1 X35.488 Y-208.261 Z27.000 F2500.000
G1 X36.479 Y-208.261 Z15.244 F2500.000
G1 X37.470 Y-208.261 Z14.955 F2500.000
G1 X38.462 Y-208.261 Z14.632 F2500.000
G1 X39.453 Y-208.261 Z14.272 F2500.000
G1 X40.445 Y-208.261 Z13.877 F2500.000
G1 X41.436 Y-208.261 Z13.500 F2500.000
G1 X56.306 Y-208.261 Z13.500 F2500.000
(End of step 9.)
G0 Z26.500
G0 X-11.045 Y-204.261
G0 Z17.500
(Begin step 10.)
G0 X-11.045 Y-204.261
(part 1)
G1 X-11.045 Y-204.261 Z13.500 F2500.000
G1 X3.798 Y-204.261 Z13.500 F2500.000
G1 X4.788 Y-204.261 Z13.842 F2500.000
G1 X5.778 Y-204.261 Z14.237 F2500.000
G1 X6.767 Y-204.261 Z14.596 F2500.000
G1 X7.757 Y-204.261 Z14.920 F2500.000
G1 X8.746 Y-204.261 Z15.209 F2500.000
G1 X9.736 Y-204.261 Z15.466 F2500.000
G1 X10.725 Y-204.261 Z27.000 F2500.000
G1 X34.475 Y-204.261 Z27.000 F2500.000
G1 X35.464 Y-204.261 Z15.466 F2500.000
G1 X36.454 Y-204.261 Z15.209 F2500.000
G1 X37.443 Y-204.261 Z14.919 F2500.000
G1 X38.433 Y-204.261 Z14.596 F2500.000
G1 X39.422 Y-204.261 Z14.237 F2500.000
G1 X40.412 Y-204.261 Z13.843 F2500.000
G1 X41.402 Y-204.261 Z13.500 F2500.000
G1 X56.245 Y-204.261 Z13.500 F2500.000
(End of step 10.)
G0 Z26.500
G0 X-10.983 Y-200.261
G0 Z17.500
(Begin step 11.)
G0 X-10.983 Y-200.261
(part 1)
G1 X-10.983 Y-200.261 Z13.500 F2500.000
G1 X3.833 Y-200.261 Z13.500 F2500.000
G1 X4.821 Y-200.261 Z13.809 F2500.000
G1 X5.808 Y-200.261 Z14.203 F2500.000
G1 X6.796 Y-200.261 Z14.561 F2500.000
G1 X7.784 Y-200.261 Z14.885 F2500.000
G1 X8.772 Y-200.261 Z15.174 F2500.000
G1 X9.759 Y-200.261 Z15.432 F2500.000
G1 X10.747 Y-200.261 Z27.000 F2500.000
G1 X34.453 Y-200.261 Z27.000 F2500.000
G1 X35.441 Y-200.261 Z15.432 F2500.000
G1 X36.428 Y-200.261 Z15.174 F2500.000
G1 X37.416 Y-200.261 Z14.885 F2500.000
G1 X38.404 Y-200.261 Z14.561 F2500.000
G1 X39.392 Y-200.261 Z14.203 F2500.000
G1 X40.379 Y-200.261 Z13.809 F2500.000
G1 X41.367 Y-200.261 Z13.500 F2500.000
G1 X56.183 Y-200.261 Z13.500 F2500.000
(End of step 11.)
G0 Z26.500
G0 X-10.922 Y-196.261
G0 Z17.500
(Begin step 12.)
G0 X-10.922 Y-196.261
(part 1)
G1 X-10.922 Y-196.261 Z13.500 F2500.000
G1 X3.867 Y-196.261 Z13.500 F2500.000
G1 X4.853 Y-196.261 Z13.775 F2500.000
G1 X5.839 Y-196.261 Z14.169 F2500.000
G1 X6.825 Y-196.261 Z14.526 F2500.000
G1 X7.811 Y-196.261 Z14.850 F2500.000
G1 X8.797 Y-196.261 Z15.139 F2500.000
G1 X9.783 Y-196.261 Z15.397 F2500.000
G1 X10.769 Y-196.261 Z27.000 F2500.000
G1 X34.431 Y-196.261 Z27.000 F2500.000
G1 X35.417 Y-196.261 Z15.397 F2500.000
G1 X36.403 Y-196.261 Z15.139 F2500.000
G1 X37.389 Y-196.261 Z14.850 F2500.000
G1 X38.375 Y-196.261 Z14.526 F2500.000
G1 X39.361 Y-196.261 Z14.169 F2500.000
G1 X40.347 Y-196.261 Z13.775 F2500.000
G1 X41.333 Y-196.261 Z13.500 F2500.000
G1 X56.122 Y-196.261 Z13.500 F2500.000
(End of step 12.)
G0 Z26.500
G0 X-10.860 Y-192.261
G0 Z17.500
(Begin step 13.)
G0 X-10.860 Y-192.261
(part 1)
G1 X-10.860 Y-192.261 Z13.500 F2500.000
G1 X4.122 Y-192.261 Z13.500 F2500.000
G1 X5.121 Y-192.261 Z13.839 F2500.000
G1 X6.120 Y-192.261 Z14.228 F2500.000
G1 X7.118 Y-192.261 Z14.582 F2500.000
G1 X8.117 Y-192.261 Z14.900 F2500.000
G1 X9.116 Y-192.261 Z15.185 F2500.000
G1 X10.115 Y-192.261 Z15.435 F2500.000
G1 X11.114 Y-192.261 Z27.000 F2500.000
G1 X34.086 Y-192.261 Z27.000 F2500.000
G1 X35.085 Y-192.261 Z15.436 F2500.000
G1 X36.084 Y-192.261 Z15.185 F2500.000
G1 X37.083 Y-192.261 Z14.900 F2500.000
G1 X38.082 Y-192.261 Z14.581 F2500.000
G1 X39.080 Y-192.261 Z14.228 F2500.000
G1 X40.079 Y-192.261 Z13.839 F2500.000
G1 X41.078 Y-192.261 Z13.500 F2500.000
G1 X56.060 Y-192.261 Z13.500 F2500.000
(End of step 13.)
G0 Z26.500
G0 X-10.799 Y-188.261
G0 Z17.500
(Begin step 14.)
G0 X-10.799 Y-188.261
(part 1)
G1 X-10.799 Y-188.261 Z13.500 F2500.000
G1 X4.156 Y-188.261 Z13.500 F2500.000
G1 X5.153 Y-188.261 Z13.803 F2500.000
G1 X6.150 Y-188.261 Z14.194 F2500.000
G1 X7.147 Y-188.261 Z14.548 F2500.000
G1 X8.144 Y-188.261 Z14.865 F2500.000
G1 X9.141 Y-188.261 Z15.150 F2500.000
G1 X10.138 Y-188.261 Z15.401 F2500.000
G1 X11.135 Y-188.261 Z27.000 F2500.000
G1 X34.065 Y-188.261 Z27.000 F2500.000
G1 X35.062 Y-188.261 Z15.400 F2500.000
G1 X36.059 Y-188.261 Z15.150 F2500.000
G1 X37.056 Y-188.261 Z14.865 F2500.000
G1 X38.053 Y-188.261 Z14.547 F2500.000
G1 X39.050 Y-188.261 Z14.194 F2500.000
G1 X40.047 Y-188.261 Z13.804 F2500.000
G1 X41.044 Y-188.261 Z13.500 F2500.000
G1 X55.999 Y-188.261 Z13.500 F2500.000
(End of step 14.)
G0 Z26.500
G0 X-10.737 Y-184.261
G0 Z17.500
(Begin step 15.)
G0 X-10.737 Y-184.261
(part 1)
G1 X-10.737 Y-184.261 Z13.500 F2500.000
G1 X4.190 Y-184.261 Z13.500 F2500.000
G1 X5.185 Y-184.261 Z13.770 F2500.000
G1 X6.180 Y-184.261 Z14.159 F2500.000
G1 X7.175 Y-184.261 Z14.512 F2500.000
G1 X8.170 Y-184.261 Z14.830 F2500.000
G1 X9.166 Y-184.261 Z15.114 F2500.000
G1 X10.161 Y-184.261 Z15.366 F2500.000
G1 X11.156 Y-184.261 Z27.000 F2500.000
G1 X34.044 Y-184.261 Z27.000 F2500.000
G1 X35.039 Y-184.261 Z15.367 F2500.000
G1 X36.034 Y-184.261 Z15.114 F2500.000
G1 X37.030 Y-184.261 Z14.830 F2500.000
G1 X38.025 Y-184.261 Z14.512 F2500.000
G1 X39.020 Y-184.261 Z14.159 F2500.000
G1 X40.015 Y-184.261 Z13.770 F2500.000
G1 X41.010 Y-184.261 Z13.500 F2500.000
G1 X55.937 Y-184.261 Z13.500 F2500.000
(End of step 15.)
G0 Z26.500
G0 X-10.676 Y-180.261
G0 Z17.500
(Begin step 16.)
G0 X-10.676 Y-180.261
(part 1)
G1 X-10.676 Y-180.261 Z13.500 F2500.000
G1 X4.224 Y-180.261 Z13.500 F2500.000
G1 X5.217 Y-180.261 Z13.737 F2500.000
G1 X6.210 Y-180.261 Z14.126 F2500.000
G1 X7.204 Y-180.261 Z14.478 F2500.000
G1 X8.197 Y-180.261 Z14.796 F2500.000
G1 X9.190 Y-180.261 Z15.080 F2500.000
G1 X10.184 Y-180.261 Z15.332 F2500.000
G1 X11.177 Y-180.261 Z27.000 F2500.000
G1 X34.023 Y-180.261 Z27.000 F2500.000
G1 X35.016 Y-180.261 Z15.332 F2500.000
G1 X36.010 Y-180.261 Z15.080 F2500.000
G1 X37.003 Y-180.261 Z14.796 F2500.000
G1 X37.996 Y-180.261 Z14.478 F2500.000
G1 X38.990 Y-180.261 Z14.126 F2500.000
G1 X39.983 Y-180.261 Z13.737 F2500.000
G1 X40.976 Y-180.261 Z13.500 F2500.000
G1 X55.876 Y-180.261 Z13.500 F2500.000
(End of step 16.)
G0 Z26.500
G0 X-10.614 Y-176.261
G0 Z17.500
(Begin step 17.)
G0 X-10.614 Y-176.261
(part 1)
G1 X-10.614 Y-176.261 Z13.500 F2500.000
G1 X4.258 Y-176.261 Z13.500 F2500.000
G1 X5.249 Y-176.261 Z13.702 F2500.000
G1 X6.241 Y-176.261 Z14.091 F2500.000
G1 X7.232 Y-176.261 Z14.443 F2500.000
G1 X8.224 Y-176.261 Z14.761 F2500.000
G1 X9.215 Y-176.261 Z15.045 F2500.000
G1 X10.207 Y-176.261 Z15.297 F2500.000
G1 X11.198 Y-176.261 Z27.000 F2500.000
G1 X34.002 Y-176.261 Z27.000 F2500.000
G1 X34.993 Y-176.261 Z15.297 F2500.000
G1 X35.985 Y-176.261 Z15.045 F2500.000
G1 X36.976 Y-176.261 Z14.760 F2500.000
G1 X37.968 Y-176.261 Z14.443 F2500.000
G1 X38.959 Y-176.261 Z14.090 F2500.000
G1 X39.951 Y-176.261 Z13.702 F2500.000
G1 X40.942 Y-176.261 Z13.500 F2500.000
G1 X55.814 Y-176.261 Z13.500 F2500.000
(End of step 17.)
G0 Z26.500
G0 X-10.553 Y-172.261
G0 Z17.500
(Begin step 18.)
G0 X-10.553 Y-172.261
(part 1)
G1 X-10.553 Y-172.261 Z13.500 F2500.000
G1 X4.292 Y-172.261 Z13.500 F2500.000
G1 X5.281 Y-172.261 Z13.669 F2500.000
G1 X6.271 Y-172.261 Z14.056 F2500.000
G1 X7.261 Y-172.261 Z14.408 F2500.000
G1 X8.250 Y-172.261 Z14.726 F2500.000
G1 X9.240 Y-172.261 Z15.010 F2500.000
G1 X10.230 Y-172.261 Z15.263 F2500.000
G1 X11.219 Y-172.261 Z15.484 F2500.000
G1 X12.209 Y-172.261 Z27.000 F2500.000
G1 X32.991 Y-172.261 Z27.000 F2500.000
G1 X33.981 Y-172.261 Z15.483 F2500.000
G1 X34.970 Y-172.261 Z15.262 F2500.000
G1 X35.960 Y-172.261 Z15.010 F2500.000
G1 X36.950 Y-172.261 Z14.726 F2500.000
G1 X37.939 Y-172.261 Z14.408 F2500.000
G1 X38.929 Y-172.261 Z14.056 F2500.000
G1 X39.919 Y-172.261 Z13.668 F2500.000
G1 X40.908 Y-172.261 Z13.500 F2500.000
G1 X55.753 Y-172.261 Z13.500 F2500.000
(End of step 18.)
G0 Z26.500
G0 X-10.491 Y-168.261
G0 Z17.500
(Begin step 19.)
G0 X-10.491 Y-168.261
(part 1)
G1 X-10.491 Y-168.261 Z13.500 F2500.000
G1 X4.326 Y-168.261 Z13.500 F2500.000
G1 X5.314 Y-168.261 Z13.635 F2500.000
G1 X6.301 Y-168.261 Z14.022 F2500.000
G1 X7.289 Y-168.261 Z14.375 F2500.000
G1 X8.277 Y-168.261 Z14.692 F2500.000
G1 X9.265 Y-168.261 Z14.976 F2500.000
G1 X10.253 Y-168.261 Z15.228 F2500.000
G1 X11.240 Y-168.261 Z15.450 F2500.000
G1 X12.228 Y-168.261 Z27.000 F2500.000
G1 X32.972 Y-168.261 Z27.000 F2500.000
G1 X33.960 Y-168.261 Z15.449 F2500.000
G1 X34.947 Y-168.261 Z15.228 F2500.000
G1 X35.935 Y-168.261 Z14.976 F2500.000
G1 X36.923 Y-168.261 Z14.691 F2500.000
G1 X37.911 Y-168.261 Z14.374 F2500.000
G1 X38.899 Y-168.261 Z14.023 F2500.000
G1 X39.886 Y-168.261 Z13.634 F2500.000
G1 X40.874 Y-168.261 Z13.500 F2500.000
G1 X55.691 Y-168.261 Z13.500 F2500.000
(End of step 19.)
G0 Z26.500
G0 X-10.430 Y-164.261
G0 Z17.500
(Begin step 20.)
G0 X-10.430 Y-164.261
(part 1)
G1 X-10.430 Y-164.261 Z13.500 F2500.000
G1 X4.360 Y-164.261 Z13.500 F2500.000
G1 X5.346 Y-164.261 Z13.602 F2500.000
G1 X6.332 Y-164.261 Z13.989 F2500.000
G1 X7.318 Y-164.261 Z14.339 F2500.000
G1 X8.304 Y-164.261 Z14.656 F2500.000
G1 X9.290 Y-164.261 Z14.941 F2500.000
G1 X10.276 Y-164.261 Z15.192 F2500.000
G1 X11.261 Y-164.261 Z15.415 F2500.000
G1 X12.247 Y-164.261 Z27.000 F2500.000
G1 X32.953 Y-164.261 Z27.000 F2500.000
G1 X33.939 Y-164.261 Z15.415 F2500.000
G1 X34.924 Y-164.261 Z15.193 F2500.000
G1 X35.910 Y-164.261 Z14.941 F2500.000
G1 X36.896 Y-164.261 Z14.657 F2500.000
G1 X37.882 Y-164.261 Z14.340 F2500.000
G1 X38.868 Y-164.261 Z13.988 F2500.000
G1 X39.854 Y-164.261 Z13.602 F2500.000
G1 X40.840 Y-164.261 Z13.500 F2500.000
G1 X55.630 Y-164.261 Z13.500 F2500.000
(End of step 20.)
G0 Z26.500
G0 X-10.368 Y-160.261
G0 Z17.500
(Begin step 21.)
G0 X-10.368 Y-160.261
(part 1)
G1 X-10.368 Y-160.261 Z13.500 F2500.000
G1 X4.617 Y-160.261 Z13.500 F2500.000
G1 X5.616 Y-160.261 Z13.664 F2500.000
G1 X6.615 Y-160.261 Z14.048 F2500.000
G1 X7.615 Y-160.261 Z14.395 F2500.000
G1 X8.614 Y-160.261 Z14.707 F2500.000
G1 X9.613 Y-160.261 Z14.987 F2500.000
G1 X10.612 Y-160.261 Z15.232 F2500.000
G1 X11.611 Y-160.261 Z15.448 F2500.000
G1 X12.610 Y-160.261 Z27.000 F2500.000
G1 X32.590 Y-160.261 Z27.000 F2500.000
G1 X33.589 Y-160.261 Z15.448 F2500.000
G1 X34.588 Y-160.261 Z15.233 F2500.000
G1 X35.587 Y-160.261 Z14.986 F2500.000
G1 X36.586 Y-160.261 Z14.707 F2500.000
G1 X37.585 Y-160.261 Z14.395 F2500.000
G1 X38.585 Y-160.261 Z14.048 F2500.000
G1 X39.584 Y-160.261 Z13.664 F2500.000
G1 X40.583 Y-160.261 Z13.500 F2500.000
G1 X55.568 Y-160.261 Z13.500 F2500.000
(End of step 21.)
G0 Z26.500
G0 X-10.307 Y-156.261
G0 Z17.500
(Begin step 22.)
G0 X-10.307 Y-156.261
(part 1)
G1 X-10.307 Y-156.261 Z13.500 F2500.000
G1 X4.651 Y-156.261 Z13.500 F2500.000
G1 X5.648 Y-156.261 Z13.631 F2500.000
G1 X6.645 Y-156.261 Z14.014 F2500.000
G1 X7.642 Y-156.261 Z14.359 F2500.000
G1 X8.640 Y-156.261 Z14.673 F2500.000
G1 X9.637 Y-156.261 Z14.951 F2500.000
G1 X10.634 Y-156.261 Z15.198 F2500.000
G1 X11.631 Y-156.261 Z15.413 F2500.000
G1 X12.628 Y-156.261 Z27.000 F2500.000
G1 X32.572 Y-156.261 Z27.000 F2500.000
G1 X33.569 Y-156.261 Z15.413 F2500.000
G1 X34.566 Y-156.261 Z15.199 F2500.000
G1 X35.563 Y-156.261 Z14.950 F2500.000
G1 X36.560 Y-156.261 Z14.673 F2500.000
G1 X37.558 Y-156.261 Z14.360 F2500.000
G1 X38.555 Y-156.261 Z14.014 F2500.000
G1 X39.552 Y-156.261 Z13.631 F2500.000
G1 X40.549 Y-156.261 Z13.500 F2500.000
G1 X55.507 Y-156.261 Z13.500 F2500.000
(End of step 22.)
G0 Z26.500
G0 X-10.245 Y-152.261
G0 Z17.500
(Begin step 23.)
G0 X-10.245 Y-152.261
(part 1)
G1 X-10.245 Y-152.261 Z13.500 F2500.000
G1 X4.685 Y-152.261 Z13.500 F2500.000
G1 X5.680 Y-152.261 Z13.596 F2500.000
G1 X6.675 Y-152.261 Z13.980 F2500.000
G1 X7.670 Y-152.261 Z14.326 F2500.000
G1 X8.666 Y-152.261 Z14.639 F2500.000
G1 X9.661 Y-152.261 Z14.917 F2500.000
G1 X10.656 Y-152.261 Z15.164 F2500.000
G1 X11.652 Y-152.261 Z15.379 F2500.000
G1 X12.647 Y-152.261 Z27.000 F2500.000
G1 X32.553 Y-152.261 Z27.000 F2500.000
G1 X33.548 Y-152.261 Z15.378 F2500.000
G1 X34.544 Y-152.261 Z15.164 F2500.000
G1 X35.539 Y-152.261 Z14.917 F2500.000
G1 X36.534 Y-152.261 Z14.639 F2500.000
G1 X37.530 Y-152.261 Z14.326 F2500.000
G1 X38.525 Y-152.261 Z13.979 F2500.000
G1 X39.520 Y-152.261 Z13.596 F2500.000
G1 X40.515 Y-152.261 Z13.500 F2500.000
G1 X55.445 Y-152.261 Z13.500 F2500.000
(End of step 23.)
G0 Z26.500
G0 X-10.183 Y-148.261
G0 Z17.500
(Begin step 24.)
G0 X-10.183 Y-148.261
(part 1)
G1 X-10.183 Y-148.261 Z13.500 F2500.000
G1 X4.718 Y-148.261 Z13.500 F2500.000
G1 X5.712 Y-148.261 Z13.563 F2500.000
G1 X6.705 Y-148.261 Z13.945 F2500.000
G1 X7.698 Y-148.261 Z14.292 F2500.000
G1 X8.692 Y-148.261 Z14.604 F2500.000
G1 X9.685 Y-148.261 Z14.883 F2500.000
G1 X10.679 Y-148.261 Z15.129 F2500.000
G1 X11.672 Y-148.261 Z15.346 F2500.000
G1 X12.666 Y-148.261 Z27.000 F2500.000
G1 X32.534 Y-148.261 Z27.000 F2500.000
G1 X33.528 Y-148.261 Z15.345 F2500.000
G1 X34.521 Y-148.261 Z15.128 F2500.000
G1 X35.515 Y-148.261 Z14.883 F2500.000
G1 X36.508 Y-148.261 Z14.604 F2500.000
G1 X37.502 Y-148.261 Z14.292 F2500.000
G1 X38.495 Y-148.261 Z13.946 F2500.000
G1 X39.488 Y-148.261 Z13.563 F2500.000
G1 X40.482 Y-148.261 Z13.500 F2500.000
G1 X55.383 Y-148.261 Z13.500 F2500.000
(End of step 24.)
G0 Z26.500
G0 X-10.122 Y-144.261
G0 Z17.500
(Begin step 25.)
G0 X-10.122 Y-144.261
(part 1)
G1 X-10.122 Y-144.261 Z13.500 F2500.000
G1 X4.752 Y-144.261 Z13.500 F2500.000
G1 X5.743 Y-144.261 Z13.530 F2500.000
G1 X6.735 Y-144.261 Z13.911 F2500.000
G1 X7.726 Y-144.261 Z14.258 F2500.000
G1 X8.718 Y-144.261 Z14.570 F2500.000
G1 X9.710 Y-144.261 Z14.849 F2500.000
G1 X10.701 Y-144.261 Z15.096 F2500.000
G1 X11.693 Y-144.261 Z15.311 F2500.000
G1 X12.684 Y-144.261 Z15.496 F2500.000
G1 X13.676 Y-144.261 Z27.000 F2500.000
G1 X31.524 Y-144.261 Z27.000 F2500.000
G1 X32.516 Y-144.261 Z15.497 F2500.000
G1 X33.507 Y-144.261 Z15.311 F2500.000
G1 X34.499 Y-144.261 Z15.095 F2500.000
G1 X35.490 Y-144.261 Z14.849 F2500.000
G1 X36.482 Y-144.261 Z14.570 F2500.000
