(Exported by FreeCAD)
(Post Processor: grbl_post)
(Output Time:2023-08-26 17:28:17.400665)
(Begin preamble)
G17 G90
G21
(Begin operation: 6 ball L24 Q007)
(Path: 6 ball L24 Q007)
(6 ball L24 Q007)
(Begin toolchange)
( M6 T4 )
M3 S24000
(Finish operation: 6 ball L24 Q007)
(Begin operation: Fixture)
(Path: Fixture)
G54
(Finish operation: Fixture)
(Begin operation: Surface001)
(Path: Surface001)
(Surface001)
(Surface001)
(Tool type: ballend)
(Compensated Tool Path. Diameter: 6.0)
(Sample interval: 1.0)
(Step over %: 15.0)
()
G0 Z28.500
(Beginning of Single-pass layer.)
G0 X22.600 Y-188.582
(Begin step 0.)
(part 1.)
G1 X22.600 Y-188.582 Z16.368 F2500.000
G1 X22.597 Y-188.782 Z16.369 F2500.000
G1 X22.255 Y-210.979 Z16.553 F2500.000
G1 X22.306 Y-211.127 Z16.554 F2500.000
G1 X22.906 Y-211.127 Z16.554 F2500.000
G1 X22.944 Y-210.967 Z16.552 F2500.000
G1 X22.600 Y-188.582 Z16.368 F2500.000
(Break)
G0 Z26.500
G0 X22.600 Y-130.069
(part 3.)
G1 X22.600 Y-130.069 Z15.881 F2500.000
G1 X22.597 Y-130.269 Z15.883 F2500.000
G1 X21.982 Y-170.264 Z16.211 F2500.000
G1 X21.342 Y-211.859 Z16.543 F2500.000
G1 X21.372 Y-212.027 Z16.545 F2500.000
G1 X22.172 Y-212.027 Z16.560 F2500.000
G1 X22.972 Y-212.027 Z16.560 F2500.000
G1 X23.772 Y-212.027 Z16.548 F2500.000
G1 X23.859 Y-211.916 Z16.544 F2500.000
G1 X23.204 Y-169.321 Z16.203 F2500.000
G1 X22.600 Y-130.069 Z15.881 F2500.000
(Break)
G0 Z26.500
G0 X22.600 Y-71.555
(part 5.)
G1 X22.600 Y-71.555 Z15.394 F2500.000
G1 X22.597 Y-71.755 Z15.396 F2500.000
G1 X22.068 Y-106.151 Z15.679 F2500.000
G1 X21.474 Y-144.747 Z15.987 F2500.000
G1 X20.428 Y-212.739 Z16.516 F2500.000
G1 X20.438 Y-212.927 Z16.518 F2500.000
G1 X21.278 Y-212.927 Z16.551 F2500.000
G1 X22.118 Y-212.927 Z16.567 F2500.000
G1 X22.958 Y-212.927 Z16.568 F2500.000
G1 X23.798 Y-212.927 Z16.554 F2500.000
G1 X24.638 Y-212.927 Z16.523 F2500.000
G1 X24.774 Y-212.864 Z16.517 F2500.000
G1 X24.162 Y-173.068 Z16.209 F2500.000
G1 X23.526 Y-131.773 Z15.884 F2500.000
G1 X22.965 Y-95.278 Z15.590 F2500.000
G1 X22.600 Y-71.555 Z15.394 F2500.000
(Break)
G0 Z26.500
G0 X22.810 Y-26.695
(part 7.)
G1 X22.810 Y-26.695 Z15.020 F2500.000
G1 X22.410 Y-26.695 Z15.021 F2500.000
G1 X22.387 Y-26.875 Z15.022 F2500.000
G1 X21.793 Y-65.471 Z15.335 F2500.000
G1 X21.061 Y-113.065 Z15.707 F2500.000
G1 X20.440 Y-153.460 Z16.016 F2500.000
G1 X19.514 Y-213.653 Z16.469 F2500.000
G1 X19.538 Y-213.827 Z16.472 F2500.000
G1 X20.538 Y-213.827 Z16.530 F2500.000
G1 X21.538 Y-213.827 Z16.565 F2500.000
G1 X22.538 Y-213.827 Z16.577 F2500.000
G1 X23.538 Y-213.827 Z16.568 F2500.000
G1 X24.538 Y-213.827 Z16.536 F2500.000
G1 X25.538 Y-213.827 Z16.480 F2500.000
G1 X25.688 Y-213.777 Z16.469 F2500.000
G1 X24.762 Y-153.584 Z16.017 F2500.000
G1 X24.073 Y-108.789 Z15.674 F2500.000
G1 X23.362 Y-62.595 Z15.312 F2500.000
G1 X22.810 Y-26.695 Z15.020 F2500.000
(Break)
G0 Z26.500
G0 X23.696 Y-25.796
(part 9.)
G1 X23.696 Y-25.796 Z14.995 F2500.000
G1 X23.030 Y-25.796 Z15.011 F2500.000
G1 X22.363 Y-25.796 Z15.013 F2500.000
G1 X21.696 Y-25.796 Z15.001 F2500.000
G1 X21.504 Y-25.803 Z14.995 F2500.000
G1 X21.014 Y-57.599 Z15.240 F2500.000
G1 X20.348 Y-100.894 Z15.567 F2500.000
G1 X18.600 Y-214.581 Z16.402 F2500.000
G1 X18.651 Y-214.727 Z16.408 F2500.000
G1 X19.626 Y-214.727 Z16.486 F2500.000
G1 X20.601 Y-214.727 Z16.541 F2500.000
G1 X21.576 Y-214.727 Z16.574 F2500.000
G1 X22.551 Y-214.727 Z16.585 F2500.000
G1 X23.526 Y-214.727 Z16.576 F2500.000
G1 X24.501 Y-214.727 Z16.544 F2500.000
G1 X25.476 Y-214.727 Z16.492 F2500.000
G1 X26.451 Y-214.727 Z16.416 F2500.000
G1 X26.602 Y-214.678 Z16.402 F2500.000
G1 X24.939 Y-106.590 Z15.609 F2500.000
G1 X24.347 Y-68.095 Z15.320 F2500.000
G1 X23.696 Y-25.796 Z14.995 F2500.000
(Break)
G0 Z26.500
G0 X24.583 Y-24.895
(part 11.)
G1 X24.583 Y-24.895 Z14.944 F2500.000
G1 X23.633 Y-24.895 Z14.990 F2500.000
G1 X22.683 Y-24.895 Z15.007 F2500.000
G1 X21.733 Y-24.895 Z14.995 F2500.000
G1 X20.783 Y-24.895 Z14.954 F2500.000
G1 X20.617 Y-24.930 Z14.944 F2500.000
G1 X19.454 Y-100.521 Z15.495 F2500.000
G1 X17.685 Y-215.508 Z16.315 F2500.000
G1 X17.765 Y-215.627 Z16.326 F2500.000
G1 X18.725 Y-215.627 Z16.422 F2500.000
G1 X19.685 Y-215.627 Z16.497 F2500.000
G1 X20.645 Y-215.627 Z16.551 F2500.000
G1 X21.605 Y-215.627 Z16.582 F2500.000
G1 X22.565 Y-215.627 Z16.592 F2500.000
G1 X23.525 Y-215.627 Z16.584 F2500.000
G1 X24.485 Y-215.627 Z16.554 F2500.000
G1 X25.445 Y-215.627 Z16.502 F2500.000
G1 X26.405 Y-215.627 Z16.428 F2500.000
G1 X27.365 Y-215.627 Z16.333 F2500.000
G1 X27.516 Y-215.578 Z16.316 F2500.000
G1 X25.587 Y-90.193 Z15.421 F2500.000
G1 X24.583 Y-24.895 Z14.944 F2500.000
(Break)
G0 Z26.500
G0 X25.469 Y-23.995
(part 13.)
G1 X25.469 Y-23.995 Z14.867 F2500.000
G1 X24.535 Y-23.995 Z14.939 F2500.000
G1 X23.602 Y-23.995 Z14.983 F2500.000
G1 X22.669 Y-23.995 Z14.999 F2500.000
G1 X21.735 Y-23.995 Z14.987 F2500.000
G1 X20.802 Y-23.995 Z14.947 F2500.000
G1 X19.869 Y-23.995 Z14.879 F2500.000
G1 X19.730 Y-24.058 Z14.867 F2500.000
G1 X18.949 Y-74.852 Z15.224 F2500.000
G1 X17.377 Y-177.040 Z15.932 F2500.000
G1 X16.771 Y-216.435 Z16.209 F2500.000
G1 X16.878 Y-216.527 Z16.224 F2500.000
G1 X17.828 Y-216.527 Z16.340 F2500.000
G1 X18.778 Y-216.527 Z16.436 F2500.000
G1 X19.728 Y-216.527 Z16.508 F2500.000
G1 X20.678 Y-216.527 Z16.560 F2500.000
G1 X21.628 Y-216.527 Z16.589 F2500.000
G1 X22.578 Y-216.527 Z16.600 F2500.000
G1 X23.528 Y-216.527 Z16.591 F2500.000
G1 X24.478 Y-216.527 Z16.561 F2500.000
G1 X25.428 Y-216.527 Z16.511 F2500.000
G1 X26.378 Y-216.527 Z16.438 F2500.000
G1 X27.328 Y-216.527 Z16.345 F2500.000
G1 X28.278 Y-216.527 Z16.229 F2500.000
G1 X28.430 Y-216.479 Z16.209 F2500.000
G1 X27.753 Y-172.484 Z15.900 F2500.000
G1 X26.252 Y-74.896 Z15.225 F2500.000
G1 X25.469 Y-23.995 Z14.867 F2500.000
(Break)
G0 Z26.500
G0 X26.355 Y-23.096
(part 15.)
G1 X26.355 Y-23.096 Z14.765 F2500.000
G1 X25.430 Y-23.096 Z14.863 F2500.000
G1 X24.505 Y-23.096 Z14.933 F2500.000
G1 X23.580 Y-23.096 Z14.976 F2500.000
G1 X22.655 Y-23.096 Z14.992 F2500.000
G1 X21.730 Y-23.096 Z14.978 F2500.000
G1 X20.805 Y-23.096 Z14.940 F2500.000
G1 X19.880 Y-23.096 Z14.873 F2500.000
G1 X18.955 Y-23.096 Z14.778 F2500.000
G1 X18.844 Y-23.185 Z14.766 F2500.000
G1 X16.939 Y-146.971 Z15.599 F2500.000
G1 X15.857 Y-217.362 Z16.080 F2500.000
G1 X15.991 Y-217.427 Z16.102 F2500.000
G1 X16.934 Y-217.427 Z16.240 F2500.000
G1 X17.877 Y-217.427 Z16.355 F2500.000
G1 X18.820 Y-217.427 Z16.447 F2500.000
G1 X19.763 Y-217.427 Z16.518 F2500.000
G1 X20.706 Y-217.427 Z16.568 F2500.000
G1 X21.649 Y-217.427 Z16.597 F2500.000
G1 X22.591 Y-217.427 Z16.608 F2500.000
G1 X23.534 Y-217.427 Z16.598 F2500.000
G1 X24.477 Y-217.427 Z16.569 F2500.000
G1 X25.420 Y-217.427 Z16.519 F2500.000
G1 X26.363 Y-217.427 Z16.449 F2500.000
G1 X27.306 Y-217.427 Z16.356 F2500.000
G1 X28.249 Y-217.427 Z16.242 F2500.000
G1 X29.191 Y-217.427 Z16.105 F2500.000
G1 X29.344 Y-217.380 Z16.080 F2500.000
G1 X28.553 Y-165.986 Z15.728 F2500.000
G1 X26.355 Y-23.096 Z14.765 F2500.000
(Break)
G0 Z26.500
G0 X27.241 Y-22.195
(part 17.)
G1 X27.241 Y-22.195 Z14.639 F2500.000
G1 X26.321 Y-22.195 Z14.762 F2500.000
G1 X25.401 Y-22.195 Z14.858 F2500.000
G1 X24.481 Y-22.195 Z14.927 F2500.000
G1 X23.561 Y-22.195 Z14.969 F2500.000
G1 X22.641 Y-22.195 Z14.984 F2500.000
G1 X21.721 Y-22.195 Z14.972 F2500.000
G1 X20.801 Y-22.195 Z14.932 F2500.000
G1 X19.881 Y-22.195 Z14.865 F2500.000
G1 X18.961 Y-22.195 Z14.771 F2500.000
G1 X18.041 Y-22.195 Z14.651 F2500.000
G1 X17.957 Y-22.313 Z14.640 F2500.000
G1 X16.385 Y-124.501 Z15.305 F2500.000
G1 X15.348 Y-191.893 Z15.751 F2500.000
G1 X14.942 Y-218.290 Z15.930 F2500.000
G1 X15.105 Y-218.327 Z15.961 F2500.000
G1 X16.105 Y-218.327 Z16.129 F2500.000
G1 X17.105 Y-218.327 Z16.270 F2500.000
G1 X18.105 Y-218.327 Z16.387 F2500.000
G1 X19.105 Y-218.327 Z16.478 F2500.000
G1 X20.105 Y-218.327 Z16.546 F2500.000
G1 X21.105 Y-218.327 Z16.590 F2500.000
G1 X22.105 Y-218.327 Z16.611 F2500.000
G1 X23.105 Y-218.327 Z16.611 F2500.000
G1 X24.105 Y-218.327 Z16.590 F2500.000
G1 X25.105 Y-218.327 Z16.546 F2500.000
G1 X26.105 Y-218.327 Z16.478 F2500.000
G1 X27.105 Y-218.327 Z16.386 F2500.000
G1 X28.105 Y-218.327 Z16.269 F2500.000
G1 X29.105 Y-218.327 Z16.127 F2500.000
G1 X30.105 Y-218.327 Z15.958 F2500.000
G1 X30.258 Y-218.280 Z15.931 F2500.000
G1 X29.707 Y-182.484 Z15.688 F2500.000
G1 X28.806 Y-123.891 Z15.301 F2500.000
G1 X27.241 Y-22.195 Z14.639 F2500.000
(Break)
G0 Z26.500
G0 X28.128 Y-21.296
(part 19.)
G1 X28.128 Y-21.296 Z14.487 F2500.000
G1 X27.211 Y-21.296 Z14.635 F2500.000
G1 X26.294 Y-21.296 Z14.757 F2500.000
G1 X25.378 Y-21.296 Z14.851 F2500.000
G1 X24.461 Y-21.296 Z14.920 F2500.000
G1 X23.544 Y-21.296 Z14.962 F2500.000
G1 X22.628 Y-21.296 Z14.977 F2500.000
G1 X21.711 Y-21.296 Z14.964 F2500.000
G1 X20.794 Y-21.296 Z14.923 F2500.000
G1 X19.878 Y-21.296 Z14.856 F2500.000
G1 X18.961 Y-21.296 Z14.763 F2500.000
G1 X18.044 Y-21.296 Z14.643 F2500.000
G1 X17.128 Y-21.296 Z14.497 F2500.000
G1 X17.070 Y-21.440 Z14.488 F2500.000
G1 X15.526 Y-121.828 Z15.123 F2500.000
G1 X14.434 Y-192.820 Z15.582 F2500.000
G1 X14.028 Y-219.217 Z15.759 F2500.000
G1 X14.218 Y-219.227 Z15.798 F2500.000
G1 X15.206 Y-219.227 Z15.988 F2500.000
G1 X16.194 Y-219.227 Z16.150 F2500.000
G1 X17.183 Y-219.227 Z16.287 F2500.000
G1 X18.171 Y-219.227 Z16.401 F2500.000
G1 X19.159 Y-219.227 Z16.490 F2500.000
G1 X20.147 Y-219.227 Z16.555 F2500.000
G1 X21.136 Y-219.227 Z16.598 F2500.000
G1 X22.124 Y-219.227 Z16.619 F2500.000
G1 X23.112 Y-219.227 Z16.619 F2500.000
G1 X24.100 Y-219.227 Z16.597 F2500.000
G1 X25.089 Y-219.227 Z16.554 F2500.000
G1 X26.077 Y-219.227 Z16.487 F2500.000
G1 X27.065 Y-219.227 Z16.397 F2500.000
G1 X28.053 Y-219.227 Z16.283 F2500.000
G1 X29.042 Y-219.227 Z16.144 F2500.000
G1 X30.030 Y-219.227 Z15.981 F2500.000
G1 X31.018 Y-219.227 Z15.791 F2500.000
G1 X31.172 Y-219.181 Z15.759 F2500.000
G1 X30.581 Y-180.785 Z15.503 F2500.000
G1 X30.037 Y-145.390 Z15.273 F2500.000
G1 X28.128 Y-21.296 Z14.487 F2500.000
(Break)
G0 Z26.500
G0 X29.014 Y-20.395
(part 21.)
G1 X29.014 Y-20.395 Z14.313 F2500.000
G1 X28.029 Y-20.395 Z14.497 F2500.000
G1 X27.045 Y-20.395 Z14.652 F2500.000
G1 X26.060 Y-20.395 Z14.775 F2500.000
G1 X25.075 Y-20.395 Z14.870 F2500.000
G1 X24.091 Y-20.395 Z14.933 F2500.000
G1 X23.106 Y-20.395 Z14.965 F2500.000
G1 X22.122 Y-20.395 Z14.966 F2500.000
G1 X21.137 Y-20.395 Z14.934 F2500.000
G1 X20.152 Y-20.395 Z14.872 F2500.000
G1 X19.168 Y-20.395 Z14.778 F2500.000
G1 X18.183 Y-20.395 Z14.656 F2500.000
G1 X17.198 Y-20.395 Z14.502 F2500.000
G1 X16.214 Y-20.395 Z14.319 F2500.000
G1 X16.183 Y-20.568 Z14.314 F2500.000
G1 X15.199 Y-84.560 Z14.703 F2500.000
G1 X13.922 Y-167.550 Z15.223 F2500.000
G1 X13.116 Y-219.944 Z15.562 F2500.000
G1 X13.131 Y-220.127 Z15.568 F2500.000
G1 X14.121 Y-220.127 Z15.787 F2500.000
G1 X15.110 Y-220.127 Z15.979 F2500.000
G1 X16.100 Y-220.127 Z16.144 F2500.000
G1 X17.089 Y-220.127 Z16.285 F2500.000
G1 X18.079 Y-220.127 Z16.400 F2500.000
G1 X19.068 Y-220.127 Z16.491 F2500.000
G1 X20.058 Y-220.127 Z16.559 F2500.000
G1 X21.047 Y-220.127 Z16.603 F2500.000
G1 X22.037 Y-220.127 Z16.626 F2500.000
G1 X23.026 Y-220.127 Z16.628 F2500.000
G1 X24.016 Y-220.127 Z16.607 F2500.000
G1 X25.005 Y-220.127 Z16.566 F2500.000
G1 X25.994 Y-220.127 Z16.502 F2500.000
G1 X26.984 Y-220.127 Z16.413 F2500.000
G1 X27.973 Y-220.127 Z16.302 F2500.000
G1 X28.963 Y-220.127 Z16.166 F2500.000
G1 X29.952 Y-220.127 Z16.003 F2500.000
G1 X30.942 Y-220.127 Z15.816 F2500.000
G1 X31.931 Y-220.127 Z15.600 F2500.000
G1 X32.086 Y-220.081 Z15.563 F2500.000
G1 X31.598 Y-188.385 Z15.355 F2500.000
G1 X30.809 Y-137.091 Z15.030 F2500.000
G1 X29.923 Y-79.498 Z14.672 F2500.000
G1 X29.014 Y-20.395 Z14.313 F2500.000
(Break)
G0 Z26.500
G0 X29.900 Y-19.495
(part 23.)
G1 X29.900 Y-19.495 Z14.113 F2500.000
G1 X28.927 Y-19.495 Z14.321 F2500.000
G1 X27.953 Y-19.495 Z14.502 F2500.000
G1 X26.980 Y-19.495 Z14.653 F2500.000
G1 X26.007 Y-19.495 Z14.774 F2500.000
G1 X25.033 Y-19.495 Z14.866 F2500.000
G1 X24.060 Y-19.495 Z14.926 F2500.000
G1 X23.087 Y-19.495 Z14.958 F2500.000
G1 X22.113 Y-19.495 Z14.958 F2500.000
G1 X21.140 Y-19.495 Z14.927 F2500.000
G1 X20.167 Y-19.495 Z14.866 F2500.000
G1 X19.193 Y-19.495 Z14.774 F2500.000
G1 X18.220 Y-19.495 Z14.653 F2500.000
G1 X17.247 Y-19.495 Z14.502 F2500.000
G1 X16.273 Y-19.495 Z14.321 F2500.000
G1 X15.300 Y-19.495 Z14.113 F2500.000
G1 X14.642 Y-62.290 Z14.364 F2500.000
G1 X13.611 Y-129.282 Z14.768 F2500.000
G1 X12.848 Y-178.876 Z15.075 F2500.000
G1 X12.202 Y-220.871 Z15.343 F2500.000
G1 X12.245 Y-221.027 Z15.356 F2500.000
G1 X13.226 Y-221.027 Z15.599 F2500.000
G1 X14.207 Y-221.027 Z15.813 F2500.000
G1 X15.188 Y-221.027 Z16.002 F2500.000
G1 X16.168 Y-221.027 Z16.163 F2500.000
G1 X17.149 Y-221.027 Z16.301 F2500.000
G1 X18.130 Y-221.027 Z16.413 F2500.000
G1 X19.111 Y-221.027 Z16.502 F2500.000
G1 X20.092 Y-221.027 Z16.568 F2500.000
G1 X21.073 Y-221.027 Z16.612 F2500.000
G1 X22.054 Y-221.027 Z16.635 F2500.000
G1 X23.035 Y-221.027 Z16.636 F2500.000
G1 X24.016 Y-221.027 Z16.615 F2500.000
G1 X24.997 Y-221.027 Z16.574 F2500.000
G1 X25.978 Y-221.027 Z16.511 F2500.000
G1 X26.959 Y-221.027 Z16.425 F2500.000
G1 X27.940 Y-221.027 Z16.315 F2500.000
G1 X28.921 Y-221.027 Z16.180 F2500.000
G1 X29.902 Y-221.027 Z16.021 F2500.000
G1 X30.883 Y-221.027 Z15.836 F2500.000
G1 X31.864 Y-221.027 Z15.625 F2500.000
G1 X32.845 Y-221.027 Z15.384 F2500.000
G1 X33.000 Y-220.982 Z15.344 F2500.000
G1 X32.366 Y-179.787 Z15.081 F2500.000
G1 X31.463 Y-121.094 Z14.718 F2500.000
G1 X30.492 Y-58.001 Z14.338 F2500.000
G1 X29.900 Y-19.495 Z14.113 F2500.000
(Break)
G0 Z26.500
G0 X30.786 Y-18.596
(part 25.)
G1 X30.786 Y-18.596 Z13.887 F2500.000
G1 X29.833 Y-18.596 Z14.119 F2500.000
G1 X28.881 Y-18.596 Z14.323 F2500.000
G1 X27.928 Y-18.596 Z14.499 F2500.000
G1 X26.975 Y-18.596 Z14.645 F2500.000
G1 X26.022 Y-18.596 Z14.764 F2500.000
G1 X25.069 Y-18.596 Z14.855 F2500.000
G1 X24.116 Y-18.596 Z14.916 F2500.000
G1 X23.163 Y-18.596 Z14.948 F2500.000
G1 X22.210 Y-18.596 Z14.952 F2500.000
G1 X21.257 Y-18.596 Z14.924 F2500.000
G1 X20.304 Y-18.596 Z14.869 F2500.000
G1 X19.351 Y-18.596 Z14.783 F2500.000
G1 X18.398 Y-18.596 Z14.669 F2500.000
G1 X17.445 Y-18.596 Z14.527 F2500.000
G1 X16.492 Y-18.596 Z14.357 F2500.000
G1 X15.539 Y-18.596 Z14.158 F2500.000
G1 X14.586 Y-18.596 Z13.931 F2500.000
G1 X14.413 Y-18.623 Z13.887 F2500.000
G1 X14.004 Y-45.220 Z14.038 F2500.000
G1 X12.860 Y-119.611 Z14.473 F2500.000
G1 X12.005 Y-175.204 Z14.810 F2500.000
G1 X11.288 Y-221.799 Z15.099 F2500.000
G1 X11.358 Y-221.927 Z15.122 F2500.000
G1 X12.332 Y-221.927 Z15.389 F2500.000
G1 X13.306 Y-221.927 Z15.627 F2500.000
G1 X14.280 Y-221.927 Z15.837 F2500.000
G1 X15.254 Y-221.927 Z16.022 F2500.000
G1 X16.228 Y-221.927 Z16.181 F2500.000
G1 X17.201 Y-221.927 Z16.315 F2500.000
G1 X18.175 Y-221.927 Z16.426 F2500.000
G1 X19.149 Y-221.927 Z16.513 F2500.000
G1 X20.123 Y-221.927 Z16.578 F2500.000
G1 X21.097 Y-221.927 Z16.620 F2500.000
G1 X22.071 Y-221.927 Z16.642 F2500.000
G1 X23.045 Y-221.927 Z16.643 F2500.000
G1 X24.019 Y-221.927 Z16.623 F2500.000
G1 X24.993 Y-221.927 Z16.582 F2500.000
G1 X25.967 Y-221.927 Z16.519 F2500.000
G1 X26.941 Y-221.927 Z16.434 F2500.000
G1 X27.914 Y-221.927 Z16.326 F2500.000
G1 X28.888 Y-221.927 Z16.193 F2500.000
G1 X29.862 Y-221.927 Z16.037 F2500.000
G1 X30.836 Y-221.927 Z15.854 F2500.000
G1 X31.810 Y-221.927 Z15.646 F2500.000
G1 X32.784 Y-221.927 Z15.410 F2500.000
G1 X33.758 Y-221.927 Z15.147 F2500.000
G1 X33.914 Y-221.883 Z15.101 F2500.000
G1 X33.326 Y-183.687 Z14.862 F2500.000
G1 X32.339 Y-119.495 Z14.472 F2500.000
G1 X31.373 Y-56.702 Z14.104 F2500.000
G1 X30.786 Y-18.596 Z13.887 F2500.000
(Break)
G0 Z26.500
G0 X31.673 Y-17.695
(part 27.)
G1 X31.673 Y-17.695 Z13.638 F2500.000
G1 X30.673 Y-17.695 Z13.907 F2500.000
G1 X29.673 Y-17.695 Z14.147 F2500.000
G1 X28.673 Y-17.695 Z14.355 F2500.000
G1 X27.673 Y-17.695 Z14.532 F2500.000
G1 X26.673 Y-17.695 Z14.678 F2500.000
G1 X25.673 Y-17.695 Z14.793 F2500.000
G1 X24.673 Y-17.695 Z14.877 F2500.000
G1 X23.673 Y-17.695 Z14.926 F2500.000
G1 X22.673 Y-17.695 Z14.947 F2500.000
G1 X21.673 Y-17.695 Z14.933 F2500.000
G1 X20.673 Y-17.695 Z14.885 F2500.000
G1 X19.673 Y-17.695 Z14.807 F2500.000
G1 X18.673 Y-17.695 Z14.698 F2500.000
G1 X17.673 Y-17.695 Z14.555 F2500.000
G1 X16.673 Y-17.695 Z14.383 F2500.000
G1 X15.673 Y-17.695 Z14.180 F2500.000
G1 X14.673 Y-17.695 Z13.944 F2500.000
G1 X13.673 Y-17.695 Z13.679 F2500.000
G1 X13.527 Y-17.750 Z13.638 F2500.000
G1 X12.927 Y-56.746 Z13.854 F2500.000
G1 X11.973 Y-118.738 Z14.208 F2500.000
G1 X11.139 Y-172.932 Z14.528 F2500.000
G1 X10.373 Y-222.726 Z14.832 F2500.000
G1 X10.471 Y-222.827 Z14.864 F2500.000
G1 X11.439 Y-222.827 Z15.154 F2500.000
G1 X12.407 Y-222.827 Z15.417 F2500.000
G1 X13.375 Y-222.827 Z15.651 F2500.000
G1 X14.343 Y-222.827 Z15.857 F2500.000
G1 X15.311 Y-222.827 Z16.040 F2500.000
G1 X16.279 Y-222.827 Z16.196 F2500.000
G1 X17.247 Y-222.827 Z16.329 F2500.000
G1 X18.215 Y-222.827 Z16.437 F2500.000
G1 X19.183 Y-222.827 Z16.523 F2500.000
G1 X20.151 Y-222.827 Z16.587 F2500.000
G1 X21.119 Y-222.827 Z16.628 F2500.000
G1 X22.087 Y-222.827 Z16.649 F2500.000
G1 X23.055 Y-222.827 Z16.650 F2500.000
G1 X24.023 Y-222.827 Z16.630 F2500.000
G1 X24.991 Y-222.827 Z16.590 F2500.000
G1 X25.959 Y-222.827 Z16.527 F2500.000
G1 X26.927 Y-222.827 Z16.443 F2500.000
G1 X27.895 Y-222.827 Z16.336 F2500.000
G1 X28.863 Y-222.827 Z16.205 F2500.000
G1 X29.831 Y-222.827 Z16.050 F2500.000
G1 X30.799 Y-222.827 Z15.869 F2500.000
G1 X31.767 Y-222.827 Z15.664 F2500.000
G1 X32.735 Y-222.827 Z15.432 F2500.000
G1 X33.703 Y-222.827 Z15.171 F2500.000
G1 X34.671 Y-222.827 Z14.882 F2500.000
G1 X34.828 Y-222.783 Z14.832 F2500.000
G1 X33.975 Y-167.390 Z14.495 F2500.000
G1 X33.290 Y-122.862 Z14.232 F2500.000
G1 X32.736 Y-86.799 Z14.024 F2500.000
G1 X31.673 Y-17.695 Z13.638 F2500.000
(Break)
G0 Z26.500
G0 X32.559 Y-16.796
(part 29.)
G1 X32.559 Y-16.796 Z13.363 F2500.000
G1 X31.569 Y-16.796 Z13.657 F2500.000
G1 X30.579 Y-16.796 Z13.922 F2500.000
G1 X29.589 Y-16.796 Z14.158 F2500.000
G1 X28.599 Y-16.796 Z14.361 F2500.000
G1 X27.609 Y-16.796 Z14.535 F2500.000
G1 X26.619 Y-16.796 Z14.677 F2500.000
G1 X25.629 Y-16.796 Z14.789 F2500.000
G1 X24.639 Y-16.796 Z14.872 F2500.000
G1 X23.649 Y-16.796 Z14.921 F2500.000
G1 X22.659 Y-16.796 Z14.939 F2500.000
G1 X21.669 Y-16.796 Z14.925 F2500.000
G1 X20.679 Y-16.796 Z14.879 F2500.000
G1 X19.689 Y-16.796 Z14.801 F2500.000
G1 X18.699 Y-16.796 Z14.693 F2500.000
G1 X17.709 Y-16.796 Z14.553 F2500.000
G1 X16.719 Y-16.796 Z14.383 F2500.000
G1 X15.729 Y-16.796 Z14.183 F2500.000
G1 X14.739 Y-16.796 Z13.952 F2500.000
G1 X13.749 Y-16.796 Z13.690 F2500.000
G1 X12.759 Y-16.796 Z13.399 F2500.000
G1 X12.640 Y-16.878 Z13.363 F2500.000
G1 X12.034 Y-56.273 Z13.575 F2500.000
G1 X11.068 Y-119.066 Z13.925 F2500.000
G1 X10.111 Y-181.258 Z14.284 F2500.000
G1 X9.459 Y-223.653 Z14.536 F2500.000
G1 X9.585 Y-223.727 Z14.581 F2500.000
G1 X10.548 Y-223.727 Z14.896 F2500.000
G1 X11.511 Y-223.727 Z15.184 F2500.000
G1 X12.473 Y-223.727 Z15.444 F2500.000
G1 X13.436 Y-223.727 Z15.673 F2500.000
G1 X14.399 Y-223.727 Z15.877 F2500.000
G1 X15.362 Y-223.727 Z16.057 F2500.000
G1 X16.325 Y-223.727 Z16.212 F2500.000
G1 X17.288 Y-223.727 Z16.342 F2500.000
G1 X18.251 Y-223.727 Z16.449 F2500.000
G1 X19.214 Y-223.727 Z16.534 F2500.000
G1 X20.177 Y-223.727 Z16.594 F2500.000
G1 X21.140 Y-223.727 Z16.637 F2500.000
G1 X22.103 Y-223.727 Z16.657 F2500.000
G1 X23.066 Y-223.727 Z16.658 F2500.000
G1 X24.029 Y-223.727 Z16.637 F2500.000
G1 X24.992 Y-223.727 Z16.597 F2500.000
G1 X25.955 Y-223.727 Z16.535 F2500.000
G1 X26.918 Y-223.727 Z16.452 F2500.000
G1 X27.881 Y-223.727 Z16.346 F2500.000
G1 X28.844 Y-223.727 Z16.217 F2500.000
G1 X29.807 Y-223.727 Z16.062 F2500.000
G1 X30.770 Y-223.727 Z15.884 F2500.000
G1 X31.733 Y-223.727 Z15.680 F2500.000
G1 X32.696 Y-223.727 Z15.451 F2500.000
G1 X33.659 Y-223.727 Z15.193 F2500.000
G1 X34.622 Y-223.727 Z14.906 F2500.000
G1 X35.585 Y-223.727 Z14.592 F2500.000
G1 X35.741 Y-223.684 Z14.537 F2500.000
G1 X34.819 Y-163.691 Z14.182 F2500.000
G1 X34.130 Y-118.896 Z13.924 F2500.000
G1 X33.284 Y-63.903 Z13.618 F2500.000
G1 X32.559 Y-16.796 Z13.363 F2500.000
(Break)
G0 Z26.500
G0 X33.445 Y-15.896
(part 31.)
G1 X33.445 Y-15.896 Z13.063 F2500.000
G1 X32.463 Y-15.896 Z13.384 F2500.000
G1 X31.482 Y-15.896 Z13.674 F2500.000
G1 X30.500 Y-15.896 Z13.934 F2500.000
G1 X29.518 Y-15.896 Z14.165 F2500.000
G1 X28.536 Y-15.896 Z14.364 F2500.000
G1 X27.554 Y-15.896 Z14.534 F2500.000
G1 X26.572 Y-15.896 Z14.676 F2500.000
G1 X25.591 Y-15.896 Z14.785 F2500.000
G1 X24.609 Y-15.896 Z14.866 F2500.000
G1 X23.627 Y-15.896 Z14.915 F2500.000
G1 X22.645 Y-15.896 Z14.931 F2500.000
G1 X21.663 Y-15.896 Z14.917 F2500.000
G1 X20.682 Y-15.896 Z14.871 F2500.000
G1 X19.700 Y-15.896 Z14.794 F2500.000
G1 X18.718 Y-15.896 Z14.687 F2500.000
G1 X17.736 Y-15.896 Z14.548 F2500.000
G1 X16.754 Y-15.896 Z14.382 F2500.000
G1 X15.772 Y-15.896 Z14.185 F2500.000
G1 X14.791 Y-15.896 Z13.957 F2500.000
G1 X13.809 Y-15.896 Z13.700 F2500.000
G1 X12.827 Y-15.896 Z13.412 F2500.000
G1 X11.845 Y-15.896 Z13.094 F2500.000
G1 X11.753 Y-16.005 Z13.064 F2500.000
G1 X11.119 Y-57.200 Z13.279 F2500.000
G1 X10.169 Y-118.993 Z13.614 F2500.000
G1 X9.242 Y-179.253 Z13.952 F2500.000
G1 X8.545 Y-224.580 Z14.214 F2500.000
G1 X8.698 Y-224.626 Z14.272 F2500.000
G1 X9.691 Y-224.626 Z14.628 F2500.000
G1 X10.684 Y-224.626 Z14.950 F2500.000
G1 X11.676 Y-224.626 Z15.241 F2500.000
G1 X12.669 Y-224.626 Z15.502 F2500.000
G1 X13.662 Y-224.626 Z15.734 F2500.000
G1 X14.655 Y-224.626 Z15.937 F2500.000
G1 X15.648 Y-224.626 Z16.115 F2500.000
G1 X16.641 Y-224.626 Z16.265 F2500.000
G1 X17.634 Y-224.626 Z16.390 F2500.000
G1 X18.626 Y-224.626 Z16.493 F2500.000
G1 X19.619 Y-224.626 Z16.569 F2500.000
G1 X20.612 Y-224.626 Z16.624 F2500.000
G1 X21.605 Y-224.626 Z16.657 F2500.000
G1 X22.598 Y-224.626 Z16.667 F2500.000
G1 X23.591 Y-224.626 Z16.657 F2500.000
G1 X24.584 Y-224.626 Z16.624 F2500.000
G1 X25.576 Y-224.626 Z16.570 F2500.000
G1 X26.569 Y-224.626 Z16.493 F2500.000
G1 X27.562 Y-224.626 Z16.392 F2500.000
G1 X28.555 Y-224.626 Z16.265 F2500.000
G1 X29.548 Y-224.626 Z16.116 F2500.000
G1 X30.541 Y-224.626 Z15.938 F2500.000
G1 X31.534 Y-224.626 Z15.734 F2500.000
G1 X32.526 Y-224.626 Z15.503 F2500.000
G1 X33.519 Y-224.626 Z15.242 F2500.000
G1 X34.512 Y-224.626 Z14.952 F2500.000
G1 X35.505 Y-224.626 Z14.629 F2500.000
G1 X36.498 Y-224.626 Z14.274 F2500.000
G1 X36.655 Y-224.585 Z14.214 F2500.000
G1 X35.951 Y-178.790 Z13.949 F2500.000
G1 X34.914 Y-111.398 Z13.573 F2500.000
G1 X33.967 Y-49.805 Z13.240 F2500.000
G1 X33.445 Y-15.896 Z13.063 F2500.000
(Break)
G0 Z26.500
G0 X34.331 Y-14.996
(part 33.)
G1 X34.331 Y-14.996 Z12.738 F2500.000
G1 X33.356 Y-14.996 Z13.084 F2500.000
G1 X32.381 Y-14.996 Z13.401 F2500.000
G1 X31.406 Y-14.996 Z13.687 F2500.000
G1 X30.431 Y-14.996 Z13.943 F2500.000
G1 X29.456 Y-14.996 Z14.170 F2500.000
G1 X28.481 Y-14.996 Z14.366 F2500.000
G1 X27.506 Y-14.996 Z14.535 F2500.000
G1 X26.531 Y-14.996 Z14.673 F2500.000
G1 X25.556 Y-14.996 Z14.782 F2500.000
G1 X24.581 Y-14.996 Z14.860 F2500.000
G1 X23.606 Y-14.996 Z14.908 F2500.000
G1 X22.631 Y-14.996 Z14.924 F2500.000
G1 X21.656 Y-14.996 Z14.910 F2500.000
G1 X20.681 Y-14.996 Z14.864 F2500.000
G1 X19.706 Y-14.996 Z14.788 F2500.000
G1 X18.731 Y-14.996 Z14.681 F2500.000
G1 X17.756 Y-14.996 Z14.544 F2500.000
G1 X16.781 Y-14.996 Z14.378 F2500.000
G1 X15.806 Y-14.996 Z14.183 F2500.000
G1 X14.831 Y-14.996 Z13.959 F2500.000
G1 X13.856 Y-14.996 Z13.704 F2500.000
G1 X12.881 Y-14.996 Z13.420 F2500.000
G1 X11.906 Y-14.996 Z13.105 F2500.000
G1 X10.931 Y-14.996 Z12.761 F2500.000
G1 X10.866 Y-15.133 Z12.738 F2500.000
G1 X10.227 Y-56.728 Z12.949 F2500.000
G1 X9.411 Y-109.721 Z13.227 F2500.000
G1 X8.341 Y-179.313 Z13.605 F2500.000
G1 X7.630 Y-225.508 Z13.862 F2500.000
G1 X7.811 Y-225.526 Z13.937 F2500.000
G1 X8.798 Y-225.526 Z14.320 F2500.000
G1 X9.785 Y-225.526 Z14.669 F2500.000
G1 X10.771 Y-225.526 Z14.987 F2500.000
G1 X11.758 Y-225.526 Z15.273 F2500.000
G1 X12.745 Y-225.526 Z15.530 F2500.000
G1 X13.731 Y-225.526 Z15.758 F2500.000
G1 X14.718 Y-225.526 Z15.959 F2500.000
G1 X15.705 Y-225.526 Z16.133 F2500.000
G1 X16.691 Y-225.526 Z16.281 F2500.000
G1 X17.678 Y-225.526 Z16.403 F2500.000
G1 X18.665 Y-225.526 Z16.504 F2500.000
G1 X19.651 Y-225.526 Z16.580 F2500.000
G1 X20.638 Y-225.526 Z16.633 F2500.000
G1 X21.625 Y-225.526 Z16.664 F2500.000
G1 X22.611 Y-225.526 Z16.675 F2500.000
G1 X23.598 Y-225.526 Z16.664 F2500.000
G1 X24.585 Y-225.526 Z16.632 F2500.000
G1 X25.571 Y-225.526 Z16.578 F2500.000
G1 X26.558 Y-225.526 Z16.501 F2500.000
G1 X27.545 Y-225.526 Z16.400 F2500.000
G1 X28.531 Y-225.526 Z16.277 F2500.000
G1 X29.518 Y-225.526 Z16.129 F2500.000
G1 X30.505 Y-225.526 Z15.954 F2500.000
G1 X31.491 Y-225.526 Z15.753 F2500.000
G1 X32.478 Y-225.526 Z15.525 F2500.000
G1 X33.465 Y-225.526 Z15.267 F2500.000
G1 X34.451 Y-225.526 Z14.980 F2500.000
G1 X35.438 Y-225.526 Z14.661 F2500.000
G1 X36.425 Y-225.526 Z14.312 F2500.000
G1 X37.411 Y-225.526 Z13.928 F2500.000
G1 X37.569 Y-225.485 Z13.862 F2500.000
G1 X36.730 Y-170.892 Z13.559 F2500.000
G1 X35.908 Y-117.498 Z13.269 F2500.000
G1 X35.164 Y-69.104 Z13.014 F2500.000
G1 X34.331 Y-14.996 Z12.738 F2500.000
(Break)
G0 Z26.500
G0 X35.218 Y-14.096
(part 35.)
G1 X35.218 Y-14.096 Z12.386 F2500.000
G1 X34.248 Y-14.096 Z12.759 F2500.000
G1 X33.279 Y-14.096 Z13.100 F2500.000
G1 X32.310 Y-14.096 Z13.413 F2500.000
G1 X31.341 Y-14.096 Z13.696 F2500.000
G1 X30.372 Y-14.096 Z13.949 F2500.000
G1 X29.402 Y-14.096 Z14.173 F2500.000
G1 X28.433 Y-14.096 Z14.368 F2500.000
G1 X27.464 Y-14.096 Z14.533 F2500.000
G1 X26.495 Y-14.096 Z14.669 F2500.000
G1 X25.525 Y-14.096 Z14.777 F2500.000
G1 X24.556 Y-14.096 Z14.854 F2500.000
G1 X23.587 Y-14.096 Z14.899 F2500.000
G1 X22.618 Y-14.096 Z14.917 F2500.000
G1 X21.648 Y-14.096 Z14.901 F2500.000
G1 X20.679 Y-14.096 Z14.856 F2500.000
G1 X19.710 Y-14.096 Z14.781 F2500.000
G1 X18.741 Y-14.096 Z14.674 F2500.000
G1 X17.772 Y-14.096 Z14.539 F2500.000
G1 X16.802 Y-14.096 Z14.375 F2500.000
G1 X15.833 Y-14.096 Z14.181 F2500.000
G1 X14.864 Y-14.096 Z13.958 F2500.000
G1 X13.895 Y-14.096 Z13.706 F2500.000
G1 X12.925 Y-14.096 Z13.424 F2500.000
G1 X11.956 Y-14.096 Z13.113 F2500.000
G1 X10.987 Y-14.096 Z12.772 F2500.000
G1 X10.018 Y-14.096 Z12.400 F2500.000
G1 X9.980 Y-14.260 Z12.387 F2500.000
G1 X9.288 Y-59.255 Z12.607 F2500.000
G1 X8.325 Y-121.847 Z12.928 F2500.000
G1 X6.774 Y-222.635 Z13.460 F2500.000
G1 X6.719 Y-226.235 Z13.482 F2500.000
G1 X6.725 Y-226.427 Z13.487 F2500.000
G1 X7.712 Y-226.427 Z13.908 F2500.000
G1 X8.700 Y-226.427 Z14.294 F2500.000
G1 X9.687 Y-226.427 Z14.647 F2500.000
G1 X10.675 Y-226.427 Z14.967 F2500.000
G1 X11.662 Y-226.427 Z15.256 F2500.000
G1 X12.650 Y-226.427 Z15.516 F2500.000
G1 X13.637 Y-226.427 Z15.746 F2500.000
G1 X14.625 Y-226.427 Z15.949 F2500.000
G1 X15.612 Y-226.427 Z16.126 F2500.000
G1 X16.600 Y-226.427 Z16.276 F2500.000
G1 X17.587 Y-226.427 Z16.402 F2500.000
G1 X18.575 Y-226.427 Z16.502 F2500.000
G1 X19.562 Y-226.427 Z16.582 F2500.000
G1 X20.550 Y-226.427 Z16.637 F2500.000
G1 X21.537 Y-226.427 Z16.670 F2500.000
G1 X22.525 Y-226.427 Z16.682 F2500.000
G1 X23.512 Y-226.427 Z16.674 F2500.000
G1 X24.500 Y-226.427 Z16.642 F2500.000
G1 X25.487 Y-226.427 Z16.592 F2500.000
G1 X26.475 Y-226.427 Z16.517 F2500.000
G1 X27.462 Y-226.427 Z16.419 F2500.000
G1 X28.450 Y-226.427 Z16.297 F2500.000
G1 X29.437 Y-226.427 Z16.151 F2500.000
G1 X30.425 Y-226.427 Z15.977 F2500.000
G1 X31.412 Y-226.427 Z15.779 F2500.000
G1 X32.400 Y-226.427 Z15.553 F2500.000
G1 X33.387 Y-226.427 Z15.298 F2500.000
G1 X34.375 Y-226.427 Z15.013 F2500.000
G1 X35.362 Y-226.427 Z14.698 F2500.000
G1 X36.350 Y-226.427 Z14.350 F2500.000
G1 X37.337 Y-226.427 Z13.968 F2500.000
G1 X38.325 Y-226.427 Z13.553 F2500.000
G1 X38.483 Y-226.386 Z13.483 F2500.000
G1 X37.717 Y-176.592 Z13.215 F2500.000
G1 X36.456 Y-94.602 Z12.787 F2500.000
G1 X35.619 Y-40.208 Z12.513 F2500.000
G1 X35.218 Y-14.096 Z12.386 F2500.000
(Break)
G0 Z26.500
G0 X36.104 Y-13.196
(part 37.)
G1 X36.104 Y-13.196 Z12.007 F2500.000
G1 X35.104 Y-13.196 Z12.422 F2500.000
G1 X34.104 Y-13.196 Z12.802 F2500.000
G1 X33.104 Y-13.196 Z13.151 F2500.000
G1 X32.104 Y-13.196 Z13.467 F2500.000
G1 X31.104 Y-13.196 Z13.752 F2500.000
G1 X30.104 Y-13.196 Z14.006 F2500.000
G1 X29.104 Y-13.196 Z14.228 F2500.000
G1 X28.104 Y-13.196 Z14.420 F2500.000
G1 X27.104 Y-13.196 Z14.580 F2500.000
G1 X26.104 Y-13.196 Z14.709 F2500.000
G1 X25.104 Y-13.196 Z14.807 F2500.000
G1 X24.104 Y-13.196 Z14.872 F2500.000
G1 X23.104 Y-13.196 Z14.905 F2500.000
G1 X22.104 Y-13.196 Z14.905 F2500.000
G1 X21.104 Y-13.196 Z14.872 F2500.000
G1 X20.104 Y-13.196 Z14.807 F2500.000
G1 X19.104 Y-13.196 Z14.710 F2500.000
G1 X18.104 Y-13.196 Z14.581 F2500.000
G1 X17.104 Y-13.196 Z14.421 F2500.000
G1 X16.104 Y-13.196 Z14.230 F2500.000
G1 X15.104 Y-13.196 Z14.008 F2500.000
G1 X14.104 Y-13.196 Z13.754 F2500.000
G1 X13.104 Y-13.196 Z13.470 F2500.000
G1 X12.104 Y-13.196 Z13.153 F2500.000
G1 X11.104 Y-13.196 Z12.805 F2500.000
G1 X10.104 Y-13.196 Z12.425 F2500.000
G1 X9.104 Y-13.196 Z12.011 F2500.000
G1 X9.093 Y-13.388 Z12.008 F2500.000
G1 X9.059 Y-15.587 Z12.017 F2500.000
G1 X8.001 Y-84.379 Z12.349 F2500.000
G1 X7.115 Y-141.972 Z12.636 F2500.000
G1 X5.848 Y-224.363 Z13.054 F2500.000
G1 X5.805 Y-227.162 Z13.070 F2500.000
G1 X5.838 Y-227.327 Z13.088 F2500.000
G1 X6.820 Y-227.327 Z13.540 F2500.000
G1 X7.803 Y-227.327 Z13.956 F2500.000
G1 X8.785 Y-227.327 Z14.336 F2500.000
G1 X9.767 Y-227.327 Z14.684 F2500.000
G1 X10.750 Y-227.327 Z15.000 F2500.000
G1 X11.732 Y-227.327 Z15.285 F2500.000
G1 X12.714 Y-227.327 Z15.541 F2500.000
G1 X13.697 Y-227.327 Z15.769 F2500.000
G1 X14.679 Y-227.327 Z15.969 F2500.000
G1 X15.661 Y-227.327 Z16.143 F2500.000
G1 X16.644 Y-227.327 Z16.291 F2500.000
G1 X17.626 Y-227.327 Z16.415 F2500.000
G1 X18.608 Y-227.327 Z16.514 F2500.000
G1 X19.591 Y-227.327 Z16.591 F2500.000
G1 X20.573 Y-227.327 Z16.646 F2500.000
G1 X21.555 Y-227.327 Z16.677 F2500.000
G1 X22.538 Y-227.327 Z16.690 F2500.000
G1 X23.520 Y-227.327 Z16.680 F2500.000
G1 X24.503 Y-227.327 Z16.650 F2500.000
G1 X25.485 Y-227.327 Z16.600 F2500.000
G1 X26.467 Y-227.327 Z16.526 F2500.000
G1 X27.450 Y-227.327 Z16.428 F2500.000
G1 X28.432 Y-227.327 Z16.308 F2500.000
G1 X29.414 Y-227.327 Z16.163 F2500.000
G1 X30.397 Y-227.327 Z15.992 F2500.000
G1 X31.379 Y-227.327 Z15.795 F2500.000
G1 X32.361 Y-227.327 Z15.571 F2500.000
G1 X33.344 Y-227.327 Z15.319 F2500.000
G1 X34.326 Y-227.327 Z15.038 F2500.000
G1 X35.308 Y-227.327 Z14.726 F2500.000
G1 X36.291 Y-227.327 Z14.382 F2500.000
G1 X37.273 Y-227.327 Z14.005 F2500.000
G1 X38.255 Y-227.327 Z13.595 F2500.000
G1 X39.238 Y-227.327 Z13.147 F2500.000
G1 X39.397 Y-227.287 Z13.070 F2500.000
G1 X38.115 Y-143.896 Z12.645 F2500.000
G1 X37.201 Y-84.503 Z12.349 F2500.000
G1 X36.340 Y-28.510 Z12.078 F2500.000
G1 X36.104 Y-13.196 Z12.007 F2500.000
(Break)
G0 Z26.500
G0 X36.990 Y-12.296
(part 39.)
G1 X36.990 Y-12.296 Z11.601 F2500.000
G1 X36.004 Y-12.296 Z12.039 F2500.000
G1 X35.018 Y-12.296 Z12.445 F2500.000
G1 X34.032 Y-12.296 Z12.818 F2500.000
G1 X33.045 Y-12.296 Z13.161 F2500.000
G1 X32.059 Y-12.296 Z13.470 F2500.000
G1 X31.073 Y-12.296 Z13.752 F2500.000
G1 X30.087 Y-12.296 Z14.001 F2500.000
G1 X29.101 Y-12.296 Z14.219 F2500.000
G1 X28.114 Y-12.296 Z14.409 F2500.000
G1 X27.128 Y-12.296 Z14.568 F2500.000
G1 X26.142 Y-12.296 Z14.696 F2500.000
G1 X25.156 Y-12.296 Z14.794 F2500.000
G1 X24.170 Y-12.296 Z14.861 F2500.000
G1 X23.183 Y-12.296 Z14.896 F2500.000
G1 X22.197 Y-12.296 Z14.899 F2500.000
G1 X21.211 Y-12.296 Z14.870 F2500.000
G1 X20.225 Y-12.296 Z14.810 F2500.000
G1 X19.238 Y-12.296 Z14.717 F2500.000
G1 X18.252 Y-12.296 Z14.594 F2500.000
G1 X17.266 Y-12.296 Z14.440 F2500.000
G1 X16.280 Y-12.296 Z14.256 F2500.000
G1 X15.294 Y-12.296 Z14.044 F2500.000
G1 X14.307 Y-12.296 Z13.800 F2500.000
G1 X13.321 Y-12.296 Z13.524 F2500.000
G1 X12.335 Y-12.296 Z13.220 F2500.000
G1 X11.349 Y-12.296 Z12.884 F2500.000
G1 X10.363 Y-12.296 Z12.516 F2500.000
G1 X9.376 Y-12.296 Z12.117 F2500.000
G1 X8.390 Y-12.296 Z11.683 F2500.000
G1 X8.209 Y-12.315 Z11.601 F2500.000
G1 X7.044 Y-88.106 Z11.952 F2500.000
G1 X4.890 Y-228.090 Z12.624 F2500.000
G1 X4.951 Y-228.226 Z12.657 F2500.000
G1 X5.929 Y-228.226 Z13.143 F2500.000
G1 X6.907 Y-228.226 Z13.589 F2500.000
G1 X7.884 Y-228.226 Z13.999 F2500.000
G1 X8.862 Y-228.226 Z14.375 F2500.000
G1 X9.840 Y-228.226 Z14.718 F2500.000
G1 X10.818 Y-228.226 Z15.030 F2500.000
G1 X11.796 Y-228.226 Z15.312 F2500.000
G1 X12.773 Y-228.226 Z15.564 F2500.000
G1 X13.751 Y-228.226 Z15.789 F2500.000
G1 X14.729 Y-228.226 Z15.987 F2500.000
G1 X15.707 Y-228.226 Z16.157 F2500.000
G1 X16.684 Y-228.226 Z16.304 F2500.000
G1 X17.662 Y-228.226 Z16.426 F2500.000
G1 X18.640 Y-228.226 Z16.524 F2500.000
G1 X19.618 Y-228.226 Z16.601 F2500.000
G1 X20.596 Y-228.226 Z16.654 F2500.000
G1 X21.573 Y-228.226 Z16.686 F2500.000
G1 X22.551 Y-228.226 Z16.697 F2500.000
G1 X23.529 Y-228.226 Z16.689 F2500.000
G1 X24.507 Y-228.226 Z16.658 F2500.000
G1 X25.484 Y-228.226 Z16.607 F2500.000
G1 X26.462 Y-228.226 Z16.534 F2500.000
G1 X27.440 Y-228.226 Z16.437 F2500.000
G1 X28.418 Y-228.226 Z16.318 F2500.000
G1 X29.396 Y-228.226 Z16.173 F2500.000
G1 X30.373 Y-228.226 Z16.005 F2500.000
G1 X31.351 Y-228.226 Z15.810 F2500.000
G1 X32.329 Y-228.226 Z15.588 F2500.000
G1 X33.307 Y-228.226 Z15.338 F2500.000
G1 X34.284 Y-228.226 Z15.060 F2500.000
G1 X35.262 Y-228.226 Z14.751 F2500.000
G1 X36.240 Y-228.226 Z14.411 F2500.000
G1 X37.218 Y-228.226 Z14.038 F2500.000
G1 X38.196 Y-228.226 Z13.632 F2500.000
G1 X39.173 Y-228.226 Z13.189 F2500.000
G1 X40.151 Y-228.226 Z12.709 F2500.000
G1 X40.311 Y-228.187 Z12.625 F2500.000
G1 X38.161 Y-88.404 Z11.953 F2500.000
G1 X36.990 Y-12.296 Z11.601 F2500.000
(Break)
G0 Z26.500
G0 X37.876 Y-11.396
(part 41.)
G1 X37.876 Y-11.396 Z11.166 F2500.000
G1 X36.896 Y-11.396 Z11.634 F2500.000
G1 X35.915 Y-11.396 Z12.067 F2500.000
G1 X34.935 Y-11.396 Z12.468 F2500.000
G1 X33.954 Y-11.396 Z12.838 F2500.000
G1 X32.973 Y-11.396 Z13.175 F2500.000
G1 X31.993 Y-11.396 Z13.482 F2500.000
G1 X31.012 Y-11.396 Z13.759 F2500.000
G1 X30.031 Y-11.396 Z14.005 F2500.000
G1 X29.051 Y-11.396 Z14.223 F2500.000
G1 X28.070 Y-11.396 Z14.410 F2500.000
G1 X27.089 Y-11.396 Z14.566 F2500.000
G1 X26.109 Y-11.396 Z14.693 F2500.000
G1 X25.128 Y-11.396 Z14.789 F2500.000
G1 X24.147 Y-11.396 Z14.855 F2500.000
G1 X23.167 Y-11.396 Z14.889 F2500.000
G1 X22.186 Y-11.396 Z14.891 F2500.000
G1 X21.206 Y-11.396 Z14.863 F2500.000
G1 X20.225 Y-11.396 Z14.801 F2500.000
G1 X19.244 Y-11.396 Z14.710 F2500.000
G1 X18.264 Y-11.396 Z14.588 F2500.000
G1 X17.283 Y-11.396 Z14.435 F2500.000
G1 X16.302 Y-11.396 Z14.254 F2500.000
G1 X15.322 Y-11.396 Z14.041 F2500.000
G1 X14.341 Y-11.396 Z13.799 F2500.000
G1 X13.360 Y-11.396 Z13.527 F2500.000
G1 X12.380 Y-11.396 Z13.225 F2500.000
G1 X11.399 Y-11.396 Z12.892 F2500.000
G1 X10.418 Y-11.396 Z12.528 F2500.000
G1 X9.438 Y-11.396 Z12.132 F2500.000
G1 X8.457 Y-11.396 Z11.704 F2500.000
G1 X7.476 Y-11.396 Z11.242 F2500.000
G1 X7.323 Y-11.443 Z11.166 F2500.000
G1 X6.194 Y-84.834 Z11.491 F2500.000
G1 X3.984 Y-228.517 Z12.144 F2500.000
G1 X3.976 Y-229.017 Z12.147 F2500.000
G1 X4.064 Y-229.126 Z12.198 F2500.000
G1 X5.038 Y-229.126 Z12.715 F2500.000
G1 X6.012 Y-229.126 Z13.192 F2500.000
G1 X6.986 Y-229.126 Z13.633 F2500.000
G1 X7.959 Y-229.126 Z14.040 F2500.000
G1 X8.933 Y-229.126 Z14.411 F2500.000
G1 X9.907 Y-229.126 Z14.751 F2500.000
G1 X10.880 Y-229.126 Z15.059 F2500.000
G1 X11.854 Y-229.126 Z15.338 F2500.000
G1 X12.828 Y-229.126 Z15.587 F2500.000
G1 X13.801 Y-229.126 Z15.809 F2500.000
G1 X14.775 Y-229.126 Z16.003 F2500.000
G1 X15.749 Y-229.126 Z16.174 F2500.000
G1 X16.722 Y-229.126 Z16.318 F2500.000
G1 X17.696 Y-229.126 Z16.439 F2500.000
G1 X18.670 Y-229.126 Z16.535 F2500.000
G1 X19.643 Y-229.126 Z16.610 F2500.000
G1 X20.617 Y-229.126 Z16.662 F2500.000
G1 X21.591 Y-229.126 Z16.693 F2500.000
G1 X22.564 Y-229.126 Z16.705 F2500.000
G1 X23.538 Y-229.126 Z16.696 F2500.000
G1 X24.512 Y-229.126 Z16.666 F2500.000
G1 X25.486 Y-229.126 Z16.615 F2500.000
G1 X26.459 Y-229.126 Z16.542 F2500.000
G1 X27.433 Y-229.126 Z16.446 F2500.000
G1 X28.407 Y-229.126 Z16.328 F2500.000
G1 X29.380 Y-229.126 Z16.185 F2500.000
G1 X30.354 Y-229.126 Z16.017 F2500.000
G1 X31.328 Y-229.126 Z15.824 F2500.000
G1 X32.301 Y-229.126 Z15.604 F2500.000
G1 X33.275 Y-229.126 Z15.356 F2500.000
G1 X34.249 Y-229.126 Z15.080 F2500.000
G1 X35.222 Y-229.126 Z14.775 F2500.000
G1 X36.196 Y-229.126 Z14.437 F2500.000
G1 X37.170 Y-229.126 Z14.068 F2500.000
G1 X38.143 Y-229.126 Z13.664 F2500.000
G1 X39.117 Y-229.126 Z13.227 F2500.000
G1 X40.091 Y-229.126 Z12.751 F2500.000
G1 X41.064 Y-229.126 Z12.236 F2500.000
G1 X41.225 Y-229.088 Z12.147 F2500.000
G1 X39.007 Y-84.905 Z11.491 F2500.000
G1 X37.876 Y-11.396 Z11.166 F2500.000
(Break)
G0 Z26.500
G0 X38.763 Y-10.496
(part 43.)
G1 X38.763 Y-10.496 Z10.702 F2500.000
G1 X37.787 Y-10.496 Z11.199 F2500.000
G1 X36.811 Y-10.496 Z11.662 F2500.000
G1 X35.835 Y-10.496 Z12.090 F2500.000
G1 X34.860 Y-10.496 Z12.488 F2500.000
G1 X33.884 Y-10.496 Z12.853 F2500.000
G1 X32.908 Y-10.496 Z13.187 F2500.000
G1 X31.932 Y-10.496 Z13.490 F2500.000
G1 X30.957 Y-10.496 Z13.764 F2500.000
G1 X29.981 Y-10.496 Z14.009 F2500.000
G1 X29.005 Y-10.496 Z14.222 F2500.000
G1 X28.029 Y-10.496 Z14.408 F2500.000
G1 X27.054 Y-10.496 Z14.564 F2500.000
G1 X26.078 Y-10.496 Z14.689 F2500.000
G1 X25.102 Y-10.496 Z14.783 F2500.000
G1 X24.126 Y-10.496 Z14.849 F2500.000
G1 X23.151 Y-10.496 Z14.882 F2500.000
G1 X22.175 Y-10.496 Z14.884 F2500.000
G1 X21.199 Y-10.496 Z14.854 F2500.000
G1 X20.223 Y-10.496 Z14.793 F2500.000
G1 X19.248 Y-10.496 Z14.703 F2500.000
G1 X18.272 Y-10.496 Z14.582 F2500.000
G1 X17.296 Y-10.496 Z14.430 F2500.000
G1 X16.320 Y-10.496 Z14.248 F2500.000
G1 X15.345 Y-10.496 Z14.038 F2500.000
G1 X14.369 Y-10.496 Z13.797 F2500.000
G1 X13.393 Y-10.496 Z13.528 F2500.000
G1 X12.417 Y-10.496 Z13.227 F2500.000
G1 X11.442 Y-10.496 Z12.897 F2500.000
G1 X10.466 Y-10.496 Z12.536 F2500.000
G1 X9.490 Y-10.496 Z12.144 F2500.000
G1 X8.514 Y-10.496 Z11.719 F2500.000
G1 X7.538 Y-10.496 Z11.262 F2500.000
G1 X6.563 Y-10.496 Z10.767 F2500.000
G1 X6.436 Y-10.570 Z10.703 F2500.000
G1 X3.061 Y-229.944 Z11.633 F2500.000
G1 X3.178 Y-230.026 Z11.703 F2500.000
G1 X4.173 Y-230.026 Z12.269 F2500.000
G1 X5.168 Y-230.026 Z12.790 F2500.000
G1 X6.162 Y-230.026 Z13.274 F2500.000
G1 X7.157 Y-230.026 Z13.718 F2500.000
G1 X8.152 Y-230.026 Z14.126 F2500.000
G1 X9.147 Y-230.026 Z14.499 F2500.000
G1 X10.142 Y-230.026 Z14.838 F2500.000
G1 X11.137 Y-230.026 Z15.145 F2500.000
G1 X12.132 Y-230.026 Z15.420 F2500.000
G1 X13.126 Y-230.026 Z15.667 F2500.000
G1 X14.121 Y-230.026 Z15.884 F2500.000
G1 X15.116 Y-230.026 Z16.074 F2500.000
G1 X16.111 Y-230.026 Z16.238 F2500.000
G1 X17.106 Y-230.026 Z16.377 F2500.000
G1 X18.101 Y-230.026 Z16.490 F2500.000
G1 X19.096 Y-230.026 Z16.579 F2500.000
G1 X20.091 Y-230.026 Z16.644 F2500.000
G1 X21.085 Y-230.026 Z16.688 F2500.000
G1 X22.080 Y-230.026 Z16.709 F2500.000
G1 X23.075 Y-230.026 Z16.709 F2500.000
G1 X24.070 Y-230.026 Z16.689 F2500.000
G1 X25.065 Y-230.026 Z16.647 F2500.000
G1 X26.060 Y-230.026 Z16.582 F2500.000
G1 X27.055 Y-230.026 Z16.494 F2500.000
G1 X28.050 Y-230.026 Z16.382 F2500.000
G1 X29.044 Y-230.026 Z16.245 F2500.000
G1 X30.039 Y-230.026 Z16.083 F2500.000
G1 X31.034 Y-230.026 Z15.893 F2500.000
G1 X32.029 Y-230.026 Z15.677 F2500.000
G1 X33.024 Y-230.026 Z15.431 F2500.000
G1 X34.019 Y-230.026 Z15.158 F2500.000
G1 X35.014 Y-230.026 Z14.852 F2500.000
G1 X36.009 Y-230.026 Z14.515 F2500.000
G1 X37.003 Y-230.026 Z14.143 F2500.000
G1 X37.998 Y-230.026 Z13.737 F2500.000
G1 X38.993 Y-230.026 Z13.295 F2500.000
G1 X39.988 Y-230.026 Z12.813 F2500.000
G1 X40.983 Y-230.026 Z12.293 F2500.000
G1 X41.978 Y-230.026 Z11.729 F2500.000
G1 X42.139 Y-229.989 Z11.633 F2500.000
G1 X38.763 Y-10.496 Z10.702 F2500.000
(Break)
G0 Z26.500
G0 X39.649 Y-9.596
(part 45.)
G1 X39.649 Y-9.596 Z10.210 F2500.000
G1 X38.678 Y-9.596 Z10.737 F2500.000
G1 X37.706 Y-9.596 Z11.228 F2500.000
G1 X36.735 Y-9.596 Z11.687 F2500.000
G1 X35.763 Y-9.596 Z12.111 F2500.000
G1 X34.792 Y-9.596 Z12.505 F2500.000
G1 X33.820 Y-9.596 Z12.866 F2500.000
G1 X32.849 Y-9.596 Z13.197 F2500.000
G1 X31.878 Y-9.596 Z13.498 F2500.000
G1 X30.906 Y-9.596 Z13.768 F2500.000
G1 X29.935 Y-9.596 Z14.011 F2500.000
G1 X28.963 Y-9.596 Z14.223 F2500.000
G1 X27.992 Y-9.596 Z14.407 F2500.000
G1 X27.020 Y-9.596 Z14.559 F2500.000
G1 X26.049 Y-9.596 Z14.684 F2500.000
G1 X25.078 Y-9.596 Z14.778 F2500.000
G1 X24.106 Y-9.596 Z14.842 F2500.000
G1 X23.135 Y-9.596 Z14.875 F2500.000
G1 X22.163 Y-9.596 Z14.876 F2500.000
G1 X21.192 Y-9.596 Z14.847 F2500.000
G1 X20.220 Y-9.596 Z14.786 F2500.000
G1 X19.249 Y-9.596 Z14.695 F2500.000
G1 X18.278 Y-9.596 Z14.574 F2500.000
G1 X17.306 Y-9.596 Z14.424 F2500.000
G1 X16.335 Y-9.596 Z14.243 F2500.000
G1 X15.363 Y-9.596 Z14.034 F2500.000
G1 X14.392 Y-9.596 Z13.794 F2500.000
G1 X13.420 Y-9.596 Z13.527 F2500.000
G1 X12.449 Y-9.596 Z13.229 F2500.000
G1 X11.478 Y-9.596 Z12.901 F2500.000
G1 X10.506 Y-9.596 Z12.542 F2500.000
G1 X9.535 Y-9.596 Z12.153 F2500.000
G1 X8.563 Y-9.596 Z11.730 F2500.000
G1 X7.592 Y-9.596 Z11.275 F2500.000
G1 X6.620 Y-9.596 Z10.788 F2500.000
G1 X5.649 Y-9.596 Z10.264 F2500.000
G1 X5.549 Y-9.697 Z10.210 F2500.000
G1 X3.325 Y-154.280 Z10.785 F2500.000
G1 X2.147 Y-230.871 Z11.081 F2500.000
G1 X2.291 Y-230.927 Z11.172 F2500.000
G1 X3.281 Y-230.927 Z11.776 F2500.000
G1 X4.272 Y-230.927 Z12.334 F2500.000
G1 X5.262 Y-230.927 Z12.850 F2500.000
G1 X6.252 Y-230.927 Z13.328 F2500.000
G1 X7.242 Y-230.927 Z13.765 F2500.000
G1 X8.233 Y-230.927 Z14.168 F2500.000
G1 X9.223 Y-230.927 Z14.537 F2500.000
G1 X10.213 Y-230.927 Z14.871 F2500.000
G1 X11.203 Y-230.927 Z15.174 F2500.000
G1 X12.194 Y-230.927 Z15.445 F2500.000
G1 X13.184 Y-230.927 Z15.689 F2500.000
G1 X14.174 Y-230.927 Z15.905 F2500.000
G1 X15.164 Y-230.927 Z16.092 F2500.000
G1 X16.154 Y-230.927 Z16.254 F2500.000
G1 X17.145 Y-230.927 Z16.390 F2500.000
G1 X18.135 Y-230.927 Z16.501 F2500.000
G1 X19.125 Y-230.927 Z16.589 F2500.000
G1 X20.115 Y-230.927 Z16.654 F2500.000
G1 X21.106 Y-230.927 Z16.696 F2500.000
G1 X22.096 Y-230.927 Z16.716 F2500.000
G1 X23.086 Y-230.927 Z16.717 F2500.000
G1 X24.076 Y-230.927 Z16.696 F2500.000
G1 X25.067 Y-230.927 Z16.654 F2500.000
G1 X26.057 Y-230.927 Z16.590 F2500.000
G1 X27.047 Y-230.927 Z16.502 F2500.000
G1 X28.037 Y-230.927 Z16.392 F2500.000
G1 X29.028 Y-230.927 Z16.256 F2500.000
G1 X30.018 Y-230.927 Z16.095 F2500.000
G1 X31.008 Y-230.927 Z15.908 F2500.000
G1 X31.998 Y-230.927 Z15.693 F2500.000
G1 X32.989 Y-230.927 Z15.450 F2500.000
G1 X33.979 Y-230.927 Z15.180 F2500.000
G1 X34.969 Y-230.927 Z14.877 F2500.000
G1 X35.959 Y-230.927 Z14.543 F2500.000
G1 X36.950 Y-230.927 Z14.175 F2500.000
G1 X37.940 Y-230.927 Z13.773 F2500.000
G1 X38.930 Y-230.927 Z13.335 F2500.000
G1 X39.920 Y-230.927 Z12.859 F2500.000
G1 X40.911 Y-230.927 Z12.344 F2500.000
G1 X41.901 Y-230.927 Z11.786 F2500.000
G1 X42.891 Y-230.927 Z11.183 F2500.000
G1 X43.053 Y-230.889 Z11.080 F2500.000
G1 X41.804 Y-149.699 Z10.767 F2500.000
G1 X39.649 Y-9.596 Z10.210 F2500.000
(Break)
G0 Z26.500
G0 X40.535 Y-8.696
(part 47.)
G1 X40.535 Y-8.696 Z9.684 F2500.000
G1 X39.541 Y-8.696 Z10.259 F2500.000
G1 X38.546 Y-8.696 Z10.795 F2500.000
G1 X37.552 Y-8.696 Z11.293 F2500.000
G1 X36.557 Y-8.696 Z11.756 F2500.000
G1 X35.563 Y-8.696 Z12.185 F2500.000
G1 X34.569 Y-8.696 Z12.580 F2500.000
G1 X33.574 Y-8.696 Z12.944 F2500.000
G1 X32.580 Y-8.696 Z13.275 F2500.000
G1 X31.585 Y-8.696 Z13.574 F2500.000
G1 X30.591 Y-8.696 Z13.843 F2500.000
G1 X29.596 Y-8.696 Z14.080 F2500.000
G1 X28.602 Y-8.696 Z14.286 F2500.000
G1 X27.607 Y-8.696 Z14.463 F2500.000
G1 X26.613 Y-8.696 Z14.608 F2500.000
G1 X25.619 Y-8.696 Z14.722 F2500.000
G1 X24.624 Y-8.696 Z14.804 F2500.000
G1 X23.630 Y-8.696 Z14.854 F2500.000
G1 X22.635 Y-8.696 Z14.872 F2500.000
G1 X21.641 Y-8.696 Z14.857 F2500.000
G1 X20.646 Y-8.696 Z14.809 F2500.000
G1 X19.652 Y-8.696 Z14.729 F2500.000
G1 X18.657 Y-8.696 Z14.616 F2500.000
G1 X17.663 Y-8.696 Z14.475 F2500.000
G1 X16.669 Y-8.696 Z14.300 F2500.000
G1 X15.674 Y-8.696 Z14.095 F2500.000
G1 X14.680 Y-8.696 Z13.861 F2500.000
G1 X13.685 Y-8.696 Z13.594 F2500.000
G1 X12.691 Y-8.696 Z13.297 F2500.000
G1 X11.696 Y-8.696 Z12.968 F2500.000
G1 X10.702 Y-8.696 Z12.607 F2500.000
G1 X9.707 Y-8.696 Z12.214 F2500.000
G1 X8.713 Y-8.696 Z11.788 F2500.000
G1 X7.719 Y-8.696 Z11.327 F2500.000
G1 X6.724 Y-8.696 Z10.831 F2500.000
G1 X5.730 Y-8.696 Z10.298 F2500.000
G1 X4.735 Y-8.696 Z9.726 F2500.000
G1 X4.663 Y-8.825 Z9.685 F2500.000
G1 X2.789 Y-130.611 Z10.134 F2500.000
G1 X2.712 Y-135.610 Z10.149 F2500.000
G1 X2.679 Y-137.810 Z10.160 F2500.000
G1 X2.002 Y-181.804 Z10.317 F2500.000
G1 X1.233 Y-231.799 Z10.490 F2500.000
G1 X1.404 Y-231.827 Z10.606 F2500.000
G1 X2.390 Y-231.827 Z11.248 F2500.000
G1 X3.376 Y-231.827 Z11.843 F2500.000
G1 X4.363 Y-231.827 Z12.395 F2500.000
G1 X5.349 Y-231.827 Z12.905 F2500.000
G1 X6.335 Y-231.827 Z13.376 F2500.000
G1 X7.321 Y-231.827 Z13.810 F2500.000
G1 X8.307 Y-231.827 Z14.208 F2500.000
G1 X9.293 Y-231.827 Z14.572 F2500.000
G1 X10.279 Y-231.827 Z14.902 F2500.000
G1 X11.265 Y-231.827 Z15.202 F2500.000
G1 X12.251 Y-231.827 Z15.470 F2500.000
G1 X13.237 Y-231.827 Z15.711 F2500.000
G1 X14.223 Y-231.827 Z15.923 F2500.000
G1 X15.209 Y-231.827 Z16.108 F2500.000
G1 X16.195 Y-231.827 Z16.267 F2500.000
G1 X17.181 Y-231.827 Z16.402 F2500.000
G1 X18.167 Y-231.827 Z16.512 F2500.000
G1 X19.153 Y-231.827 Z16.599 F2500.000
G1 X20.139 Y-231.827 Z16.662 F2500.000
G1 X21.125 Y-231.827 Z16.705 F2500.000
G1 X22.111 Y-231.827 Z16.724 F2500.000
G1 X23.097 Y-231.827 Z16.724 F2500.000
G1 X24.083 Y-231.827 Z16.704 F2500.000
G1 X25.070 Y-231.827 Z16.662 F2500.000
G1 X26.056 Y-231.827 Z16.598 F2500.000
G1 X27.042 Y-231.827 Z16.510 F2500.000
G1 X28.028 Y-231.827 Z16.401 F2500.000
G1 X29.014 Y-231.827 Z16.266 F2500.000
G1 X30.000 Y-231.827 Z16.107 F2500.000
G1 X30.986 Y-231.827 Z15.922 F2500.000
G1 X31.972 Y-231.827 Z15.709 F2500.000
G1 X32.958 Y-231.827 Z15.468 F2500.000
G1 X33.944 Y-231.827 Z15.199 F2500.000
G1 X34.930 Y-231.827 Z14.899 F2500.000
G1 X35.916 Y-231.827 Z14.568 F2500.000
G1 X36.902 Y-231.827 Z14.204 F2500.000
G1 X37.888 Y-231.827 Z13.806 F2500.000
G1 X38.874 Y-231.827 Z13.372 F2500.000
G1 X39.860 Y-231.827 Z12.901 F2500.000
G1 X40.846 Y-231.827 Z12.390 F2500.000
G1 X41.832 Y-231.827 Z11.837 F2500.000
G1 X42.818 Y-231.827 Z11.242 F2500.000
G1 X43.804 Y-231.827 Z10.600 F2500.000
G1 X43.967 Y-231.790 Z10.489 F2500.000
G1 X43.396 Y-194.661 Z10.362 F2500.000
G1 X42.675 Y-147.800 Z10.196 F2500.000
G1 X40.535 Y-8.696 Z9.684 F2500.000
(Break)
G0 Z26.500
G0 X41.422 Y-7.796
(part 49.)
G1 X41.422 Y-7.796 Z9.125 F2500.000
G1 X40.432 Y-7.796 Z9.734 F2500.000
G1 X39.443 Y-7.796 Z10.302 F2500.000
G1 X38.453 Y-7.796 Z10.832 F2500.000
G1 X37.464 Y-7.796 Z11.325 F2500.000
G1 X36.474 Y-7.796 Z11.783 F2500.000
G1 X35.485 Y-7.796 Z12.207 F2500.000
G1 X34.495 Y-7.796 Z12.599 F2500.000
G1 X33.506 Y-7.796 Z12.957 F2500.000
G1 X32.516 Y-7.796 Z13.285 F2500.000
G1 X31.527 Y-7.796 Z13.581 F2500.000
G1 X30.537 Y-7.796 Z13.847 F2500.000
G1 X29.548 Y-7.796 Z14.082 F2500.000
G1 X28.558 Y-7.796 Z14.287 F2500.000
G1 X27.569 Y-7.796 Z14.462 F2500.000
G1 X26.579 Y-7.796 Z14.604 F2500.000
G1 X25.590 Y-7.796 Z14.717 F2500.000
G1 X24.600 Y-7.796 Z14.798 F2500.000
G1 X23.611 Y-7.796 Z14.846 F2500.000
G1 X22.622 Y-7.796 Z14.865 F2500.000
G1 X21.632 Y-7.796 Z14.848 F2500.000
G1 X20.643 Y-7.796 Z14.800 F2500.000
G1 X19.653 Y-7.796 Z14.721 F2500.000
G1 X18.664 Y-7.796 Z14.610 F2500.000
G1 X17.674 Y-7.796 Z14.468 F2500.000
G1 X16.685 Y-7.796 Z14.296 F2500.000
G1 X15.695 Y-7.796 Z14.091 F2500.000
G1 X14.706 Y-7.796 Z13.859 F2500.000
G1 X13.716 Y-7.796 Z13.593 F2500.000
G1 X12.727 Y-7.796 Z13.299 F2500.000
G1 X11.737 Y-7.796 Z12.972 F2500.000
G1 X10.748 Y-7.796 Z12.615 F2500.000
G1 X9.758 Y-7.796 Z12.224 F2500.000
G1 X8.769 Y-7.796 Z11.803 F2500.000
G1 X7.779 Y-7.796 Z11.346 F2500.000
G1 X6.790 Y-7.796 Z10.854 F2500.000
G1 X5.800 Y-7.796 Z10.326 F2500.000
G1 X4.811 Y-7.796 Z9.759 F2500.000
G1 X3.822 Y-7.796 Z9.153 F2500.000
G1 X3.776 Y-7.952 Z9.126 F2500.000
G1 X1.906 Y-129.538 Z9.535 F2500.000
G1 X1.041 Y-185.731 Z9.714 F2500.000
G1 X0.318 Y-232.726 Z9.856 F2500.000
G1 X0.518 Y-232.726 Z10.000 F2500.000
G1 X1.500 Y-232.726 Z10.681 F2500.000
G1 X2.482 Y-232.726 Z11.317 F2500.000
G1 X3.464 Y-232.726 Z11.905 F2500.000
G1 X4.447 Y-232.726 Z12.451 F2500.000
G1 X5.429 Y-232.726 Z12.957 F2500.000
G1 X6.411 Y-232.726 Z13.422 F2500.000
G1 X7.393 Y-232.726 Z13.852 F2500.000
G1 X8.375 Y-232.726 Z14.244 F2500.000
G1 X9.358 Y-232.726 Z14.604 F2500.000
G1 X10.340 Y-232.726 Z14.931 F2500.000
G1 X11.322 Y-232.726 Z15.228 F2500.000
G1 X12.304 Y-232.726 Z15.493 F2500.000
G1 X13.287 Y-232.726 Z15.731 F2500.000
G1 X14.269 Y-232.726 Z15.942 F2500.000
G1 X15.251 Y-232.726 Z16.124 F2500.000
G1 X16.233 Y-232.726 Z16.282 F2500.000
G1 X17.215 Y-232.726 Z16.415 F2500.000
G1 X18.198 Y-232.726 Z16.523 F2500.000
G1 X19.180 Y-232.726 Z16.608 F2500.000
G1 X20.162 Y-232.726 Z16.671 F2500.000
G1 X21.144 Y-232.726 Z16.712 F2500.000
G1 X22.127 Y-232.726 Z16.732 F2500.000
G1 X23.109 Y-232.726 Z16.731 F2500.000
G1 X24.091 Y-232.726 Z16.711 F2500.000
G1 X25.073 Y-232.726 Z16.669 F2500.000
G1 X26.055 Y-232.726 Z16.606 F2500.000
G1 X27.038 Y-232.726 Z16.519 F2500.000
G1 X28.020 Y-232.726 Z16.410 F2500.000
G1 X29.002 Y-232.726 Z16.277 F2500.000
G1 X29.984 Y-232.726 Z16.118 F2500.000
G1 X30.967 Y-232.726 Z15.934 F2500.000
G1 X31.949 Y-232.726 Z15.723 F2500.000
G1 X32.931 Y-232.726 Z15.484 F2500.000
G1 X33.913 Y-232.726 Z15.217 F2500.000
G1 X34.895 Y-232.726 Z14.920 F2500.000
G1 X35.878 Y-232.726 Z14.592 F2500.000
G1 X36.860 Y-232.726 Z14.231 F2500.000
G1 X37.842 Y-232.726 Z13.837 F2500.000
G1 X38.824 Y-232.726 Z13.406 F2500.000
G1 X39.807 Y-232.726 Z12.939 F2500.000
G1 X40.789 Y-232.726 Z12.432 F2500.000
G1 X41.771 Y-232.726 Z11.885 F2500.000
G1 X42.753 Y-232.726 Z11.295 F2500.000
G1 X43.735 Y-232.726 Z10.658 F2500.000
G1 X44.718 Y-232.726 Z9.974 F2500.000
G1 X44.881 Y-232.690 Z9.856 F2500.000
G1 X44.167 Y-186.296 Z9.716 F2500.000
G1 X43.303 Y-130.103 Z9.537 F2500.000
G1 X42.463 Y-75.509 Z9.356 F2500.000
G1 X41.422 Y-7.796 Z9.125 F2500.000
(Break)
G0 Z26.500
G0 X42.308 Y-6.896
(part 51.)
G1 X42.308 Y-6.896 Z8.530 F2500.000
G1 X41.323 Y-6.896 Z9.176 F2500.000
G1 X40.338 Y-6.896 Z9.779 F2500.000
G1 X39.353 Y-6.896 Z10.341 F2500.000
G1 X38.368 Y-6.896 Z10.864 F2500.000
G1 X37.383 Y-6.896 Z11.353 F2500.000
G1 X36.398 Y-6.896 Z11.806 F2500.000
G1 X35.413 Y-6.896 Z12.226 F2500.000
G1 X34.428 Y-6.896 Z12.615 F2500.000
G1 X33.443 Y-6.896 Z12.969 F2500.000
G1 X32.458 Y-6.896 Z13.295 F2500.000
G1 X31.473 Y-6.896 Z13.587 F2500.000
G1 X30.488 Y-6.896 Z13.851 F2500.000
G1 X29.503 Y-6.896 Z14.083 F2500.000
G1 X28.518 Y-6.896 Z14.287 F2500.000
G1 X27.533 Y-6.896 Z14.458 F2500.000
G1 X26.548 Y-6.896 Z14.601 F2500.000
G1 X25.563 Y-6.896 Z14.712 F2500.000
G1 X24.578 Y-6.896 Z14.791 F2500.000
G1 X23.593 Y-6.896 Z14.841 F2500.000
G1 X22.608 Y-6.896 Z14.857 F2500.000
G1 X21.623 Y-6.896 Z14.841 F2500.000
G1 X20.638 Y-6.896 Z14.792 F2500.000
G1 X19.653 Y-6.896 Z14.714 F2500.000
G1 X18.668 Y-6.896 Z14.602 F2500.000
G1 X17.683 Y-6.896 Z14.461 F2500.000
G1 X16.698 Y-6.896 Z14.290 F2500.000
G1 X15.713 Y-6.896 Z14.086 F2500.000
G1 X14.728 Y-6.896 Z13.856 F2500.000
G1 X13.743 Y-6.896 Z13.592 F2500.000
G1 X12.758 Y-6.896 Z13.300 F2500.000
G1 X11.773 Y-6.896 Z12.974 F2500.000
G1 X10.788 Y-6.896 Z12.620 F2500.000
G1 X9.803 Y-6.896 Z12.232 F2500.000
G1 X8.818 Y-6.896 Z11.814 F2500.000
G1 X7.833 Y-6.896 Z11.360 F2500.000
G1 X6.848 Y-6.896 Z10.872 F2500.000
G1 X5.863 Y-6.896 Z10.349 F2500.000
G1 X4.878 Y-6.896 Z9.787 F2500.000
G1 X3.893 Y-6.896 Z9.185 F2500.000
G1 X2.908 Y-6.896 Z8.541 F2500.000
G1 X2.889 Y-7.080 Z8.531 F2500.000
G1 X2.000 Y-64.873 Z8.709 F2500.000
G1 X1.096 Y-123.666 Z8.883 F2500.000
G1 X0.253 Y-178.460 Z9.036 F2500.000
G1 X-0.593 Y-233.453 Z9.178 F2500.000
G1 X-0.569 Y-233.626 Z9.200 F2500.000
G1 X0.414 Y-233.626 Z9.939 F2500.000
G1 X1.397 Y-233.626 Z10.625 F2500.000
G1 X2.380 Y-233.626 Z11.265 F2500.000
G1 X3.363 Y-233.626 Z11.859 F2500.000
G1 X4.346 Y-233.626 Z12.409 F2500.000
G1 X5.329 Y-233.626 Z12.917 F2500.000
G1 X6.312 Y-233.626 Z13.387 F2500.000
G1 X7.295 Y-233.626 Z13.820 F2500.000
G1 X8.278 Y-233.626 Z14.217 F2500.000
G1 X9.261 Y-233.626 Z14.581 F2500.000
G1 X10.244 Y-233.626 Z14.910 F2500.000
G1 X11.227 Y-233.626 Z15.210 F2500.000
G1 X12.210 Y-233.626 Z15.478 F2500.000
G1 X13.193 Y-233.626 Z15.719 F2500.000
G1 X14.176 Y-233.626 Z15.931 F2500.000
G1 X15.159 Y-233.626 Z16.117 F2500.000
G1 X16.142 Y-233.626 Z16.276 F2500.000
G1 X17.125 Y-233.626 Z16.411 F2500.000
G1 X18.108 Y-233.626 Z16.522 F2500.000
G1 X19.091 Y-233.626 Z16.609 F2500.000
G1 X20.074 Y-233.626 Z16.673 F2500.000
G1 X21.057 Y-233.626 Z16.717 F2500.000
G1 X22.040 Y-233.626 Z16.739 F2500.000
G1 X23.023 Y-233.626 Z16.739 F2500.000
G1 X24.005 Y-233.626 Z16.722 F2500.000
G1 X24.988 Y-233.626 Z16.681 F2500.000
G1 X25.971 Y-233.626 Z16.620 F2500.000
G1 X26.954 Y-233.626 Z16.535 F2500.000
G1 X27.937 Y-233.626 Z16.428 F2500.000
G1 X28.920 Y-233.626 Z16.297 F2500.000
G1 X29.903 Y-233.626 Z16.140 F2500.000
G1 X30.886 Y-233.626 Z15.959 F2500.000
G1 X31.869 Y-233.626 Z15.750 F2500.000
G1 X32.852 Y-233.626 Z15.515 F2500.000
G1 X33.835 Y-233.626 Z15.249 F2500.000
G1 X34.818 Y-233.626 Z14.954 F2500.000
G1 X35.801 Y-233.626 Z14.628 F2500.000
G1 X36.784 Y-233.626 Z14.270 F2500.000
G1 X37.767 Y-233.626 Z13.878 F2500.000
G1 X38.750 Y-233.626 Z13.450 F2500.000
G1 X39.733 Y-233.626 Z12.987 F2500.000
G1 X40.716 Y-233.626 Z12.482 F2500.000
G1 X41.699 Y-233.626 Z11.938 F2500.000
G1 X42.682 Y-233.626 Z11.350 F2500.000
G1 X43.665 Y-233.626 Z10.718 F2500.000
G1 X44.648 Y-233.626 Z10.038 F2500.000
G1 X45.631 Y-233.626 Z9.307 F2500.000
G1 X45.795 Y-233.591 Z9.179 F2500.000
G1 X45.023 Y-183.397 Z9.049 F2500.000
G1 X44.186 Y-129.003 Z8.898 F2500.000
G1 X43.248 Y-68.011 Z8.718 F2500.000
G1 X42.308 Y-6.896 Z8.530 F2500.000
(Break)
G0 Z26.500
G0 X43.194 Y-5.996
(part 53.)
G1 X43.194 Y-5.996 Z7.897 F2500.000
G1 X42.218 Y-5.996 Z8.578 F2500.000
G1 X41.242 Y-5.996 Z9.213 F2500.000
G1 X40.265 Y-5.996 Z9.809 F2500.000
G1 X39.289 Y-5.996 Z10.364 F2500.000
G1 X38.313 Y-5.996 Z10.882 F2500.000
G1 X37.337 Y-5.996 Z11.364 F2500.000
G1 X36.361 Y-5.996 Z11.813 F2500.000
G1 X35.385 Y-5.996 Z12.227 F2500.000
G1 X34.408 Y-5.996 Z12.612 F2500.000
G1 X33.432 Y-5.996 Z12.963 F2500.000
G1 X32.456 Y-5.996 Z13.286 F2500.000
G1 X31.480 Y-5.996 Z13.577 F2500.000
G1 X30.504 Y-5.996 Z13.839 F2500.000
G1 X29.527 Y-5.996 Z14.070 F2500.000
G1 X28.551 Y-5.996 Z14.273 F2500.000
G1 X27.575 Y-5.996 Z14.444 F2500.000
G1 X26.599 Y-5.996 Z14.586 F2500.000
G1 X25.623 Y-5.996 Z14.698 F2500.000
G1 X24.646 Y-5.996 Z14.780 F2500.000
G1 X23.670 Y-5.996 Z14.830 F2500.000
G1 X22.694 Y-5.996 Z14.849 F2500.000
G1 X21.718 Y-5.996 Z14.837 F2500.000
G1 X20.742 Y-5.996 Z14.792 F2500.000
G1 X19.765 Y-5.996 Z14.716 F2500.000
G1 X18.789 Y-5.996 Z14.611 F2500.000
G1 X17.813 Y-5.996 Z14.473 F2500.000
G1 X16.837 Y-5.996 Z14.308 F2500.000
G1 X15.861 Y-5.996 Z14.111 F2500.000
G1 X14.885 Y-5.996 Z13.885 F2500.000
G1 X13.908 Y-5.996 Z13.630 F2500.000
G1 X12.932 Y-5.996 Z13.344 F2500.000
G1 X11.956 Y-5.996 Z13.028 F2500.000
G1 X10.980 Y-5.996 Z12.682 F2500.000
G1 X10.004 Y-5.996 Z12.304 F2500.000
G1 X9.027 Y-5.996 Z11.895 F2500.000
G1 X8.051 Y-5.996 Z11.453 F2500.000
G1 X7.075 Y-5.996 Z10.978 F2500.000
G1 X6.099 Y-5.996 Z10.466 F2500.000
G1 X5.123 Y-5.996 Z9.919 F2500.000
G1 X4.146 Y-5.996 Z9.333 F2500.000
G1 X3.170 Y-5.996 Z8.705 F2500.000
G1 X2.194 Y-5.996 Z8.032 F2500.000
G1 X2.006 Y-6.007 Z7.897 F2500.000
G1 X1.118 Y-63.701 Z8.054 F2500.000
G1 X0.180 Y-124.693 Z8.209 F2500.000
G1 X-0.711 Y-182.587 Z8.344 F2500.000
G1 X-1.507 Y-234.380 Z8.454 F2500.000
G1 X-1.456 Y-234.526 Z8.499 F2500.000
G1 X-0.476 Y-234.526 Z9.283 F2500.000
G1 X0.504 Y-234.526 Z10.016 F2500.000
G1 X1.483 Y-234.526 Z10.696 F2500.000
G1 X2.463 Y-234.526 Z11.329 F2500.000
G1 X3.442 Y-234.526 Z11.917 F2500.000
G1 X4.422 Y-234.526 Z12.461 F2500.000
G1 X5.401 Y-234.526 Z12.965 F2500.000
G1 X6.381 Y-234.526 Z13.430 F2500.000
G1 X7.361 Y-234.526 Z13.859 F2500.000
G1 X8.340 Y-234.526 Z14.252 F2500.000
G1 X9.320 Y-234.526 Z14.612 F2500.000
G1 X10.299 Y-234.526 Z14.938 F2500.000
G1 X11.279 Y-234.526 Z15.235 F2500.000
G1 X12.259 Y-234.526 Z15.500 F2500.000
G1 X13.238 Y-234.526 Z15.737 F2500.000
G1 X14.218 Y-234.526 Z15.948 F2500.000
G1 X15.197 Y-234.526 Z16.132 F2500.000
G1 X16.177 Y-234.526 Z16.290 F2500.000
G1 X17.157 Y-234.526 Z16.423 F2500.000
G1 X18.136 Y-234.526 Z16.532 F2500.000
G1 X19.116 Y-234.526 Z16.619 F2500.000
G1 X20.095 Y-234.526 Z16.683 F2500.000
G1 X21.075 Y-234.526 Z16.725 F2500.000
G1 X22.055 Y-234.526 Z16.747 F2500.000
G1 X23.034 Y-234.526 Z16.748 F2500.000
G1 X24.014 Y-234.526 Z16.727 F2500.000
G1 X24.993 Y-234.526 Z16.689 F2500.000
G1 X25.973 Y-234.526 Z16.627 F2500.000
G1 X26.952 Y-234.526 Z16.544 F2500.000
G1 X27.932 Y-234.526 Z16.436 F2500.000
G1 X28.912 Y-234.526 Z16.307 F2500.000
G1 X29.891 Y-234.526 Z16.151 F2500.000
G1 X30.871 Y-234.526 Z15.971 F2500.000
G1 X31.850 Y-234.526 Z15.764 F2500.000
G1 X32.830 Y-234.526 Z15.530 F2500.000
G1 X33.810 Y-234.526 Z15.265 F2500.000
G1 X34.789 Y-234.526 Z14.974 F2500.000
G1 X35.769 Y-234.526 Z14.649 F2500.000
G1 X36.748 Y-234.526 Z14.295 F2500.000
G1 X37.728 Y-234.526 Z13.906 F2500.000
G1 X38.708 Y-234.526 Z13.480 F2500.000
G1 X39.687 Y-234.526 Z13.020 F2500.000
G1 X40.667 Y-234.526 Z12.520 F2500.000
G1 X41.646 Y-234.526 Z11.981 F2500.000
G1 X42.626 Y-234.526 Z11.397 F2500.000
G1 X43.606 Y-234.526 Z10.770 F2500.000
G1 X44.585 Y-234.526 Z10.096 F2500.000
G1 X45.565 Y-234.526 Z9.370 F2500.000
G1 X46.544 Y-234.526 Z8.592 F2500.000
G1 X46.709 Y-234.492 Z8.454 F2500.000
G1 X45.912 Y-182.698 Z8.345 F2500.000
G1 X45.051 Y-126.704 Z8.214 F2500.000
G1 X44.085 Y-63.912 Z8.054 F2500.000
G1 X43.194 Y-5.996 Z7.897 F2500.000
(Break)
G0 Z26.500
G0 X44.080 Y-5.096
(part 55.)
G1 X44.080 Y-5.096 Z7.222 F2500.000
G1 X43.085 Y-5.096 Z7.963 F2500.000
G1 X42.090 Y-5.096 Z8.653 F2500.000
G1 X41.094 Y-5.096 Z9.296 F2500.000
G1 X40.099 Y-5.096 Z9.896 F2500.000
G1 X39.104 Y-5.096 Z10.454 F2500.000
G1 X38.108 Y-5.096 Z10.975 F2500.000
G1 X37.113 Y-5.096 Z11.459 F2500.000
G1 X36.118 Y-5.096 Z11.909 F2500.000
G1 X35.122 Y-5.096 Z12.324 F2500.000
G1 X34.127 Y-5.096 Z12.707 F2500.000
G1 X33.131 Y-5.096 Z13.058 F2500.000
G1 X32.136 Y-5.096 Z13.375 F2500.000
G1 X31.141 Y-5.096 Z13.663 F2500.000
G1 X30.145 Y-5.096 Z13.919 F2500.000
G1 X29.150 Y-5.096 Z14.143 F2500.000
G1 X28.155 Y-5.096 Z14.338 F2500.000
G1 X27.159 Y-5.096 Z14.501 F2500.000
G1 X26.164 Y-5.096 Z14.631 F2500.000
G1 X25.169 Y-5.096 Z14.732 F2500.000
G1 X24.173 Y-5.096 Z14.801 F2500.000
G1 X23.178 Y-5.096 Z14.836 F2500.000
G1 X22.183 Y-5.096 Z14.839 F2500.000
G1 X21.187 Y-5.096 Z14.809 F2500.000
G1 X20.192 Y-5.096 Z14.746 F2500.000
G1 X19.197 Y-5.096 Z14.650 F2500.000
G1 X18.201 Y-5.096 Z14.524 F2500.000
G1 X17.206 Y-5.096 Z14.365 F2500.000
G1 X16.211 Y-5.096 Z14.177 F2500.000
G1 X15.215 Y-5.096 Z13.957 F2500.000
G1 X14.220 Y-5.096 Z13.706 F2500.000
G1 X13.224 Y-5.096 Z13.423 F2500.000
G1 X12.229 Y-5.096 Z13.110 F2500.000
G1 X11.234 Y-5.096 Z12.765 F2500.000
G1 X10.238 Y-5.096 Z12.388 F2500.000
G1 X9.243 Y-5.096 Z11.978 F2500.000
G1 X8.248 Y-5.096 Z11.535 F2500.000
G1 X7.252 Y-5.096 Z11.055 F2500.000
G1 X6.257 Y-5.096 Z10.541 F2500.000
G1 X5.262 Y-5.096 Z9.989 F2500.000
G1 X4.266 Y-5.096 Z9.395 F2500.000
G1 X3.271 Y-5.096 Z8.759 F2500.000
G1 X2.276 Y-5.096 Z8.078 F2500.000
G1 X1.280 Y-5.096 Z7.345 F2500.000
G1 X1.119 Y-5.135 Z7.222 F2500.000
G1 X0.233 Y-62.728 Z7.355 F2500.000
G1 X-0.681 Y-122.121 Z7.480 F2500.000
G1 X-1.538 Y-177.864 Z7.586 F2500.000
G1 X-2.412 Y-234.708 Z7.679 F2500.000
G1 X-2.422 Y-235.308 Z7.681 F2500.000
G1 X-2.342 Y-235.427 Z7.753 F2500.000
G1 X-1.346 Y-235.427 Z8.603 F2500.000
G1 X-0.350 Y-235.427 Z9.394 F2500.000
G1 X0.646 Y-235.427 Z10.130 F2500.000
G1 X1.642 Y-235.427 Z10.814 F2500.000
G1 X2.638 Y-235.427 Z11.449 F2500.000
G1 X3.634 Y-235.427 Z12.038 F2500.000
G1 X4.630 Y-235.427 Z12.584 F2500.000
G1 X5.626 Y-235.427 Z13.086 F2500.000
G1 X6.622 Y-235.427 Z13.551 F2500.000
G1 X7.618 Y-235.427 Z13.977 F2500.000
G1 X8.614 Y-235.427 Z14.366 F2500.000
G1 X9.610 Y-235.427 Z14.721 F2500.000
G1 X10.606 Y-235.427 Z15.045 F2500.000
G1 X11.602 Y-235.427 Z15.335 F2500.000
G1 X12.598 Y-235.427 Z15.596 F2500.000
G1 X13.594 Y-235.427 Z15.827 F2500.000
G1 X14.590 Y-235.427 Z16.030 F2500.000
G1 X15.586 Y-235.427 Z16.206 F2500.000
G1 X16.582 Y-235.427 Z16.357 F2500.000
G1 X17.578 Y-235.427 Z16.481 F2500.000
G1 X18.574 Y-235.427 Z16.581 F2500.000
G1 X19.570 Y-235.427 Z16.659 F2500.000
G1 X20.566 Y-235.427 Z16.713 F2500.000
G1 X21.562 Y-235.427 Z16.746 F2500.000
G1 X22.558 Y-235.427 Z16.757 F2500.000
G1 X23.554 Y-235.427 Z16.747 F2500.000
G1 X24.550 Y-235.427 Z16.717 F2500.000
G1 X25.546 Y-235.427 Z16.665 F2500.000
G1 X26.542 Y-235.427 Z16.589 F2500.000
G1 X27.538 Y-235.427 Z16.490 F2500.000
G1 X28.534 Y-235.427 Z16.368 F2500.000
G1 X29.530 Y-235.427 Z16.221 F2500.000
G1 X30.526 Y-235.427 Z16.046 F2500.000
G1 X31.522 Y-235.427 Z15.846 F2500.000
G1 X32.518 Y-235.427 Z15.616 F2500.000
G1 X33.514 Y-235.427 Z15.358 F2500.000
G1 X34.510 Y-235.427 Z15.070 F2500.000
G1 X35.506 Y-235.427 Z14.751 F2500.000
G1 X36.502 Y-235.427 Z14.398 F2500.000
G1 X37.498 Y-235.427 Z14.010 F2500.000
G1 X38.494 Y-235.427 Z13.588 F2500.000
G1 X39.490 Y-235.427 Z13.127 F2500.000
G1 X40.486 Y-235.427 Z12.628 F2500.000
G1 X41.482 Y-235.427 Z12.086 F2500.000
G1 X42.478 Y-235.427 Z11.500 F2500.000
G1 X43.474 Y-235.427 Z10.870 F2500.000
G1 X44.470 Y-235.427 Z10.190 F2500.000
G1 X45.466 Y-235.427 Z9.459 F2500.000
G1 X46.462 Y-235.427 Z8.672 F2500.000
G1 X47.458 Y-235.427 Z7.827 F2500.000
G1 X47.623 Y-235.392 Z7.681 F2500.000
G1 X46.734 Y-177.599 Z7.585 F2500.000
G1 X45.859 Y-120.739 Z7.478 F2500.000
G1 X44.968 Y-62.813 Z7.356 F2500.000
G1 X44.080 Y-5.096 Z7.222 F2500.000
(Break)
G0 Z26.500
G0 X44.967 Y-4.196
(part 57.)
G1 X44.967 Y-4.196 Z6.503 F2500.000
G1 X43.975 Y-4.196 Z7.291 F2500.000
G1 X42.984 Y-4.196 Z8.023 F2500.000
G1 X41.993 Y-4.196 Z8.705 F2500.000
G1 X41.002 Y-4.196 Z9.340 F2500.000
G1 X40.011 Y-4.196 Z9.935 F2500.000
G1 X39.020 Y-4.196 Z10.489 F2500.000
G1 X38.029 Y-4.196 Z11.005 F2500.000
G1 X37.038 Y-4.196 Z11.485 F2500.000
G1 X36.047 Y-4.196 Z11.928 F2500.000
G1 X35.055 Y-4.196 Z12.342 F2500.000
G1 X34.064 Y-4.196 Z12.720 F2500.000
G1 X33.073 Y-4.196 Z13.068 F2500.000
G1 X32.082 Y-4.196 Z13.383 F2500.000
G1 X31.091 Y-4.196 Z13.667 F2500.000
G1 X30.100 Y-4.196 Z13.920 F2500.000
G1 X29.109 Y-4.196 Z14.143 F2500.000
G1 X28.118 Y-4.196 Z14.336 F2500.000
G1 X27.127 Y-4.196 Z14.497 F2500.000
G1 X26.135 Y-4.196 Z14.628 F2500.000
G1 X25.144 Y-4.196 Z14.727 F2500.000
G1 X24.153 Y-4.196 Z14.794 F2500.000
G1 X23.162 Y-4.196 Z14.829 F2500.000
G1 X22.171 Y-4.196 Z14.831 F2500.000
G1 X21.180 Y-4.196 Z14.801 F2500.000
G1 X20.189 Y-4.196 Z14.738 F2500.000
G1 X19.198 Y-4.196 Z14.643 F2500.000
G1 X18.207 Y-4.196 Z14.517 F2500.000
G1 X17.215 Y-4.196 Z14.360 F2500.000
G1 X16.224 Y-4.196 Z14.171 F2500.000
G1 X15.233 Y-4.196 Z13.952 F2500.000
G1 X14.242 Y-4.196 Z13.703 F2500.000
G1 X13.251 Y-4.196 Z13.423 F2500.000
G1 X12.260 Y-4.196 Z13.111 F2500.000
G1 X11.269 Y-4.196 Z12.769 F2500.000
G1 X10.278 Y-4.196 Z12.394 F2500.000
G1 X9.287 Y-4.196 Z11.987 F2500.000
G1 X8.295 Y-4.196 Z11.546 F2500.000
G1 X7.304 Y-4.196 Z11.071 F2500.000
G1 X6.313 Y-4.196 Z10.560 F2500.000
G1 X5.322 Y-4.196 Z10.011 F2500.000
G1 X4.331 Y-4.196 Z9.423 F2500.000
G1 X3.340 Y-4.196 Z8.792 F2500.000
G1 X2.349 Y-4.196 Z8.117 F2500.000
G1 X1.358 Y-4.196 Z7.393 F2500.000
G1 X0.367 Y-4.196 Z6.613 F2500.000
G1 X0.232 Y-4.262 Z6.503 F2500.000
G1 X-0.669 Y-62.855 Z6.611 F2500.000
G1 X-1.573 Y-121.648 Z6.707 F2500.000
G1 X-2.527 Y-183.641 Z6.793 F2500.000
G1 X-3.336 Y-236.235 Z6.855 F2500.000
G1 X-3.229 Y-236.327 Z6.958 F2500.000
G1 X-2.237 Y-236.327 Z7.858 F2500.000
G1 X-1.244 Y-236.327 Z8.700 F2500.000
G1 X-0.252 Y-236.327 Z9.482 F2500.000
G1 X0.740 Y-236.327 Z10.210 F2500.000
G1 X1.732 Y-236.327 Z10.886 F2500.000
G1 X2.725 Y-236.327 Z11.515 F2500.000
G1 X3.717 Y-236.327 Z12.097 F2500.000
G1 X4.709 Y-236.327 Z12.636 F2500.000
G1 X5.702 Y-236.327 Z13.134 F2500.000
G1 X6.694 Y-236.327 Z13.592 F2500.000
G1 X7.686 Y-236.327 Z14.015 F2500.000
G1 X8.679 Y-236.327 Z14.401 F2500.000
G1 X9.671 Y-236.327 Z14.752 F2500.000
G1 X10.663 Y-236.327 Z15.072 F2500.000
G1 X11.656 Y-236.327 Z15.359 F2500.000
G1 X12.648 Y-236.327 Z15.617 F2500.000
G1 X13.640 Y-236.327 Z15.846 F2500.000
G1 X14.632 Y-236.327 Z16.046 F2500.000
G1 X15.625 Y-236.327 Z16.220 F2500.000
G1 X16.617 Y-236.327 Z16.369 F2500.000
G1 X17.609 Y-236.327 Z16.492 F2500.000
G1 X18.602 Y-236.327 Z16.591 F2500.000
G1 X19.594 Y-236.327 Z16.668 F2500.000
G1 X20.586 Y-236.327 Z16.722 F2500.000
G1 X21.579 Y-236.327 Z16.753 F2500.000
G1 X22.571 Y-236.327 Z16.765 F2500.000
G1 X23.563 Y-236.327 Z16.755 F2500.000
G1 X24.556 Y-236.327 Z16.724 F2500.000
G1 X25.548 Y-236.327 Z16.672 F2500.000
G1 X26.540 Y-236.327 Z16.597 F2500.000
G1 X27.532 Y-236.327 Z16.498 F2500.000
G1 X28.525 Y-236.327 Z16.378 F2500.000
G1 X29.517 Y-236.327 Z16.230 F2500.000
G1 X30.509 Y-236.327 Z16.057 F2500.000
G1 X31.502 Y-236.327 Z15.858 F2500.000
G1 X32.494 Y-236.327 Z15.631 F2500.000
G1 X33.486 Y-236.327 Z15.376 F2500.000
G1 X34.479 Y-236.327 Z15.089 F2500.000
G1 X35.471 Y-236.327 Z14.772 F2500.000
G1 X36.463 Y-236.327 Z14.423 F2500.000
G1 X37.456 Y-236.327 Z14.038 F2500.000
G1 X38.448 Y-236.327 Z13.619 F2500.000
G1 X39.440 Y-236.327 Z13.163 F2500.000
G1 X40.432 Y-236.327 Z12.666 F2500.000
G1 X41.425 Y-236.327 Z12.130 F2500.000
G1 X42.417 Y-236.327 Z11.550 F2500.000
G1 X43.409 Y-236.327 Z10.925 F2500.000
G1 X44.402 Y-236.327 Z10.251 F2500.000
G1 X45.394 Y-236.327 Z9.526 F2500.000
G1 X46.386 Y-236.327 Z8.748 F2500.000
G1 X47.379 Y-236.327 Z7.911 F2500.000
G1 X48.371 Y-236.327 Z7.010 F2500.000
G1 X48.537 Y-236.293 Z6.854 F2500.000
G1 X47.719 Y-183.099 Z6.793 F2500.000
G1 X46.854 Y-126.906 Z6.715 F2500.000
G1 X45.885 Y-63.913 Z6.613 F2500.000
G1 X44.967 Y-4.196 Z6.503 F2500.000
(Break)
G0 Z26.500
G0 X45.853 Y-3.296
(part 59.)
G1 X45.853 Y-3.296 Z5.733 F2500.000
G1 X44.866 Y-3.296 Z6.573 F2500.000
G1 X43.878 Y-3.296 Z7.352 F2500.000
G1 X42.891 Y-3.296 Z8.076 F2500.000
G1 X41.904 Y-3.296 Z8.752 F2500.000
G1 X40.917 Y-3.296 Z9.383 F2500.000
G1 X39.929 Y-3.296 Z9.970 F2500.000
G1 X38.942 Y-3.296 Z10.519 F2500.000
G1 X37.955 Y-3.296 Z11.031 F2500.000
G1 X36.968 Y-3.296 Z11.507 F2500.000
G1 X35.980 Y-3.296 Z11.948 F2500.000
G1 X34.993 Y-3.296 Z12.356 F2500.000
G1 X34.006 Y-3.296 Z12.733 F2500.000
G1 X33.019 Y-3.296 Z13.076 F2500.000
G1 X32.032 Y-3.296 Z13.389 F2500.000
G1 X31.044 Y-3.296 Z13.672 F2500.000
G1 X30.057 Y-3.296 Z13.923 F2500.000
G1 X29.070 Y-3.296 Z14.144 F2500.000
G1 X28.083 Y-3.296 Z14.333 F2500.000
G1 X27.095 Y-3.296 Z14.495 F2500.000
G1 X26.108 Y-3.296 Z14.623 F2500.000
G1 X25.121 Y-3.296 Z14.721 F2500.000
G1 X24.134 Y-3.296 Z14.787 F2500.000
G1 X23.146 Y-3.296 Z14.822 F2500.000
G1 X22.159 Y-3.296 Z14.824 F2500.000
G1 X21.172 Y-3.296 Z14.792 F2500.000
G1 X20.185 Y-3.296 Z14.730 F2500.000
G1 X19.198 Y-3.296 Z14.636 F2500.000
G1 X18.210 Y-3.296 Z14.510 F2500.000
G1 X17.223 Y-3.296 Z14.353 F2500.000
G1 X16.236 Y-3.296 Z14.165 F2500.000
G1 X15.249 Y-3.296 Z13.948 F2500.000
G1 X14.261 Y-3.296 Z13.699 F2500.000
G1 X13.274 Y-3.296 Z13.421 F2500.000
G1 X12.287 Y-3.296 Z13.111 F2500.000
G1 X11.300 Y-3.296 Z12.770 F2500.000
G1 X10.312 Y-3.296 Z12.398 F2500.000
G1 X9.325 Y-3.296 Z11.994 F2500.000
G1 X8.338 Y-3.296 Z11.555 F2500.000
G1 X7.351 Y-3.296 Z11.083 F2500.000
G1 X6.363 Y-3.296 Z10.575 F2500.000
G1 X5.376 Y-3.296 Z10.031 F2500.000
G1 X4.389 Y-3.296 Z9.448 F2500.000
G1 X3.402 Y-3.296 Z8.821 F2500.000
G1 X2.415 Y-3.296 Z8.151 F2500.000
G1 X1.427 Y-3.296 Z7.432 F2500.000
G1 X0.440 Y-3.296 Z6.660 F2500.000
G1 X-0.547 Y-3.296 Z5.826 F2500.000
G1 X-0.654 Y-3.390 Z5.733 F2500.000
G1 X-1.159 Y-36.186 Z5.779 F2500.000
G1 X-1.457 Y-55.584 Z5.802 F2500.000
G1 X-1.482 Y-57.183 Z5.806 F2500.000
G1 X-2.402 Y-116.976 Z5.875 F2500.000
G1 X-3.340 Y-177.969 Z5.931 F2500.000
G1 X-4.250 Y-237.162 Z5.973 F2500.000
G1 X-4.116 Y-237.226 Z6.110 F2500.000
G1 X-3.127 Y-237.226 Z7.067 F2500.000
G1 X-2.138 Y-237.226 Z7.959 F2500.000
G1 X-1.149 Y-237.226 Z8.790 F2500.000
G1 X-0.160 Y-237.226 Z9.564 F2500.000
G1 X0.829 Y-237.226 Z10.285 F2500.000
G1 X1.818 Y-237.226 Z10.954 F2500.000
G1 X2.806 Y-237.226 Z11.576 F2500.000
G1 X3.795 Y-237.226 Z12.154 F2500.000
G1 X4.784 Y-237.226 Z12.686 F2500.000
G1 X5.773 Y-237.226 Z13.180 F2500.000
G1 X6.762 Y-237.226 Z13.635 F2500.000
G1 X7.751 Y-237.226 Z14.052 F2500.000
G1 X8.740 Y-237.226 Z14.434 F2500.000
G1 X9.729 Y-237.226 Z14.783 F2500.000
G1 X10.718 Y-237.226 Z15.098 F2500.000
G1 X11.706 Y-237.226 Z15.383 F2500.000
G1 X12.695 Y-237.226 Z15.638 F2500.000
G1 X13.684 Y-237.226 Z15.865 F2500.000
G1 X14.673 Y-237.226 Z16.063 F2500.000
G1 X15.662 Y-237.226 Z16.236 F2500.000
G1 X16.651 Y-237.226 Z16.382 F2500.000
G1 X17.640 Y-237.226 Z16.505 F2500.000
G1 X18.629 Y-237.226 Z16.602 F2500.000
G1 X19.618 Y-237.226 Z16.678 F2500.000
G1 X20.606 Y-237.226 Z16.731 F2500.000
G1 X21.595 Y-237.226 Z16.762 F2500.000
G1 X22.584 Y-237.226 Z16.772 F2500.000
G1 X23.573 Y-237.226 Z16.762 F2500.000
G1 X24.562 Y-237.226 Z16.732 F2500.000
G1 X25.551 Y-237.226 Z16.680 F2500.000
G1 X26.540 Y-237.226 Z16.605 F2500.000
G1 X27.529 Y-237.226 Z16.508 F2500.000
G1 X28.518 Y-237.226 Z16.387 F2500.000
G1 X29.506 Y-237.226 Z16.240 F2500.000
G1 X30.495 Y-237.226 Z16.069 F2500.000
G1 X31.484 Y-237.226 Z15.871 F2500.000
G1 X32.473 Y-237.226 Z15.645 F2500.000
G1 X33.462 Y-237.226 Z15.391 F2500.000
G1 X34.451 Y-237.226 Z15.108 F2500.000
G1 X35.440 Y-237.226 Z14.793 F2500.000
G1 X36.429 Y-237.226 Z14.445 F2500.000
G1 X37.418 Y-237.226 Z14.065 F2500.000
G1 X38.406 Y-237.226 Z13.649 F2500.000
G1 X39.395 Y-237.226 Z13.196 F2500.000
G1 X40.384 Y-237.226 Z12.703 F2500.000
G1 X41.373 Y-237.226 Z12.171 F2500.000
G1 X42.362 Y-237.226 Z11.595 F2500.000
G1 X43.351 Y-237.226 Z10.975 F2500.000
G1 X44.340 Y-237.226 Z10.307 F2500.000
G1 X45.329 Y-237.226 Z9.588 F2500.000
G1 X46.318 Y-237.226 Z8.817 F2500.000
G1 X47.306 Y-237.226 Z7.987 F2500.000
G1 X48.295 Y-237.226 Z7.094 F2500.000
G1 X49.284 Y-237.226 Z6.142 F2500.000
G1 X49.451 Y-237.194 Z5.972 F2500.000
G1 X48.550 Y-178.601 Z5.931 F2500.000
G1 X47.587 Y-116.008 Z5.874 F2500.000
G1 X46.762 Y-62.414 Z5.813 F2500.000
G1 X45.853 Y-3.296 Z5.733 F2500.000
(Break)
G0 Z26.500
G0 X46.739 Y-2.396
(part 61.)
G1 X46.739 Y-2.396 Z4.905 F2500.000
G1 X45.755 Y-2.396 Z5.803 F2500.000
G1 X44.772 Y-2.396 Z6.637 F2500.000
G1 X43.788 Y-2.396 Z7.406 F2500.000
G1 X42.804 Y-2.396 Z8.125 F2500.000
G1 X41.821 Y-2.396 Z8.795 F2500.000
G1 X40.837 Y-2.396 Z9.420 F2500.000
G1 X39.853 Y-2.396 Z10.003 F2500.000
G1 X38.870 Y-2.396 Z10.547 F2500.000
G1 X37.886 Y-2.396 Z11.053 F2500.000
G1 X36.902 Y-2.396 Z11.527 F2500.000
G1 X35.919 Y-2.396 Z11.964 F2500.000
G1 X34.935 Y-2.396 Z12.370 F2500.000
G1 X33.951 Y-2.396 Z12.743 F2500.000
G1 X32.968 Y-2.396 Z13.084 F2500.000
G1 X31.984 Y-2.396 Z13.395 F2500.000
G1 X31.000 Y-2.396 Z13.675 F2500.000
G1 X30.017 Y-2.396 Z13.923 F2500.000
G1 X29.033 Y-2.396 Z14.144 F2500.000
G1 X28.049 Y-2.396 Z14.332 F2500.000
G1 X27.066 Y-2.396 Z14.490 F2500.000
G1 X26.082 Y-2.396 Z14.619 F2500.000
G1 X25.098 Y-2.396 Z14.716 F2500.000
G1 X24.115 Y-2.396 Z14.781 F2500.000
G1 X23.131 Y-2.396 Z14.815 F2500.000
G1 X22.147 Y-2.396 Z14.816 F2500.000
G1 X21.164 Y-2.396 Z14.785 F2500.000
G1 X20.180 Y-2.396 Z14.722 F2500.000
G1 X19.196 Y-2.396 Z14.628 F2500.000
G1 X18.213 Y-2.396 Z14.502 F2500.000
G1 X17.229 Y-2.396 Z14.346 F2500.000
G1 X16.245 Y-2.396 Z14.159 F2500.000
G1 X15.262 Y-2.396 Z13.942 F2500.000
G1 X14.278 Y-2.396 Z13.695 F2500.000
G1 X13.294 Y-2.396 Z13.418 F2500.000
G1 X12.311 Y-2.396 Z13.110 F2500.000
G1 X11.327 Y-2.396 Z12.771 F2500.000
G1 X10.343 Y-2.396 Z12.400 F2500.000
G1 X9.360 Y-2.396 Z11.998 F2500.000
G1 X8.376 Y-2.396 Z11.562 F2500.000
G1 X7.392 Y-2.396 Z11.092 F2500.000
G1 X6.408 Y-2.396 Z10.589 F2500.000
G1 X5.425 Y-2.396 Z10.048 F2500.000
G1 X4.441 Y-2.396 Z9.467 F2500.000
G1 X3.457 Y-2.396 Z8.846 F2500.000
G1 X2.474 Y-2.396 Z8.181 F2500.000
G1 X1.490 Y-2.396 Z7.466 F2500.000
G1 X0.506 Y-2.396 Z6.699 F2500.000
G1 X-0.477 Y-2.396 Z5.871 F2500.000
G1 X-1.461 Y-2.396 Z4.980 F2500.000
G1 X-1.541 Y-2.517 Z4.905 F2500.000
G1 X-2.387 Y-57.511 Z4.951 F2500.000
G1 X-3.218 Y-111.504 Z4.985 F2500.000
G1 X-4.131 Y-170.897 Z5.012 F2500.000
G1 X-5.165 Y-238.089 Z5.031 F2500.000
G1 X-5.002 Y-238.126 Z5.206 F2500.000
G1 X-4.017 Y-238.126 Z6.223 F2500.000
G1 X-3.031 Y-238.126 Z7.170 F2500.000
G1 X-2.045 Y-238.126 Z8.054 F2500.000
G1 X-1.060 Y-238.126 Z8.877 F2500.000
G1 X-0.074 Y-238.126 Z9.642 F2500.000
G1 X0.912 Y-238.126 Z10.355 F2500.000
G1 X1.898 Y-238.126 Z11.019 F2500.000
G1 X2.883 Y-238.126 Z11.635 F2500.000
G1 X3.869 Y-238.126 Z12.206 F2500.000
G1 X4.855 Y-238.126 Z12.735 F2500.000
G1 X5.840 Y-238.126 Z13.223 F2500.000
G1 X6.826 Y-238.126 Z13.674 F2500.000
G1 X7.812 Y-238.126 Z14.086 F2500.000
G1 X8.798 Y-238.126 Z14.466 F2500.000
G1 X9.783 Y-238.126 Z14.811 F2500.000
G1 X10.769 Y-238.126 Z15.124 F2500.000
G1 X11.755 Y-238.126 Z15.406 F2500.000
G1 X12.740 Y-238.126 Z15.659 F2500.000
G1 X13.726 Y-238.126 Z15.883 F2500.000
G1 X14.712 Y-238.126 Z16.079 F2500.000
G1 X15.698 Y-238.126 Z16.250 F2500.000
G1 X16.683 Y-238.126 Z16.395 F2500.000
G1 X17.669 Y-238.126 Z16.516 F2500.000
G1 X18.655 Y-238.126 Z16.613 F2500.000
G1 X19.640 Y-238.126 Z16.687 F2500.000
G1 X20.626 Y-238.126 Z16.739 F2500.000
G1 X21.612 Y-238.126 Z16.770 F2500.000
G1 X22.598 Y-238.126 Z16.779 F2500.000
G1 X23.583 Y-238.126 Z16.770 F2500.000
G1 X24.569 Y-238.126 Z16.739 F2500.000
G1 X25.555 Y-238.126 Z16.687 F2500.000
G1 X26.540 Y-238.126 Z16.613 F2500.000
G1 X27.526 Y-238.126 Z16.516 F2500.000
G1 X28.512 Y-238.126 Z16.396 F2500.000
G1 X29.498 Y-238.126 Z16.251 F2500.000
G1 X30.483 Y-238.126 Z16.080 F2500.000
G1 X31.469 Y-238.126 Z15.884 F2500.000
G1 X32.455 Y-238.126 Z15.660 F2500.000
G1 X33.440 Y-238.126 Z15.407 F2500.000
G1 X34.426 Y-238.126 Z15.125 F2500.000
G1 X35.412 Y-238.126 Z14.812 F2500.000
G1 X36.398 Y-238.126 Z14.468 F2500.000
G1 X37.383 Y-238.126 Z14.088 F2500.000
G1 X38.369 Y-238.126 Z13.675 F2500.000
G1 X39.355 Y-238.126 Z13.226 F2500.000
G1 X40.340 Y-238.126 Z12.738 F2500.000
G1 X41.326 Y-238.126 Z12.209 F2500.000
G1 X42.312 Y-238.126 Z11.638 F2500.000
G1 X43.298 Y-238.126 Z11.022 F2500.000
G1 X44.283 Y-238.126 Z10.358 F2500.000
G1 X45.269 Y-238.126 Z9.646 F2500.000
G1 X46.255 Y-238.126 Z8.880 F2500.000
G1 X47.240 Y-238.126 Z8.058 F2500.000
G1 X48.226 Y-238.126 Z7.173 F2500.000
G1 X49.212 Y-238.126 Z6.228 F2500.000
G1 X50.198 Y-238.126 Z5.211 F2500.000
G1 X50.365 Y-238.094 Z5.031 F2500.000
G1 X49.507 Y-182.301 Z5.016 F2500.000
G1 X48.407 Y-110.809 Z4.985 F2500.000
G1 X47.581 Y-57.116 Z4.951 F2500.000
G1 X46.739 Y-2.396 Z4.905 F2500.000
(Break)
G0 Z26.500
G0 X47.625 Y-1.496
(part 63.)
G1 X47.625 Y-1.496 Z4.011 F2500.000
G1 X46.645 Y-1.496 Z4.981 F2500.000
G1 X45.665 Y-1.496 Z5.872 F2500.000
G1 X44.684 Y-1.496 Z6.694 F2500.000
G1 X43.704 Y-1.496 Z7.459 F2500.000
G1 X42.723 Y-1.496 Z8.170 F2500.000
G1 X41.743 Y-1.496 Z8.834 F2500.000
G1 X40.763 Y-1.496 Z9.454 F2500.000
G1 X39.782 Y-1.496 Z10.031 F2500.000
G1 X38.802 Y-1.496 Z10.572 F2500.000
G1 X37.821 Y-1.496 Z11.075 F2500.000
G1 X36.841 Y-1.496 Z11.543 F2500.000
G1 X35.861 Y-1.496 Z11.979 F2500.000
G1 X34.880 Y-1.496 Z12.382 F2500.000
G1 X33.900 Y-1.496 Z12.752 F2500.000
G1 X32.919 Y-1.496 Z13.091 F2500.000
G1 X31.939 Y-1.496 Z13.398 F2500.000
G1 X30.959 Y-1.496 Z13.676 F2500.000
G1 X29.978 Y-1.496 Z13.923 F2500.000
G1 X28.998 Y-1.496 Z14.142 F2500.000
G1 X28.018 Y-1.496 Z14.329 F2500.000
G1 X27.037 Y-1.496 Z14.487 F2500.000
G1 X26.057 Y-1.496 Z14.614 F2500.000
G1 X25.076 Y-1.496 Z14.710 F2500.000
G1 X24.096 Y-1.496 Z14.774 F2500.000
G1 X23.116 Y-1.496 Z14.806 F2500.000
G1 X22.135 Y-1.496 Z14.807 F2500.000
G1 X21.155 Y-1.496 Z14.777 F2500.000
G1 X20.174 Y-1.496 Z14.714 F2500.000
G1 X19.194 Y-1.496 Z14.620 F2500.000
G1 X18.214 Y-1.496 Z14.495 F2500.000
G1 X17.233 Y-1.496 Z14.338 F2500.000
G1 X16.253 Y-1.496 Z14.153 F2500.000
G1 X15.272 Y-1.496 Z13.936 F2500.000
G1 X14.292 Y-1.496 Z13.689 F2500.000
G1 X13.312 Y-1.496 Z13.413 F2500.000
G1 X12.331 Y-1.496 Z13.107 F2500.000
G1 X11.351 Y-1.496 Z12.770 F2500.000
G1 X10.370 Y-1.496 Z12.402 F2500.000
G1 X9.390 Y-1.496 Z12.001 F2500.000
G1 X8.410 Y-1.496 Z11.567 F2500.000
G1 X7.429 Y-1.496 Z11.100 F2500.000
G1 X6.449 Y-1.496 Z10.598 F2500.000
G1 X5.468 Y-1.496 Z10.060 F2500.000
G1 X4.488 Y-1.496 Z9.485 F2500.000
G1 X3.508 Y-1.496 Z8.867 F2500.000
G1 X2.527 Y-1.496 Z8.206 F2500.000
G1 X1.547 Y-1.496 Z7.496 F2500.000
G1 X0.567 Y-1.496 Z6.734 F2500.000
G1 X-0.414 Y-1.496 Z5.915 F2500.000
G1 X-1.394 Y-1.496 Z5.029 F2500.000
G1 X-2.375 Y-1.496 Z4.063 F2500.000
G1 X-2.428 Y-1.645 Z4.011 F2500.000
G1 X-3.209 Y-52.439 Z4.026 F2500.000
G1 X-4.061 Y-107.832 Z4.033 F2500.000
G1 X-4.886 Y-161.426 Z4.034 F2500.000
G1 X-4.892 Y-161.826 Z4.031 F2500.000
G1 X-4.919 Y-163.626 Z4.034 F2500.000
G1 X-5.175 Y-180.224 Z4.033 F2500.000
G1 X-5.250 Y-185.123 Z4.029 F2500.000
G1 X-5.275 Y-186.723 Z4.032 F2500.000
G1 X-5.901 Y-227.418 Z4.028 F2500.000
G1 X-5.993 Y-233.417 Z4.024 F2500.000
G1 X-6.079 Y-239.017 Z4.026 F2500.000
G1 X-5.889 Y-239.026 Z4.244 F2500.000
G1 X-4.906 Y-239.026 Z5.324 F2500.000
G1 X-3.924 Y-239.026 Z6.330 F2500.000
G1 X-2.941 Y-239.026 Z7.267 F2500.000
G1 X-1.958 Y-239.026 Z8.142 F2500.000
G1 X-0.975 Y-239.026 Z8.957 F2500.000
G1 X0.007 Y-239.026 Z9.716 F2500.000
G1 X0.990 Y-239.026 Z10.422 F2500.000
G1 X1.973 Y-239.026 Z11.080 F2500.000
G1 X2.956 Y-239.026 Z11.691 F2500.000
G1 X3.938 Y-239.026 Z12.257 F2500.000
G1 X4.921 Y-239.026 Z12.780 F2500.000
G1 X5.904 Y-239.026 Z13.265 F2500.000
G1 X6.887 Y-239.026 Z13.711 F2500.000
G1 X7.870 Y-239.026 Z14.120 F2500.000
G1 X8.852 Y-239.026 Z14.497 F2500.000
G1 X9.835 Y-239.026 Z14.838 F2500.000
G1 X10.818 Y-239.026 Z15.148 F2500.000
G1 X11.801 Y-239.026 Z15.428 F2500.000
G1 X12.783 Y-239.026 Z15.678 F2500.000
G1 X13.766 Y-239.026 Z15.900 F2500.000
G1 X14.749 Y-239.026 Z16.094 F2500.000
G1 X15.732 Y-239.026 Z16.263 F2500.000
G1 X16.714 Y-239.026 Z16.408 F2500.000
G1 X17.697 Y-239.026 Z16.527 F2500.000
G1 X18.680 Y-239.026 Z16.623 F2500.000
G1 X19.663 Y-239.026 Z16.696 F2500.000
G1 X20.645 Y-239.026 Z16.747 F2500.000
G1 X21.628 Y-239.026 Z16.778 F2500.000
G1 X22.611 Y-239.026 Z16.787 F2500.000
G1 X23.594 Y-239.026 Z16.776 F2500.000
G1 X24.576 Y-239.026 Z16.747 F2500.000
G1 X25.559 Y-239.026 Z16.695 F2500.000
G1 X26.542 Y-239.026 Z16.621 F2500.000
G1 X27.525 Y-239.026 Z16.525 F2500.000
G1 X28.507 Y-239.026 Z16.404 F2500.000
G1 X29.490 Y-239.026 Z16.260 F2500.000
G1 X30.473 Y-239.026 Z16.090 F2500.000
G1 X31.456 Y-239.026 Z15.895 F2500.000
G1 X32.438 Y-239.026 Z15.673 F2500.000
G1 X33.421 Y-239.026 Z15.422 F2500.000
G1 X34.404 Y-239.026 Z15.142 F2500.000
G1 X35.387 Y-239.026 Z14.831 F2500.000
G1 X36.370 Y-239.026 Z14.488 F2500.000
G1 X37.352 Y-239.026 Z14.111 F2500.000
G1 X38.335 Y-239.026 Z13.701 F2500.000
G1 X39.318 Y-239.026 Z13.255 F2500.000
G1 X40.301 Y-239.026 Z12.769 F2500.000
G1 X41.283 Y-239.026 Z12.245 F2500.000
G1 X42.266 Y-239.026 Z11.678 F2500.000
G1 X43.249 Y-239.026 Z11.066 F2500.000
G1 X44.232 Y-239.026 Z10.406 F2500.000
G1 X45.214 Y-239.026 Z9.699 F2500.000
G1 X46.197 Y-239.026 Z8.939 F2500.000
G1 X47.180 Y-239.026 Z8.123 F2500.000
G1 X48.163 Y-239.026 Z7.247 F2500.000
G1 X49.145 Y-239.026 Z6.309 F2500.000
G1 X50.128 Y-239.026 Z5.300 F2500.000
G1 X51.111 Y-239.026 Z4.218 F2500.000
G1 X51.279 Y-238.995 Z4.026 F2500.000
G1 X50.178 Y-167.403 Z4.033 F2500.000
G1 X50.110 Y-163.004 Z4.031 F2500.000
G1 X49.999 Y-155.805 Z4.034 F2500.000
G1 X49.839 Y-145.406 Z4.031 F2500.000
G1 X49.802 Y-143.006 Z4.034 F2500.000
G1 X49.265 Y-108.110 Z4.033 F2500.000
G1 X48.409 Y-52.417 Z4.026 F2500.000
G1 X47.625 Y-1.496 Z4.011 F2500.000
(Break)
G0 Z26.500
G0 X48.512 Y-0.596
(part 65.)
G1 X48.512 Y-0.596 Z3.038 F2500.000
G1 X47.515 Y-0.596 Z4.110 F2500.000
G1 X46.519 Y-0.596 Z5.085 F2500.000
G1 X45.523 Y-0.596 Z5.980 F2500.000
G1 X44.527 Y-0.596 Z6.808 F2500.000
G1 X43.531 Y-0.596 Z7.575 F2500.000
G1 X42.535 Y-0.596 Z8.289 F2500.000
G1 X41.539 Y-0.596 Z8.955 F2500.000
G1 X40.542 Y-0.596 Z9.574 F2500.000
G1 X39.546 Y-0.596 Z10.154 F2500.000
G1 X38.550 Y-0.596 Z10.694 F2500.000
G1 X37.554 Y-0.596 Z11.197 F2500.000
G1 X36.558 Y-0.596 Z11.663 F2500.000
G1 X35.562 Y-0.596 Z12.096 F2500.000
G1 X34.565 Y-0.596 Z12.494 F2500.000
G1 X33.569 Y-0.596 Z12.860 F2500.000
G1 X32.573 Y-0.596 Z13.194 F2500.000
G1 X31.577 Y-0.596 Z13.497 F2500.000
G1 X30.581 Y-0.596 Z13.768 F2500.000
G1 X29.585 Y-0.596 Z14.007 F2500.000
G1 X28.589 Y-0.596 Z14.215 F2500.000
G1 X27.592 Y-0.596 Z14.394 F2500.000
G1 X26.596 Y-0.596 Z14.540 F2500.000
G1 X25.600 Y-0.596 Z14.653 F2500.000
G1 X24.604 Y-0.596 Z14.737 F2500.000
G1 X23.608 Y-0.596 Z14.787 F2500.000
G1 X22.612 Y-0.596 Z14.805 F2500.000
G1 X21.615 Y-0.596 Z14.788 F2500.000
G1 X20.619 Y-0.596 Z14.738 F2500.000
G1 X19.623 Y-0.596 Z14.656 F2500.000
G1 X18.627 Y-0.596 Z14.543 F2500.000
G1 X17.631 Y-0.596 Z14.397 F2500.000
G1 X16.635 Y-0.596 Z14.220 F2500.000
G1 X15.639 Y-0.596 Z14.012 F2500.000
G1 X14.642 Y-0.596 Z13.774 F2500.000
G1 X13.646 Y-0.596 Z13.503 F2500.000
G1 X12.650 Y-0.596 Z13.201 F2500.000
G1 X11.654 Y-0.596 Z12.869 F2500.000
G1 X10.658 Y-0.596 Z12.503 F2500.000
G1 X9.662 Y-0.596 Z12.105 F2500.000
G1 X8.665 Y-0.596 Z11.674 F2500.000
G1 X7.669 Y-0.596 Z11.208 F2500.000
G1 X6.673 Y-0.596 Z10.706 F2500.000
G1 X5.677 Y-0.596 Z10.167 F2500.000
G1 X4.681 Y-0.596 Z9.588 F2500.000
G1 X3.685 Y-0.596 Z8.970 F2500.000
G1 X2.689 Y-0.596 Z8.305 F2500.000
G1 X1.692 Y-0.596 Z7.593 F2500.000
G1 X0.696 Y-0.596 Z6.827 F2500.000
G1 X-0.300 Y-0.596 Z6.000 F2500.000
G1 X-1.296 Y-0.596 Z5.106 F2500.000
G1 X-2.292 Y-0.596 Z4.134 F2500.000
G1 X-3.288 Y-0.596 Z3.065 F2500.000
G1 X-3.314 Y-0.772 Z3.038 F2500.000
G1 X-3.334 Y-2.072 Z3.035 F2500.000
G1 X-3.357 Y-3.572 Z3.038 F2500.000
G1 X-3.579 Y-17.970 Z3.034 F2500.000
G1 X-3.856 Y-35.968 Z3.029 F2500.000
G1 X-3.928 Y-40.668 Z3.025 F2500.000
G1 X-3.951 Y-42.167 Z3.028 F2500.000
G1 X-4.154 Y-55.366 Z3.021 F2500.000
G1 X-4.194 Y-57.965 Z3.023 F2500.000
G1 X-4.569 Y-82.363 Z3.015 F2500.000
G1 X-4.609 Y-84.962 Z3.010 F2500.000
G1 X-4.671 Y-88.962 Z3.012 F2500.000
G1 X-4.689 Y-90.162 Z3.010 F2500.000
G1 X-4.699 Y-90.762 Z3.003 F2500.000
G1 X-4.717 Y-91.961 Z3.010 F2500.000
G1 X-4.865 Y-101.560 Z3.008 F2500.000
G1 X-5.151 Y-120.158 Z3.000 F2500.000
G1 X-5.166 Y-121.158 Z2.997 F2500.000
G1 X-5.200 Y-123.358 Z2.999 F2500.000
G1 X-5.434 Y-138.556 Z2.990 F2500.000
G1 X-5.585 Y-148.355 Z2.990 F2500.000
G1 X-6.990 Y-239.744 Z2.951 F2500.000
G1 X-6.976 Y-239.927 Z2.973 F2500.000
G1 X-5.976 Y-239.927 Z4.160 F2500.000
G1 X-4.976 Y-239.927 Z5.264 F2500.000
G1 X-3.976 Y-239.927 Z6.292 F2500.000
G1 X-2.976 Y-239.927 Z7.248 F2500.000
G1 X-1.976 Y-239.927 Z8.140 F2500.000
G1 X-0.976 Y-239.927 Z8.970 F2500.000
G1 X0.024 Y-239.927 Z9.741 F2500.000
G1 X1.024 Y-239.927 Z10.459 F2500.000
G1 X2.024 Y-239.927 Z11.125 F2500.000
G1 X3.024 Y-239.927 Z11.744 F2500.000
G1 X4.024 Y-239.927 Z12.314 F2500.000
G1 X5.024 Y-239.927 Z12.843 F2500.000
G1 X6.024 Y-239.927 Z13.333 F2500.000
G1 X7.024 Y-239.927 Z13.782 F2500.000
G1 X8.024 Y-239.927 Z14.193 F2500.000
G1 X9.024 Y-239.927 Z14.569 F2500.000
G1 X10.024 Y-239.927 Z14.911 F2500.000
G1 X11.024 Y-239.927 Z15.218 F2500.000
G1 X12.024 Y-239.927 Z15.497 F2500.000
G1 X13.024 Y-239.927 Z15.744 F2500.000
G1 X14.024 Y-239.927 Z15.963 F2500.000
G1 X15.024 Y-239.927 Z16.154 F2500.000
G1 X16.024 Y-239.927 Z16.318 F2500.000
G1 X17.024 Y-239.927 Z16.455 F2500.000
G1 X18.024 Y-239.927 Z16.570 F2500.000
G1 X19.024 Y-239.927 Z16.659 F2500.000
G1 X20.024 Y-239.927 Z16.724 F2500.000
G1 X21.024 Y-239.927 Z16.769 F2500.000
G1 X22.024 Y-239.927 Z16.791 F2500.000
G1 X23.024 Y-239.927 Z16.793 F2500.000
G1 X24.024 Y-239.927 Z16.773 F2500.000
G1 X25.024 Y-239.927 Z16.733 F2500.000
G1 X26.024 Y-239.927 Z16.671 F2500.000
G1 X27.024 Y-239.927 Z16.585 F2500.000
G1 X28.024 Y-239.927 Z16.473 F2500.000
G1 X29.024 Y-239.927 Z16.339 F2500.000
G1 X30.024 Y-239.927 Z16.180 F2500.000
G1 X31.024 Y-239.927 Z15.994 F2500.000
G1 X32.024 Y-239.927 Z15.780 F2500.000
G1 X33.024 Y-239.927 Z15.536 F2500.000
G1 X34.024 Y-239.927 Z15.263 F2500.000
G1 X35.024 Y-239.927 Z14.958 F2500.000
G1 X36.024 Y-239.927 Z14.622 F2500.000
G1 X37.024 Y-239.927 Z14.252 F2500.000
G1 X38.024 Y-239.927 Z13.847 F2500.000
G1 X39.024 Y-239.927 Z13.404 F2500.000
G1 X40.024 Y-239.927 Z12.921 F2500.000
G1 X41.024 Y-239.927 Z12.399 F2500.000
G1 X42.024 Y-239.927 Z11.833 F2500.000
G1 X43.024 Y-239.927 Z11.220 F2500.000
G1 X44.024 Y-239.927 Z10.563 F2500.000
G1 X45.024 Y-239.927 Z9.853 F2500.000
G1 X46.024 Y-239.927 Z9.091 F2500.000
G1 X47.024 Y-239.927 Z8.270 F2500.000
G1 X48.024 Y-239.927 Z7.389 F2500.000
G1 X49.024 Y-239.927 Z6.442 F2500.000
G1 X50.024 Y-239.927 Z5.425 F2500.000
G1 X51.024 Y-239.927 Z4.333 F2500.000
G1 X52.024 Y-239.927 Z3.158 F2500.000
G1 X52.193 Y-239.896 Z2.951 F2500.000
G1 X49.919 Y-92.113 Z3.011 F2500.000
G1 X49.896 Y-90.613 Z3.009 F2500.000
G1 X49.393 Y-57.917 Z3.023 F2500.000
G1 X49.366 Y-56.117 Z3.021 F2500.000
G1 X49.061 Y-36.320 Z3.029 F2500.000
G1 X48.512 Y-0.596 Z3.038 F2500.000
(Break)
G0 Z26.500
G0 X52.805 Y-240.826
(part 67.)
G1 X52.805 Y-240.826 Z2.168 F2500.000
G1 X52.990 Y-240.760 Z1.937 F2500.000
G1 X53.094 Y-240.593 Z1.814 F2500.000
G1 X53.101 Y-240.394 Z1.805 F2500.000
G1 X53.027 Y-235.595 Z1.804 F2500.000
G1 X52.990 Y-233.195 Z1.809 F2500.000
G1 X52.977 Y-232.395 Z1.807 F2500.000
G1 X52.910 Y-227.996 Z1.812 F2500.000
G1 X52.861 Y-224.796 Z1.811 F2500.000
G1 X52.845 Y-223.796 Z1.814 F2500.000
G1 X52.488 Y-200.599 Z1.825 F2500.000
G1 X51.802 Y-156.004 Z1.856 F2500.000
G1 X51.762 Y-153.404 Z1.854 F2500.000
G1 X51.753 Y-152.804 Z1.858 F2500.000
G1 X51.725 Y-151.005 Z1.855 F2500.000
G1 X51.670 Y-147.405 Z1.861 F2500.000
G1 X51.621 Y-144.205 Z1.860 F2500.000
G1 X50.923 Y-98.811 Z1.894 F2500.000
G1 X50.803 Y-91.012 Z1.896 F2500.000
G1 X50.778 Y-89.412 Z1.901 F2500.000
G1 X50.569 Y-75.814 Z1.910 F2500.000
G1 X50.553 Y-74.814 Z1.908 F2500.000
G1 X50.529 Y-73.214 Z1.912 F2500.000
G1 X50.384 Y-63.815 Z1.916 F2500.000
G1 X50.313 Y-59.216 Z1.922 F2500.000
G1 X50.273 Y-56.616 Z1.921 F2500.000
G1 X50.261 Y-55.816 Z1.925 F2500.000
G1 X49.791 Y-25.220 Z1.945 F2500.000
G1 X49.449 Y-3.022 Z1.964 F2500.000
G1 X49.437 Y-2.222 Z1.961 F2500.000
G1 X49.403 Y-0.023 Z1.966 F2500.000
G1 X49.353 Y0.168 Z2.021 F2500.000
G1 X49.198 Y0.288 Z2.198 F2500.000
G1 X49.000 Y0.305 Z2.436 F2500.000
G1 X48.003 Y0.305 Z3.566 F2500.000
G1 X47.007 Y0.305 Z4.588 F2500.000
G1 X46.011 Y0.305 Z5.522 F2500.000
G1 X45.015 Y0.305 Z6.382 F2500.000
G1 X44.018 Y0.305 Z7.179 F2500.000
G1 X43.022 Y0.305 Z7.919 F2500.000
G1 X42.026 Y0.305 Z8.608 F2500.000
G1 X41.030 Y0.305 Z9.251 F2500.000
G1 X40.034 Y0.305 Z9.851 F2500.000
G1 X39.037 Y0.305 Z10.410 F2500.000
G1 X38.041 Y0.305 Z10.931 F2500.000
G1 X37.045 Y0.305 Z11.416 F2500.000
G1 X36.049 Y0.305 Z11.865 F2500.000
G1 X35.052 Y0.305 Z12.280 F2500.000
G1 X34.056 Y0.305 Z12.663 F2500.000
G1 X33.060 Y0.305 Z13.013 F2500.000
G1 X32.064 Y0.305 Z13.331 F2500.000
G1 X31.067 Y0.305 Z13.617 F2500.000
G1 X30.071 Y0.305 Z13.873 F2500.000
G1 X29.075 Y0.305 Z14.097 F2500.000
G1 X28.079 Y0.305 Z14.290 F2500.000
G1 X27.083 Y0.305 Z14.452 F2500.000
G1 X26.086 Y0.305 Z14.582 F2500.000
G1 X25.090 Y0.305 Z14.681 F2500.000
G1 X24.094 Y0.305 Z14.747 F2500.000
G1 X23.098 Y0.305 Z14.780 F2500.000
G1 X22.101 Y0.305 Z14.780 F2500.000
G1 X21.105 Y0.305 Z14.747 F2500.000
G1 X20.109 Y0.305 Z14.681 F2500.000
G1 X19.113 Y0.305 Z14.582 F2500.000
G1 X18.117 Y0.305 Z14.452 F2500.000
G1 X17.120 Y0.305 Z14.290 F2500.000
G1 X16.124 Y0.305 Z14.097 F2500.000
G1 X15.128 Y0.305 Z13.873 F2500.000
G1 X14.132 Y0.305 Z13.617 F2500.000
G1 X13.135 Y0.305 Z13.330 F2500.000
G1 X12.139 Y0.305 Z13.012 F2500.000
G1 X11.143 Y0.305 Z12.662 F2500.000
G1 X10.147 Y0.305 Z12.280 F2500.000
G1 X9.151 Y0.305 Z11.864 F2500.000
G1 X8.154 Y0.305 Z11.415 F2500.000
G1 X7.158 Y0.305 Z10.931 F2500.000
G1 X6.162 Y0.305 Z10.410 F2500.000
G1 X5.166 Y0.305 Z9.850 F2500.000
G1 X4.169 Y0.305 Z9.251 F2500.000
G1 X3.173 Y0.305 Z8.608 F2500.000
G1 X2.177 Y0.305 Z7.919 F2500.000
G1 X1.181 Y0.305 Z7.178 F2500.000
G1 X0.184 Y0.305 Z6.382 F2500.000
G1 X-0.812 Y0.305 Z5.521 F2500.000
G1 X-1.808 Y0.305 Z4.587 F2500.000
G1 X-2.804 Y0.305 Z3.565 F2500.000
G1 X-3.800 Y0.305 Z2.435 F2500.000
G1 X-3.999 Y0.288 Z2.197 F2500.000
G1 X-4.153 Y0.167 Z2.020 F2500.000
G1 X-4.203 Y-0.023 Z1.966 F2500.000
G1 X-4.803 Y-39.019 Z1.937 F2500.000
G1 X-4.812 Y-39.619 Z1.934 F2500.000
G1 X-4.846 Y-41.818 Z1.935 F2500.000
G1 X-5.175 Y-63.216 Z1.919 F2500.000
G1 X-5.270 Y-69.415 Z1.911 F2500.000
G1 X-5.320 Y-72.615 Z1.912 F2500.000
G1 X-5.701 Y-97.412 Z1.892 F2500.000
G1 X-6.150 Y-126.608 Z1.875 F2500.000
G1 X-6.190 Y-129.208 Z1.870 F2500.000
G1 X-6.209 Y-130.408 Z1.872 F2500.000
G1 X-6.562 Y-153.405 Z1.855 F2500.000
G1 X-6.670 Y-160.404 Z1.853 F2500.000
G1 X-6.695 Y-162.004 Z1.848 F2500.000
G1 X-6.772 Y-167.004 Z1.848 F2500.000
G1 X-6.812 Y-169.603 Z1.844 F2500.000
G1 X-6.848 Y-172.003 Z1.845 F2500.000
G1 X-7.325 Y-202.999 Z1.824 F2500.000
G1 X-7.470 Y-212.398 Z1.821 F2500.000
G1 X-7.538 Y-216.798 Z1.816 F2500.000
G1 X-7.645 Y-223.797 Z1.815 F2500.000
G1 X-7.768 Y-231.796 Z1.807 F2500.000
G1 X-7.787 Y-232.996 Z1.809 F2500.000
G1 X-7.821 Y-235.196 Z1.805 F2500.000
G1 X-7.901 Y-240.395 Z1.805 F2500.000
G1 X-7.894 Y-240.594 Z1.814 F2500.000
G1 X-7.789 Y-240.760 Z1.938 F2500.000
G1 X-7.604 Y-240.826 Z2.168 F2500.000
G1 X-7.404 Y-240.827 Z2.424 F2500.000
G1 X-6.404 Y-240.827 Z3.649 F2500.000
G1 X-5.404 Y-240.827 Z4.789 F2500.000
G1 X-4.404 Y-240.827 Z5.849 F2500.000
G1 X-3.404 Y-240.827 Z6.836 F2500.000
G1 X-2.404 Y-240.827 Z7.755 F2500.000
G1 X-1.404 Y-240.827 Z8.611 F2500.000
G1 X-0.404 Y-240.827 Z9.407 F2500.000
G1 X0.596 Y-240.827 Z10.148 F2500.000
G1 X1.596 Y-240.827 Z10.836 F2500.000
G1 X2.596 Y-240.827 Z11.475 F2500.000
G1 X3.596 Y-240.827 Z12.066 F2500.000
G1 X4.596 Y-240.827 Z12.614 F2500.000
G1 X5.596 Y-240.827 Z13.119 F2500.000
G1 X6.596 Y-240.827 Z13.585 F2500.000
G1 X7.596 Y-240.827 Z14.012 F2500.000
G1 X8.596 Y-240.827 Z14.403 F2500.000
G1 X9.596 Y-240.827 Z14.759 F2500.000
G1 X10.596 Y-240.827 Z15.081 F2500.000
G1 X11.596 Y-240.827 Z15.372 F2500.000
G1 X12.596 Y-240.827 Z15.632 F2500.000
G1 X13.596 Y-240.827 Z15.863 F2500.000
G1 X14.596 Y-240.827 Z16.066 F2500.000
G1 X15.596 Y-240.827 Z16.241 F2500.000
G1 X16.596 Y-240.827 Z16.390 F2500.000
G1 X17.596 Y-240.827 Z16.514 F2500.000
G1 X18.596 Y-240.827 Z16.613 F2500.000
G1 X19.596 Y-240.827 Z16.689 F2500.000
G1 X20.596 Y-240.827 Z16.743 F2500.000
G1 X21.596 Y-240.827 Z16.774 F2500.000
G1 X22.596 Y-240.827 Z16.785 F2500.000
G1 X23.596 Y-240.827 Z16.774 F2500.000
G1 X24.596 Y-240.827 Z16.743 F2500.000
G1 X25.596 Y-240.827 Z16.690 F2500.000
G1 X26.596 Y-240.827 Z16.614 F2500.000
G1 X27.596 Y-240.827 Z16.515 F2500.000
G1 X28.596 Y-240.827 Z16.391 F2500.000
G1 X29.596 Y-240.827 Z16.242 F2500.000
G1 X30.596 Y-240.827 Z16.067 F2500.000
G1 X31.596 Y-240.827 Z15.865 F2500.000
G1 X32.596 Y-240.827 Z15.634 F2500.000
G1 X33.596 Y-240.827 Z15.375 F2500.000
G1 X34.596 Y-240.827 Z15.084 F2500.000
G1 X35.596 Y-240.827 Z14.761 F2500.000
G1 X36.596 Y-240.827 Z14.406 F2500.000
G1 X37.596 Y-240.827 Z14.015 F2500.000
G1 X38.596 Y-240.827 Z13.588 F2500.000
G1 X39.596 Y-240.827 Z13.123 F2500.000
G1 X40.596 Y-240.827 Z12.618 F2500.000
G1 X41.596 Y-240.827 Z12.071 F2500.000
G1 X42.596 Y-240.827 Z11.479 F2500.000
G1 X43.596 Y-240.827 Z10.841 F2500.000
G1 X44.596 Y-240.827 Z10.153 F2500.000
G1 X45.596 Y-240.827 Z9.413 F2500.000
G1 X46.596 Y-240.827 Z8.618 F2500.000
G1 X47.596 Y-240.827 Z7.763 F2500.000
G1 X48.596 Y-240.827 Z6.844 F2500.000
G1 X49.596 Y-240.827 Z5.857 F2500.000
G1 X50.596 Y-240.827 Z4.798 F2500.000
G1 X51.596 Y-240.827 Z3.659 F2500.000
G1 X52.596 Y-240.827 Z2.435 F2500.000
G1 X52.805 Y-240.826 Z2.168 F2500.000
(Break)
G0 Z26.500
G0 X52.820 Y-241.726
(part 69.)
G1 X52.820 Y-241.726 Z1.761 F2500.000
G1 X53.018 Y-241.706 Z1.513 F2500.000
G1 X53.211 Y-241.654 Z1.292 F2500.000
G1 X53.393 Y-241.570 Z1.101 F2500.000
G1 X53.558 Y-241.458 Z0.943 F2500.000
G1 X53.702 Y-241.319 Z0.814 F2500.000
G1 X53.821 Y-241.159 Z0.716 F2500.000
G1 X53.912 Y-240.981 Z0.645 F2500.000
G1 X53.972 Y-240.791 Z0.601 F2500.000
G1 X54.000 Y-240.593 Z0.580 F2500.000
G1 X54.001 Y-240.393 Z0.579 F2500.000
G1 X53.659 Y-218.196 Z0.591 F2500.000
G1 X53.625 Y-215.996 Z0.589 F2500.000
G1 X53.607 Y-214.796 Z0.593 F2500.000
G1 X53.278 Y-193.399 Z0.603 F2500.000
G1 X53.038 Y-177.801 Z0.615 F2500.000
G1 X53.013 Y-176.201 Z0.613 F2500.000
G1 X52.779 Y-161.003 Z0.625 F2500.000
G1 X52.730 Y-157.803 Z0.624 F2500.000
G1 X52.684 Y-154.803 Z0.630 F2500.000
G1 X52.666 Y-153.603 Z0.628 F2500.000
G1 X52.518 Y-144.005 Z0.637 F2500.000
G1 X52.506 Y-143.205 Z0.634 F2500.000
G1 X52.481 Y-141.605 Z0.639 F2500.000
G1 X52.453 Y-139.805 Z0.637 F2500.000
G1 X52.401 Y-136.405 Z0.642 F2500.000
G1 X51.850 Y-100.610 Z0.666 F2500.000
G1 X51.575 Y-82.712 Z0.684 F2500.000
G1 X51.474 Y-76.146 Z0.686 F2500.000
G1 X51.437 Y-73.713 Z0.692 F2500.000
G1 X51.426 Y-73.013 Z0.688 F2500.000
G1 X51.410 Y-72.013 Z0.693 F2500.000
G1 X51.260 Y-62.214 Z0.699 F2500.000
G1 X51.250 Y-61.614 Z0.703 F2500.000
G1 X51.161 Y-55.815 Z0.708 F2500.000
G1 X51.143 Y-54.615 Z0.705 F2500.000
G1 X51.127 Y-53.615 Z0.710 F2500.000
G1 X50.749 Y-29.018 Z0.731 F2500.000
G1 X50.494 Y-12.420 Z0.751 F2500.000
G1 X50.432 Y-8.421 Z0.752 F2500.000
G1 X50.414 Y-7.221 Z0.756 F2500.000
G1 X50.378 Y-4.921 Z0.756 F2500.000
G1 X50.303 Y-0.022 Z0.764 F2500.000
G1 X50.290 Y0.178 Z0.773 F2500.000
G1 X50.244 Y0.372 Z0.807 F2500.000
G1 X50.167 Y0.557 Z0.866 F2500.000
G1 X50.060 Y0.726 Z0.951 F2500.000
G1 X49.927 Y0.875 Z1.065 F2500.000
G1 X49.771 Y1.000 Z1.207 F2500.000
G1 X49.597 Y1.097 Z1.379 F2500.000
G1 X49.409 Y1.164 Z1.579 F2500.000
G1 X49.212 Y1.199 Z1.805 F2500.000
G1 X49.012 Y1.204 Z2.049 F2500.000
G1 X48.016 Y1.204 Z3.203 F2500.000
G1 X47.020 Y1.204 Z4.243 F2500.000
G1 X46.024 Y1.204 Z5.192 F2500.000
G1 X45.027 Y1.204 Z6.064 F2500.000
G1 X44.031 Y1.204 Z6.870 F2500.000
G1 X43.035 Y1.204 Z7.619 F2500.000
G1 X42.039 Y1.204 Z8.315 F2500.000
G1 X41.043 Y1.204 Z8.964 F2500.000
G1 X40.046 Y1.204 Z9.570 F2500.000
G1 X39.050 Y1.204 Z10.134 F2500.000
G1 X38.054 Y1.204 Z10.660 F2500.000
G1 X37.058 Y1.204 Z11.148 F2500.000
G1 X36.061 Y1.204 Z11.602 F2500.000
G1 X35.065 Y1.204 Z12.021 F2500.000
G1 X34.069 Y1.204 Z12.406 F2500.000
G1 X33.073 Y1.204 Z12.759 F2500.000
G1 X32.077 Y1.204 Z13.080 F2500.000
G1 X31.080 Y1.204 Z13.369 F2500.000
G1 X30.084 Y1.204 Z13.627 F2500.000
G1 X29.088 Y1.204 Z13.853 F2500.000
G1 X28.092 Y1.204 Z14.048 F2500.000
G1 X27.095 Y1.204 Z14.211 F2500.000
G1 X26.099 Y1.204 Z14.343 F2500.000
G1 X25.103 Y1.204 Z14.443 F2500.000
G1 X24.107 Y1.204 Z14.510 F2500.000
G1 X23.110 Y1.204 Z14.544 F2500.000
G1 X22.114 Y1.204 Z14.544 F2500.000
G1 X21.118 Y1.204 Z14.511 F2500.000
G1 X20.122 Y1.204 Z14.445 F2500.000
G1 X19.126 Y1.204 Z14.346 F2500.000
G1 X18.129 Y1.204 Z14.215 F2500.000
G1 X17.133 Y1.204 Z14.052 F2500.000
G1 X16.137 Y1.204 Z13.858 F2500.000
G1 X15.141 Y1.204 Z13.633 F2500.000
G1 X14.144 Y1.204 Z13.376 F2500.000
G1 X13.148 Y1.204 Z13.087 F2500.000
G1 X12.152 Y1.204 Z12.767 F2500.000
G1 X11.156 Y1.204 Z12.415 F2500.000
G1 X10.160 Y1.204 Z12.030 F2500.000
G1 X9.163 Y1.204 Z11.612 F2500.000
G1 X8.167 Y1.204 Z11.160 F2500.000
G1 X7.171 Y1.204 Z10.672 F2500.000
G1 X6.175 Y1.204 Z10.148 F2500.000
G1 X5.178 Y1.204 Z9.584 F2500.000
G1 X4.182 Y1.204 Z8.980 F2500.000
G1 X3.186 Y1.204 Z8.332 F2500.000
G1 X2.190 Y1.204 Z7.637 F2500.000
G1 X1.193 Y1.204 Z6.889 F2500.000
G1 X0.197 Y1.204 Z6.085 F2500.000
G1 X-0.799 Y1.204 Z5.214 F2500.000
G1 X-1.795 Y1.204 Z4.268 F2500.000
G1 X-2.791 Y1.204 Z3.230 F2500.000
G1 X-3.788 Y1.204 Z2.079 F2500.000
G1 X-3.988 Y1.201 Z1.834 F2500.000
G1 X-4.185 Y1.170 Z1.605 F2500.000
G1 X-4.374 Y1.107 Z1.402 F2500.000
G1 X-4.551 Y1.013 Z1.227 F2500.000
G1 X-4.709 Y0.891 Z1.081 F2500.000
G1 X-4.845 Y0.745 Z0.964 F2500.000
G1 X-4.955 Y0.578 Z0.875 F2500.000
G1 X-5.036 Y0.396 Z0.813 F2500.000
G1 X-5.086 Y0.202 Z0.776 F2500.000
G1 X-5.103 Y0.003 Z0.764 F2500.000
G1 X-5.176 Y-4.796 Z0.756 F2500.000
G1 X-5.210 Y-6.996 Z0.756 F2500.000
G1 X-5.552 Y-29.193 Z0.731 F2500.000
G1 X-6.167 Y-69.189 Z0.693 F2500.000
G1 X-6.293 Y-77.388 Z0.689 F2500.000
G1 X-6.324 Y-79.387 Z0.683 F2500.000
G1 X-6.348 Y-80.987 Z0.686 F2500.000
G1 X-6.410 Y-84.987 Z0.682 F2500.000
G1 X-6.422 Y-85.787 Z0.678 F2500.000
G1 X-6.428 Y-86.187 Z0.681 F2500.000
G1 X-6.767 Y-108.184 Z0.661 F2500.000
G1 X-6.951 Y-120.183 Z0.654 F2500.000
G1 X-6.961 Y-120.783 Z0.650 F2500.000
G1 X-6.979 Y-121.982 Z0.653 F2500.000
G1 X-7.099 Y-129.782 Z0.647 F2500.000
G1 X-7.111 Y-130.581 Z0.644 F2500.000
G1 X-7.207 Y-136.781 Z0.642 F2500.000
G1 X-7.250 Y-139.580 Z0.637 F2500.000
G1 X-7.290 Y-142.180 Z0.638 F2500.000
G1 X-7.336 Y-145.180 Z0.633 F2500.000
G1 X-7.487 Y-154.979 Z0.629 F2500.000
G1 X-7.496 Y-155.578 Z0.626 F2500.000
G1 X-7.521 Y-157.178 Z0.628 F2500.000
G1 X-7.533 Y-157.978 Z0.624 F2500.000
G1 X-7.619 Y-163.578 Z0.624 F2500.000
G1 X-7.637 Y-164.777 Z0.619 F2500.000
G1 X-7.668 Y-166.777 Z0.622 F2500.000
G1 X-7.714 Y-169.777 Z0.617 F2500.000
G1 X-7.745 Y-171.777 Z0.618 F2500.000
G1 X-7.751 Y-172.176 Z0.615 F2500.000
G1 X-7.810 Y-175.976 Z0.616 F2500.000
G1 X-7.816 Y-176.376 Z0.613 F2500.000
G1 X-7.834 Y-177.576 Z0.615 F2500.000
G1 X-8.225 Y-202.973 Z0.599 F2500.000
G1 X-8.250 Y-204.573 Z0.595 F2500.000
G1 X-8.327 Y-209.572 Z0.596 F2500.000
G1 X-8.428 Y-216.171 Z0.589 F2500.000
G1 X-8.490 Y-220.171 Z0.590 F2500.000
G1 X-8.499 Y-220.771 Z0.587 F2500.000
G1 X-8.782 Y-239.169 Z0.580 F2500.000
G1 X-8.791 Y-239.768 Z0.577 F2500.000
G1 X-8.802 Y-240.568 Z0.580 F2500.000
G1 X-8.778 Y-240.767 Z0.597 F2500.000
G1 X-8.721 Y-240.958 Z0.638 F2500.000
G1 X-8.634 Y-241.138 Z0.706 F2500.000
G1 X-8.518 Y-241.301 Z0.801 F2500.000
G1 X-8.377 Y-241.442 Z0.925 F2500.000
G1 X-8.214 Y-241.558 Z1.080 F2500.000
G1 X-8.034 Y-241.645 Z1.267 F2500.000
G1 X-7.843 Y-241.702 Z1.484 F2500.000
G1 X-7.644 Y-241.726 Z1.729 F2500.000
G1 X-7.444 Y-241.726 Z1.989 F2500.000
G1 X-6.457 Y-241.726 Z3.218 F2500.000
G1 X-5.471 Y-241.726 Z4.362 F2500.000
G1 X-4.484 Y-241.726 Z5.428 F2500.000
G1 X-3.497 Y-241.726 Z6.419 F2500.000
G1 X-2.510 Y-241.726 Z7.343 F2500.000
G1 X-1.523 Y-241.726 Z8.204 F2500.000
G1 X-0.536 Y-241.726 Z9.006 F2500.000
G1 X0.451 Y-241.726 Z9.752 F2500.000
G1 X1.438 Y-241.726 Z10.445 F2500.000
G1 X2.424 Y-241.726 Z11.090 F2500.000
G1 X3.411 Y-241.726 Z11.687 F2500.000
G1 X4.398 Y-241.726 Z12.241 F2500.000
G1 X5.385 Y-241.726 Z12.752 F2500.000
G1 X6.372 Y-241.726 Z13.224 F2500.000
G1 X7.359 Y-241.726 Z13.658 F2500.000
G1 X8.346 Y-241.726 Z14.055 F2500.000
G1 X9.333 Y-241.726 Z14.418 F2500.000
G1 X10.320 Y-241.726 Z14.748 F2500.000
G1 X11.306 Y-241.726 Z15.046 F2500.000
G1 X12.293 Y-241.726 Z15.313 F2500.000
G1 X13.280 Y-241.726 Z15.551 F2500.000
G1 X14.267 Y-241.726 Z15.761 F2500.000
G1 X15.254 Y-241.726 Z15.944 F2500.000
G1 X16.241 Y-241.726 Z16.101 F2500.000
G1 X17.228 Y-241.726 Z16.233 F2500.000
G1 X18.215 Y-241.726 Z16.341 F2500.000
G1 X19.202 Y-241.726 Z16.425 F2500.000
G1 X20.188 Y-241.726 Z16.487 F2500.000
G1 X21.175 Y-241.726 Z16.527 F2500.000
G1 X22.162 Y-241.726 Z16.546 F2500.000
G1 X23.149 Y-241.726 Z16.545 F2500.000
G1 X24.136 Y-241.726 Z16.524 F2500.000
G1 X25.123 Y-241.726 Z16.481 F2500.000
G1 X26.110 Y-241.726 Z16.417 F2500.000
G1 X27.097 Y-241.726 Z16.330 F2500.000
G1 X28.084 Y-241.726 Z16.219 F2500.000
G1 X29.070 Y-241.726 Z16.085 F2500.000
G1 X30.057 Y-241.726 Z15.925 F2500.000
G1 X31.044 Y-241.726 Z15.739 F2500.000
G1 X32.031 Y-241.726 Z15.526 F2500.000
G1 X33.018 Y-241.726 Z15.284 F2500.000
G1 X34.005 Y-241.726 Z15.014 F2500.000
G1 X34.992 Y-241.726 Z14.712 F2500.000
G1 X35.979 Y-241.726 Z14.379 F2500.000
G1 X36.965 Y-241.726 Z14.012 F2500.000
G1 X37.952 Y-241.726 Z13.611 F2500.000
G1 X38.939 Y-241.726 Z13.173 F2500.000
G1 X39.926 Y-241.726 Z12.697 F2500.000
G1 X40.913 Y-241.726 Z12.180 F2500.000
G1 X41.900 Y-241.726 Z11.622 F2500.000
G1 X42.887 Y-241.726 Z11.019 F2500.000
G1 X43.874 Y-241.726 Z10.370 F2500.000
