(Exported by FreeCAD)
(Post Processor: grbl_post)
(Output Time:2024-01-02 11:26:55.268618)
(Begin preamble)
G17 G90
G21
(Begin operation: 8 Z1 UP helicoidale001)
(Path: 8 Z1 UP helicoidale001)
(8 Z1 UP helicoidale001)
(Begin toolchange)
( M6 T7 )
M3 S24000
(Finish operation: 8 Z1 UP helicoidale001)
(Begin operation: Fixture)
(Path: Fixture)
G54
(Finish operation: Fixture)
(Begin operation: Surface)
(Path: Surface)
(Surface)
(Surface)
(Tool type: endmill)
(Compensated Tool Path. Diameter: 8.0)
(Sample interval: 1.0)
(Step over %: 80.0)
()
G0 Z21.770
(Beginning of Multi-pass layers.)
(Layer 0 begins)
(Begin step 0.)
G0 X-33.973 Y-1.335
(part 1)
G1 X-33.973 Y-1.335 Z16.773 F2500.000
G1 X-12.990 Y-1.335 Z16.773 F2500.000
G1 X-11.991 Y-1.335 Z16.979 F2500.000
G1 X-10.991 Y-1.335 Z17.175 F2500.000
G1 X-9.992 Y-1.335 Z17.343 F2500.000
G1 X-8.993 Y-1.335 Z17.482 F2500.000
G1 X-7.994 Y-1.335 Z17.595 F2500.000
G1 X-6.994 Y-1.335 Z17.682 F2500.000
G1 X-5.995 Y-1.335 Z17.745 F2500.000
G1 X-4.996 Y-1.335 Z17.783 F2500.000
G1 X-3.997 Y-1.335 Z17.799 F2500.000
G1 X-2.998 Y-1.335 Z17.800 F2500.000
G1 X3.997 Y-1.335 Z17.799 F2500.000
G1 X4.996 Y-1.335 Z17.783 F2500.000
G1 X5.995 Y-1.335 Z17.744 F2500.000
G1 X6.994 Y-1.335 Z17.682 F2500.000
G1 X7.994 Y-1.335 Z17.595 F2500.000
G1 X8.993 Y-1.335 Z17.482 F2500.000
G1 X9.992 Y-1.335 Z17.343 F2500.000
G1 X10.991 Y-1.335 Z17.175 F2500.000
G1 X11.991 Y-1.335 Z16.979 F2500.000
G1 X12.990 Y-1.335 Z16.773 F2500.000
G1 X33.973 Y-1.335 Z16.773 F2500.000
(End of step 0.)
G0 Z19.770
G0 X34.125 Y5.065
(Begin step 1.)
G0 X34.125 Y5.065
(part 1)
G1 X34.125 Y5.065 Z16.773 F2500.000
G1 X13.353 Y5.065 Z16.773 F2500.000
G1 X12.364 Y5.065 Z16.898 F2500.000
G1 X11.375 Y5.065 Z17.098 F2500.000
G1 X10.386 Y5.065 Z17.270 F2500.000
G1 X9.397 Y5.065 Z17.415 F2500.000
G1 X8.408 Y5.065 Z17.531 F2500.000
G1 X7.418 Y5.065 Z17.625 F2500.000
G1 X6.429 Y5.065 Z17.692 F2500.000
G1 X5.440 Y5.065 Z17.738 F2500.000
G1 X4.451 Y5.065 Z17.764 F2500.000
G1 X3.462 Y5.065 Z17.777 F2500.000
G1 X2.473 Y5.065 Z17.785 F2500.000
G1 X-0.495 Y5.065 Z17.791 F2500.000
G1 X-2.473 Y5.065 Z17.785 F2500.000
G1 X-4.451 Y5.065 Z17.764 F2500.000
G1 X-5.440 Y5.065 Z17.739 F2500.000
G1 X-6.429 Y5.065 Z17.692 F2500.000
G1 X-7.418 Y5.065 Z17.624 F2500.000
G1 X-8.408 Y5.065 Z17.532 F2500.000
G1 X-9.397 Y5.065 Z17.414 F2500.000
G1 X-10.386 Y5.065 Z17.270 F2500.000
G1 X-11.375 Y5.065 Z17.099 F2500.000
G1 X-12.364 Y5.065 Z16.898 F2500.000
G1 X-13.353 Y5.065 Z16.773 F2500.000
G1 X-34.125 Y5.065 Z16.773 F2500.000
(End of step 1.)
G0 Z19.770
G0 X-34.027 Y11.465
(Begin step 2.)
G0 X-34.027 Y11.465
(part 1)
G1 X-34.027 Y11.465 Z16.773 F2500.000
G1 X-13.315 Y11.465 Z16.773 F2500.000
G1 X-12.328 Y11.465 Z16.841 F2500.000
G1 X-11.342 Y11.465 Z17.042 F2500.000
G1 X-10.356 Y11.465 Z17.215 F2500.000
G1 X-9.370 Y11.465 Z17.360 F2500.000
G1 X-8.383 Y11.465 Z17.478 F2500.000
G1 X-7.397 Y11.465 Z17.571 F2500.000
G1 X-6.411 Y11.465 Z17.640 F2500.000
G1 X-5.425 Y11.465 Z17.685 F2500.000
G1 X-4.438 Y11.465 Z17.711 F2500.000
G1 X-2.466 Y11.465 Z17.731 F2500.000
G1 X-0.493 Y11.465 Z17.738 F2500.000
G1 X2.466 Y11.465 Z17.731 F2500.000
G1 X4.438 Y11.465 Z17.711 F2500.000
G1 X5.425 Y11.465 Z17.685 F2500.000
G1 X6.411 Y11.465 Z17.639 F2500.000
G1 X7.397 Y11.465 Z17.571 F2500.000
G1 X8.383 Y11.465 Z17.478 F2500.000
G1 X9.370 Y11.465 Z17.360 F2500.000
G1 X10.356 Y11.465 Z17.215 F2500.000
G1 X11.342 Y11.465 Z17.042 F2500.000
G1 X12.328 Y11.465 Z16.841 F2500.000
G1 X13.315 Y11.465 Z16.773 F2500.000
G1 X34.027 Y11.465 Z16.773 F2500.000
(End of step 2.)
G0 Z19.770
G0 X33.928 Y17.865
(Begin step 3.)
G0 X33.928 Y17.865
(part 1)
G1 X33.928 Y17.865 Z16.773 F2500.000
G1 X12.973 Y17.865 Z16.773 F2500.000
G1 X11.975 Y17.865 Z16.854 F2500.000
G1 X10.977 Y17.865 Z17.048 F2500.000
G1 X9.979 Y17.865 Z17.214 F2500.000
G1 X8.981 Y17.865 Z17.351 F2500.000
G1 X7.983 Y17.865 Z17.462 F2500.000
G1 X6.985 Y17.865 Z17.547 F2500.000
G1 X5.987 Y17.865 Z17.608 F2500.000
G1 X4.989 Y17.865 Z17.645 F2500.000
G1 X3.992 Y17.865 Z17.665 F2500.000
G1 X1.996 Y17.865 Z17.680 F2500.000
G1 X0.000 Y17.865 Z17.685 F2500.000
G1 X-2.994 Y17.865 Z17.675 F2500.000
G1 X-3.992 Y17.865 Z17.665 F2500.000
G1 X-4.989 Y17.865 Z17.645 F2500.000
G1 X-5.987 Y17.865 Z17.608 F2500.000
G1 X-6.985 Y17.865 Z17.548 F2500.000
G1 X-7.983 Y17.865 Z17.462 F2500.000
G1 X-8.981 Y17.865 Z17.351 F2500.000
G1 X-9.979 Y17.865 Z17.214 F2500.000
G1 X-10.977 Y17.865 Z17.048 F2500.000
G1 X-11.975 Y17.865 Z16.854 F2500.000
G1 X-12.973 Y17.865 Z16.773 F2500.000
G1 X-33.928 Y17.865 Z16.773 F2500.000
(End of step 3.)
G0 Z19.770
G0 X-33.830 Y24.265
(Begin step 4.)
G0 X-33.830 Y24.265
(part 1)
G1 X-33.830 Y24.265 Z16.773 F2500.000
G1 X-12.935 Y24.265 Z16.773 F2500.000
G1 X-11.940 Y24.265 Z16.797 F2500.000
G1 X-10.945 Y24.265 Z16.992 F2500.000
G1 X-9.950 Y24.265 Z17.158 F2500.000
G1 X-8.955 Y24.265 Z17.297 F2500.000
G1 X-7.960 Y24.265 Z17.409 F2500.000
G1 X-6.965 Y24.265 Z17.494 F2500.000
G1 X-5.970 Y24.265 Z17.555 F2500.000
G1 X-4.975 Y24.265 Z17.592 F2500.000
G1 X-3.980 Y24.265 Z17.611 F2500.000
G1 X-2.985 Y24.265 Z17.621 F2500.000
G1 X0.000 Y24.265 Z17.631 F2500.000
G1 X1.990 Y24.265 Z17.627 F2500.000
G1 X2.985 Y24.265 Z17.621 F2500.000
G1 X3.980 Y24.265 Z17.611 F2500.000
G1 X4.975 Y24.265 Z17.592 F2500.000
G1 X5.970 Y24.265 Z17.555 F2500.000
G1 X6.965 Y24.265 Z17.494 F2500.000
G1 X7.960 Y24.265 Z17.409 F2500.000
G1 X8.955 Y24.265 Z17.296 F2500.000
G1 X9.950 Y24.265 Z17.158 F2500.000
G1 X10.945 Y24.265 Z16.993 F2500.000
G1 X11.940 Y24.265 Z16.798 F2500.000
G1 X12.935 Y24.265 Z16.773 F2500.000
G1 X33.830 Y24.265 Z16.773 F2500.000
(End of step 4.)
G0 Z19.770
G0 X33.731 Y30.665
(Begin step 5.)
G0 X33.731 Y30.665
(part 1)
G1 X33.731 Y30.665 Z16.773 F2500.000
G1 X11.905 Y30.665 Z16.773 F2500.000
G1 X9.921 Y30.665 Z17.104 F2500.000
G1 X8.929 Y30.665 Z17.242 F2500.000
G1 X7.937 Y30.665 Z17.355 F2500.000
G1 X6.945 Y30.665 Z17.440 F2500.000
G1 X5.953 Y30.665 Z17.501 F2500.000
G1 X4.960 Y30.665 Z17.539 F2500.000
G1 X3.968 Y30.665 Z17.558 F2500.000
G1 X2.976 Y30.665 Z17.568 F2500.000
G1 X1.984 Y30.665 Z17.574 F2500.000
G1 X0.000 Y30.665 Z17.578 F2500.000
G1 X-1.984 Y30.665 Z17.574 F2500.000
G1 X-3.968 Y30.665 Z17.559 F2500.000
G1 X-4.960 Y30.665 Z17.539 F2500.000
G1 X-5.953 Y30.665 Z17.501 F2500.000
G1 X-6.945 Y30.665 Z17.441 F2500.000
G1 X-7.937 Y30.665 Z17.354 F2500.000
G1 X-8.929 Y30.665 Z17.243 F2500.000
G1 X-9.921 Y30.665 Z17.103 F2500.000
G1 X-11.905 Y30.665 Z16.773 F2500.000
G1 X-33.731 Y30.665 Z16.773 F2500.000
(End of step 5.)
G0 Z19.770
G0 X-33.633 Y37.065
(Begin step 6.)
G0 X-33.633 Y37.065
(part 1)
G1 X-33.633 Y37.065 Z16.773 F2500.000
G1 X-11.870 Y37.065 Z16.773 F2500.000
G1 X-10.881 Y37.065 Z16.881 F2500.000
G1 X-9.892 Y37.065 Z17.049 F2500.000
G1 X-8.903 Y37.065 Z17.188 F2500.000
G1 X-7.914 Y37.065 Z17.301 F2500.000
G1 X-6.924 Y37.065 Z17.387 F2500.000
G1 X-5.935 Y37.065 Z17.448 F2500.000
G1 X-4.946 Y37.065 Z17.486 F2500.000
G1 X-3.957 Y37.065 Z17.505 F2500.000
G1 X-2.968 Y37.065 Z17.515 F2500.000
G1 X0.000 Y37.065 Z17.525 F2500.000
G1 X2.968 Y37.065 Z17.515 F2500.000
G1 X3.957 Y37.065 Z17.505 F2500.000
G1 X4.946 Y37.065 Z17.486 F2500.000
G1 X5.935 Y37.065 Z17.447 F2500.000
G1 X6.924 Y37.065 Z17.386 F2500.000
G1 X7.914 Y37.065 Z17.301 F2500.000
G1 X8.903 Y37.065 Z17.188 F2500.000
G1 X9.892 Y37.065 Z17.049 F2500.000
G1 X10.881 Y37.065 Z16.881 F2500.000
G1 X11.870 Y37.065 Z16.773 F2500.000
G1 X33.633 Y37.065 Z16.773 F2500.000
(End of step 6.)
G0 Z19.770
G0 X33.534 Y43.465
(Begin step 7.)
G0 X33.534 Y43.465
(part 1)
G1 X33.534 Y43.465 Z16.773 F2500.000
G1 X11.836 Y43.465 Z16.773 F2500.000
G1 X10.849 Y43.465 Z16.826 F2500.000
G1 X9.863 Y43.465 Z16.994 F2500.000
G1 X8.877 Y43.465 Z17.134 F2500.000
G1 X7.890 Y43.465 Z17.247 F2500.000
G1 X6.904 Y43.465 Z17.334 F2500.000
G1 X5.918 Y43.465 Z17.394 F2500.000
G1 X4.932 Y43.465 Z17.432 F2500.000
G1 X3.945 Y43.465 Z17.451 F2500.000
G1 X2.959 Y43.465 Z17.462 F2500.000
G1 X0.000 Y43.465 Z17.472 F2500.000
G1 X-1.973 Y43.465 Z17.468 F2500.000
G1 X-3.945 Y43.465 Z17.452 F2500.000
G1 X-4.932 Y43.465 Z17.432 F2500.000
G1 X-5.918 Y43.465 Z17.395 F2500.000
G1 X-6.904 Y43.465 Z17.333 F2500.000
G1 X-7.890 Y43.465 Z17.247 F2500.000
G1 X-8.877 Y43.465 Z17.134 F2500.000
G1 X-9.863 Y43.465 Z16.994 F2500.000
G1 X-10.849 Y43.465 Z16.827 F2500.000
G1 X-11.836 Y43.465 Z16.773 F2500.000
G1 X-33.534 Y43.465 Z16.773 F2500.000
(End of step 7.)
G0 Z19.770
G0 X-33.436 Y49.865
(Begin step 8.)
G0 X-33.436 Y49.865
(part 1)
G1 X-33.436 Y49.865 Z16.773 F2500.000
G1 X-11.478 Y49.865 Z16.773 F2500.000
G1 X-10.480 Y49.865 Z16.833 F2500.000
G1 X-9.482 Y49.865 Z16.993 F2500.000
G1 X-8.484 Y49.865 Z17.126 F2500.000
G1 X-7.486 Y49.865 Z17.230 F2500.000
G1 X-6.488 Y49.865 Z17.308 F2500.000
G1 X-5.489 Y49.865 Z17.360 F2500.000
G1 X-4.491 Y49.865 Z17.390 F2500.000
G1 X-3.493 Y49.865 Z17.404 F2500.000
G1 X-2.495 Y49.865 Z17.411 F2500.000
G1 X0.499 Y49.865 Z17.418 F2500.000
G1 X2.495 Y49.865 Z17.412 F2500.000
G1 X3.493 Y49.865 Z17.404 F2500.000
G1 X4.491 Y49.865 Z17.390 F2500.000
G1 X5.489 Y49.865 Z17.361 F2500.000
G1 X6.488 Y49.865 Z17.308 F2500.000
G1 X7.486 Y49.865 Z17.230 F2500.000
G1 X8.484 Y49.865 Z17.126 F2500.000
G1 X9.482 Y49.865 Z16.993 F2500.000
G1 X10.480 Y49.865 Z16.832 F2500.000
G1 X11.478 Y49.865 Z16.773 F2500.000
G1 X33.436 Y49.865 Z16.773 F2500.000
(End of step 8.)
G0 Z19.770
G0 X33.337 Y56.265
(Begin step 9.)
G0 X33.337 Y56.265
(part 1)
G1 X33.337 Y56.265 Z16.773 F2500.000
G1 X11.444 Y56.265 Z16.773 F2500.000
G1 X10.449 Y56.265 Z16.777 F2500.000
G1 X9.454 Y56.265 Z16.938 F2500.000
G1 X8.459 Y56.265 Z17.071 F2500.000
G1 X7.464 Y56.265 Z17.176 F2500.000
G1 X6.468 Y56.265 Z17.255 F2500.000
G1 X5.473 Y56.265 Z17.308 F2500.000
G1 X4.478 Y56.265 Z17.337 F2500.000
G1 X3.483 Y56.265 Z17.351 F2500.000
G1 X2.488 Y56.265 Z17.359 F2500.000
G1 X-0.498 Y56.265 Z17.365 F2500.000
G1 X-2.488 Y56.265 Z17.358 F2500.000
G1 X-3.483 Y56.265 Z17.351 F2500.000
G1 X-4.478 Y56.265 Z17.336 F2500.000
G1 X-5.473 Y56.265 Z17.307 F2500.000
G1 X-6.468 Y56.265 Z17.255 F2500.000
G1 X-7.464 Y56.265 Z17.176 F2500.000
G1 X-8.459 Y56.265 Z17.071 F2500.000
G1 X-9.454 Y56.265 Z16.939 F2500.000
G1 X-10.449 Y56.265 Z16.778 F2500.000
G1 X-11.444 Y56.265 Z16.773 F2500.000
G1 X-33.337 Y56.265 Z16.773 F2500.000
(End of step 9.)
G0 Z19.770
G0 X-33.239 Y62.665
(Begin step 10.)
G0 X-33.239 Y62.665
(part 1)
G1 X-33.239 Y62.665 Z16.773 F2500.000
G1 X-10.418 Y62.665 Z16.773 F2500.000
G1 X-9.426 Y62.665 Z16.884 F2500.000
G1 X-8.434 Y62.665 Z17.017 F2500.000
G1 X-7.442 Y62.665 Z17.122 F2500.000
G1 X-6.449 Y62.665 Z17.201 F2500.000
G1 X-5.457 Y62.665 Z17.254 F2500.000
G1 X-4.465 Y62.665 Z17.284 F2500.000
G1 X-2.481 Y62.665 Z17.305 F2500.000
G1 X-0.496 Y62.665 Z17.312 F2500.000
G1 X1.488 Y62.665 Z17.310 F2500.000
G1 X3.473 Y62.665 Z17.298 F2500.000
G1 X4.465 Y62.665 Z17.283 F2500.000
G1 X5.457 Y62.665 Z17.255 F2500.000
G1 X6.449 Y62.665 Z17.201 F2500.000
G1 X7.442 Y62.665 Z17.123 F2500.000
G1 X8.434 Y62.665 Z17.018 F2500.000
G1 X9.426 Y62.665 Z16.885 F2500.000
G1 X10.418 Y62.665 Z16.773 F2500.000
G1 X33.239 Y62.665 Z16.773 F2500.000
(End of step 10.)
G0 Z19.770
G0 X33.141 Y69.065
(Begin step 11.)
G0 X33.141 Y69.065
(part 1)
G1 X33.141 Y69.065 Z16.773 F2500.000
G1 X10.387 Y69.065 Z16.773 F2500.000
G1 X9.398 Y69.065 Z16.830 F2500.000
G1 X8.409 Y69.065 Z16.963 F2500.000
G1 X7.420 Y69.065 Z17.070 F2500.000
G1 X6.430 Y69.065 Z17.149 F2500.000
G1 X5.441 Y69.065 Z17.201 F2500.000
G1 X4.452 Y69.065 Z17.230 F2500.000
G1 X3.462 Y69.065 Z17.245 F2500.000
G1 X2.473 Y69.065 Z17.253 F2500.000
G1 X0.495 Y69.065 Z17.259 F2500.000
G1 X-1.484 Y69.065 Z17.257 F2500.000
G1 X-3.462 Y69.065 Z17.244 F2500.000
G1 X-4.452 Y69.065 Z17.231 F2500.000
G1 X-5.441 Y69.065 Z17.201 F2500.000
G1 X-6.430 Y69.065 Z17.149 F2500.000
G1 X-7.420 Y69.065 Z17.070 F2500.000
G1 X-8.409 Y69.065 Z16.964 F2500.000
G1 X-9.398 Y69.065 Z16.830 F2500.000
G1 X-10.387 Y69.065 Z16.773 F2500.000
G1 X-33.141 Y69.065 Z16.773 F2500.000
(End of step 11.)
G0 Z19.770
G0 X-33.042 Y75.465
(Begin step 12.)
G0 X-33.042 Y75.465
(part 1)
G1 X-33.042 Y75.465 Z16.773 F2500.000
G1 X-10.356 Y75.465 Z16.773 F2500.000
G1 X-9.370 Y75.465 Z16.775 F2500.000
G1 X-8.384 Y75.465 Z16.909 F2500.000
G1 X-7.397 Y75.465 Z17.017 F2500.000
G1 X-6.411 Y75.465 Z17.096 F2500.000
G1 X-5.425 Y75.465 Z17.148 F2500.000
G1 X-4.438 Y75.465 Z17.177 F2500.000
G1 X-3.452 Y75.465 Z17.191 F2500.000
G1 X-2.466 Y75.465 Z17.199 F2500.000
G1 X-0.493 Y75.465 Z17.206 F2500.000
G1 X1.479 Y75.465 Z17.203 F2500.000
G1 X3.452 Y75.465 Z17.192 F2500.000
G1 X4.438 Y75.465 Z17.177 F2500.000
G1 X5.425 Y75.465 Z17.148 F2500.000
G1 X6.411 Y75.465 Z17.096 F2500.000
G1 X7.397 Y75.465 Z17.017 F2500.000
G1 X8.384 Y75.465 Z16.909 F2500.000
G1 X9.370 Y75.465 Z16.774 F2500.000
G1 X33.042 Y75.465 Z16.773 F2500.000
(End of step 12.)
G0 Z19.770
G0 X32.944 Y81.865
(Begin step 13.)
G0 X32.944 Y81.865
(part 1)
G1 X32.944 Y81.865 Z16.773 F2500.000
G1 X8.985 Y81.865 Z16.773 F2500.000
G1 X7.986 Y81.865 Z16.900 F2500.000
G1 X6.988 Y81.865 Z16.997 F2500.000
G1 X5.990 Y81.865 Z17.067 F2500.000
G1 X4.991 Y81.865 Z17.110 F2500.000
G1 X3.993 Y81.865 Z17.132 F2500.000
G1 X2.995 Y81.865 Z17.142 F2500.000
G1 X0.000 Y81.865 Z17.153 F2500.000
G1 X-1.997 Y81.865 Z17.148 F2500.000
G1 X-2.995 Y81.865 Z17.142 F2500.000
G1 X-3.993 Y81.865 Z17.132 F2500.000
G1 X-4.991 Y81.865 Z17.110 F2500.000
G1 X-5.990 Y81.865 Z17.067 F2500.000
G1 X-6.988 Y81.865 Z16.996 F2500.000
G1 X-7.986 Y81.865 Z16.900 F2500.000
G1 X-8.985 Y81.865 Z16.773 F2500.000
G1 X-32.944 Y81.865 Z16.773 F2500.000
(End of step 13.)
G0 Z19.770
G0 X-32.845 Y88.265
(Begin step 14.)
G0 X-32.845 Y88.265
(part 1)
G1 X-32.845 Y88.265 Z16.773 F2500.000
G1 X-8.958 Y88.265 Z16.773 F2500.000
G1 X-7.962 Y88.265 Z16.846 F2500.000
G1 X-6.967 Y88.265 Z16.944 F2500.000
G1 X-5.972 Y88.265 Z17.014 F2500.000
G1 X-4.977 Y88.265 Z17.057 F2500.000
G1 X-3.981 Y88.265 Z17.079 F2500.000
G1 X-2.986 Y88.265 Z17.089 F2500.000
G1 X-1.991 Y88.265 Z17.095 F2500.000
G1 X0.000 Y88.265 Z17.099 F2500.000
G1 X2.986 Y88.265 Z17.089 F2500.000
G1 X3.981 Y88.265 Z17.079 F2500.000
G1 X4.977 Y88.265 Z17.057 F2500.000
G1 X5.972 Y88.265 Z17.014 F2500.000
G1 X6.967 Y88.265 Z16.944 F2500.000
G1 X7.962 Y88.265 Z16.846 F2500.000
G1 X8.958 Y88.265 Z16.773 F2500.000
G1 X32.845 Y88.265 Z16.773 F2500.000
(End of step 14.)
G0 Z19.770
G0 X32.747 Y94.665
(Begin step 15.)
G0 X32.747 Y94.665
(part 1)
G1 X32.747 Y94.665 Z16.773 F2500.000
G1 X8.931 Y94.665 Z16.773 F2500.000
G1 X7.939 Y94.665 Z16.793 F2500.000
G1 X6.946 Y94.665 Z16.891 F2500.000
G1 X5.954 Y94.665 Z16.961 F2500.000
G1 X4.962 Y94.665 Z17.004 F2500.000
G1 X3.969 Y94.665 Z17.026 F2500.000
G1 X2.977 Y94.665 Z17.036 F2500.000
G1 X0.000 Y94.665 Z17.046 F2500.000
G1 X-1.985 Y94.665 Z17.042 F2500.000
G1 X-2.977 Y94.665 Z17.036 F2500.000
G1 X-3.969 Y94.665 Z17.026 F2500.000
G1 X-4.962 Y94.665 Z17.004 F2500.000
G1 X-5.954 Y94.665 Z16.961 F2500.000
G1 X-6.946 Y94.665 Z16.891 F2500.000
G1 X-7.939 Y94.665 Z16.793 F2500.000
G1 X-8.931 Y94.665 Z16.773 F2500.000
G1 X-32.747 Y94.665 Z16.773 F2500.000
(End of step 15.)
G0 Z19.770
G0 X-32.648 Y101.065
(Begin step 16.)
G0 X-32.648 Y101.065
(part 1)
G1 X-32.648 Y101.065 Z16.773 F2500.000
G1 X-7.915 Y101.065 Z16.773 F2500.000
G1 X-5.936 Y101.065 Z16.908 F2500.000
G1 X-4.947 Y101.065 Z16.950 F2500.000
G1 X-3.957 Y101.065 Z16.973 F2500.000
G1 X-2.968 Y101.065 Z16.983 F2500.000
G1 X-1.979 Y101.065 Z16.989 F2500.000
G1 X0.000 Y101.065 Z16.993 F2500.000
G1 X1.979 Y101.065 Z16.988 F2500.000
G1 X2.968 Y101.065 Z16.982 F2500.000
G1 X3.957 Y101.065 Z16.973 F2500.000
G1 X4.947 Y101.065 Z16.951 F2500.000
G1 X5.936 Y101.065 Z16.908 F2500.000
G1 X7.915 Y101.065 Z16.773 F2500.000
G1 X32.648 Y101.065 Z16.773 F2500.000
(End of step 16.)
G0 Z19.770
G0 X32.550 Y107.465
(Begin step 17.)
G0 X32.550 Y107.465
(part 1)
G1 X32.550 Y107.465 Z16.773 F2500.000
G1 X7.891 Y107.465 Z16.773 F2500.000
G1 X6.905 Y107.465 Z16.785 F2500.000
G1 X5.918 Y107.465 Z16.855 F2500.000
G1 X4.932 Y107.465 Z16.898 F2500.000
G1 X3.945 Y107.465 Z16.919 F2500.000
G1 X2.959 Y107.465 Z16.930 F2500.000
G1 X1.973 Y107.465 Z16.935 F2500.000
G1 X0.000 Y107.465 Z16.939 F2500.000
G1 X-1.973 Y107.465 Z16.935 F2500.000
G1 X-2.959 Y107.465 Z16.930 F2500.000
G1 X-3.945 Y107.465 Z16.919 F2500.000
G1 X-4.932 Y107.465 Z16.898 F2500.000
G1 X-5.918 Y107.465 Z16.855 F2500.000
G1 X-6.905 Y107.465 Z16.785 F2500.000
G1 X-7.891 Y107.465 Z16.773 F2500.000
G1 X-32.550 Y107.465 Z16.773 F2500.000
(End of step 17.)
G0 Z19.770
G0 X-32.451 Y113.865
(Begin step 18.)
G0 X-32.451 Y113.865
(part 1)
G1 X-32.451 Y113.865 Z16.773 F2500.000
G1 X-6.490 Y113.865 Z16.773 F2500.000
G1 X-5.492 Y113.865 Z16.823 F2500.000
G1 X-4.493 Y113.865 Z16.856 F2500.000
G1 X-3.495 Y113.865 Z16.871 F2500.000
G1 X-2.496 Y113.865 Z16.880 F2500.000
G1 X-0.499 Y113.865 Z16.886 F2500.000
G1 X2.496 Y113.865 Z16.879 F2500.000
G1 X3.495 Y113.865 Z16.872 F2500.000
G1 X4.493 Y113.865 Z16.856 F2500.000
G1 X5.492 Y113.865 Z16.822 F2500.000
G1 X6.490 Y113.865 Z16.773 F2500.000
G1 X32.451 Y113.865 Z16.773 F2500.000
(End of step 18.)
G0 Z19.770
G0 X32.353 Y120.265
(Begin step 19.)
G0 X32.353 Y120.265
(part 1)
G1 X32.353 Y120.265 Z16.773 F2500.000
G1 X5.475 Y120.265 Z16.773 F2500.000
G1 X4.480 Y120.265 Z16.803 F2500.000
G1 X3.484 Y120.265 Z16.818 F2500.000
G1 X1.493 Y120.265 Z16.831 F2500.000
G1 X-0.498 Y120.265 Z16.833 F2500.000
G1 X-2.489 Y120.265 Z16.826 F2500.000
G1 X-3.484 Y120.265 Z16.818 F2500.000
G1 X-4.480 Y120.265 Z16.803 F2500.000
G1 X-5.475 Y120.265 Z16.773 F2500.000
G1 X-32.353 Y120.265 Z16.773 F2500.000
(End of step 19.)
G0 Z19.770
G0 X-32.255 Y126.665
(Begin step 20.)
G0 X-32.255 Y126.665
(part 1)
G1 X-32.255 Y126.665 Z16.773 F2500.000
G1 X-3.474 Y126.665 Z16.773 F2500.000
G1 X-0.496 Y126.665 Z16.780 F2500.000
G1 X2.481 Y126.665 Z16.773 F2500.000
G1 X32.255 Y126.665 Z16.773 F2500.000
(End of step 20.)
G0 Z19.770
G0 X32.156 Y133.065
(Begin step 21.)
G0 X32.156 Y133.065
(part 1)
G1 X32.156 Y133.065 Z16.773 F2500.000
G1 X-32.156 Y133.065 Z16.773 F2500.000
(End of step 21.)
G0 Z19.770
G0 X-32.058 Y139.465
(Begin step 22.)
G0 X-32.058 Y139.465
(part 1)
G1 X-32.058 Y139.465 Z16.773 F2500.000
G1 X32.058 Y139.465 Z16.773 F2500.000
(End of step 22.)
G0 Z19.770
G0 X31.959 Y145.865
(Begin step 23.)
G0 X31.959 Y145.865
(part 1)
G1 X31.959 Y145.865 Z16.773 F2500.000
G1 X-31.959 Y145.865 Z16.773 F2500.000
(End of step 23.)
G0 Z19.770
G0 X-31.861 Y152.265
(Begin step 24.)
G0 X-31.861 Y152.265
(part 1)
G1 X-31.861 Y152.265 Z16.773 F2500.000
G1 X31.861 Y152.265 Z16.773 F2500.000
(End of step 24.)
G0 Z19.770
G0 X31.762 Y158.665
(Begin step 25.)
G0 X31.762 Y158.665
(part 1)
G1 X31.762 Y158.665 Z16.773 F2500.000
G1 X-31.762 Y158.665 Z16.773 F2500.000
(End of step 25.)
G0 Z19.770
G0 X-31.664 Y165.065
(Begin step 26.)
G0 X-31.664 Y165.065
(part 1)
G1 X-31.664 Y165.065 Z16.773 F2500.000
G1 X31.664 Y165.065 Z16.773 F2500.000
(End of step 26.)
G0 Z19.770
G0 X31.565 Y171.465
(Begin step 27.)
G0 X31.565 Y171.465
(part 1)
G1 X31.565 Y171.465 Z16.773 F2500.000
G1 X-31.565 Y171.465 Z16.773 F2500.000
(End of step 27.)
G0 Z19.770
G0 X-31.467 Y177.865
(Begin step 28.)
G0 X-31.467 Y177.865
(part 1)
G1 X-31.467 Y177.865 Z16.773 F2500.000
G1 X31.467 Y177.865 Z16.773 F2500.000
(End of step 28.)
G0 Z19.770
G0 X31.368 Y184.265
(Begin step 29.)
G0 X31.368 Y184.265
(part 1)
G1 X31.368 Y184.265 Z16.773 F2500.000
G1 X-31.368 Y184.265 Z16.773 F2500.000
(End of step 29.)
G0 Z19.770
G0 X-31.270 Y190.665
(Begin step 30.)
G0 X-31.270 Y190.665
(part 1)
G1 X-31.270 Y190.665 Z16.773 F2500.000
G1 X31.270 Y190.665 Z16.773 F2500.000
(End of step 30.)
G0 Z19.770
G0 X31.172 Y197.065
(Begin step 31.)
G0 X31.172 Y197.065
(part 1)
G1 X31.172 Y197.065 Z16.773 F2500.000
G1 X-31.172 Y197.065 Z16.773 F2500.000
(End of step 31.)
G0 Z19.770
G0 X-31.073 Y203.465
(Begin step 32.)
G0 X-31.073 Y203.465
(part 1)
G1 X-31.073 Y203.465 Z16.773 F2500.000
G1 X31.073 Y203.465 Z16.773 F2500.000
(End of step 32.)
G0 Z19.770
G0 X30.975 Y209.865
(Begin step 33.)
G0 X30.975 Y209.865
(part 1)
G1 X30.975 Y209.865 Z16.773 F2500.000
G1 X-30.975 Y209.865 Z16.773 F2500.000
(End of step 33.)
G0 Z19.770
G0 X-30.876 Y216.265
(Begin step 34.)
G0 X-30.876 Y216.265
(part 1)
G1 X-30.876 Y216.265 Z16.773 F2500.000
G1 X30.876 Y216.265 Z16.773 F2500.000
(End of step 34.)
G0 Z19.770
G0 X30.778 Y222.665
(Begin step 35.)
G0 X30.778 Y222.665
(part 1)
G1 X30.778 Y222.665 Z16.773 F2500.000
G1 X-30.778 Y222.665 Z16.773 F2500.000
(End of step 35.)
G0 Z19.770
G0 X-30.679 Y229.065
(Begin step 36.)
G0 X-30.679 Y229.065
(part 1)
G1 X-30.679 Y229.065 Z16.773 F2500.000
G1 X30.679 Y229.065 Z16.773 F2500.000
(End of step 36.)
G0 Z19.770
G0 X30.581 Y235.465
(Begin step 37.)
G0 X30.581 Y235.465
(part 1)
G1 X30.581 Y235.465 Z16.773 F2500.000
G1 X-30.581 Y235.465 Z16.773 F2500.000
(End of step 37.)
G0 Z19.770
G0 X-30.273 Y241.865
(Begin step 38.)
G0 X-30.273 Y241.865
(part 1)
G1 X-30.273 Y241.865 Z16.773 F2500.000
G1 X30.273 Y241.865 Z16.773 F2500.000
(End of step 38.)
(End of layer 0)
(Layer 1 begins)
(Layer transition)
G0 Z19.770
G0 X-33.973 Y-1.335
(Begin step 0.)
G0 X-33.973 Y-1.335
(part 1)
G1 X-33.973 Y-1.335 Z12.773 F2500.000
G1 X-22.982 Y-1.335 Z12.773 F2500.000
G1 X-21.983 Y-1.335 Z13.071 F2500.000
G1 X-20.983 Y-1.335 Z13.649 F2500.000
G1 X-19.984 Y-1.335 Z14.180 F2500.000
G1 X-18.985 Y-1.335 Z14.665 F2500.000
G1 X-17.986 Y-1.335 Z15.108 F2500.000
G1 X-16.987 Y-1.335 Z15.510 F2500.000
G1 X-15.987 Y-1.335 Z15.873 F2500.000
G1 X-14.988 Y-1.335 Z16.201 F2500.000
G1 X-13.989 Y-1.335 Z16.493 F2500.000
G1 X-12.990 Y-1.335 Z16.752 F2500.000
G1 X-11.991 Y-1.335 Z16.979 F2500.000
G1 X-10.991 Y-1.335 Z17.175 F2500.000
G1 X-9.992 Y-1.335 Z17.343 F2500.000
G1 X-8.993 Y-1.335 Z17.482 F2500.000
G1 X-7.994 Y-1.335 Z17.595 F2500.000
G1 X-6.994 Y-1.335 Z17.682 F2500.000
G1 X-5.995 Y-1.335 Z17.745 F2500.000
G1 X-4.996 Y-1.335 Z17.783 F2500.000
G1 X-3.997 Y-1.335 Z17.799 F2500.000
G1 X-2.998 Y-1.335 Z17.800 F2500.000
G1 X3.997 Y-1.335 Z17.799 F2500.000
G1 X4.996 Y-1.335 Z17.783 F2500.000
G1 X5.995 Y-1.335 Z17.744 F2500.000
G1 X6.994 Y-1.335 Z17.682 F2500.000
G1 X7.994 Y-1.335 Z17.595 F2500.000
G1 X8.993 Y-1.335 Z17.482 F2500.000
G1 X9.992 Y-1.335 Z17.343 F2500.000
G1 X10.991 Y-1.335 Z17.175 F2500.000
G1 X11.991 Y-1.335 Z16.979 F2500.000
G1 X12.990 Y-1.335 Z16.752 F2500.000
G1 X13.989 Y-1.335 Z16.493 F2500.000
G1 X14.988 Y-1.335 Z16.201 F2500.000
G1 X15.987 Y-1.335 Z15.874 F2500.000
G1 X16.987 Y-1.335 Z15.510 F2500.000
G1 X17.986 Y-1.335 Z15.108 F2500.000
G1 X18.985 Y-1.335 Z14.665 F2500.000
G1 X19.984 Y-1.335 Z14.179 F2500.000
G1 X20.983 Y-1.335 Z13.649 F2500.000
G1 X21.983 Y-1.335 Z13.071 F2500.000
G1 X22.982 Y-1.335 Z12.773 F2500.000
G1 X33.973 Y-1.335 Z12.773 F2500.000
(End of step 0.)
G0 Z19.770
G0 X34.125 Y5.065
(Begin step 1.)
G0 X34.125 Y5.065
(part 1)
G1 X34.125 Y5.065 Z12.773 F2500.000
G1 X23.245 Y5.065 Z12.773 F2500.000
G1 X22.255 Y5.065 Z12.977 F2500.000
G1 X21.266 Y5.065 Z13.554 F2500.000
G1 X20.277 Y5.065 Z14.083 F2500.000
G1 X19.288 Y5.065 Z14.568 F2500.000
G1 X18.299 Y5.065 Z15.011 F2500.000
G1 X17.310 Y5.065 Z15.415 F2500.000
G1 X16.321 Y5.065 Z15.780 F2500.000
G1 X15.332 Y5.065 Z16.109 F2500.000
G1 X14.342 Y5.065 Z16.405 F2500.000
G1 X13.353 Y5.065 Z16.667 F2500.000
G1 X12.364 Y5.065 Z16.898 F2500.000
G1 X11.375 Y5.065 Z17.098 F2500.000
G1 X10.386 Y5.065 Z17.270 F2500.000
G1 X9.397 Y5.065 Z17.415 F2500.000
G1 X8.408 Y5.065 Z17.531 F2500.000
G1 X7.418 Y5.065 Z17.625 F2500.000
G1 X6.429 Y5.065 Z17.692 F2500.000
G1 X5.440 Y5.065 Z17.738 F2500.000
G1 X4.451 Y5.065 Z17.764 F2500.000
G1 X3.462 Y5.065 Z17.777 F2500.000
G1 X2.473 Y5.065 Z17.785 F2500.000
G1 X-0.495 Y5.065 Z17.791 F2500.000
G1 X-2.473 Y5.065 Z17.785 F2500.000
G1 X-4.451 Y5.065 Z17.764 F2500.000
G1 X-5.440 Y5.065 Z17.739 F2500.000
G1 X-6.429 Y5.065 Z17.692 F2500.000
G1 X-7.418 Y5.065 Z17.624 F2500.000
G1 X-8.408 Y5.065 Z17.532 F2500.000
G1 X-9.397 Y5.065 Z17.414 F2500.000
G1 X-10.386 Y5.065 Z17.270 F2500.000
G1 X-11.375 Y5.065 Z17.099 F2500.000
G1 X-12.364 Y5.065 Z16.898 F2500.000
G1 X-13.353 Y5.065 Z16.667 F2500.000
G1 X-14.342 Y5.065 Z16.405 F2500.000
G1 X-15.332 Y5.065 Z16.110 F2500.000
G1 X-16.321 Y5.065 Z15.780 F2500.000
G1 X-17.310 Y5.065 Z15.414 F2500.000
G1 X-18.299 Y5.065 Z15.011 F2500.000
G1 X-19.288 Y5.065 Z14.568 F2500.000
G1 X-20.277 Y5.065 Z14.083 F2500.000
G1 X-21.266 Y5.065 Z13.554 F2500.000
G1 X-22.255 Y5.065 Z12.977 F2500.000
G1 X-23.245 Y5.065 Z12.773 F2500.000
G1 X-34.125 Y5.065 Z12.773 F2500.000
(End of step 1.)
G0 Z19.770
G0 X-34.027 Y11.465
(Begin step 2.)
G0 X-34.027 Y11.465
(part 1)
G1 X-34.027 Y11.465 Z12.773 F2500.000
G1 X-23.178 Y11.465 Z12.773 F2500.000
G1 X-22.191 Y11.465 Z12.931 F2500.000
G1 X-21.205 Y11.465 Z13.504 F2500.000
G1 X-20.219 Y11.465 Z14.032 F2500.000
G1 X-19.232 Y11.465 Z14.515 F2500.000
G1 X-18.246 Y11.465 Z14.956 F2500.000
G1 X-17.260 Y11.465 Z15.359 F2500.000
G1 X-16.274 Y11.465 Z15.723 F2500.000
G1 X-15.287 Y11.465 Z16.053 F2500.000
G1 X-14.301 Y11.465 Z16.348 F2500.000
G1 X-13.315 Y11.465 Z16.610 F2500.000
G1 X-12.328 Y11.465 Z16.841 F2500.000
G1 X-11.342 Y11.465 Z17.042 F2500.000
G1 X-10.356 Y11.465 Z17.215 F2500.000
G1 X-9.370 Y11.465 Z17.360 F2500.000
G1 X-8.383 Y11.465 Z17.478 F2500.000
G1 X-7.397 Y11.465 Z17.571 F2500.000
G1 X-6.411 Y11.465 Z17.640 F2500.000
G1 X-5.425 Y11.465 Z17.685 F2500.000
G1 X-4.438 Y11.465 Z17.711 F2500.000
G1 X-2.466 Y11.465 Z17.731 F2500.000
G1 X-0.493 Y11.465 Z17.738 F2500.000
G1 X2.466 Y11.465 Z17.731 F2500.000
G1 X4.438 Y11.465 Z17.711 F2500.000
G1 X5.425 Y11.465 Z17.685 F2500.000
G1 X6.411 Y11.465 Z17.639 F2500.000
G1 X7.397 Y11.465 Z17.571 F2500.000
G1 X8.383 Y11.465 Z17.478 F2500.000
G1 X9.370 Y11.465 Z17.360 F2500.000
G1 X10.356 Y11.465 Z17.215 F2500.000
G1 X11.342 Y11.465 Z17.042 F2500.000
G1 X12.328 Y11.465 Z16.841 F2500.000
G1 X13.315 Y11.465 Z16.610 F2500.000
G1 X14.301 Y11.465 Z16.348 F2500.000
G1 X15.287 Y11.465 Z16.053 F2500.000
G1 X16.274 Y11.465 Z15.724 F2500.000
G1 X17.260 Y11.465 Z15.359 F2500.000
G1 X18.246 Y11.465 Z14.956 F2500.000
G1 X19.232 Y11.465 Z14.515 F2500.000
G1 X20.219 Y11.465 Z14.031 F2500.000
G1 X21.205 Y11.465 Z13.504 F2500.000
G1 X22.191 Y11.465 Z12.931 F2500.000
G1 X23.178 Y11.465 Z12.773 F2500.000
G1 X34.027 Y11.465 Z12.773 F2500.000
(End of step 2.)
G0 Z19.770
G0 X33.928 Y17.865
(Begin step 3.)
G0 X33.928 Y17.865
(part 1)
G1 X33.928 Y17.865 Z12.773 F2500.000
G1 X22.951 Y17.865 Z12.773 F2500.000
G1 X21.954 Y17.865 Z12.987 F2500.000
G1 X20.956 Y17.865 Z13.558 F2500.000
G1 X19.958 Y17.865 Z14.083 F2500.000
G1 X18.960 Y17.865 Z14.562 F2500.000
G1 X17.962 Y17.865 Z15.000 F2500.000
G1 X16.964 Y17.865 Z15.398 F2500.000
G1 X15.966 Y17.865 Z15.758 F2500.000
G1 X14.968 Y17.865 Z16.082 F2500.000
G1 X13.970 Y17.865 Z16.371 F2500.000
G1 X12.973 Y17.865 Z16.628 F2500.000
G1 X11.975 Y17.865 Z16.854 F2500.000
G1 X10.977 Y17.865 Z17.048 F2500.000
G1 X9.979 Y17.865 Z17.214 F2500.000
G1 X8.981 Y17.865 Z17.351 F2500.000
G1 X7.983 Y17.865 Z17.462 F2500.000
G1 X6.985 Y17.865 Z17.547 F2500.000
G1 X5.987 Y17.865 Z17.608 F2500.000
G1 X4.989 Y17.865 Z17.645 F2500.000
G1 X3.992 Y17.865 Z17.665 F2500.000
G1 X1.996 Y17.865 Z17.680 F2500.000
G1 X0.000 Y17.865 Z17.685 F2500.000
G1 X-2.994 Y17.865 Z17.675 F2500.000
G1 X-3.992 Y17.865 Z17.665 F2500.000
G1 X-4.989 Y17.865 Z17.645 F2500.000
G1 X-5.987 Y17.865 Z17.608 F2500.000
G1 X-6.985 Y17.865 Z17.548 F2500.000
G1 X-7.983 Y17.865 Z17.462 F2500.000
G1 X-8.981 Y17.865 Z17.351 F2500.000
G1 X-9.979 Y17.865 Z17.214 F2500.000
G1 X-10.977 Y17.865 Z17.048 F2500.000
G1 X-11.975 Y17.865 Z16.854 F2500.000
G1 X-12.973 Y17.865 Z16.628 F2500.000
G1 X-13.970 Y17.865 Z16.371 F2500.000
G1 X-14.968 Y17.865 Z16.082 F2500.000
G1 X-15.966 Y17.865 Z15.758 F2500.000
G1 X-16.964 Y17.865 Z15.398 F2500.000
G1 X-17.962 Y17.865 Z15.000 F2500.000
G1 X-18.960 Y17.865 Z14.562 F2500.000
G1 X-19.958 Y17.865 Z14.083 F2500.000
G1 X-20.956 Y17.865 Z13.558 F2500.000
G1 X-21.954 Y17.865 Z12.987 F2500.000
G1 X-22.951 Y17.865 Z12.773 F2500.000
G1 X-33.928 Y17.865 Z12.773 F2500.000
(End of step 3.)
G0 Z19.770
G0 X-33.830 Y24.265
(Begin step 4.)
G0 X-33.830 Y24.265
(part 1)
G1 X-33.830 Y24.265 Z12.773 F2500.000
G1 X-22.885 Y24.265 Z12.773 F2500.000
G1 X-21.890 Y24.265 Z12.940 F2500.000
G1 X-20.895 Y24.265 Z13.508 F2500.000
G1 X-19.900 Y24.265 Z14.029 F2500.000
G1 X-18.905 Y24.265 Z14.509 F2500.000
G1 X-17.910 Y24.265 Z14.945 F2500.000
G1 X-16.915 Y24.265 Z15.341 F2500.000
G1 X-15.920 Y24.265 Z15.701 F2500.000
G1 X-14.925 Y24.265 Z16.025 F2500.000
G1 X-13.930 Y24.265 Z16.314 F2500.000
G1 X-12.935 Y24.265 Z16.572 F2500.000
G1 X-11.940 Y24.265 Z16.797 F2500.000
G1 X-10.945 Y24.265 Z16.992 F2500.000
G1 X-9.950 Y24.265 Z17.158 F2500.000
G1 X-8.955 Y24.265 Z17.297 F2500.000
G1 X-7.960 Y24.265 Z17.409 F2500.000
G1 X-6.965 Y24.265 Z17.494 F2500.000
G1 X-5.970 Y24.265 Z17.555 F2500.000
G1 X-4.975 Y24.265 Z17.592 F2500.000
G1 X-3.980 Y24.265 Z17.611 F2500.000
G1 X-2.985 Y24.265 Z17.621 F2500.000
G1 X0.000 Y24.265 Z17.631 F2500.000
G1 X1.990 Y24.265 Z17.627 F2500.000
G1 X2.985 Y24.265 Z17.621 F2500.000
G1 X3.980 Y24.265 Z17.611 F2500.000
G1 X4.975 Y24.265 Z17.592 F2500.000
G1 X5.970 Y24.265 Z17.555 F2500.000
G1 X6.965 Y24.265 Z17.494 F2500.000
G1 X7.960 Y24.265 Z17.409 F2500.000
G1 X8.955 Y24.265 Z17.296 F2500.000
G1 X9.950 Y24.265 Z17.158 F2500.000
G1 X10.945 Y24.265 Z16.993 F2500.000
G1 X11.940 Y24.265 Z16.798 F2500.000
G1 X12.935 Y24.265 Z16.572 F2500.000
G1 X13.930 Y24.265 Z16.313 F2500.000
G1 X14.925 Y24.265 Z16.025 F2500.000
G1 X15.920 Y24.265 Z15.702 F2500.000
G1 X16.915 Y24.265 Z15.341 F2500.000
G1 X17.910 Y24.265 Z14.945 F2500.000
G1 X18.905 Y24.265 Z14.509 F2500.000
G1 X19.900 Y24.265 Z14.029 F2500.000
G1 X20.895 Y24.265 Z13.508 F2500.000
G1 X21.890 Y24.265 Z12.941 F2500.000
G1 X22.885 Y24.265 Z12.773 F2500.000
G1 X33.830 Y24.265 Z12.773 F2500.000
(End of step 4.)
G0 Z19.770
G0 X33.731 Y30.665
(Begin step 5.)
G0 X33.731 Y30.665
(part 1)
G1 X33.731 Y30.665 Z12.773 F2500.000
G1 X22.818 Y30.665 Z12.773 F2500.000
G1 X21.826 Y30.665 Z12.893 F2500.000
G1 X20.834 Y30.665 Z13.458 F2500.000
G1 X19.842 Y30.665 Z13.979 F2500.000
G1 X18.850 Y30.665 Z14.455 F2500.000
G1 X17.858 Y30.665 Z14.890 F2500.000
G1 X16.866 Y30.665 Z15.287 F2500.000
G1 X15.874 Y30.665 Z15.646 F2500.000
G1 X14.881 Y30.665 Z15.969 F2500.000
G1 X13.889 Y30.665 Z16.259 F2500.000
G1 X12.897 Y30.665 Z16.515 F2500.000
G1 X11.905 Y30.665 Z16.742 F2500.000
G1 X10.913 Y30.665 Z16.937 F2500.000
G1 X9.921 Y30.665 Z17.104 F2500.000
G1 X8.929 Y30.665 Z17.242 F2500.000
G1 X7.937 Y30.665 Z17.355 F2500.000
G1 X6.945 Y30.665 Z17.440 F2500.000
G1 X5.953 Y30.665 Z17.501 F2500.000
G1 X4.960 Y30.665 Z17.539 F2500.000
G1 X3.968 Y30.665 Z17.558 F2500.000
G1 X2.976 Y30.665 Z17.568 F2500.000
G1 X1.984 Y30.665 Z17.574 F2500.000
G1 X0.000 Y30.665 Z17.578 F2500.000
G1 X-1.984 Y30.665 Z17.574 F2500.000
G1 X-3.968 Y30.665 Z17.559 F2500.000
G1 X-4.960 Y30.665 Z17.539 F2500.000
G1 X-5.953 Y30.665 Z17.501 F2500.000
G1 X-6.945 Y30.665 Z17.441 F2500.000
G1 X-7.937 Y30.665 Z17.354 F2500.000
G1 X-8.929 Y30.665 Z17.243 F2500.000
G1 X-9.921 Y30.665 Z17.103 F2500.000
G1 X-10.913 Y30.665 Z16.937 F2500.000
G1 X-11.905 Y30.665 Z16.741 F2500.000
G1 X-12.897 Y30.665 Z16.515 F2500.000
G1 X-13.889 Y30.665 Z16.258 F2500.000
G1 X-14.881 Y30.665 Z15.969 F2500.000
G1 X-15.874 Y30.665 Z15.645 F2500.000
G1 X-16.866 Y30.665 Z15.287 F2500.000
G1 X-17.858 Y30.665 Z14.890 F2500.000
G1 X-18.850 Y30.665 Z14.455 F2500.000
G1 X-19.842 Y30.665 Z13.979 F2500.000
G1 X-20.834 Y30.665 Z13.458 F2500.000
G1 X-21.826 Y30.665 Z12.893 F2500.000
G1 X-22.818 Y30.665 Z12.773 F2500.000
G1 X-33.731 Y30.665 Z12.773 F2500.000
(End of step 5.)
G0 Z19.770
G0 X-33.633 Y37.065
(Begin step 6.)
G0 X-33.633 Y37.065
(part 1)
G1 X-33.633 Y37.065 Z12.773 F2500.000
G1 X-22.752 Y37.065 Z12.773 F2500.000
G1 X-21.762 Y37.065 Z12.846 F2500.000
G1 X-20.773 Y37.065 Z13.409 F2500.000
G1 X-19.784 Y37.065 Z13.927 F2500.000
G1 X-18.795 Y37.065 Z14.402 F2500.000
G1 X-17.806 Y37.065 Z14.835 F2500.000
G1 X-16.816 Y37.065 Z15.231 F2500.000
G1 X-15.827 Y37.065 Z15.589 F2500.000
G1 X-14.838 Y37.065 Z15.913 F2500.000
G1 X-13.849 Y37.065 Z16.201 F2500.000
G1 X-12.860 Y37.065 Z16.458 F2500.000
G1 X-11.870 Y37.065 Z16.685 F2500.000
G1 X-10.881 Y37.065 Z16.881 F2500.000
G1 X-9.892 Y37.065 Z17.049 F2500.000
G1 X-8.903 Y37.065 Z17.188 F2500.000
G1 X-7.914 Y37.065 Z17.301 F2500.000
G1 X-6.924 Y37.065 Z17.387 F2500.000
G1 X-5.935 Y37.065 Z17.448 F2500.000
G1 X-4.946 Y37.065 Z17.486 F2500.000
G1 X-3.957 Y37.065 Z17.505 F2500.000
G1 X-2.968 Y37.065 Z17.515 F2500.000
G1 X0.000 Y37.065 Z17.525 F2500.000
G1 X2.968 Y37.065 Z17.515 F2500.000
G1 X3.957 Y37.065 Z17.505 F2500.000
G1 X4.946 Y37.065 Z17.486 F2500.000
G1 X5.935 Y37.065 Z17.447 F2500.000
G1 X6.924 Y37.065 Z17.386 F2500.000
G1 X7.914 Y37.065 Z17.301 F2500.000
G1 X8.903 Y37.065 Z17.188 F2500.000
G1 X9.892 Y37.065 Z17.049 F2500.000
G1 X10.881 Y37.065 Z16.881 F2500.000
G1 X11.870 Y37.065 Z16.686 F2500.000
G1 X12.860 Y37.065 Z16.458 F2500.000
G1 X13.849 Y37.065 Z16.201 F2500.000
G1 X14.838 Y37.065 Z15.913 F2500.000
G1 X15.827 Y37.065 Z15.589 F2500.000
G1 X16.816 Y37.065 Z15.231 F2500.000
G1 X17.806 Y37.065 Z14.835 F2500.000
G1 X18.795 Y37.065 Z14.402 F2500.000
G1 X19.784 Y37.065 Z13.927 F2500.000
G1 X20.773 Y37.065 Z13.409 F2500.000
G1 X21.762 Y37.065 Z12.847 F2500.000
G1 X22.752 Y37.065 Z12.773 F2500.000
G1 X33.633 Y37.065 Z12.773 F2500.000
(End of step 6.)
G0 Z19.770
G0 X33.534 Y43.465
(Begin step 7.)
G0 X33.534 Y43.465
(part 1)
G1 X33.534 Y43.465 Z12.773 F2500.000
G1 X22.685 Y43.465 Z12.773 F2500.000
G1 X21.699 Y43.465 Z12.800 F2500.000
G1 X20.712 Y43.465 Z13.360 F2500.000
G1 X19.726 Y43.465 Z13.876 F2500.000
G1 X18.740 Y43.465 Z14.349 F2500.000
G1 X17.753 Y43.465 Z14.781 F2500.000
G1 X16.767 Y43.465 Z15.175 F2500.000
G1 X15.781 Y43.465 Z15.533 F2500.000
G1 X14.795 Y43.465 Z15.857 F2500.000
G1 X13.808 Y43.465 Z16.144 F2500.000
G1 X12.822 Y43.465 Z16.404 F2500.000
G1 X11.836 Y43.465 Z16.630 F2500.000
G1 X10.849 Y43.465 Z16.826 F2500.000
G1 X9.863 Y43.465 Z16.994 F2500.000
G1 X8.877 Y43.465 Z17.134 F2500.000
G1 X7.890 Y43.465 Z17.247 F2500.000
G1 X6.904 Y43.465 Z17.334 F2500.000
G1 X5.918 Y43.465 Z17.394 F2500.000
G1 X4.932 Y43.465 Z17.432 F2500.000
G1 X3.945 Y43.465 Z17.451 F2500.000
G1 X2.959 Y43.465 Z17.462 F2500.000
G1 X0.000 Y43.465 Z17.472 F2500.000
G1 X-1.973 Y43.465 Z17.468 F2500.000
G1 X-3.945 Y43.465 Z17.452 F2500.000
G1 X-4.932 Y43.465 Z17.432 F2500.000
G1 X-5.918 Y43.465 Z17.395 F2500.000
G1 X-6.904 Y43.465 Z17.333 F2500.000
G1 X-7.890 Y43.465 Z17.247 F2500.000
G1 X-8.877 Y43.465 Z17.134 F2500.000
G1 X-9.863 Y43.465 Z16.994 F2500.000
G1 X-10.849 Y43.465 Z16.827 F2500.000
G1 X-11.836 Y43.465 Z16.630 F2500.000
G1 X-12.822 Y43.465 Z16.403 F2500.000
G1 X-13.808 Y43.465 Z16.144 F2500.000
G1 X-14.795 Y43.465 Z15.857 F2500.000
G1 X-15.781 Y43.465 Z15.533 F2500.000
G1 X-16.767 Y43.465 Z15.175 F2500.000
G1 X-17.753 Y43.465 Z14.782 F2500.000
G1 X-18.740 Y43.465 Z14.349 F2500.000
G1 X-19.726 Y43.465 Z13.876 F2500.000
G1 X-20.712 Y43.465 Z13.360 F2500.000
G1 X-21.699 Y43.465 Z12.799 F2500.000
G1 X-22.685 Y43.465 Z12.773 F2500.000
G1 X-33.534 Y43.465 Z12.773 F2500.000
(End of step 7.)
G0 Z19.770
G0 X-33.436 Y49.865
(Begin step 8.)
G0 X-33.436 Y49.865
(part 1)
G1 X-33.436 Y49.865 Z12.773 F2500.000
G1 X-22.457 Y49.865 Z12.773 F2500.000
G1 X-21.459 Y49.865 Z12.855 F2500.000
G1 X-20.461 Y49.865 Z13.414 F2500.000
G1 X-19.463 Y49.865 Z13.926 F2500.000
G1 X-18.465 Y49.865 Z14.396 F2500.000
G1 X-17.467 Y49.865 Z14.825 F2500.000
G1 X-16.468 Y49.865 Z15.214 F2500.000
G1 X-15.470 Y49.865 Z15.568 F2500.000
G1 X-14.472 Y49.865 Z15.887 F2500.000
G1 X-13.474 Y49.865 Z16.171 F2500.000
G1 X-12.476 Y49.865 Z16.422 F2500.000
G1 X-11.478 Y49.865 Z16.643 F2500.000
G1 X-10.480 Y49.865 Z16.833 F2500.000
G1 X-9.482 Y49.865 Z16.993 F2500.000
G1 X-8.484 Y49.865 Z17.126 F2500.000
G1 X-7.486 Y49.865 Z17.230 F2500.000
G1 X-6.488 Y49.865 Z17.308 F2500.000
G1 X-5.489 Y49.865 Z17.360 F2500.000
G1 X-4.491 Y49.865 Z17.390 F2500.000
G1 X-3.493 Y49.865 Z17.404 F2500.000
G1 X-2.495 Y49.865 Z17.411 F2500.000
G1 X0.499 Y49.865 Z17.418 F2500.000
G1 X2.495 Y49.865 Z17.412 F2500.000
G1 X3.493 Y49.865 Z17.404 F2500.000
G1 X4.491 Y49.865 Z17.390 F2500.000
G1 X5.489 Y49.865 Z17.361 F2500.000
G1 X6.488 Y49.865 Z17.308 F2500.000
G1 X7.486 Y49.865 Z17.230 F2500.000
G1 X8.484 Y49.865 Z17.126 F2500.000
G1 X9.482 Y49.865 Z16.993 F2500.000
G1 X10.480 Y49.865 Z16.832 F2500.000
G1 X11.478 Y49.865 Z16.642 F2500.000
G1 X12.476 Y49.865 Z16.422 F2500.000
G1 X13.474 Y49.865 Z16.170 F2500.000
G1 X14.472 Y49.865 Z15.886 F2500.000
G1 X15.470 Y49.865 Z15.568 F2500.000
G1 X16.468 Y49.865 Z15.214 F2500.000
G1 X17.467 Y49.865 Z14.824 F2500.000
G1 X18.465 Y49.865 Z14.396 F2500.000
G1 X19.463 Y49.865 Z13.926 F2500.000
G1 X20.461 Y49.865 Z13.414 F2500.000
G1 X21.459 Y49.865 Z12.855 F2500.000
G1 X22.457 Y49.865 Z12.773 F2500.000
G1 X33.436 Y49.865 Z12.773 F2500.000
(End of step 8.)
G0 Z19.770
G0 X33.337 Y56.265
(Begin step 9.)
G0 X33.337 Y56.265
(part 1)
G1 X33.337 Y56.265 Z12.773 F2500.000
G1 X22.391 Y56.265 Z12.773 F2500.000
G1 X21.396 Y56.265 Z12.809 F2500.000
G1 X20.401 Y56.265 Z13.364 F2500.000
G1 X19.405 Y56.265 Z13.873 F2500.000
G1 X18.410 Y56.265 Z14.343 F2500.000
G1 X17.415 Y56.265 Z14.770 F2500.000
G1 X16.420 Y56.265 Z15.159 F2500.000
G1 X15.425 Y56.265 Z15.512 F2500.000
G1 X14.430 Y56.265 Z15.830 F2500.000
G1 X13.435 Y56.265 Z16.114 F2500.000
G1 X12.439 Y56.265 Z16.366 F2500.000
G1 X11.444 Y56.265 Z16.587 F2500.000
G1 X10.449 Y56.265 Z16.777 F2500.000
G1 X9.454 Y56.265 Z16.938 F2500.000
G1 X8.459 Y56.265 Z17.071 F2500.000
G1 X7.464 Y56.265 Z17.176 F2500.000
G1 X6.468 Y56.265 Z17.255 F2500.000
G1 X5.473 Y56.265 Z17.308 F2500.000
G1 X4.478 Y56.265 Z17.337 F2500.000
G1 X3.483 Y56.265 Z17.351 F2500.000
G1 X2.488 Y56.265 Z17.359 F2500.000
G1 X-0.498 Y56.265 Z17.365 F2500.000
G1 X-2.488 Y56.265 Z17.358 F2500.000
G1 X-3.483 Y56.265 Z17.351 F2500.000
G1 X-4.478 Y56.265 Z17.336 F2500.000
G1 X-5.473 Y56.265 Z17.307 F2500.000
G1 X-6.468 Y56.265 Z17.255 F2500.000
G1 X-7.464 Y56.265 Z17.176 F2500.000
G1 X-8.459 Y56.265 Z17.071 F2500.000
G1 X-9.454 Y56.265 Z16.939 F2500.000
G1 X-10.449 Y56.265 Z16.778 F2500.000
G1 X-11.444 Y56.265 Z16.587 F2500.000
G1 X-12.439 Y56.265 Z16.367 F2500.000
G1 X-13.435 Y56.265 Z16.114 F2500.000
G1 X-14.430 Y56.265 Z15.830 F2500.000
G1 X-15.425 Y56.265 Z15.512 F2500.000
G1 X-16.420 Y56.265 Z15.159 F2500.000
G1 X-17.415 Y56.265 Z14.770 F2500.000
G1 X-18.410 Y56.265 Z14.343 F2500.000
G1 X-19.405 Y56.265 Z13.874 F2500.000
G1 X-20.401 Y56.265 Z13.364 F2500.000
G1 X-21.396 Y56.265 Z12.809 F2500.000
G1 X-22.391 Y56.265 Z12.773 F2500.000
G1 X-33.337 Y56.265 Z12.773 F2500.000
(End of step 9.)
G0 Z19.770
G0 X-33.239 Y62.665
(Begin step 10.)
G0 X-33.239 Y62.665
(part 1)
G1 X-33.239 Y62.665 Z12.773 F2500.000
G1 X-21.333 Y62.665 Z12.773 F2500.000
G1 X-20.340 Y62.665 Z13.314 F2500.000
G1 X-19.348 Y62.665 Z13.823 F2500.000
G1 X-18.356 Y62.665 Z14.289 F2500.000
G1 X-17.364 Y62.665 Z14.716 F2500.000
G1 X-16.371 Y62.665 Z15.105 F2500.000
G1 X-15.379 Y62.665 Z15.457 F2500.000
G1 X-14.387 Y62.665 Z15.775 F2500.000
G1 X-13.395 Y62.665 Z16.058 F2500.000
G1 X-12.403 Y62.665 Z16.310 F2500.000
G1 X-11.410 Y62.665 Z16.531 F2500.000
G1 X-10.418 Y62.665 Z16.723 F2500.000
G1 X-9.426 Y62.665 Z16.884 F2500.000
G1 X-8.434 Y62.665 Z17.017 F2500.000
G1 X-7.442 Y62.665 Z17.122 F2500.000
G1 X-6.449 Y62.665 Z17.201 F2500.000
G1 X-5.457 Y62.665 Z17.254 F2500.000
G1 X-4.465 Y62.665 Z17.284 F2500.000
G1 X-2.481 Y62.665 Z17.305 F2500.000
G1 X-0.496 Y62.665 Z17.312 F2500.000
G1 X1.488 Y62.665 Z17.310 F2500.000
G1 X2.481 Y62.665 Z17.305 F2500.000
G1 X3.473 Y62.665 Z17.298 F2500.000
G1 X4.465 Y62.665 Z17.283 F2500.000
G1 X5.457 Y62.665 Z17.255 F2500.000
G1 X6.449 Y62.665 Z17.201 F2500.000
G1 X7.442 Y62.665 Z17.123 F2500.000
G1 X8.434 Y62.665 Z17.018 F2500.000
G1 X9.426 Y62.665 Z16.885 F2500.000
G1 X10.418 Y62.665 Z16.722 F2500.000
G1 X11.410 Y62.665 Z16.531 F2500.000
G1 X12.403 Y62.665 Z16.310 F2500.000
G1 X13.395 Y62.665 Z16.059 F2500.000
G1 X14.387 Y62.665 Z15.775 F2500.000
G1 X15.379 Y62.665 Z15.457 F2500.000
G1 X16.371 Y62.665 Z15.104 F2500.000
G1 X17.364 Y62.665 Z14.716 F2500.000
G1 X18.356 Y62.665 Z14.289 F2500.000
G1 X19.348 Y62.665 Z13.822 F2500.000
G1 X20.340 Y62.665 Z13.314 F2500.000
G1 X21.333 Y62.665 Z12.773 F2500.000
G1 X33.239 Y62.665 Z12.773 F2500.000
(End of step 10.)
G0 Z19.770
G0 X33.141 Y69.065
(Begin step 11.)
G0 X33.141 Y69.065
(part 1)
G1 X33.141 Y69.065 Z12.773 F2500.000
G1 X21.269 Y69.065 Z12.773 F2500.000
G1 X20.280 Y69.065 Z13.264 F2500.000
G1 X19.291 Y69.065 Z13.772 F2500.000
G1 X18.302 Y69.065 Z14.237 F2500.000
G1 X17.312 Y69.065 Z14.662 F2500.000
G1 X16.323 Y69.065 Z15.049 F2500.000
G1 X15.334 Y69.065 Z15.401 F2500.000
G1 X14.344 Y69.065 Z15.719 F2500.000
G1 X13.355 Y69.065 Z16.002 F2500.000
G1 X12.366 Y69.065 Z16.255 F2500.000
G1 X11.377 Y69.065 Z16.477 F2500.000
G1 X10.387 Y69.065 Z16.668 F2500.000
G1 X9.398 Y69.065 Z16.830 F2500.000
G1 X8.409 Y69.065 Z16.963 F2500.000
G1 X7.420 Y69.065 Z17.070 F2500.000
G1 X6.430 Y69.065 Z17.149 F2500.000
G1 X5.441 Y69.065 Z17.201 F2500.000
G1 X4.452 Y69.065 Z17.230 F2500.000
G1 X3.462 Y69.065 Z17.245 F2500.000
G1 X2.473 Y69.065 Z17.253 F2500.000
G1 X0.495 Y69.065 Z17.259 F2500.000
G1 X-1.484 Y69.065 Z17.257 F2500.000
G1 X-2.473 Y69.065 Z17.252 F2500.000
G1 X-4.452 Y69.065 Z17.231 F2500.000
G1 X-5.441 Y69.065 Z17.201 F2500.000
G1 X-6.430 Y69.065 Z17.149 F2500.000
G1 X-7.420 Y69.065 Z17.070 F2500.000
G1 X-8.409 Y69.065 Z16.964 F2500.000
G1 X-9.398 Y69.065 Z16.830 F2500.000
G1 X-10.387 Y69.065 Z16.668 F2500.000
G1 X-11.377 Y69.065 Z16.476 F2500.000
G1 X-12.366 Y69.065 Z16.255 F2500.000
G1 X-13.355 Y69.065 Z16.004 F2500.000
G1 X-14.344 Y69.065 Z15.718 F2500.000
G1 X-15.334 Y69.065 Z15.401 F2500.000
G1 X-16.323 Y69.065 Z15.050 F2500.000
G1 X-17.312 Y69.065 Z14.661 F2500.000
G1 X-18.302 Y69.065 Z14.237 F2500.000
G1 X-19.291 Y69.065 Z13.771 F2500.000
G1 X-20.280 Y69.065 Z13.265 F2500.000
G1 X-21.269 Y69.065 Z12.773 F2500.000
G1 X-33.141 Y69.065 Z12.773 F2500.000
(End of step 11.)
G0 Z19.770
G0 X-33.042 Y75.465
(Begin step 12.)
G0 X-33.042 Y75.465
(part 1)
G1 X-33.042 Y75.465 Z12.773 F2500.000
G1 X-21.206 Y75.465 Z12.773 F2500.000
G1 X-20.220 Y75.465 Z13.215 F2500.000
G1 X-19.233 Y75.465 Z13.720 F2500.000
G1 X-18.247 Y75.465 Z14.184 F2500.000
G1 X-17.261 Y75.465 Z14.608 F2500.000
G1 X-16.274 Y75.465 Z14.995 F2500.000
G1 X-15.288 Y75.465 Z15.346 F2500.000
G1 X-14.302 Y75.465 Z15.663 F2500.000
G1 X-13.315 Y75.465 Z15.948 F2500.000
G1 X-12.329 Y75.465 Z16.199 F2500.000
G1 X-11.343 Y75.465 Z16.422 F2500.000
G1 X-10.356 Y75.465 Z16.612 F2500.000
G1 X-9.370 Y75.465 Z16.775 F2500.000
G1 X-8.384 Y75.465 Z16.909 F2500.000
G1 X-7.397 Y75.465 Z17.017 F2500.000
G1 X-6.411 Y75.465 Z17.096 F2500.000
G1 X-5.425 Y75.465 Z17.148 F2500.000
G1 X-4.438 Y75.465 Z17.177 F2500.000
G1 X-3.452 Y75.465 Z17.191 F2500.000
G1 X-2.466 Y75.465 Z17.199 F2500.000
G1 X-0.493 Y75.465 Z17.206 F2500.000
G1 X2.466 Y75.465 Z17.198 F2500.000
G1 X3.452 Y75.465 Z17.192 F2500.000
G1 X4.438 Y75.465 Z17.177 F2500.000
G1 X5.425 Y75.465 Z17.148 F2500.000
G1 X6.411 Y75.465 Z17.096 F2500.000
G1 X7.397 Y75.465 Z17.017 F2500.000
G1 X8.384 Y75.465 Z16.909 F2500.000
G1 X9.370 Y75.465 Z16.774 F2500.000
G1 X10.356 Y75.465 Z16.613 F2500.000
G1 X11.343 Y75.465 Z16.421 F2500.000
G1 X12.329 Y75.465 Z16.201 F2500.000
G1 X13.315 Y75.465 Z15.948 F2500.000
G1 X14.302 Y75.465 Z15.663 F2500.000
G1 X15.288 Y75.465 Z15.346 F2500.000
G1 X16.274 Y75.465 Z14.995 F2500.000
G1 X17.261 Y75.465 Z14.608 F2500.000
G1 X18.247 Y75.465 Z14.183 F2500.000
G1 X19.233 Y75.465 Z13.720 F2500.000
G1 X20.220 Y75.465 Z13.215 F2500.000
G1 X21.206 Y75.465 Z12.773 F2500.000
G1 X33.042 Y75.465 Z12.773 F2500.000
(End of step 12.)
G0 Z19.770
G0 X32.944 Y81.865
(Begin step 13.)
G0 X32.944 Y81.865
(part 1)
G1 X32.944 Y81.865 Z12.773 F2500.000
G1 X20.964 Y81.865 Z12.773 F2500.000
G1 X19.966 Y81.865 Z13.268 F2500.000
G1 X18.968 Y81.865 Z13.769 F2500.000
G1 X17.969 Y81.865 Z14.230 F2500.000
G1 X16.971 Y81.865 Z14.651 F2500.000
G1 X15.973 Y81.865 Z15.034 F2500.000
G1 X14.974 Y81.865 Z15.381 F2500.000
G1 X13.976 Y81.865 Z15.693 F2500.000
G1 X12.978 Y81.865 Z15.973 F2500.000
G1 X11.980 Y81.865 Z16.219 F2500.000
G1 X10.981 Y81.865 Z16.434 F2500.000
G1 X9.983 Y81.865 Z16.619 F2500.000
G1 X8.985 Y81.865 Z16.772 F2500.000
G1 X7.986 Y81.865 Z16.900 F2500.000
G1 X6.988 Y81.865 Z16.997 F2500.000
G1 X5.990 Y81.865 Z17.067 F2500.000
G1 X4.991 Y81.865 Z17.110 F2500.000
G1 X3.993 Y81.865 Z17.132 F2500.000
G1 X2.995 Y81.865 Z17.142 F2500.000
G1 X1.997 Y81.865 Z17.148 F2500.000
G1 X0.000 Y81.865 Z17.153 F2500.000
G1 X-1.997 Y81.865 Z17.148 F2500.000
G1 X-3.993 Y81.865 Z17.132 F2500.000
G1 X-4.991 Y81.865 Z17.110 F2500.000
G1 X-5.990 Y81.865 Z17.067 F2500.000
G1 X-6.988 Y81.865 Z16.996 F2500.000
G1 X-7.986 Y81.865 Z16.900 F2500.000
G1 X-8.985 Y81.865 Z16.773 F2500.000
G1 X-9.983 Y81.865 Z16.618 F2500.000
G1 X-10.981 Y81.865 Z16.434 F2500.000
G1 X-11.980 Y81.865 Z16.219 F2500.000
G1 X-12.978 Y81.865 Z15.972 F2500.000
G1 X-13.976 Y81.865 Z15.693 F2500.000
G1 X-14.974 Y81.865 Z15.380 F2500.000
G1 X-15.973 Y81.865 Z15.034 F2500.000
G1 X-16.971 Y81.865 Z14.651 F2500.000
G1 X-17.969 Y81.865 Z14.231 F2500.000
G1 X-18.968 Y81.865 Z13.770 F2500.000
G1 X-19.966 Y81.865 Z13.266 F2500.000
G1 X-20.964 Y81.865 Z12.773 F2500.000
G1 X-32.944 Y81.865 Z12.773 F2500.000
(End of step 13.)
G0 Z19.770
G0 X-32.845 Y88.265
(Begin step 14.)
G0 X-32.845 Y88.265
(part 1)
G1 X-32.845 Y88.265 Z12.773 F2500.000
G1 X-20.902 Y88.265 Z12.773 F2500.000
G1 X-19.906 Y88.265 Z13.218 F2500.000
G1 X-18.911 Y88.265 Z13.718 F2500.000
G1 X-17.916 Y88.265 Z14.178 F2500.000
G1 X-16.920 Y88.265 Z14.596 F2500.000
G1 X-15.925 Y88.265 Z14.979 F2500.000
G1 X-14.930 Y88.265 Z15.326 F2500.000
G1 X-13.934 Y88.265 Z15.639 F2500.000
G1 X-12.939 Y88.265 Z15.916 F2500.000
G1 X-11.944 Y88.265 Z16.164 F2500.000
G1 X-10.948 Y88.265 Z16.378 F2500.000
G1 X-9.953 Y88.265 Z16.565 F2500.000
G1 X-8.958 Y88.265 Z16.720 F2500.000
G1 X-7.962 Y88.265 Z16.846 F2500.000
G1 X-6.967 Y88.265 Z16.944 F2500.000
G1 X-5.972 Y88.265 Z17.014 F2500.000
G1 X-4.977 Y88.265 Z17.057 F2500.000
G1 X-3.981 Y88.265 Z17.079 F2500.000
G1 X-1.991 Y88.265 Z17.095 F2500.000
G1 X0.000 Y88.265 Z17.099 F2500.000
G1 X1.991 Y88.265 Z17.095 F2500.000
G1 X2.986 Y88.265 Z17.089 F2500.000
G1 X3.981 Y88.265 Z17.079 F2500.000
G1 X4.977 Y88.265 Z17.057 F2500.000
G1 X5.972 Y88.265 Z17.014 F2500.000
G1 X6.967 Y88.265 Z16.944 F2500.000
G1 X7.962 Y88.265 Z16.846 F2500.000
G1 X8.958 Y88.265 Z16.720 F2500.000
G1 X9.953 Y88.265 Z16.565 F2500.000
G1 X10.948 Y88.265 Z16.379 F2500.000
G1 X11.944 Y88.265 Z16.164 F2500.000
G1 X12.939 Y88.265 Z15.917 F2500.000
G1 X13.934 Y88.265 Z15.639 F2500.000
G1 X14.930 Y88.265 Z15.326 F2500.000
G1 X15.925 Y88.265 Z14.980 F2500.000
G1 X16.920 Y88.265 Z14.596 F2500.000
G1 X17.916 Y88.265 Z14.177 F2500.000
G1 X18.911 Y88.265 Z13.719 F2500.000
G1 X19.906 Y88.265 Z13.218 F2500.000
G1 X20.902 Y88.265 Z12.773 F2500.000
G1 X32.845 Y88.265 Z12.773 F2500.000
(End of step 14.)
G0 Z19.770
G0 X32.747 Y94.665
(Begin step 15.)
G0 X32.747 Y94.665
(part 1)
G1 X32.747 Y94.665 Z12.773 F2500.000
G1 X20.839 Y94.665 Z12.773 F2500.000
G1 X19.847 Y94.665 Z13.168 F2500.000
G1 X18.854 Y94.665 Z13.667 F2500.000
G1 X17.862 Y94.665 Z14.125 F2500.000
G1 X16.870 Y94.665 Z14.544 F2500.000
G1 X15.877 Y94.665 Z14.925 F2500.000
G1 X14.885 Y94.665 Z15.272 F2500.000
G1 X13.893 Y94.665 Z15.584 F2500.000
G1 X12.900 Y94.665 Z15.862 F2500.000
G1 X11.908 Y94.665 Z16.109 F2500.000
G1 X10.916 Y94.665 Z16.325 F2500.000
G1 X9.923 Y94.665 Z16.511 F2500.000
G1 X8.931 Y94.665 Z16.665 F2500.000
G1 X7.939 Y94.665 Z16.793 F2500.000
G1 X6.946 Y94.665 Z16.891 F2500.000
G1 X5.954 Y94.665 Z16.961 F2500.000
G1 X4.962 Y94.665 Z17.004 F2500.000
G1 X3.969 Y94.665 Z17.026 F2500.000
G1 X1.985 Y94.665 Z17.041 F2500.000
G1 X0.000 Y94.665 Z17.046 F2500.000
G1 X-1.985 Y94.665 Z17.042 F2500.000
G1 X-3.969 Y94.665 Z17.026 F2500.000
G1 X-4.962 Y94.665 Z17.004 F2500.000
G1 X-5.954 Y94.665 Z16.961 F2500.000
G1 X-6.946 Y94.665 Z16.891 F2500.000
G1 X-7.939 Y94.665 Z16.793 F2500.000
G1 X-8.931 Y94.665 Z16.666 F2500.000
G1 X-9.923 Y94.665 Z16.510 F2500.000
G1 X-10.916 Y94.665 Z16.325 F2500.000
G1 X-11.908 Y94.665 Z16.109 F2500.000
G1 X-12.900 Y94.665 Z15.863 F2500.000
G1 X-13.893 Y94.665 Z15.583 F2500.000
G1 X-14.885 Y94.665 Z15.272 F2500.000
G1 X-15.877 Y94.665 Z14.925 F2500.000
G1 X-16.870 Y94.665 Z14.543 F2500.000
G1 X-17.862 Y94.665 Z14.125 F2500.000
G1 X-18.854 Y94.665 Z13.667 F2500.000
G1 X-19.847 Y94.665 Z13.168 F2500.000
G1 X-20.839 Y94.665 Z12.773 F2500.000
G1 X-32.747 Y94.665 Z12.773 F2500.000
(End of step 15.)
G0 Z19.770
G0 X-32.648 Y101.065
(Begin step 16.)
G0 X-32.648 Y101.065
(part 1)
G1 X-32.648 Y101.065 Z12.773 F2500.000
G1 X-20.776 Y101.065 Z12.773 F2500.000
G1 X-19.787 Y101.065 Z13.119 F2500.000
G1 X-18.798 Y101.065 Z13.616 F2500.000
G1 X-17.808 Y101.065 Z14.071 F2500.000
G1 X-16.819 Y101.065 Z14.490 F2500.000
G1 X-15.829 Y101.065 Z14.870 F2500.000
G1 X-14.840 Y101.065 Z15.217 F2500.000
G1 X-13.851 Y101.065 Z15.528 F2500.000
G1 X-12.861 Y101.065 Z15.808 F2500.000
G1 X-11.872 Y101.065 Z16.054 F2500.000
G1 X-10.883 Y101.065 Z16.271 F2500.000
G1 X-9.893 Y101.065 Z16.456 F2500.000
G1 X-8.904 Y101.065 Z16.613 F2500.000
G1 X-7.915 Y101.065 Z16.740 F2500.000
G1 X-6.925 Y101.065 Z16.838 F2500.000
G1 X-5.936 Y101.065 Z16.908 F2500.000
G1 X-4.947 Y101.065 Z16.950 F2500.000
G1 X-3.957 Y101.065 Z16.973 F2500.000
G1 X-1.979 Y101.065 Z16.989 F2500.000
G1 X0.000 Y101.065 Z16.993 F2500.000
G1 X1.979 Y101.065 Z16.988 F2500.000
G1 X3.957 Y101.065 Z16.973 F2500.000
G1 X4.947 Y101.065 Z16.951 F2500.000
G1 X5.936 Y101.065 Z16.908 F2500.000
G1 X6.925 Y101.065 Z16.838 F2500.000
G1 X7.915 Y101.065 Z16.739 F2500.000
G1 X8.904 Y101.065 Z16.613 F2500.000
G1 X9.893 Y101.065 Z16.457 F2500.000
G1 X10.883 Y101.065 Z16.270 F2500.000
G1 X11.872 Y101.065 Z16.054 F2500.000
G1 X12.861 Y101.065 Z15.808 F2500.000
G1 X13.851 Y101.065 Z15.529 F2500.000
G1 X14.840 Y101.065 Z15.217 F2500.000
G1 X15.829 Y101.065 Z14.871 F2500.000
G1 X16.819 Y101.065 Z14.490 F2500.000
G1 X17.808 Y101.065 Z14.072 F2500.000
G1 X18.798 Y101.065 Z13.616 F2500.000
G1 X19.787 Y101.065 Z13.118 F2500.000
G1 X20.776 Y101.065 Z12.773 F2500.000
G1 X32.648 Y101.065 Z12.773 F2500.000
(End of step 16.)
G0 Z19.770
G0 X32.550 Y107.465
(Begin step 17.)
G0 X32.550 Y107.465
(part 1)
G1 X32.550 Y107.465 Z12.773 F2500.000
G1 X20.714 Y107.465 Z12.773 F2500.000
G1 X19.727 Y107.465 Z13.069 F2500.000
G1 X18.741 Y107.465 Z13.565 F2500.000
G1 X17.754 Y107.465 Z14.019 F2500.000
G1 X16.768 Y107.465 Z14.437 F2500.000
G1 X15.782 Y107.465 Z14.817 F2500.000
G1 X14.795 Y107.465 Z15.162 F2500.000
G1 X13.809 Y107.465 Z15.473 F2500.000
G1 X12.823 Y107.465 Z15.753 F2500.000
G1 X11.836 Y107.465 Z16.000 F2500.000
G1 X10.850 Y107.465 Z16.217 F2500.000
G1 X9.864 Y107.465 Z16.403 F2500.000
G1 X8.877 Y107.465 Z16.559 F2500.000
G1 X7.891 Y107.465 Z16.687 F2500.000
G1 X6.905 Y107.465 Z16.785 F2500.000
G1 X5.918 Y107.465 Z16.855 F2500.000
G1 X4.932 Y107.465 Z16.898 F2500.000
G1 X3.945 Y107.465 Z16.919 F2500.000
G1 X2.959 Y107.465 Z16.930 F2500.000
G1 X1.973 Y107.465 Z16.935 F2500.000
G1 X0.000 Y107.465 Z16.939 F2500.000
G1 X-1.973 Y107.465 Z16.935 F2500.000
G1 X-2.959 Y107.465 Z16.930 F2500.000
G1 X-3.945 Y107.465 Z16.919 F2500.000
G1 X-4.932 Y107.465 Z16.898 F2500.000
G1 X-5.918 Y107.465 Z16.855 F2500.000
G1 X-6.905 Y107.465 Z16.785 F2500.000
G1 X-7.891 Y107.465 Z16.687 F2500.000
G1 X-8.877 Y107.465 Z16.559 F2500.000
G1 X-9.864 Y107.465 Z16.403 F2500.000
G1 X-10.850 Y107.465 Z16.217 F2500.000
G1 X-11.836 Y107.465 Z16.000 F2500.000
G1 X-12.823 Y107.465 Z15.752 F2500.000
G1 X-13.809 Y107.465 Z15.473 F2500.000
G1 X-14.795 Y107.465 Z15.163 F2500.000
G1 X-15.782 Y107.465 Z14.817 F2500.000
G1 X-16.768 Y107.465 Z14.437 F2500.000
G1 X-17.754 Y107.465 Z14.020 F2500.000
G1 X-18.741 Y107.465 Z13.564 F2500.000
G1 X-19.727 Y107.465 Z13.070 F2500.000
G1 X-20.714 Y107.465 Z12.773 F2500.000
G1 X-32.550 Y107.465 Z12.773 F2500.000
(End of step 17.)
G0 Z19.770
G0 X-32.451 Y113.865
(Begin step 18.)
G0 X-32.451 Y113.865
(part 1)
G1 X-32.451 Y113.865 Z12.773 F2500.000
G1 X-20.469 Y113.865 Z12.773 F2500.000
G1 X-19.471 Y113.865 Z13.122 F2500.000
G1 X-18.472 Y113.865 Z13.613 F2500.000
G1 X-17.474 Y113.865 Z14.066 F2500.000
G1 X-16.475 Y113.865 Z14.479 F2500.000
G1 X-15.477 Y113.865 Z14.857 F2500.000
G1 X-14.478 Y113.865 Z15.197 F2500.000
G1 X-13.480 Y113.865 Z15.504 F2500.000
G1 X-12.481 Y113.865 Z15.778 F2500.000
G1 X-11.483 Y113.865 Z16.019 F2500.000
G1 X-10.484 Y113.865 Z16.228 F2500.000
G1 X-9.486 Y113.865 Z16.407 F2500.000
G1 X-8.487 Y113.865 Z16.555 F2500.000
G1 X-7.489 Y113.865 Z16.674 F2500.000
G1 X-6.490 Y113.865 Z16.763 F2500.000
G1 X-5.492 Y113.865 Z16.823 F2500.000
G1 X-4.493 Y113.865 Z16.856 F2500.000
G1 X-3.495 Y113.865 Z16.871 F2500.000
G1 X-2.496 Y113.865 Z16.880 F2500.000
G1 X-0.499 Y113.865 Z16.886 F2500.000
G1 X2.496 Y113.865 Z16.879 F2500.000
G1 X3.495 Y113.865 Z16.872 F2500.000
G1 X4.493 Y113.865 Z16.856 F2500.000
G1 X5.492 Y113.865 Z16.822 F2500.000
G1 X6.490 Y113.865 Z16.763 F2500.000
G1 X7.489 Y113.865 Z16.674 F2500.000
G1 X8.487 Y113.865 Z16.555 F2500.000
G1 X9.486 Y113.865 Z16.407 F2500.000
G1 X10.484 Y113.865 Z16.229 F2500.000
G1 X11.483 Y113.865 Z16.019 F2500.000
G1 X12.481 Y113.865 Z15.778 F2500.000
G1 X13.480 Y113.865 Z15.504 F2500.000
G1 X14.478 Y113.865 Z15.198 F2500.000
G1 X15.477 Y113.865 Z14.857 F2500.000
G1 X16.475 Y113.865 Z14.480 F2500.000
G1 X17.474 Y113.865 Z14.066 F2500.000
G1 X18.472 Y113.865 Z13.614 F2500.000
G1 X19.471 Y113.865 Z13.122 F2500.000
G1 X20.469 Y113.865 Z12.773 F2500.000
G1 X32.451 Y113.865 Z12.773 F2500.000
(End of step 18.)
G0 Z19.770
G0 X32.353 Y120.265
(Begin step 19.)
G0 X32.353 Y120.265
(part 1)
G1 X32.353 Y120.265 Z12.773 F2500.000
G1 X20.407 Y120.265 Z12.773 F2500.000
G1 X19.412 Y120.265 Z13.073 F2500.000
G1 X18.416 Y120.265 Z13.564 F2500.000
G1 X17.421 Y120.265 Z14.014 F2500.000
G1 X16.425 Y120.265 Z14.427 F2500.000
G1 X15.430 Y120.265 Z14.803 F2500.000
G1 X14.434 Y120.265 Z15.143 F2500.000
G1 X13.439 Y120.265 Z15.450 F2500.000
G1 X12.443 Y120.265 Z15.724 F2500.000
G1 X11.448 Y120.265 Z15.965 F2500.000
G1 X10.452 Y120.265 Z16.175 F2500.000
G1 X9.457 Y120.265 Z16.354 F2500.000
G1 X8.462 Y120.265 Z16.503 F2500.000
G1 X7.466 Y120.265 Z16.621 F2500.000
G1 X6.471 Y120.265 Z16.710 F2500.000
G1 X5.475 Y120.265 Z16.770 F2500.000
G1 X4.480 Y120.265 Z16.803 F2500.000
G1 X3.484 Y120.265 Z16.818 F2500.000
G1 X2.489 Y120.265 Z16.826 F2500.000
G1 X1.493 Y120.265 Z16.831 F2500.000
G1 X-0.498 Y120.265 Z16.833 F2500.000
G1 X-2.489 Y120.265 Z16.826 F2500.000
G1 X-3.484 Y120.265 Z16.818 F2500.000
G1 X-4.480 Y120.265 Z16.803 F2500.000
G1 X-5.475 Y120.265 Z16.770 F2500.000
G1 X-6.471 Y120.265 Z16.710 F2500.000
G1 X-7.466 Y120.265 Z16.621 F2500.000
G1 X-8.462 Y120.265 Z16.503 F2500.000
G1 X-9.457 Y120.265 Z16.354 F2500.000
G1 X-10.452 Y120.265 Z16.175 F2500.000
G1 X-11.448 Y120.265 Z15.965 F2500.000
G1 X-12.443 Y120.265 Z15.724 F2500.000
G1 X-13.439 Y120.265 Z15.450 F2500.000
G1 X-14.434 Y120.265 Z15.143 F2500.000
G1 X-15.430 Y120.265 Z14.803 F2500.000
G1 X-16.425 Y120.265 Z14.427 F2500.000
G1 X-17.421 Y120.265 Z14.014 F2500.000
G1 X-18.416 Y120.265 Z13.563 F2500.000
G1 X-19.412 Y120.265 Z13.072 F2500.000
G1 X-20.407 Y120.265 Z12.773 F2500.000
G1 X-32.353 Y120.265 Z12.773 F2500.000
(End of step 19.)
G0 Z19.770
G0 X-32.255 Y126.665
(Begin step 20.)
G0 X-32.255 Y126.665
(part 1)
G1 X-32.255 Y126.665 Z12.773 F2500.000
G1 X-20.345 Y126.665 Z12.773 F2500.000
G1 X-19.353 Y126.665 Z13.023 F2500.000
G1 X-18.360 Y126.665 Z13.511 F2500.000
G1 X-17.368 Y126.665 Z13.961 F2500.000
G1 X-16.375 Y126.665 Z14.373 F2500.000
G1 X-15.383 Y126.665 Z14.748 F2500.000
G1 X-14.390 Y126.665 Z15.088 F2500.000
G1 X-13.398 Y126.665 Z15.395 F2500.000
G1 X-12.406 Y126.665 Z15.669 F2500.000
G1 X-11.413 Y126.665 Z15.911 F2500.000
G1 X-10.421 Y126.665 Z16.121 F2500.000
G1 X-9.428 Y126.665 Z16.300 F2500.000
G1 X-8.436 Y126.665 Z16.449 F2500.000
G1 X-7.443 Y126.665 Z16.568 F2500.000
G1 X-6.451 Y126.665 Z16.657 F2500.000
G1 X-5.458 Y126.665 Z16.717 F2500.000
G1 X-4.466 Y126.665 Z16.751 F2500.000
G1 X-2.481 Y126.665 Z16.773 F2500.000
G1 X-0.496 Y126.665 Z16.780 F2500.000
G1 X1.489 Y126.665 Z16.777 F2500.000
G1 X2.481 Y126.665 Z16.773 F2500.000
G1 X3.474 Y126.665 Z16.765 F2500.000
G1 X4.466 Y126.665 Z16.750 F2500.000
G1 X5.458 Y126.665 Z16.717 F2500.000
G1 X6.451 Y126.665 Z16.657 F2500.000
G1 X7.443 Y126.665 Z16.568 F2500.000
G1 X8.436 Y126.665 Z16.449 F2500.000
G1 X9.428 Y126.665 Z16.299 F2500.000
G1 X10.421 Y126.665 Z16.121 F2500.000
G1 X11.413 Y126.665 Z15.911 F2500.000
G1 X12.406 Y126.665 Z15.669 F2500.000
G1 X13.398 Y126.665 Z15.396 F2500.000
G1 X14.390 Y126.665 Z15.088 F2500.000
G1 X15.383 Y126.665 Z14.748 F2500.000
G1 X16.375 Y126.665 Z14.373 F2500.000
G1 X17.368 Y126.665 Z13.961 F2500.000
G1 X18.360 Y126.665 Z13.511 F2500.000
G1 X19.353 Y126.665 Z13.023 F2500.000
G1 X20.345 Y126.665 Z12.773 F2500.000
G1 X32.255 Y126.665 Z12.773 F2500.000
(End of step 20.)
G0 Z19.770
G0 X32.156 Y133.065
(Begin step 21.)
G0 X32.156 Y133.065
(part 1)
G1 X32.156 Y133.065 Z12.773 F2500.000
G1 X20.283 Y133.065 Z12.773 F2500.000
G1 X19.294 Y133.065 Z12.973 F2500.000
G1 X18.304 Y133.065 Z13.461 F2500.000
G1 X17.315 Y133.065 Z13.910 F2500.000
G1 X16.325 Y133.065 Z14.321 F2500.000
G1 X15.336 Y133.065 Z14.695 F2500.000
G1 X14.347 Y133.065 Z15.034 F2500.000
G1 X13.357 Y133.065 Z15.342 F2500.000
G1 X12.368 Y133.065 Z15.615 F2500.000
G1 X11.378 Y133.065 Z15.857 F2500.000
G1 X10.389 Y133.065 Z16.067 F2500.000
G1 X9.399 Y133.065 Z16.246 F2500.000
G1 X8.410 Y133.065 Z16.395 F2500.000
G1 X7.421 Y133.065 Z16.514 F2500.000
G1 X6.431 Y133.065 Z16.605 F2500.000
G1 X5.442 Y133.065 Z16.665 F2500.000
G1 X4.452 Y133.065 Z16.697 F2500.000
G1 X3.463 Y133.065 Z16.712 F2500.000
G1 X1.484 Y133.065 Z16.724 F2500.000
G1 X-0.495 Y133.065 Z16.727 F2500.000
G1 X-2.474 Y133.065 Z16.720 F2500.000
G1 X-3.463 Y133.065 Z16.712 F2500.000
G1 X-4.452 Y133.065 Z16.697 F2500.000
G1 X-5.442 Y133.065 Z16.665 F2500.000
G1 X-6.431 Y133.065 Z16.605 F2500.000
G1 X-7.421 Y133.065 Z16.514 F2500.000
G1 X-8.410 Y133.065 Z16.395 F2500.000
G1 X-9.399 Y133.065 Z16.247 F2500.000
G1 X-10.389 Y133.065 Z16.067 F2500.000
G1 X-11.378 Y133.065 Z15.857 F2500.000
G1 X-12.368 Y133.065 Z15.615 F2500.000
G1 X-13.357 Y133.065 Z15.341 F2500.000
G1 X-14.347 Y133.065 Z15.034 F2500.000
G1 X-15.336 Y133.065 Z14.695 F2500.000
G1 X-16.325 Y133.065 Z14.321 F2500.000
G1 X-17.315 Y133.065 Z13.910 F2500.000
G1 X-18.304 Y133.065 Z13.461 F2500.000
G1 X-19.294 Y133.065 Z12.972 F2500.000
G1 X-20.283 Y133.065 Z12.773 F2500.000
G1 X-32.156 Y133.065 Z12.773 F2500.000
(End of step 21.)
G0 Z19.770
G0 X-32.058 Y139.465
(Begin step 22.)
G0 X-32.058 Y139.465
(part 1)
G1 X-32.058 Y139.465 Z12.773 F2500.000
G1 X-20.221 Y139.465 Z12.773 F2500.000
G1 X-19.235 Y139.465 Z12.924 F2500.000
G1 X-18.248 Y139.465 Z13.410 F2500.000
G1 X-17.262 Y139.465 Z13.858 F2500.000
G1 X-16.275 Y139.465 Z14.268 F2500.000
G1 X-15.289 Y139.465 Z14.641 F2500.000
G1 X-14.303 Y139.465 Z14.981 F2500.000
G1 X-13.316 Y139.465 Z15.288 F2500.000
G1 X-12.330 Y139.465 Z15.561 F2500.000
G1 X-11.343 Y139.465 Z15.803 F2500.000
G1 X-10.357 Y139.465 Z16.014 F2500.000
G1 X-9.371 Y139.465 Z16.193 F2500.000
G1 X-8.384 Y139.465 Z16.343 F2500.000
G1 X-7.398 Y139.465 Z16.461 F2500.000
G1 X-6.412 Y139.465 Z16.552 F2500.000
G1 X-5.425 Y139.465 Z16.612 F2500.000
G1 X-4.439 Y139.465 Z16.644 F2500.000
G1 X-3.452 Y139.465 Z16.659 F2500.000
G1 X-1.480 Y139.465 Z16.671 F2500.000
G1 X0.493 Y139.465 Z16.673 F2500.000
G1 X2.466 Y139.465 Z16.667 F2500.000
G1 X3.452 Y139.465 Z16.659 F2500.000
G1 X4.439 Y139.465 Z16.645 F2500.000
G1 X5.425 Y139.465 Z16.611 F2500.000
G1 X6.412 Y139.465 Z16.551 F2500.000
G1 X7.398 Y139.465 Z16.462 F2500.000
G1 X8.384 Y139.465 Z16.343 F2500.000
G1 X9.371 Y139.465 Z16.192 F2500.000
G1 X10.357 Y139.465 Z16.013 F2500.000
G1 X11.343 Y139.465 Z15.802 F2500.000
G1 X12.330 Y139.465 Z15.561 F2500.000
G1 X13.316 Y139.465 Z15.288 F2500.000
G1 X14.303 Y139.465 Z14.981 F2500.000
G1 X15.289 Y139.465 Z14.642 F2500.000
G1 X16.275 Y139.465 Z14.268 F2500.000
G1 X17.262 Y139.465 Z13.858 F2500.000
G1 X18.248 Y139.465 Z13.410 F2500.000
G1 X19.235 Y139.465 Z12.923 F2500.000
G1 X20.221 Y139.465 Z12.773 F2500.000
G1 X32.058 Y139.465 Z12.773 F2500.000
(End of step 22.)
G0 Z19.770
G0 X31.959 Y145.865
(Begin step 23.)
G0 X31.959 Y145.865
(part 1)
G1 X31.959 Y145.865 Z12.773 F2500.000
G1 X19.974 Y145.865 Z12.773 F2500.000
G1 X18.976 Y145.865 Z12.976 F2500.000
G1 X17.977 Y145.865 Z13.460 F2500.000
G1 X16.978 Y145.865 Z13.905 F2500.000
G1 X15.980 Y145.865 Z14.312 F2500.000
G1 X14.981 Y145.865 Z14.681 F2500.000
G1 X13.982 Y145.865 Z15.017 F2500.000
G1 X12.983 Y145.865 Z15.317 F2500.000
G1 X11.985 Y145.865 Z15.586 F2500.000
G1 X10.986 Y145.865 Z15.821 F2500.000
G1 X9.987 Y145.865 Z16.025 F2500.000
G1 X8.989 Y145.865 Z16.197 F2500.000
G1 X7.990 Y145.865 Z16.338 F2500.000
G1 X6.991 Y145.865 Z16.447 F2500.000
G1 X5.992 Y145.865 Z16.526 F2500.000
G1 X4.994 Y145.865 Z16.576 F2500.000
G1 X3.995 Y145.865 Z16.599 F2500.000
G1 X2.996 Y145.865 Z16.610 F2500.000
G1 X1.997 Y145.865 Z16.616 F2500.000
G1 X0.000 Y145.865 Z16.620 F2500.000
G1 X-1.997 Y145.865 Z16.616 F2500.000
G1 X-3.995 Y145.865 Z16.599 F2500.000
G1 X-4.994 Y145.865 Z16.575 F2500.000
G1 X-5.992 Y145.865 Z16.527 F2500.000
G1 X-6.991 Y145.865 Z16.447 F2500.000
G1 X-7.990 Y145.865 Z16.338 F2500.000
G1 X-8.989 Y145.865 Z16.197 F2500.000
G1 X-9.987 Y145.865 Z16.025 F2500.000
G1 X-10.986 Y145.865 Z15.821 F2500.000
G1 X-11.985 Y145.865 Z15.586 F2500.000
G1 X-12.983 Y145.865 Z15.317 F2500.000
G1 X-13.982 Y145.865 Z15.016 F2500.000
G1 X-14.981 Y145.865 Z14.681 F2500.000
G1 X-15.980 Y145.865 Z14.312 F2500.000
G1 X-16.978 Y145.865 Z13.905 F2500.000
G1 X-17.977 Y145.865 Z13.459 F2500.000
G1 X-18.976 Y145.865 Z12.975 F2500.000
G1 X-19.974 Y145.865 Z12.773 F2500.000
G1 X-31.959 Y145.865 Z12.773 F2500.000
(End of step 23.)
G0 Z19.770
G0 X-31.861 Y152.265
(Begin step 24.)
G0 X-31.861 Y152.265
(part 1)
G1 X-31.861 Y152.265 Z12.773 F2500.000
G1 X-19.913 Y152.265 Z12.773 F2500.000
G1 X-18.917 Y152.265 Z12.927 F2500.000
G1 X-17.922 Y152.265 Z13.410 F2500.000
G1 X-16.926 Y152.265 Z13.852 F2500.000
G1 X-15.930 Y152.265 Z14.258 F2500.000
G1 X-14.935 Y152.265 Z14.628 F2500.000
G1 X-13.939 Y152.265 Z14.963 F2500.000
G1 X-12.943 Y152.265 Z15.264 F2500.000
G1 X-11.948 Y152.265 Z15.532 F2500.000
G1 X-10.952 Y152.265 Z15.766 F2500.000
G1 X-9.956 Y152.265 Z15.972 F2500.000
G1 X-8.961 Y152.265 Z16.143 F2500.000
G1 X-7.965 Y152.265 Z16.284 F2500.000
G1 X-6.970 Y152.265 Z16.395 F2500.000
G1 X-5.974 Y152.265 Z16.473 F2500.000
G1 X-4.978 Y152.265 Z16.522 F2500.000
G1 X-3.983 Y152.265 Z16.546 F2500.000
G1 X-1.991 Y152.265 Z16.563 F2500.000
G1 X0.000 Y152.265 Z16.567 F2500.000
G1 X1.991 Y152.265 Z16.563 F2500.000
G1 X3.983 Y152.265 Z16.546 F2500.000
G1 X4.978 Y152.265 Z16.522 F2500.000
G1 X5.974 Y152.265 Z16.473 F2500.000
G1 X6.970 Y152.265 Z16.395 F2500.000
G1 X7.965 Y152.265 Z16.284 F2500.000
G1 X8.961 Y152.265 Z16.144 F2500.000
G1 X9.956 Y152.265 Z15.972 F2500.000
G1 X10.952 Y152.265 Z15.766 F2500.000
G1 X11.948 Y152.265 Z15.532 F2500.000
G1 X12.943 Y152.265 Z15.264 F2500.000
G1 X13.939 Y152.265 Z14.963 F2500.000
G1 X14.935 Y152.265 Z14.628 F2500.000
G1 X15.930 Y152.265 Z14.258 F2500.000
G1 X16.926 Y152.265 Z13.852 F2500.000
G1 X17.922 Y152.265 Z13.409 F2500.000
G1 X18.917 Y152.265 Z12.927 F2500.000
G1 X19.913 Y152.265 Z12.773 F2500.000
G1 X31.861 Y152.265 Z12.773 F2500.000
(End of step 24.)
G0 Z19.770
G0 X31.762 Y158.665
(Begin step 25.)
G0 X31.762 Y158.665
(part 1)
G1 X31.762 Y158.665 Z12.773 F2500.000
G1 X19.851 Y158.665 Z12.773 F2500.000
G1 X18.859 Y158.665 Z12.877 F2500.000
G1 X17.866 Y158.665 Z13.359 F2500.000
G1 X16.874 Y158.665 Z13.801 F2500.000
G1 X15.881 Y158.665 Z14.205 F2500.000
G1 X14.889 Y158.665 Z14.575 F2500.000
G1 X13.896 Y158.665 Z14.909 F2500.000
G1 X12.903 Y158.665 Z15.211 F2500.000
G1 X11.911 Y158.665 Z15.478 F2500.000
G1 X10.918 Y158.665 Z15.715 F2500.000
G1 X9.926 Y158.665 Z15.918 F2500.000
G1 X8.933 Y158.665 Z16.090 F2500.000
G1 X7.941 Y158.665 Z16.232 F2500.000
G1 X6.948 Y158.665 Z16.342 F2500.000
G1 X5.955 Y158.665 Z16.420 F2500.000
G1 X4.963 Y158.665 Z16.469 F2500.000
G1 X3.970 Y158.665 Z16.492 F2500.000
G1 X2.978 Y158.665 Z16.503 F2500.000
G1 X1.985 Y158.665 Z16.509 F2500.000
G1 X0.000 Y158.665 Z16.514 F2500.000
G1 X-1.985 Y158.665 Z16.510 F2500.000
G1 X-2.978 Y158.665 Z16.503 F2500.000
G1 X-3.970 Y158.665 Z16.492 F2500.000
G1 X-4.963 Y158.665 Z16.469 F2500.000
G1 X-5.955 Y158.665 Z16.420 F2500.000
G1 X-6.948 Y158.665 Z16.342 F2500.000
G1 X-7.941 Y158.665 Z16.232 F2500.000
G1 X-8.933 Y158.665 Z16.090 F2500.000
G1 X-9.926 Y158.665 Z15.918 F2500.000
G1 X-10.918 Y158.665 Z15.715 F2500.000
G1 X-11.911 Y158.665 Z15.478 F2500.000
G1 X-12.903 Y158.665 Z15.211 F2500.000
G1 X-13.896 Y158.665 Z14.909 F2500.000
G1 X-14.889 Y158.665 Z14.575 F2500.000
G1 X-15.881 Y158.665 Z14.205 F2500.000
G1 X-16.874 Y158.665 Z13.801 F2500.000
G1 X-17.866 Y158.665 Z13.359 F2500.000
G1 X-18.859 Y158.665 Z12.877 F2500.000
G1 X-19.851 Y158.665 Z12.773 F2500.000
G1 X-31.762 Y158.665 Z12.773 F2500.000
(End of step 25.)
G0 Z19.770
G0 X-31.664 Y165.065
(Begin step 26.)
G0 X-31.664 Y165.065
(part 1)
G1 X-31.664 Y165.065 Z12.773 F2500.000
G1 X-19.790 Y165.065 Z12.773 F2500.000
G1 X-18.800 Y165.065 Z12.829 F2500.000
G1 X-17.811 Y165.065 Z13.308 F2500.000
G1 X-16.821 Y165.065 Z13.749 F2500.000
G1 X-15.832 Y165.065 Z14.152 F2500.000
G1 X-14.842 Y165.065 Z14.522 F2500.000
G1 X-13.853 Y165.065 Z14.856 F2500.000
G1 X-12.863 Y165.065 Z15.157 F2500.000
G1 X-11.874 Y165.065 Z15.424 F2500.000
G1 X-10.884 Y165.065 Z15.661 F2500.000
G1 X-9.895 Y165.065 Z15.865 F2500.000
G1 X-8.905 Y165.065 Z16.036 F2500.000
G1 X-7.916 Y165.065 Z16.179 F2500.000
G1 X-6.926 Y165.065 Z16.289 F2500.000
G1 X-5.937 Y165.065 Z16.368 F2500.000
G1 X-4.947 Y165.065 Z16.417 F2500.000
G1 X-3.958 Y165.065 Z16.439 F2500.000
G1 X-1.979 Y165.065 Z16.457 F2500.000
G1 X0.000 Y165.065 Z16.461 F2500.000
G1 X1.979 Y165.065 Z16.456 F2500.000
G1 X3.958 Y165.065 Z16.439 F2500.000
G1 X4.947 Y165.065 Z16.417 F2500.000
G1 X5.937 Y165.065 Z16.368 F2500.000
G1 X6.926 Y165.065 Z16.289 F2500.000
G1 X7.916 Y165.065 Z16.179 F2500.000
G1 X8.905 Y165.065 Z16.038 F2500.000
G1 X9.895 Y165.065 Z15.865 F2500.000
G1 X10.884 Y165.065 Z15.661 F2500.000
G1 X11.874 Y165.065 Z15.425 F2500.000
G1 X12.863 Y165.065 Z15.157 F2500.000
G1 X13.853 Y165.065 Z14.856 F2500.000
G1 X14.842 Y165.065 Z14.521 F2500.000
G1 X15.832 Y165.065 Z14.152 F2500.000
G1 X16.821 Y165.065 Z13.749 F2500.000
G1 X17.811 Y165.065 Z13.308 F2500.000
G1 X18.800 Y165.065 Z12.829 F2500.000
G1 X19.790 Y165.065 Z12.773 F2500.000
G1 X31.664 Y165.065 Z12.773 F2500.000
(End of step 26.)
G0 Z19.770
G0 X31.565 Y171.465
(Begin step 27.)
G0 X31.565 Y171.465
(part 1)
G1 X31.565 Y171.465 Z12.773 F2500.000
G1 X19.728 Y171.465 Z12.773 F2500.000
G1 X18.742 Y171.465 Z12.780 F2500.000
G1 X17.756 Y171.465 Z13.257 F2500.000
G1 X16.769 Y171.465 Z13.697 F2500.000
G1 X15.783 Y171.465 Z14.101 F2500.000
G1 X14.796 Y171.465 Z14.469 F2500.000
G1 X13.810 Y171.465 Z14.802 F2500.000
G1 X12.823 Y171.465 Z15.104 F2500.000
G1 X11.837 Y171.465 Z15.372 F2500.000
G1 X10.851 Y171.465 Z15.608 F2500.000
G1 X9.864 Y171.465 Z15.812 F2500.000
G1 X8.878 Y171.465 Z15.985 F2500.000
G1 X7.891 Y171.465 Z16.126 F2500.000
G1 X6.905 Y171.465 Z16.236 F2500.000
G1 X5.919 Y171.465 Z16.314 F2500.000
G1 X4.932 Y171.465 Z16.363 F2500.000
G1 X3.946 Y171.465 Z16.387 F2500.000
G1 X1.973 Y171.465 Z16.403 F2500.000
G1 X0.000 Y171.465 Z16.408 F2500.000
G1 X-1.973 Y171.465 Z16.403 F2500.000
G1 X-3.946 Y171.465 Z16.387 F2500.000
G1 X-4.932 Y171.465 Z16.364 F2500.000
G1 X-5.919 Y171.465 Z16.315 F2500.000
G1 X-6.905 Y171.465 Z16.236 F2500.000
G1 X-7.891 Y171.465 Z16.126 F2500.000
G1 X-8.878 Y171.465 Z15.985 F2500.000
G1 X-9.864 Y171.465 Z15.812 F2500.000
G1 X-10.851 Y171.465 Z15.608 F2500.000
G1 X-11.837 Y171.465 Z15.372 F2500.000
G1 X-12.823 Y171.465 Z15.103 F2500.000
G1 X-13.810 Y171.465 Z14.802 F2500.000
G1 X-14.796 Y171.465 Z14.469 F2500.000
G1 X-15.783 Y171.465 Z14.101 F2500.000
G1 X-16.769 Y171.465 Z13.697 F2500.000
G1 X-17.756 Y171.465 Z13.258 F2500.000
G1 X-18.742 Y171.465 Z12.780 F2500.000
G1 X-19.728 Y171.465 Z12.773 F2500.000
G1 X-31.565 Y171.465 Z12.773 F2500.000
(End of step 27.)
G0 Z19.770
G0 X-31.467 Y177.865
(Begin step 28.)
G0 X-31.467 Y177.865
(part 1)
G1 X-31.467 Y177.865 Z12.773 F2500.000
G1 X-19.480 Y177.865 Z12.773 F2500.000
G1 X-18.481 Y177.865 Z12.832 F2500.000
G1 X-17.482 Y177.865 Z13.308 F2500.000
G1 X-16.483 Y177.865 Z13.745 F2500.000
G1 X-15.484 Y177.865 Z14.145 F2500.000
G1 X-14.485 Y177.865 Z14.509 F2500.000
G1 X-13.486 Y177.865 Z14.839 F2500.000
G1 X-12.487 Y177.865 Z15.134 F2500.000
G1 X-11.488 Y177.865 Z15.397 F2500.000
G1 X-10.489 Y177.865 Z15.626 F2500.000
G1 X-9.490 Y177.865 Z15.823 F2500.000
G1 X-8.491 Y177.865 Z15.987 F2500.000
G1 X-7.492 Y177.865 Z16.119 F2500.000
G1 X-6.493 Y177.865 Z16.218 F2500.000
G1 X-5.494 Y177.865 Z16.286 F2500.000
G1 X-4.495 Y177.865 Z16.322 F2500.000
G1 X-3.496 Y177.865 Z16.339 F2500.000
G1 X-2.497 Y177.865 Z16.347 F2500.000
G1 X-0.499 Y177.865 Z16.354 F2500.000
G1 X1.498 Y177.865 Z16.352 F2500.000
G1 X3.496 Y177.865 Z16.339 F2500.000
G1 X4.495 Y177.865 Z16.322 F2500.000
G1 X5.494 Y177.865 Z16.286 F2500.000
G1 X6.493 Y177.865 Z16.217 F2500.000
G1 X7.492 Y177.865 Z16.119 F2500.000
G1 X8.491 Y177.865 Z15.987 F2500.000
G1 X9.490 Y177.865 Z15.822 F2500.000
G1 X10.489 Y177.865 Z15.625 F2500.000
G1 X11.488 Y177.865 Z15.397 F2500.000
G1 X12.487 Y177.865 Z15.134 F2500.000
G1 X13.486 Y177.865 Z14.838 F2500.000
G1 X14.485 Y177.865 Z14.510 F2500.000
G1 X15.484 Y177.865 Z14.146 F2500.000
G1 X16.483 Y177.865 Z13.746 F2500.000
G1 X17.482 Y177.865 Z13.308 F2500.000
G1 X18.481 Y177.865 Z12.832 F2500.000
G1 X19.480 Y177.865 Z12.773 F2500.000
G1 X31.467 Y177.865 Z12.773 F2500.000
(End of step 28.)
G0 Z19.770
G0 X31.368 Y184.265
(Begin step 29.)
G0 X31.368 Y184.265
(part 1)
G1 X31.368 Y184.265 Z12.773 F2500.000
G1 X19.419 Y184.265 Z12.773 F2500.000
G1 X18.423 Y184.265 Z12.783 F2500.000
G1 X17.427 Y184.265 Z13.257 F2500.000
G1 X16.431 Y184.265 Z13.694 F2500.000
G1 X15.435 Y184.265 Z14.093 F2500.000
G1 X14.439 Y184.265 Z14.457 F2500.000
G1 X13.444 Y184.265 Z14.785 F2500.000
G1 X12.448 Y184.265 Z15.082 F2500.000
G1 X11.452 Y184.265 Z15.344 F2500.000
G1 X10.456 Y184.265 Z15.573 F2500.000
G1 X9.460 Y184.265 Z15.770 F2500.000
G1 X8.465 Y184.265 Z15.934 F2500.000
G1 X7.469 Y184.265 Z16.066 F2500.000
G1 X6.473 Y184.265 Z16.166 F2500.000
G1 X5.477 Y184.265 Z16.233 F2500.000
G1 X4.481 Y184.265 Z16.270 F2500.000
G1 X3.485 Y184.265 Z16.286 F2500.000
G1 X1.494 Y184.265 Z16.299 F2500.000
G1 X-0.498 Y184.265 Z16.301 F2500.000
G1 X-2.490 Y184.265 Z16.294 F2500.000
G1 X-3.485 Y184.265 Z16.286 F2500.000
G1 X-4.481 Y184.265 Z16.269 F2500.000
G1 X-5.477 Y184.265 Z16.233 F2500.000
G1 X-6.473 Y184.265 Z16.166 F2500.000
G1 X-7.469 Y184.265 Z16.066 F2500.000
G1 X-8.465 Y184.265 Z15.933 F2500.000
G1 X-9.460 Y184.265 Z15.770 F2500.000
G1 X-10.456 Y184.265 Z15.572 F2500.000
G1 X-11.452 Y184.265 Z15.344 F2500.000
G1 X-12.448 Y184.265 Z15.082 F2500.000
G1 X-13.444 Y184.265 Z14.786 F2500.000
G1 X-14.439 Y184.265 Z14.457 F2500.000
G1 X-15.435 Y184.265 Z14.094 F2500.000
G1 X-16.431 Y184.265 Z13.693 F2500.000
G1 X-17.427 Y184.265 Z13.257 F2500.000
G1 X-18.423 Y184.265 Z12.782 F2500.000
G1 X-19.419 Y184.265 Z12.773 F2500.000
G1 X-31.368 Y184.265 Z12.773 F2500.000
(End of step 29.)
G0 Z19.770
G0 X-31.270 Y190.665
(Begin step 30.)
G0 X-31.270 Y190.665
(part 1)
G1 X-31.270 Y190.665 Z12.773 F2500.000
G1 X-18.365 Y190.665 Z12.773 F2500.000
G1 X-16.380 Y190.665 Z13.643 F2500.000
G1 X-15.387 Y190.665 Z14.041 F2500.000
G1 X-14.394 Y190.665 Z14.403 F2500.000
G1 X-13.401 Y190.665 Z14.734 F2500.000
G1 X-12.409 Y190.665 Z15.029 F2500.000
G1 X-11.416 Y190.665 Z15.291 F2500.000
G1 X-10.423 Y190.665 Z15.520 F2500.000
G1 X-9.431 Y190.665 Z15.717 F2500.000
G1 X-8.438 Y190.665 Z15.882 F2500.000
G1 X-7.445 Y190.665 Z16.014 F2500.000
G1 X-6.453 Y190.665 Z16.113 F2500.000
G1 X-5.460 Y190.665 Z16.180 F2500.000
G1 X-4.467 Y190.665 Z16.217 F2500.000
G1 X-3.474 Y190.665 Z16.233 F2500.000
G1 X-1.489 Y190.665 Z16.245 F2500.000
G1 X0.496 Y190.665 Z16.247 F2500.000
G1 X2.482 Y190.665 Z16.241 F2500.000
G1 X3.474 Y190.665 Z16.233 F2500.000
G1 X4.467 Y190.665 Z16.217 F2500.000
G1 X5.460 Y190.665 Z16.180 F2500.000
G1 X6.453 Y190.665 Z16.113 F2500.000
G1 X7.445 Y190.665 Z16.013 F2500.000
G1 X8.438 Y190.665 Z15.882 F2500.000
G1 X9.431 Y190.665 Z15.717 F2500.000
G1 X10.423 Y190.665 Z15.521 F2500.000
G1 X11.416 Y190.665 Z15.291 F2500.000
G1 X12.409 Y190.665 Z15.029 F2500.000
G1 X13.401 Y190.665 Z14.733 F2500.000
G1 X14.394 Y190.665 Z14.403 F2500.000
G1 X15.387 Y190.665 Z14.041 F2500.000
G1 X16.380 Y190.665 Z13.643 F2500.000
G1 X18.365 Y190.665 Z12.773 F2500.000
G1 X31.270 Y190.665 Z12.773 F2500.000
(End of step 30.)
G0 Z19.770
G0 X31.172 Y197.065
(Begin step 31.)
G0 X31.172 Y197.065
(part 1)
G1 X31.172 Y197.065 Z12.773 F2500.000
G1 X18.307 Y197.065 Z12.773 F2500.000
G1 X17.318 Y197.065 Z13.158 F2500.000
G1 X16.328 Y197.065 Z13.592 F2500.000
G1 X15.338 Y197.065 Z13.989 F2500.000
G1 X14.349 Y197.065 Z14.352 F2500.000
G1 X13.359 Y197.065 Z14.681 F2500.000
G1 X12.370 Y197.065 Z14.976 F2500.000
G1 X11.380 Y197.065 Z15.237 F2500.000
G1 X10.391 Y197.065 Z15.467 F2500.000
G1 X9.401 Y197.065 Z15.664 F2500.000
G1 X8.411 Y197.065 Z15.829 F2500.000
G1 X7.422 Y197.065 Z15.961 F2500.000
G1 X6.432 Y197.065 Z16.061 F2500.000
G1 X5.443 Y197.065 Z16.128 F2500.000
G1 X4.453 Y197.065 Z16.164 F2500.000
G1 X3.464 Y197.065 Z16.180 F2500.000
G1 X1.484 Y197.065 Z16.192 F2500.000
G1 X-0.495 Y197.065 Z16.194 F2500.000
G1 X-1.484 Y197.065 Z16.192 F2500.000
G1 X-3.464 Y197.065 Z16.180 F2500.000
G1 X-4.453 Y197.065 Z16.163 F2500.000
G1 X-5.443 Y197.065 Z16.127 F2500.000
G1 X-6.432 Y197.065 Z16.060 F2500.000
G1 X-7.422 Y197.065 Z15.960 F2500.000
G1 X-8.411 Y197.065 Z15.829 F2500.000
G1 X-9.401 Y197.065 Z15.664 F2500.000
G1 X-10.391 Y197.065 Z15.467 F2500.000
G1 X-11.380 Y197.065 Z15.237 F2500.000
G1 X-12.370 Y197.065 Z14.976 F2500.000
G1 X-13.359 Y197.065 Z14.681 F2500.000
G1 X-14.349 Y197.065 Z14.352 F2500.000
G1 X-15.338 Y197.065 Z13.988 F2500.000
G1 X-16.328 Y197.065 Z13.591 F2500.000
G1 X-17.318 Y197.065 Z13.157 F2500.000
G1 X-18.307 Y197.065 Z12.773 F2500.000
G1 X-31.172 Y197.065 Z12.773 F2500.000
(End of step 31.)
G0 Z19.770
G0 X-31.073 Y203.465
(Begin step 32.)
G0 X-31.073 Y203.465
(part 1)
G1 X-31.073 Y203.465 Z12.773 F2500.000
G1 X-18.249 Y203.465 Z12.773 F2500.000
G1 X-17.263 Y203.465 Z13.106 F2500.000
G1 X-16.276 Y203.465 Z13.540 F2500.000
G1 X-15.290 Y203.465 Z13.937 F2500.000
G1 X-14.304 Y203.465 Z14.299 F2500.000
G1 X-13.317 Y203.465 Z14.627 F2500.000
G1 X-12.331 Y203.465 Z14.923 F2500.000
G1 X-11.344 Y203.465 Z15.184 F2500.000
G1 X-10.358 Y203.465 Z15.414 F2500.000
G1 X-9.371 Y203.465 Z15.611 F2500.000
G1 X-8.385 Y203.465 Z15.775 F2500.000
G1 X-7.398 Y203.465 Z15.908 F2500.000
G1 X-6.412 Y203.465 Z16.008 F2500.000
G1 X-5.425 Y203.465 Z16.074 F2500.000
G1 X-4.439 Y203.465 Z16.111 F2500.000
G1 X-3.453 Y203.465 Z16.126 F2500.000
G1 X-1.480 Y203.465 Z16.139 F2500.000
G1 X0.493 Y203.465 Z16.140 F2500.000
G1 X2.466 Y203.465 Z16.134 F2500.000
G1 X3.453 Y203.465 Z16.126 F2500.000
G1 X4.439 Y203.465 Z16.111 F2500.000
G1 X5.425 Y203.465 Z16.074 F2500.000
G1 X6.412 Y203.465 Z16.008 F2500.000
G1 X7.398 Y203.465 Z15.908 F2500.000
G1 X8.385 Y203.465 Z15.775 F2500.000
G1 X9.371 Y203.465 Z15.611 F2500.000
G1 X10.358 Y203.465 Z15.414 F2500.000
G1 X11.344 Y203.465 Z15.184 F2500.000
G1 X12.331 Y203.465 Z14.923 F2500.000
G1 X13.317 Y203.465 Z14.627 F2500.000
G1 X14.304 Y203.465 Z14.299 F2500.000
G1 X15.290 Y203.465 Z13.937 F2500.000
G1 X16.276 Y203.465 Z13.540 F2500.000
G1 X17.263 Y203.465 Z13.106 F2500.000
G1 X18.249 Y203.465 Z12.773 F2500.000
G1 X31.073 Y203.465 Z12.773 F2500.000
(End of step 32.)
G0 Z19.770
G0 X30.975 Y209.865
(Begin step 33.)
G0 X30.975 Y209.865
(part 1)
G1 X30.975 Y209.865 Z12.773 F2500.000
G1 X17.985 Y209.865 Z12.773 F2500.000
G1 X16.986 Y209.865 Z13.157 F2500.000
G1 X15.987 Y209.865 Z13.588 F2500.000
G1 X14.988 Y209.865 Z13.983 F2500.000
G1 X13.989 Y209.865 Z14.341 F2500.000
G1 X12.989 Y209.865 Z14.664 F2500.000
G1 X11.990 Y209.865 Z14.954 F2500.000
G1 X10.991 Y209.865 Z15.210 F2500.000
G1 X9.992 Y209.865 Z15.432 F2500.000
G1 X8.993 Y209.865 Z15.620 F2500.000
G1 X7.993 Y209.865 Z15.776 F2500.000
G1 X6.994 Y209.865 Z15.898 F2500.000
G1 X5.995 Y209.865 Z15.986 F2500.000
G1 X4.996 Y209.865 Z16.039 F2500.000
G1 X3.997 Y209.865 Z16.067 F2500.000
G1 X2.998 Y209.865 Z16.077 F2500.000
G1 X1.998 Y209.865 Z16.084 F2500.000
G1 X0.000 Y209.865 Z16.088 F2500.000
G1 X-1.998 Y209.865 Z16.084 F2500.000
G1 X-2.998 Y209.865 Z16.077 F2500.000
G1 X-3.997 Y209.865 Z16.067 F2500.000
G1 X-4.996 Y209.865 Z16.039 F2500.000
G1 X-5.995 Y209.865 Z15.986 F2500.000
G1 X-6.994 Y209.865 Z15.898 F2500.000
G1 X-7.993 Y209.865 Z15.776 F2500.000
G1 X-8.993 Y209.865 Z15.620 F2500.000
G1 X-9.992 Y209.865 Z15.433 F2500.000
G1 X-10.991 Y209.865 Z15.210 F2500.000
G1 X-11.990 Y209.865 Z14.954 F2500.000
G1 X-12.989 Y209.865 Z14.664 F2500.000
G1 X-13.989 Y209.865 Z14.341 F2500.000
G1 X-14.988 Y209.865 Z13.983 F2500.000
G1 X-15.987 Y209.865 Z13.588 F2500.000
G1 X-16.986 Y209.865 Z13.157 F2500.000
G1 X-17.985 Y209.865 Z12.773 F2500.000
G1 X-30.975 Y209.865 Z12.773 F2500.000
(End of step 33.)
G0 Z19.770
G0 X-30.876 Y216.265
(Begin step 34.)
G0 X-30.876 Y216.265
(part 1)
G1 X-30.876 Y216.265 Z12.773 F2500.000
G1 X-17.928 Y216.265 Z12.773 F2500.000
G1 X-16.932 Y216.265 Z13.109 F2500.000
G1 X-15.936 Y216.265 Z13.538 F2500.000
G1 X-14.940 Y216.265 Z13.930 F2500.000
G1 X-13.944 Y216.265 Z14.288 F2500.000
G1 X-12.948 Y216.265 Z14.613 F2500.000
G1 X-11.952 Y216.265 Z14.901 F2500.000
G1 X-10.956 Y216.265 Z15.157 F2500.000
G1 X-9.960 Y216.265 Z15.379 F2500.000
G1 X-8.964 Y216.265 Z15.568 F2500.000
G1 X-7.968 Y216.265 Z15.724 F2500.000
G1 X-6.972 Y216.265 Z15.846 F2500.000
G1 X-5.976 Y216.265 Z15.934 F2500.000
G1 X-4.980 Y216.265 Z15.988 F2500.000
G1 X-3.984 Y216.265 Z16.014 F2500.000
G1 X-2.988 Y216.265 Z16.024 F2500.000
G1 X-1.992 Y216.265 Z16.031 F2500.000
G1 X0.000 Y216.265 Z16.035 F2500.000
G1 X1.992 Y216.265 Z16.031 F2500.000
G1 X2.988 Y216.265 Z16.024 F2500.000
G1 X3.984 Y216.265 Z16.014 F2500.000
G1 X4.980 Y216.265 Z15.988 F2500.000
G1 X5.976 Y216.265 Z15.934 F2500.000
G1 X6.972 Y216.265 Z15.846 F2500.000
G1 X7.968 Y216.265 Z15.724 F2500.000
G1 X8.964 Y216.265 Z15.568 F2500.000
G1 X9.960 Y216.265 Z15.379 F2500.000
G1 X10.956 Y216.265 Z15.157 F2500.000
G1 X11.952 Y216.265 Z14.901 F2500.000
G1 X12.948 Y216.265 Z14.613 F2500.000
G1 X13.944 Y216.265 Z14.288 F2500.000
G1 X14.940 Y216.265 Z13.930 F2500.000
G1 X15.936 Y216.265 Z13.538 F2500.000
G1 X16.932 Y216.265 Z13.109 F2500.000
G1 X17.928 Y216.265 Z12.773 F2500.000
G1 X30.876 Y216.265 Z12.773 F2500.000
(End of step 34.)
G0 Z19.770
G0 X30.778 Y222.665
(Begin step 35.)
G0 X30.778 Y222.665
(part 1)
G1 X30.778 Y222.665 Z12.773 F2500.000
G1 X17.871 Y222.665 Z12.773 F2500.000
G1 X16.878 Y222.665 Z13.059 F2500.000
G1 X15.885 Y222.665 Z13.488 F2500.000
G1 X14.892 Y222.665 Z13.880 F2500.000
G1 X13.900 Y222.665 Z14.237 F2500.000
G1 X12.907 Y222.665 Z14.560 F2500.000
G1 X11.914 Y222.665 Z14.850 F2500.000
G1 X10.921 Y222.665 Z15.105 F2500.000
G1 X9.928 Y222.665 Z15.327 F2500.000
G1 X8.935 Y222.665 Z15.516 F2500.000
G1 X7.943 Y222.665 Z15.671 F2500.000
G1 X6.950 Y222.665 Z15.793 F2500.000
G1 X5.957 Y222.665 Z15.881 F2500.000
G1 X4.964 Y222.665 Z15.934 F2500.000
G1 X3.971 Y222.665 Z15.961 F2500.000
G1 X2.978 Y222.665 Z15.971 F2500.000
G1 X1.986 Y222.665 Z15.977 F2500.000
G1 X0.000 Y222.665 Z15.982 F2500.000
G1 X-2.978 Y222.665 Z15.972 F2500.000
G1 X-3.971 Y222.665 Z15.961 F2500.000
G1 X-4.964 Y222.665 Z15.935 F2500.000
G1 X-5.957 Y222.665 Z15.881 F2500.000
G1 X-6.950 Y222.665 Z15.793 F2500.000
G1 X-7.943 Y222.665 Z15.672 F2500.000
G1 X-8.935 Y222.665 Z15.516 F2500.000
G1 X-9.928 Y222.665 Z15.327 F2500.000
G1 X-10.921 Y222.665 Z15.105 F2500.000
G1 X-11.914 Y222.665 Z14.850 F2500.000
G1 X-12.907 Y222.665 Z14.561 F2500.000
G1 X-13.900 Y222.665 Z14.237 F2500.000
G1 X-14.892 Y222.665 Z13.880 F2500.000
G1 X-15.885 Y222.665 Z13.488 F2500.000
G1 X-16.878 Y222.665 Z13.059 F2500.000
G1 X-17.871 Y222.665 Z12.773 F2500.000
G1 X-30.778 Y222.665 Z12.773 F2500.000
(End of step 35.)
G0 Z19.770
G0 X-30.679 Y229.065
(Begin step 36.)
G0 X-30.679 Y229.065
(part 1)
G1 X-30.679 Y229.065 Z12.773 F2500.000
G1 X-17.814 Y229.065 Z12.773 F2500.000
G1 X-16.824 Y229.065 Z13.009 F2500.000
G1 X-15.834 Y229.065 Z13.436 F2500.000
G1 X-14.845 Y229.065 Z13.827 F2500.000
G1 X-13.855 Y229.065 Z14.185 F2500.000
G1 X-12.866 Y229.065 Z14.508 F2500.000
G1 X-11.876 Y229.065 Z14.796 F2500.000
G1 X-10.886 Y229.065 Z15.053 F2500.000
G1 X-9.897 Y229.065 Z15.275 F2500.000
G1 X-8.907 Y229.065 Z15.464 F2500.000
G1 X-7.917 Y229.065 Z15.618 F2500.000
G1 X-6.928 Y229.065 Z15.741 F2500.000
G1 X-5.938 Y229.065 Z15.829 F2500.000
G1 X-4.948 Y229.065 Z15.882 F2500.000
G1 X-3.959 Y229.065 Z15.908 F2500.000
G1 X-2.969 Y229.065 Z15.917 F2500.000
G1 X-1.979 Y229.065 Z15.923 F2500.000
G1 X0.000 Y229.065 Z15.928 F2500.000
G1 X1.979 Y229.065 Z15.925 F2500.000
G1 X2.969 Y229.065 Z15.918 F2500.000
G1 X3.959 Y229.065 Z15.907 F2500.000
G1 X4.948 Y229.065 Z15.882 F2500.000
G1 X5.938 Y229.065 Z15.829 F2500.000
G1 X6.928 Y229.065 Z15.741 F2500.000
G1 X7.917 Y229.065 Z15.618 F2500.000
G1 X8.907 Y229.065 Z15.464 F2500.000
G1 X9.897 Y229.065 Z15.275 F2500.000
G1 X10.886 Y229.065 Z15.052 F2500.000
G1 X11.876 Y229.065 Z14.797 F2500.000
G1 X12.866 Y229.065 Z14.508 F2500.000
G1 X13.855 Y229.065 Z14.186 F2500.000
G1 X14.845 Y229.065 Z13.828 F2500.000
G1 X15.834 Y229.065 Z13.436 F2500.000
G1 X16.824 Y229.065 Z13.009 F2500.000
G1 X17.814 Y229.065 Z12.773 F2500.000
G1 X30.679 Y229.065 Z12.773 F2500.000
(End of step 36.)
G0 Z19.770
G0 X30.581 Y235.465
(Begin step 37.)
G0 X30.581 Y235.465
(part 1)
G1 X30.581 Y235.465 Z12.773 F2500.000
G1 X17.757 Y235.465 Z12.773 F2500.000
G1 X16.770 Y235.465 Z12.959 F2500.000
G1 X15.784 Y235.465 Z13.386 F2500.000
G1 X14.797 Y235.465 Z13.777 F2500.000
G1 X13.811 Y235.465 Z14.133 F2500.000
G1 X12.824 Y235.465 Z14.455 F2500.000
G1 X11.838 Y235.465 Z14.745 F2500.000
G1 X10.851 Y235.465 Z15.001 F2500.000
G1 X9.865 Y235.465 Z15.223 F2500.000
G1 X8.878 Y235.465 Z15.410 F2500.000
G1 X7.892 Y235.465 Z15.566 F2500.000
G1 X6.905 Y235.465 Z15.688 F2500.000
G1 X5.919 Y235.465 Z15.775 F2500.000
G1 X4.932 Y235.465 Z15.829 F2500.000
G1 X3.946 Y235.465 Z15.854 F2500.000
G1 X2.959 Y235.465 Z15.865 F2500.000
G1 X1.973 Y235.465 Z15.871 F2500.000
G1 X0.000 Y235.465 Z15.875 F2500.000
G1 X-1.973 Y235.465 Z15.871 F2500.000
G1 X-2.959 Y235.465 Z15.865 F2500.000
G1 X-3.946 Y235.465 Z15.854 F2500.000
G1 X-4.932 Y235.465 Z15.829 F2500.000
G1 X-5.919 Y235.465 Z15.775 F2500.000
G1 X-6.905 Y235.465 Z15.688 F2500.000
G1 X-7.892 Y235.465 Z15.566 F2500.000
G1 X-8.878 Y235.465 Z15.411 F2500.000
G1 X-9.865 Y235.465 Z15.222 F2500.000
G1 X-10.851 Y235.465 Z15.000 F2500.000
G1 X-11.838 Y235.465 Z14.745 F2500.000
G1 X-12.824 Y235.465 Z14.456 F2500.000
G1 X-13.811 Y235.465 Z14.134 F2500.000
G1 X-14.797 Y235.465 Z13.777 F2500.000
G1 X-15.784 Y235.465 Z13.385 F2500.000
G1 X-16.770 Y235.465 Z12.959 F2500.000
G1 X-17.757 Y235.465 Z12.773 F2500.000
G1 X-30.581 Y235.465 Z12.773 F2500.000
(End of step 37.)
G0 Z19.770
G0 X-30.273 Y241.865
(Begin step 38.)
G0 X-30.273 Y241.865
(part 1)
G1 X-30.273 Y241.865 Z12.773 F2500.000
G1 X-17.370 Y241.865 Z12.773 F2500.000
G1 X-16.377 Y241.865 Z12.974 F2500.000
G1 X-15.385 Y241.865 Z13.400 F2500.000
G1 X-14.392 Y241.865 Z13.789 F2500.000
G1 X-13.400 Y241.865 Z14.143 F2500.000
G1 X-12.407 Y241.865 Z14.463 F2500.000
G1 X-11.414 Y241.865 Z14.748 F2500.000
G1 X-10.422 Y241.865 Z15.000 F2500.000
G1 X-9.429 Y241.865 Z15.218 F2500.000
G1 X-8.437 Y241.865 Z15.402 F2500.000
G1 X-7.444 Y241.865 Z15.552 F2500.000
G1 X-6.452 Y241.865 Z15.667 F2500.000
G1 X-5.459 Y241.865 Z15.747 F2500.000
G1 X-4.467 Y241.865 Z15.791 F2500.000
G1 X-3.474 Y241.865 Z15.806 F2500.000
G1 X-1.489 Y241.865 Z15.820 F2500.000
G1 X0.496 Y241.865 Z15.822 F2500.000
G1 X2.481 Y241.865 Z15.815 F2500.000
G1 X3.474 Y241.865 Z15.806 F2500.000
G1 X4.467 Y241.865 Z15.791 F2500.000
G1 X5.459 Y241.865 Z15.747 F2500.000
G1 X6.452 Y241.865 Z15.667 F2500.000
G1 X7.444 Y241.865 Z15.552 F2500.000
G1 X8.437 Y241.865 Z15.402 F2500.000
G1 X9.429 Y241.865 Z15.218 F2500.000
G1 X10.422 Y241.865 Z15.000 F2500.000
G1 X11.415 Y241.865 Z14.748 F2500.000
G1 X12.407 Y241.865 Z14.463 F2500.000
G1 X13.400 Y241.865 Z14.143 F2500.000
G1 X14.392 Y241.865 Z13.789 F2500.000
G1 X15.385 Y241.865 Z13.400 F2500.000
G1 X16.377 Y241.865 Z12.974 F2500.000
G1 X17.370 Y241.865 Z12.773 F2500.000
G1 X30.273 Y241.865 Z12.773 F2500.000
(End of step 38.)
(End of layer 1)
(Layer 2 begins)
(Layer transition)
G0 Z19.770
G0 X-33.973 Y-1.335
(Begin step 0.)
G0 X-33.973 Y-1.335
(part 1)
G1 X-33.973 Y-1.335 Z8.773 F2500.000
G1 X-27.978 Y-1.335 Z8.773 F2500.000
G1 X-26.979 Y-1.335 Z9.358 F2500.000
G1 X-25.980 Y-1.335 Z10.222 F2500.000
G1 X-24.980 Y-1.335 Z11.022 F2500.000
G1 X-23.981 Y-1.335 Z11.761 F2500.000
G1 X-22.982 Y-1.335 Z12.443 F2500.000
G1 X-21.983 Y-1.335 Z13.071 F2500.000
G1 X-20.983 Y-1.335 Z13.649 F2500.000
G1 X-19.984 Y-1.335 Z14.180 F2500.000
G1 X-18.985 Y-1.335 Z14.665 F2500.000
G1 X-17.986 Y-1.335 Z15.108 F2500.000
G1 X-16.987 Y-1.335 Z15.510 F2500.000
G1 X-15.987 Y-1.335 Z15.873 F2500.000
G1 X-14.988 Y-1.335 Z16.201 F2500.000
G1 X-13.989 Y-1.335 Z16.493 F2500.000
G1 X-12.990 Y-1.335 Z16.752 F2500.000
G1 X-11.991 Y-1.335 Z16.979 F2500.000
G1 X-10.991 Y-1.335 Z17.175 F2500.000
G1 X-9.992 Y-1.335 Z17.343 F2500.000
G1 X-8.993 Y-1.335 Z17.482 F2500.000
G1 X-7.994 Y-1.335 Z17.595 F2500.000
G1 X-6.994 Y-1.335 Z17.682 F2500.000
G1 X-5.995 Y-1.335 Z17.745 F2500.000
G1 X-4.996 Y-1.335 Z17.783 F2500.000
G1 X-3.997 Y-1.335 Z17.799 F2500.000
G1 X-2.998 Y-1.335 Z17.800 F2500.000
G1 X3.997 Y-1.335 Z17.799 F2500.000
G1 X4.996 Y-1.335 Z17.783 F2500.000
G1 X5.995 Y-1.335 Z17.744 F2500.000
G1 X6.994 Y-1.335 Z17.682 F2500.000
G1 X7.994 Y-1.335 Z17.595 F2500.000
G1 X8.993 Y-1.335 Z17.482 F2500.000
G1 X9.992 Y-1.335 Z17.343 F2500.000
G1 X10.991 Y-1.335 Z17.175 F2500.000
G1 X11.991 Y-1.335 Z16.979 F2500.000
G1 X12.990 Y-1.335 Z16.752 F2500.000
G1 X13.989 Y-1.335 Z16.493 F2500.000
G1 X14.988 Y-1.335 Z16.201 F2500.000
G1 X15.987 Y-1.335 Z15.874 F2500.000
G1 X16.987 Y-1.335 Z15.510 F2500.000
G1 X17.986 Y-1.335 Z15.108 F2500.000
G1 X18.985 Y-1.335 Z14.665 F2500.000
G1 X19.984 Y-1.335 Z14.179 F2500.000
G1 X20.983 Y-1.335 Z13.649 F2500.000
G1 X21.983 Y-1.335 Z13.071 F2500.000
G1 X22.982 Y-1.335 Z12.443 F2500.000
G1 X23.981 Y-1.335 Z11.761 F2500.000
G1 X24.980 Y-1.335 Z11.022 F2500.000
G1 X25.980 Y-1.335 Z10.222 F2500.000
G1 X26.979 Y-1.335 Z9.358 F2500.000
G1 X27.978 Y-1.335 Z8.773 F2500.000
G1 X33.973 Y-1.335 Z8.773 F2500.000
(End of step 0.)
G0 Z19.770
G0 X34.125 Y5.065
(Begin step 1.)
G0 X34.125 Y5.065
(part 1)
G1 X34.125 Y5.065 Z8.773 F2500.000
G1 X28.190 Y5.065 Z8.773 F2500.000
G1 X27.201 Y5.065 Z9.286 F2500.000
G1 X26.212 Y5.065 Z10.144 F2500.000
G1 X25.223 Y5.065 Z10.938 F2500.000
G1 X24.234 Y5.065 Z11.673 F2500.000
G1 X23.245 Y5.065 Z12.351 F2500.000
G1 X22.255 Y5.065 Z12.977 F2500.000
G1 X21.266 Y5.065 Z13.554 F2500.000
G1 X20.277 Y5.065 Z14.083 F2500.000
G1 X19.288 Y5.065 Z14.568 F2500.000
G1 X18.299 Y5.065 Z15.011 F2500.000
G1 X17.310 Y5.065 Z15.415 F2500.000
G1 X16.321 Y5.065 Z15.780 F2500.000
G1 X15.332 Y5.065 Z16.109 F2500.000
G1 X14.342 Y5.065 Z16.405 F2500.000
G1 X13.353 Y5.065 Z16.667 F2500.000
G1 X12.364 Y5.065 Z16.898 F2500.000
G1 X11.375 Y5.065 Z17.098 F2500.000
G1 X10.386 Y5.065 Z17.270 F2500.000
G1 X9.397 Y5.065 Z17.415 F2500.000
G1 X8.408 Y5.065 Z17.531 F2500.000
G1 X7.418 Y5.065 Z17.625 F2500.000
G1 X6.429 Y5.065 Z17.692 F2500.000
G1 X5.440 Y5.065 Z17.738 F2500.000
G1 X4.451 Y5.065 Z17.764 F2500.000
G1 X3.462 Y5.065 Z17.777 F2500.000
G1 X2.473 Y5.065 Z17.785 F2500.000
G1 X-0.495 Y5.065 Z17.791 F2500.000
G1 X-2.473 Y5.065 Z17.785 F2500.000
G1 X-3.462 Y5.065 Z17.777 F2500.000
G1 X-4.451 Y5.065 Z17.764 F2500.000
G1 X-5.440 Y5.065 Z17.739 F2500.000
G1 X-6.429 Y5.065 Z17.692 F2500.000
G1 X-7.418 Y5.065 Z17.624 F2500.000
G1 X-8.408 Y5.065 Z17.532 F2500.000
G1 X-9.397 Y5.065 Z17.414 F2500.000
G1 X-10.386 Y5.065 Z17.270 F2500.000
G1 X-11.375 Y5.065 Z17.099 F2500.000
G1 X-12.364 Y5.065 Z16.898 F2500.000
G1 X-13.353 Y5.065 Z16.667 F2500.000
G1 X-14.342 Y5.065 Z16.405 F2500.000
G1 X-15.332 Y5.065 Z16.110 F2500.000
G1 X-16.321 Y5.065 Z15.780 F2500.000
G1 X-17.310 Y5.065 Z15.414 F2500.000
G1 X-18.299 Y5.065 Z15.011 F2500.000
G1 X-19.288 Y5.065 Z14.568 F2500.000
G1 X-20.277 Y5.065 Z14.083 F2500.000
G1 X-21.266 Y5.065 Z13.554 F2500.000
G1 X-22.255 Y5.065 Z12.977 F2500.000
G1 X-23.245 Y5.065 Z12.351 F2500.000
G1 X-24.234 Y5.065 Z11.673 F2500.000
G1 X-25.223 Y5.065 Z10.938 F2500.000
G1 X-26.212 Y5.065 Z10.144 F2500.000
G1 X-27.201 Y5.065 Z9.286 F2500.000
G1 X-28.190 Y5.065 Z8.773 F2500.000
G1 X-34.125 Y5.065 Z8.773 F2500.000
(End of step 1.)
G0 Z19.770
G0 X-34.027 Y11.465
(Begin step 2.)
G0 X-34.027 Y11.465
(part 1)
G1 X-34.027 Y11.465 Z8.773 F2500.000
G1 X-28.109 Y11.465 Z8.773 F2500.000
G1 X-27.123 Y11.465 Z9.259 F2500.000
G1 X-26.136 Y11.465 Z10.113 F2500.000
G1 X-25.150 Y11.465 Z10.902 F2500.000
G1 X-24.164 Y11.465 Z11.632 F2500.000
G1 X-23.178 Y11.465 Z12.307 F2500.000
G1 X-22.191 Y11.465 Z12.931 F2500.000
G1 X-21.205 Y11.465 Z13.504 F2500.000
G1 X-20.219 Y11.465 Z14.032 F2500.000
G1 X-19.232 Y11.465 Z14.515 F2500.000
G1 X-18.246 Y11.465 Z14.956 F2500.000
G1 X-17.260 Y11.465 Z15.359 F2500.000
G1 X-16.274 Y11.465 Z15.723 F2500.000
G1 X-15.287 Y11.465 Z16.053 F2500.000
G1 X-14.301 Y11.465 Z16.348 F2500.000
G1 X-13.315 Y11.465 Z16.610 F2500.000
G1 X-12.328 Y11.465 Z16.841 F2500.000
G1 X-11.342 Y11.465 Z17.042 F2500.000
G1 X-10.356 Y11.465 Z17.215 F2500.000
G1 X-9.370 Y11.465 Z17.360 F2500.000
G1 X-8.383 Y11.465 Z17.478 F2500.000
G1 X-7.397 Y11.465 Z17.571 F2500.000
G1 X-6.411 Y11.465 Z17.640 F2500.000
G1 X-5.425 Y11.465 Z17.685 F2500.000
G1 X-4.438 Y11.465 Z17.711 F2500.000
G1 X-3.452 Y11.465 Z17.723 F2500.000
G1 X-2.466 Y11.465 Z17.731 F2500.000
G1 X-0.493 Y11.465 Z17.738 F2500.000
G1 X2.466 Y11.465 Z17.731 F2500.000
G1 X4.438 Y11.465 Z17.711 F2500.000
G1 X5.425 Y11.465 Z17.685 F2500.000
G1 X6.411 Y11.465 Z17.639 F2500.000
G1 X7.397 Y11.465 Z17.571 F2500.000
G1 X8.383 Y11.465 Z17.478 F2500.000
G1 X9.370 Y11.465 Z17.360 F2500.000
G1 X10.356 Y11.465 Z17.215 F2500.000
G1 X11.342 Y11.465 Z17.042 F2500.000
G1 X12.328 Y11.465 Z16.841 F2500.000
G1 X13.315 Y11.465 Z16.610 F2500.000
G1 X14.301 Y11.465 Z16.348 F2500.000
G1 X15.287 Y11.465 Z16.053 F2500.000
G1 X16.274 Y11.465 Z15.724 F2500.000
G1 X17.260 Y11.465 Z15.359 F2500.000
G1 X18.246 Y11.465 Z14.956 F2500.000
G1 X19.232 Y11.465 Z14.515 F2500.000
G1 X20.219 Y11.465 Z14.031 F2500.000
G1 X21.205 Y11.465 Z13.504 F2500.000
G1 X22.191 Y11.465 Z12.931 F2500.000
G1 X23.178 Y11.465 Z12.307 F2500.000
G1 X24.164 Y11.465 Z11.633 F2500.000
G1 X25.150 Y11.465 Z10.902 F2500.000
G1 X26.136 Y11.465 Z10.113 F2500.000
G1 X27.123 Y11.465 Z9.259 F2500.000
G1 X28.109 Y11.465 Z8.773 F2500.000
G1 X34.027 Y11.465 Z8.773 F2500.000
(End of step 2.)
G0 Z19.770
G0 X33.928 Y17.865
(Begin step 3.)
G0 X33.928 Y17.865
(part 1)
G1 X33.928 Y17.865 Z8.773 F2500.000
G1 X27.941 Y17.865 Z8.773 F2500.000
G1 X26.943 Y17.865 Z9.322 F2500.000
G1 X25.945 Y17.865 Z10.176 F2500.000
G1 X24.947 Y17.865 Z10.966 F2500.000
G1 X23.949 Y17.865 Z11.694 F2500.000
G1 X22.951 Y17.865 Z12.368 F2500.000
G1 X21.954 Y17.865 Z12.987 F2500.000
G1 X20.956 Y17.865 Z13.558 F2500.000
G1 X19.958 Y17.865 Z14.083 F2500.000
G1 X18.960 Y17.865 Z14.562 F2500.000
G1 X17.962 Y17.865 Z15.000 F2500.000
G1 X16.964 Y17.865 Z15.398 F2500.000
G1 X15.966 Y17.865 Z15.758 F2500.000
G1 X14.968 Y17.865 Z16.082 F2500.000
G1 X13.970 Y17.865 Z16.371 F2500.000
G1 X12.973 Y17.865 Z16.628 F2500.000
G1 X11.975 Y17.865 Z16.854 F2500.000
G1 X10.977 Y17.865 Z17.048 F2500.000
G1 X9.979 Y17.865 Z17.214 F2500.000
G1 X8.981 Y17.865 Z17.351 F2500.000
G1 X7.983 Y17.865 Z17.462 F2500.000
G1 X6.985 Y17.865 Z17.547 F2500.000
G1 X5.987 Y17.865 Z17.608 F2500.000
G1 X4.989 Y17.865 Z17.645 F2500.000
G1 X3.992 Y17.865 Z17.665 F2500.000
G1 X2.994 Y17.865 Z17.674 F2500.000
G1 X1.996 Y17.865 Z17.680 F2500.000
G1 X0.000 Y17.865 Z17.685 F2500.000
G1 X-2.994 Y17.865 Z17.675 F2500.000
G1 X-3.992 Y17.865 Z17.665 F2500.000
G1 X-4.989 Y17.865 Z17.645 F2500.000
G1 X-5.987 Y17.865 Z17.608 F2500.000
G1 X-6.985 Y17.865 Z17.548 F2500.000
G1 X-7.983 Y17.865 Z17.462 F2500.000
G1 X-8.981 Y17.865 Z17.351 F2500.000
G1 X-9.979 Y17.865 Z17.214 F2500.000
G1 X-10.977 Y17.865 Z17.048 F2500.000
G1 X-11.975 Y17.865 Z16.854 F2500.000
G1 X-12.973 Y17.865 Z16.628 F2500.000
G1 X-13.970 Y17.865 Z16.371 F2500.000
G1 X-14.968 Y17.865 Z16.082 F2500.000
G1 X-15.966 Y17.865 Z15.758 F2500.000
G1 X-16.964 Y17.865 Z15.398 F2500.000
G1 X-17.962 Y17.865 Z15.000 F2500.000
G1 X-18.960 Y17.865 Z14.562 F2500.000
G1 X-19.958 Y17.865 Z14.083 F2500.000
G1 X-20.956 Y17.865 Z13.558 F2500.000
G1 X-21.954 Y17.865 Z12.987 F2500.000
G1 X-22.951 Y17.865 Z12.368 F2500.000
G1 X-23.949 Y17.865 Z11.694 F2500.000
G1 X-24.947 Y17.865 Z10.965 F2500.000
G1 X-25.945 Y17.865 Z10.176 F2500.000
G1 X-26.943 Y17.865 Z9.321 F2500.000
G1 X-27.941 Y17.865 Z8.773 F2500.000
G1 X-33.928 Y17.865 Z8.773 F2500.000
(End of step 3.)
G0 Z19.770
G0 X-33.830 Y24.265
(Begin step 4.)
G0 X-33.830 Y24.265
(part 1)
G1 X-33.830 Y24.265 Z8.773 F2500.000
G1 X-27.860 Y24.265 Z8.773 F2500.000
G1 X-26.865 Y24.265 Z9.294 F2500.000
G1 X-25.870 Y24.265 Z10.143 F2500.000
G1 X-24.875 Y24.265 Z10.929 F2500.000
G1 X-23.880 Y24.265 Z11.653 F2500.000
G1 X-22.885 Y24.265 Z12.324 F2500.000
G1 X-21.890 Y24.265 Z12.940 F2500.000
G1 X-20.895 Y24.265 Z13.508 F2500.000
G1 X-19.900 Y24.265 Z14.029 F2500.000
G1 X-18.905 Y24.265 Z14.509 F2500.000
G1 X-17.910 Y24.265 Z14.945 F2500.000
G1 X-16.915 Y24.265 Z15.341 F2500.000
G1 X-15.920 Y24.265 Z15.701 F2500.000
G1 X-14.925 Y24.265 Z16.025 F2500.000
G1 X-13.930 Y24.265 Z16.314 F2500.000
G1 X-12.935 Y24.265 Z16.572 F2500.000
G1 X-11.940 Y24.265 Z16.797 F2500.000
G1 X-10.945 Y24.265 Z16.992 F2500.000
G1 X-9.950 Y24.265 Z17.158 F2500.000
G1 X-8.955 Y24.265 Z17.297 F2500.000
G1 X-7.960 Y24.265 Z17.409 F2500.000
G1 X-6.965 Y24.265 Z17.494 F2500.000
G1 X-5.970 Y24.265 Z17.555 F2500.000
G1 X-4.975 Y24.265 Z17.592 F2500.000
G1 X-3.980 Y24.265 Z17.611 F2500.000
G1 X-2.985 Y24.265 Z17.621 F2500.000
G1 X0.000 Y24.265 Z17.631 F2500.000
G1 X1.990 Y24.265 Z17.627 F2500.000
G1 X2.985 Y24.265 Z17.621 F2500.000
G1 X3.980 Y24.265 Z17.611 F2500.000
G1 X4.975 Y24.265 Z17.592 F2500.000
G1 X5.970 Y24.265 Z17.555 F2500.000
G1 X6.965 Y24.265 Z17.494 F2500.000
G1 X7.960 Y24.265 Z17.409 F2500.000
G1 X8.955 Y24.265 Z17.296 F2500.000
G1 X9.950 Y24.265 Z17.158 F2500.000
G1 X10.945 Y24.265 Z16.993 F2500.000
G1 X11.940 Y24.265 Z16.798 F2500.000
G1 X12.935 Y24.265 Z16.572 F2500.000
G1 X13.930 Y24.265 Z16.313 F2500.000
G1 X14.925 Y24.265 Z16.025 F2500.000
G1 X15.920 Y24.265 Z15.702 F2500.000
G1 X16.915 Y24.265 Z15.341 F2500.000
G1 X17.910 Y24.265 Z14.945 F2500.000
G1 X18.905 Y24.265 Z14.509 F2500.000
G1 X19.900 Y24.265 Z14.029 F2500.000
G1 X20.895 Y24.265 Z13.508 F2500.000
G1 X21.890 Y24.265 Z12.941 F2500.000
G1 X22.885 Y24.265 Z12.323 F2500.000
G1 X23.880 Y24.265 Z11.653 F2500.000
G1 X24.875 Y24.265 Z10.929 F2500.000
G1 X25.870 Y24.265 Z10.144 F2500.000
G1 X26.865 Y24.265 Z9.294 F2500.000
G1 X27.860 Y24.265 Z8.773 F2500.000
G1 X33.830 Y24.265 Z8.773 F2500.000
(End of step 4.)
G0 Z19.770
G0 X33.731 Y30.665
(Begin step 5.)
G0 X33.731 Y30.665
(part 1)
G1 X33.731 Y30.665 Z8.773 F2500.000
G1 X27.779 Y30.665 Z8.773 F2500.000
G1 X26.787 Y30.665 Z9.266 F2500.000
G1 X25.794 Y30.665 Z10.111 F2500.000
G1 X24.802 Y30.665 Z10.891 F2500.000
G1 X23.810 Y30.665 Z11.613 F2500.000
G1 X22.818 Y30.665 Z12.279 F2500.000
G1 X21.826 Y30.665 Z12.893 F2500.000
G1 X20.834 Y30.665 Z13.458 F2500.000
G1 X19.842 Y30.665 Z13.979 F2500.000
G1 X18.850 Y30.665 Z14.455 F2500.000
G1 X17.858 Y30.665 Z14.890 F2500.000
G1 X16.866 Y30.665 Z15.287 F2500.000
G1 X15.874 Y30.665 Z15.646 F2500.000
G1 X14.881 Y30.665 Z15.969 F2500.000
G1 X13.889 Y30.665 Z16.259 F2500.000
G1 X12.897 Y30.665 Z16.515 F2500.000
G1 X11.905 Y30.665 Z16.742 F2500.000
G1 X10.913 Y30.665 Z16.937 F2500.000
G1 X9.921 Y30.665 Z17.104 F2500.000
G1 X8.929 Y30.665 Z17.242 F2500.000
G1 X7.937 Y30.665 Z17.355 F2500.000
G1 X6.945 Y30.665 Z17.440 F2500.000
G1 X5.953 Y30.665 Z17.501 F2500.000
G1 X4.960 Y30.665 Z17.539 F2500.000
G1 X3.968 Y30.665 Z17.558 F2500.000
G1 X2.976 Y30.665 Z17.568 F2500.000
G1 X1.984 Y30.665 Z17.574 F2500.000
G1 X0.000 Y30.665 Z17.578 F2500.000
G1 X-1.984 Y30.665 Z17.574 F2500.000
G1 X-2.976 Y30.665 Z17.567 F2500.000
G1 X-3.968 Y30.665 Z17.559 F2500.000
G1 X-4.960 Y30.665 Z17.539 F2500.000
G1 X-5.953 Y30.665 Z17.501 F2500.000
G1 X-6.945 Y30.665 Z17.441 F2500.000
G1 X-7.937 Y30.665 Z17.354 F2500.000
G1 X-8.929 Y30.665 Z17.243 F2500.000
G1 X-9.921 Y30.665 Z17.103 F2500.000
G1 X-10.913 Y30.665 Z16.937 F2500.000
G1 X-11.905 Y30.665 Z16.741 F2500.000
G1 X-12.897 Y30.665 Z16.515 F2500.000
G1 X-13.889 Y30.665 Z16.258 F2500.000
G1 X-14.881 Y30.665 Z15.969 F2500.000
G1 X-15.874 Y30.665 Z15.645 F2500.000
G1 X-16.866 Y30.665 Z15.287 F2500.000
G1 X-17.858 Y30.665 Z14.890 F2500.000
G1 X-18.850 Y30.665 Z14.455 F2500.000
G1 X-19.842 Y30.665 Z13.979 F2500.000
G1 X-20.834 Y30.665 Z13.458 F2500.000
G1 X-21.826 Y30.665 Z12.893 F2500.000
G1 X-22.818 Y30.665 Z12.280 F2500.000
G1 X-23.810 Y30.665 Z11.613 F2500.000
G1 X-24.802 Y30.665 Z10.891 F2500.000
G1 X-25.794 Y30.665 Z10.112 F2500.000
G1 X-26.787 Y30.665 Z9.266 F2500.000
G1 X-27.779 Y30.665 Z8.773 F2500.000
G1 X-33.731 Y30.665 Z8.773 F2500.000
(End of step 5.)
G0 Z19.770
G0 X-33.633 Y37.065
(Begin step 6.)
G0 X-33.633 Y37.065
(part 1)
G1 X-33.633 Y37.065 Z8.773 F2500.000
G1 X-27.698 Y37.065 Z8.773 F2500.000
G1 X-26.708 Y37.065 Z9.238 F2500.000
G1 X-25.719 Y37.065 Z10.078 F2500.000
G1 X-24.730 Y37.065 Z10.855 F2500.000
G1 X-23.741 Y37.065 Z11.571 F2500.000
G1 X-22.752 Y37.065 Z12.234 F2500.000
G1 X-21.762 Y37.065 Z12.846 F2500.000
G1 X-20.773 Y37.065 Z13.409 F2500.000
G1 X-19.784 Y37.065 Z13.927 F2500.000
G1 X-18.795 Y37.065 Z14.402 F2500.000
G1 X-17.806 Y37.065 Z14.835 F2500.000
G1 X-16.816 Y37.065 Z15.231 F2500.000
G1 X-15.827 Y37.065 Z15.589 F2500.000
G1 X-14.838 Y37.065 Z15.913 F2500.000
G1 X-13.849 Y37.065 Z16.201 F2500.000
G1 X-12.860 Y37.065 Z16.458 F2500.000
G1 X-11.870 Y37.065 Z16.685 F2500.000
G1 X-10.881 Y37.065 Z16.881 F2500.000
G1 X-9.892 Y37.065 Z17.049 F2500.000
G1 X-8.903 Y37.065 Z17.188 F2500.000
G1 X-7.914 Y37.065 Z17.301 F2500.000
G1 X-6.924 Y37.065 Z17.387 F2500.000
G1 X-5.935 Y37.065 Z17.448 F2500.000
G1 X-4.946 Y37.065 Z17.486 F2500.000
G1 X-3.957 Y37.065 Z17.505 F2500.000
G1 X-2.968 Y37.065 Z17.515 F2500.000
G1 X0.000 Y37.065 Z17.525 F2500.000
G1 X2.968 Y37.065 Z17.515 F2500.000
G1 X3.957 Y37.065 Z17.505 F2500.000
G1 X4.946 Y37.065 Z17.486 F2500.000
G1 X5.935 Y37.065 Z17.447 F2500.000
G1 X6.924 Y37.065 Z17.386 F2500.000
G1 X7.914 Y37.065 Z17.301 F2500.000
G1 X8.903 Y37.065 Z17.188 F2500.000
G1 X9.892 Y37.065 Z17.049 F2500.000
G1 X10.881 Y37.065 Z16.881 F2500.000
G1 X11.870 Y37.065 Z16.686 F2500.000
G1 X12.860 Y37.065 Z16.458 F2500.000
G1 X13.849 Y37.065 Z16.201 F2500.000
G1 X14.838 Y37.065 Z15.913 F2500.000
G1 X15.827 Y37.065 Z15.589 F2500.000
G1 X16.816 Y37.065 Z15.231 F2500.000
G1 X17.806 Y37.065 Z14.835 F2500.000
G1 X18.795 Y37.065 Z14.402 F2500.000
G1 X19.784 Y37.065 Z13.927 F2500.000
G1 X20.773 Y37.065 Z13.409 F2500.000
G1 X21.762 Y37.065 Z12.847 F2500.000
G1 X22.752 Y37.065 Z12.234 F2500.000
G1 X23.741 Y37.065 Z11.571 F2500.000
G1 X24.730 Y37.065 Z10.854 F2500.000
G1 X25.719 Y37.065 Z10.079 F2500.000
G1 X26.708 Y37.065 Z9.239 F2500.000
G1 X27.698 Y37.065 Z8.773 F2500.000
G1 X33.633 Y37.065 Z8.773 F2500.000
(End of step 6.)
G0 Z19.770
G0 X33.534 Y43.465
(Begin step 7.)
G0 X33.534 Y43.465
(part 1)
