(Exported by FreeCAD)
(Post Processor: grbl_post)
(Output Time:2023-08-26 17:49:20.478452)
(Begin preamble)
G17 G90
G21
(Begin operation: 6 ball L24 Q007)
(Path: 6 ball L24 Q007)
(6 ball L24 Q007)
(Begin toolchange)
( M6 T4 )
M3 S24000
(Finish operation: 6 ball L24 Q007)
(Begin operation: Fixture)
(Path: Fixture)
G54
(Finish operation: Fixture)
(Begin operation: Surface001)
(Path: Surface001)
(Surface001)
(Surface001)
(Tool type: ballend)
(Compensated Tool Path. Diameter: 6.0)
(Sample interval: 1.0)
(Step over %: 15.0)
()
G0 Z28.500
(Beginning of Single-pass layer.)
G0 X41.847 Y211.129
(Begin step 0.)
(part 1.)
G1 X41.847 Y211.129 Z16.554 F2500.000
G1 X41.247 Y211.129 Z16.554 F2500.000
G1 X41.155 Y211.022 Z16.553 F2500.000
G1 X41.499 Y188.625 Z16.368 F2500.000
G1 X41.847 Y211.129 Z16.554 F2500.000
(Break)
G0 Z26.500
G0 X42.761 Y212.029
(part 3.)
G1 X42.761 Y212.029 Z16.545 F2500.000
G1 X41.961 Y212.029 Z16.560 F2500.000
G1 X41.161 Y212.029 Z16.561 F2500.000
G1 X40.361 Y212.029 Z16.548 F2500.000
G1 X40.240 Y211.950 Z16.545 F2500.000
G1 X40.893 Y169.555 Z16.205 F2500.000
G1 X41.499 Y130.160 Z15.882 F2500.000
G1 X41.502 Y130.182 Z15.882 F2500.000
G1 X42.065 Y166.777 Z16.183 F2500.000
G1 X42.761 Y212.029 Z16.545 F2500.000
(Break)
G0 Z26.500
G0 X43.675 Y212.929
(part 5.)
G1 X43.675 Y212.929 Z16.517 F2500.000
G1 X42.835 Y212.929 Z16.550 F2500.000
G1 X41.995 Y212.929 Z16.567 F2500.000
G1 X41.155 Y212.929 Z16.568 F2500.000
G1 X40.315 Y212.929 Z16.555 F2500.000
G1 X39.475 Y212.929 Z16.523 F2500.000
G1 X39.326 Y212.878 Z16.517 F2500.000
G1 X39.951 Y172.283 Z16.203 F2500.000
G1 X40.572 Y131.887 Z15.885 F2500.000
G1 X41.138 Y95.092 Z15.589 F2500.000
G1 X41.501 Y71.620 Z15.395 F2500.000
G1 X42.018 Y105.216 Z15.671 F2500.000
G1 X42.476 Y135.013 Z15.910 F2500.000
G1 X43.058 Y172.808 Z16.207 F2500.000
G1 X43.675 Y212.929 Z16.517 F2500.000
(Break)
G0 Z26.500
G0 X44.589 Y213.828
(part 7.)
G1 X44.589 Y213.828 Z16.470 F2500.000
G1 X43.732 Y213.828 Z16.522 F2500.000
G1 X42.874 Y213.828 Z16.557 F2500.000
G1 X42.017 Y213.828 Z16.575 F2500.000
G1 X41.160 Y213.828 Z16.576 F2500.000
G1 X40.303 Y213.828 Z16.562 F2500.000
G1 X39.446 Y213.828 Z16.531 F2500.000
G1 X38.589 Y213.828 Z16.482 F2500.000
G1 X38.412 Y213.806 Z16.469 F2500.000
G1 X39.338 Y153.613 Z16.017 F2500.000
G1 X40.073 Y105.819 Z15.651 F2500.000
G1 X40.737 Y62.624 Z15.312 F2500.000
G1 X41.288 Y26.828 Z15.021 F2500.000
G1 X41.360 Y26.697 Z15.021 F2500.000
G1 X41.560 Y26.697 Z15.022 F2500.000
G1 X41.711 Y26.747 Z15.021 F2500.000
G1 X42.354 Y68.542 Z15.359 F2500.000
G1 X42.969 Y108.537 Z15.672 F2500.000
G1 X43.661 Y153.532 Z16.017 F2500.000
G1 X44.589 Y213.828 Z16.470 F2500.000
(Break)
G0 Z26.500
G0 X45.503 Y214.728
(part 9.)
G1 X45.503 Y214.728 Z16.403 F2500.000
G1 X44.614 Y214.728 Z16.476 F2500.000
G1 X43.725 Y214.728 Z16.529 F2500.000
G1 X42.836 Y214.728 Z16.566 F2500.000
G1 X41.947 Y214.728 Z16.583 F2500.000
G1 X41.058 Y214.728 Z16.583 F2500.000
G1 X40.169 Y214.728 Z16.566 F2500.000
G1 X39.280 Y214.728 Z16.530 F2500.000
G1 X38.391 Y214.728 Z16.476 F2500.000
G1 X37.503 Y214.728 Z16.403 F2500.000
G1 X37.500 Y214.534 Z16.401 F2500.000
G1 X37.512 Y213.800 Z16.396 F2500.000
G1 X39.165 Y106.347 Z15.607 F2500.000
G1 X39.761 Y67.551 Z15.316 F2500.000
G1 X40.401 Y25.956 Z14.996 F2500.000
G1 X40.445 Y25.797 Z14.997 F2500.000
G1 X41.112 Y25.797 Z15.012 F2500.000
G1 X41.778 Y25.797 Z15.012 F2500.000
G1 X42.445 Y25.797 Z15.000 F2500.000
G1 X42.597 Y25.846 Z14.995 F2500.000
G1 X43.120 Y59.842 Z15.257 F2500.000
G1 X43.828 Y105.837 Z15.604 F2500.000
G1 X45.503 Y214.728 Z16.403 F2500.000
(Break)
G0 Z26.500
G0 X46.417 Y215.629
(part 11.)
G1 X46.417 Y215.629 Z16.316 F2500.000
G1 X45.437 Y215.629 Z16.417 F2500.000
G1 X44.457 Y215.629 Z16.494 F2500.000
G1 X43.477 Y215.629 Z16.550 F2500.000
G1 X42.497 Y215.629 Z16.582 F2500.000
G1 X41.517 Y215.629 Z16.592 F2500.000
G1 X40.537 Y215.629 Z16.583 F2500.000
G1 X39.557 Y215.629 Z16.551 F2500.000
G1 X38.577 Y215.629 Z16.496 F2500.000
G1 X37.597 Y215.629 Z16.419 F2500.000
G1 X36.617 Y215.629 Z16.320 F2500.000
G1 X36.586 Y215.462 Z16.315 F2500.000
G1 X38.512 Y90.276 Z15.421 F2500.000
G1 X39.139 Y49.481 Z15.125 F2500.000
G1 X39.505 Y25.684 Z14.948 F2500.000
G1 X39.515 Y25.084 Z14.945 F2500.000
G1 X39.531 Y24.897 Z14.944 F2500.000
G1 X40.481 Y24.897 Z14.990 F2500.000
G1 X41.431 Y24.897 Z15.007 F2500.000
G1 X42.381 Y24.897 Z14.994 F2500.000
G1 X43.331 Y24.897 Z14.953 F2500.000
G1 X43.483 Y24.946 Z14.944 F2500.000
G1 X44.643 Y100.337 Z15.494 F2500.000
G1 X46.417 Y215.629 Z16.316 F2500.000
(Break)
G0 Z26.500
G0 X47.331 Y216.529
(part 13.)
G1 X47.331 Y216.529 Z16.209 F2500.000
G1 X46.364 Y216.529 Z16.330 F2500.000
G1 X45.397 Y216.529 Z16.429 F2500.000
G1 X44.431 Y216.529 Z16.504 F2500.000
G1 X43.464 Y216.529 Z16.558 F2500.000
G1 X42.497 Y216.529 Z16.589 F2500.000
G1 X41.531 Y216.529 Z16.600 F2500.000
G1 X40.564 Y216.529 Z16.591 F2500.000
G1 X39.597 Y216.529 Z16.560 F2500.000
G1 X38.631 Y216.529 Z16.508 F2500.000
G1 X37.664 Y216.529 Z16.433 F2500.000
G1 X36.697 Y216.529 Z16.337 F2500.000
G1 X35.731 Y216.529 Z16.217 F2500.000
G1 X35.672 Y216.390 Z16.208 F2500.000
G1 X36.281 Y176.794 Z15.930 F2500.000
G1 X37.847 Y75.006 Z15.225 F2500.000
G1 X38.631 Y24.012 Z14.867 F2500.000
G1 X38.816 Y23.997 Z14.883 F2500.000
G1 X39.716 Y23.997 Z14.948 F2500.000
G1 X40.616 Y23.997 Z14.987 F2500.000
G1 X41.516 Y23.997 Z15.000 F2500.000
G1 X42.416 Y23.997 Z14.986 F2500.000
G1 X43.316 Y23.997 Z14.946 F2500.000
G1 X44.216 Y23.997 Z14.881 F2500.000
G1 X44.370 Y24.045 Z14.867 F2500.000
G1 X45.148 Y74.639 Z15.223 F2500.000
G1 X46.772 Y180.227 Z15.954 F2500.000
G1 X47.331 Y216.529 Z16.209 F2500.000
(Break)
G0 Z26.500
G0 X48.244 Y217.429
(part 15.)
G1 X48.244 Y217.429 Z16.081 F2500.000
G1 X47.287 Y217.429 Z16.224 F2500.000
G1 X46.330 Y217.429 Z16.343 F2500.000
G1 X45.373 Y217.429 Z16.439 F2500.000
G1 X44.416 Y217.429 Z16.513 F2500.000
G1 X43.459 Y217.429 Z16.566 F2500.000
G1 X42.502 Y217.429 Z16.596 F2500.000
G1 X41.544 Y217.429 Z16.608 F2500.000
G1 X40.587 Y217.429 Z16.599 F2500.000
G1 X39.630 Y217.429 Z16.569 F2500.000
G1 X38.673 Y217.429 Z16.519 F2500.000
G1 X37.716 Y217.429 Z16.447 F2500.000
G1 X36.759 Y217.429 Z16.353 F2500.000
G1 X35.802 Y217.429 Z16.235 F2500.000
G1 X34.844 Y217.429 Z16.094 F2500.000
G1 X34.757 Y217.317 Z16.080 F2500.000
G1 X35.543 Y166.223 Z15.729 F2500.000
G1 X37.744 Y23.140 Z14.766 F2500.000
G1 X37.902 Y23.097 Z14.784 F2500.000
G1 X38.802 Y23.097 Z14.875 F2500.000
G1 X39.702 Y23.097 Z14.940 F2500.000
G1 X40.602 Y23.097 Z14.979 F2500.000
G1 X41.502 Y23.097 Z14.992 F2500.000
G1 X42.402 Y23.097 Z14.978 F2500.000
G1 X43.302 Y23.097 Z14.939 F2500.000
G1 X44.202 Y23.097 Z14.874 F2500.000
G1 X45.102 Y23.097 Z14.783 F2500.000
G1 X45.256 Y23.144 Z14.766 F2500.000
G1 X47.160 Y146.930 Z15.598 F2500.000
G1 X48.244 Y217.429 Z16.081 F2500.000
(Break)
G0 Z26.500
G0 X49.158 Y218.328
(part 17.)
G1 X49.158 Y218.328 Z15.931 F2500.000
G1 X48.208 Y218.328 Z16.095 F2500.000
G1 X47.258 Y218.328 Z16.236 F2500.000
G1 X46.308 Y218.328 Z16.353 F2500.000
G1 X45.358 Y218.328 Z16.447 F2500.000
G1 X44.408 Y218.328 Z16.521 F2500.000
G1 X43.458 Y218.328 Z16.573 F2500.000
G1 X42.508 Y218.328 Z16.603 F2500.000
G1 X41.558 Y218.328 Z16.615 F2500.000
G1 X40.608 Y218.328 Z16.606 F2500.000
G1 X39.658 Y218.328 Z16.578 F2500.000
G1 X38.708 Y218.328 Z16.529 F2500.000
G1 X37.758 Y218.328 Z16.458 F2500.000
G1 X36.808 Y218.328 Z16.366 F2500.000
G1 X35.858 Y218.328 Z16.251 F2500.000
G1 X34.908 Y218.328 Z16.114 F2500.000
G1 X33.958 Y218.328 Z15.952 F2500.000
G1 X33.843 Y218.245 Z15.930 F2500.000
G1 X34.504 Y175.250 Z15.640 F2500.000
G1 X35.332 Y121.457 Z15.285 F2500.000
G1 X36.858 Y22.269 Z14.640 F2500.000
G1 X36.988 Y22.197 Z14.658 F2500.000
G1 X37.988 Y22.197 Z14.786 F2500.000
G1 X38.988 Y22.197 Z14.882 F2500.000
G1 X39.988 Y22.197 Z14.947 F2500.000
G1 X40.988 Y22.197 Z14.978 F2500.000
G1 X41.988 Y22.197 Z14.979 F2500.000
G1 X42.988 Y22.197 Z14.949 F2500.000
G1 X43.988 Y22.197 Z14.884 F2500.000
G1 X44.988 Y22.197 Z14.788 F2500.000
G1 X45.988 Y22.197 Z14.662 F2500.000
G1 X46.142 Y22.244 Z14.640 F2500.000
G1 X47.711 Y124.232 Z15.303 F2500.000
G1 X48.720 Y189.824 Z15.737 F2500.000
G1 X49.158 Y218.328 Z15.931 F2500.000
(Break)
G0 Z26.500
G0 X50.072 Y219.228
(part 19.)
G1 X50.072 Y219.228 Z15.759 F2500.000
G1 X49.128 Y219.228 Z15.945 F2500.000
G1 X48.183 Y219.228 Z16.108 F2500.000
G1 X47.239 Y219.228 Z16.246 F2500.000
G1 X46.295 Y219.228 Z16.362 F2500.000
G1 X45.350 Y219.228 Z16.454 F2500.000
G1 X44.406 Y219.228 Z16.528 F2500.000
G1 X43.461 Y219.228 Z16.580 F2500.000
G1 X42.517 Y219.228 Z16.612 F2500.000
G1 X41.572 Y219.228 Z16.623 F2500.000
G1 X40.628 Y219.228 Z16.613 F2500.000
G1 X39.683 Y219.228 Z16.586 F2500.000
G1 X38.739 Y219.228 Z16.538 F2500.000
G1 X37.795 Y219.228 Z16.468 F2500.000
G1 X36.850 Y219.228 Z16.378 F2500.000
G1 X35.906 Y219.228 Z16.264 F2500.000
G1 X34.961 Y219.228 Z16.129 F2500.000
G1 X34.017 Y219.228 Z15.971 F2500.000
G1 X33.072 Y219.228 Z15.789 F2500.000
G1 X32.928 Y219.173 Z15.758 F2500.000
G1 X33.218 Y200.375 Z15.632 F2500.000
G1 X34.064 Y145.382 Z15.273 F2500.000
G1 X35.971 Y21.397 Z14.488 F2500.000
G1 X36.073 Y21.297 Z14.505 F2500.000
G1 X37.055 Y21.297 Z14.660 F2500.000
G1 X38.037 Y21.297 Z14.783 F2500.000
G1 X39.019 Y21.297 Z14.877 F2500.000
G1 X40.001 Y21.297 Z14.940 F2500.000
G1 X40.982 Y21.297 Z14.972 F2500.000
G1 X41.964 Y21.297 Z14.974 F2500.000
G1 X42.946 Y21.297 Z14.942 F2500.000
G1 X43.928 Y21.297 Z14.881 F2500.000
G1 X44.910 Y21.297 Z14.789 F2500.000
G1 X45.891 Y21.297 Z14.667 F2500.000
G1 X46.873 Y21.297 Z14.514 F2500.000
G1 X47.028 Y21.343 Z14.487 F2500.000
G1 X48.274 Y102.334 Z14.998 F2500.000
G1 X48.936 Y145.328 Z15.273 F2500.000
G1 X50.072 Y219.228 Z15.759 F2500.000
(Break)
G0 Z26.500
G0 X50.986 Y220.129
(part 21.)
G1 X50.986 Y220.129 Z15.564 F2500.000
G1 X49.997 Y220.129 Z15.784 F2500.000
G1 X49.007 Y220.129 Z15.976 F2500.000
G1 X48.018 Y220.129 Z16.142 F2500.000
G1 X47.028 Y220.129 Z16.282 F2500.000
G1 X46.039 Y220.129 Z16.398 F2500.000
G1 X45.049 Y220.129 Z16.489 F2500.000
G1 X44.060 Y220.129 Z16.558 F2500.000
G1 X43.071 Y220.129 Z16.603 F2500.000
G1 X42.081 Y220.129 Z16.626 F2500.000
G1 X41.092 Y220.129 Z16.628 F2500.000
G1 X40.102 Y220.129 Z16.608 F2500.000
G1 X39.113 Y220.129 Z16.567 F2500.000
G1 X38.123 Y220.129 Z16.503 F2500.000
G1 X37.134 Y220.129 Z16.415 F2500.000
G1 X36.144 Y220.129 Z16.305 F2500.000
G1 X35.155 Y220.129 Z16.168 F2500.000
G1 X34.165 Y220.129 Z16.006 F2500.000
G1 X33.176 Y220.129 Z15.819 F2500.000
G1 X32.186 Y220.129 Z15.604 F2500.000
G1 X32.014 Y220.101 Z15.563 F2500.000
G1 X32.503 Y188.305 Z15.355 F2500.000
G1 X33.158 Y145.710 Z15.084 F2500.000
G1 X33.937 Y95.116 Z14.768 F2500.000
G1 X35.078 Y20.925 Z14.315 F2500.000
G1 X35.084 Y20.525 Z14.313 F2500.000
G1 X35.159 Y20.397 Z14.328 F2500.000
G1 X36.128 Y20.397 Z14.507 F2500.000
G1 X37.097 Y20.397 Z14.658 F2500.000
G1 X38.067 Y20.397 Z14.778 F2500.000
G1 X39.036 Y20.397 Z14.871 F2500.000
G1 X40.005 Y20.397 Z14.933 F2500.000
G1 X40.974 Y20.397 Z14.965 F2500.000
G1 X41.943 Y20.397 Z14.966 F2500.000
G1 X42.913 Y20.397 Z14.937 F2500.000
G1 X43.882 Y20.397 Z14.877 F2500.000
G1 X44.851 Y20.397 Z14.787 F2500.000
G1 X45.820 Y20.397 Z14.669 F2500.000
G1 X46.790 Y20.397 Z14.521 F2500.000
G1 X47.759 Y20.397 Z14.344 F2500.000
G1 X47.915 Y20.443 Z14.313 F2500.000
G1 X48.828 Y79.835 Z14.674 F2500.000
G1 X49.825 Y144.628 Z15.077 F2500.000
G1 X50.674 Y199.821 Z15.429 F2500.000
G1 X50.986 Y220.129 Z15.564 F2500.000
(Break)
G0 Z26.500
G0 X51.900 Y221.029
(part 23.)
G1 X51.900 Y221.029 Z15.344 F2500.000
G1 X50.910 Y221.029 Z15.591 F2500.000
G1 X49.919 Y221.029 Z15.807 F2500.000
G1 X48.929 Y221.029 Z15.999 F2500.000
G1 X47.938 Y221.029 Z16.162 F2500.000
G1 X46.948 Y221.029 Z16.301 F2500.000
G1 X45.957 Y221.029 Z16.414 F2500.000
G1 X44.967 Y221.029 Z16.504 F2500.000
G1 X43.976 Y221.029 Z16.570 F2500.000
G1 X42.986 Y221.029 Z16.613 F2500.000
G1 X41.996 Y221.029 Z16.635 F2500.000
G1 X41.005 Y221.029 Z16.635 F2500.000
G1 X40.015 Y221.029 Z16.613 F2500.000
G1 X39.024 Y221.029 Z16.570 F2500.000
G1 X38.034 Y221.029 Z16.504 F2500.000
G1 X37.043 Y221.029 Z16.415 F2500.000
G1 X36.053 Y221.029 Z16.301 F2500.000
G1 X35.062 Y221.029 Z16.162 F2500.000
G1 X34.072 Y221.029 Z15.999 F2500.000
G1 X33.081 Y221.029 Z15.808 F2500.000
G1 X32.091 Y221.029 Z15.591 F2500.000
G1 X31.100 Y221.029 Z15.344 F2500.000
G1 X31.733 Y179.834 Z15.081 F2500.000
G1 X32.539 Y127.440 Z14.757 F2500.000
G1 X33.222 Y83.045 Z14.488 F2500.000
G1 X34.182 Y20.653 Z14.118 F2500.000
G1 X34.197 Y19.653 Z14.114 F2500.000
G1 X34.245 Y19.497 Z14.123 F2500.000
G1 X35.205 Y19.497 Z14.327 F2500.000
G1 X36.165 Y19.497 Z14.505 F2500.000
G1 X37.125 Y19.497 Z14.654 F2500.000
G1 X38.085 Y19.497 Z14.773 F2500.000
G1 X39.045 Y19.497 Z14.864 F2500.000
G1 X40.005 Y19.497 Z14.925 F2500.000
G1 X40.965 Y19.497 Z14.957 F2500.000
G1 X41.925 Y19.497 Z14.959 F2500.000
G1 X42.885 Y19.497 Z14.930 F2500.000
G1 X43.845 Y19.497 Z14.873 F2500.000
G1 X44.805 Y19.497 Z14.785 F2500.000
G1 X45.765 Y19.497 Z14.669 F2500.000
G1 X46.725 Y19.497 Z14.524 F2500.000
G1 X47.685 Y19.497 Z14.350 F2500.000
G1 X48.645 Y19.497 Z14.148 F2500.000
G1 X48.801 Y19.542 Z14.113 F2500.000
G1 X49.456 Y62.137 Z14.363 F2500.000
G1 X50.490 Y129.329 Z14.768 F2500.000
G1 X51.213 Y176.323 Z15.060 F2500.000
G1 X51.900 Y221.029 Z15.344 F2500.000
(Break)
G0 Z26.500
G0 X52.814 Y221.929
(part 25.)
G1 X52.814 Y221.929 Z15.101 F2500.000
G1 X51.832 Y221.929 Z15.372 F2500.000
G1 X50.849 Y221.929 Z15.614 F2500.000
G1 X49.866 Y221.929 Z15.828 F2500.000
G1 X48.884 Y221.929 Z16.015 F2500.000
G1 X47.901 Y221.929 Z16.176 F2500.000
G1 X46.919 Y221.929 Z16.313 F2500.000
G1 X45.936 Y221.929 Z16.424 F2500.000
G1 X44.953 Y221.929 Z16.513 F2500.000
G1 X43.971 Y221.929 Z16.578 F2500.000
G1 X42.988 Y221.929 Z16.620 F2500.000
G1 X42.006 Y221.929 Z16.643 F2500.000
G1 X41.023 Y221.929 Z16.643 F2500.000
G1 X40.040 Y221.929 Z16.622 F2500.000
G1 X39.058 Y221.929 Z16.580 F2500.000
G1 X38.075 Y221.929 Z16.515 F2500.000
G1 X37.092 Y221.929 Z16.427 F2500.000
G1 X36.110 Y221.929 Z16.316 F2500.000
G1 X35.127 Y221.929 Z16.180 F2500.000
G1 X34.145 Y221.929 Z16.020 F2500.000
G1 X33.162 Y221.929 Z15.834 F2500.000
G1 X32.179 Y221.929 Z15.621 F2500.000
G1 X31.197 Y221.929 Z15.379 F2500.000
G1 X30.214 Y221.929 Z15.110 F2500.000
G1 X30.188 Y221.757 Z15.100 F2500.000
G1 X31.237 Y153.565 Z14.678 F2500.000
G1 X32.076 Y99.071 Z14.352 F2500.000
G1 X32.745 Y55.577 Z14.098 F2500.000
G1 X33.311 Y18.781 Z13.889 F2500.000
G1 X33.330 Y18.597 Z13.891 F2500.000
G1 X34.283 Y18.597 Z14.123 F2500.000
G1 X35.236 Y18.597 Z14.326 F2500.000
G1 X36.189 Y18.597 Z14.501 F2500.000
G1 X37.142 Y18.597 Z14.648 F2500.000
G1 X38.095 Y18.597 Z14.766 F2500.000
G1 X39.048 Y18.597 Z14.856 F2500.000
G1 X40.001 Y18.597 Z14.917 F2500.000
G1 X40.954 Y18.597 Z14.948 F2500.000
G1 X41.907 Y18.597 Z14.952 F2500.000
G1 X42.860 Y18.597 Z14.924 F2500.000
G1 X43.812 Y18.597 Z14.868 F2500.000
G1 X44.765 Y18.597 Z14.782 F2500.000
G1 X45.718 Y18.597 Z14.667 F2500.000
G1 X46.671 Y18.597 Z14.525 F2500.000
G1 X47.624 Y18.597 Z14.354 F2500.000
G1 X48.577 Y18.597 Z14.154 F2500.000
G1 X49.530 Y18.597 Z13.927 F2500.000
G1 X49.687 Y18.641 Z13.888 F2500.000
G1 X50.556 Y75.135 Z14.212 F2500.000
G1 X51.282 Y122.329 Z14.490 F2500.000
G1 X52.099 Y175.423 Z14.811 F2500.000
G1 X52.814 Y221.929 Z15.101 F2500.000
(Break)
G0 Z26.500
G0 X53.728 Y222.828
(part 27.)
G1 X53.728 Y222.828 Z14.832 F2500.000
G1 X52.752 Y222.828 Z15.128 F2500.000
G1 X51.776 Y222.828 Z15.395 F2500.000
G1 X50.800 Y222.828 Z15.634 F2500.000
G1 X49.824 Y222.828 Z15.844 F2500.000
G1 X48.848 Y222.828 Z16.029 F2500.000
G1 X47.872 Y222.828 Z16.189 F2500.000
G1 X46.896 Y222.828 Z16.323 F2500.000
G1 X45.920 Y222.828 Z16.434 F2500.000
G1 X44.944 Y222.828 Z16.521 F2500.000
G1 X43.968 Y222.828 Z16.586 F2500.000
G1 X42.992 Y222.828 Z16.628 F2500.000
G1 X42.016 Y222.828 Z16.649 F2500.000
G1 X41.040 Y222.828 Z16.650 F2500.000
G1 X40.064 Y222.828 Z16.630 F2500.000
G1 X39.088 Y222.828 Z16.589 F2500.000
G1 X38.112 Y222.828 Z16.525 F2500.000
G1 X37.136 Y222.828 Z16.440 F2500.000
G1 X36.160 Y222.828 Z16.330 F2500.000
G1 X35.184 Y222.828 Z16.198 F2500.000
G1 X34.208 Y222.828 Z16.039 F2500.000
G1 X33.232 Y222.828 Z15.855 F2500.000
G1 X32.256 Y222.828 Z15.647 F2500.000
G1 X31.280 Y222.828 Z15.410 F2500.000
G1 X30.304 Y222.828 Z15.144 F2500.000
G1 X29.328 Y222.828 Z14.850 F2500.000
G1 X29.274 Y222.685 Z14.832 F2500.000
G1 X29.935 Y179.690 Z14.569 F2500.000
G1 X30.815 Y122.497 Z14.230 F2500.000
G1 X31.637 Y69.103 Z13.924 F2500.000
G1 X32.427 Y17.709 Z13.638 F2500.000
G1 X32.616 Y17.697 Z13.691 F2500.000
G1 X33.605 Y17.697 Z13.952 F2500.000
G1 X34.594 Y17.697 Z14.184 F2500.000
G1 X35.582 Y17.697 Z14.384 F2500.000
G1 X36.571 Y17.697 Z14.555 F2500.000
G1 X37.560 Y17.697 Z14.696 F2500.000
G1 X38.549 Y17.697 Z14.804 F2500.000
G1 X39.538 Y17.697 Z14.884 F2500.000
G1 X40.527 Y17.697 Z14.930 F2500.000
G1 X41.516 Y17.697 Z14.947 F2500.000
G1 X42.505 Y17.697 Z14.930 F2500.000
G1 X43.494 Y17.697 Z14.882 F2500.000
G1 X44.482 Y17.697 Z14.801 F2500.000
G1 X45.471 Y17.697 Z14.692 F2500.000
G1 X46.460 Y17.697 Z14.550 F2500.000
G1 X47.449 Y17.697 Z14.378 F2500.000
G1 X48.438 Y17.697 Z14.177 F2500.000
G1 X49.427 Y17.697 Z13.944 F2500.000
G1 X50.416 Y17.697 Z13.682 F2500.000
G1 X50.573 Y17.741 Z13.638 F2500.000
G1 X51.172 Y56.669 Z13.854 F2500.000
G1 X52.127 Y118.729 Z14.208 F2500.000
G1 X52.964 Y173.122 Z14.530 F2500.000
G1 X53.728 Y222.828 Z14.832 F2500.000
(Break)
G0 Z26.500
G0 X54.642 Y223.728
(part 29.)
G1 X54.642 Y223.728 Z14.536 F2500.000
G1 X53.672 Y223.728 Z14.859 F2500.000
G1 X52.701 Y223.728 Z15.151 F2500.000
G1 X51.731 Y223.728 Z15.416 F2500.000
G1 X50.761 Y223.728 Z15.652 F2500.000
G1 X49.790 Y223.728 Z15.860 F2500.000
G1 X48.820 Y223.728 Z16.042 F2500.000
G1 X47.850 Y223.728 Z16.201 F2500.000
G1 X46.879 Y223.728 Z16.334 F2500.000
G1 X45.909 Y223.728 Z16.443 F2500.000
G1 X44.938 Y223.728 Z16.529 F2500.000
G1 X43.968 Y223.728 Z16.592 F2500.000
G1 X42.998 Y223.728 Z16.636 F2500.000
G1 X42.027 Y223.728 Z16.657 F2500.000
G1 X41.057 Y223.728 Z16.658 F2500.000
G1 X40.087 Y223.728 Z16.638 F2500.000
G1 X39.116 Y223.728 Z16.597 F2500.000
G1 X38.146 Y223.728 Z16.535 F2500.000
G1 X37.175 Y223.728 Z16.451 F2500.000
G1 X36.205 Y223.728 Z16.344 F2500.000
G1 X35.235 Y223.728 Z16.213 F2500.000
G1 X34.264 Y223.728 Z16.057 F2500.000
G1 X33.294 Y223.728 Z15.876 F2500.000
G1 X32.324 Y223.728 Z15.671 F2500.000
G1 X31.353 Y223.728 Z15.439 F2500.000
G1 X30.383 Y223.728 Z15.176 F2500.000
G1 X29.412 Y223.728 Z14.885 F2500.000
G1 X28.442 Y223.728 Z14.567 F2500.000
G1 X28.360 Y223.613 Z14.536 F2500.000
G1 X29.000 Y182.018 Z14.289 F2500.000
G1 X29.969 Y119.025 Z13.925 F2500.000
G1 X30.695 Y71.831 Z13.661 F2500.000
G1 X31.540 Y16.837 Z13.363 F2500.000
G1 X31.701 Y16.797 Z13.412 F2500.000
G1 X32.681 Y16.797 Z13.699 F2500.000
G1 X33.661 Y16.797 Z13.958 F2500.000
G1 X34.641 Y16.797 Z14.186 F2500.000
G1 X35.621 Y16.797 Z14.383 F2500.000
G1 X36.601 Y16.797 Z14.552 F2500.000
G1 X37.581 Y16.797 Z14.690 F2500.000
G1 X38.561 Y16.797 Z14.798 F2500.000
G1 X39.541 Y16.797 Z14.877 F2500.000
G1 X40.521 Y16.797 Z14.923 F2500.000
G1 X41.501 Y16.797 Z14.939 F2500.000
G1 X42.481 Y16.797 Z14.923 F2500.000
G1 X43.461 Y16.797 Z14.877 F2500.000
G1 X44.441 Y16.797 Z14.798 F2500.000
G1 X45.421 Y16.797 Z14.690 F2500.000
G1 X46.401 Y16.797 Z14.551 F2500.000
G1 X47.381 Y16.797 Z14.383 F2500.000
G1 X48.361 Y16.797 Z14.185 F2500.000
G1 X49.341 Y16.797 Z13.957 F2500.000
G1 X50.321 Y16.797 Z13.699 F2500.000
G1 X51.301 Y16.797 Z13.411 F2500.000
G1 X51.460 Y16.840 Z13.363 F2500.000
G1 X52.066 Y56.235 Z13.575 F2500.000
G1 X53.019 Y118.228 Z13.921 F2500.000
G1 X53.982 Y180.821 Z14.281 F2500.000
G1 X54.642 Y223.728 Z14.536 F2500.000
(Break)
G0 Z26.500
G0 X55.556 Y224.628
(part 31.)
G1 X55.556 Y224.628 Z14.215 F2500.000
G1 X54.591 Y224.628 Z14.565 F2500.000
G1 X53.625 Y224.628 Z14.885 F2500.000
G1 X52.660 Y224.628 Z15.174 F2500.000
G1 X51.694 Y224.628 Z15.435 F2500.000
G1 X50.728 Y224.628 Z15.669 F2500.000
G1 X49.763 Y224.628 Z15.874 F2500.000
G1 X48.797 Y224.628 Z16.056 F2500.000
G1 X47.832 Y224.628 Z16.211 F2500.000
G1 X46.866 Y224.628 Z16.343 F2500.000
G1 X45.901 Y224.628 Z16.451 F2500.000
G1 X44.935 Y224.628 Z16.538 F2500.000
G1 X43.970 Y224.628 Z16.600 F2500.000
G1 X43.004 Y224.628 Z16.643 F2500.000
G1 X42.039 Y224.628 Z16.664 F2500.000
G1 X41.073 Y224.628 Z16.665 F2500.000
G1 X40.108 Y224.628 Z16.646 F2500.000
G1 X39.142 Y224.628 Z16.607 F2500.000
G1 X38.177 Y224.628 Z16.546 F2500.000
G1 X37.211 Y224.628 Z16.462 F2500.000
G1 X36.246 Y224.628 Z16.357 F2500.000
G1 X35.280 Y224.628 Z16.228 F2500.000
G1 X34.315 Y224.628 Z16.075 F2500.000
G1 X33.349 Y224.628 Z15.896 F2500.000
G1 X32.384 Y224.628 Z15.694 F2500.000
G1 X31.418 Y224.628 Z15.464 F2500.000
G1 X30.453 Y224.628 Z15.206 F2500.000
G1 X29.487 Y224.628 Z14.920 F2500.000
G1 X28.522 Y224.628 Z14.604 F2500.000
G1 X27.556 Y224.628 Z14.256 F2500.000
G1 X27.445 Y224.541 Z14.213 F2500.000
G1 X28.150 Y178.746 Z13.949 F2500.000
G1 X29.180 Y111.754 Z13.574 F2500.000
G1 X29.922 Y63.560 Z13.313 F2500.000
G1 X30.654 Y15.965 Z13.064 F2500.000
G1 X30.787 Y15.898 Z13.108 F2500.000
G1 X31.760 Y15.898 Z13.422 F2500.000
G1 X32.732 Y15.898 Z13.706 F2500.000
G1 X33.705 Y15.898 Z13.961 F2500.000
G1 X34.678 Y15.898 Z14.186 F2500.000
G1 X35.651 Y15.898 Z14.381 F2500.000
G1 X36.623 Y15.898 Z14.546 F2500.000
G1 X37.596 Y15.898 Z14.685 F2500.000
G1 X38.569 Y15.898 Z14.791 F2500.000
G1 X39.542 Y15.898 Z14.869 F2500.000
G1 X40.514 Y15.898 Z14.916 F2500.000
G1 X41.487 Y15.898 Z14.931 F2500.000
G1 X42.460 Y15.898 Z14.917 F2500.000
G1 X43.432 Y15.898 Z14.870 F2500.000
G1 X44.405 Y15.898 Z14.793 F2500.000
G1 X45.378 Y15.898 Z14.688 F2500.000
G1 X46.351 Y15.898 Z14.550 F2500.000
G1 X47.323 Y15.898 Z14.386 F2500.000
G1 X48.296 Y15.898 Z14.192 F2500.000
G1 X49.269 Y15.898 Z13.967 F2500.000
G1 X50.242 Y15.898 Z13.714 F2500.000
G1 X51.214 Y15.898 Z13.430 F2500.000
G1 X52.187 Y15.898 Z13.117 F2500.000
G1 X52.346 Y15.939 Z13.064 F2500.000
G1 X52.980 Y57.134 Z13.278 F2500.000
G1 X53.816 Y111.528 Z13.573 F2500.000
G1 X54.853 Y178.920 Z13.950 F2500.000
G1 X55.556 Y224.628 Z14.215 F2500.000
(Break)
G0 Z26.500
G0 X56.470 Y225.528
(part 33.)
G1 X56.470 Y225.528 Z13.862 F2500.000
G1 X55.477 Y225.528 Z14.255 F2500.000
G1 X54.483 Y225.528 Z14.613 F2500.000
G1 X53.490 Y225.528 Z14.937 F2500.000
G1 X52.497 Y225.528 Z15.231 F2500.000
G1 X51.503 Y225.528 Z15.493 F2500.000
G1 X50.510 Y225.528 Z15.726 F2500.000
G1 X49.517 Y225.528 Z15.932 F2500.000
G1 X48.523 Y225.528 Z16.111 F2500.000
G1 X47.530 Y225.528 Z16.263 F2500.000
G1 X46.537 Y225.528 Z16.390 F2500.000
G1 X45.543 Y225.528 Z16.494 F2500.000
G1 X44.550 Y225.528 Z16.573 F2500.000
G1 X43.557 Y225.528 Z16.629 F2500.000
G1 X42.563 Y225.528 Z16.662 F2500.000
G1 X41.570 Y225.528 Z16.675 F2500.000
G1 X40.577 Y225.528 Z16.665 F2500.000
G1 X39.583 Y225.528 Z16.635 F2500.000
G1 X38.590 Y225.528 Z16.582 F2500.000
G1 X37.597 Y225.528 Z16.507 F2500.000
G1 X36.603 Y225.528 Z16.406 F2500.000
G1 X35.610 Y225.528 Z16.283 F2500.000
G1 X34.617 Y225.528 Z16.135 F2500.000
G1 X33.623 Y225.528 Z15.959 F2500.000
G1 X32.630 Y225.528 Z15.757 F2500.000
G1 X31.637 Y225.528 Z15.528 F2500.000
G1 X30.643 Y225.528 Z15.269 F2500.000
G1 X29.650 Y225.528 Z14.980 F2500.000
G1 X28.657 Y225.528 Z14.659 F2500.000
G1 X27.663 Y225.528 Z14.307 F2500.000
G1 X26.670 Y225.528 Z13.920 F2500.000
G1 X26.531 Y225.469 Z13.862 F2500.000
G1 X27.368 Y171.075 Z13.560 F2500.000
G1 X28.183 Y118.081 Z13.272 F2500.000
G1 X28.900 Y71.487 Z13.026 F2500.000
G1 X29.767 Y15.093 Z12.738 F2500.000
G1 X29.873 Y14.998 Z12.776 F2500.000
G1 X30.839 Y14.998 Z13.116 F2500.000
G1 X31.806 Y14.998 Z13.427 F2500.000
G1 X32.773 Y14.998 Z13.709 F2500.000
G1 X33.739 Y14.998 Z13.961 F2500.000
G1 X34.706 Y14.998 Z14.183 F2500.000
G1 X35.673 Y14.998 Z14.376 F2500.000
G1 X36.639 Y14.998 Z14.542 F2500.000
G1 X37.606 Y14.998 Z14.678 F2500.000
G1 X38.573 Y14.998 Z14.785 F2500.000
G1 X39.539 Y14.998 Z14.862 F2500.000
G1 X40.506 Y14.998 Z14.908 F2500.000
G1 X41.473 Y14.998 Z14.924 F2500.000
G1 X42.439 Y14.998 Z14.910 F2500.000
G1 X43.406 Y14.998 Z14.865 F2500.000
G1 X44.373 Y14.998 Z14.790 F2500.000
G1 X45.339 Y14.998 Z14.685 F2500.000
G1 X46.306 Y14.998 Z14.550 F2500.000
G1 X47.273 Y14.998 Z14.387 F2500.000
G1 X48.239 Y14.998 Z14.194 F2500.000
G1 X49.206 Y14.998 Z13.974 F2500.000
G1 X50.173 Y14.998 Z13.724 F2500.000
G1 X51.139 Y14.998 Z13.444 F2500.000
G1 X52.106 Y14.998 Z13.134 F2500.000
G1 X53.073 Y14.998 Z12.796 F2500.000
G1 X53.232 Y15.039 Z12.738 F2500.000
G1 X53.791 Y51.384 Z12.922 F2500.000
G1 X54.690 Y109.827 Z13.228 F2500.000
G1 X55.758 Y179.219 Z13.604 F2500.000
G1 X56.470 Y225.528 Z13.862 F2500.000
(Break)
G0 Z26.500
G0 X57.384 Y226.428
(part 35.)
G1 X57.384 Y226.428 Z13.483 F2500.000
G1 X56.396 Y226.428 Z13.905 F2500.000
G1 X55.409 Y226.428 Z14.291 F2500.000
G1 X54.421 Y226.428 Z14.644 F2500.000
G1 X53.434 Y226.428 Z14.964 F2500.000
G1 X52.446 Y226.428 Z15.253 F2500.000
G1 X51.459 Y226.428 Z15.514 F2500.000
G1 X50.471 Y226.428 Z15.744 F2500.000
G1 X49.484 Y226.428 Z15.947 F2500.000
G1 X48.496 Y226.428 Z16.125 F2500.000
G1 X47.509 Y226.428 Z16.275 F2500.000
G1 X46.521 Y226.428 Z16.401 F2500.000
G1 X45.534 Y226.428 Z16.501 F2500.000
G1 X44.546 Y226.428 Z16.581 F2500.000
G1 X43.559 Y226.428 Z16.636 F2500.000
G1 X42.571 Y226.428 Z16.669 F2500.000
G1 X41.584 Y226.428 Z16.682 F2500.000
G1 X40.596 Y226.428 Z16.674 F2500.000
G1 X39.609 Y226.428 Z16.643 F2500.000
G1 X38.621 Y226.428 Z16.592 F2500.000
G1 X37.634 Y226.428 Z16.518 F2500.000
G1 X36.646 Y226.428 Z16.420 F2500.000
G1 X35.659 Y226.428 Z16.298 F2500.000
G1 X34.671 Y226.428 Z16.152 F2500.000
G1 X33.684 Y226.428 Z15.979 F2500.000
G1 X32.696 Y226.428 Z15.781 F2500.000
G1 X31.709 Y226.428 Z15.555 F2500.000
G1 X30.721 Y226.428 Z15.300 F2500.000
G1 X29.734 Y226.428 Z15.016 F2500.000
G1 X28.746 Y226.428 Z14.701 F2500.000
G1 X27.759 Y226.428 Z14.353 F2500.000
G1 X26.771 Y226.428 Z13.972 F2500.000
G1 X25.784 Y226.428 Z13.557 F2500.000
G1 X25.617 Y226.396 Z13.483 F2500.000
G1 X26.383 Y176.602 Z13.215 F2500.000
G1 X27.644 Y94.612 Z12.787 F2500.000
G1 X28.161 Y61.016 Z12.617 F2500.000
G1 X28.871 Y14.821 Z12.389 F2500.000
G1 X28.880 Y14.222 Z12.387 F2500.000
G1 X28.958 Y14.098 Z12.416 F2500.000
G1 X29.920 Y14.098 Z12.784 F2500.000
G1 X30.881 Y14.098 Z13.121 F2500.000
G1 X31.843 Y14.098 Z13.429 F2500.000
G1 X32.804 Y14.098 Z13.708 F2500.000
G1 X33.766 Y14.098 Z13.958 F2500.000
G1 X34.727 Y14.098 Z14.180 F2500.000
G1 X35.689 Y14.098 Z14.372 F2500.000
G1 X36.651 Y14.098 Z14.536 F2500.000
G1 X37.612 Y14.098 Z14.670 F2500.000
G1 X38.574 Y14.098 Z14.777 F2500.000
G1 X39.535 Y14.098 Z14.853 F2500.000
G1 X40.497 Y14.098 Z14.899 F2500.000
G1 X41.458 Y14.098 Z14.916 F2500.000
G1 X42.420 Y14.098 Z14.902 F2500.000
G1 X43.381 Y14.098 Z14.859 F2500.000
G1 X44.343 Y14.098 Z14.785 F2500.000
G1 X45.304 Y14.098 Z14.680 F2500.000
G1 X46.266 Y14.098 Z14.548 F2500.000
G1 X47.227 Y14.098 Z14.388 F2500.000
G1 X48.189 Y14.098 Z14.197 F2500.000
G1 X49.151 Y14.098 Z13.979 F2500.000
G1 X50.112 Y14.098 Z13.731 F2500.000
G1 X51.074 Y14.098 Z13.454 F2500.000
G1 X52.035 Y14.098 Z13.150 F2500.000
G1 X52.997 Y14.098 Z12.814 F2500.000
G1 X53.958 Y14.098 Z12.450 F2500.000
G1 X54.118 Y14.138 Z12.386 F2500.000
G1 X54.687 Y51.134 Z12.567 F2500.000
G1 X55.776 Y121.925 Z12.928 F2500.000
G1 X56.899 Y194.917 Z13.312 F2500.000
G1 X57.384 Y226.428 Z13.483 F2500.000
(Break)
G0 Z26.500
G0 X58.298 Y227.328
(part 37.)
G1 X58.298 Y227.328 Z13.070 F2500.000
G1 X57.316 Y227.328 Z13.524 F2500.000
G1 X56.333 Y227.328 Z13.941 F2500.000
G1 X55.351 Y227.328 Z14.323 F2500.000
G1 X54.369 Y227.328 Z14.672 F2500.000
G1 X53.386 Y227.328 Z14.989 F2500.000
G1 X52.404 Y227.328 Z15.275 F2500.000
G1 X51.421 Y227.328 Z15.532 F2500.000
G1 X50.439 Y227.328 Z15.761 F2500.000
G1 X49.457 Y227.328 Z15.962 F2500.000
G1 X48.474 Y227.328 Z16.137 F2500.000
G1 X47.492 Y227.328 Z16.286 F2500.000
G1 X46.510 Y227.328 Z16.411 F2500.000
G1 X45.527 Y227.328 Z16.511 F2500.000
G1 X44.545 Y227.328 Z16.589 F2500.000
G1 X43.563 Y227.328 Z16.644 F2500.000
G1 X42.580 Y227.328 Z16.677 F2500.000
G1 X41.598 Y227.328 Z16.689 F2500.000
G1 X40.616 Y227.328 Z16.681 F2500.000
G1 X39.633 Y227.328 Z16.652 F2500.000
G1 X38.651 Y227.328 Z16.602 F2500.000
G1 X37.669 Y227.328 Z16.529 F2500.000
G1 X36.686 Y227.328 Z16.432 F2500.000
G1 X35.704 Y227.328 Z16.313 F2500.000
G1 X34.721 Y227.328 Z16.168 F2500.000
G1 X33.739 Y227.328 Z15.999 F2500.000
G1 X32.757 Y227.328 Z15.803 F2500.000
G1 X31.774 Y227.328 Z15.580 F2500.000
G1 X30.792 Y227.328 Z15.329 F2500.000
G1 X29.810 Y227.328 Z15.048 F2500.000
G1 X28.827 Y227.328 Z14.738 F2500.000
G1 X27.845 Y227.328 Z14.395 F2500.000
G1 X26.863 Y227.328 Z14.019 F2500.000
G1 X25.880 Y227.328 Z13.610 F2500.000
G1 X24.898 Y227.328 Z13.164 F2500.000
G1 X24.702 Y227.324 Z13.071 F2500.000
G1 X26.317 Y122.337 Z12.537 F2500.000
G1 X26.975 Y79.542 Z12.325 F2500.000
G1 X27.975 Y14.550 Z12.012 F2500.000
G1 X27.994 Y13.350 Z12.008 F2500.000
G1 X28.044 Y13.197 Z12.028 F2500.000
G1 X29.036 Y13.197 Z12.438 F2500.000
G1 X30.029 Y13.197 Z12.814 F2500.000
G1 X31.022 Y13.197 Z13.159 F2500.000
G1 X32.014 Y13.197 Z13.473 F2500.000
G1 X33.007 Y13.197 Z13.755 F2500.000
G1 X33.999 Y13.197 Z14.007 F2500.000
G1 X34.992 Y13.197 Z14.227 F2500.000
G1 X35.985 Y13.197 Z14.418 F2500.000
G1 X36.977 Y13.197 Z14.577 F2500.000
G1 X37.970 Y13.197 Z14.706 F2500.000
G1 X38.962 Y13.197 Z14.804 F2500.000
G1 X39.955 Y13.197 Z14.870 F2500.000
G1 X40.948 Y13.197 Z14.905 F2500.000
G1 X41.940 Y13.197 Z14.906 F2500.000
G1 X42.933 Y13.197 Z14.875 F2500.000
G1 X43.925 Y13.197 Z14.813 F2500.000
G1 X44.918 Y13.197 Z14.719 F2500.000
G1 X45.911 Y13.197 Z14.593 F2500.000
G1 X46.903 Y13.197 Z14.437 F2500.000
G1 X47.896 Y13.197 Z14.250 F2500.000
G1 X48.888 Y13.197 Z14.033 F2500.000
G1 X49.881 Y13.197 Z13.785 F2500.000
G1 X50.873 Y13.197 Z13.506 F2500.000
G1 X51.866 Y13.197 Z13.196 F2500.000
G1 X52.859 Y13.197 Z12.855 F2500.000
G1 X53.851 Y13.197 Z12.482 F2500.000
G1 X54.844 Y13.197 Z12.076 F2500.000
G1 X55.005 Y13.237 Z12.008 F2500.000
G1 X55.238 Y28.436 Z12.078 F2500.000
G1 X56.478 Y109.026 Z12.471 F2500.000
G1 X58.298 Y227.328 Z13.070 F2500.000
(Break)
G0 Z26.500
G0 X59.212 Y228.228
(part 39.)
G1 X59.212 Y228.228 Z12.624 F2500.000
G1 X58.229 Y228.228 Z13.115 F2500.000
G1 X57.245 Y228.228 Z13.566 F2500.000
G1 X56.262 Y228.228 Z13.981 F2500.000
G1 X55.279 Y228.228 Z14.360 F2500.000
G1 X54.295 Y228.228 Z14.707 F2500.000
G1 X53.312 Y228.228 Z15.021 F2500.000
G1 X52.329 Y228.228 Z15.306 F2500.000
G1 X51.345 Y228.228 Z15.560 F2500.000
G1 X50.362 Y228.228 Z15.787 F2500.000
G1 X49.379 Y228.228 Z15.986 F2500.000
G1 X48.395 Y228.228 Z16.156 F2500.000
G1 X47.412 Y228.228 Z16.305 F2500.000
G1 X46.429 Y228.228 Z16.427 F2500.000
G1 X45.445 Y228.228 Z16.525 F2500.000
G1 X44.462 Y228.228 Z16.602 F2500.000
G1 X43.479 Y228.228 Z16.656 F2500.000
G1 X42.495 Y228.228 Z16.687 F2500.000
G1 X41.512 Y228.228 Z16.698 F2500.000
G1 X40.529 Y228.228 Z16.688 F2500.000
G1 X39.545 Y228.228 Z16.656 F2500.000
G1 X38.562 Y228.228 Z16.604 F2500.000
G1 X37.579 Y228.228 Z16.528 F2500.000
G1 X36.595 Y228.228 Z16.429 F2500.000
G1 X35.612 Y228.228 Z16.309 F2500.000
G1 X34.629 Y228.228 Z16.161 F2500.000
G1 X33.645 Y228.228 Z15.990 F2500.000
G1 X32.662 Y228.228 Z15.792 F2500.000
G1 X31.679 Y228.228 Z15.565 F2500.000
G1 X30.695 Y228.228 Z15.312 F2500.000
G1 X29.712 Y228.228 Z15.028 F2500.000
G1 X28.729 Y228.228 Z14.715 F2500.000
G1 X27.745 Y228.228 Z14.369 F2500.000
G1 X26.762 Y228.228 Z13.990 F2500.000
G1 X25.779 Y228.228 Z13.577 F2500.000
G1 X24.795 Y228.228 Z13.127 F2500.000
G1 X23.812 Y228.228 Z12.637 F2500.000
G1 X23.791 Y228.052 Z12.625 F2500.000
G1 X23.797 Y227.652 Z12.622 F2500.000
G1 X25.390 Y124.065 Z12.123 F2500.000
G1 X26.120 Y76.670 Z11.898 F2500.000
G1 X27.089 Y13.678 Z11.606 F2500.000
G1 X27.107 Y12.478 Z11.602 F2500.000
G1 X27.129 Y12.297 Z11.610 F2500.000
G1 X28.116 Y12.297 Z12.047 F2500.000
G1 X29.102 Y12.297 Z12.453 F2500.000
G1 X30.088 Y12.297 Z12.825 F2500.000
G1 X31.074 Y12.297 Z13.167 F2500.000
G1 X32.061 Y12.297 Z13.476 F2500.000
G1 X33.047 Y12.297 Z13.757 F2500.000
G1 X34.033 Y12.297 Z14.006 F2500.000
G1 X35.019 Y12.297 Z14.223 F2500.000
G1 X36.005 Y12.297 Z14.413 F2500.000
G1 X36.992 Y12.297 Z14.571 F2500.000
G1 X37.978 Y12.297 Z14.699 F2500.000
G1 X38.964 Y12.297 Z14.796 F2500.000
G1 X39.950 Y12.297 Z14.862 F2500.000
G1 X40.936 Y12.297 Z14.897 F2500.000
G1 X41.923 Y12.297 Z14.899 F2500.000
G1 X42.909 Y12.297 Z14.869 F2500.000
G1 X43.895 Y12.297 Z14.808 F2500.000
G1 X44.881 Y12.297 Z14.715 F2500.000
G1 X45.867 Y12.297 Z14.591 F2500.000
G1 X46.854 Y12.297 Z14.437 F2500.000
G1 X47.840 Y12.297 Z14.252 F2500.000
G1 X48.826 Y12.297 Z14.039 F2500.000
G1 X49.812 Y12.297 Z13.794 F2500.000
G1 X50.798 Y12.297 Z13.519 F2500.000
G1 X51.785 Y12.297 Z13.213 F2500.000
G1 X52.771 Y12.297 Z12.877 F2500.000
G1 X53.757 Y12.297 Z12.508 F2500.000
G1 X54.743 Y12.297 Z12.108 F2500.000
G1 X55.729 Y12.297 Z11.674 F2500.000
G1 X55.891 Y12.337 Z11.601 F2500.000
G1 X56.371 Y43.533 Z11.743 F2500.000
G1 X57.060 Y88.328 Z11.952 F2500.000
G1 X59.212 Y228.228 Z12.624 F2500.000
(Break)
G0 Z26.500
G0 X60.126 Y229.128
(part 41.)
G1 X60.126 Y229.128 Z12.147 F2500.000
G1 X59.147 Y229.128 Z12.671 F2500.000
G1 X58.168 Y229.128 Z13.154 F2500.000
G1 X57.189 Y229.128 Z13.601 F2500.000
G1 X56.210 Y229.128 Z14.012 F2500.000
G1 X55.231 Y229.128 Z14.388 F2500.000
G1 X54.252 Y229.128 Z14.731 F2500.000
G1 X53.273 Y229.128 Z15.043 F2500.000
G1 X52.294 Y229.128 Z15.324 F2500.000
G1 X51.315 Y229.128 Z15.576 F2500.000
G1 X50.336 Y229.128 Z15.801 F2500.000
G1 X49.357 Y229.128 Z15.997 F2500.000
G1 X48.378 Y229.128 Z16.169 F2500.000
G1 X47.400 Y229.128 Z16.315 F2500.000
G1 X46.421 Y229.128 Z16.437 F2500.000
G1 X45.442 Y229.128 Z16.534 F2500.000
G1 X44.463 Y229.128 Z16.609 F2500.000
G1 X43.484 Y229.128 Z16.662 F2500.000
G1 X42.505 Y229.128 Z16.694 F2500.000
G1 X41.526 Y229.128 Z16.705 F2500.000
G1 X40.547 Y229.128 Z16.696 F2500.000
G1 X39.568 Y229.128 Z16.665 F2500.000
G1 X38.589 Y229.128 Z16.613 F2500.000
G1 X37.610 Y229.128 Z16.539 F2500.000
G1 X36.631 Y229.128 Z16.442 F2500.000
G1 X35.652 Y229.128 Z16.322 F2500.000
G1 X34.673 Y229.128 Z16.178 F2500.000
G1 X33.694 Y229.128 Z16.007 F2500.000
G1 X32.715 Y229.128 Z15.812 F2500.000
G1 X31.736 Y229.128 Z15.589 F2500.000
G1 X30.757 Y229.128 Z15.338 F2500.000
G1 X29.778 Y229.128 Z15.059 F2500.000
G1 X28.800 Y229.128 Z14.748 F2500.000
G1 X27.821 Y229.128 Z14.407 F2500.000
G1 X26.842 Y229.128 Z14.033 F2500.000
G1 X25.863 Y229.128 Z13.623 F2500.000
G1 X24.884 Y229.128 Z13.179 F2500.000
G1 X23.905 Y229.128 Z12.698 F2500.000
G1 X22.926 Y229.128 Z12.176 F2500.000
G1 X22.876 Y228.980 Z12.147 F2500.000
G1 X25.091 Y84.997 Z11.492 F2500.000
G1 X26.223 Y11.406 Z11.166 F2500.000
G1 X26.415 Y11.398 Z11.260 F2500.000
G1 X27.389 Y11.398 Z11.719 F2500.000
G1 X28.363 Y11.398 Z12.143 F2500.000
G1 X29.338 Y11.398 Z12.536 F2500.000
G1 X30.312 Y11.398 Z12.896 F2500.000
G1 X31.286 Y11.398 Z13.227 F2500.000
G1 X32.260 Y11.398 Z13.527 F2500.000
G1 X33.234 Y11.398 Z13.797 F2500.000
G1 X34.209 Y11.398 Z14.038 F2500.000
G1 X35.183 Y11.398 Z14.250 F2500.000
G1 X36.157 Y11.398 Z14.431 F2500.000
G1 X37.131 Y11.398 Z14.583 F2500.000
G1 X38.105 Y11.398 Z14.706 F2500.000
G1 X39.080 Y11.398 Z14.798 F2500.000
G1 X40.054 Y11.398 Z14.860 F2500.000
G1 X41.028 Y11.398 Z14.891 F2500.000
G1 X42.002 Y11.398 Z14.890 F2500.000
G1 X42.976 Y11.398 Z14.859 F2500.000
G1 X43.951 Y11.398 Z14.795 F2500.000
G1 X44.925 Y11.398 Z14.702 F2500.000
G1 X45.899 Y11.398 Z14.579 F2500.000
G1 X46.873 Y11.398 Z14.426 F2500.000
G1 X47.847 Y11.398 Z14.244 F2500.000
G1 X48.822 Y11.398 Z14.031 F2500.000
G1 X49.796 Y11.398 Z13.789 F2500.000
G1 X50.770 Y11.398 Z13.518 F2500.000
G1 X51.744 Y11.398 Z13.217 F2500.000
G1 X52.718 Y11.398 Z12.886 F2500.000
G1 X53.693 Y11.398 Z12.524 F2500.000
G1 X54.667 Y11.398 Z12.130 F2500.000
G1 X55.641 Y11.398 Z11.705 F2500.000
G1 X56.615 Y11.398 Z11.246 F2500.000
G1 X56.777 Y11.436 Z11.166 F2500.000
G1 X57.909 Y85.027 Z11.492 F2500.000
G1 X60.126 Y229.128 Z12.147 F2500.000
(Break)
G0 Z26.500
G0 X61.040 Y230.028
(part 43.)
G1 X61.040 Y230.028 Z11.633 F2500.000
G1 X60.065 Y230.028 Z12.193 F2500.000
G1 X59.090 Y230.028 Z12.711 F2500.000
G1 X58.115 Y230.028 Z13.191 F2500.000
G1 X57.140 Y230.028 Z13.633 F2500.000
G1 X56.165 Y230.028 Z14.040 F2500.000
G1 X55.190 Y230.028 Z14.412 F2500.000
G1 X54.215 Y230.028 Z14.754 F2500.000
G1 X53.240 Y230.028 Z15.063 F2500.000
G1 X52.265 Y230.028 Z15.342 F2500.000
G1 X51.290 Y230.028 Z15.591 F2500.000
G1 X50.315 Y230.028 Z15.814 F2500.000
G1 X49.340 Y230.028 Z16.008 F2500.000
G1 X48.365 Y230.028 Z16.179 F2500.000
G1 X47.390 Y230.028 Z16.324 F2500.000
G1 X46.415 Y230.028 Z16.446 F2500.000
G1 X45.440 Y230.028 Z16.543 F2500.000
G1 X44.465 Y230.028 Z16.617 F2500.000
G1 X43.490 Y230.028 Z16.669 F2500.000
G1 X42.515 Y230.028 Z16.700 F2500.000
G1 X41.540 Y230.028 Z16.712 F2500.000
G1 X40.565 Y230.028 Z16.703 F2500.000
G1 X39.590 Y230.028 Z16.673 F2500.000
G1 X38.615 Y230.028 Z16.622 F2500.000
G1 X37.640 Y230.028 Z16.550 F2500.000
G1 X36.665 Y230.028 Z16.454 F2500.000
G1 X35.690 Y230.028 Z16.335 F2500.000
G1 X34.715 Y230.028 Z16.192 F2500.000
G1 X33.740 Y230.028 Z16.023 F2500.000
G1 X32.765 Y230.028 Z15.830 F2500.000
G1 X31.790 Y230.028 Z15.611 F2500.000
G1 X30.815 Y230.028 Z15.363 F2500.000
G1 X29.840 Y230.028 Z15.087 F2500.000
G1 X28.865 Y230.028 Z14.780 F2500.000
G1 X27.890 Y230.028 Z14.442 F2500.000
G1 X26.915 Y230.028 Z14.072 F2500.000
G1 X25.940 Y230.028 Z13.667 F2500.000
G1 X24.965 Y230.028 Z13.228 F2500.000
G1 X23.990 Y230.028 Z12.751 F2500.000
G1 X23.015 Y230.028 Z12.237 F2500.000
G1 X22.040 Y230.028 Z11.681 F2500.000
G1 X21.962 Y229.908 Z11.633 F2500.000
G1 X23.100 Y155.917 Z11.321 F2500.000
G1 X24.765 Y47.730 Z10.858 F2500.000
G1 X25.337 Y10.534 Z10.702 F2500.000
G1 X25.501 Y10.498 Z10.787 F2500.000
G1 X26.501 Y10.498 Z11.292 F2500.000
G1 X27.501 Y10.498 Z11.758 F2500.000
G1 X28.501 Y10.498 Z12.190 F2500.000
G1 X29.501 Y10.498 Z12.588 F2500.000
G1 X30.501 Y10.498 Z12.953 F2500.000
G1 X31.501 Y10.498 Z13.285 F2500.000
G1 X32.501 Y10.498 Z13.587 F2500.000
G1 X33.501 Y10.498 Z13.857 F2500.000
G1 X34.501 Y10.498 Z14.096 F2500.000
G1 X35.501 Y10.498 Z14.304 F2500.000
G1 X36.501 Y10.498 Z14.481 F2500.000
G1 X37.501 Y10.498 Z14.626 F2500.000
G1 X38.501 Y10.498 Z14.738 F2500.000
G1 X39.501 Y10.498 Z14.820 F2500.000
G1 X40.501 Y10.498 Z14.871 F2500.000
G1 X41.501 Y10.498 Z14.887 F2500.000
G1 X42.501 Y10.498 Z14.871 F2500.000
G1 X43.501 Y10.498 Z14.820 F2500.000
G1 X44.501 Y10.498 Z14.738 F2500.000
G1 X45.501 Y10.498 Z14.626 F2500.000
G1 X46.501 Y10.498 Z14.480 F2500.000
G1 X47.501 Y10.498 Z14.304 F2500.000
G1 X48.501 Y10.498 Z14.096 F2500.000
G1 X49.501 Y10.498 Z13.856 F2500.000
G1 X50.501 Y10.498 Z13.587 F2500.000
G1 X51.501 Y10.498 Z13.285 F2500.000
G1 X52.501 Y10.498 Z12.953 F2500.000
G1 X53.501 Y10.498 Z12.587 F2500.000
G1 X54.501 Y10.498 Z12.189 F2500.000
G1 X55.501 Y10.498 Z11.757 F2500.000
G1 X56.501 Y10.498 Z11.291 F2500.000
G1 X57.501 Y10.498 Z10.787 F2500.000
G1 X57.663 Y10.535 Z10.702 F2500.000
G1 X61.040 Y230.028 Z11.633 F2500.000
(Break)
G0 Z26.500
G0 X61.954 Y230.928
(part 45.)
G1 X61.954 Y230.928 Z11.081 F2500.000
G1 X60.959 Y230.928 Z11.693 F2500.000
G1 X59.963 Y230.928 Z12.260 F2500.000
G1 X58.968 Y230.928 Z12.785 F2500.000
G1 X57.973 Y230.928 Z13.269 F2500.000
G1 X56.978 Y230.928 Z13.713 F2500.000
G1 X55.983 Y230.928 Z14.124 F2500.000
G1 X54.988 Y230.928 Z14.497 F2500.000
G1 X53.993 Y230.928 Z14.837 F2500.000
G1 X52.998 Y230.928 Z15.145 F2500.000
G1 X52.003 Y230.928 Z15.420 F2500.000
G1 X51.007 Y230.928 Z15.668 F2500.000
G1 X50.012 Y230.928 Z15.886 F2500.000
G1 X49.017 Y230.928 Z16.077 F2500.000
G1 X48.022 Y230.928 Z16.242 F2500.000
G1 X47.027 Y230.928 Z16.381 F2500.000
G1 X46.032 Y230.928 Z16.494 F2500.000
G1 X45.037 Y230.928 Z16.584 F2500.000
G1 X44.042 Y230.928 Z16.651 F2500.000
G1 X43.046 Y230.928 Z16.694 F2500.000
G1 X42.051 Y230.928 Z16.716 F2500.000
G1 X41.056 Y230.928 Z16.717 F2500.000
G1 X40.061 Y230.928 Z16.697 F2500.000
G1 X39.066 Y230.928 Z16.656 F2500.000
G1 X38.071 Y230.928 Z16.592 F2500.000
G1 X37.076 Y230.928 Z16.505 F2500.000
G1 X36.081 Y230.928 Z16.394 F2500.000
G1 X35.085 Y230.928 Z16.258 F2500.000
G1 X34.090 Y230.928 Z16.097 F2500.000
G1 X33.095 Y230.928 Z15.909 F2500.000
G1 X32.100 Y230.928 Z15.693 F2500.000
G1 X31.105 Y230.928 Z15.449 F2500.000
G1 X30.110 Y230.928 Z15.176 F2500.000
G1 X29.115 Y230.928 Z14.871 F2500.000
G1 X28.120 Y230.928 Z14.535 F2500.000
G1 X27.124 Y230.928 Z14.165 F2500.000
G1 X26.129 Y230.928 Z13.759 F2500.000
G1 X25.134 Y230.928 Z13.319 F2500.000
G1 X24.139 Y230.928 Z12.839 F2500.000
G1 X23.144 Y230.928 Z12.319 F2500.000
G1 X22.149 Y230.928 Z11.757 F2500.000
G1 X21.154 Y230.928 Z11.148 F2500.000
G1 X21.048 Y230.836 Z11.080 F2500.000
G1 X22.300 Y149.446 Z10.766 F2500.000
G1 X24.450 Y9.662 Z10.210 F2500.000
G1 X24.586 Y9.598 Z10.285 F2500.000
G1 X25.580 Y9.598 Z10.819 F2500.000
G1 X26.575 Y9.598 Z11.316 F2500.000
G1 X27.569 Y9.598 Z11.778 F2500.000
G1 X28.563 Y9.598 Z12.206 F2500.000
G1 X29.557 Y9.598 Z12.600 F2500.000
G1 X30.551 Y9.598 Z12.962 F2500.000
G1 X31.545 Y9.598 Z13.292 F2500.000
G1 X32.539 Y9.598 Z13.590 F2500.000
G1 X33.533 Y9.598 Z13.858 F2500.000
G1 X34.528 Y9.598 Z14.094 F2500.000
G1 X35.522 Y9.598 Z14.300 F2500.000
G1 X36.516 Y9.598 Z14.475 F2500.000
G1 X37.510 Y9.598 Z14.619 F2500.000
G1 X38.504 Y9.598 Z14.732 F2500.000
G1 X39.498 Y9.598 Z14.813 F2500.000
G1 X40.492 Y9.598 Z14.863 F2500.000
G1 X41.486 Y9.598 Z14.880 F2500.000
G1 X42.480 Y9.598 Z14.864 F2500.000
G1 X43.475 Y9.598 Z14.815 F2500.000
G1 X44.469 Y9.598 Z14.734 F2500.000
G1 X45.463 Y9.598 Z14.622 F2500.000
G1 X46.457 Y9.598 Z14.480 F2500.000
G1 X47.451 Y9.598 Z14.304 F2500.000
G1 X48.445 Y9.598 Z14.100 F2500.000
G1 X49.439 Y9.598 Z13.865 F2500.000
G1 X50.433 Y9.598 Z13.598 F2500.000
G1 X51.428 Y9.598 Z13.300 F2500.000
G1 X52.422 Y9.598 Z12.971 F2500.000
G1 X53.416 Y9.598 Z12.610 F2500.000
G1 X54.410 Y9.598 Z12.217 F2500.000
G1 X55.404 Y9.598 Z11.790 F2500.000
G1 X56.398 Y9.598 Z11.330 F2500.000
G1 X57.392 Y9.598 Z10.833 F2500.000
G1 X58.386 Y9.598 Z10.300 F2500.000
G1 X58.550 Y9.635 Z10.210 F2500.000
G1 X60.777 Y154.418 Z10.786 F2500.000
G1 X61.954 Y230.928 Z11.081 F2500.000
(Break)
G0 Z26.500
G0 X62.868 Y231.828
(part 47.)
G1 X62.868 Y231.828 Z10.490 F2500.000
G1 X61.877 Y231.828 Z11.142 F2500.000
G1 X60.886 Y231.828 Z11.748 F2500.000
G1 X59.896 Y231.828 Z12.309 F2500.000
G1 X58.905 Y231.828 Z12.828 F2500.000
G1 X57.914 Y231.828 Z13.307 F2500.000
G1 X56.923 Y231.828 Z13.749 F2500.000
G1 X55.933 Y231.828 Z14.154 F2500.000
G1 X54.942 Y231.828 Z14.523 F2500.000
G1 X53.951 Y231.828 Z14.860 F2500.000
G1 X52.961 Y231.828 Z15.165 F2500.000
G1 X51.970 Y231.828 Z15.438 F2500.000
G1 X50.979 Y231.828 Z15.684 F2500.000
G1 X49.989 Y231.828 Z15.900 F2500.000
G1 X48.998 Y231.828 Z16.090 F2500.000
G1 X48.007 Y231.828 Z16.252 F2500.000
G1 X47.017 Y231.828 Z16.390 F2500.000
G1 X46.026 Y231.828 Z16.503 F2500.000
G1 X45.035 Y231.828 Z16.592 F2500.000
G1 X44.044 Y231.828 Z16.657 F2500.000
G1 X43.054 Y231.828 Z16.702 F2500.000
G1 X42.063 Y231.828 Z16.723 F2500.000
G1 X41.072 Y231.828 Z16.725 F2500.000
G1 X40.082 Y231.828 Z16.705 F2500.000
G1 X39.091 Y231.828 Z16.665 F2500.000
G1 X38.100 Y231.828 Z16.602 F2500.000
G1 X37.110 Y231.828 Z16.515 F2500.000
G1 X36.119 Y231.828 Z16.407 F2500.000
G1 X35.128 Y231.828 Z16.272 F2500.000
G1 X34.137 Y231.828 Z16.113 F2500.000
G1 X33.147 Y231.828 Z15.928 F2500.000
G1 X32.156 Y231.828 Z15.716 F2500.000
G1 X31.165 Y231.828 Z15.474 F2500.000
G1 X30.175 Y231.828 Z15.205 F2500.000
G1 X29.184 Y231.828 Z14.904 F2500.000
G1 X28.193 Y231.828 Z14.571 F2500.000
G1 X27.203 Y231.828 Z14.206 F2500.000
G1 X26.212 Y231.828 Z13.806 F2500.000
G1 X25.221 Y231.828 Z13.370 F2500.000
G1 X24.230 Y231.828 Z12.897 F2500.000
G1 X23.240 Y231.828 Z12.383 F2500.000
G1 X22.249 Y231.828 Z11.826 F2500.000
G1 X21.258 Y231.828 Z11.227 F2500.000
G1 X20.268 Y231.828 Z10.581 F2500.000
G1 X20.133 Y231.764 Z10.489 F2500.000
G1 X20.782 Y189.569 Z10.344 F2500.000
G1 X21.425 Y147.774 Z10.196 F2500.000
G1 X23.563 Y8.790 Z9.685 F2500.000
G1 X23.672 Y8.697 Z9.748 F2500.000
G1 X24.661 Y8.697 Z10.316 F2500.000
G1 X25.650 Y8.697 Z10.844 F2500.000
G1 X26.639 Y8.697 Z11.337 F2500.000
G1 X27.628 Y8.697 Z11.795 F2500.000
G1 X28.616 Y8.697 Z12.218 F2500.000
G1 X29.605 Y8.697 Z12.608 F2500.000
G1 X30.594 Y8.697 Z12.967 F2500.000
G1 X31.583 Y8.697 Z13.294 F2500.000
G1 X32.572 Y8.697 Z13.590 F2500.000
G1 X33.561 Y8.697 Z13.856 F2500.000
G1 X34.550 Y8.697 Z14.090 F2500.000
G1 X35.539 Y8.697 Z14.294 F2500.000
G1 X36.528 Y8.697 Z14.469 F2500.000
G1 X37.516 Y8.697 Z14.612 F2500.000
G1 X38.505 Y8.697 Z14.724 F2500.000
G1 X39.494 Y8.697 Z14.805 F2500.000
G1 X40.483 Y8.697 Z14.855 F2500.000
G1 X41.472 Y8.697 Z14.872 F2500.000
G1 X42.461 Y8.697 Z14.857 F2500.000
G1 X43.450 Y8.697 Z14.809 F2500.000
G1 X44.439 Y8.697 Z14.730 F2500.000
G1 X45.428 Y8.697 Z14.618 F2500.000
G1 X46.416 Y8.697 Z14.478 F2500.000
G1 X47.405 Y8.697 Z14.305 F2500.000
G1 X48.394 Y8.697 Z14.102 F2500.000
G1 X49.383 Y8.697 Z13.870 F2500.000
G1 X50.372 Y8.697 Z13.606 F2500.000
G1 X51.361 Y8.697 Z13.312 F2500.000
G1 X52.350 Y8.697 Z12.986 F2500.000
G1 X53.339 Y8.697 Z12.630 F2500.000
G1 X54.328 Y8.697 Z12.241 F2500.000
G1 X55.316 Y8.697 Z11.819 F2500.000
G1 X56.305 Y8.697 Z11.364 F2500.000
G1 X57.294 Y8.697 Z10.873 F2500.000
G1 X58.283 Y8.697 Z10.347 F2500.000
G1 X59.272 Y8.697 Z9.782 F2500.000
G1 X59.436 Y8.734 Z9.684 F2500.000
G1 X61.417 Y137.519 Z10.159 F2500.000
G1 X62.247 Y191.513 Z10.351 F2500.000
G1 X62.868 Y231.828 Z10.490 F2500.000
(Break)
G0 Z26.500
G0 X63.782 Y232.728
(part 49.)
G1 X63.782 Y232.728 Z9.856 F2500.000
G1 X62.795 Y232.728 Z10.550 F2500.000
G1 X61.808 Y232.728 Z11.198 F2500.000
G1 X60.822 Y232.728 Z11.798 F2500.000
G1 X59.835 Y232.728 Z12.354 F2500.000
G1 X58.848 Y232.728 Z12.868 F2500.000
G1 X57.862 Y232.728 Z13.344 F2500.000
G1 X56.875 Y232.728 Z13.780 F2500.000
G1 X55.888 Y232.728 Z14.181 F2500.000
G1 X54.902 Y232.728 Z14.548 F2500.000
G1 X53.915 Y232.728 Z14.882 F2500.000
G1 X52.928 Y232.728 Z15.184 F2500.000
G1 X51.942 Y232.728 Z15.455 F2500.000
G1 X50.955 Y232.728 Z15.699 F2500.000
G1 X49.968 Y232.728 Z15.914 F2500.000
G1 X48.982 Y232.728 Z16.101 F2500.000
G1 X47.995 Y232.728 Z16.263 F2500.000
G1 X47.008 Y232.728 Z16.399 F2500.000
G1 X46.022 Y232.728 Z16.511 F2500.000
G1 X45.035 Y232.728 Z16.600 F2500.000
G1 X44.048 Y232.728 Z16.665 F2500.000
G1 X43.062 Y232.728 Z16.709 F2500.000
G1 X42.075 Y232.728 Z16.732 F2500.000
G1 X41.088 Y232.728 Z16.732 F2500.000
G1 X40.102 Y232.728 Z16.714 F2500.000
G1 X39.115 Y232.728 Z16.674 F2500.000
G1 X38.128 Y232.728 Z16.612 F2500.000
G1 X37.142 Y232.728 Z16.527 F2500.000
G1 X36.155 Y232.728 Z16.419 F2500.000
G1 X35.168 Y232.728 Z16.287 F2500.000
G1 X34.182 Y232.728 Z16.129 F2500.000
G1 X33.195 Y232.728 Z15.946 F2500.000
G1 X32.208 Y232.728 Z15.736 F2500.000
G1 X31.222 Y232.728 Z15.498 F2500.000
G1 X30.235 Y232.728 Z15.231 F2500.000
G1 X29.248 Y232.728 Z14.934 F2500.000
G1 X28.262 Y232.728 Z14.605 F2500.000
G1 X27.275 Y232.728 Z14.245 F2500.000
G1 X26.288 Y232.728 Z13.849 F2500.000
G1 X25.302 Y232.728 Z13.417 F2500.000
G1 X24.315 Y232.728 Z12.950 F2500.000
G1 X23.328 Y232.728 Z12.441 F2500.000
G1 X22.342 Y232.728 Z11.892 F2500.000
G1 X21.355 Y232.728 Z11.300 F2500.000
G1 X20.368 Y232.728 Z10.660 F2500.000
G1 X19.382 Y232.728 Z9.974 F2500.000
G1 X19.219 Y232.692 Z9.856 F2500.000
G1 X19.936 Y186.097 Z9.715 F2500.000
G1 X20.797 Y130.104 Z9.537 F2500.000
G1 X21.637 Y75.510 Z9.356 F2500.000
G1 X22.677 Y7.918 Z9.125 F2500.000
G1 X22.758 Y7.798 Z9.175 F2500.000
G1 X23.742 Y7.798 Z9.778 F2500.000
G1 X24.726 Y7.798 Z10.341 F2500.000
G1 X25.710 Y7.798 Z10.864 F2500.000
G1 X26.694 Y7.798 Z11.353 F2500.000
G1 X27.679 Y7.798 Z11.807 F2500.000
G1 X28.663 Y7.798 Z12.226 F2500.000
G1 X29.647 Y7.798 Z12.615 F2500.000
G1 X30.631 Y7.798 Z12.970 F2500.000
G1 X31.615 Y7.798 Z13.295 F2500.000
G1 X32.600 Y7.798 Z13.588 F2500.000
G1 X33.584 Y7.798 Z13.852 F2500.000
G1 X34.568 Y7.798 Z14.085 F2500.000
G1 X35.552 Y7.798 Z14.289 F2500.000
G1 X36.537 Y7.798 Z14.462 F2500.000
G1 X37.521 Y7.798 Z14.605 F2500.000
G1 X38.505 Y7.798 Z14.717 F2500.000
G1 X39.489 Y7.798 Z14.797 F2500.000
G1 X40.473 Y7.798 Z14.846 F2500.000
G1 X41.458 Y7.798 Z14.865 F2500.000
G1 X42.442 Y7.798 Z14.849 F2500.000
G1 X43.426 Y7.798 Z14.803 F2500.000
G1 X44.410 Y7.798 Z14.725 F2500.000
G1 X45.394 Y7.798 Z14.615 F2500.000
G1 X46.379 Y7.798 Z14.476 F2500.000
G1 X47.363 Y7.798 Z14.306 F2500.000
G1 X48.347 Y7.798 Z14.104 F2500.000
G1 X49.331 Y7.798 Z13.874 F2500.000
G1 X50.315 Y7.798 Z13.613 F2500.000
G1 X51.300 Y7.798 Z13.322 F2500.000
G1 X52.284 Y7.798 Z12.999 F2500.000
G1 X53.268 Y7.798 Z12.646 F2500.000
G1 X54.252 Y7.798 Z12.261 F2500.000
G1 X55.237 Y7.798 Z11.845 F2500.000
G1 X56.221 Y7.798 Z11.393 F2500.000
G1 X57.205 Y7.798 Z10.908 F2500.000
G1 X58.189 Y7.798 Z10.387 F2500.000
G1 X59.173 Y7.798 Z9.827 F2500.000
G1 X60.158 Y7.798 Z9.228 F2500.000
G1 X60.322 Y7.834 Z9.125 F2500.000
G1 X62.205 Y130.219 Z9.537 F2500.000
G1 X63.068 Y186.312 Z9.716 F2500.000
G1 X63.782 Y232.728 Z9.856 F2500.000
(Break)
G0 Z26.500
G0 X64.696 Y233.628
(part 51.)
G1 X64.696 Y233.628 Z9.179 F2500.000
G1 X63.713 Y233.628 Z9.919 F2500.000
G1 X62.730 Y233.628 Z10.607 F2500.000
G1 X61.747 Y233.628 Z11.248 F2500.000
G1 X60.764 Y233.628 Z11.843 F2500.000
G1 X59.781 Y233.628 Z12.394 F2500.000
G1 X58.798 Y233.628 Z12.904 F2500.000
G1 X57.815 Y233.628 Z13.375 F2500.000
G1 X56.832 Y233.628 Z13.809 F2500.000
G1 X55.849 Y233.628 Z14.206 F2500.000
G1 X54.866 Y233.628 Z14.571 F2500.000
G1 X53.883 Y233.628 Z14.901 F2500.000
G1 X52.900 Y233.628 Z15.203 F2500.000
G1 X51.917 Y233.628 Z15.471 F2500.000
G1 X50.934 Y233.628 Z15.713 F2500.000
G1 X49.951 Y233.628 Z15.925 F2500.000
G1 X48.968 Y233.628 Z16.112 F2500.000
G1 X47.985 Y233.628 Z16.272 F2500.000
G1 X47.002 Y233.628 Z16.407 F2500.000
G1 X46.019 Y233.628 Z16.519 F2500.000
G1 X45.036 Y233.628 Z16.607 F2500.000
G1 X44.053 Y233.628 Z16.672 F2500.000
G1 X43.070 Y233.628 Z16.717 F2500.000
G1 X42.087 Y233.628 Z16.739 F2500.000
G1 X41.104 Y233.628 Z16.740 F2500.000
G1 X40.121 Y233.628 Z16.722 F2500.000
G1 X39.138 Y233.628 Z16.683 F2500.000
G1 X38.155 Y233.628 Z16.621 F2500.000
G1 X37.172 Y233.628 Z16.538 F2500.000
G1 X36.189 Y233.628 Z16.431 F2500.000
G1 X35.206 Y233.628 Z16.301 F2500.000
G1 X34.223 Y233.628 Z16.144 F2500.000
G1 X33.240 Y233.628 Z15.965 F2500.000
G1 X32.257 Y233.628 Z15.756 F2500.000
G1 X31.274 Y233.628 Z15.522 F2500.000
G1 X30.291 Y233.628 Z15.256 F2500.000
G1 X29.308 Y233.628 Z14.963 F2500.000
G1 X28.325 Y233.628 Z14.637 F2500.000
G1 X27.342 Y233.628 Z14.280 F2500.000
G1 X26.359 Y233.628 Z13.889 F2500.000
G1 X25.376 Y233.628 Z13.462 F2500.000
G1 X24.393 Y233.628 Z12.999 F2500.000
G1 X23.410 Y233.628 Z12.496 F2500.000
G1 X22.427 Y233.628 Z11.953 F2500.000
G1 X21.445 Y233.628 Z11.367 F2500.000
G1 X20.462 Y233.628 Z10.736 F2500.000
G1 X19.479 Y233.628 Z10.057 F2500.000
G1 X18.496 Y233.628 Z9.327 F2500.000
G1 X18.305 Y233.620 Z9.179 F2500.000
G1 X19.049 Y185.225 Z9.054 F2500.000
G1 X19.913 Y129.032 Z8.898 F2500.000
G1 X20.852 Y68.039 Z8.718 F2500.000
G1 X21.781 Y7.646 Z8.532 F2500.000
G1 X21.790 Y7.046 Z8.531 F2500.000
G1 X21.843 Y6.897 Z8.565 F2500.000
G1 X22.823 Y6.897 Z9.205 F2500.000
G1 X23.803 Y6.897 Z9.802 F2500.000
G1 X24.783 Y6.897 Z10.361 F2500.000
G1 X25.763 Y6.897 Z10.880 F2500.000
G1 X26.743 Y6.897 Z11.365 F2500.000
G1 X27.723 Y6.897 Z11.816 F2500.000
G1 X28.703 Y6.897 Z12.232 F2500.000
G1 X29.683 Y6.897 Z12.619 F2500.000
G1 X30.663 Y6.897 Z12.971 F2500.000
G1 X31.643 Y6.897 Z13.295 F2500.000
G1 X32.623 Y6.897 Z13.586 F2500.000
G1 X33.603 Y6.897 Z13.849 F2500.000
G1 X34.583 Y6.897 Z14.080 F2500.000
G1 X35.563 Y6.897 Z14.283 F2500.000
G1 X36.543 Y6.897 Z14.454 F2500.000
G1 X37.523 Y6.897 Z14.597 F2500.000
G1 X38.503 Y6.897 Z14.708 F2500.000
G1 X39.483 Y6.897 Z14.789 F2500.000
G1 X40.463 Y6.897 Z14.839 F2500.000
G1 X41.443 Y6.897 Z14.857 F2500.000
G1 X42.423 Y6.897 Z14.843 F2500.000
G1 X43.403 Y6.897 Z14.796 F2500.000
G1 X44.383 Y6.897 Z14.720 F2500.000
G1 X45.363 Y6.897 Z14.611 F2500.000
G1 X46.343 Y6.897 Z14.473 F2500.000
G1 X47.323 Y6.897 Z14.305 F2500.000
G1 X48.303 Y6.897 Z14.105 F2500.000
G1 X49.283 Y6.897 Z13.877 F2500.000
G1 X50.263 Y6.897 Z13.618 F2500.000
G1 X51.243 Y6.897 Z13.330 F2500.000
G1 X52.223 Y6.897 Z13.010 F2500.000
G1 X53.203 Y6.897 Z12.660 F2500.000
G1 X54.183 Y6.897 Z12.279 F2500.000
G1 X55.163 Y6.897 Z11.866 F2500.000
G1 X56.143 Y6.897 Z11.419 F2500.000
G1 X57.123 Y6.897 Z10.939 F2500.000
G1 X58.103 Y6.897 Z10.422 F2500.000
G1 X59.083 Y6.897 Z9.868 F2500.000
G1 X60.063 Y6.897 Z9.275 F2500.000
G1 X61.043 Y6.897 Z8.640 F2500.000
G1 X61.208 Y6.933 Z8.530 F2500.000
G1 X62.097 Y64.726 Z8.708 F2500.000
G1 X63.088 Y129.118 Z8.898 F2500.000
G1 X63.938 Y184.412 Z9.052 F2500.000
G1 X64.696 Y233.628 Z9.179 F2500.000
(Break)
G0 Z26.500
G0 X65.610 Y234.528
(part 53.)
G1 X65.610 Y234.528 Z8.454 F2500.000
G1 X64.626 Y234.528 Z9.245 F2500.000
G1 X63.642 Y234.528 Z9.983 F2500.000
G1 X62.659 Y234.528 Z10.668 F2500.000
G1 X61.675 Y234.528 Z11.305 F2500.000
G1 X60.691 Y234.528 Z11.897 F2500.000
G1 X59.707 Y234.528 Z12.445 F2500.000
G1 X58.724 Y234.528 Z12.952 F2500.000
G1 X57.740 Y234.528 Z13.420 F2500.000
G1 X56.756 Y234.528 Z13.852 F2500.000
G1 X55.773 Y234.528 Z14.247 F2500.000
G1 X54.789 Y234.528 Z14.609 F2500.000
G1 X53.805 Y234.528 Z14.937 F2500.000
G1 X52.822 Y234.528 Z15.234 F2500.000
G1 X51.838 Y234.528 Z15.501 F2500.000
G1 X50.854 Y234.528 Z15.739 F2500.000
G1 X49.871 Y234.528 Z15.950 F2500.000
G1 X48.887 Y234.528 Z16.135 F2500.000
G1 X47.903 Y234.528 Z16.293 F2500.000
G1 X46.920 Y234.528 Z16.426 F2500.000
G1 X45.936 Y234.528 Z16.535 F2500.000
G1 X44.952 Y234.528 Z16.621 F2500.000
G1 X43.969 Y234.528 Z16.685 F2500.000
G1 X42.985 Y234.528 Z16.726 F2500.000
G1 X42.001 Y234.528 Z16.747 F2500.000
G1 X41.018 Y234.528 Z16.748 F2500.000
G1 X40.034 Y234.528 Z16.726 F2500.000
G1 X39.050 Y234.528 Z16.686 F2500.000
G1 X38.067 Y234.528 Z16.623 F2500.000
G1 X37.083 Y234.528 Z16.538 F2500.000
G1 X36.099 Y234.528 Z16.428 F2500.000
G1 X35.116 Y234.528 Z16.296 F2500.000
G1 X34.132 Y234.528 Z16.138 F2500.000
G1 X33.148 Y234.528 Z15.955 F2500.000
G1 X32.165 Y234.528 Z15.744 F2500.000
G1 X31.181 Y234.528 Z15.506 F2500.000
G1 X30.197 Y234.528 Z15.239 F2500.000
G1 X29.214 Y234.528 Z14.943 F2500.000
G1 X28.230 Y234.528 Z14.615 F2500.000
G1 X27.246 Y234.528 Z14.254 F2500.000
G1 X26.263 Y234.528 Z13.860 F2500.000
G1 X25.279 Y234.528 Z13.429 F2500.000
G1 X24.295 Y234.528 Z12.962 F2500.000
G1 X23.312 Y234.528 Z12.455 F2500.000
G1 X22.328 Y234.528 Z11.909 F2500.000
G1 X21.344 Y234.528 Z11.318 F2500.000
G1 X20.361 Y234.528 Z10.682 F2500.000
G1 X19.377 Y234.528 Z9.997 F2500.000
G1 X18.393 Y234.528 Z9.260 F2500.000
G1 X17.410 Y234.528 Z8.470 F2500.000
G1 X17.393 Y234.348 Z8.454 F2500.000
G1 X18.187 Y182.754 Z8.345 F2500.000
G1 X19.051 Y126.560 Z8.213 F2500.000
G1 X20.014 Y63.968 Z8.054 F2500.000
G1 X20.903 Y6.175 Z7.896 F2500.000
G1 X20.929 Y5.997 Z7.913 F2500.000
G1 X21.929 Y5.997 Z8.610 F2500.000
G1 X22.929 Y5.997 Z9.258 F2500.000
G1 X23.929 Y5.997 Z9.864 F2500.000
G1 X24.929 Y5.997 Z10.428 F2500.000
G1 X25.929 Y5.997 Z10.955 F2500.000
G1 X26.929 Y5.997 Z11.443 F2500.000
G1 X27.929 Y5.997 Z11.896 F2500.000
G1 X28.929 Y5.997 Z12.314 F2500.000
G1 X29.929 Y5.997 Z12.700 F2500.000
G1 X30.929 Y5.997 Z13.053 F2500.000
G1 X31.929 Y5.997 Z13.374 F2500.000
G1 X32.929 Y5.997 Z13.663 F2500.000
G1 X33.929 Y5.997 Z13.920 F2500.000
G1 X34.929 Y5.997 Z14.147 F2500.000
G1 X35.929 Y5.997 Z14.342 F2500.000
G1 X36.929 Y5.997 Z14.507 F2500.000
G1 X37.929 Y5.997 Z14.638 F2500.000
G1 X38.929 Y5.997 Z14.740 F2500.000
G1 X39.929 Y5.997 Z14.808 F2500.000
G1 X40.929 Y5.997 Z14.843 F2500.000
G1 X41.929 Y5.997 Z14.846 F2500.000
G1 X42.929 Y5.997 Z14.815 F2500.000
G1 X43.929 Y5.997 Z14.751 F2500.000
G1 X44.929 Y5.997 Z14.655 F2500.000
G1 X45.929 Y5.997 Z14.528 F2500.000
G1 X46.929 Y5.997 Z14.367 F2500.000
G1 X47.929 Y5.997 Z14.177 F2500.000
G1 X48.929 Y5.997 Z13.954 F2500.000
G1 X49.929 Y5.997 Z13.701 F2500.000
G1 X50.929 Y5.997 Z13.417 F2500.000
G1 X51.929 Y5.997 Z13.101 F2500.000
G1 X52.929 Y5.997 Z12.752 F2500.000
G1 X53.929 Y5.997 Z12.372 F2500.000
G1 X54.929 Y5.997 Z11.957 F2500.000
G1 X55.929 Y5.997 Z11.510 F2500.000
G1 X56.929 Y5.997 Z11.025 F2500.000
G1 X57.929 Y5.997 Z10.505 F2500.000
G1 X58.929 Y5.997 Z9.948 F2500.000
G1 X59.929 Y5.997 Z9.348 F2500.000
G1 X60.929 Y5.997 Z8.705 F2500.000
G1 X61.929 Y5.997 Z8.016 F2500.000
G1 X62.095 Y6.032 Z7.897 F2500.000
G1 X62.993 Y64.425 Z8.055 F2500.000
G1 X63.916 Y124.418 Z8.208 F2500.000
G1 X64.814 Y182.811 Z8.345 F2500.000
G1 X65.610 Y234.528 Z8.454 F2500.000
(Break)
G0 Z26.500
G0 X66.523 Y235.428
(part 55.)
G1 X66.523 Y235.428 Z7.681 F2500.000
G1 X65.523 Y235.428 Z8.539 F2500.000
G1 X64.523 Y235.428 Z9.337 F2500.000
G1 X63.523 Y235.428 Z10.081 F2500.000
G1 X62.523 Y235.428 Z10.771 F2500.000
G1 X61.523 Y235.428 Z11.412 F2500.000
G1 X60.523 Y235.428 Z12.006 F2500.000
G1 X59.523 Y235.428 Z12.555 F2500.000
G1 X58.523 Y235.428 Z13.062 F2500.000
G1 X57.523 Y235.428 Z13.530 F2500.000
G1 X56.523 Y235.428 Z13.960 F2500.000
G1 X55.523 Y235.428 Z14.352 F2500.000
G1 X54.523 Y235.428 Z14.710 F2500.000
G1 X53.523 Y235.428 Z15.036 F2500.000
G1 X52.523 Y235.428 Z15.328 F2500.000
G1 X51.523 Y235.428 Z15.590 F2500.000
G1 X50.523 Y235.428 Z15.823 F2500.000
G1 X49.523 Y235.428 Z16.028 F2500.000
G1 X48.523 Y235.428 Z16.205 F2500.000
G1 X47.523 Y235.428 Z16.356 F2500.000
G1 X46.523 Y235.428 Z16.481 F2500.000
G1 X45.523 Y235.428 Z16.581 F2500.000
G1 X44.523 Y235.428 Z16.660 F2500.000
G1 X43.523 Y235.428 Z16.713 F2500.000
G1 X42.523 Y235.428 Z16.746 F2500.000
G1 X41.523 Y235.428 Z16.757 F2500.000
G1 X40.523 Y235.428 Z16.747 F2500.000
G1 X39.523 Y235.428 Z16.716 F2500.000
G1 X38.523 Y235.428 Z16.663 F2500.000
G1 X37.523 Y235.428 Z16.586 F2500.000
G1 X36.523 Y235.428 Z16.486 F2500.000
G1 X35.523 Y235.428 Z16.362 F2500.000
G1 X34.523 Y235.428 Z16.213 F2500.000
G1 X33.523 Y235.428 Z16.037 F2500.000
G1 X32.523 Y235.428 Z15.834 F2500.000
G1 X31.523 Y235.428 Z15.602 F2500.000
G1 X30.523 Y235.428 Z15.341 F2500.000
G1 X29.523 Y235.428 Z15.050 F2500.000
G1 X28.523 Y235.428 Z14.727 F2500.000
G1 X27.523 Y235.428 Z14.370 F2500.000
G1 X26.523 Y235.428 Z13.979 F2500.000
G1 X25.523 Y235.428 Z13.552 F2500.000
G1 X24.523 Y235.428 Z13.085 F2500.000
G1 X23.523 Y235.428 Z12.580 F2500.000
G1 X22.523 Y235.428 Z12.033 F2500.000
G1 X21.523 Y235.428 Z11.440 F2500.000
G1 X20.523 Y235.428 Z10.802 F2500.000
G1 X19.523 Y235.428 Z10.114 F2500.000
G1 X18.523 Y235.428 Z9.374 F2500.000
G1 X17.523 Y235.428 Z8.579 F2500.000
G1 X16.523 Y235.428 Z7.723 F2500.000
G1 X16.479 Y235.275 Z7.681 F2500.000
G1 X17.365 Y177.682 Z7.585 F2500.000
G1 X18.245 Y120.489 Z7.477 F2500.000
G1 X19.131 Y62.896 Z7.356 F2500.000
G1 X20.020 Y5.103 Z7.222 F2500.000
G1 X20.214 Y5.098 Z7.371 F2500.000
G1 X21.205 Y5.098 Z8.099 F2500.000
G1 X22.196 Y5.098 Z8.775 F2500.000
G1 X23.187 Y5.098 Z9.408 F2500.000
G1 X24.177 Y5.098 Z9.998 F2500.000
G1 X25.168 Y5.098 Z10.547 F2500.000
G1 X26.159 Y5.098 Z11.058 F2500.000
G1 X27.149 Y5.098 Z11.536 F2500.000
G1 X28.140 Y5.098 Z11.976 F2500.000
G1 X29.131 Y5.098 Z12.385 F2500.000
G1 X30.121 Y5.098 Z12.761 F2500.000
G1 X31.112 Y5.098 Z13.105 F2500.000
G1 X32.103 Y5.098 Z13.417 F2500.000
G1 X33.094 Y5.098 Z13.699 F2500.000
G1 X34.084 Y5.098 Z13.950 F2500.000
G1 X35.075 Y5.098 Z14.170 F2500.000
G1 X36.066 Y5.098 Z14.358 F2500.000
G1 X37.056 Y5.098 Z14.518 F2500.000
G1 X38.047 Y5.098 Z14.644 F2500.000
G1 X39.038 Y5.098 Z14.741 F2500.000
G1 X40.028 Y5.098 Z14.806 F2500.000
G1 X41.019 Y5.098 Z14.838 F2500.000
G1 X42.010 Y5.098 Z14.837 F2500.000
G1 X43.001 Y5.098 Z14.805 F2500.000
G1 X43.991 Y5.098 Z14.739 F2500.000
G1 X44.982 Y5.098 Z14.641 F2500.000
G1 X45.973 Y5.098 Z14.514 F2500.000
G1 X46.963 Y5.098 Z14.353 F2500.000
G1 X47.954 Y5.098 Z14.164 F2500.000
G1 X48.945 Y5.098 Z13.943 F2500.000
G1 X49.935 Y5.098 Z13.691 F2500.000
G1 X50.926 Y5.098 Z13.408 F2500.000
G1 X51.917 Y5.098 Z13.095 F2500.000
G1 X52.907 Y5.098 Z12.750 F2500.000
G1 X53.898 Y5.098 Z12.373 F2500.000
G1 X54.889 Y5.098 Z11.964 F2500.000
G1 X55.880 Y5.098 Z11.522 F2500.000
G1 X56.870 Y5.098 Z11.044 F2500.000
G1 X57.861 Y5.098 Z10.532 F2500.000
G1 X58.852 Y5.098 Z9.981 F2500.000
G1 X59.842 Y5.098 Z9.390 F2500.000
G1 X60.833 Y5.098 Z8.756 F2500.000
G1 X61.824 Y5.098 Z8.079 F2500.000
G1 X62.814 Y5.098 Z7.349 F2500.000
G1 X62.981 Y5.132 Z7.222 F2500.000
G1 X63.876 Y63.325 Z7.357 F2500.000
G1 X64.780 Y122.118 Z7.480 F2500.000
G1 X65.636 Y177.711 Z7.585 F2500.000
G1 X66.523 Y235.428 Z7.681 F2500.000
(Break)
G0 Z26.500
G0 X67.437 Y236.328
(part 57.)
G1 X67.437 Y236.328 Z6.855 F2500.000
G1 X66.441 Y236.328 Z7.766 F2500.000
G1 X65.445 Y236.328 Z8.618 F2500.000
G1 X64.449 Y236.328 Z9.409 F2500.000
G1 X63.453 Y236.328 Z10.144 F2500.000
G1 X62.457 Y236.328 Z10.827 F2500.000
G1 X61.461 Y236.328 Z11.462 F2500.000
G1 X60.464 Y236.328 Z12.051 F2500.000
G1 X59.468 Y236.328 Z12.596 F2500.000
G1 X58.472 Y236.328 Z13.098 F2500.000
G1 X57.476 Y236.328 Z13.561 F2500.000
G1 X56.480 Y236.328 Z13.989 F2500.000
G1 X55.484 Y236.328 Z14.378 F2500.000
G1 X54.487 Y236.328 Z14.732 F2500.000
G1 X53.491 Y236.328 Z15.056 F2500.000
G1 X52.495 Y236.328 Z15.345 F2500.000
G1 X51.499 Y236.328 Z15.605 F2500.000
G1 X50.503 Y236.328 Z15.837 F2500.000
G1 X49.507 Y236.328 Z16.039 F2500.000
G1 X48.511 Y236.328 Z16.215 F2500.000
G1 X47.514 Y236.328 Z16.365 F2500.000
G1 X46.518 Y236.328 Z16.489 F2500.000
G1 X45.522 Y236.328 Z16.589 F2500.000
G1 X44.526 Y236.328 Z16.666 F2500.000
G1 X43.530 Y236.328 Z16.721 F2500.000
G1 X42.534 Y236.328 Z16.753 F2500.000
G1 X41.537 Y236.328 Z16.765 F2500.000
G1 X40.541 Y236.328 Z16.755 F2500.000
G1 X39.545 Y236.328 Z16.725 F2500.000
G1 X38.549 Y236.328 Z16.672 F2500.000
G1 X37.553 Y236.328 Z16.596 F2500.000
G1 X36.557 Y236.328 Z16.497 F2500.000
G1 X35.561 Y236.328 Z16.376 F2500.000
G1 X34.564 Y236.328 Z16.227 F2500.000
G1 X33.568 Y236.328 Z16.053 F2500.000
G1 X32.572 Y236.328 Z15.852 F2500.000
G1 X31.576 Y236.328 Z15.624 F2500.000
G1 X30.580 Y236.328 Z15.366 F2500.000
G1 X29.584 Y236.328 Z15.078 F2500.000
G1 X28.587 Y236.328 Z14.758 F2500.000
G1 X27.591 Y236.328 Z14.406 F2500.000
G1 X26.595 Y236.328 Z14.018 F2500.000
G1 X25.599 Y236.328 Z13.595 F2500.000
G1 X24.603 Y236.328 Z13.135 F2500.000
G1 X23.607 Y236.328 Z12.634 F2500.000
G1 X22.611 Y236.328 Z12.093 F2500.000
G1 X21.614 Y236.328 Z11.509 F2500.000
G1 X20.618 Y236.328 Z10.878 F2500.000
G1 X19.622 Y236.328 Z10.198 F2500.000
G1 X18.626 Y236.328 Z9.465 F2500.000
G1 X17.630 Y236.328 Z8.679 F2500.000
G1 X16.634 Y236.328 Z7.833 F2500.000
G1 X15.637 Y236.328 Z6.924 F2500.000
G1 X15.564 Y236.203 Z6.855 F2500.000
G1 X16.380 Y183.210 Z6.793 F2500.000
G1 X17.278 Y124.817 Z6.712 F2500.000
G1 X17.290 Y124.017 Z6.708 F2500.000
G1 X17.546 Y107.419 Z6.685 F2500.000
G1 X18.219 Y63.624 Z6.613 F2500.000
G1 X19.133 Y4.231 Z6.503 F2500.000
G1 X19.300 Y4.197 Z6.640 F2500.000
G1 X20.287 Y4.197 Z7.415 F2500.000
G1 X21.273 Y4.197 Z8.134 F2500.000
G1 X22.260 Y4.197 Z8.805 F2500.000
G1 X23.247 Y4.197 Z9.432 F2500.000
G1 X24.233 Y4.197 Z10.018 F2500.000
G1 X25.220 Y4.197 Z10.563 F2500.000
G1 X26.207 Y4.197 Z11.072 F2500.000
G1 X27.193 Y4.197 Z11.546 F2500.000
G1 X28.180 Y4.197 Z11.984 F2500.000
G1 X29.167 Y4.197 Z12.389 F2500.000
G1 X30.153 Y4.197 Z12.763 F2500.000
G1 X31.140 Y4.197 Z13.105 F2500.000
G1 X32.127 Y4.197 Z13.416 F2500.000
G1 X33.113 Y4.197 Z13.695 F2500.000
G1 X34.100 Y4.197 Z13.944 F2500.000
G1 X35.087 Y4.197 Z14.163 F2500.000
G1 X36.073 Y4.197 Z14.353 F2500.000
G1 X37.060 Y4.197 Z14.510 F2500.000
G1 X38.047 Y4.197 Z14.638 F2500.000
G1 X39.033 Y4.197 Z14.733 F2500.000
G1 X40.020 Y4.197 Z14.798 F2500.000
G1 X41.007 Y4.197 Z14.829 F2500.000
G1 X41.993 Y4.197 Z14.830 F2500.000
G1 X42.980 Y4.197 Z14.798 F2500.000
G1 X43.967 Y4.197 Z14.733 F2500.000
G1 X44.953 Y4.197 Z14.637 F2500.000
G1 X45.940 Y4.197 Z14.510 F2500.000
G1 X46.927 Y4.197 Z14.353 F2500.000
G1 X47.913 Y4.197 Z14.163 F2500.000
G1 X48.900 Y4.197 Z13.944 F2500.000
G1 X49.887 Y4.197 Z13.695 F2500.000
G1 X50.873 Y4.197 Z13.416 F2500.000
G1 X51.860 Y4.197 Z13.105 F2500.000
G1 X52.847 Y4.197 Z12.763 F2500.000
G1 X53.833 Y4.197 Z12.389 F2500.000
G1 X54.820 Y4.197 Z11.984 F2500.000
G1 X55.807 Y4.197 Z11.545 F2500.000
G1 X56.793 Y4.197 Z11.072 F2500.000
G1 X57.780 Y4.197 Z10.563 F2500.000
G1 X58.767 Y4.197 Z10.018 F2500.000
G1 X59.753 Y4.197 Z9.432 F2500.000
G1 X60.740 Y4.197 Z8.805 F2500.000
G1 X61.727 Y4.197 Z8.134 F2500.000
G1 X62.713 Y4.197 Z7.414 F2500.000
G1 X63.700 Y4.197 Z6.640 F2500.000
G1 X63.867 Y4.231 Z6.503 F2500.000
G1 X64.772 Y63.074 Z6.612 F2500.000
G1 X65.676 Y121.817 Z6.707 F2500.000
G1 X66.402 Y169.012 Z6.774 F2500.000
G1 X66.586 Y181.010 Z6.787 F2500.000
G1 X66.620 Y183.210 Z6.793 F2500.000
G1 X67.437 Y236.328 Z6.855 F2500.000
(Break)
G0 Z26.500
G0 X68.351 Y237.228
(part 59.)
G1 X68.351 Y237.228 Z5.973 F2500.000
G1 X67.359 Y237.228 Z6.943 F2500.000
G1 X66.366 Y237.228 Z7.847 F2500.000
G1 X65.374 Y237.228 Z8.689 F2500.000
G1 X64.381 Y237.228 Z9.473 F2500.000
G1 X63.388 Y237.228 Z10.203 F2500.000
G1 X62.396 Y237.228 Z10.880 F2500.000
G1 X61.403 Y237.228 Z11.510 F2500.000
G1 X60.411 Y237.228 Z12.094 F2500.000
G1 X59.418 Y237.228 Z12.633 F2500.000
G1 X58.425 Y237.228 Z13.133 F2500.000
G1 X57.433 Y237.228 Z13.592 F2500.000
G1 X56.440 Y237.228 Z14.015 F2500.000
G1 X55.448 Y237.228 Z14.402 F2500.000
G1 X54.455 Y237.228 Z14.754 F2500.000
G1 X53.462 Y237.228 Z15.073 F2500.000
G1 X52.470 Y237.228 Z15.362 F2500.000
G1 X51.477 Y237.228 Z15.621 F2500.000
G1 X50.485 Y237.228 Z15.850 F2500.000
G1 X49.492 Y237.228 Z16.051 F2500.000
G1 X48.500 Y237.228 Z16.226 F2500.000
G1 X47.507 Y237.228 Z16.374 F2500.000
G1 X46.514 Y237.228 Z16.499 F2500.000
G1 X45.522 Y237.228 Z16.597 F2500.000
G1 X44.529 Y237.228 Z16.675 F2500.000
G1 X43.537 Y237.228 Z16.729 F2500.000
G1 X42.544 Y237.228 Z16.761 F2500.000
G1 X41.551 Y237.228 Z16.772 F2500.000
G1 X40.559 Y237.228 Z16.763 F2500.000
G1 X39.566 Y237.228 Z16.733 F2500.000
G1 X38.574 Y237.228 Z16.681 F2500.000
G1 X37.581 Y237.228 Z16.607 F2500.000
G1 X36.588 Y237.228 Z16.510 F2500.000
G1 X35.596 Y237.228 Z16.389 F2500.000
G1 X34.603 Y237.228 Z16.242 F2500.000
G1 X33.611 Y237.228 Z16.071 F2500.000
G1 X32.618 Y237.228 Z15.872 F2500.000
G1 X31.625 Y237.228 Z15.645 F2500.000
G1 X30.633 Y237.228 Z15.390 F2500.000
G1 X29.640 Y237.228 Z15.105 F2500.000
G1 X28.648 Y237.228 Z14.789 F2500.000
G1 X27.655 Y237.228 Z14.439 F2500.000
G1 X26.662 Y237.228 Z14.057 F2500.000
G1 X25.670 Y237.228 Z13.639 F2500.000
G1 X24.677 Y237.228 Z13.183 F2500.000
G1 X23.685 Y237.228 Z12.687 F2500.000
G1 X22.692 Y237.228 Z12.152 F2500.000
G1 X21.700 Y237.228 Z11.572 F2500.000
G1 X20.707 Y237.228 Z10.947 F2500.000
G1 X19.714 Y237.228 Z10.275 F2500.000
G1 X18.722 Y237.228 Z9.551 F2500.000
G1 X17.729 Y237.228 Z8.773 F2500.000
G1 X16.737 Y237.228 Z7.938 F2500.000
G1 X15.744 Y237.228 Z7.037 F2500.000
G1 X14.751 Y237.228 Z6.076 F2500.000
G1 X14.650 Y237.131 Z5.972 F2500.000
G1 X15.555 Y178.338 Z5.931 F2500.000
G1 X15.604 Y175.139 Z5.925 F2500.000
G1 X15.647 Y172.339 Z5.926 F2500.000
G1 X16.431 Y121.345 Z5.879 F2500.000
G1 X17.323 Y63.352 Z5.814 F2500.000
G1 X18.246 Y3.359 Z5.733 F2500.000
G1 X18.386 Y3.297 Z5.855 F2500.000
G1 X19.369 Y3.297 Z6.683 F2500.000
G1 X20.352 Y3.297 Z7.451 F2500.000
G1 X21.335 Y3.297 Z8.165 F2500.000
G1 X22.318 Y3.297 Z8.832 F2500.000
G1 X23.301 Y3.297 Z9.455 F2500.000
G1 X24.284 Y3.297 Z10.036 F2500.000
G1 X25.267 Y3.297 Z10.577 F2500.000
G1 X26.250 Y3.297 Z11.082 F2500.000
G1 X27.233 Y3.297 Z11.553 F2500.000
G1 X28.216 Y3.297 Z11.990 F2500.000
G1 X29.198 Y3.297 Z12.392 F2500.000
G1 X30.181 Y3.297 Z12.764 F2500.000
G1 X31.164 Y3.297 Z13.104 F2500.000
G1 X32.147 Y3.297 Z13.413 F2500.000
G1 X33.130 Y3.297 Z13.691 F2500.000
G1 X34.113 Y3.297 Z13.940 F2500.000
G1 X35.096 Y3.297 Z14.157 F2500.000
G1 X36.079 Y3.297 Z14.345 F2500.000
G1 X37.062 Y3.297 Z14.503 F2500.000
G1 X38.045 Y3.297 Z14.629 F2500.000
G1 X39.028 Y3.297 Z14.725 F2500.000
G1 X40.011 Y3.297 Z14.789 F2500.000
G1 X40.994 Y3.297 Z14.823 F2500.000
G1 X41.977 Y3.297 Z14.823 F2500.000
G1 X42.960 Y3.297 Z14.790 F2500.000
G1 X43.943 Y3.297 Z14.728 F2500.000
G1 X44.926 Y3.297 Z14.633 F2500.000
G1 X45.909 Y3.297 Z14.507 F2500.000
G1 X46.892 Y3.297 Z14.350 F2500.000
G1 X47.875 Y3.297 Z14.163 F2500.000
G1 X48.858 Y3.297 Z13.946 F2500.000
G1 X49.841 Y3.297 Z13.699 F2500.000
G1 X50.824 Y3.297 Z13.422 F2500.000
G1 X51.807 Y3.297 Z13.113 F2500.000
G1 X52.790 Y3.297 Z12.774 F2500.000
G1 X53.773 Y3.297 Z12.404 F2500.000
G1 X54.756 Y3.297 Z12.001 F2500.000
G1 X55.739 Y3.297 Z11.566 F2500.000
G1 X56.722 Y3.297 Z11.097 F2500.000
G1 X57.705 Y3.297 Z10.592 F2500.000
G1 X58.688 Y3.297 Z10.051 F2500.000
G1 X59.671 Y3.297 Z9.472 F2500.000
G1 X60.654 Y3.297 Z8.850 F2500.000
G1 X61.637 Y3.297 Z8.185 F2500.000
G1 X62.620 Y3.297 Z7.472 F2500.000
G1 X63.603 Y3.297 Z6.706 F2500.000
G1 X64.586 Y3.297 Z5.880 F2500.000
G1 X64.753 Y3.330 Z5.733 F2500.000
G1 X65.664 Y62.523 Z5.813 F2500.000
G1 X66.504 Y117.117 Z5.875 F2500.000
G1 X67.439 Y177.910 Z5.931 F2500.000
G1 X68.351 Y237.228 Z5.973 F2500.000
(Break)
G0 Z26.500
G0 X69.265 Y238.128
(part 61.)
G1 X69.265 Y238.128 Z5.031 F2500.000
G1 X68.276 Y238.128 Z6.064 F2500.000
G1 X67.287 Y238.128 Z7.025 F2500.000
G1 X66.297 Y238.128 Z7.921 F2500.000
G1 X65.308 Y238.128 Z8.756 F2500.000
G1 X64.319 Y238.128 Z9.533 F2500.000
G1 X63.330 Y238.128 Z10.257 F2500.000
G1 X62.340 Y238.128 Z10.929 F2500.000
G1 X61.351 Y238.128 Z11.554 F2500.000
G1 X60.362 Y238.128 Z12.132 F2500.000
G1 X59.372 Y238.128 Z12.669 F2500.000
G1 X58.383 Y238.128 Z13.164 F2500.000
G1 X57.394 Y238.128 Z13.621 F2500.000
G1 X56.405 Y238.128 Z14.039 F2500.000
G1 X55.415 Y238.128 Z14.425 F2500.000
G1 X54.426 Y238.128 Z14.774 F2500.000
G1 X53.437 Y238.128 Z15.092 F2500.000
G1 X52.447 Y238.128 Z15.378 F2500.000
G1 X51.458 Y238.128 Z15.635 F2500.000
G1 X50.469 Y238.128 Z15.862 F2500.000
G1 X49.480 Y238.128 Z16.062 F2500.000
G1 X48.490 Y238.128 Z16.236 F2500.000
G1 X47.501 Y238.128 Z16.384 F2500.000
G1 X46.512 Y238.128 Z16.507 F2500.000
G1 X45.522 Y238.128 Z16.606 F2500.000
G1 X44.533 Y238.128 Z16.682 F2500.000
G1 X43.544 Y238.128 Z16.736 F2500.000
G1 X42.555 Y238.128 Z16.769 F2500.000
G1 X41.565 Y238.128 Z16.779 F2500.000
G1 X40.576 Y238.128 Z16.771 F2500.000
G1 X39.587 Y238.128 Z16.742 F2500.000
G1 X38.597 Y238.128 Z16.691 F2500.000
G1 X37.608 Y238.128 Z16.618 F2500.000
G1 X36.619 Y238.128 Z16.521 F2500.000
G1 X35.630 Y238.128 Z16.401 F2500.000
G1 X34.640 Y238.128 Z16.257 F2500.000
G1 X33.651 Y238.128 Z16.086 F2500.000
G1 X32.662 Y238.128 Z15.890 F2500.000
G1 X31.672 Y238.128 Z15.666 F2500.000
G1 X30.683 Y238.128 Z15.413 F2500.000
G1 X29.694 Y238.128 Z15.131 F2500.000
G1 X28.705 Y238.128 Z14.818 F2500.000
G1 X27.715 Y238.128 Z14.472 F2500.000
G1 X26.726 Y238.128 Z14.092 F2500.000
G1 X25.737 Y238.128 Z13.678 F2500.000
G1 X24.747 Y238.128 Z13.227 F2500.000
G1 X23.758 Y238.128 Z12.737 F2500.000
G1 X22.769 Y238.128 Z12.206 F2500.000
G1 X21.780 Y238.128 Z11.633 F2500.000
G1 X20.790 Y238.128 Z11.015 F2500.000
G1 X19.801 Y238.128 Z10.347 F2500.000
G1 X18.812 Y238.128 Z9.631 F2500.000
G1 X17.822 Y238.128 Z8.862 F2500.000
G1 X16.833 Y238.128 Z8.035 F2500.000
G1 X15.844 Y238.128 Z7.145 F2500.000
G1 X14.855 Y238.128 Z6.195 F2500.000
G1 X13.865 Y238.128 Z5.172 F2500.000
G1 X13.736 Y238.059 Z5.031 F2500.000
G1 X14.616 Y180.866 Z5.016 F2500.000
G1 X14.640 Y179.266 Z5.012 F2500.000
G1 X14.671 Y177.266 Z5.014 F2500.000
G1 X14.945 Y159.468 Z5.008 F2500.000
G1 X15.495 Y123.673 Z4.992 F2500.000
G1 X15.514 Y122.473 Z4.988 F2500.000
G1 X15.532 Y121.273 Z4.991 F2500.000
G1 X15.581 Y118.073 Z4.986 F2500.000
G1 X15.692 Y110.874 Z4.985 F2500.000
G1 X16.547 Y55.281 Z4.950 F2500.000
G1 X16.572 Y53.681 Z4.946 F2500.000
G1 X16.738 Y42.882 Z4.940 F2500.000
G1 X17.360 Y2.487 Z4.905 F2500.000
G1 X17.471 Y2.397 Z5.011 F2500.000
G1 X18.471 Y2.397 Z5.914 F2500.000
G1 X19.471 Y2.397 Z6.751 F2500.000
G1 X20.471 Y2.397 Z7.528 F2500.000
G1 X21.471 Y2.397 Z8.249 F2500.000
G1 X22.471 Y2.397 Z8.920 F2500.000
G1 X23.471 Y2.397 Z9.546 F2500.000
G1 X24.471 Y2.397 Z10.131 F2500.000
G1 X25.471 Y2.397 Z10.674 F2500.000
G1 X26.471 Y2.397 Z11.181 F2500.000
G1 X27.471 Y2.397 Z11.652 F2500.000
G1 X28.471 Y2.397 Z12.087 F2500.000
G1 X29.471 Y2.397 Z12.489 F2500.000
G1 X30.471 Y2.397 Z12.858 F2500.000
G1 X31.471 Y2.397 Z13.195 F2500.000
G1 X32.471 Y2.397 Z13.499 F2500.000
G1 X33.471 Y2.397 Z13.771 F2500.000
G1 X34.471 Y2.397 Z14.014 F2500.000
G1 X35.471 Y2.397 Z14.225 F2500.000
G1 X36.471 Y2.397 Z14.403 F2500.000
G1 X37.471 Y2.397 Z14.551 F2500.000
G1 X38.471 Y2.397 Z14.667 F2500.000
G1 X39.471 Y2.397 Z14.751 F2500.000
G1 X40.471 Y2.397 Z14.802 F2500.000
G1 X41.471 Y2.397 Z14.820 F2500.000
G1 X42.471 Y2.397 Z14.803 F2500.000
G1 X43.471 Y2.397 Z14.755 F2500.000
G1 X44.471 Y2.397 Z14.673 F2500.000
G1 X45.471 Y2.397 Z14.559 F2500.000
G1 X46.471 Y2.397 Z14.412 F2500.000
G1 X47.471 Y2.397 Z14.236 F2500.000
G1 X48.471 Y2.397 Z14.027 F2500.000
G1 X49.471 Y2.397 Z13.786 F2500.000
G1 X50.471 Y2.397 Z13.515 F2500.000
G1 X51.471 Y2.397 Z13.213 F2500.000
G1 X52.471 Y2.397 Z12.878 F2500.000
G1 X53.471 Y2.397 Z12.511 F2500.000
G1 X54.471 Y2.397 Z12.111 F2500.000
G1 X55.471 Y2.397 Z11.678 F2500.000
G1 X56.471 Y2.397 Z11.209 F2500.000
G1 X57.471 Y2.397 Z10.704 F2500.000
G1 X58.471 Y2.397 Z10.163 F2500.000
G1 X59.471 Y2.397 Z9.581 F2500.000
G1 X60.471 Y2.397 Z8.957 F2500.000
G1 X61.471 Y2.397 Z8.289 F2500.000
G1 X62.471 Y2.397 Z7.570 F2500.000
G1 X63.471 Y2.397 Z6.796 F2500.000
G1 X64.471 Y2.397 Z5.964 F2500.000
G1 X65.471 Y2.397 Z5.064 F2500.000
G1 X65.640 Y2.430 Z4.905 F2500.000
G1 X66.482 Y57.223 Z4.951 F2500.000
G1 X67.396 Y116.616 Z4.988 F2500.000
G1 X68.131 Y164.411 Z5.010 F2500.000
G1 X68.384 Y180.809 Z5.016 F2500.000
G1 X68.393 Y181.409 Z5.013 F2500.000
G1 X68.414 Y182.808 Z5.016 F2500.000
G1 X69.265 Y238.128 Z5.031 F2500.000
(Break)
G0 Z26.500
G0 X70.179 Y239.028
(part 63.)
G1 X70.179 Y239.028 Z4.026 F2500.000
G1 X69.193 Y239.028 Z5.124 F2500.000
G1 X68.207 Y239.028 Z6.148 F2500.000
G1 X67.221 Y239.028 Z7.101 F2500.000
G1 X66.234 Y239.028 Z7.990 F2500.000
G1 X65.248 Y239.028 Z8.818 F2500.000
G1 X64.262 Y239.028 Z9.589 F2500.000
G1 X63.276 Y239.028 Z10.307 F2500.000
G1 X62.290 Y239.028 Z10.975 F2500.000
G1 X61.303 Y239.028 Z11.595 F2500.000
G1 X60.317 Y239.028 Z12.170 F2500.000
G1 X59.331 Y239.028 Z12.702 F2500.000
G1 X58.345 Y239.028 Z13.193 F2500.000
G1 X57.359 Y239.028 Z13.648 F2500.000
G1 X56.372 Y239.028 Z14.064 F2500.000
G1 X55.386 Y239.028 Z14.445 F2500.000
G1 X54.400 Y239.028 Z14.793 F2500.000
G1 X53.414 Y239.028 Z15.109 F2500.000
G1 X52.428 Y239.028 Z15.393 F2500.000
G1 X51.441 Y239.028 Z15.648 F2500.000
G1 X50.455 Y239.028 Z15.875 F2500.000
G1 X49.469 Y239.028 Z16.073 F2500.000
G1 X48.483 Y239.028 Z16.245 F2500.000
G1 X47.497 Y239.028 Z16.393 F2500.000
G1 X46.510 Y239.028 Z16.515 F2500.000
G1 X45.524 Y239.028 Z16.614 F2500.000
G1 X44.538 Y239.028 Z16.690 F2500.000
G1 X43.552 Y239.028 Z16.743 F2500.000
G1 X42.565 Y239.028 Z16.775 F2500.000
G1 X41.579 Y239.028 Z16.787 F2500.000
G1 X40.593 Y239.028 Z16.778 F2500.000
G1 X39.607 Y239.028 Z16.750 F2500.000
G1 X38.621 Y239.028 Z16.700 F2500.000
G1 X37.634 Y239.028 Z16.628 F2500.000
G1 X36.648 Y239.028 Z16.533 F2500.000
G1 X35.662 Y239.028 Z16.413 F2500.000
G1 X34.676 Y239.028 Z16.271 F2500.000
G1 X33.690 Y239.028 Z16.102 F2500.000
G1 X32.703 Y239.028 Z15.907 F2500.000
G1 X31.717 Y239.028 Z15.686 F2500.000
G1 X30.731 Y239.028 Z15.436 F2500.000
G1 X29.745 Y239.028 Z15.156 F2500.000
G1 X28.759 Y239.028 Z14.846 F2500.000
G1 X27.772 Y239.028 Z14.503 F2500.000
G1 X26.786 Y239.028 Z14.126 F2500.000
G1 X25.800 Y239.028 Z13.716 F2500.000
G1 X24.814 Y239.028 Z13.270 F2500.000
G1 X23.828 Y239.028 Z12.783 F2500.000
G1 X22.841 Y239.028 Z12.259 F2500.000
G1 X21.855 Y239.028 Z11.690 F2500.000
G1 X20.869 Y239.028 Z11.078 F2500.000
G1 X19.883 Y239.028 Z10.416 F2500.000
G1 X18.897 Y239.028 Z9.708 F2500.000
G1 X17.910 Y239.028 Z8.945 F2500.000
G1 X16.924 Y239.028 Z8.127 F2500.000
G1 X15.938 Y239.028 Z7.248 F2500.000
G1 X14.952 Y239.028 Z6.306 F2500.000
G1 X13.965 Y239.028 Z5.293 F2500.000
G1 X12.979 Y239.028 Z4.207 F2500.000
G1 X12.821 Y238.987 Z4.026 F2500.000
G1 X13.920 Y167.596 Z4.033 F2500.000
G1 X14.009 Y161.796 Z4.031 F2500.000
G1 X14.080 Y157.197 Z4.034 F2500.000
G1 X14.243 Y146.598 Z4.034 F2500.000
G1 X14.255 Y145.798 Z4.031 F2500.000
G1 X14.295 Y143.198 Z4.034 F2500.000
G1 X14.486 Y130.800 Z4.032 F2500.000
G1 X14.590 Y124.001 Z4.034 F2500.000
G1 X14.596 Y123.601 Z4.031 F2500.000
G1 X14.627 Y121.601 Z4.034 F2500.000
G1 X14.744 Y114.002 Z4.031 F2500.000
G1 X14.839 Y107.803 Z4.033 F2500.000
G1 X15.691 Y52.409 Z4.026 F2500.000
G1 X16.473 Y1.615 Z4.011 F2500.000
G1 X16.557 Y1.498 Z4.096 F2500.000
G1 X17.553 Y1.498 Z5.073 F2500.000
G1 X18.549 Y1.498 Z5.969 F2500.000
G1 X19.545 Y1.498 Z6.797 F2500.000
G1 X20.541 Y1.498 Z7.566 F2500.000
G1 X21.537 Y1.498 Z8.282 F2500.000
G1 X22.533 Y1.498 Z8.948 F2500.000
G1 X23.529 Y1.498 Z9.570 F2500.000
G1 X24.525 Y1.498 Z10.148 F2500.000
G1 X25.521 Y1.498 Z10.688 F2500.000
G1 X26.517 Y1.498 Z11.193 F2500.000
G1 X27.513 Y1.498 Z11.660 F2500.000
G1 X28.509 Y1.498 Z12.093 F2500.000
G1 X29.505 Y1.498 Z12.492 F2500.000
G1 X30.501 Y1.498 Z12.859 F2500.000
G1 X31.497 Y1.498 Z13.194 F2500.000
G1 X32.493 Y1.498 Z13.495 F2500.000
G1 X33.489 Y1.498 Z13.768 F2500.000
G1 X34.485 Y1.498 Z14.009 F2500.000
G1 X35.481 Y1.498 Z14.217 F2500.000
G1 X36.477 Y1.498 Z14.397 F2500.000
G1 X37.473 Y1.498 Z14.544 F2500.000
G1 X38.469 Y1.498 Z14.660 F2500.000
G1 X39.465 Y1.498 Z14.743 F2500.000
G1 X40.461 Y1.498 Z14.793 F2500.000
G1 X41.457 Y1.498 Z14.812 F2500.000
G1 X42.453 Y1.498 Z14.797 F2500.000
G1 X43.449 Y1.498 Z14.748 F2500.000
G1 X44.445 Y1.498 Z14.668 F2500.000
G1 X45.441 Y1.498 Z14.555 F2500.000
G1 X46.437 Y1.498 Z14.411 F2500.000
G1 X47.433 Y1.498 Z14.234 F2500.000
G1 X48.429 Y1.498 Z14.028 F2500.000
G1 X49.425 Y1.498 Z13.790 F2500.000
G1 X50.421 Y1.498 Z13.521 F2500.000
G1 X51.417 Y1.498 Z13.221 F2500.000
G1 X52.413 Y1.498 Z12.889 F2500.000
G1 X53.409 Y1.498 Z12.526 F2500.000
G1 X54.405 Y1.498 Z12.129 F2500.000
G1 X55.401 Y1.498 Z11.699 F2500.000
G1 X56.397 Y1.498 Z11.235 F2500.000
G1 X57.393 Y1.498 Z10.734 F2500.000
G1 X58.389 Y1.498 Z10.198 F2500.000
G1 X59.385 Y1.498 Z9.621 F2500.000
G1 X60.381 Y1.498 Z9.004 F2500.000
G1 X61.377 Y1.498 Z8.342 F2500.000
G1 X62.373 Y1.498 Z7.630 F2500.000
G1 X63.369 Y1.498 Z6.865 F2500.000
G1 X64.365 Y1.498 Z6.042 F2500.000
G1 X65.361 Y1.498 Z5.153 F2500.000
G1 X66.357 Y1.498 Z4.184 F2500.000
G1 X66.526 Y1.529 Z4.011 F2500.000
G1 X67.304 Y52.123 Z4.026 F2500.000
G1 X68.159 Y107.717 Z4.033 F2500.000
G1 X69.168 Y173.309 Z4.033 F2500.000
G1 X69.338 Y184.307 Z4.032 F2500.000
G1 X69.350 Y185.107 Z4.029 F2500.000
G1 X69.374 Y186.707 Z4.032 F2500.000
G1 X70.008 Y227.902 Z4.028 F2500.000
G1 X70.100 Y233.902 Z4.024 F2500.000
G1 X70.179 Y239.028 Z4.026 F2500.000
(Break)
G0 Z26.500
G0 X71.093 Y239.928
(part 65.)
G1 X71.093 Y239.928 Z2.952 F2500.000
G1 X70.093 Y239.928 Z4.140 F2500.000
G1 X69.093 Y239.928 Z5.246 F2500.000
G1 X68.093 Y239.928 Z6.275 F2500.000
G1 X67.093 Y239.928 Z7.232 F2500.000
G1 X66.093 Y239.928 Z8.125 F2500.000
G1 X65.093 Y239.928 Z8.956 F2500.000
G1 X64.093 Y239.928 Z9.728 F2500.000
G1 X63.093 Y239.928 Z10.447 F2500.000
G1 X62.093 Y239.928 Z11.114 F2500.000
G1 X61.093 Y239.928 Z11.733 F2500.000
G1 X60.093 Y239.928 Z12.305 F2500.000
G1 X59.093 Y239.928 Z12.835 F2500.000
G1 X58.093 Y239.928 Z13.325 F2500.000
G1 X57.093 Y239.928 Z13.774 F2500.000
G1 X56.093 Y239.928 Z14.186 F2500.000
G1 X55.093 Y239.928 Z14.563 F2500.000
G1 X54.093 Y239.928 Z14.905 F2500.000
G1 X53.093 Y239.928 Z15.213 F2500.000
G1 X52.093 Y239.928 Z15.492 F2500.000
G1 X51.093 Y239.928 Z15.740 F2500.000
G1 X50.093 Y239.928 Z15.960 F2500.000
G1 X49.093 Y239.928 Z16.151 F2500.000
G1 X48.093 Y239.928 Z16.315 F2500.000
G1 X47.093 Y239.928 Z16.453 F2500.000
G1 X46.093 Y239.928 Z16.568 F2500.000
G1 X45.093 Y239.928 Z16.658 F2500.000
G1 X44.093 Y239.928 Z16.723 F2500.000
G1 X43.093 Y239.928 Z16.768 F2500.000
G1 X42.093 Y239.928 Z16.791 F2500.000
G1 X41.093 Y239.928 Z16.793 F2500.000
G1 X40.093 Y239.928 Z16.774 F2500.000
G1 X39.093 Y239.928 Z16.734 F2500.000
G1 X38.093 Y239.928 Z16.672 F2500.000
G1 X37.093 Y239.928 Z16.586 F2500.000
G1 X36.093 Y239.928 Z16.475 F2500.000
G1 X35.093 Y239.928 Z16.342 F2500.000
G1 X34.093 Y239.928 Z16.183 F2500.000
G1 X33.093 Y239.928 Z15.997 F2500.000
G1 X32.093 Y239.928 Z15.784 F2500.000
G1 X31.093 Y239.928 Z15.541 F2500.000
G1 X30.093 Y239.928 Z15.268 F2500.000
G1 X29.093 Y239.928 Z14.964 F2500.000
G1 X28.093 Y239.928 Z14.629 F2500.000
G1 X27.093 Y239.928 Z14.258 F2500.000
G1 X26.093 Y239.928 Z13.854 F2500.000
G1 X25.093 Y239.928 Z13.412 F2500.000
G1 X24.093 Y239.928 Z12.930 F2500.000
G1 X23.093 Y239.928 Z12.408 F2500.000
G1 X22.093 Y239.928 Z11.843 F2500.000
G1 X21.093 Y239.928 Z11.231 F2500.000
G1 X20.093 Y239.928 Z10.574 F2500.000
G1 X19.093 Y239.928 Z9.866 F2500.000
G1 X18.093 Y239.928 Z9.104 F2500.000
G1 X17.093 Y239.928 Z8.285 F2500.000
G1 X16.093 Y239.928 Z7.404 F2500.000
G1 X15.093 Y239.928 Z6.459 F2500.000
G1 X14.093 Y239.928 Z5.443 F2500.000
G1 X13.093 Y239.928 Z4.353 F2500.000
G1 X12.093 Y239.928 Z3.179 F2500.000
G1 X11.907 Y239.915 Z2.951 F2500.000
G1 X12.838 Y179.422 Z2.977 F2500.000
G1 X12.865 Y177.622 Z2.975 F2500.000
G1 X13.027 Y167.124 Z2.982 F2500.000
G1 X13.077 Y163.824 Z2.980 F2500.000
G1 X13.353 Y145.926 Z2.991 F2500.000
G1 X13.464 Y138.727 Z2.991 F2500.000
G1 X13.497 Y136.527 Z2.994 F2500.000
G1 X13.540 Y133.728 Z2.992 F2500.000
G1 X13.667 Y125.529 Z2.999 F2500.000
G1 X13.688 Y124.129 Z2.996 F2500.000
G1 X13.722 Y121.929 Z3.000 F2500.000
G1 X13.842 Y114.130 Z3.003 F2500.000
G1 X14.182 Y92.032 Z3.011 F2500.000
G1 X14.199 Y90.933 Z3.009 F2500.000
G1 X14.329 Y82.434 Z3.015 F2500.000
G1 X14.971 Y40.739 Z3.025 F2500.000
G1 X14.992 Y39.339 Z3.029 F2500.000
G1 X15.002 Y38.739 Z3.025 F2500.000
G1 X15.017 Y37.739 Z3.029 F2500.000
G1 X15.294 Y19.741 Z3.034 F2500.000
G1 X15.528 Y4.543 Z3.038 F2500.000
G1 X15.565 Y2.143 Z3.035 F2500.000
G1 X15.586 Y0.743 Z3.038 F2500.000
G1 X15.643 Y0.598 Z3.100 F2500.000
G1 X16.635 Y0.598 Z4.162 F2500.000
G1 X17.627 Y0.598 Z5.128 F2500.000
G1 X18.620 Y0.598 Z6.017 F2500.000
G1 X19.612 Y0.598 Z6.839 F2500.000
G1 X20.604 Y0.598 Z7.601 F2500.000
G1 X21.596 Y0.598 Z8.311 F2500.000
G1 X22.589 Y0.598 Z8.972 F2500.000
G1 X23.581 Y0.598 Z9.588 F2500.000
G1 X24.573 Y0.598 Z10.165 F2500.000
G1 X25.566 Y0.598 Z10.702 F2500.000
G1 X26.558 Y0.598 Z11.202 F2500.000
G1 X27.550 Y0.598 Z11.667 F2500.000
G1 X28.543 Y0.598 Z12.097 F2500.000
G1 X29.535 Y0.598 Z12.494 F2500.000
G1 X30.527 Y0.598 Z12.859 F2500.000
G1 X31.520 Y0.598 Z13.192 F2500.000
G1 X32.512 Y0.598 Z13.493 F2500.000
G1 X33.504 Y0.598 Z13.764 F2500.000
G1 X34.496 Y0.598 Z14.003 F2500.000
G1 X35.489 Y0.598 Z14.211 F2500.000
G1 X36.481 Y0.598 Z14.389 F2500.000
G1 X37.473 Y0.598 Z14.536 F2500.000
G1 X38.466 Y0.598 Z14.650 F2500.000
G1 X39.458 Y0.598 Z14.734 F2500.000
G1 X40.450 Y0.598 Z14.786 F2500.000
G1 X41.443 Y0.598 Z14.804 F2500.000
G1 X42.435 Y0.598 Z14.790 F2500.000
G1 X43.427 Y0.598 Z14.742 F2500.000
G1 X44.420 Y0.598 Z14.661 F2500.000
G1 X45.412 Y0.598 Z14.551 F2500.000
G1 X46.404 Y0.598 Z14.407 F2500.000
G1 X47.396 Y0.598 Z14.234 F2500.000
G1 X48.389 Y0.598 Z14.028 F2500.000
G1 X49.381 Y0.598 Z13.793 F2500.000
G1 X50.373 Y0.598 Z13.526 F2500.000
G1 X51.366 Y0.598 Z13.228 F2500.000
G1 X52.358 Y0.598 Z12.899 F2500.000
G1 X53.350 Y0.598 Z12.538 F2500.000
G1 X54.343 Y0.598 Z12.145 F2500.000
G1 X55.335 Y0.598 Z11.718 F2500.000
G1 X56.327 Y0.598 Z11.258 F2500.000
G1 X57.320 Y0.598 Z10.762 F2500.000
G1 X58.312 Y0.598 Z10.230 F2500.000
G1 X59.304 Y0.598 Z9.656 F2500.000
G1 X60.296 Y0.598 Z9.046 F2500.000
G1 X61.289 Y0.598 Z8.390 F2500.000
G1 X62.281 Y0.598 Z7.686 F2500.000
G1 X63.273 Y0.598 Z6.929 F2500.000
G1 X64.266 Y0.598 Z6.116 F2500.000
G1 X65.258 Y0.598 Z5.234 F2500.000
G1 X66.250 Y0.598 Z4.278 F2500.000
G1 X67.243 Y0.598 Z3.227 F2500.000
G1 X67.412 Y0.628 Z3.038 F2500.000
G1 X67.437 Y2.228 Z3.035 F2500.000
G1 X67.541 Y9.027 Z3.037 F2500.000
G1 X67.960 Y36.224 Z3.030 F2500.000
G1 X68.027 Y40.624 Z3.025 F2500.000
G1 X68.052 Y42.224 Z3.028 F2500.000
G1 X68.258 Y55.622 Z3.021 F2500.000
G1 X68.270 Y56.422 Z3.023 F2500.000
G1 X68.350 Y61.621 Z3.019 F2500.000
G1 X68.421 Y66.221 Z3.020 F2500.000
G1 X68.698 Y84.219 Z3.014 F2500.000
G1 X68.710 Y85.018 Z3.010 F2500.000
G1 X68.772 Y89.018 Z3.012 F2500.000
G1 X68.790 Y90.218 Z3.010 F2500.000
G1 X68.803 Y91.018 Z3.002 F2500.000
G1 X68.815 Y91.818 Z3.010 F2500.000
G1 X68.824 Y92.418 Z3.011 F2500.000
G1 X68.870 Y95.417 Z3.007 F2500.000
G1 X69.150 Y113.615 Z3.003 F2500.000
G1 X69.255 Y120.414 Z3.000 F2500.000
G1 X69.264 Y121.014 Z2.997 F2500.000
G1 X69.301 Y123.414 Z2.999 F2500.000
G1 X69.507 Y136.812 Z2.994 F2500.000
G1 X69.541 Y139.012 Z2.990 F2500.000
G1 X69.652 Y146.211 Z2.991 F2500.000
G1 X70.088 Y174.608 Z2.979 F2500.000
G1 X70.135 Y177.608 Z2.975 F2500.000
G1 X70.150 Y178.607 Z2.977 F2500.000
G1 X70.251 Y185.207 Z2.975 F2500.000
G1 X70.261 Y185.807 Z2.972 F2500.000
G1 X70.288 Y187.606 Z2.974 F2500.000
G1 X70.347 Y191.406 Z2.969 F2500.000
G1 X70.381 Y193.606 Z2.971 F2500.000
G1 X70.762 Y218.403 Z2.961 F2500.000
G1 X70.879 Y226.002 Z2.955 F2500.000
G1 X70.901 Y227.402 Z2.957 F2500.000
G1 X71.093 Y239.928 Z2.952 F2500.000
(Break)
G0 Z26.500
G0 X68.005 Y-0.302
(part 67.)
G1 X68.005 Y-0.302 Z2.309 F2500.000
G1 X68.190 Y-0.236 Z2.092 F2500.000
G1 X68.294 Y-0.069 Z1.975 F2500.000
G1 X68.305 Y0.130 Z1.966 F2500.000
G1 X68.334 Y2.030 Z1.962 F2500.000
G1 X69.880 Y102.518 Z1.891 F2500.000
G1 X69.896 Y103.618 Z1.888 F2500.000
G1 X70.406 Y136.714 Z1.868 F2500.000
G1 X70.464 Y140.513 Z1.863 F2500.000
G1 X71.092 Y181.308 Z1.840 F2500.000
G1 X71.153 Y185.308 Z1.834 F2500.000
G1 X71.248 Y191.507 Z1.833 F2500.000
G1 X71.350 Y198.106 Z1.826 F2500.000
G1 X71.568 Y212.305 Z1.821 F2500.000
G1 X71.618 Y215.504 Z1.816 F2500.000
G1 X71.664 Y218.504 Z1.817 F2500.000
G1 X71.836 Y229.703 Z1.808 F2500.000
G1 X71.885 Y232.902 Z1.809 F2500.000
G1 X71.925 Y235.502 Z1.804 F2500.000
G1 X72.002 Y240.501 Z1.805 F2500.000
G1 X71.953 Y240.692 Z1.862 F2500.000
G1 X71.798 Y240.812 Z2.050 F2500.000
G1 X71.600 Y240.828 Z2.303 F2500.000
G1 X70.613 Y240.828 Z3.521 F2500.000
G1 X69.626 Y240.828 Z4.654 F2500.000
G1 X68.639 Y240.828 Z5.710 F2500.000
G1 X67.652 Y240.828 Z6.695 F2500.000
G1 X66.665 Y240.828 Z7.612 F2500.000
G1 X65.678 Y240.828 Z8.466 F2500.000
G1 X64.691 Y240.828 Z9.262 F2500.000
G1 X63.704 Y240.828 Z10.004 F2500.000
G1 X62.718 Y240.828 Z10.693 F2500.000
G1 X61.731 Y240.828 Z11.334 F2500.000
G1 X60.744 Y240.828 Z11.929 F2500.000
G1 X59.757 Y240.828 Z12.480 F2500.000
G1 X58.770 Y240.828 Z12.989 F2500.000
G1 X57.783 Y240.828 Z13.459 F2500.000
G1 X56.796 Y240.828 Z13.891 F2500.000
G1 X55.809 Y240.828 Z14.287 F2500.000
G1 X54.823 Y240.828 Z14.649 F2500.000
G1 X53.836 Y240.828 Z14.978 F2500.000
G1 X52.849 Y240.828 Z15.276 F2500.000
G1 X51.862 Y240.828 Z15.543 F2500.000
G1 X50.875 Y240.828 Z15.781 F2500.000
G1 X49.888 Y240.828 Z15.991 F2500.000
G1 X48.901 Y240.828 Z16.175 F2500.000
G1 X47.914 Y240.828 Z16.332 F2500.000
G1 X46.927 Y240.828 Z16.464 F2500.000
G1 X45.941 Y240.828 Z16.573 F2500.000
G1 X44.954 Y240.828 Z16.658 F2500.000
G1 X43.967 Y240.828 Z16.721 F2500.000
G1 X42.980 Y240.828 Z16.762 F2500.000
G1 X41.993 Y240.828 Z16.782 F2500.000
G1 X41.006 Y240.828 Z16.782 F2500.000
G1 X40.019 Y240.828 Z16.762 F2500.000
G1 X39.032 Y240.828 Z16.721 F2500.000
G1 X38.045 Y240.828 Z16.658 F2500.000
G1 X37.059 Y240.828 Z16.573 F2500.000
G1 X36.072 Y240.828 Z16.464 F2500.000
G1 X35.085 Y240.828 Z16.332 F2500.000
G1 X34.098 Y240.828 Z16.174 F2500.000
G1 X33.111 Y240.828 Z15.991 F2500.000
G1 X32.124 Y240.828 Z15.781 F2500.000
G1 X31.137 Y240.828 Z15.543 F2500.000
G1 X30.150 Y240.828 Z15.275 F2500.000
G1 X29.163 Y240.828 Z14.978 F2500.000
G1 X28.177 Y240.828 Z14.649 F2500.000
G1 X27.190 Y240.828 Z14.287 F2500.000
G1 X26.203 Y240.828 Z13.890 F2500.000
G1 X25.216 Y240.828 Z13.458 F2500.000
G1 X24.229 Y240.828 Z12.989 F2500.000
G1 X23.242 Y240.828 Z12.479 F2500.000
G1 X22.255 Y240.828 Z11.928 F2500.000
G1 X21.268 Y240.828 Z11.333 F2500.000
G1 X20.282 Y240.828 Z10.692 F2500.000
G1 X19.295 Y240.828 Z10.003 F2500.000
G1 X18.308 Y240.828 Z9.262 F2500.000
G1 X17.321 Y240.828 Z8.465 F2500.000
G1 X16.334 Y240.828 Z7.611 F2500.000
G1 X15.347 Y240.828 Z6.694 F2500.000
G1 X14.360 Y240.828 Z5.710 F2500.000
G1 X13.373 Y240.828 Z4.653 F2500.000
G1 X12.386 Y240.828 Z3.520 F2500.000
G1 X11.400 Y240.828 Z2.301 F2500.000
G1 X11.201 Y240.812 Z2.049 F2500.000
G1 X11.047 Y240.691 Z1.862 F2500.000
G1 X10.998 Y240.501 Z1.805 F2500.000
G1 X11.081 Y235.101 Z1.805 F2500.000
G1 X11.112 Y233.101 Z1.809 F2500.000
G1 X11.130 Y231.902 Z1.806 F2500.000
G1 X11.192 Y227.902 Z1.812 F2500.000
G1 X11.207 Y226.902 Z1.810 F2500.000
G1 X11.555 Y204.305 Z1.826 F2500.000
G1 X11.616 Y200.305 Z1.825 F2500.000
G1 X12.299 Y155.911 Z1.856 F2500.000
G1 X12.333 Y153.711 Z1.854 F2500.000
G1 X12.348 Y152.711 Z1.858 F2500.000
G1 X12.428 Y147.512 Z1.861 F2500.000
G1 X12.536 Y140.512 Z1.862 F2500.000
G1 X12.554 Y139.313 Z1.866 F2500.000
G1 X13.102 Y103.717 Z1.888 F2500.000
G1 X13.237 Y94.918 Z1.897 F2500.000
G1 X13.296 Y91.118 Z1.896 F2500.000
G1 X13.323 Y89.318 Z1.901 F2500.000
G1 X13.628 Y69.521 Z1.912 F2500.000
G1 X13.659 Y67.521 Z1.916 F2500.000
G1 X13.822 Y56.922 Z1.921 F2500.000
G1 X13.840 Y55.722 Z1.925 F2500.000
G1 X14.674 Y1.529 Z1.964 F2500.000
G1 X14.695 Y0.129 Z1.966 F2500.000
G1 X14.706 Y-0.070 Z1.975 F2500.000
G1 X14.811 Y-0.236 Z2.093 F2500.000
G1 X14.996 Y-0.302 Z2.310 F2500.000
G1 X15.196 Y-0.303 Z2.550 F2500.000
G1 X16.188 Y-0.303 Z3.664 F2500.000
G1 X17.181 Y-0.303 Z4.674 F2500.000
G1 X18.173 Y-0.303 Z5.597 F2500.000
G1 X19.166 Y-0.303 Z6.449 F2500.000
G1 X20.158 Y-0.303 Z7.238 F2500.000
G1 X21.151 Y-0.303 Z7.971 F2500.000
G1 X22.143 Y-0.303 Z8.654 F2500.000
G1 X23.136 Y-0.303 Z9.292 F2500.000
G1 X24.128 Y-0.303 Z9.886 F2500.000
G1 X25.120 Y-0.303 Z10.441 F2500.000
G1 X26.113 Y-0.303 Z10.958 F2500.000
G1 X27.105 Y-0.303 Z11.439 F2500.000
G1 X28.098 Y-0.303 Z11.885 F2500.000
G1 X29.090 Y-0.303 Z12.297 F2500.000
G1 X30.083 Y-0.303 Z12.677 F2500.000
G1 X31.075 Y-0.303 Z13.024 F2500.000
G1 X32.068 Y-0.303 Z13.340 F2500.000
G1 X33.060 Y-0.303 Z13.625 F2500.000
G1 X34.053 Y-0.303 Z13.879 F2500.000
G1 X35.045 Y-0.303 Z14.101 F2500.000
G1 X36.037 Y-0.303 Z14.293 F2500.000
G1 X37.030 Y-0.303 Z14.454 F2500.000
G1 X38.022 Y-0.303 Z14.583 F2500.000
G1 X39.015 Y-0.303 Z14.681 F2500.000
G1 X40.007 Y-0.303 Z14.747 F2500.000
G1 X41.000 Y-0.303 Z14.780 F2500.000
G1 X41.992 Y-0.303 Z14.780 F2500.000
G1 X42.985 Y-0.303 Z14.747 F2500.000
G1 X43.977 Y-0.303 Z14.682 F2500.000
G1 X44.970 Y-0.303 Z14.584 F2500.000
G1 X45.962 Y-0.303 Z14.455 F2500.000
G1 X46.954 Y-0.303 Z14.295 F2500.000
G1 X47.947 Y-0.303 Z14.103 F2500.000
G1 X48.939 Y-0.303 Z13.880 F2500.000
G1 X49.932 Y-0.303 Z13.627 F2500.000
G1 X50.924 Y-0.303 Z13.343 F2500.000
G1 X51.917 Y-0.303 Z13.027 F2500.000
G1 X52.909 Y-0.303 Z12.680 F2500.000
G1 X53.902 Y-0.303 Z12.301 F2500.000
G1 X54.894 Y-0.303 Z11.888 F2500.000
G1 X55.887 Y-0.303 Z11.443 F2500.000
G1 X56.879 Y-0.303 Z10.962 F2500.000
G1 X57.871 Y-0.303 Z10.446 F2500.000
G1 X58.864 Y-0.303 Z9.891 F2500.000
G1 X59.856 Y-0.303 Z9.297 F2500.000
G1 X60.849 Y-0.303 Z8.660 F2500.000
G1 X61.841 Y-0.303 Z7.977 F2500.000
G1 X62.834 Y-0.303 Z7.244 F2500.000
G1 X63.826 Y-0.303 Z6.455 F2500.000
G1 X64.819 Y-0.303 Z5.605 F2500.000
G1 X65.811 Y-0.303 Z4.681 F2500.000
G1 X66.803 Y-0.303 Z3.673 F2500.000
G1 X67.796 Y-0.303 Z2.559 F2500.000
G1 X68.005 Y-0.302 Z2.309 F2500.000
(Break)
G0 Z26.500
G0 X68.020 Y-1.202
(part 69.)
G1 X68.020 Y-1.202 Z1.917 F2500.000
G1 X68.218 Y-1.182 Z1.681 F2500.000
G1 X68.411 Y-1.130 Z1.468 F2500.000
G1 X68.593 Y-1.046 Z1.283 F2500.000
G1 X68.758 Y-0.934 Z1.127 F2500.000
G1 X68.902 Y-0.795 Z1.000 F2500.000
G1 X69.021 Y-0.635 Z0.902 F2500.000
G1 X69.112 Y-0.457 Z0.831 F2500.000
G1 X69.172 Y-0.267 Z0.786 F2500.000
G1 X69.200 Y-0.069 Z0.765 F2500.000
G1 X69.205 Y0.131 Z0.764 F2500.000
G1 X69.278 Y4.930 Z0.756 F2500.000
G1 X69.309 Y6.930 Z0.756 F2500.000
G1 X69.334 Y8.530 Z0.752 F2500.000
G1 X69.355 Y9.930 Z0.753 F2500.000
G1 X69.368 Y10.730 Z0.750 F2500.000
G1 X69.632 Y27.928 Z0.735 F2500.000
G1 X69.654 Y29.327 Z0.731 F2500.000
G1 X69.863 Y42.926 Z0.720 F2500.000
G1 X69.869 Y43.326 Z0.716 F2500.000
G1 X69.974 Y50.125 Z0.713 F2500.000
G1 X70.011 Y52.525 Z0.708 F2500.000
G1 X70.035 Y54.124 Z0.709 F2500.000
G1 X70.395 Y77.522 Z0.689 F2500.000
G1 X70.404 Y78.122 Z0.685 F2500.000
G1 X70.417 Y78.922 Z0.687 F2500.000
G1 X70.423 Y79.321 Z0.684 F2500.000
G1 X70.454 Y81.321 Z0.685 F2500.000
G1 X70.509 Y84.921 Z0.682 F2500.000
G1 X70.521 Y85.721 Z0.678 F2500.000
G1 X70.531 Y86.321 Z0.681 F2500.000
G1 X70.561 Y88.320 Z0.679 F2500.000
G1 X70.749 Y100.519 Z0.666 F2500.000
G1 X71.050 Y120.117 Z0.654 F2500.000
G1 X71.063 Y120.917 Z0.650 F2500.000
G1 X71.075 Y121.716 Z0.653 F2500.000
G1 X71.103 Y123.516 Z0.649 F2500.000
G1 X71.198 Y129.716 Z0.647 F2500.000
G1 X71.210 Y130.515 Z0.644 F2500.000
G1 X71.306 Y136.715 Z0.642 F2500.000
G1 X71.352 Y139.714 Z0.637 F2500.000
G1 X71.395 Y142.514 Z0.638 F2500.000
G1 X71.404 Y143.114 Z0.635 F2500.000
G1 X71.429 Y144.714 Z0.637 F2500.000
G1 X71.438 Y145.314 Z0.633 F2500.000
G1 X71.456 Y146.514 Z0.635 F2500.000
G1 X71.567 Y153.713 Z0.628 F2500.000
G1 X71.583 Y154.713 Z0.630 F2500.000
G1 X71.595 Y155.512 Z0.626 F2500.000
G1 X71.623 Y157.312 Z0.628 F2500.000
G1 X71.632 Y157.912 Z0.624 F2500.000
G1 X71.641 Y158.512 Z0.627 F2500.000
G1 X71.696 Y162.112 Z0.622 F2500.000
G1 X71.718 Y163.512 Z0.624 F2500.000
G1 X71.739 Y164.911 Z0.619 F2500.000
G1 X71.755 Y165.911 Z0.622 F2500.000
G1 X71.813 Y169.711 Z0.617 F2500.000
G1 X71.909 Y175.910 Z0.616 F2500.000
G1 X71.915 Y176.310 Z0.613 F2500.000
G1 X71.930 Y177.310 Z0.615 F2500.000
G1 X72.041 Y184.509 Z0.608 F2500.000
G1 X72.142 Y191.108 Z0.607 F2500.000
G1 X72.155 Y191.908 Z0.603 F2500.000
G1 X72.167 Y192.708 Z0.606 F2500.000
G1 X72.176 Y193.308 Z0.603 F2500.000
G1 X72.324 Y202.907 Z0.600 F2500.000
G1 X72.349 Y204.507 Z0.595 F2500.000
G1 X72.398 Y207.706 Z0.597 F2500.000
G1 X72.527 Y216.105 Z0.589 F2500.000
G1 X72.536 Y216.705 Z0.592 F2500.000
G1 X72.801 Y233.903 Z0.580 F2500.000
G1 X72.881 Y239.103 Z0.580 F2500.000
G1 X72.890 Y239.702 Z0.576 F2500.000
G1 X72.902 Y240.502 Z0.579 F2500.000
G1 X72.890 Y240.702 Z0.588 F2500.000
G1 X72.844 Y240.896 Z0.621 F2500.000
G1 X72.767 Y241.081 Z0.680 F2500.000
G1 X72.660 Y241.250 Z0.766 F2500.000
G1 X72.527 Y241.399 Z0.879 F2500.000
G1 X72.371 Y241.524 Z1.024 F2500.000
G1 X72.197 Y241.621 Z1.200 F2500.000
G1 X72.009 Y241.688 Z1.407 F2500.000
G1 X71.812 Y241.723 Z1.643 F2500.000
G1 X71.612 Y241.728 Z1.901 F2500.000
G1 X70.625 Y241.728 Z3.137 F2500.000
G1 X69.639 Y241.728 Z4.286 F2500.000
G1 X68.652 Y241.728 Z5.356 F2500.000
G1 X67.665 Y241.728 Z6.353 F2500.000
G1 X66.678 Y241.728 Z7.282 F2500.000
G1 X65.691 Y241.728 Z8.147 F2500.000
G1 X64.704 Y241.728 Z8.952 F2500.000
G1 X63.717 Y241.728 Z9.702 F2500.000
G1 X62.730 Y241.728 Z10.399 F2500.000
G1 X61.744 Y241.728 Z11.047 F2500.000
G1 X60.757 Y241.728 Z11.647 F2500.000
G1 X59.770 Y241.728 Z12.204 F2500.000
G1 X58.783 Y241.728 Z12.718 F2500.000
G1 X57.796 Y241.728 Z13.193 F2500.000
G1 X56.809 Y241.728 Z13.629 F2500.000
G1 X55.822 Y241.728 Z14.029 F2500.000
G1 X54.835 Y241.728 Z14.394 F2500.000
G1 X53.848 Y241.728 Z14.726 F2500.000
G1 X52.862 Y241.728 Z15.026 F2500.000
G1 X51.875 Y241.728 Z15.295 F2500.000
G1 X50.888 Y241.728 Z15.536 F2500.000
G1 X49.901 Y241.728 Z15.748 F2500.000
G1 X48.914 Y241.728 Z15.932 F2500.000
G1 X47.927 Y241.728 Z16.091 F2500.000
G1 X46.940 Y241.728 Z16.225 F2500.000
G1 X45.953 Y241.728 Z16.334 F2500.000
G1 X44.966 Y241.728 Z16.420 F2500.000
G1 X43.980 Y241.728 Z16.484 F2500.000
G1 X42.993 Y241.728 Z16.525 F2500.000
G1 X42.006 Y241.728 Z16.546 F2500.000
G1 X41.019 Y241.728 Z16.546 F2500.000
G1 X40.032 Y241.728 Z16.526 F2500.000
G1 X39.045 Y241.728 Z16.485 F2500.000
G1 X38.058 Y241.728 Z16.422 F2500.000
G1 X37.071 Y241.728 Z16.337 F2500.000
G1 X36.084 Y241.728 Z16.228 F2500.000
G1 X35.098 Y241.728 Z16.095 F2500.000
G1 X34.111 Y241.728 Z15.937 F2500.000
G1 X33.124 Y241.728 Z15.753 F2500.000
G1 X32.137 Y241.728 Z15.541 F2500.000
G1 X31.150 Y241.728 Z15.302 F2500.000
G1 X30.163 Y241.728 Z15.033 F2500.000
G1 X29.176 Y241.728 Z14.734 F2500.000
G1 X28.189 Y241.728 Z14.403 F2500.000
G1 X27.203 Y241.728 Z14.039 F2500.000
G1 X26.216 Y241.728 Z13.640 F2500.000
G1 X25.229 Y241.728 Z13.204 F2500.000
G1 X24.242 Y241.728 Z12.731 F2500.000
G1 X23.255 Y241.728 Z12.217 F2500.000
G1 X22.268 Y241.728 Z11.662 F2500.000
G1 X21.281 Y241.728 Z11.063 F2500.000
G1 X20.294 Y241.728 Z10.416 F2500.000
G1 X19.307 Y241.728 Z9.720 F2500.000
G1 X18.321 Y241.728 Z8.972 F2500.000
G1 X17.334 Y241.728 Z8.168 F2500.000
G1 X16.347 Y241.728 Z7.304 F2500.000
G1 X15.360 Y241.728 Z6.377 F2500.000
G1 X14.373 Y241.728 Z5.382 F2500.000
G1 X13.386 Y241.728 Z4.314 F2500.000
G1 X12.399 Y241.728 Z3.166 F2500.000
G1 X11.412 Y241.728 Z1.933 F2500.000
G1 X11.212 Y241.725 Z1.674 F2500.000
G1 X11.015 Y241.694 Z1.435 F2500.000
G1 X10.826 Y241.631 Z1.224 F2500.000
G1 X10.649 Y241.537 Z1.044 F2500.000
G1 X10.491 Y241.415 Z0.896 F2500.000
G1 X10.355 Y241.269 Z0.778 F2500.000
G1 X10.245 Y241.102 Z0.689 F2500.000
G1 X10.164 Y240.920 Z0.627 F2500.000
G1 X10.114 Y240.726 Z0.591 F2500.000
G1 X10.098 Y240.527 Z0.579 F2500.000
G1 X10.325 Y225.729 Z0.584 F2500.000
G1 X10.353 Y223.929 Z0.588 F2500.000
G1 X10.648 Y204.731 Z0.596 F2500.000
G1 X10.829 Y192.933 Z0.606 F2500.000
G1 X10.845 Y191.933 Z0.603 F2500.000
G1 X10.860 Y190.933 Z0.607 F2500.000
G1 X11.069 Y177.335 Z0.615 F2500.000
G1 X11.085 Y176.335 Z0.612 F2500.000
G1 X11.159 Y171.535 Z0.618 F2500.000
G1 X11.174 Y170.535 Z0.616 F2500.000
G1 X11.196 Y169.136 Z0.620 F2500.000
G1 X11.236 Y166.536 Z0.618 F2500.000
G1 X11.245 Y165.936 Z0.622 F2500.000
G1 X11.340 Y159.737 Z0.624 F2500.000
G1 X11.359 Y158.537 Z0.627 F2500.000
G1 X11.371 Y157.737 Z0.625 F2500.000
G1 X11.380 Y157.137 Z0.628 F2500.000
G1 X11.595 Y143.139 Z0.635 F2500.000
G1 X11.617 Y141.739 Z0.638 F2500.000
G1 X11.648 Y139.739 Z0.637 F2500.000
G1 X11.697 Y136.539 Z0.642 F2500.000
G1 X12.038 Y114.342 Z0.656 F2500.000
G1 X12.454 Y87.345 Z0.680 F2500.000
G1 X12.478 Y85.745 Z0.678 F2500.000
G1 X12.494 Y84.746 Z0.682 F2500.000
G1 X12.558 Y80.546 Z0.686 F2500.000
G1 X12.629 Y75.947 Z0.686 F2500.000
G1 X12.648 Y74.747 Z0.691 F2500.000
G1 X12.672 Y73.147 Z0.688 F2500.000
G1 X12.688 Y72.147 Z0.693 F2500.000
G1 X12.909 Y57.749 Z0.706 F2500.000
G1 X12.961 Y54.349 Z0.705 F2500.000
G1 X12.971 Y53.749 Z0.710 F2500.000
G1 X13.121 Y43.950 Z0.719 F2500.000
G1 X13.130 Y43.350 Z0.716 F2500.000
G1 X13.158 Y41.551 Z0.721 F2500.000
G1 X13.337 Y29.952 Z0.732 F2500.000
G1 X13.343 Y29.552 Z0.730 F2500.000
G1 X13.377 Y27.352 Z0.735 F2500.000
G1 X13.749 Y3.155 Z0.759 F2500.000
G1 X13.798 Y-0.044 Z0.764 F2500.000
G1 X13.822 Y-0.243 Z0.782 F2500.000
G1 X13.879 Y-0.434 Z0.824 F2500.000
G1 X13.966 Y-0.614 Z0.892 F2500.000
G1 X14.082 Y-0.777 Z0.987 F2500.000
G1 X14.223 Y-0.918 Z1.110 F2500.000
G1 X14.386 Y-1.034 Z1.262 F2500.000
G1 X14.566 Y-1.121 Z1.443 F2500.000
G1 X14.757 Y-1.178 Z1.653 F2500.000
G1 X14.956 Y-1.202 Z1.887 F2500.000
G1 X15.156 Y-1.202 Z2.132 F2500.000
G1 X16.152 Y-1.202 Z3.278 F2500.000
G1 X17.148 Y-1.202 Z4.311 F2500.000
G1 X18.144 Y-1.202 Z5.253 F2500.000
G1 X19.141 Y-1.202 Z6.121 F2500.000
G1 X20.137 Y-1.202 Z6.923 F2500.000
G1 X21.133 Y-1.202 Z7.668 F2500.000
G1 X22.129 Y-1.202 Z8.361 F2500.000
G1 X23.125 Y-1.202 Z9.007 F2500.000
G1 X24.122 Y-1.202 Z9.610 F2500.000
G1 X25.118 Y-1.202 Z10.171 F2500.000
G1 X26.114 Y-1.202 Z10.694 F2500.000
G1 X27.110 Y-1.202 Z11.180 F2500.000
G1 X28.107 Y-1.202 Z11.631 F2500.000
G1 X29.103 Y-1.202 Z12.048 F2500.000
G1 X30.099 Y-1.202 Z12.431 F2500.000
G1 X31.095 Y-1.202 Z12.782 F2500.000
G1 X32.091 Y-1.202 Z13.101 F2500.000
G1 X33.088 Y-1.202 Z13.388 F2500.000
G1 X34.084 Y-1.202 Z13.643 F2500.000
G1 X35.080 Y-1.202 Z13.867 F2500.000
G1 X36.076 Y-1.202 Z14.060 F2500.000
G1 X37.073 Y-1.202 Z14.221 F2500.000
G1 X38.069 Y-1.202 Z14.351 F2500.000
G1 X39.065 Y-1.202 Z14.448 F2500.000
