(Exported by FreeCAD)
(Post Processor: grbl_post)
(Output Time:2024-01-07 21:31:27.065186)
(Begin preamble)
G17 G90
G21
(Begin operation: 6 ball L24 Q007)
(Path: 6 ball L24 Q007)
(6 ball L24 Q007)
(Begin toolchange)
( M6 T4 )
M3 S24000
(Finish operation: 6 ball L24 Q007)
(Begin operation: Fixture)
(Path: Fixture)
G54
(Finish operation: Fixture)
(Begin operation: DressupPathBoundary)
(Path: DressupPathBoundary)
(Surface001)
(Surface001)
(Tool type: ballend)
(Compensated Tool Path. Diameter: 6.0)
(Sample interval: 1.0)
(Step over %: 15.0)
()
(Beginning of Single-pass layer.)
(Begin step 0.)
(part 1.)
G0 Z19.770
G0 Z21.770
G0 X0.000 Y51.943
G0 Z19.770
G1 Z16.800 F1000.000
G1 X0.000 Y51.943 Z16.368 F1000.000
G1 X-0.345 Y29.546 Z16.552 F2500.000
G1 X-0.295 Y29.398 Z16.554 F2500.000
G1 X0.305 Y29.398 Z16.554 F2500.000
G1 X0.344 Y29.556 Z16.553 F2500.000
G1 X0.000 Y51.943 Z16.368 F2500.000
(Break)
G1 X0.000 Y51.943 Z16.800 F1000.000
(part 3.)
G0 Z19.770
G0 Z21.770
G0 X0.000 Y110.457
G0 Z19.770
G1 Z16.800 F1000.000
G1 X0.000 Y110.457 Z15.881 F1000.000
G1 X-0.692 Y65.462 Z16.250 F2500.000
G1 X-1.258 Y28.667 Z16.544 F2500.000
G1 X-1.230 Y28.497 Z16.546 F2500.000
G1 X-0.630 Y28.497 Z16.559 F2500.000
G1 X0.170 Y28.497 Z16.563 F2500.000
G1 X0.770 Y28.497 Z16.556 F2500.000
G1 X1.170 Y28.497 Z16.547 F2500.000
G1 X1.259 Y28.607 Z16.544 F2500.000
G1 X0.622 Y70.002 Z16.213 F2500.000
G1 X0.000 Y110.457 Z15.881 F2500.000
(Break)
G1 X0.000 Y110.457 Z16.800 F1000.000
(part 5.)
G0 Z19.770
G0 Z21.770
G0 X0.000 Y168.971
G0 Z19.770
G1 Z16.800 F1000.000
G1 X0.000 Y168.971 Z15.394 F1000.000
G1 X-0.500 Y136.475 Z15.662 F2500.000
G1 X-1.038 Y101.479 Z15.942 F2500.000
G1 X-2.172 Y27.788 Z16.516 F2500.000
G1 X-2.165 Y27.598 Z16.517 F2500.000
G1 X-1.765 Y27.598 Z16.535 F2500.000
G1 X-0.965 Y27.598 Z16.560 F2500.000
G1 X-0.165 Y27.598 Z16.570 F2500.000
G1 X0.435 Y27.598 Z16.568 F2500.000
G1 X1.235 Y27.598 Z16.553 F2500.000
G1 X2.035 Y27.598 Z16.524 F2500.000
G1 X2.174 Y27.657 Z16.517 F2500.000
G1 X1.555 Y67.853 Z16.206 F2500.000
G1 X0.977 Y105.448 Z15.911 F2500.000
G1 X0.451 Y139.644 Z15.636 F2500.000
G1 X0.000 Y168.971 Z15.394 F2500.000
(Break)
G1 X0.000 Y168.971 Z16.800 F1000.000
(part 7.)
G0 Z19.770
G0 Z21.770
G0 X0.210 Y213.833
G0 Z19.770
G1 Z16.800 F1000.000
G1 X0.210 Y213.833 Z15.020 F1000.000
G1 X-0.190 Y213.833 Z15.020 F2500.000
G1 X-0.213 Y213.653 Z15.022 F2500.000
G1 X-0.768 Y177.557 Z15.315 F2500.000
G1 X-1.474 Y131.662 Z15.675 F2500.000
G1 X-2.157 Y87.268 Z16.015 F2500.000
G1 X-3.086 Y26.875 Z16.468 F2500.000
G1 X-3.066 Y26.698 Z16.471 F2500.000
G1 X-2.466 Y26.698 Z16.509 F2500.000
G1 X-1.766 Y26.698 Z16.543 F2500.000
G1 X-1.066 Y26.698 Z16.565 F2500.000
G1 X-0.166 Y26.698 Z16.578 F2500.000
G1 X0.534 Y26.698 Z16.574 F2500.000
G1 X1.434 Y26.698 Z16.555 F2500.000
G1 X2.134 Y26.698 Z16.527 F2500.000
G1 X2.934 Y26.698 Z16.480 F2500.000
G1 X3.088 Y26.743 Z16.470 F2500.000
G1 X2.159 Y87.136 Z16.016 F2500.000
G1 X1.471 Y131.864 Z15.673 F2500.000
G1 X0.830 Y173.526 Z15.347 F2500.000
G1 X0.210 Y213.833 Z15.020 F2500.000
(Break)
G1 X0.210 Y213.833 Z16.800 F1000.000
(part 9.)
G0 Z19.770
G0 Z21.770
G0 X1.096 Y214.732
G0 Z19.770
G1 Z16.800 F1000.000
G1 X1.096 Y214.732 Z14.995 F1000.000
G1 X0.430 Y214.732 Z15.011 F2500.000
G1 X-0.237 Y214.732 Z15.013 F2500.000
G1 X-0.904 Y214.732 Z15.001 F2500.000
G1 X-1.096 Y214.725 Z14.995 F2500.000
G1 X-1.601 Y181.929 Z15.248 F2500.000
G1 X-2.333 Y134.335 Z15.606 F2500.000
G1 X-4.000 Y25.947 Z16.402 F2500.000
G1 X-3.953 Y25.797 Z16.407 F2500.000
G1 X-3.553 Y25.797 Z16.443 F2500.000
G1 X-2.886 Y25.797 Z16.491 F2500.000
G1 X-2.219 Y25.797 Z16.530 F2500.000
G1 X-1.353 Y25.797 Z16.565 F2500.000
G1 X-0.686 Y25.797 Z16.580 F2500.000
G1 X-0.019 Y25.797 Z16.585 F2500.000
G1 X0.847 Y25.797 Z16.578 F2500.000
G1 X1.514 Y25.797 Z16.559 F2500.000
G1 X2.181 Y25.797 Z16.532 F2500.000
G1 X3.047 Y25.797 Z16.481 F2500.000
G1 X3.847 Y25.797 Z16.417 F2500.000
G1 X4.002 Y25.842 Z16.403 F2500.000
G1 X2.249 Y139.829 Z15.565 F2500.000
G1 X1.621 Y180.624 Z15.258 F2500.000
G1 X1.096 Y214.732 Z14.995 F2500.000
(Break)
G1 X1.096 Y214.732 Z16.800 F1000.000
(part 11.)
G0 Z19.770
G0 Z21.770
G0 X1.983 Y215.632
G0 Z19.770
G1 Z16.800 F1000.000
G1 X1.983 Y215.632 Z14.944 F1000.000
G1 X1.033 Y215.632 Z14.990 F2500.000
G1 X0.083 Y215.632 Z15.007 F2500.000
G1 X-0.867 Y215.632 Z14.995 F2500.000
G1 X-1.817 Y215.632 Z14.954 F2500.000
G1 X-1.983 Y215.598 Z14.944 F2500.000
G1 X-2.989 Y150.205 Z15.422 F2500.000
G1 X-4.915 Y25.020 Z16.316 F2500.000
G1 X-4.839 Y24.898 Z16.325 F2500.000
G1 X-4.239 Y24.898 Z16.389 F2500.000
G1 X-3.439 Y24.898 Z16.459 F2500.000
G1 X-2.839 Y24.898 Z16.502 F2500.000
G1 X-2.439 Y24.898 Z16.527 F2500.000
G1 X-1.839 Y24.898 Z16.555 F2500.000
G1 X-1.039 Y24.898 Z16.581 F2500.000
G1 X-0.239 Y24.898 Z16.592 F2500.000
G1 X0.161 Y24.898 Z16.592 F2500.000
G1 X0.761 Y24.898 Z16.587 F2500.000
G1 X1.361 Y24.898 Z16.573 F2500.000
G1 X1.961 Y24.898 Z16.550 F2500.000
G1 X2.561 Y24.898 Z16.519 F2500.000
G1 X3.161 Y24.898 Z16.480 F2500.000
G1 X3.961 Y24.898 Z16.415 F2500.000
G1 X4.761 Y24.898 Z16.334 F2500.000
G1 X4.916 Y24.942 Z16.315 F2500.000
G1 X3.144 Y140.128 Z15.494 F2500.000
G1 X1.983 Y215.632 Z14.944 F2500.000
(Break)
G1 X1.983 Y215.632 Z16.800 F1000.000
(part 13.)
G0 Z19.770
G0 Z21.770
G0 X2.869 Y216.532
G0 Z19.770
G1 Z16.800 F1000.000
G1 X2.869 Y216.532 Z14.867 F1000.000
G1 X1.935 Y216.532 Z14.939 F2500.000
G1 X1.002 Y216.532 Z14.983 F2500.000
G1 X0.069 Y216.532 Z14.999 F2500.000
G1 X-0.865 Y216.532 Z14.987 F2500.000
G1 X-1.798 Y216.532 Z14.947 F2500.000
G1 X-2.731 Y216.532 Z14.879 F2500.000
G1 X-2.870 Y216.470 Z14.867 F2500.000
G1 X-3.653 Y165.576 Z15.225 F2500.000
G1 X-4.989 Y78.686 Z15.826 F2500.000
G1 X-5.829 Y24.093 Z16.208 F2500.000
G1 X-5.726 Y23.997 Z16.223 F2500.000
G1 X-4.526 Y23.997 Z16.367 F2500.000
G1 X-3.926 Y23.997 Z16.426 F2500.000
G1 X-2.926 Y23.997 Z16.505 F2500.000
G1 X-1.726 Y23.997 Z16.568 F2500.000
G1 X-0.926 Y23.997 Z16.591 F2500.000
G1 X-0.126 Y23.997 Z16.600 F2500.000
G1 X1.074 Y23.997 Z16.588 F2500.000
G1 X1.874 Y23.997 Z16.562 F2500.000
G1 X2.874 Y23.997 Z16.508 F2500.000
G1 X3.874 Y23.997 Z16.431 F2500.000
G1 X4.874 Y23.997 Z16.329 F2500.000
G1 X5.674 Y23.997 Z16.231 F2500.000
G1 X5.830 Y24.041 Z16.209 F2500.000
G1 X5.276 Y60.037 Z15.956 F2500.000
G1 X3.646 Y166.024 Z15.222 F2500.000
G1 X2.869 Y216.532 Z14.867 F2500.000
(Break)
G1 X2.869 Y216.532 Z16.800 F1000.000
(part 15.)
G0 Z19.770
G0 Z21.770
G0 X3.755 Y217.433
G0 Z19.770
G1 Z16.800 F1000.000
G1 X3.755 Y217.433 Z14.765 F1000.000
G1 X2.830 Y217.433 Z14.863 F2500.000
G1 X1.905 Y217.433 Z14.933 F2500.000
G1 X0.980 Y217.433 Z14.975 F2500.000
G1 X0.055 Y217.433 Z14.992 F2500.000
G1 X-0.870 Y217.433 Z14.979 F2500.000
G1 X-1.795 Y217.433 Z14.940 F2500.000
G1 X-2.720 Y217.433 Z14.873 F2500.000
G1 X-3.645 Y217.433 Z14.778 F2500.000
G1 X-3.756 Y217.343 Z14.766 F2500.000
G1 X-5.953 Y74.560 Z15.727 F2500.000
G1 X-6.743 Y23.166 Z16.080 F2500.000
G1 X-6.613 Y23.098 Z16.101 F2500.000
G1 X-6.013 Y23.098 Z16.192 F2500.000
G1 X-5.213 Y23.098 Z16.298 F2500.000
G1 X-4.413 Y23.098 Z16.387 F2500.000
G1 X-3.913 Y23.098 Z16.435 F2500.000
G1 X-3.413 Y23.098 Z16.477 F2500.000
G1 X-2.713 Y23.098 Z16.526 F2500.000
G1 X-2.013 Y23.098 Z16.563 F2500.000
G1 X-1.413 Y23.098 Z16.586 F2500.000
G1 X-0.813 Y23.098 Z16.601 F2500.000
G1 X-0.113 Y23.098 Z16.607 F2500.000
G1 X0.587 Y23.098 Z16.603 F2500.000
G1 X1.087 Y23.098 Z16.595 F2500.000
G1 X1.587 Y23.098 Z16.580 F2500.000
G1 X2.387 Y23.098 Z16.545 F2500.000
G1 X3.187 Y23.098 Z16.494 F2500.000
G1 X3.687 Y23.098 Z16.455 F2500.000
G1 X4.387 Y23.098 Z16.390 F2500.000
G1 X4.987 Y23.098 Z16.325 F2500.000
G1 X5.587 Y23.098 Z16.250 F2500.000
G1 X6.587 Y23.098 Z16.106 F2500.000
G1 X6.744 Y23.140 Z16.081 F2500.000
G1 X5.664 Y93.332 Z15.601 F2500.000
G1 X3.755 Y217.433 Z14.765 F2500.000
(Break)
G1 X3.755 Y217.433 Z16.800 F1000.000
(part 17.)
G0 Z19.770
G0 Z21.770
G0 X4.641 Y218.333
G0 Z19.770
G1 Z16.800 F1000.000
G1 X4.641 Y218.333 Z14.639 F1000.000
G1 X3.721 Y218.333 Z14.762 F2500.000
G1 X2.801 Y218.333 Z14.858 F2500.000
G1 X1.881 Y218.333 Z14.927 F2500.000
G1 X0.961 Y218.333 Z14.969 F2500.000
G1 X0.041 Y218.333 Z14.985 F2500.000
G1 X-0.879 Y218.333 Z14.971 F2500.000
G1 X-1.799 Y218.333 Z14.932 F2500.000
G1 X-2.719 Y218.333 Z14.865 F2500.000
G1 X-3.639 Y218.333 Z14.771 F2500.000
G1 X-4.559 Y218.333 Z14.651 F2500.000
G1 X-4.643 Y218.215 Z14.640 F2500.000
G1 X-6.181 Y118.227 Z15.291 F2500.000
G1 X-6.996 Y65.233 Z15.640 F2500.000
G1 X-7.658 Y22.238 Z15.931 F2500.000
G1 X-7.499 Y22.198 Z15.959 F2500.000
G1 X-6.699 Y22.198 Z16.097 F2500.000
G1 X-5.899 Y22.198 Z16.216 F2500.000
G1 X-4.899 Y22.198 Z16.343 F2500.000
G1 X-3.899 Y22.198 Z16.444 F2500.000
G1 X-3.099 Y22.198 Z16.508 F2500.000
G1 X-2.099 Y22.198 Z16.567 F2500.000
G1 X-1.299 Y22.198 Z16.597 F2500.000
G1 X-0.299 Y22.198 Z16.613 F2500.000
G1 X0.701 Y22.198 Z16.609 F2500.000
G1 X1.701 Y22.198 Z16.584 F2500.000
G1 X2.501 Y22.198 Z16.546 F2500.000
G1 X3.501 Y22.198 Z16.478 F2500.000
G1 X4.301 Y22.198 Z16.407 F2500.000
G1 X5.101 Y22.198 Z16.319 F2500.000
G1 X6.101 Y22.198 Z16.188 F2500.000
G1 X7.101 Y22.198 Z16.029 F2500.000
G1 X7.501 Y22.198 Z15.960 F2500.000
G1 X7.658 Y22.240 Z15.930 F2500.000
G1 X7.221 Y50.636 Z15.738 F2500.000
G1 X6.215 Y116.029 Z15.305 F2500.000
G1 X4.641 Y218.333 Z14.639 F2500.000
(Break)
G1 X4.641 Y218.333 Z16.800 F1000.000
(part 19.)
G0 Z19.770
G0 Z21.770
G0 X5.528 Y219.232
G0 Z19.770
G1 Z16.800 F1000.000
G1 X5.528 Y219.232 Z14.487 F1000.000
G1 X4.611 Y219.232 Z14.635 F2500.000
G1 X3.694 Y219.232 Z14.757 F2500.000
G1 X2.778 Y219.232 Z14.851 F2500.000
G1 X1.861 Y219.232 Z14.920 F2500.000
G1 X0.944 Y219.232 Z14.962 F2500.000
G1 X0.028 Y219.232 Z14.977 F2500.000
G1 X-0.889 Y219.232 Z14.964 F2500.000
G1 X-1.806 Y219.232 Z14.923 F2500.000
G1 X-2.722 Y219.232 Z14.856 F2500.000
G1 X-3.639 Y219.232 Z14.763 F2500.000
G1 X-4.556 Y219.232 Z14.643 F2500.000
G1 X-5.472 Y219.232 Z14.497 F2500.000
G1 X-5.530 Y219.088 Z14.488 F2500.000
G1 X-6.671 Y144.896 Z14.956 F2500.000
G1 X-7.431 Y95.502 Z15.271 F2500.000
G1 X-8.046 Y55.507 Z15.531 F2500.000
G1 X-8.572 Y21.311 Z15.759 F2500.000
G1 X-8.386 Y21.297 Z15.797 F2500.000
G1 X-7.786 Y21.297 Z15.916 F2500.000
G1 X-7.386 Y21.297 Z15.988 F2500.000
G1 X-6.786 Y21.297 Z16.091 F2500.000
G1 X-6.186 Y21.297 Z16.183 F2500.000
G1 X-5.186 Y21.297 Z16.317 F2500.000
G1 X-4.586 Y21.297 Z16.385 F2500.000
G1 X-4.186 Y21.297 Z16.425 F2500.000
G1 X-3.186 Y21.297 Z16.509 F2500.000
G1 X-2.386 Y21.297 Z16.560 F2500.000
G1 X-1.786 Y21.297 Z16.588 F2500.000
G1 X-1.186 Y21.297 Z16.607 F2500.000
G1 X-0.386 Y21.297 Z16.621 F2500.000
G1 X0.214 Y21.297 Z16.622 F2500.000
G1 X1.014 Y21.297 Z16.612 F2500.000
G1 X1.214 Y21.297 Z16.606 F2500.000
G1 X1.814 Y21.297 Z16.587 F2500.000
G1 X2.614 Y21.297 Z16.547 F2500.000
G1 X3.414 Y21.297 Z16.493 F2500.000
G1 X4.414 Y21.297 Z16.403 F2500.000
G1 X5.014 Y21.297 Z16.337 F2500.000
G1 X5.614 Y21.297 Z16.262 F2500.000
G1 X6.014 Y21.297 Z16.208 F2500.000
G1 X6.614 Y21.297 Z16.119 F2500.000
G1 X7.214 Y21.297 Z16.019 F2500.000
G1 X7.614 Y21.297 Z15.948 F2500.000
G1 X8.414 Y21.297 Z15.792 F2500.000
G1 X8.572 Y21.339 Z15.758 F2500.000
G1 X8.172 Y47.336 Z15.585 F2500.000
G1 X7.538 Y88.531 Z15.316 F2500.000
G1 X6.520 Y154.723 Z14.893 F2500.000
G1 X5.528 Y219.232 Z14.487 F2500.000
(Break)
G1 X5.528 Y219.232 Z16.800 F1000.000
(part 21.)
G0 Z19.770
G0 Z21.770
G0 X6.414 Y220.132
G0 Z19.770
G1 Z16.800 F1000.000
G1 X6.414 Y220.132 Z14.313 F1000.000
G1 X5.429 Y220.132 Z14.497 F2500.000
G1 X4.445 Y220.132 Z14.652 F2500.000
G1 X3.460 Y220.132 Z14.775 F2500.000
G1 X2.475 Y220.132 Z14.870 F2500.000
G1 X1.491 Y220.132 Z14.933 F2500.000
G1 X0.506 Y220.132 Z14.965 F2500.000
G1 X-0.478 Y220.132 Z14.966 F2500.000
G1 X-1.463 Y220.132 Z14.934 F2500.000
G1 X-2.448 Y220.132 Z14.872 F2500.000
G1 X-3.432 Y220.132 Z14.778 F2500.000
G1 X-4.417 Y220.132 Z14.656 F2500.000
G1 X-5.402 Y220.132 Z14.502 F2500.000
G1 X-6.386 Y220.132 Z14.318 F2500.000
G1 X-6.417 Y219.960 Z14.313 F2500.000
G1 X-7.564 Y145.369 Z14.768 F2500.000
G1 X-8.345 Y94.575 Z15.085 F2500.000
G1 X-8.905 Y58.179 Z15.317 F2500.000
G1 X-9.483 Y20.584 Z15.562 F2500.000
G1 X-9.473 Y20.398 Z15.566 F2500.000
G1 X-8.473 Y20.398 Z15.789 F2500.000
G1 X-7.673 Y20.398 Z15.946 F2500.000
G1 X-6.873 Y20.398 Z16.086 F2500.000
G1 X-5.873 Y20.398 Z16.236 F2500.000
G1 X-4.873 Y20.398 Z16.361 F2500.000
G1 X-4.073 Y20.398 Z16.444 F2500.000
G1 X-3.273 Y20.398 Z16.511 F2500.000
G1 X-2.273 Y20.398 Z16.573 F2500.000
G1 X-1.273 Y20.398 Z16.612 F2500.000
G1 X-0.473 Y20.398 Z16.628 F2500.000
G1 X0.327 Y20.398 Z16.629 F2500.000
G1 X1.327 Y20.398 Z16.611 F2500.000
G1 X1.527 Y20.398 Z16.604 F2500.000
G1 X2.327 Y20.398 Z16.570 F2500.000
G1 X3.127 Y20.398 Z16.522 F2500.000
G1 X4.127 Y20.398 Z16.439 F2500.000
G1 X5.127 Y20.398 Z16.332 F2500.000
G1 X5.927 Y20.398 Z16.229 F2500.000
G1 X6.727 Y20.398 Z16.109 F2500.000
G1 X7.527 Y20.398 Z15.972 F2500.000
G1 X8.527 Y20.398 Z15.777 F2500.000
G1 X9.327 Y20.398 Z15.600 F2500.000
G1 X9.486 Y20.439 Z15.563 F2500.000
G1 X9.110 Y44.836 Z15.403 F2500.000
G1 X8.323 Y96.030 Z15.076 F2500.000
G1 X7.320 Y161.222 Z14.671 F2500.000
G1 X6.414 Y220.132 Z14.313 F2500.000
(Break)
G1 X6.414 Y220.132 Z16.800 F1000.000
(part 23.)
G0 Z19.770
G0 Z21.770
G0 X7.300 Y221.032
G0 Z19.770
G1 Z16.800 F1000.000
G1 X7.300 Y221.032 Z14.113 F1000.000
G1 X6.327 Y221.032 Z14.321 F2500.000
G1 X5.353 Y221.032 Z14.502 F2500.000
G1 X4.380 Y221.032 Z14.653 F2500.000
G1 X3.407 Y221.032 Z14.774 F2500.000
G1 X2.433 Y221.032 Z14.866 F2500.000
G1 X1.460 Y221.032 Z14.927 F2500.000
G1 X0.487 Y221.032 Z14.958 F2500.000
G1 X-0.487 Y221.032 Z14.958 F2500.000
G1 X-1.460 Y221.032 Z14.926 F2500.000
G1 X-2.433 Y221.032 Z14.866 F2500.000
G1 X-3.407 Y221.032 Z14.774 F2500.000
G1 X-4.380 Y221.032 Z14.653 F2500.000
G1 X-5.353 Y221.032 Z14.502 F2500.000
G1 X-6.327 Y221.032 Z14.321 F2500.000
G1 X-7.300 Y221.032 Z14.113 F2500.000
G1 X-7.891 Y182.637 Z14.338 F2500.000
G1 X-8.857 Y119.845 Z14.716 F2500.000
G1 X-9.767 Y60.652 Z15.082 F2500.000
G1 X-10.398 Y19.657 Z15.343 F2500.000
G1 X-10.359 Y19.497 Z15.355 F2500.000
G1 X-9.378 Y19.497 Z15.598 F2500.000
G1 X-8.397 Y19.497 Z15.812 F2500.000
G1 X-7.416 Y19.497 Z16.001 F2500.000
G1 X-6.436 Y19.497 Z16.163 F2500.000
G1 X-5.455 Y19.497 Z16.300 F2500.000
G1 X-4.474 Y19.497 Z16.413 F2500.000
G1 X-3.493 Y19.497 Z16.502 F2500.000
G1 X-2.512 Y19.497 Z16.568 F2500.000
G1 X-1.531 Y19.497 Z16.611 F2500.000
G1 X-0.550 Y19.497 Z16.634 F2500.000
G1 X0.431 Y19.497 Z16.636 F2500.000
G1 X1.412 Y19.497 Z16.615 F2500.000
G1 X2.393 Y19.497 Z16.574 F2500.000
G1 X3.374 Y19.497 Z16.511 F2500.000
G1 X4.355 Y19.497 Z16.424 F2500.000
G1 X5.336 Y19.497 Z16.315 F2500.000
G1 X6.317 Y19.497 Z16.181 F2500.000
G1 X7.298 Y19.497 Z16.022 F2500.000
G1 X8.279 Y19.497 Z15.837 F2500.000
G1 X9.260 Y19.497 Z15.625 F2500.000
G1 X10.241 Y19.497 Z15.385 F2500.000
G1 X10.400 Y19.538 Z15.344 F2500.000
G1 X9.751 Y61.733 Z15.075 F2500.000
G1 X8.988 Y111.327 Z14.767 F2500.000
G1 X7.960 Y178.119 Z14.365 F2500.000
G1 X7.300 Y221.032 Z14.113 F2500.000
(Break)
G1 X7.300 Y221.032 Z16.800 F1000.000
(part 25.)
G0 Z19.770
G0 Z21.770
G0 X8.186 Y221.933
G0 Z19.770
G1 Z16.800 F1000.000
G1 X8.186 Y221.933 Z13.887 F1000.000
G1 X7.233 Y221.933 Z14.119 F2500.000
G1 X6.280 Y221.933 Z14.323 F2500.000
G1 X5.328 Y221.933 Z14.499 F2500.000
G1 X4.375 Y221.933 Z14.645 F2500.000
G1 X3.422 Y221.933 Z14.764 F2500.000
G1 X2.469 Y221.933 Z14.855 F2500.000
G1 X1.516 Y221.933 Z14.917 F2500.000
G1 X0.563 Y221.933 Z14.949 F2500.000
G1 X-0.390 Y221.933 Z14.951 F2500.000
G1 X-1.343 Y221.933 Z14.925 F2500.000
G1 X-2.296 Y221.933 Z14.869 F2500.000
G1 X-3.249 Y221.933 Z14.783 F2500.000
G1 X-4.202 Y221.933 Z14.669 F2500.000
G1 X-5.155 Y221.933 Z14.527 F2500.000
G1 X-6.108 Y221.933 Z14.357 F2500.000
G1 X-7.061 Y221.933 Z14.158 F2500.000
G1 X-8.014 Y221.933 Z13.931 F2500.000
G1 X-8.187 Y221.905 Z13.887 F2500.000
G1 X-8.774 Y183.710 Z14.105 F2500.000
G1 X-9.779 Y118.418 Z14.488 F2500.000
G1 X-10.725 Y56.925 Z14.861 F2500.000
G1 X-11.309 Y18.929 Z15.098 F2500.000
G1 X-11.312 Y18.729 Z15.100 F2500.000
G1 X-11.246 Y18.598 Z15.121 F2500.000
G1 X-10.446 Y18.598 Z15.341 F2500.000
G1 X-9.746 Y18.598 Z15.519 F2500.000
G1 X-9.246 Y18.598 Z15.638 F2500.000
G1 X-8.546 Y18.598 Z15.791 F2500.000
G1 X-7.846 Y18.598 Z15.930 F2500.000
G1 X-7.346 Y18.598 Z16.022 F2500.000
G1 X-6.646 Y18.598 Z16.138 F2500.000
G1 X-6.146 Y18.598 Z16.214 F2500.000
G1 X-5.646 Y18.598 Z16.284 F2500.000
G1 X-4.946 Y18.598 Z16.370 F2500.000
G1 X-4.246 Y18.598 Z16.443 F2500.000
G1 X-3.746 Y18.598 Z16.489 F2500.000
G1 X-3.046 Y18.598 Z16.543 F2500.000
G1 X-2.546 Y18.598 Z16.574 F2500.000
G1 X-2.046 Y18.598 Z16.599 F2500.000
G1 X-1.346 Y18.598 Z16.626 F2500.000
G1 X-0.646 Y18.598 Z16.640 F2500.000
G1 X-0.146 Y18.598 Z16.645 F2500.000
G1 X0.554 Y18.598 Z16.642 F2500.000
G1 X1.054 Y18.598 Z16.633 F2500.000
G1 X1.554 Y18.598 Z16.618 F2500.000
G1 X2.354 Y18.598 Z16.584 F2500.000
G1 X2.954 Y18.598 Z16.549 F2500.000
G1 X3.654 Y18.598 Z16.496 F2500.000
G1 X4.354 Y18.598 Z16.433 F2500.000
G1 X4.854 Y18.598 Z16.380 F2500.000
G1 X5.554 Y18.598 Z16.296 F2500.000
G1 X6.054 Y18.598 Z16.227 F2500.000
G1 X6.554 Y18.598 Z16.153 F2500.000
G1 X7.254 Y18.598 Z16.038 F2500.000
G1 X7.754 Y18.598 Z15.948 F2500.000
G1 X8.454 Y18.598 Z15.810 F2500.000
G1 X8.954 Y18.598 Z15.703 F2500.000
G1 X9.654 Y18.598 Z15.541 F2500.000
G1 X10.354 Y18.598 Z15.366 F2500.000
G1 X11.154 Y18.598 Z15.148 F2500.000
G1 X11.314 Y18.637 Z15.100 F2500.000
G1 X10.597 Y65.232 Z14.810 F2500.000
G1 X9.782 Y118.225 Z14.489 F2500.000
G1 X9.154 Y159.021 Z14.248 F2500.000
G1 X8.186 Y221.933 Z13.887 F2500.000
(Break)
G1 X8.186 Y221.933 Z16.800 F1000.000
(part 27.)
G0 Z19.770
G0 Z21.770
G0 X9.073 Y222.833
G0 Z19.770
G1 Z16.800 F1000.000
G1 X9.073 Y222.833 Z13.638 F1000.000
G1 X8.073 Y222.833 Z13.907 F2500.000
G1 X7.073 Y222.833 Z14.148 F2500.000
G1 X6.073 Y222.833 Z14.355 F2500.000
G1 X5.073 Y222.833 Z14.532 F2500.000
G1 X4.073 Y222.833 Z14.678 F2500.000
G1 X3.073 Y222.833 Z14.793 F2500.000
G1 X2.073 Y222.833 Z14.877 F2500.000
G1 X1.073 Y222.833 Z14.927 F2500.000
G1 X0.073 Y222.833 Z14.947 F2500.000
G1 X-0.927 Y222.833 Z14.931 F2500.000
G1 X-1.927 Y222.833 Z14.886 F2500.000
G1 X-2.927 Y222.833 Z14.807 F2500.000
G1 X-3.927 Y222.833 Z14.697 F2500.000
G1 X-4.927 Y222.833 Z14.555 F2500.000
G1 X-5.927 Y222.833 Z14.382 F2500.000
G1 X-6.927 Y222.833 Z14.180 F2500.000
G1 X-7.927 Y222.833 Z13.944 F2500.000
G1 X-8.927 Y222.833 Z13.679 F2500.000
G1 X-9.073 Y222.778 Z13.638 F2500.000
G1 X-10.138 Y153.586 Z14.025 F2500.000
G1 X-10.695 Y117.390 Z14.234 F2500.000
G1 X-11.562 Y60.997 Z14.568 F2500.000
G1 X-12.211 Y18.802 Z14.824 F2500.000
G1 X-12.227 Y17.802 Z14.832 F2500.000
G1 X-12.133 Y17.698 Z14.863 F2500.000
G1 X-11.533 Y17.698 Z15.047 F2500.000
G1 X-10.933 Y17.698 Z15.219 F2500.000
G1 X-10.733 Y17.698 Z15.274 F2500.000
G1 X-10.133 Y17.698 Z15.433 F2500.000
G1 X-9.733 Y17.698 Z15.532 F2500.000
G1 X-9.133 Y17.698 Z15.672 F2500.000
G1 X-8.533 Y17.698 Z15.803 F2500.000
G1 X-7.733 Y17.698 Z15.961 F2500.000
G1 X-7.133 Y17.698 Z16.067 F2500.000
G1 X-6.733 Y17.698 Z16.134 F2500.000
G1 X-6.133 Y17.698 Z16.224 F2500.000
G1 X-5.533 Y17.698 Z16.306 F2500.000
G1 X-4.733 Y17.698 Z16.401 F2500.000
G1 X-3.933 Y17.698 Z16.480 F2500.000
G1 X-3.533 Y17.698 Z16.514 F2500.000
G1 X-2.933 Y17.698 Z16.558 F2500.000
G1 X-2.333 Y17.698 Z16.593 F2500.000
G1 X-1.533 Y17.698 Z16.627 F2500.000
G1 X-0.933 Y17.698 Z16.643 F2500.000
G1 X-0.333 Y17.698 Z16.652 F2500.000
G1 X0.067 Y17.698 Z16.653 F2500.000
G1 X0.867 Y17.698 Z16.645 F2500.000
G1 X1.867 Y17.698 Z16.615 F2500.000
G1 X2.467 Y17.698 Z16.586 F2500.000
G1 X3.267 Y17.698 Z16.534 F2500.000
G1 X3.867 Y17.698 Z16.485 F2500.000
G1 X4.667 Y17.698 Z16.408 F2500.000
G1 X5.067 Y17.698 Z16.363 F2500.000
G1 X5.667 Y17.698 Z16.289 F2500.000
G1 X6.467 Y17.698 Z16.175 F2500.000
G1 X7.067 Y17.698 Z16.079 F2500.000
G1 X7.667 Y17.698 Z15.972 F2500.000
G1 X8.067 Y17.698 Z15.895 F2500.000
G1 X8.667 Y17.698 Z15.774 F2500.000
G1 X9.467 Y17.698 Z15.595 F2500.000
G1 X10.067 Y17.698 Z15.449 F2500.000
G1 X10.667 Y17.698 Z15.291 F2500.000
G1 X11.267 Y17.698 Z15.124 F2500.000
G1 X11.667 Y17.698 Z15.007 F2500.000
G1 X12.067 Y17.698 Z14.883 F2500.000
G1 X12.228 Y17.737 Z14.832 F2500.000
G1 X11.446 Y68.531 Z14.523 F2500.000
G1 X10.634 Y121.324 Z14.211 F2500.000
G1 X9.677 Y183.517 Z13.855 F2500.000
G1 X9.073 Y222.833 Z13.638 F2500.000
(Break)
G1 X9.073 Y222.833 Z16.800 F1000.000
(part 29.)
G0 Z19.770
G0 Z21.770
G0 X9.959 Y223.732
G0 Z19.770
G1 Z16.800 F1000.000
G1 X9.959 Y223.732 Z13.363 F1000.000
G1 X8.969 Y223.732 Z13.657 F2500.000
G1 X7.979 Y223.732 Z13.922 F2500.000
G1 X6.989 Y223.732 Z14.158 F2500.000
G1 X5.999 Y223.732 Z14.361 F2500.000
G1 X5.009 Y223.732 Z14.535 F2500.000
G1 X4.019 Y223.732 Z14.677 F2500.000
G1 X3.029 Y223.732 Z14.789 F2500.000
G1 X2.039 Y223.732 Z14.872 F2500.000
G1 X1.049 Y223.732 Z14.921 F2500.000
G1 X0.059 Y223.732 Z14.939 F2500.000
G1 X-0.931 Y223.732 Z14.925 F2500.000
G1 X-1.921 Y223.732 Z14.879 F2500.000
G1 X-2.911 Y223.732 Z14.801 F2500.000
G1 X-3.901 Y223.732 Z14.693 F2500.000
G1 X-4.891 Y223.732 Z14.553 F2500.000
G1 X-5.881 Y223.732 Z14.383 F2500.000
G1 X-6.871 Y223.732 Z14.183 F2500.000
G1 X-7.861 Y223.732 Z13.952 F2500.000
G1 X-8.851 Y223.732 Z13.690 F2500.000
G1 X-9.841 Y223.732 Z13.399 F2500.000
G1 X-9.960 Y223.650 Z13.364 F2500.000
G1 X-10.806 Y168.657 Z13.661 F2500.000
G1 X-11.520 Y122.262 Z13.921 F2500.000
G1 X-12.280 Y72.868 Z14.205 F2500.000
G1 X-13.141 Y16.875 Z14.536 F2500.000
G1 X-13.019 Y16.797 Z14.580 F2500.000
G1 X-12.419 Y16.797 Z14.781 F2500.000
G1 X-11.619 Y16.797 Z15.030 F2500.000
G1 X-10.819 Y16.797 Z15.260 F2500.000
G1 X-10.019 Y16.797 Z15.470 F2500.000
G1 X-9.419 Y16.797 Z15.615 F2500.000
G1 X-8.619 Y16.797 Z15.793 F2500.000
G1 X-7.819 Y16.797 Z15.953 F2500.000
G1 X-7.019 Y16.797 Z16.095 F2500.000
G1 X-6.419 Y16.797 Z16.189 F2500.000
G1 X-5.819 Y16.797 Z16.276 F2500.000
G1 X-5.019 Y16.797 Z16.377 F2500.000
G1 X-4.419 Y16.797 Z16.442 F2500.000
G1 X-3.419 Y16.797 Z16.530 F2500.000
G1 X-2.619 Y16.797 Z16.585 F2500.000
G1 X-2.019 Y16.797 Z16.616 F2500.000
G1 X-1.419 Y16.797 Z16.638 F2500.000
G1 X-0.619 Y16.797 Z16.655 F2500.000
G1 X0.181 Y16.797 Z16.660 F2500.000
G1 X0.781 Y16.797 Z16.653 F2500.000
G1 X1.781 Y16.797 Z16.625 F2500.000
G1 X2.181 Y16.797 Z16.607 F2500.000
G1 X2.981 Y16.797 Z16.562 F2500.000
G1 X3.781 Y16.797 Z16.501 F2500.000
G1 X4.581 Y16.797 Z16.426 F2500.000
G1 X5.181 Y16.797 Z16.358 F2500.000
G1 X6.181 Y16.797 Z16.225 F2500.000
G1 X6.781 Y16.797 Z16.133 F2500.000
G1 X7.581 Y16.797 Z15.996 F2500.000
G1 X8.381 Y16.797 Z15.842 F2500.000
G1 X8.981 Y16.797 Z15.714 F2500.000
G1 X9.581 Y16.797 Z15.576 F2500.000
G1 X10.181 Y16.797 Z15.429 F2500.000
G1 X10.981 Y16.797 Z15.215 F2500.000
G1 X11.181 Y16.797 Z15.157 F2500.000
G1 X11.781 Y16.797 Z14.981 F2500.000
G1 X12.381 Y16.797 Z14.794 F2500.000
G1 X12.981 Y16.797 Z14.593 F2500.000
G1 X13.142 Y16.836 Z14.536 F2500.000
G1 X12.486 Y59.431 Z14.283 F2500.000
G1 X11.530 Y121.624 Z13.924 F2500.000
G1 X10.570 Y184.016 Z13.576 F2500.000
G1 X9.959 Y223.732 Z13.363 F2500.000
(Break)
G1 X9.959 Y223.732 Z16.800 F1000.000
(part 31.)
G0 Z19.770
G0 Z21.770
G0 X10.845 Y224.632
G0 Z19.770
G1 Z16.800 F1000.000
G1 X10.845 Y224.632 Z13.064 F1000.000
G1 X9.863 Y224.632 Z13.384 F2500.000
G1 X8.882 Y224.632 Z13.674 F2500.000
G1 X7.900 Y224.632 Z13.934 F2500.000
G1 X6.918 Y224.632 Z14.165 F2500.000
G1 X5.936 Y224.632 Z14.364 F2500.000
G1 X4.954 Y224.632 Z14.534 F2500.000
G1 X3.972 Y224.632 Z14.676 F2500.000
G1 X2.991 Y224.632 Z14.785 F2500.000
G1 X2.009 Y224.632 Z14.866 F2500.000
G1 X1.027 Y224.632 Z14.915 F2500.000
G1 X0.045 Y224.632 Z14.931 F2500.000
G1 X-0.937 Y224.632 Z14.918 F2500.000
G1 X-1.918 Y224.632 Z14.871 F2500.000
G1 X-2.900 Y224.632 Z14.794 F2500.000
G1 X-3.882 Y224.632 Z14.687 F2500.000
G1 X-4.864 Y224.632 Z14.548 F2500.000
G1 X-5.846 Y224.632 Z14.382 F2500.000
G1 X-6.828 Y224.632 Z14.185 F2500.000
G1 X-7.809 Y224.632 Z13.957 F2500.000
G1 X-8.791 Y224.632 Z13.700 F2500.000
G1 X-9.773 Y224.632 Z13.412 F2500.000
G1 X-10.755 Y224.632 Z13.094 F2500.000
G1 X-10.847 Y224.523 Z13.064 F2500.000
G1 X-11.574 Y177.228 Z13.312 F2500.000
G1 X-12.320 Y128.734 Z13.574 F2500.000
G1 X-13.016 Y83.540 Z13.826 F2500.000
G1 X-14.055 Y15.948 Z14.214 F2500.000
G1 X-13.906 Y15.898 Z14.271 F2500.000
G1 X-12.921 Y15.898 Z14.624 F2500.000
G1 X-11.937 Y15.898 Z14.944 F2500.000
G1 X-10.952 Y15.898 Z15.233 F2500.000
G1 X-9.968 Y15.898 Z15.493 F2500.000
G1 X-8.983 Y15.898 Z15.723 F2500.000
G1 X-7.998 Y15.898 Z15.926 F2500.000
G1 X-7.014 Y15.898 Z16.105 F2500.000
G1 X-6.029 Y15.898 Z16.255 F2500.000
G1 X-5.045 Y15.898 Z16.382 F2500.000
G1 X-4.060 Y15.898 Z16.484 F2500.000
G1 X-3.075 Y15.898 Z16.564 F2500.000
G1 X-2.091 Y15.898 Z16.619 F2500.000
G1 X-1.106 Y15.898 Z16.655 F2500.000
G1 X0.079 Y15.898 Z16.668 F2500.000
G1 X1.063 Y15.898 Z16.655 F2500.000
G1 X2.048 Y15.898 Z16.621 F2500.000
G1 X3.032 Y15.898 Z16.566 F2500.000
G1 X4.017 Y15.898 Z16.489 F2500.000
G1 X5.002 Y15.898 Z16.386 F2500.000
G1 X5.986 Y15.898 Z16.261 F2500.000
G1 X6.971 Y15.898 Z16.112 F2500.000
G1 X7.955 Y15.898 Z15.935 F2500.000
G1 X8.940 Y15.898 Z15.733 F2500.000
G1 X9.925 Y15.898 Z15.504 F2500.000
G1 X10.909 Y15.898 Z15.245 F2500.000
G1 X11.894 Y15.898 Z14.957 F2500.000
G1 X12.994 Y15.898 Z14.599 F2500.000
G1 X13.894 Y15.898 Z14.275 F2500.000
G1 X14.055 Y15.935 Z14.214 F2500.000
G1 X13.354 Y61.530 Z13.951 F2500.000
G1 X12.317 Y128.922 Z13.573 F2500.000
G1 X11.475 Y183.715 Z13.277 F2500.000
G1 X10.845 Y224.632 Z13.064 F2500.000
(Break)
G1 X10.845 Y224.632 Z16.800 F1000.000
(part 33.)
G0 Z19.770
G0 Z21.770
G0 X11.731 Y225.532
G0 Z19.770
G1 Z16.800 F1000.000
G1 X11.731 Y225.532 Z12.738 F1000.000
G1 X10.756 Y225.532 Z13.085 F2500.000
G1 X9.781 Y225.532 Z13.401 F2500.000
G1 X8.806 Y225.532 Z13.687 F2500.000
G1 X7.831 Y225.532 Z13.943 F2500.000
G1 X6.856 Y225.532 Z14.170 F2500.000
G1 X5.881 Y225.532 Z14.366 F2500.000
G1 X4.906 Y225.532 Z14.535 F2500.000
G1 X3.931 Y225.532 Z14.673 F2500.000
G1 X2.956 Y225.532 Z14.782 F2500.000
G1 X1.981 Y225.532 Z14.860 F2500.000
G1 X1.006 Y225.532 Z14.908 F2500.000
G1 X0.031 Y225.532 Z14.924 F2500.000
G1 X-0.944 Y225.532 Z14.910 F2500.000
G1 X-1.919 Y225.532 Z14.864 F2500.000
G1 X-2.894 Y225.532 Z14.788 F2500.000
G1 X-3.869 Y225.532 Z14.681 F2500.000
G1 X-4.844 Y225.532 Z14.544 F2500.000
G1 X-5.819 Y225.532 Z14.378 F2500.000
G1 X-6.794 Y225.532 Z14.183 F2500.000
G1 X-7.769 Y225.532 Z13.959 F2500.000
G1 X-8.744 Y225.532 Z13.704 F2500.000
G1 X-9.719 Y225.532 Z13.420 F2500.000
G1 X-10.694 Y225.532 Z13.105 F2500.000
G1 X-11.669 Y225.532 Z12.761 F2500.000
G1 X-11.734 Y225.395 Z12.738 F2500.000
G1 X-12.195 Y195.399 Z12.890 F2500.000
G1 X-13.204 Y129.807 Z13.233 F2500.000
G1 X-14.130 Y69.614 Z13.559 F2500.000
G1 X-14.970 Y15.020 Z13.862 F2500.000
G1 X-14.793 Y14.998 Z13.936 F2500.000
G1 X-14.193 Y14.998 Z14.173 F2500.000
G1 X-13.793 Y14.998 Z14.324 F2500.000
G1 X-13.393 Y14.998 Z14.470 F2500.000
G1 X-12.993 Y14.998 Z14.610 F2500.000
G1 X-12.393 Y14.998 Z14.810 F2500.000
G1 X-11.793 Y14.998 Z14.998 F2500.000
G1 X-11.393 Y14.998 Z15.117 F2500.000
G1 X-10.793 Y14.998 Z15.286 F2500.000
G1 X-10.193 Y14.998 Z15.445 F2500.000
G1 X-9.793 Y14.998 Z15.545 F2500.000
G1 X-9.393 Y14.998 Z15.640 F2500.000
G1 X-8.793 Y14.998 Z15.775 F2500.000
G1 X-8.393 Y14.998 Z15.858 F2500.000
G1 X-7.793 Y14.998 Z15.976 F2500.000
G1 X-7.393 Y14.998 Z16.048 F2500.000
G1 X-6.793 Y14.998 Z16.149 F2500.000
G1 X-6.193 Y14.998 Z16.241 F2500.000
G1 X-5.793 Y14.998 Z16.296 F2500.000
G1 X-5.393 Y14.998 Z16.349 F2500.000
G1 X-4.593 Y14.998 Z16.440 F2500.000
G1 X-3.793 Y14.998 Z16.516 F2500.000
G1 X-3.393 Y14.998 Z16.548 F2500.000
G1 X-2.793 Y14.998 Z16.590 F2500.000
G1 X-1.993 Y14.998 Z16.632 F2500.000
G1 X-1.393 Y14.998 Z16.654 F2500.000
G1 X-0.793 Y14.998 Z16.668 F2500.000
G1 X0.007 Y14.998 Z16.675 F2500.000
G1 X0.807 Y14.998 Z16.668 F2500.000
G1 X1.407 Y14.998 Z16.654 F2500.000
G1 X2.007 Y14.998 Z16.631 F2500.000
G1 X2.807 Y14.998 Z16.589 F2500.000
G1 X3.207 Y14.998 Z16.562 F2500.000
G1 X3.807 Y14.998 Z16.515 F2500.000
G1 X4.807 Y14.998 Z16.417 F2500.000
G1 X5.407 Y14.998 Z16.347 F2500.000
G1 X5.807 Y14.998 Z16.295 F2500.000
G1 X6.407 Y14.998 Z16.209 F2500.000
G1 X7.007 Y14.998 Z16.114 F2500.000
G1 X7.807 Y14.998 Z15.973 F2500.000
G1 X8.607 Y14.998 Z15.814 F2500.000
G1 X9.407 Y14.998 Z15.637 F2500.000
G1 X10.207 Y14.998 Z15.442 F2500.000
G1 X10.807 Y14.998 Z15.283 F2500.000
G1 X11.407 Y14.998 Z15.113 F2500.000
G1 X11.807 Y14.998 Z14.993 F2500.000
G1 X12.207 Y14.998 Z14.868 F2500.000
G1 X13.007 Y14.998 Z14.605 F2500.000
G1 X13.407 Y14.998 Z14.464 F2500.000
G1 X13.807 Y14.998 Z14.318 F2500.000
G1 X14.207 Y14.998 Z14.167 F2500.000
G1 X14.807 Y14.998 Z13.929 F2500.000
G1 X14.969 Y15.035 Z13.862 F2500.000
G1 X14.259 Y61.229 Z13.605 F2500.000
G1 X13.188 Y130.821 Z13.227 F2500.000
G1 X12.373 Y183.815 Z12.949 F2500.000
G1 X11.731 Y225.532 Z12.738 F2500.000
(Break)
G1 X11.731 Y225.532 Z16.800 F1000.000
(part 35.)
G0 Z19.770
G0 Z21.770
G0 X12.618 Y226.433
G0 Z19.770
G1 Z16.800 F1000.000
G1 X12.618 Y226.433 Z12.386 F1000.000
G1 X11.648 Y226.433 Z12.759 F2500.000
G1 X10.679 Y226.433 Z13.101 F2500.000
G1 X9.710 Y226.433 Z13.413 F2500.000
G1 X8.741 Y226.433 Z13.696 F2500.000
G1 X7.772 Y226.433 Z13.949 F2500.000
G1 X6.802 Y226.433 Z14.173 F2500.000
G1 X5.833 Y226.433 Z14.368 F2500.000
G1 X4.864 Y226.433 Z14.533 F2500.000
G1 X3.895 Y226.433 Z14.669 F2500.000
G1 X2.925 Y226.433 Z14.777 F2500.000
G1 X1.956 Y226.433 Z14.854 F2500.000
G1 X0.987 Y226.433 Z14.900 F2500.000
G1 X0.018 Y226.433 Z14.917 F2500.000
G1 X-0.952 Y226.433 Z14.901 F2500.000
G1 X-1.921 Y226.433 Z14.856 F2500.000
G1 X-2.890 Y226.433 Z14.781 F2500.000
G1 X-3.859 Y226.433 Z14.674 F2500.000
G1 X-4.828 Y226.433 Z14.539 F2500.000
G1 X-5.798 Y226.433 Z14.375 F2500.000
G1 X-6.767 Y226.433 Z14.181 F2500.000
G1 X-7.736 Y226.433 Z13.958 F2500.000
G1 X-8.705 Y226.433 Z13.706 F2500.000
G1 X-9.675 Y226.433 Z13.424 F2500.000
G1 X-10.644 Y226.433 Z13.113 F2500.000
G1 X-11.613 Y226.433 Z12.772 F2500.000
G1 X-12.582 Y226.433 Z12.400 F2500.000
G1 X-12.620 Y226.268 Z12.387 F2500.000
G1 X-13.189 Y189.272 Z12.568 F2500.000
G1 X-14.306 Y116.681 Z12.939 F2500.000
G1 X-15.767 Y21.692 Z13.440 F2500.000
G1 X-15.878 Y14.493 Z13.480 F2500.000
G1 X-15.879 Y14.098 Z13.485 F2500.000
G1 X-15.079 Y14.098 Z13.829 F2500.000
G1 X-14.279 Y14.098 Z14.150 F2500.000
G1 X-14.079 Y14.098 Z14.227 F2500.000
G1 X-13.079 Y14.098 Z14.590 F2500.000
G1 X-12.479 Y14.098 Z14.791 F2500.000
G1 X-11.479 Y14.098 Z15.101 F2500.000
G1 X-11.279 Y14.098 Z15.160 F2500.000
G1 X-10.479 Y14.098 Z15.380 F2500.000
G1 X-9.479 Y14.098 Z15.629 F2500.000
G1 X-8.679 Y14.098 Z15.808 F2500.000
G1 X-7.679 Y14.098 Z16.005 F2500.000
G1 X-6.879 Y14.098 Z16.144 F2500.000
G1 X-5.879 Y14.098 Z16.293 F2500.000
G1 X-4.879 Y14.098 Z16.417 F2500.000
G1 X-4.079 Y14.098 Z16.498 F2500.000
G1 X-3.279 Y14.098 Z16.565 F2500.000
G1 X-2.279 Y14.098 Z16.626 F2500.000
G1 X-1.279 Y14.098 Z16.665 F2500.000
G1 X-0.279 Y14.098 Z16.680 F2500.000
G1 X0.721 Y14.098 Z16.676 F2500.000
G1 X1.521 Y14.098 Z16.656 F2500.000
G1 X2.321 Y14.098 Z16.624 F2500.000
G1 X3.321 Y14.098 Z16.562 F2500.000
G1 X4.121 Y14.098 Z16.493 F2500.000
G1 X4.321 Y14.098 Z16.475 F2500.000
G1 X5.121 Y14.098 Z16.390 F2500.000
G1 X6.121 Y14.098 Z16.260 F2500.000
G1 X7.121 Y14.098 Z16.104 F2500.000
G1 X8.121 Y14.098 Z15.921 F2500.000
G1 X8.921 Y14.098 Z15.756 F2500.000
G1 X9.921 Y14.098 Z15.523 F2500.000
G1 X10.721 Y14.098 Z15.316 F2500.000
G1 X11.721 Y14.098 Z15.030 F2500.000
G1 X12.721 Y14.098 Z14.712 F2500.000
G1 X13.521 Y14.098 Z14.434 F2500.000
G1 X14.321 Y14.098 Z14.134 F2500.000
G1 X14.521 Y14.098 Z14.055 F2500.000
G1 X15.121 Y14.098 Z13.812 F2500.000
G1 X15.721 Y14.098 Z13.555 F2500.000
G1 X15.883 Y14.134 Z13.483 F2500.000
G1 X14.794 Y84.926 Z13.105 F2500.000
G1 X13.858 Y145.818 Z12.788 F2500.000
G1 X13.315 Y181.114 Z12.608 F2500.000
G1 X12.618 Y226.433 Z12.386 F2500.000
(Break)
G1 X12.618 Y226.433 Z16.800 F1000.000
(part 37.)
G0 Z19.770
G0 Z21.770
G0 X13.504 Y227.333
G0 Z19.770
G1 Z16.800 F1000.000
G1 X13.504 Y227.333 Z12.007 F1000.000
G1 X12.504 Y227.333 Z12.422 F2500.000
G1 X11.504 Y227.333 Z12.802 F2500.000
G1 X10.504 Y227.333 Z13.151 F2500.000
G1 X9.504 Y227.333 Z13.467 F2500.000
G1 X8.504 Y227.333 Z13.752 F2500.000
G1 X7.504 Y227.333 Z14.006 F2500.000
G1 X6.504 Y227.333 Z14.228 F2500.000
G1 X5.504 Y227.333 Z14.420 F2500.000
G1 X4.504 Y227.333 Z14.580 F2500.000
G1 X3.504 Y227.333 Z14.709 F2500.000
G1 X2.504 Y227.333 Z14.807 F2500.000
G1 X1.504 Y227.333 Z14.872 F2500.000
G1 X0.504 Y227.333 Z14.905 F2500.000
G1 X-0.496 Y227.333 Z14.906 F2500.000
G1 X-1.496 Y227.333 Z14.872 F2500.000
G1 X-2.496 Y227.333 Z14.807 F2500.000
G1 X-3.496 Y227.333 Z14.710 F2500.000
G1 X-4.496 Y227.333 Z14.581 F2500.000
G1 X-5.496 Y227.333 Z14.421 F2500.000
G1 X-6.496 Y227.333 Z14.230 F2500.000
G1 X-7.496 Y227.333 Z14.008 F2500.000
G1 X-8.496 Y227.333 Z13.754 F2500.000
G1 X-9.496 Y227.333 Z13.470 F2500.000
G1 X-10.496 Y227.333 Z13.153 F2500.000
G1 X-11.496 Y227.333 Z12.805 F2500.000
G1 X-12.496 Y227.333 Z12.425 F2500.000
G1 X-13.496 Y227.333 Z12.010 F2500.000
G1 X-13.507 Y227.140 Z12.008 F2500.000
G1 X-13.522 Y226.141 Z12.012 F2500.000
G1 X-14.599 Y156.149 Z12.349 F2500.000
G1 X-15.642 Y88.357 Z12.687 F2500.000
G1 X-16.614 Y25.164 Z13.008 F2500.000
G1 X-16.795 Y13.366 Z13.070 F2500.000
G1 X-16.766 Y13.197 Z13.086 F2500.000
G1 X-16.366 Y13.197 Z13.275 F2500.000
G1 X-15.766 Y13.197 Z13.546 F2500.000
G1 X-15.366 Y13.197 Z13.719 F2500.000
G1 X-14.766 Y13.197 Z13.968 F2500.000
G1 X-14.366 Y13.197 Z14.127 F2500.000
G1 X-13.766 Y13.197 Z14.355 F2500.000
G1 X-13.366 Y13.197 Z14.500 F2500.000
G1 X-12.766 Y13.197 Z14.707 F2500.000
G1 X-12.166 Y13.197 Z14.902 F2500.000
G1 X-11.566 Y13.197 Z15.086 F2500.000
G1 X-10.766 Y13.197 Z15.313 F2500.000
G1 X-10.366 Y13.197 Z15.419 F2500.000
G1 X-9.766 Y13.197 Z15.570 F2500.000
G1 X-9.366 Y13.197 Z15.665 F2500.000
G1 X-8.766 Y13.197 Z15.798 F2500.000
G1 X-8.166 Y13.197 Z15.921 F2500.000
G1 X-7.566 Y13.197 Z16.035 F2500.000
G1 X-6.966 Y13.197 Z16.138 F2500.000
G1 X-6.566 Y13.197 Z16.202 F2500.000
G1 X-5.966 Y13.197 Z16.290 F2500.000
G1 X-5.366 Y13.197 Z16.368 F2500.000
G1 X-4.966 Y13.197 Z16.415 F2500.000
G1 X-4.366 Y13.197 Z16.479 F2500.000
G1 X-3.766 Y13.197 Z16.534 F2500.000
G1 X-3.166 Y13.197 Z16.580 F2500.000
G1 X-2.766 Y13.197 Z16.607 F2500.000
G1 X-2.166 Y13.197 Z16.639 F2500.000
G1 X-1.366 Y13.197 Z16.670 F2500.000
G1 X-0.766 Y13.197 Z16.684 F2500.000
G1 X0.034 Y13.197 Z16.690 F2500.000
G1 X0.634 Y13.197 Z16.686 F2500.000
G1 X1.234 Y13.197 Z16.673 F2500.000
G1 X2.034 Y13.197 Z16.646 F2500.000
G1 X2.834 Y13.197 Z16.603 F2500.000
G1 X3.434 Y13.197 Z16.561 F2500.000
G1 X4.034 Y13.197 Z16.511 F2500.000
G1 X4.634 Y13.197 Z16.451 F2500.000
G1 X5.234 Y13.197 Z16.384 F2500.000
G1 X5.834 Y13.197 Z16.308 F2500.000
G1 X6.434 Y13.197 Z16.222 F2500.000
G1 X6.834 Y13.197 Z16.160 F2500.000
G1 X7.434 Y13.197 Z16.058 F2500.000
G1 X8.034 Y13.197 Z15.947 F2500.000
G1 X8.634 Y13.197 Z15.826 F2500.000
G1 X9.034 Y13.197 Z15.740 F2500.000
G1 X9.634 Y13.197 Z15.602 F2500.000
G1 X10.234 Y13.197 Z15.453 F2500.000
G1 X10.834 Y13.197 Z15.295 F2500.000
G1 X11.234 Y13.197 Z15.183 F2500.000
G1 X12.034 Y13.197 Z14.943 F2500.000
G1 X12.634 Y13.197 Z14.751 F2500.000
G1 X13.034 Y13.197 Z14.616 F2500.000
G1 X13.634 Y13.197 Z14.403 F2500.000
G1 X14.234 Y13.197 Z14.178 F2500.000
G1 X14.834 Y13.197 Z13.941 F2500.000
G1 X15.234 Y13.197 Z13.775 F2500.000
G1 X16.034 Y13.197 Z13.427 F2500.000
G1 X16.634 Y13.197 Z13.149 F2500.000
G1 X16.797 Y13.233 Z13.070 F2500.000
G1 X15.118 Y122.420 Z12.516 F2500.000
G1 X14.524 Y161.016 Z12.325 F2500.000
G1 X13.737 Y212.210 Z12.077 F2500.000
G1 X13.504 Y227.333 Z12.007 F2500.000
(Break)
G1 X13.504 Y227.333 Z16.800 F1000.000
(part 39.)
G0 Z19.770
G0 Z21.770
G0 X14.390 Y228.232
G0 Z19.770
G1 Z16.800 F1000.000
G1 X14.390 Y228.232 Z11.601 F1000.000
G1 X13.404 Y228.232 Z12.039 F2500.000
G1 X12.418 Y228.232 Z12.445 F2500.000
G1 X11.432 Y228.232 Z12.818 F2500.000
G1 X10.445 Y228.232 Z13.161 F2500.000
G1 X9.459 Y228.232 Z13.470 F2500.000
G1 X8.473 Y228.232 Z13.752 F2500.000
G1 X7.487 Y228.232 Z14.001 F2500.000
G1 X6.501 Y228.232 Z14.219 F2500.000
G1 X5.514 Y228.232 Z14.409 F2500.000
G1 X4.528 Y228.232 Z14.568 F2500.000
G1 X3.542 Y228.232 Z14.696 F2500.000
G1 X2.556 Y228.232 Z14.794 F2500.000
G1 X1.570 Y228.232 Z14.861 F2500.000
G1 X0.583 Y228.232 Z14.897 F2500.000
G1 X-0.403 Y228.232 Z14.899 F2500.000
G1 X-1.389 Y228.232 Z14.870 F2500.000
G1 X-2.375 Y228.232 Z14.809 F2500.000
G1 X-3.362 Y228.232 Z14.717 F2500.000
G1 X-4.348 Y228.232 Z14.594 F2500.000
G1 X-5.334 Y228.232 Z14.440 F2500.000
G1 X-6.320 Y228.232 Z14.256 F2500.000
G1 X-7.306 Y228.232 Z14.044 F2500.000
G1 X-8.293 Y228.232 Z13.800 F2500.000
G1 X-9.279 Y228.232 Z13.525 F2500.000
G1 X-10.265 Y228.232 Z13.219 F2500.000
G1 X-11.251 Y228.232 Z12.882 F2500.000
G1 X-12.237 Y228.232 Z12.515 F2500.000
G1 X-13.224 Y228.232 Z12.117 F2500.000
G1 X-14.210 Y228.232 Z11.683 F2500.000
G1 X-14.391 Y228.213 Z11.601 F2500.000
G1 X-15.559 Y152.222 Z11.952 F2500.000
G1 X-17.704 Y12.838 Z12.622 F2500.000
G1 X-17.710 Y12.438 Z12.625 F2500.000
G1 X-17.653 Y12.297 Z12.656 F2500.000
G1 X-16.853 Y12.297 Z13.055 F2500.000
G1 X-16.653 Y12.297 Z13.151 F2500.000
G1 X-16.253 Y12.297 Z13.338 F2500.000
G1 X-15.853 Y12.297 Z13.519 F2500.000
G1 X-15.453 Y12.297 Z13.693 F2500.000
G1 X-14.853 Y12.297 Z13.944 F2500.000
G1 X-14.253 Y12.297 Z14.181 F2500.000
G1 X-13.653 Y12.297 Z14.406 F2500.000
G1 X-13.253 Y12.297 Z14.550 F2500.000
G1 X-12.653 Y12.297 Z14.754 F2500.000
G1 X-12.253 Y12.297 Z14.884 F2500.000
G1 X-11.653 Y12.297 Z15.070 F2500.000
G1 X-11.053 Y12.297 Z15.244 F2500.000
G1 X-10.453 Y12.297 Z15.406 F2500.000
G1 X-10.053 Y12.297 Z15.508 F2500.000
G1 X-9.453 Y12.297 Z15.653 F2500.000
G1 X-9.053 Y12.297 Z15.744 F2500.000
G1 X-8.453 Y12.297 Z15.873 F2500.000
G1 X-7.853 Y12.297 Z15.990 F2500.000
G1 X-7.253 Y12.297 Z16.097 F2500.000
G1 X-6.653 Y12.297 Z16.197 F2500.000
G1 X-5.853 Y12.297 Z16.313 F2500.000
G1 X-5.253 Y12.297 Z16.390 F2500.000
G1 X-4.653 Y12.297 Z16.458 F2500.000
G1 X-3.653 Y12.297 Z16.551 F2500.000
G1 X-3.053 Y12.297 Z16.596 F2500.000
G1 X-2.253 Y12.297 Z16.643 F2500.000
G1 X-1.653 Y12.297 Z16.668 F2500.000
G1 X-1.253 Y12.297 Z16.680 F2500.000
G1 X-0.853 Y12.297 Z16.690 F2500.000
G1 X-0.053 Y12.297 Z16.698 F2500.000
G1 X0.947 Y12.297 Z16.688 F2500.000
G1 X1.347 Y12.297 Z16.678 F2500.000
G1 X1.947 Y12.297 Z16.657 F2500.000
G1 X2.347 Y12.297 Z16.638 F2500.000
G1 X2.947 Y12.297 Z16.603 F2500.000
G1 X3.547 Y12.297 Z16.560 F2500.000
G1 X4.347 Y12.297 Z16.489 F2500.000
G1 X4.947 Y12.297 Z16.425 F2500.000
G1 X5.747 Y12.297 Z16.327 F2500.000
G1 X5.947 Y12.297 Z16.300 F2500.000
G1 X6.547 Y12.297 Z16.213 F2500.000
G1 X7.347 Y12.297 Z16.082 F2500.000
G1 X7.947 Y12.297 Z15.973 F2500.000
G1 X8.347 Y12.297 Z15.894 F2500.000
G1 X8.747 Y12.297 Z15.811 F2500.000
G1 X9.547 Y12.297 Z15.632 F2500.000
G1 X10.147 Y12.297 Z15.485 F2500.000
G1 X10.747 Y12.297 Z15.328 F2500.000
G1 X11.547 Y12.297 Z15.101 F2500.000
G1 X12.147 Y12.297 Z14.918 F2500.000
G1 X12.547 Y12.297 Z14.789 F2500.000
G1 X13.147 Y12.297 Z14.587 F2500.000
G1 X13.747 Y12.297 Z14.372 F2500.000
G1 X14.147 Y12.297 Z14.222 F2500.000
G1 X14.747 Y12.297 Z13.987 F2500.000
G1 X15.347 Y12.297 Z13.738 F2500.000
G1 X15.747 Y12.297 Z13.565 F2500.000
G1 X16.147 Y12.297 Z13.386 F2500.000
G1 X16.547 Y12.297 Z13.201 F2500.000
G1 X16.947 Y12.297 Z13.008 F2500.000
G1 X17.547 Y12.297 Z12.710 F2500.000
G1 X17.711 Y12.333 Z12.624 F2500.000
G1 X15.558 Y152.316 Z11.952 F2500.000
G1 X14.390 Y228.232 Z11.601 F2500.000
(Break)
G1 X14.390 Y228.232 Z16.800 F1000.000
(part 41.)
G0 Z19.770
G0 Z21.770
G0 X15.276 Y229.132
G0 Z19.770
G1 Z16.800 F1000.000
G1 X15.276 Y229.132 Z11.166 F1000.000
G1 X14.296 Y229.132 Z11.634 F2500.000
G1 X13.315 Y229.132 Z12.067 F2500.000
G1 X12.335 Y229.132 Z12.468 F2500.000
G1 X11.354 Y229.132 Z12.838 F2500.000
G1 X10.373 Y229.132 Z13.175 F2500.000
G1 X9.393 Y229.132 Z13.482 F2500.000
G1 X8.412 Y229.132 Z13.759 F2500.000
G1 X7.431 Y229.132 Z14.005 F2500.000
G1 X6.451 Y229.132 Z14.223 F2500.000
G1 X5.470 Y229.132 Z14.410 F2500.000
G1 X4.489 Y229.132 Z14.566 F2500.000
G1 X3.509 Y229.132 Z14.693 F2500.000
G1 X2.528 Y229.132 Z14.789 F2500.000
G1 X1.547 Y229.132 Z14.855 F2500.000
G1 X0.567 Y229.132 Z14.889 F2500.000
G1 X-0.414 Y229.132 Z14.892 F2500.000
G1 X-1.394 Y229.132 Z14.863 F2500.000
G1 X-2.375 Y229.132 Z14.801 F2500.000
G1 X-3.356 Y229.132 Z14.710 F2500.000
G1 X-4.336 Y229.132 Z14.588 F2500.000
G1 X-5.317 Y229.132 Z14.436 F2500.000
G1 X-6.298 Y229.132 Z14.254 F2500.000
G1 X-7.278 Y229.132 Z14.041 F2500.000
G1 X-8.259 Y229.132 Z13.799 F2500.000
G1 X-9.240 Y229.132 Z13.527 F2500.000
G1 X-10.220 Y229.132 Z13.225 F2500.000
G1 X-11.201 Y229.132 Z12.891 F2500.000
G1 X-12.182 Y229.132 Z12.528 F2500.000
G1 X-13.162 Y229.132 Z12.133 F2500.000
G1 X-14.143 Y229.132 Z11.704 F2500.000
G1 X-15.124 Y229.132 Z11.241 F2500.000
G1 X-15.277 Y229.085 Z11.166 F2500.000
G1 X-16.043 Y179.291 Z11.385 F2500.000
G1 X-16.994 Y117.499 Z11.666 F2500.000
G1 X-17.043 Y114.299 Z11.678 F2500.000
G1 X-17.074 Y112.299 Z11.690 F2500.000
G1 X-18.073 Y47.307 Z11.985 F2500.000
G1 X-18.612 Y12.311 Z12.141 F2500.000
G1 X-18.624 Y11.511 Z12.147 F2500.000
G1 X-18.540 Y11.398 Z12.195 F2500.000
G1 X-18.140 Y11.398 Z12.413 F2500.000
G1 X-17.540 Y11.398 Z12.726 F2500.000
G1 X-17.140 Y11.398 Z12.926 F2500.000
G1 X-16.540 Y11.398 Z13.216 F2500.000
G1 X-15.940 Y11.398 Z13.491 F2500.000
G1 X-15.540 Y11.398 Z13.666 F2500.000
G1 X-14.740 Y11.398 Z14.000 F2500.000
G1 X-14.340 Y11.398 Z14.159 F2500.000
G1 X-13.740 Y11.398 Z14.385 F2500.000
G1 X-13.140 Y11.398 Z14.599 F2500.000
G1 X-12.540 Y11.398 Z14.802 F2500.000
G1 X-12.140 Y11.398 Z14.930 F2500.000
G1 X-11.740 Y11.398 Z15.053 F2500.000
G1 X-10.940 Y11.398 Z15.284 F2500.000
G1 X-10.340 Y11.398 Z15.445 F2500.000
G1 X-9.740 Y11.398 Z15.595 F2500.000
G1 X-8.940 Y11.398 Z15.779 F2500.000
G1 X-8.740 Y11.398 Z15.821 F2500.000
G1 X-8.140 Y11.398 Z15.943 F2500.000
G1 X-7.540 Y11.398 Z16.056 F2500.000
G1 X-6.940 Y11.398 Z16.159 F2500.000
G1 X-6.340 Y11.398 Z16.252 F2500.000
G1 X-5.740 Y11.398 Z16.336 F2500.000
G1 X-5.140 Y11.398 Z16.412 F2500.000
G1 X-4.540 Y11.398 Z16.478 F2500.000
G1 X-3.740 Y11.398 Z16.552 F2500.000
G1 X-3.140 Y11.398 Z16.598 F2500.000
G1 X-2.540 Y11.398 Z16.635 F2500.000
G1 X-1.740 Y11.398 Z16.673 F2500.000
G1 X-1.340 Y11.398 Z16.686 F2500.000
G1 X-0.740 Y11.398 Z16.699 F2500.000
G1 X0.060 Y11.398 Z16.705 F2500.000
G1 X0.660 Y11.398 Z16.700 F2500.000
G1 X1.460 Y11.398 Z16.682 F2500.000
G1 X2.260 Y11.398 Z16.650 F2500.000
G1 X2.660 Y11.398 Z16.628 F2500.000
G1 X3.460 Y11.398 Z16.574 F2500.000
G1 X4.060 Y11.398 Z16.524 F2500.000
G1 X4.460 Y11.398 Z16.486 F2500.000
G1 X5.260 Y11.398 Z16.397 F2500.000
G1 X5.860 Y11.398 Z16.321 F2500.000
G1 X6.460 Y11.398 Z16.235 F2500.000
G1 X6.860 Y11.398 Z16.172 F2500.000
G1 X7.660 Y11.398 Z16.034 F2500.000
G1 X8.260 Y11.398 Z15.920 F2500.000
G1 X8.860 Y11.398 Z15.796 F2500.000
G1 X9.460 Y11.398 Z15.661 F2500.000
G1 X10.060 Y11.398 Z15.516 F2500.000
G1 X10.660 Y11.398 Z15.360 F2500.000
G1 X11.260 Y11.398 Z15.194 F2500.000
G1 X12.060 Y11.398 Z14.955 F2500.000
G1 X12.460 Y11.398 Z14.828 F2500.000
G1 X13.060 Y11.398 Z14.626 F2500.000
G1 X13.460 Y11.398 Z14.486 F2500.000
G1 X14.060 Y11.398 Z14.265 F2500.000
G1 X14.460 Y11.398 Z14.111 F2500.000
G1 X15.060 Y11.398 Z13.868 F2500.000
G1 X15.460 Y11.398 Z13.700 F2500.000
G1 X15.860 Y11.398 Z13.526 F2500.000
G1 X16.460 Y11.398 Z13.253 F2500.000
G1 X17.060 Y11.398 Z12.965 F2500.000
G1 X17.460 Y11.398 Z12.766 F2500.000
G1 X18.060 Y11.398 Z12.455 F2500.000
G1 X18.460 Y11.398 Z12.239 F2500.000
G1 X18.625 Y11.432 Z12.147 F2500.000
G1 X16.407 Y155.615 Z11.491 F2500.000
G1 X15.276 Y229.132 Z11.166 F2500.000
(Break)
G1 X15.276 Y229.132 Z16.800 F1000.000
(part 43.)
G0 Z19.770
G0 Z21.770
G0 X16.163 Y230.032
G0 Z19.770
G1 Z16.800 F1000.000
G1 X16.163 Y230.032 Z10.702 F1000.000
G1 X15.187 Y230.032 Z11.199 F2500.000
G1 X14.211 Y230.032 Z11.662 F2500.000
G1 X13.235 Y230.032 Z12.091 F2500.000
G1 X12.260 Y230.032 Z12.488 F2500.000
G1 X11.284 Y230.032 Z12.853 F2500.000
G1 X10.308 Y230.032 Z13.186 F2500.000
G1 X9.332 Y230.032 Z13.490 F2500.000
G1 X8.357 Y230.032 Z13.764 F2500.000
G1 X7.381 Y230.032 Z14.009 F2500.000
G1 X6.405 Y230.032 Z14.222 F2500.000
G1 X5.429 Y230.032 Z14.408 F2500.000
G1 X4.454 Y230.032 Z14.564 F2500.000
G1 X3.478 Y230.032 Z14.689 F2500.000
G1 X2.502 Y230.032 Z14.783 F2500.000
G1 X1.526 Y230.032 Z14.849 F2500.000
G1 X0.551 Y230.032 Z14.882 F2500.000
G1 X-0.425 Y230.032 Z14.884 F2500.000
G1 X-1.401 Y230.032 Z14.854 F2500.000
G1 X-2.377 Y230.032 Z14.793 F2500.000
G1 X-3.352 Y230.032 Z14.703 F2500.000
G1 X-4.328 Y230.032 Z14.582 F2500.000
G1 X-5.304 Y230.032 Z14.429 F2500.000
G1 X-6.280 Y230.032 Z14.248 F2500.000
G1 X-7.255 Y230.032 Z14.038 F2500.000
G1 X-8.231 Y230.032 Z13.797 F2500.000
G1 X-9.207 Y230.032 Z13.528 F2500.000
G1 X-10.183 Y230.032 Z13.227 F2500.000
G1 X-11.158 Y230.032 Z12.897 F2500.000
G1 X-12.134 Y230.032 Z12.536 F2500.000
G1 X-13.110 Y230.032 Z12.143 F2500.000
G1 X-14.086 Y230.032 Z11.720 F2500.000
G1 X-15.062 Y230.032 Z11.261 F2500.000
G1 X-16.037 Y230.032 Z10.767 F2500.000
G1 X-16.164 Y229.958 Z10.703 F2500.000
G1 X-16.736 Y192.762 Z10.858 F2500.000
G1 X-18.406 Y84.175 Z11.323 F2500.000
G1 X-19.538 Y10.584 Z11.633 F2500.000
G1 X-19.426 Y10.498 Z11.701 F2500.000
G1 X-19.026 Y10.498 Z11.933 F2500.000
G1 X-18.426 Y10.498 Z12.269 F2500.000
G1 X-17.826 Y10.498 Z12.590 F2500.000
G1 X-17.226 Y10.498 Z12.894 F2500.000
G1 X-16.826 Y10.498 Z13.091 F2500.000
G1 X-16.426 Y10.498 Z13.280 F2500.000
G1 X-15.826 Y10.498 Z13.551 F2500.000
G1 X-15.226 Y10.498 Z13.811 F2500.000
G1 X-14.626 Y10.498 Z14.056 F2500.000
G1 X-14.026 Y10.498 Z14.288 F2500.000
G1 X-13.226 Y10.498 Z14.579 F2500.000
G1 X-12.626 Y10.498 Z14.783 F2500.000
G1 X-12.226 Y10.498 Z14.913 F2500.000
G1 X-11.426 Y10.498 Z15.156 F2500.000
G1 X-10.826 Y10.498 Z15.325 F2500.000
G1 X-10.226 Y10.498 Z15.483 F2500.000
G1 X-9.826 Y10.498 Z15.583 F2500.000
G1 X-9.026 Y10.498 Z15.769 F2500.000
G1 X-8.426 Y10.498 Z15.895 F2500.000
G1 X-7.626 Y10.498 Z16.048 F2500.000
G1 X-7.026 Y10.498 Z16.154 F2500.000
G1 X-6.426 Y10.498 Z16.248 F2500.000
G1 X-5.626 Y10.498 Z16.360 F2500.000
G1 X-5.226 Y10.498 Z16.410 F2500.000
G1 X-4.626 Y10.498 Z16.477 F2500.000
G1 X-4.026 Y10.498 Z16.535 F2500.000
G1 X-3.226 Y10.498 Z16.600 F2500.000
G1 X-2.626 Y10.498 Z16.638 F2500.000
G1 X-2.026 Y10.498 Z16.668 F2500.000
G1 X-1.426 Y10.498 Z16.691 F2500.000
G1 X-0.826 Y10.498 Z16.706 F2500.000
G1 X-0.026 Y10.498 Z16.713 F2500.000
G1 X0.574 Y10.498 Z16.709 F2500.000
G1 X1.374 Y10.498 Z16.692 F2500.000
G1 X1.974 Y10.498 Z16.670 F2500.000
G1 X2.574 Y10.498 Z16.641 F2500.000
G1 X3.174 Y10.498 Z16.603 F2500.000
G1 X3.974 Y10.498 Z16.540 F2500.000
G1 X4.774 Y10.498 Z16.461 F2500.000
G1 X5.374 Y10.498 Z16.392 F2500.000
G1 X6.174 Y10.498 Z16.285 F2500.000
G1 X6.974 Y10.498 Z16.162 F2500.000
G1 X7.574 Y10.498 Z16.057 F2500.000
G1 X8.174 Y10.498 Z15.946 F2500.000
G1 X8.974 Y10.498 Z15.780 F2500.000
G1 X9.374 Y10.498 Z15.690 F2500.000
G1 X9.974 Y10.498 Z15.547 F2500.000
G1 X10.374 Y10.498 Z15.444 F2500.000
G1 X10.774 Y10.498 Z15.340 F2500.000
G1 X11.174 Y10.498 Z15.229 F2500.000
G1 X11.774 Y10.498 Z15.052 F2500.000
G1 X12.174 Y10.498 Z14.929 F2500.000
G1 X12.774 Y10.498 Z14.734 F2500.000
G1 X13.374 Y10.498 Z14.528 F2500.000
G1 X14.174 Y10.498 Z14.232 F2500.000
G1 X14.574 Y10.498 Z14.077 F2500.000
G1 X15.174 Y10.498 Z13.833 F2500.000
G1 X15.774 Y10.498 Z13.575 F2500.000
G1 X16.374 Y10.498 Z13.304 F2500.000
G1 X16.974 Y10.498 Z13.019 F2500.000
G1 X17.574 Y10.498 Z12.719 F2500.000
G1 X17.774 Y10.498 Z12.617 F2500.000
G1 X18.374 Y10.498 Z12.298 F2500.000
G1 X18.974 Y10.498 Z11.963 F2500.000
G1 X19.374 Y10.498 Z11.732 F2500.000
G1 X19.539 Y10.531 Z11.633 F2500.000
G1 X16.163 Y230.032 Z10.702 F2500.000
(Break)
G1 X16.163 Y230.032 Z16.800 F1000.000
(part 45.)
G0 Z19.770
G0 Z21.770
G0 X17.049 Y230.933
G0 Z19.770
G1 Z16.800 F1000.000
G1 X17.049 Y230.933 Z10.209 F1000.000
G1 X16.049 Y230.933 Z10.752 F2500.000
G1 X15.049 Y230.933 Z11.255 F2500.000
G1 X14.049 Y230.933 Z11.725 F2500.000
G1 X13.049 Y230.933 Z12.159 F2500.000
G1 X12.049 Y230.933 Z12.559 F2500.000
G1 X11.049 Y230.933 Z12.927 F2500.000
G1 X10.049 Y230.933 Z13.262 F2500.000
G1 X9.049 Y230.933 Z13.565 F2500.000
G1 X8.049 Y230.933 Z13.837 F2500.000
G1 X7.049 Y230.933 Z14.077 F2500.000
G1 X6.049 Y230.933 Z14.287 F2500.000
G1 X5.049 Y230.933 Z14.465 F2500.000
G1 X4.049 Y230.933 Z14.612 F2500.000
G1 X3.049 Y230.933 Z14.727 F2500.000
G1 X2.049 Y230.933 Z14.809 F2500.000
G1 X1.049 Y230.933 Z14.861 F2500.000
G1 X0.049 Y230.933 Z14.880 F2500.000
G1 X-0.951 Y230.933 Z14.865 F2500.000
G1 X-1.951 Y230.933 Z14.816 F2500.000
G1 X-2.951 Y230.933 Z14.736 F2500.000
G1 X-3.951 Y230.933 Z14.624 F2500.000
G1 X-4.951 Y230.933 Z14.479 F2500.000
G1 X-5.951 Y230.933 Z14.305 F2500.000
G1 X-6.951 Y230.933 Z14.098 F2500.000
G1 X-7.951 Y230.933 Z13.861 F2500.000
G1 X-8.951 Y230.933 Z13.593 F2500.000
G1 X-9.951 Y230.933 Z13.293 F2500.000
G1 X-10.951 Y230.933 Z12.960 F2500.000
G1 X-11.951 Y230.933 Z12.597 F2500.000
G1 X-12.951 Y230.933 Z12.200 F2500.000
G1 X-13.951 Y230.933 Z11.769 F2500.000
G1 X-14.951 Y230.933 Z11.305 F2500.000
G1 X-15.951 Y230.933 Z10.803 F2500.000
G1 X-16.951 Y230.933 Z10.264 F2500.000
G1 X-17.051 Y230.831 Z10.210 F2500.000
G1 X-17.469 Y203.634 Z10.315 F2500.000
G1 X-19.367 Y80.248 Z10.809 F2500.000
G1 X-20.453 Y9.657 Z11.080 F2500.000
G1 X-20.313 Y9.598 Z11.169 F2500.000
G1 X-19.513 Y9.598 Z11.661 F2500.000
G1 X-18.713 Y9.598 Z12.121 F2500.000
G1 X-18.513 Y9.598 Z12.233 F2500.000
G1 X-17.553 Y9.598 Z12.742 F2500.000
G1 X-16.593 Y9.598 Z13.213 F2500.000
G1 X-15.633 Y9.598 Z13.647 F2500.000
G1 X-14.673 Y9.598 Z14.048 F2500.000
G1 X-13.513 Y9.598 Z14.488 F2500.000
G1 X-12.513 Y9.598 Z14.830 F2500.000
G1 X-11.513 Y9.598 Z15.140 F2500.000
G1 X-10.513 Y9.598 Z15.418 F2500.000
G1 X-9.513 Y9.598 Z15.667 F2500.000
G1 X-8.513 Y9.598 Z15.887 F2500.000
G1 X-8.313 Y9.598 Z15.927 F2500.000
G1 X-7.353 Y9.598 Z16.107 F2500.000
G1 X-6.393 Y9.598 Z16.261 F2500.000
G1 X-5.433 Y9.598 Z16.393 F2500.000
G1 X-4.473 Y9.598 Z16.500 F2500.000
G1 X-3.313 Y9.598 Z16.601 F2500.000
G1 X-2.313 Y9.598 Z16.662 F2500.000
G1 X-1.313 Y9.598 Z16.701 F2500.000
G1 X-0.313 Y9.598 Z16.718 F2500.000
G1 X0.687 Y9.598 Z16.715 F2500.000
G1 X1.687 Y9.598 Z16.690 F2500.000
G1 X2.847 Y9.598 Z16.632 F2500.000
G1 X3.807 Y9.598 Z16.562 F2500.000
G1 X4.767 Y9.598 Z16.469 F2500.000
G1 X5.727 Y9.598 Z16.355 F2500.000
G1 X6.687 Y9.598 Z16.216 F2500.000
G1 X7.887 Y9.598 Z16.009 F2500.000
G1 X8.887 Y9.598 Z15.807 F2500.000
G1 X9.887 Y9.598 Z15.577 F2500.000
G1 X10.887 Y9.598 Z15.318 F2500.000
G1 X11.887 Y9.598 Z15.028 F2500.000
G1 X12.087 Y9.598 Z14.966 F2500.000
G1 X13.087 Y9.598 Z14.637 F2500.000
G1 X14.087 Y9.598 Z14.276 F2500.000
G1 X15.087 Y9.598 Z13.880 F2500.000
G1 X16.087 Y9.598 Z13.445 F2500.000
G1 X17.087 Y9.598 Z12.975 F2500.000
G1 X17.287 Y9.598 Z12.876 F2500.000
G1 X18.287 Y9.598 Z12.357 F2500.000
G1 X19.287 Y9.598 Z11.794 F2500.000
G1 X20.287 Y9.598 Z11.186 F2500.000
G1 X20.453 Y9.631 Z11.081 F2500.000
G1 X19.281 Y85.822 Z10.787 F2500.000
G1 X17.049 Y230.933 Z10.209 F2500.000
(Break)
G1 X17.049 Y230.933 Z16.800 F1000.000
(part 47.)
G0 Z19.770
G0 Z21.770
G0 X17.935 Y231.833
G0 Z19.770
G1 Z16.800 F1000.000
G1 X17.935 Y231.833 Z9.684 F1000.000
G1 X16.941 Y231.833 Z10.259 F2500.000
G1 X15.946 Y231.833 Z10.794 F2500.000
G1 X14.952 Y231.833 Z11.293 F2500.000
G1 X13.957 Y231.833 Z11.757 F2500.000
G1 X12.963 Y231.833 Z12.185 F2500.000
G1 X11.969 Y231.833 Z12.580 F2500.000
G1 X10.974 Y231.833 Z12.944 F2500.000
G1 X9.980 Y231.833 Z13.275 F2500.000
G1 X8.985 Y231.833 Z13.574 F2500.000
G1 X7.991 Y231.833 Z13.843 F2500.000
G1 X6.996 Y231.833 Z14.080 F2500.000
G1 X6.002 Y231.833 Z14.286 F2500.000
G1 X5.007 Y231.833 Z14.463 F2500.000
G1 X4.013 Y231.833 Z14.608 F2500.000
G1 X3.019 Y231.833 Z14.722 F2500.000
G1 X2.024 Y231.833 Z14.804 F2500.000
G1 X1.030 Y231.833 Z14.854 F2500.000
G1 X0.035 Y231.833 Z14.872 F2500.000
G1 X-0.959 Y231.833 Z14.857 F2500.000
G1 X-1.954 Y231.833 Z14.809 F2500.000
G1 X-2.948 Y231.833 Z14.729 F2500.000
G1 X-3.943 Y231.833 Z14.618 F2500.000
G1 X-4.937 Y231.833 Z14.474 F2500.000
G1 X-5.931 Y231.833 Z14.300 F2500.000
G1 X-6.926 Y231.833 Z14.096 F2500.000
G1 X-7.920 Y231.833 Z13.860 F2500.000
G1 X-8.915 Y231.833 Z13.594 F2500.000
G1 X-9.909 Y231.833 Z13.296 F2500.000
G1 X-10.904 Y231.833 Z12.968 F2500.000
G1 X-11.898 Y231.833 Z12.607 F2500.000
G1 X-12.893 Y231.833 Z12.214 F2500.000
G1 X-13.887 Y231.833 Z11.787 F2500.000
G1 X-14.881 Y231.833 Z11.328 F2500.000
G1 X-15.876 Y231.833 Z10.831 F2500.000
G1 X-16.870 Y231.833 Z10.298 F2500.000
G1 X-17.865 Y231.833 Z9.726 F2500.000
G1 X-17.937 Y231.703 Z9.685 F2500.000
G1 X-19.934 Y101.918 Z10.163 F2500.000
G1 X-20.666 Y54.324 Z10.333 F2500.000
G1 X-21.367 Y8.729 Z10.489 F2500.000
G1 X-21.200 Y8.697 Z10.603 F2500.000
G1 X-20.600 Y8.697 Z10.999 F2500.000
G1 X-20.000 Y8.697 Z11.378 F2500.000
G1 X-19.400 Y8.697 Z11.740 F2500.000
G1 X-18.600 Y8.697 Z12.197 F2500.000
G1 X-18.000 Y8.697 Z12.522 F2500.000
G1 X-17.400 Y8.697 Z12.831 F2500.000
G1 X-17.000 Y8.697 Z13.029 F2500.000
G1 X-16.400 Y8.697 Z13.314 F2500.000
G1 X-15.800 Y8.697 Z13.586 F2500.000
G1 X-15.200 Y8.697 Z13.843 F2500.000
G1 X-14.400 Y8.697 Z14.167 F2500.000
G1 X-13.800 Y8.697 Z14.392 F2500.000
G1 X-13.200 Y8.697 Z14.608 F2500.000
G1 X-12.600 Y8.697 Z14.812 F2500.000
G1 X-11.800 Y8.697 Z15.064 F2500.000
G1 X-11.200 Y8.697 Z15.240 F2500.000
G1 X-10.600 Y8.697 Z15.404 F2500.000
G1 X-10.000 Y8.697 Z15.559 F2500.000
G1 X-9.400 Y8.697 Z15.703 F2500.000
G1 X-8.800 Y8.697 Z15.836 F2500.000
G1 X-8.400 Y8.697 Z15.919 F2500.000
G1 X-7.800 Y8.697 Z16.035 F2500.000
G1 X-7.000 Y8.697 Z16.175 F2500.000
G1 X-6.200 Y8.697 Z16.298 F2500.000
G1 X-5.800 Y8.697 Z16.353 F2500.000
G1 X-5.400 Y8.697 Z16.405 F2500.000
G1 X-4.600 Y8.697 Z16.495 F2500.000
G1 X-3.800 Y8.697 Z16.570 F2500.000
G1 X-3.000 Y8.697 Z16.631 F2500.000
G1 X-2.200 Y8.697 Z16.676 F2500.000
G1 X-1.600 Y8.697 Z16.700 F2500.000
G1 X-1.000 Y8.697 Z16.717 F2500.000
G1 X0.000 Y8.697 Z16.727 F2500.000
G1 X1.000 Y8.697 Z16.717 F2500.000
G1 X1.600 Y8.697 Z16.700 F2500.000
G1 X2.200 Y8.697 Z16.676 F2500.000
G1 X3.000 Y8.697 Z16.631 F2500.000
G1 X3.800 Y8.697 Z16.570 F2500.000
G1 X4.600 Y8.697 Z16.495 F2500.000
G1 X5.400 Y8.697 Z16.404 F2500.000
G1 X6.000 Y8.697 Z16.326 F2500.000
G1 X6.800 Y8.697 Z16.207 F2500.000
G1 X7.400 Y8.697 Z16.107 F2500.000
G1 X8.000 Y8.697 Z15.997 F2500.000
G1 X8.800 Y8.697 Z15.835 F2500.000
G1 X9.600 Y8.697 Z15.656 F2500.000
G1 X10.200 Y8.697 Z15.508 F2500.000
G1 X11.000 Y8.697 Z15.296 F2500.000
G1 X11.600 Y8.697 Z15.124 F2500.000
G1 X12.200 Y8.697 Z14.940 F2500.000
G1 X12.800 Y8.697 Z14.745 F2500.000
G1 X13.400 Y8.697 Z14.538 F2500.000
G1 X13.800 Y8.697 Z14.392 F2500.000
G1 X14.400 Y8.697 Z14.167 F2500.000
G1 X15.200 Y8.697 Z13.843 F2500.000
G1 X15.800 Y8.697 Z13.586 F2500.000
G1 X16.400 Y8.697 Z13.314 F2500.000
G1 X16.800 Y8.697 Z13.125 F2500.000
G1 X17.400 Y8.697 Z12.830 F2500.000
G1 X18.000 Y8.697 Z12.522 F2500.000
G1 X18.600 Y8.697 Z12.197 F2500.000
G1 X19.200 Y8.697 Z11.856 F2500.000
G1 X19.600 Y8.697 Z11.620 F2500.000
G1 X20.200 Y8.697 Z11.253 F2500.000
G1 X20.600 Y8.697 Z10.998 F2500.000
G1 X21.200 Y8.697 Z10.603 F2500.000
G1 X21.367 Y8.730 Z10.490 F2500.000
G1 X20.678 Y53.525 Z10.335 F2500.000
G1 X19.974 Y99.319 Z10.172 F2500.000
G1 X17.935 Y231.833 Z9.684 F2500.000
(Break)
G1 X17.935 Y231.833 Z16.800 F1000.000
(part 49.)
G0 Z19.770
G0 Z21.770
G0 X18.822 Y232.732
G0 Z19.770
G1 Z16.800 F1000.000
G1 X18.822 Y232.732 Z9.125 F1000.000
G1 X17.832 Y232.732 Z9.734 F2500.000
G1 X16.843 Y232.732 Z10.303 F2500.000
G1 X15.853 Y232.732 Z10.832 F2500.000
G1 X14.864 Y232.732 Z11.325 F2500.000
G1 X13.874 Y232.732 Z11.783 F2500.000
G1 X12.885 Y232.732 Z12.207 F2500.000
G1 X11.895 Y232.732 Z12.599 F2500.000
G1 X10.906 Y232.732 Z12.957 F2500.000
G1 X9.916 Y232.732 Z13.285 F2500.000
G1 X8.927 Y232.732 Z13.581 F2500.000
G1 X7.937 Y232.732 Z13.847 F2500.000
G1 X6.948 Y232.732 Z14.082 F2500.000
G1 X5.958 Y232.732 Z14.287 F2500.000
G1 X4.969 Y232.732 Z14.461 F2500.000
G1 X3.979 Y232.732 Z14.604 F2500.000
G1 X2.990 Y232.732 Z14.717 F2500.000
G1 X2.000 Y232.732 Z14.798 F2500.000
G1 X1.011 Y232.732 Z14.847 F2500.000
G1 X0.022 Y232.732 Z14.865 F2500.000
G1 X-0.968 Y232.732 Z14.848 F2500.000
G1 X-1.957 Y232.732 Z14.800 F2500.000
G1 X-2.947 Y232.732 Z14.719 F2500.000
G1 X-3.936 Y232.732 Z14.611 F2500.000
G1 X-4.926 Y232.732 Z14.468 F2500.000
G1 X-5.915 Y232.732 Z14.295 F2500.000
G1 X-6.905 Y232.732 Z14.092 F2500.000
G1 X-7.894 Y232.732 Z13.859 F2500.000
G1 X-8.884 Y232.732 Z13.594 F2500.000
G1 X-9.873 Y232.732 Z13.299 F2500.000
G1 X-10.863 Y232.732 Z12.973 F2500.000
G1 X-11.852 Y232.732 Z12.614 F2500.000
G1 X-12.842 Y232.732 Z12.224 F2500.000
G1 X-13.831 Y232.732 Z11.803 F2500.000
G1 X-14.821 Y232.732 Z11.346 F2500.000
G1 X-15.810 Y232.732 Z10.854 F2500.000
G1 X-16.800 Y232.732 Z10.326 F2500.000
G1 X-17.789 Y232.732 Z9.760 F2500.000
G1 X-18.778 Y232.732 Z9.153 F2500.000
G1 X-18.824 Y232.576 Z9.125 F2500.000
G1 X-19.861 Y165.184 Z9.355 F2500.000
G1 X-20.702 Y110.457 Z9.537 F2500.000
G1 X-21.568 Y54.197 Z9.716 F2500.000
G1 X-22.282 Y7.802 Z9.856 F2500.000
G1 X-22.086 Y7.798 Z9.997 F2500.000
G1 X-21.486 Y7.798 Z10.420 F2500.000
G1 X-20.886 Y7.798 Z10.825 F2500.000
G1 X-20.086 Y7.798 Z11.337 F2500.000
G1 X-19.286 Y7.798 Z11.818 F2500.000
G1 X-18.486 Y7.798 Z12.272 F2500.000
G1 X-17.620 Y7.798 Z12.731 F2500.000
G1 X-16.753 Y7.798 Z13.159 F2500.000
G1 X-15.886 Y7.798 Z13.558 F2500.000
G1 X-15.086 Y7.798 Z13.901 F2500.000
G1 X-14.286 Y7.798 Z14.221 F2500.000
G1 X-13.486 Y7.798 Z14.518 F2500.000
G1 X-12.686 Y7.798 Z14.793 F2500.000
G1 X-11.886 Y7.798 Z15.047 F2500.000
G1 X-11.086 Y7.798 Z15.281 F2500.000
G1 X-10.220 Y7.798 Z15.514 F2500.000
G1 X-9.353 Y7.798 Z15.722 F2500.000
G1 X-8.486 Y7.798 Z15.910 F2500.000
G1 X-7.686 Y7.798 Z16.065 F2500.000
G1 X-6.886 Y7.798 Z16.202 F2500.000
G1 X-6.086 Y7.798 Z16.322 F2500.000
G1 X-5.286 Y7.798 Z16.427 F2500.000
G1 X-4.486 Y7.798 Z16.514 F2500.000
G1 X-3.686 Y7.798 Z16.587 F2500.000
G1 X-2.820 Y7.798 Z16.649 F2500.000
G1 X-1.953 Y7.798 Z16.694 F2500.000
G1 X-1.086 Y7.798 Z16.723 F2500.000
G1 X-0.286 Y7.798 Z16.733 F2500.000
G1 X0.514 Y7.798 Z16.732 F2500.000
G1 X1.314 Y7.798 Z16.716 F2500.000
G1 X2.114 Y7.798 Z16.687 F2500.000
G1 X2.914 Y7.798 Z16.644 F2500.000
G1 X3.714 Y7.798 Z16.585 F2500.000
G1 X4.580 Y7.798 Z16.505 F2500.000
G1 X5.447 Y7.798 Z16.407 F2500.000
G1 X6.314 Y7.798 Z16.290 F2500.000
G1 X7.114 Y7.798 Z16.164 F2500.000
G1 X7.914 Y7.798 Z16.022 F2500.000
G1 X8.714 Y7.798 Z15.863 F2500.000
G1 X9.514 Y7.798 Z15.685 F2500.000
G1 X10.314 Y7.798 Z15.489 F2500.000
G1 X11.114 Y7.798 Z15.274 F2500.000
G1 X11.980 Y7.798 Z15.019 F2500.000
G1 X12.847 Y7.798 Z14.740 F2500.000
G1 X13.714 Y7.798 Z14.435 F2500.000
G1 X14.514 Y7.798 Z14.132 F2500.000
G1 X15.314 Y7.798 Z13.806 F2500.000
G1 X16.114 Y7.798 Z13.456 F2500.000
G1 X16.914 Y7.798 Z13.082 F2500.000
G1 X17.714 Y7.798 Z12.683 F2500.000
G1 X18.514 Y7.798 Z12.256 F2500.000
G1 X19.380 Y7.798 Z11.763 F2500.000
G1 X20.247 Y7.798 Z11.237 F2500.000
G1 X21.114 Y7.798 Z10.672 F2500.000
G1 X21.614 Y7.798 Z10.332 F2500.000
G1 X22.114 Y7.798 Z9.978 F2500.000
G1 X22.281 Y7.830 Z9.856 F2500.000
G1 X21.567 Y54.224 Z9.716 F2500.000
G1 X20.703 Y110.417 Z9.537 F2500.000
G1 X18.822 Y232.732 Z9.125 F2500.000
(Break)
G1 X18.822 Y232.732 Z16.800 F1000.000
(part 51.)
G0 Z19.770
G0 Z21.770
G0 X19.708 Y233.632
G0 Z19.770
G1 Z16.800 F1000.000
G1 X19.708 Y233.632 Z8.530 F1000.000
G1 X18.723 Y233.632 Z9.176 F2500.000
G1 X17.738 Y233.632 Z9.778 F2500.000
G1 X16.753 Y233.632 Z10.341 F2500.000
G1 X15.768 Y233.632 Z10.864 F2500.000
G1 X14.783 Y233.632 Z11.352 F2500.000
G1 X13.798 Y233.632 Z11.807 F2500.000
G1 X12.813 Y233.632 Z12.226 F2500.000
G1 X11.828 Y233.632 Z12.615 F2500.000
G1 X10.843 Y233.632 Z12.969 F2500.000
G1 X9.858 Y233.632 Z13.295 F2500.000
G1 X8.873 Y233.632 Z13.587 F2500.000
G1 X7.888 Y233.632 Z13.852 F2500.000
G1 X6.903 Y233.632 Z14.083 F2500.000
G1 X5.918 Y233.632 Z14.287 F2500.000
G1 X4.933 Y233.632 Z14.458 F2500.000
G1 X3.948 Y233.632 Z14.601 F2500.000
G1 X2.963 Y233.632 Z14.712 F2500.000
G1 X1.978 Y233.632 Z14.791 F2500.000
G1 X0.993 Y233.632 Z14.841 F2500.000
G1 X0.008 Y233.632 Z14.857 F2500.000
G1 X-0.977 Y233.632 Z14.841 F2500.000
G1 X-1.962 Y233.632 Z14.792 F2500.000
G1 X-2.947 Y233.632 Z14.713 F2500.000
G1 X-3.932 Y233.632 Z14.602 F2500.000
G1 X-4.917 Y233.632 Z14.462 F2500.000
G1 X-5.902 Y233.632 Z14.290 F2500.000
G1 X-6.887 Y233.632 Z14.087 F2500.000
G1 X-7.872 Y233.632 Z13.855 F2500.000
G1 X-8.857 Y233.632 Z13.593 F2500.000
G1 X-9.842 Y233.632 Z13.299 F2500.000
G1 X-10.827 Y233.632 Z12.975 F2500.000
G1 X-11.812 Y233.632 Z12.621 F2500.000
G1 X-12.797 Y233.632 Z12.234 F2500.000
G1 X-13.782 Y233.632 Z11.814 F2500.000
G1 X-14.767 Y233.632 Z11.360 F2500.000
G1 X-15.752 Y233.632 Z10.873 F2500.000
G1 X-16.737 Y233.632 Z10.350 F2500.000
G1 X-17.722 Y233.632 Z9.788 F2500.000
G1 X-18.707 Y233.632 Z9.185 F2500.000
G1 X-19.692 Y233.632 Z8.541 F2500.000
G1 X-19.711 Y233.448 Z8.531 F2500.000
G1 X-19.720 Y232.848 Z8.532 F2500.000
G1 X-20.652 Y172.255 Z8.719 F2500.000
G1 X-21.584 Y111.663 Z8.898 F2500.000
G1 X-22.451 Y55.269 Z9.054 F2500.000
G1 X-23.184 Y7.675 Z9.176 F2500.000
G1 X-23.193 Y7.075 Z9.178 F2500.000
G1 X-23.173 Y6.897 Z9.197 F2500.000
G1 X-22.273 Y6.897 Z9.875 F2500.000
G1 X-21.373 Y6.897 Z10.510 F2500.000
G1 X-20.573 Y6.897 Z11.040 F2500.000
G1 X-19.773 Y6.897 Z11.540 F2500.000
G1 X-18.973 Y6.897 Z12.010 F2500.000
G1 X-18.173 Y6.897 Z12.452 F2500.000
G1 X-17.373 Y6.897 Z12.866 F2500.000
G1 X-16.573 Y6.897 Z13.256 F2500.000
G1 X-15.773 Y6.897 Z13.619 F2500.000
G1 X-14.973 Y6.897 Z13.958 F2500.000
G1 X-14.173 Y6.897 Z14.274 F2500.000
G1 X-13.373 Y6.897 Z14.569 F2500.000
G1 X-12.573 Y6.897 Z14.840 F2500.000
G1 X-11.773 Y6.897 Z15.091 F2500.000
G1 X-10.973 Y6.897 Z15.323 F2500.000
G1 X-10.173 Y6.897 Z15.535 F2500.000
G1 X-9.373 Y6.897 Z15.726 F2500.000
G1 X-8.573 Y6.897 Z15.900 F2500.000
G1 X-7.773 Y6.897 Z16.057 F2500.000
G1 X-6.973 Y6.897 Z16.196 F2500.000
G1 X-6.173 Y6.897 Z16.318 F2500.000
G1 X-5.373 Y6.897 Z16.424 F2500.000
G1 X-4.573 Y6.897 Z16.514 F2500.000
G1 X-3.773 Y6.897 Z16.588 F2500.000
G1 X-2.973 Y6.897 Z16.647 F2500.000
G1 X-2.173 Y6.897 Z16.692 F2500.000
G1 X-1.373 Y6.897 Z16.722 F2500.000
G1 X-0.573 Y6.897 Z16.738 F2500.000
G1 X0.227 Y6.897 Z16.741 F2500.000
G1 X1.027 Y6.897 Z16.731 F2500.000
G1 X1.827 Y6.897 Z16.707 F2500.000
G1 X2.627 Y6.897 Z16.668 F2500.000
G1 X3.427 Y6.897 Z16.616 F2500.000
G1 X4.227 Y6.897 Z16.547 F2500.000
G1 X5.027 Y6.897 Z16.464 F2500.000
G1 X5.827 Y6.897 Z16.366 F2500.000
G1 X6.627 Y6.897 Z16.250 F2500.000
G1 X7.427 Y6.897 Z16.119 F2500.000
G1 X8.227 Y6.897 Z15.971 F2500.000
G1 X9.027 Y6.897 Z15.804 F2500.000
G1 X9.827 Y6.897 Z15.619 F2500.000
G1 X10.627 Y6.897 Z15.416 F2500.000
G1 X11.427 Y6.897 Z15.195 F2500.000
G1 X12.227 Y6.897 Z14.951 F2500.000
G1 X13.027 Y6.897 Z14.688 F2500.000
G1 X13.827 Y6.897 Z14.404 F2500.000
G1 X14.627 Y6.897 Z14.098 F2500.000
G1 X15.427 Y6.897 Z13.768 F2500.000
G1 X16.227 Y6.897 Z13.415 F2500.000
G1 X17.027 Y6.897 Z13.038 F2500.000
G1 X17.827 Y6.897 Z12.634 F2500.000
G1 X18.627 Y6.897 Z12.205 F2500.000
G1 X19.427 Y6.897 Z11.747 F2500.000
G1 X20.227 Y6.897 Z11.260 F2500.000
G1 X21.027 Y6.897 Z10.743 F2500.000
G1 X21.827 Y6.897 Z10.196 F2500.000
G1 X22.427 Y6.897 Z9.762 F2500.000
G1 X23.027 Y6.897 Z9.310 F2500.000
G1 X23.195 Y6.929 Z9.179 F2500.000
G1 X22.349 Y61.922 Z9.036 F2500.000
G1 X21.522 Y115.716 Z8.886 F2500.000
G1 X20.596 Y175.909 Z8.708 F2500.000
G1 X19.708 Y233.632 Z8.530 F2500.000
(Break)
G1 X19.708 Y233.632 Z16.800 F1000.000
(part 53.)
G0 Z19.770
G0 Z21.770
G0 X20.594 Y234.532
G0 Z19.770
G1 Z16.800 F1000.000
G1 X20.594 Y234.532 Z7.897 F1000.000
G1 X19.594 Y234.532 Z8.595 F2500.000
G1 X18.594 Y234.532 Z9.244 F2500.000
G1 X17.594 Y234.532 Z9.851 F2500.000
G1 X16.594 Y234.532 Z10.415 F2500.000
G1 X15.594 Y234.532 Z10.943 F2500.000
G1 X14.594 Y234.532 Z11.432 F2500.000
G1 X13.594 Y234.532 Z11.885 F2500.000
G1 X12.594 Y234.532 Z12.305 F2500.000
G1 X11.594 Y234.532 Z12.691 F2500.000
G1 X10.594 Y234.532 Z13.046 F2500.000
G1 X9.594 Y234.532 Z13.367 F2500.000
G1 X8.594 Y234.532 Z13.657 F2500.000
G1 X7.594 Y234.532 Z13.914 F2500.000
G1 X6.594 Y234.532 Z14.143 F2500.000
G1 X5.594 Y234.532 Z14.338 F2500.000
G1 X4.594 Y234.532 Z14.504 F2500.000
G1 X3.594 Y234.532 Z14.636 F2500.000
G1 X2.594 Y234.532 Z14.738 F2500.000
G1 X1.594 Y234.532 Z14.806 F2500.000
G1 X0.594 Y234.532 Z14.844 F2500.000
G1 X-0.406 Y234.532 Z14.846 F2500.000
G1 X-1.406 Y234.532 Z14.815 F2500.000
G1 X-2.406 Y234.532 Z14.752 F2500.000
G1 X-3.406 Y234.532 Z14.658 F2500.000
G1 X-4.406 Y234.532 Z14.530 F2500.000
G1 X-5.406 Y234.532 Z14.371 F2500.000
G1 X-6.406 Y234.532 Z14.181 F2500.000
G1 X-7.406 Y234.532 Z13.961 F2500.000
G1 X-8.406 Y234.532 Z13.707 F2500.000
G1 X-9.406 Y234.532 Z13.424 F2500.000
G1 X-10.406 Y234.532 Z13.109 F2500.000
G1 X-11.406 Y234.532 Z12.761 F2500.000
G1 X-12.406 Y234.532 Z12.380 F2500.000
G1 X-13.406 Y234.532 Z11.968 F2500.000
G1 X-14.406 Y234.532 Z11.521 F2500.000
G1 X-15.406 Y234.532 Z11.037 F2500.000
G1 X-16.406 Y234.532 Z10.517 F2500.000
G1 X-17.406 Y234.532 Z9.961 F2500.000
G1 X-18.406 Y234.532 Z9.362 F2500.000
G1 X-19.406 Y234.532 Z8.721 F2500.000
G1 X-20.406 Y234.532 Z8.032 F2500.000
G1 X-20.594 Y234.521 Z7.897 F2500.000
G1 X-21.492 Y176.128 Z8.055 F2500.000
G1 X-22.449 Y113.935 Z8.213 F2500.000
G1 X-23.314 Y57.742 Z8.345 F2500.000
G1 X-24.107 Y6.148 Z8.454 F2500.000
G1 X-24.060 Y5.997 Z8.496 F2500.000
G1 X-23.260 Y5.997 Z9.141 F2500.000
G1 X-22.660 Y5.997 Z9.602 F2500.000
G1 X-22.060 Y5.997 Z10.042 F2500.000
G1 X-21.460 Y5.997 Z10.463 F2500.000
G1 X-20.860 Y5.997 Z10.866 F2500.000
G1 X-20.060 Y5.997 Z11.377 F2500.000
G1 X-19.460 Y5.997 Z11.740 F2500.000
G1 X-18.860 Y5.997 Z12.086 F2500.000
G1 X-18.260 Y5.997 Z12.417 F2500.000
G1 X-17.660 Y5.997 Z12.733 F2500.000
G1 X-17.060 Y5.997 Z13.034 F2500.000
G1 X-16.460 Y5.997 Z13.320 F2500.000
G1 X-15.860 Y5.997 Z13.592 F2500.000
G1 X-15.260 Y5.997 Z13.851 F2500.000
G1 X-14.660 Y5.997 Z14.096 F2500.000
G1 X-14.060 Y5.997 Z14.329 F2500.000
G1 X-13.460 Y5.997 Z14.548 F2500.000
G1 X-12.860 Y5.997 Z14.756 F2500.000
G1 X-12.260 Y5.997 Z14.952 F2500.000
G1 X-11.660 Y5.997 Z15.136 F2500.000
G1 X-11.060 Y5.997 Z15.308 F2500.000
G1 X-10.460 Y5.997 Z15.469 F2500.000
G1 X-9.860 Y5.997 Z15.621 F2500.000
G1 X-9.260 Y5.997 Z15.762 F2500.000
G1 X-8.660 Y5.997 Z15.891 F2500.000
G1 X-8.060 Y5.997 Z16.012 F2500.000
G1 X-7.460 Y5.997 Z16.122 F2500.000
G1 X-6.860 Y5.997 Z16.222 F2500.000
G1 X-6.260 Y5.997 Z16.314 F2500.000
G1 X-5.660 Y5.997 Z16.396 F2500.000
G1 X-5.060 Y5.997 Z16.469 F2500.000
G1 X-4.460 Y5.997 Z16.533 F2500.000
G1 X-3.860 Y5.997 Z16.588 F2500.000
G1 X-3.260 Y5.997 Z16.636 F2500.000
G1 X-2.660 Y5.997 Z16.674 F2500.000
G1 X-2.060 Y5.997 Z16.705 F2500.000
G1 X-1.460 Y5.997 Z16.726 F2500.000
G1 X-0.860 Y5.997 Z16.742 F2500.000
G1 X-0.260 Y5.997 Z16.748 F2500.000
G1 X0.340 Y5.997 Z16.749 F2500.000
G1 X0.940 Y5.997 Z16.740 F2500.000
G1 X1.540 Y5.997 Z16.725 F2500.000
G1 X2.140 Y5.997 Z16.701 F2500.000
G1 X2.740 Y5.997 Z16.668 F2500.000
G1 X3.340 Y5.997 Z16.630 F2500.000
G1 X3.940 Y5.997 Z16.581 F2500.000
G1 X4.540 Y5.997 Z16.524 F2500.000
G1 X5.140 Y5.997 Z16.459 F2500.000
G1 X5.740 Y5.997 Z16.385 F2500.000
G1 X6.340 Y5.997 Z16.303 F2500.000
G1 X6.940 Y5.997 Z16.210 F2500.000
G1 X7.540 Y5.997 Z16.108 F2500.000
G1 X8.140 Y5.997 Z15.997 F2500.000
G1 X8.740 Y5.997 Z15.875 F2500.000
G1 X9.340 Y5.997 Z15.742 F2500.000
G1 X9.940 Y5.997 Z15.602 F2500.000
G1 X10.540 Y5.997 Z15.448 F2500.000
G1 X11.140 Y5.997 Z15.285 F2500.000
G1 X11.740 Y5.997 Z15.111 F2500.000
G1 X12.340 Y5.997 Z14.925 F2500.000
G1 X12.940 Y5.997 Z14.728 F2500.000
G1 X13.540 Y5.997 Z14.518 F2500.000
G1 X14.140 Y5.997 Z14.298 F2500.000
G1 X14.940 Y5.997 Z13.982 F2500.000
G1 X15.540 Y5.997 Z13.730 F2500.000
G1 X16.140 Y5.997 Z13.465 F2500.000
G1 X16.740 Y5.997 Z13.187 F2500.000
G1 X17.340 Y5.997 Z12.894 F2500.000
G1 X17.940 Y5.997 Z12.587 F2500.000
G1 X18.540 Y5.997 Z12.264 F2500.000
G1 X19.140 Y5.997 Z11.927 F2500.000
G1 X19.740 Y5.997 Z11.571 F2500.000
G1 X20.340 Y5.997 Z11.201 F2500.000
G1 X20.940 Y5.997 Z10.813 F2500.000
G1 X21.540 Y5.997 Z10.408 F2500.000
G1 X22.140 Y5.997 Z9.984 F2500.000
G1 X22.740 Y5.997 Z9.541 F2500.000
G1 X23.340 Y5.997 Z9.078 F2500.000
G1 X23.940 Y5.997 Z8.595 F2500.000
G1 X24.109 Y6.028 Z8.454 F2500.000
G1 X23.337 Y56.222 Z8.348 F2500.000
G1 X22.454 Y113.616 Z8.214 F2500.000
G1 X21.494 Y176.008 Z8.056 F2500.000
G1 X20.594 Y234.532 Z7.897 F2500.000
(Break)
G1 X20.594 Y234.532 Z16.800 F1000.000
(part 55.)
G0 Z19.770
G0 Z21.770
G0 X21.480 Y235.433
G0 Z19.770
G1 Z16.800 F1000.000
G1 X21.480 Y235.433 Z7.222 F1000.000
G1 X20.485 Y235.433 Z7.963 F2500.000
G1 X19.490 Y235.433 Z8.653 F2500.000
G1 X18.494 Y235.433 Z9.296 F2500.000
G1 X17.499 Y235.433 Z9.896 F2500.000
G1 X16.504 Y235.433 Z10.454 F2500.000
G1 X15.508 Y235.433 Z10.975 F2500.000
G1 X14.513 Y235.433 Z11.459 F2500.000
G1 X13.518 Y235.433 Z11.908 F2500.000
G1 X12.522 Y235.433 Z12.324 F2500.000
G1 X11.527 Y235.433 Z12.707 F2500.000
G1 X10.531 Y235.433 Z13.058 F2500.000
G1 X9.536 Y235.433 Z13.375 F2500.000
G1 X8.541 Y235.433 Z13.663 F2500.000
G1 X7.545 Y235.433 Z13.919 F2500.000
G1 X6.550 Y235.433 Z14.144 F2500.000
G1 X5.555 Y235.433 Z14.337 F2500.000
G1 X4.559 Y235.433 Z14.501 F2500.000
G1 X3.564 Y235.433 Z14.631 F2500.000
G1 X2.569 Y235.433 Z14.733 F2500.000
G1 X1.573 Y235.433 Z14.801 F2500.000
G1 X0.578 Y235.433 Z14.836 F2500.000
G1 X-0.417 Y235.433 Z14.839 F2500.000
G1 X-1.413 Y235.433 Z14.809 F2500.000
G1 X-2.408 Y235.433 Z14.746 F2500.000
G1 X-3.403 Y235.433 Z14.651 F2500.000
G1 X-4.399 Y235.433 Z14.524 F2500.000
G1 X-5.394 Y235.433 Z14.366 F2500.000
G1 X-6.389 Y235.433 Z14.177 F2500.000
G1 X-7.385 Y235.433 Z13.957 F2500.000
G1 X-8.380 Y235.433 Z13.705 F2500.000
G1 X-9.376 Y235.433 Z13.424 F2500.000
G1 X-10.371 Y235.433 Z13.110 F2500.000
G1 X-11.366 Y235.433 Z12.766 F2500.000
G1 X-12.362 Y235.433 Z12.389 F2500.000
G1 X-13.357 Y235.433 Z11.978 F2500.000
G1 X-14.352 Y235.433 Z11.535 F2500.000
G1 X-15.348 Y235.433 Z11.056 F2500.000
G1 X-16.343 Y235.433 Z10.541 F2500.000
G1 X-17.338 Y235.433 Z9.989 F2500.000
G1 X-18.334 Y235.433 Z9.395 F2500.000
G1 X-19.329 Y235.433 Z8.759 F2500.000
G1 X-20.324 Y235.433 Z8.078 F2500.000
G1 X-21.320 Y235.433 Z7.345 F2500.000
G1 X-21.481 Y235.393 Z7.223 F2500.000
G1 X-22.376 Y177.200 Z7.357 F2500.000
G1 X-23.259 Y119.807 Z7.478 F2500.000
G1 X-24.139 Y62.614 Z7.586 F2500.000
G1 X-25.019 Y5.420 Z7.680 F2500.000
G1 X-25.022 Y5.220 Z7.681 F2500.000
G1 X-24.946 Y5.098 Z7.750 F2500.000
G1 X-24.346 Y5.098 Z8.269 F2500.000
G1 X-23.746 Y5.098 Z8.766 F2500.000
G1 X-22.946 Y5.098 Z9.398 F2500.000
G1 X-22.346 Y5.098 Z9.846 F2500.000
G1 X-21.746 Y5.098 Z10.277 F2500.000
G1 X-21.146 Y5.098 Z10.689 F2500.000
G1 X-20.546 Y5.098 Z11.081 F2500.000
G1 X-19.946 Y5.098 Z11.458 F2500.000
G1 X-19.346 Y5.098 Z11.818 F2500.000
G1 X-18.546 Y5.098 Z12.273 F2500.000
G1 X-17.946 Y5.098 Z12.596 F2500.000
G1 X-17.346 Y5.098 Z12.903 F2500.000
G1 X-16.746 Y5.098 Z13.197 F2500.000
G1 X-16.146 Y5.098 Z13.475 F2500.000
G1 X-15.546 Y5.098 Z13.739 F2500.000
G1 X-14.946 Y5.098 Z13.991 F2500.000
G1 X-14.346 Y5.098 Z14.229 F2500.000
G1 X-13.546 Y5.098 Z14.527 F2500.000
G1 X-12.946 Y5.098 Z14.737 F2500.000
G1 X-12.346 Y5.098 Z14.934 F2500.000
G1 X-11.746 Y5.098 Z15.119 F2500.000
G1 X-11.146 Y5.098 Z15.294 F2500.000
G1 X-10.546 Y5.098 Z15.456 F2500.000
G1 X-9.946 Y5.098 Z15.609 F2500.000
G1 X-9.146 Y5.098 Z15.796 F2500.000
G1 X-8.546 Y5.098 Z15.924 F2500.000
G1 X-7.946 Y5.098 Z16.043 F2500.000
G1 X-7.346 Y5.098 Z16.151 F2500.000
G1 X-6.746 Y5.098 Z16.249 F2500.000
G1 X-6.146 Y5.098 Z16.339 F2500.000
G1 X-5.546 Y5.098 Z16.419 F2500.000
G1 X-4.746 Y5.098 Z16.511 F2500.000
G1 X-4.146 Y5.098 Z16.570 F2500.000
G1 X-3.546 Y5.098 Z16.622 F2500.000
G1 X-2.946 Y5.098 Z16.665 F2500.000
G1 X-2.346 Y5.098 Z16.698 F2500.000
G1 X-1.746 Y5.098 Z16.724 F2500.000
G1 X-1.146 Y5.098 Z16.744 F2500.000
G1 X-0.546 Y5.098 Z16.754 F2500.000
G1 X0.254 Y5.098 Z16.757 F2500.000
G1 X0.854 Y5.098 Z16.750 F2500.000
G1 X1.454 Y5.098 Z16.735 F2500.000
G1 X2.054 Y5.098 Z16.712 F2500.000
G1 X2.654 Y5.098 Z16.682 F2500.000
G1 X3.254 Y5.098 Z16.644 F2500.000
G1 X3.854 Y5.098 Z16.597 F2500.000
G1 X4.654 Y5.098 Z16.521 F2500.000
G1 X5.254 Y5.098 Z16.455 F2500.000
G1 X5.854 Y5.098 Z16.378 F2500.000
G1 X6.454 Y5.098 Z16.294 F2500.000
G1 X7.054 Y5.098 Z16.200 F2500.000
G1 X7.654 Y5.098 Z16.096 F2500.000
G1 X8.254 Y5.098 Z15.983 F2500.000
G1 X8.854 Y5.098 Z15.860 F2500.000
G1 X9.654 Y5.098 Z15.680 F2500.000
G1 X10.254 Y5.098 Z15.533 F2500.000
G1 X10.854 Y5.098 Z15.375 F2500.000
G1 X11.454 Y5.098 Z15.206 F2500.000
G1 X12.054 Y5.098 Z15.026 F2500.000
G1 X12.654 Y5.098 Z14.835 F2500.000
G1 X13.254 Y5.098 Z14.631 F2500.000
G1 X14.054 Y5.098 Z14.341 F2500.000
G1 X14.654 Y5.098 Z14.108 F2500.000
G1 X15.254 Y5.098 Z13.864 F2500.000
G1 X15.854 Y5.098 Z13.606 F2500.000
G1 X16.454 Y5.098 Z13.333 F2500.000
G1 X17.054 Y5.098 Z13.048 F2500.000
G1 X17.654 Y5.098 Z12.748 F2500.000
G1 X18.454 Y5.098 Z12.324 F2500.000
G1 X19.054 Y5.098 Z11.989 F2500.000
G1 X19.654 Y5.098 Z11.636 F2500.000
G1 X20.254 Y5.098 Z11.267 F2500.000
G1 X20.854 Y5.098 Z10.883 F2500.000
G1 X21.454 Y5.098 Z10.480 F2500.000
G1 X22.054 Y5.098 Z10.059 F2500.000
G1 X22.654 Y5.098 Z9.619 F2500.000
G1 X23.454 Y5.098 Z9.002 F2500.000
G1 X24.054 Y5.098 Z8.514 F2500.000
G1 X24.854 Y5.098 Z7.830 F2500.000
G1 X25.023 Y5.128 Z7.681 F2500.000
G1 X24.139 Y62.621 Z7.586 F2500.000
G1 X23.282 Y118.314 Z7.481 F2500.000
G1 X22.368 Y177.707 Z7.356 F2500.000
G1 X21.480 Y235.433 Z7.222 F2500.000
(Break)
G1 X21.480 Y235.433 Z16.800 F1000.000
(part 57.)
G0 Z19.770
G0 Z21.770
G0 X22.367 Y236.333
G0 Z19.770
G1 Z16.800 F1000.000
G1 X22.367 Y236.333 Z6.503 F1000.000
G1 X21.375 Y236.333 Z7.291 F2500.000
G1 X20.384 Y236.333 Z8.023 F2500.000
G1 X19.393 Y236.333 Z8.705 F2500.000
G1 X18.402 Y236.333 Z9.340 F2500.000
G1 X17.411 Y236.333 Z9.934 F2500.000
G1 X16.420 Y236.333 Z10.488 F2500.000
G1 X15.429 Y236.333 Z11.005 F2500.000
G1 X14.438 Y236.333 Z11.485 F2500.000
G1 X13.447 Y236.333 Z11.929 F2500.000
G1 X12.455 Y236.333 Z12.342 F2500.000
G1 X11.464 Y236.333 Z12.720 F2500.000
G1 X10.473 Y236.333 Z13.067 F2500.000
G1 X9.482 Y236.333 Z13.383 F2500.000
G1 X8.491 Y236.333 Z13.667 F2500.000
G1 X7.500 Y236.333 Z13.920 F2500.000
G1 X6.509 Y236.333 Z14.143 F2500.000
G1 X5.518 Y236.333 Z14.336 F2500.000
G1 X4.527 Y236.333 Z14.497 F2500.000
G1 X3.535 Y236.333 Z14.628 F2500.000
G1 X2.544 Y236.333 Z14.727 F2500.000
G1 X1.553 Y236.333 Z14.794 F2500.000
G1 X0.562 Y236.333 Z14.829 F2500.000
G1 X-0.429 Y236.333 Z14.830 F2500.000
G1 X-1.420 Y236.333 Z14.801 F2500.000
G1 X-2.411 Y236.333 Z14.738 F2500.000
G1 X-3.402 Y236.333 Z14.641 F2500.000
G1 X-4.393 Y236.333 Z14.517 F2500.000
G1 X-5.385 Y236.333 Z14.360 F2500.000
G1 X-6.376 Y236.333 Z14.172 F2500.000
G1 X-7.367 Y236.333 Z13.952 F2500.000
G1 X-8.358 Y236.333 Z13.703 F2500.000
G1 X-9.349 Y236.333 Z13.423 F2500.000
G1 X-10.340 Y236.333 Z13.112 F2500.000
G1 X-11.331 Y236.333 Z12.769 F2500.000
G1 X-12.322 Y236.333 Z12.395 F2500.000
G1 X-13.313 Y236.333 Z11.986 F2500.000
G1 X-14.305 Y236.333 Z11.547 F2500.000
G1 X-15.296 Y236.333 Z11.071 F2500.000
G1 X-16.287 Y236.333 Z10.560 F2500.000
G1 X-17.278 Y236.333 Z10.011 F2500.000
G1 X-18.269 Y236.333 Z9.422 F2500.000
G1 X-19.260 Y236.333 Z8.792 F2500.000
G1 X-20.251 Y236.333 Z8.117 F2500.000
G1 X-21.242 Y236.333 Z7.392 F2500.000
G1 X-22.233 Y236.333 Z6.613 F2500.000
G1 X-22.368 Y236.266 Z6.503 F2500.000
G1 X-23.278 Y177.073 Z6.613 F2500.000
G1 X-24.152 Y120.279 Z6.705 F2500.000
G1 X-25.121 Y57.287 Z6.793 F2500.000
G1 X-25.927 Y4.893 Z6.853 F2500.000
G1 X-25.936 Y4.293 Z6.855 F2500.000
G1 X-25.833 Y4.197 Z6.952 F2500.000
G1 X-24.886 Y4.197 Z7.815 F2500.000
G1 X-23.940 Y4.197 Z8.622 F2500.000
G1 X-22.993 Y4.197 Z9.375 F2500.000
G1 X-22.046 Y4.197 Z10.078 F2500.000
G1 X-21.100 Y4.197 Z10.732 F2500.000
G1 X-20.153 Y4.197 Z11.343 F2500.000
G1 X-19.206 Y4.197 Z11.912 F2500.000
G1 X-18.260 Y4.197 Z12.441 F2500.000
G1 X-17.313 Y4.197 Z12.930 F2500.000
G1 X-16.366 Y4.197 Z13.385 F2500.000
G1 X-15.420 Y4.197 Z13.804 F2500.000
G1 X-14.473 Y4.197 Z14.191 F2500.000
G1 X-13.526 Y4.197 Z14.545 F2500.000
G1 X-12.580 Y4.197 Z14.868 F2500.000
G1 X-11.633 Y4.197 Z15.163 F2500.000
G1 X-10.671 Y4.197 Z15.433 F2500.000
G1 X-9.709 Y4.197 Z15.676 F2500.000
G1 X-8.747 Y4.197 Z15.891 F2500.000
G1 X-7.785 Y4.197 Z16.081 F2500.000
G1 X-6.824 Y4.197 Z16.245 F2500.000
G1 X-5.862 Y4.197 Z16.386 F2500.000
G1 X-4.900 Y4.197 Z16.502 F2500.000
G1 X-3.938 Y4.197 Z16.597 F2500.000
G1 X-2.976 Y4.197 Z16.671 F2500.000
G1 X-2.014 Y4.197 Z16.722 F2500.000
G1 X-1.052 Y4.197 Z16.754 F2500.000
G1 X-0.090 Y4.197 Z16.765 F2500.000
G1 X0.872 Y4.197 Z16.756 F2500.000
G1 X1.834 Y4.197 Z16.730 F2500.000
G1 X2.796 Y4.197 Z16.682 F2500.000
G1 X3.757 Y4.197 Z16.613 F2500.000
G1 X4.719 Y4.197 Z16.522 F2500.000
G1 X5.681 Y4.197 Z16.410 F2500.000
G1 X6.643 Y4.197 Z16.273 F2500.000
G1 X7.605 Y4.197 Z16.114 F2500.000
G1 X8.567 Y4.197 Z15.929 F2500.000
G1 X9.523 Y4.197 Z15.720 F2500.000
G1 X10.478 Y4.197 Z15.484 F2500.000
G1 X11.434 Y4.197 Z15.222 F2500.000
G1 X12.389 Y4.197 Z14.930 F2500.000
G1 X13.345 Y4.197 Z14.610 F2500.000
G1 X14.300 Y4.197 Z14.257 F2500.000
G1 X15.256 Y4.197 Z13.873 F2500.000
G1 X16.211 Y4.197 Z13.455 F2500.000
G1 X17.167 Y4.197 Z13.002 F2500.000
G1 X18.123 Y4.197 Z12.515 F2500.000
G1 X19.078 Y4.197 Z11.986 F2500.000
G1 X20.034 Y4.197 Z11.417 F2500.000
G1 X20.989 Y4.197 Z10.806 F2500.000
G1 X21.945 Y4.197 Z10.150 F2500.000
G1 X22.900 Y4.197 Z9.446 F2500.000
G1 X23.856 Y4.197 Z8.691 F2500.000
G1 X24.811 Y4.197 Z7.881 F2500.000
G1 X25.767 Y4.197 Z7.016 F2500.000
G1 X25.937 Y4.227 Z6.855 F2500.000
G1 X25.120 Y57.321 Z6.793 F2500.000
G1 X24.174 Y118.813 Z6.707 F2500.000
G1 X24.140 Y121.013 Z6.701 F2500.000
G1 X23.968 Y132.212 Z6.687 F2500.000
G1 X23.482 Y163.808 Z6.635 F2500.000
G1 X23.305 Y175.307 Z6.613 F2500.000
G1 X23.276 Y177.207 Z6.612 F2500.000
G1 X22.367 Y236.333 Z6.503 F2500.000
(Break)
G1 X22.367 Y236.333 Z16.800 F1000.000
(part 59.)
G0 Z19.770
G0 Z21.770
G0 X23.253 Y237.232
G0 Z19.770
G1 Z16.800 F1000.000
G1 X23.253 Y237.232 Z5.733 F1000.000
G1 X22.266 Y237.232 Z6.573 F2500.000
G1 X21.278 Y237.232 Z7.352 F2500.000
G1 X20.291 Y237.232 Z8.077 F2500.000
G1 X19.304 Y237.232 Z8.752 F2500.000
G1 X18.317 Y237.232 Z9.383 F2500.000
G1 X17.329 Y237.232 Z9.970 F2500.000
G1 X16.342 Y237.232 Z10.519 F2500.000
G1 X15.355 Y237.232 Z11.031 F2500.000
G1 X14.368 Y237.232 Z11.507 F2500.000
G1 X13.380 Y237.232 Z11.948 F2500.000
G1 X12.393 Y237.232 Z12.356 F2500.000
G1 X11.406 Y237.232 Z12.733 F2500.000
G1 X10.419 Y237.232 Z13.077 F2500.000
G1 X9.432 Y237.232 Z13.389 F2500.000
G1 X8.444 Y237.232 Z13.671 F2500.000
G1 X7.457 Y237.232 Z13.923 F2500.000
G1 X6.470 Y237.232 Z14.143 F2500.000
G1 X5.483 Y237.232 Z14.334 F2500.000
G1 X4.495 Y237.232 Z14.495 F2500.000
G1 X3.508 Y237.232 Z14.623 F2500.000
G1 X2.521 Y237.232 Z14.721 F2500.000
G1 X1.534 Y237.232 Z14.787 F2500.000
G1 X0.546 Y237.232 Z14.822 F2500.000
G1 X-0.441 Y237.232 Z14.824 F2500.000
G1 X-1.428 Y237.232 Z14.792 F2500.000
G1 X-2.415 Y237.232 Z14.730 F2500.000
G1 X-3.402 Y237.232 Z14.635 F2500.000
G1 X-4.390 Y237.232 Z14.510 F2500.000
G1 X-5.377 Y237.232 Z14.353 F2500.000
G1 X-6.364 Y237.232 Z14.166 F2500.000
G1 X-7.351 Y237.232 Z13.948 F2500.000
G1 X-8.339 Y237.232 Z13.700 F2500.000
G1 X-9.326 Y237.232 Z13.421 F2500.000
G1 X-10.313 Y237.232 Z13.111 F2500.000
G1 X-11.300 Y237.232 Z12.770 F2500.000
G1 X-12.288 Y237.232 Z12.397 F2500.000
G1 X-13.275 Y237.232 Z11.993 F2500.000
G1 X-14.262 Y237.232 Z11.556 F2500.000
G1 X-15.249 Y237.232 Z11.083 F2500.000
G1 X-16.237 Y237.232 Z10.575 F2500.000
G1 X-17.224 Y237.232 Z10.031 F2500.000
G1 X-18.211 Y237.232 Z9.448 F2500.000
G1 X-19.198 Y237.232 Z8.821 F2500.000
G1 X-20.185 Y237.232 Z8.151 F2500.000
G1 X-21.173 Y237.232 Z7.432 F2500.000
G1 X-22.160 Y237.232 Z6.660 F2500.000
G1 X-23.147 Y237.232 Z5.826 F2500.000
G1 X-23.254 Y237.138 Z5.733 F2500.000
G1 X-24.165 Y177.945 Z5.813 F2500.000
G1 X-25.032 Y121.552 Z5.877 F2500.000
G1 X-25.943 Y62.359 Z5.931 F2500.000
G1 X-26.850 Y3.366 Z5.972 F2500.000
G1 X-26.720 Y3.297 Z6.106 F2500.000
G1 X-25.820 Y3.297 Z6.978 F2500.000
G1 X-24.920 Y3.297 Z7.798 F2500.000
G1 X-24.020 Y3.297 Z8.569 F2500.000
G1 X-23.120 Y3.297 Z9.290 F2500.000
G1 X-22.320 Y3.297 Z9.892 F2500.000
G1 X-21.520 Y3.297 Z10.459 F2500.000
G1 X-20.620 Y3.297 Z11.060 F2500.000
G1 X-19.720 Y3.297 Z11.621 F2500.000
G1 X-18.920 Y3.297 Z12.089 F2500.000
G1 X-18.120 Y3.297 Z12.527 F2500.000
G1 X-17.220 Y3.297 Z12.988 F2500.000
G1 X-16.320 Y3.297 Z13.418 F2500.000
G1 X-15.520 Y3.297 Z13.772 F2500.000
G1 X-14.720 Y3.297 Z14.104 F2500.000
G1 X-13.820 Y3.297 Z14.448 F2500.000
G1 X-12.920 Y3.297 Z14.766 F2500.000
G1 X-12.120 Y3.297 Z15.024 F2500.000
G1 X-11.320 Y3.297 Z15.264 F2500.000
G1 X-10.520 Y3.297 Z15.483 F2500.000
G1 X-9.720 Y3.297 Z15.682 F2500.000
G1 X-8.820 Y3.297 Z15.885 F2500.000
G1 X-7.920 Y3.297 Z16.065 F2500.000
G1 X-7.120 Y3.297 Z16.206 F2500.000
G1 X-6.320 Y3.297 Z16.330 F2500.000
G1 X-5.420 Y3.297 Z16.451 F2500.000
G1 X-4.520 Y3.297 Z16.550 F2500.000
G1 X-3.720 Y3.297 Z16.624 F2500.000
G1 X-2.920 Y3.297 Z16.682 F2500.000
G1 X-2.020 Y3.297 Z16.730 F2500.000
G1 X-1.120 Y3.297 Z16.759 F2500.000
G1 X-0.320 Y3.297 Z16.771 F2500.000
G1 X0.480 Y3.297 Z16.770 F2500.000
G1 X1.380 Y3.297 Z16.753 F2500.000
G1 X2.280 Y3.297 Z16.717 F2500.000
G1 X3.080 Y3.297 Z16.671 F2500.000
G1 X3.880 Y3.297 Z16.610 F2500.000
G1 X4.780 Y3.297 Z16.524 F2500.000
G1 X5.680 Y3.297 Z16.418 F2500.000
G1 X6.480 Y3.297 Z16.306 F2500.000
G1 X7.280 Y3.297 Z16.179 F2500.000
G1 X8.080 Y3.297 Z16.034 F2500.000
G1 X8.880 Y3.297 Z15.873 F2500.000
G1 X9.780 Y3.297 Z15.668 F2500.000
G1 X10.680 Y3.297 Z15.440 F2500.000
G1 X11.480 Y3.297 Z15.218 F2500.000
G1 X12.280 Y3.297 Z14.974 F2500.000
G1 X13.180 Y3.297 Z14.676 F2500.000
G1 X14.080 Y3.297 Z14.352 F2500.000
G1 X14.880 Y3.297 Z14.040 F2500.000
G1 X15.680 Y3.297 Z13.704 F2500.000
G1 X16.580 Y3.297 Z13.297 F2500.000
G1 X17.480 Y3.297 Z12.858 F2500.000
G1 X18.280 Y3.297 Z12.442 F2500.000
G1 X19.080 Y3.297 Z11.997 F2500.000
G1 X19.980 Y3.297 Z11.463 F2500.000
G1 X20.880 Y3.297 Z10.890 F2500.000
G1 X21.680 Y3.297 Z10.349 F2500.000
G1 X22.480 Y3.297 Z9.774 F2500.000
G1 X23.380 Y3.297 Z9.086 F2500.000
G1 X24.280 Y3.297 Z8.352 F2500.000
G1 X25.080 Y3.297 Z7.658 F2500.000
G1 X25.880 Y3.297 Z6.923 F2500.000
G1 X26.680 Y3.297 Z6.145 F2500.000
G1 X26.851 Y3.326 Z5.973 F2500.000
G1 X25.950 Y61.919 Z5.931 F2500.000
G1 X25.005 Y123.312 Z5.875 F2500.000
G1 X24.165 Y177.906 Z5.813 F2500.000
G1 X23.253 Y237.232 Z5.733 F2500.000
(Break)
G1 X23.253 Y237.232 Z16.800 F1000.000
(part 61.)
G0 Z19.770
G0 Z21.770
G0 X24.139 Y238.132
G0 Z19.770
G1 Z16.800 F1000.000
G1 X24.139 Y238.132 Z4.905 F1000.000
G1 X23.155 Y238.132 Z5.803 F2500.000
G1 X22.172 Y238.132 Z6.636 F2500.000
G1 X21.188 Y238.132 Z7.406 F2500.000
G1 X20.204 Y238.132 Z8.125 F2500.000
G1 X19.221 Y238.132 Z8.795 F2500.000
G1 X18.237 Y238.132 Z9.420 F2500.000
G1 X17.253 Y238.132 Z10.003 F2500.000
G1 X16.270 Y238.132 Z10.547 F2500.000
G1 X15.286 Y238.132 Z11.053 F2500.000
G1 X14.302 Y238.132 Z11.527 F2500.000
G1 X13.319 Y238.132 Z11.964 F2500.000
G1 X12.335 Y238.132 Z12.370 F2500.000
G1 X11.351 Y238.132 Z12.742 F2500.000
G1 X10.368 Y238.132 Z13.084 F2500.000
G1 X9.384 Y238.132 Z13.395 F2500.000
G1 X8.400 Y238.132 Z13.674 F2500.000
G1 X7.417 Y238.132 Z13.923 F2500.000
G1 X6.433 Y238.132 Z14.144 F2500.000
G1 X5.449 Y238.132 Z14.332 F2500.000
G1 X4.466 Y238.132 Z14.490 F2500.000
G1 X3.482 Y238.132 Z14.619 F2500.000
G1 X2.498 Y238.132 Z14.716 F2500.000
G1 X1.515 Y238.132 Z14.781 F2500.000
G1 X0.531 Y238.132 Z14.815 F2500.000
G1 X-0.453 Y238.132 Z14.816 F2500.000
G1 X-1.436 Y238.132 Z14.785 F2500.000
G1 X-2.420 Y238.132 Z14.722 F2500.000
G1 X-3.404 Y238.132 Z14.628 F2500.000
G1 X-4.387 Y238.132 Z14.502 F2500.000
G1 X-5.371 Y238.132 Z14.346 F2500.000
G1 X-6.355 Y238.132 Z14.160 F2500.000
G1 X-7.338 Y238.132 Z13.941 F2500.000
G1 X-8.322 Y238.132 Z13.696 F2500.000
G1 X-9.306 Y238.132 Z13.418 F2500.000
G1 X-10.289 Y238.132 Z13.110 F2500.000
G1 X-11.273 Y238.132 Z12.771 F2500.000
G1 X-12.257 Y238.132 Z12.400 F2500.000
G1 X-13.240 Y238.132 Z11.998 F2500.000
G1 X-14.224 Y238.132 Z11.563 F2500.000
G1 X-15.208 Y238.132 Z11.092 F2500.000
G1 X-16.192 Y238.132 Z10.589 F2500.000
G1 X-17.175 Y238.132 Z10.048 F2500.000
G1 X-18.159 Y238.132 Z9.468 F2500.000
G1 X-19.143 Y238.132 Z8.846 F2500.000
G1 X-20.126 Y238.132 Z8.180 F2500.000
G1 X-21.110 Y238.132 Z7.466 F2500.000
G1 X-22.094 Y238.132 Z6.699 F2500.000
G1 X-23.077 Y238.132 Z5.871 F2500.000
G1 X-24.061 Y238.132 Z4.980 F2500.000
G1 X-24.141 Y238.011 Z4.905 F2500.000
G1 X-24.759 Y197.815 Z4.940 F2500.000
G1 X-24.913 Y187.817 Z4.948 F2500.000
G1 X-24.928 Y186.817 Z4.946 F2500.000
G1 X-24.978 Y183.617 Z4.951 F2500.000
G1 X-25.808 Y129.624 Z4.985 F2500.000
G1 X-25.968 Y119.225 Z4.991 F2500.000
G1 X-25.984 Y118.225 Z4.988 F2500.000
G1 X-26.005 Y116.825 Z4.992 F2500.000
G1 X-26.537 Y82.229 Z5.007 F2500.000
G1 X-26.830 Y63.231 Z5.015 F2500.000
G1 X-26.860 Y61.232 Z5.013 F2500.000
G1 X-26.885 Y59.632 Z5.016 F2500.000
G1 X-27.765 Y2.439 Z5.031 F2500.000
G1 X-27.606 Y2.397 Z5.202 F2500.000
G1 X-26.606 Y2.397 Z6.233 F2500.000
G1 X-26.006 Y2.397 Z6.818 F2500.000
G1 X-25.406 Y2.397 Z7.378 F2500.000
G1 X-24.406 Y2.397 Z8.256 F2500.000
G1 X-23.806 Y2.397 Z8.757 F2500.000
G1 X-23.206 Y2.397 Z9.235 F2500.000
G1 X-22.206 Y2.397 Z9.986 F2500.000
G1 X-21.606 Y2.397 Z10.411 F2500.000
G1 X-21.006 Y2.397 Z10.820 F2500.000
G1 X-20.406 Y2.397 Z11.209 F2500.000
G1 X-19.806 Y2.397 Z11.581 F2500.000
G1 X-18.806 Y2.397 Z12.164 F2500.000
G1 X-18.206 Y2.397 Z12.493 F2500.000
G1 X-17.606 Y2.397 Z12.807 F2500.000
G1 X-16.606 Y2.397 Z13.296 F2500.000
G1 X-16.006 Y2.397 Z13.571 F2500.000
G1 X-15.406 Y2.397 Z13.832 F2500.000
G1 X-14.406 Y2.397 Z14.238 F2500.000
G1 X-13.806 Y2.397 Z14.464 F2500.000
G1 X-13.206 Y2.397 Z14.678 F2500.000
G1 X-12.606 Y2.397 Z14.880 F2500.000
G1 X-12.006 Y2.397 Z15.071 F2500.000
G1 X-11.006 Y2.397 Z15.362 F2500.000
G1 X-10.406 Y2.397 Z15.522 F2500.000
G1 X-9.806 Y2.397 Z15.671 F2500.000
G1 X-8.806 Y2.397 Z15.896 F2500.000
G1 X-8.206 Y2.397 Z16.019 F2500.000
G1 X-7.606 Y2.397 Z16.131 F2500.000
G1 X-6.606 Y2.397 Z16.296 F2500.000
G1 X-6.006 Y2.397 Z16.383 F2500.000
G1 X-5.406 Y2.397 Z16.460 F2500.000
G1 X-4.806 Y2.397 Z16.529 F2500.000
G1 X-4.206 Y2.397 Z16.589 F2500.000
G1 X-3.206 Y2.397 Z16.671 F2500.000
G1 X-2.606 Y2.397 Z16.708 F2500.000
G1 X-2.006 Y2.397 Z16.738 F2500.000
G1 X-1.006 Y2.397 Z16.769 F2500.000
G1 X-0.406 Y2.397 Z16.778 F2500.000
G1 X0.194 Y2.397 Z16.779 F2500.000
G1 X1.194 Y2.397 Z16.765 F2500.000
G1 X1.794 Y2.397 Z16.746 F2500.000
G1 X2.394 Y2.397 Z16.719 F2500.000
G1 X2.994 Y2.397 Z16.685 F2500.000
G1 X3.594 Y2.397 Z16.642 F2500.000
G1 X4.594 Y2.397 Z16.552 F2500.000
G1 X5.194 Y2.397 Z16.486 F2500.000
G1 X5.794 Y2.397 Z16.412 F2500.000
G1 X6.794 Y2.397 Z16.267 F2500.000
G1 X7.394 Y2.397 Z16.168 F2500.000
G1 X7.994 Y2.397 Z16.059 F2500.000
G1 X8.994 Y2.397 Z15.856 F2500.000
G1 X9.594 Y2.397 Z15.722 F2500.000
G1 X10.194 Y2.397 Z15.576 F2500.000
G1 X10.794 Y2.397 Z15.420 F2500.000
G1 X11.394 Y2.397 Z15.253 F2500.000
G1 X12.394 Y2.397 Z14.949 F2500.000
G1 X12.994 Y2.397 Z14.751 F2500.000
G1 X13.594 Y2.397 Z14.541 F2500.000
G1 X14.094 Y2.397 Z14.358 F2500.000
G1 X14.594 Y2.397 Z14.164 F2500.000
G1 X15.194 Y2.397 Z13.922 F2500.000
G1 X15.794 Y2.397 Z13.665 F2500.000
G1 X16.794 Y2.397 Z13.207 F2500.000
G1 X17.394 Y2.397 Z12.914 F2500.000
G1 X17.994 Y2.397 Z12.606 F2500.000
G1 X18.594 Y2.397 Z12.282 F2500.000
G1 X19.194 Y2.397 Z11.944 F2500.000
G1 X20.194 Y2.397 Z11.342 F2500.000
G1 X20.794 Y2.397 Z10.960 F2500.000
G1 X21.394 Y2.397 Z10.558 F2500.000
G1 X22.394 Y2.397 Z9.850 F2500.000
G1 X22.994 Y2.397 Z9.400 F2500.000
G1 X23.594 Y2.397 Z8.929 F2500.000
G1 X24.594 Y2.397 Z8.098 F2500.000
G1 X25.194 Y2.397 Z7.570 F2500.000
G1 X25.794 Y2.397 Z7.019 F2500.000
G1 X26.394 Y2.397 Z6.443 F2500.000
G1 X26.994 Y2.397 Z5.842 F2500.000
G1 X27.594 Y2.397 Z5.215 F2500.000
G1 X27.765 Y2.426 Z5.031 F2500.000
G1 X26.710 Y71.018 Z5.012 F2500.000
G1 X25.818 Y129.011 Z4.985 F2500.000
G1 X24.978 Y183.604 Z4.951 F2500.000
G1 X24.929 Y186.804 Z4.946 F2500.000
G1 X24.744 Y198.803 Z4.940 F2500.000
G1 X24.139 Y238.132 Z4.905 F2500.000
(Break)
G1 X24.139 Y238.132 Z16.800 F1000.000
(part 63.)
G0 Z19.770
G0 Z21.770
G0 X25.025 Y239.032
G0 Z19.770
G1 Z16.800 F1000.000
G1 X25.025 Y239.032 Z4.011 F1000.000
G1 X24.045 Y239.032 Z4.981 F2500.000
G1 X23.065 Y239.032 Z5.871 F2500.000
G1 X22.084 Y239.032 Z6.694 F2500.000
G1 X21.104 Y239.032 Z7.459 F2500.000
G1 X20.123 Y239.032 Z8.170 F2500.000
G1 X19.143 Y239.032 Z8.834 F2500.000
G1 X18.163 Y239.032 Z9.454 F2500.000
G1 X17.182 Y239.032 Z10.031 F2500.000
G1 X16.202 Y239.032 Z10.571 F2500.000
G1 X15.221 Y239.032 Z11.075 F2500.000
G1 X14.241 Y239.032 Z11.543 F2500.000
G1 X13.261 Y239.032 Z11.979 F2500.000
G1 X12.280 Y239.032 Z12.382 F2500.000
G1 X11.300 Y239.032 Z12.751 F2500.000
G1 X10.319 Y239.032 Z13.091 F2500.000
G1 X9.339 Y239.032 Z13.398 F2500.000
G1 X8.359 Y239.032 Z13.676 F2500.000
G1 X7.378 Y239.032 Z13.923 F2500.000
G1 X6.398 Y239.032 Z14.143 F2500.000
G1 X5.418 Y239.032 Z14.329 F2500.000
G1 X4.437 Y239.032 Z14.487 F2500.000
G1 X3.457 Y239.032 Z14.614 F2500.000
G1 X2.476 Y239.032 Z14.710 F2500.000
G1 X1.496 Y239.032 Z14.774 F2500.000
G1 X0.516 Y239.032 Z14.806 F2500.000
G1 X-0.465 Y239.032 Z14.807 F2500.000
G1 X-1.445 Y239.032 Z14.777 F2500.000
G1 X-2.426 Y239.032 Z14.714 F2500.000
G1 X-3.406 Y239.032 Z14.620 F2500.000
G1 X-4.386 Y239.032 Z14.495 F2500.000
G1 X-5.367 Y239.032 Z14.338 F2500.000
G1 X-6.347 Y239.032 Z14.153 F2500.000
G1 X-7.328 Y239.032 Z13.937 F2500.000
G1 X-8.308 Y239.032 Z13.691 F2500.000
G1 X-9.288 Y239.032 Z13.415 F2500.000
G1 X-10.269 Y239.032 Z13.106 F2500.000
G1 X-11.249 Y239.032 Z12.770 F2500.000
G1 X-12.230 Y239.032 Z12.401 F2500.000
G1 X-13.210 Y239.032 Z12.001 F2500.000
G1 X-14.190 Y239.032 Z11.567 F2500.000
G1 X-15.171 Y239.032 Z11.100 F2500.000
G1 X-16.151 Y239.032 Z10.598 F2500.000
G1 X-17.132 Y239.032 Z10.060 F2500.000
G1 X-18.112 Y239.032 Z9.485 F2500.000
G1 X-19.092 Y239.032 Z8.867 F2500.000
G1 X-20.073 Y239.032 Z8.206 F2500.000
G1 X-21.053 Y239.032 Z7.497 F2500.000
G1 X-22.033 Y239.032 Z6.734 F2500.000
G1 X-23.014 Y239.032 Z5.915 F2500.000
G1 X-23.994 Y239.032 Z5.029 F2500.000
G1 X-24.975 Y239.032 Z4.063 F2500.000
G1 X-25.028 Y238.883 Z4.011 F2500.000
G1 X-25.812 Y187.889 Z4.026 F2500.000
G1 X-26.667 Y132.296 Z4.033 F2500.000
G1 X-26.756 Y126.497 Z4.031 F2500.000
G1 X-26.784 Y124.697 Z4.034 F2500.000
G1 X-26.800 Y123.697 Z4.031 F2500.000
G1 X-27.206 Y97.300 Z4.034 F2500.000
G1 X-27.243 Y94.900 Z4.031 F2500.000
G1 X-27.384 Y85.701 Z4.034 F2500.000
G1 X-27.492 Y78.702 Z4.031 F2500.000
G1 X-27.578 Y73.103 Z4.033 F2500.000
G1 X-27.729 Y63.304 Z4.030 F2500.000
G1 X-27.769 Y60.704 Z4.033 F2500.000
G1 X-27.849 Y55.505 Z4.029 F2500.000
G1 X-27.947 Y49.106 Z4.032 F2500.000
G1 X-28.679 Y1.511 Z4.026 F2500.000
G1 X-28.493 Y1.498 Z4.239 F2500.000
G1 X-27.693 Y1.498 Z5.124 F2500.000
G1 X-26.893 Y1.498 Z5.960 F2500.000
G1 X-25.993 Y1.498 Z6.844 F2500.000
G1 X-25.093 Y1.498 Z7.674 F2500.000
G1 X-24.193 Y1.498 Z8.452 F2500.000
G1 X-23.293 Y1.498 Z9.181 F2500.000
G1 X-22.626 Y1.498 Z9.690 F2500.000
G1 X-21.960 Y1.498 Z10.177 F2500.000
G1 X-21.293 Y1.498 Z10.640 F2500.000
G1 X-20.393 Y1.498 Z11.230 F2500.000
G1 X-19.493 Y1.498 Z11.781 F2500.000
G1 X-18.593 Y1.498 Z12.295 F2500.000
G1 X-17.693 Y1.498 Z12.772 F2500.000
G1 X-17.026 Y1.498 Z13.106 F2500.000
G1 X-16.360 Y1.498 Z13.420 F2500.000
G1 X-15.693 Y1.498 Z13.719 F2500.000
G1 X-14.793 Y1.498 Z14.095 F2500.000
G1 X-13.893 Y1.498 Z14.443 F2500.000
G1 X-12.993 Y1.498 Z14.762 F2500.000
G1 X-12.093 Y1.498 Z15.054 F2500.000
G1 X-11.426 Y1.498 Z15.253 F2500.000
G1 X-10.760 Y1.498 Z15.439 F2500.000
G1 X-10.093 Y1.498 Z15.610 F2500.000
G1 X-9.193 Y1.498 Z15.822 F2500.000
G1 X-8.293 Y1.498 Z16.011 F2500.000
G1 X-7.393 Y1.498 Z16.177 F2500.000
G1 X-6.493 Y1.498 Z16.321 F2500.000
G1 X-5.826 Y1.498 Z16.415 F2500.000
G1 X-5.160 Y1.498 Z16.498 F2500.000
G1 X-4.493 Y1.498 Z16.570 F2500.000
G1 X-3.593 Y1.498 Z16.650 F2500.000
G1 X-2.693 Y1.498 Z16.710 F2500.000
G1 X-1.793 Y1.498 Z16.753 F2500.000
G1 X-0.893 Y1.498 Z16.778 F2500.000
G1 X-0.226 Y1.498 Z16.787 F2500.000
G1 X0.440 Y1.498 Z16.785 F2500.000
G1 X1.107 Y1.498 Z16.774 F2500.000
G1 X2.007 Y1.498 Z16.745 F2500.000
G1 X2.907 Y1.498 Z16.698 F2500.000
G1 X3.807 Y1.498 Z16.633 F2500.000
G1 X4.707 Y1.498 Z16.548 F2500.000
G1 X5.374 Y1.498 Z16.473 F2500.000
G1 X6.040 Y1.498 Z16.386 F2500.000
G1 X6.707 Y1.498 Z16.289 F2500.000
G1 X7.607 Y1.498 Z16.139 F2500.000
G1 X8.507 Y1.498 Z15.967 F2500.000
G1 X9.407 Y1.498 Z15.774 F2500.000
G1 X10.307 Y1.498 Z15.556 F2500.000
G1 X10.974 Y1.498 Z15.381 F2500.000
G1 X11.640 Y1.498 Z15.191 F2500.000
G1 X12.307 Y1.498 Z14.986 F2500.000
G1 X13.207 Y1.498 Z14.689 F2500.000
G1 X14.107 Y1.498 Z14.363 F2500.000
G1 X15.007 Y1.498 Z14.009 F2500.000
G1 X15.907 Y1.498 Z13.627 F2500.000
G1 X16.574 Y1.498 Z13.323 F2500.000
G1 X17.240 Y1.498 Z13.002 F2500.000
G1 X17.907 Y1.498 Z12.662 F2500.000
G1 X18.807 Y1.498 Z12.176 F2500.000
G1 X19.707 Y1.498 Z11.653 F2500.000
G1 X20.607 Y1.498 Z11.093 F2500.000
G1 X21.507 Y1.498 Z10.492 F2500.000
G1 X22.174 Y1.498 Z10.024 F2500.000
G1 X22.840 Y1.498 Z9.530 F2500.000
G1 X23.507 Y1.498 Z9.011 F2500.000
G1 X24.407 Y1.498 Z8.271 F2500.000
G1 X25.307 Y1.498 Z7.481 F2500.000
G1 X26.207 Y1.498 Z6.639 F2500.000
G1 X27.107 Y1.498 Z5.741 F2500.000
G1 X27.807 Y1.498 Z5.001 F2500.000
G1 X28.507 Y1.498 Z4.224 F2500.000
G1 X28.679 Y1.525 Z4.026 F2500.000
G1 X28.592 Y7.191 Z4.024 F2500.000
G1 X28.500 Y13.124 Z4.028 F2500.000
G1 X27.950 Y48.919 Z4.032 F2500.000
G1 X27.848 Y55.519 Z4.029 F2500.000
G1 X27.707 Y64.718 Z4.033 F2500.000
G1 X26.664 Y132.510 Z4.033 F2500.000
G1 X25.815 Y187.703 Z4.026 F2500.000
G1 X25.025 Y239.032 Z4.011 F2500.000
(Break)
G1 X25.025 Y239.032 Z16.800 F1000.000
(part 65.)
G0 Z19.770
G0 Z21.770
G0 X25.912 Y239.933
G0 Z19.770
G1 Z16.800 F1000.000
G1 X25.912 Y239.933 Z3.038 F1000.000
G1 X24.915 Y239.933 Z4.110 F2500.000
G1 X23.919 Y239.933 Z5.085 F2500.000
G1 X22.923 Y239.933 Z5.980 F2500.000
G1 X21.927 Y239.933 Z6.808 F2500.000
G1 X20.931 Y239.933 Z7.575 F2500.000
G1 X19.935 Y239.933 Z8.289 F2500.000
G1 X18.939 Y239.933 Z8.955 F2500.000
G1 X17.942 Y239.933 Z9.574 F2500.000
G1 X16.946 Y239.933 Z10.154 F2500.000
G1 X15.950 Y239.933 Z10.694 F2500.000
G1 X14.954 Y239.933 Z11.197 F2500.000
G1 X13.958 Y239.933 Z11.663 F2500.000
G1 X12.962 Y239.933 Z12.096 F2500.000
G1 X11.965 Y239.933 Z12.494 F2500.000
G1 X10.969 Y239.933 Z12.860 F2500.000
G1 X9.973 Y239.933 Z13.194 F2500.000
G1 X8.977 Y239.933 Z13.497 F2500.000
G1 X7.981 Y239.933 Z13.768 F2500.000
G1 X6.985 Y239.933 Z14.007 F2500.000
G1 X5.989 Y239.933 Z14.216 F2500.000
G1 X4.992 Y239.933 Z14.393 F2500.000
G1 X3.996 Y239.933 Z14.540 F2500.000
G1 X3.000 Y239.933 Z14.653 F2500.000
G1 X2.004 Y239.933 Z14.737 F2500.000
G1 X1.008 Y239.933 Z14.787 F2500.000
G1 X0.012 Y239.933 Z14.805 F2500.000
G1 X-0.985 Y239.933 Z14.788 F2500.000
G1 X-1.981 Y239.933 Z14.738 F2500.000
G1 X-2.977 Y239.933 Z14.656 F2500.000
G1 X-3.973 Y239.933 Z14.543 F2500.000
G1 X-4.969 Y239.933 Z14.397 F2500.000
G1 X-5.965 Y239.933 Z14.220 F2500.000
G1 X-6.961 Y239.933 Z14.013 F2500.000
G1 X-7.958 Y239.933 Z13.774 F2500.000
G1 X-8.954 Y239.933 Z13.503 F2500.000
G1 X-9.950 Y239.933 Z13.201 F2500.000
G1 X-10.946 Y239.933 Z12.868 F2500.000
G1 X-11.942 Y239.933 Z12.501 F2500.000
G1 X-12.938 Y239.933 Z12.104 F2500.000
G1 X-13.935 Y239.933 Z11.673 F2500.000
G1 X-14.931 Y239.933 Z11.208 F2500.000
G1 X-15.927 Y239.933 Z10.706 F2500.000
G1 X-16.923 Y239.933 Z10.167 F2500.000
G1 X-17.919 Y239.933 Z9.588 F2500.000
G1 X-18.915 Y239.933 Z8.970 F2500.000
G1 X-19.911 Y239.933 Z8.306 F2500.000
G1 X-20.908 Y239.933 Z7.593 F2500.000
G1 X-21.904 Y239.933 Z6.827 F2500.000
G1 X-22.900 Y239.933 Z6.000 F2500.000
G1 X-23.896 Y239.933 Z5.106 F2500.000
G1 X-24.892 Y239.933 Z4.134 F2500.000
G1 X-25.888 Y239.933 Z3.065 F2500.000
G1 X-25.914 Y239.756 Z3.038 F2500.000
G1 X-25.936 Y238.356 Z3.035 F2500.000
G1 X-25.970 Y236.156 Z3.038 F2500.000
G1 X-26.207 Y220.758 Z3.034 F2500.000
G1 X-26.336 Y212.359 Z3.029 F2500.000
G1 X-26.465 Y203.960 Z3.029 F2500.000
G1 X-26.474 Y203.360 Z3.027 F2500.000
G1 X-26.483 Y202.760 Z3.029 F2500.000
G1 X-26.499 Y201.760 Z3.025 F2500.000
G1 X-26.508 Y201.160 Z3.029 F2500.000
G1 X-26.526 Y199.960 Z3.025 F2500.000
G1 X-26.536 Y199.361 Z3.028 F2500.000
G1 X-26.766 Y184.362 Z3.021 F2500.000
G1 X-26.843 Y179.363 Z3.022 F2500.000
G1 X-26.880 Y176.963 Z3.018 F2500.000
G1 X-26.893 Y176.163 Z3.021 F2500.000
G1 X-27.172 Y157.965 Z3.015 F2500.000
G1 X-27.283 Y150.766 Z3.012 F2500.000
G1 X-27.302 Y149.566 Z3.009 F2500.000
G1 X-27.314 Y148.767 Z3.011 F2500.000
G1 X-27.659 Y126.369 Z3.003 F2500.000
G1 X-27.800 Y117.170 Z2.999 F2500.000
G1 X-27.812 Y116.370 Z2.996 F2500.000
G1 X-27.880 Y111.971 Z2.998 F2500.000
G1 X-27.951 Y107.371 Z2.995 F2500.000
G1 X-27.963 Y106.572 Z2.992 F2500.000
G1 X-27.972 Y105.972 Z2.995 F2500.000
G1 X-28.040 Y101.572 Z2.990 F2500.000
G1 X-28.089 Y98.372 Z2.992 F2500.000
G1 X-28.203 Y90.973 Z2.986 F2500.000
G1 X-28.409 Y77.575 Z2.984 F2500.000
G1 X-28.421 Y76.775 Z2.980 F2500.000
G1 X-28.452 Y74.775 Z2.983 F2500.000
G1 X-28.615 Y64.177 Z2.978 F2500.000
G1 X-28.631 Y63.177 Z2.975 F2500.000
G1 X-28.661 Y61.177 Z2.977 F2500.000
G1 X-28.846 Y49.178 Z2.969 F2500.000
G1 X-28.864 Y47.978 Z2.972 F2500.000
G1 X-28.898 Y45.779 Z2.968 F2500.000
G1 X-28.926 Y43.979 Z2.970 F2500.000
G1 X-29.590 Y0.784 Z2.951 F2500.000
G1 X-29.580 Y0.598 Z2.968 F2500.000
G1 X-28.646 Y0.598 Z4.080 F2500.000
G1 X-27.713 Y0.598 Z5.118 F2500.000
G1 X-26.780 Y0.598 Z6.089 F2500.000
G1 X-25.846 Y0.598 Z6.996 F2500.000
G1 X-24.913 Y0.598 Z7.847 F2500.000
G1 X-23.980 Y0.598 Z8.642 F2500.000
G1 X-23.030 Y0.598 Z9.398 F2500.000
G1 X-22.080 Y0.598 Z10.104 F2500.000
G1 X-21.130 Y0.598 Z10.762 F2500.000
G1 X-20.180 Y0.598 Z11.375 F2500.000
G1 X-19.230 Y0.598 Z11.947 F2500.000
G1 X-18.280 Y0.598 Z12.476 F2500.000
G1 X-17.330 Y0.598 Z12.969 F2500.000
G1 X-16.380 Y0.598 Z13.424 F2500.000
G1 X-15.430 Y0.598 Z13.844 F2500.000
G1 X-14.480 Y0.598 Z14.230 F2500.000
G1 X-13.530 Y0.598 Z14.585 F2500.000
G1 X-12.580 Y0.598 Z14.909 F2500.000
G1 X-11.646 Y0.598 Z15.197 F2500.000
G1 X-10.713 Y0.598 Z15.460 F2500.000
G1 X-9.780 Y0.598 Z15.696 F2500.000
G1 X-8.846 Y0.598 Z15.907 F2500.000
G1 X-7.913 Y0.598 Z16.093 F2500.000
G1 X-6.980 Y0.598 Z16.254 F2500.000
G1 X-6.046 Y0.598 Z16.394 F2500.000
G1 X-5.113 Y0.598 Z16.511 F2500.000
G1 X-4.180 Y0.598 Z16.608 F2500.000
G1 X-3.246 Y0.598 Z16.683 F2500.000
G1 X-2.313 Y0.598 Z16.739 F2500.000
G1 X-1.380 Y0.598 Z16.775 F2500.000
G1 X-0.446 Y0.598 Z16.793 F2500.000
G1 X0.487 Y0.598 Z16.793 F2500.000
G1 X1.420 Y0.598 Z16.774 F2500.000
G1 X2.354 Y0.598 Z16.737 F2500.000
G1 X3.287 Y0.598 Z16.681 F2500.000
G1 X4.220 Y0.598 Z16.604 F2500.000
G1 X5.154 Y0.598 Z16.506 F2500.000
G1 X6.087 Y0.598 Z16.387 F2500.000
G1 X7.020 Y0.598 Z16.248 F2500.000
G1 X7.954 Y0.598 Z16.085 F2500.000
G1 X8.887 Y0.598 Z15.898 F2500.000
G1 X9.820 Y0.598 Z15.686 F2500.000
G1 X10.754 Y0.598 Z15.450 F2500.000
G1 X11.687 Y0.598 Z15.185 F2500.000
G1 X12.620 Y0.598 Z14.896 F2500.000
G1 X13.554 Y0.598 Z14.577 F2500.000
G1 X14.487 Y0.598 Z14.228 F2500.000
G1 X15.420 Y0.598 Z13.848 F2500.000
G1 X16.354 Y0.598 Z13.436 F2500.000
G1 X17.287 Y0.598 Z12.990 F2500.000
G1 X18.220 Y0.598 Z12.508 F2500.000
G1 X19.154 Y0.598 Z11.991 F2500.000
G1 X20.087 Y0.598 Z11.433 F2500.000
G1 X21.020 Y0.598 Z10.835 F2500.000
G1 X21.954 Y0.598 Z10.194 F2500.000
G1 X22.887 Y0.598 Z9.508 F2500.000
G1 X23.820 Y0.598 Z8.773 F2500.000
G1 X24.754 Y0.598 Z7.987 F2500.000
G1 X25.687 Y0.598 Z7.145 F2500.000
G1 X26.620 Y0.598 Z6.248 F2500.000
G1 X27.554 Y0.598 Z5.288 F2500.000
G1 X28.487 Y0.598 Z4.262 F2500.000
G1 X29.420 Y0.598 Z3.163 F2500.000
G1 X29.593 Y0.624 Z2.952 F2500.000
G1 X29.381 Y14.423 Z2.955 F2500.000
G1 X29.107 Y32.221 Z2.965 F2500.000
