(Exported by FreeCAD)
(Post Processor: grbl_post)
(Output Time:2023-08-26 17:49:17.730519)
(Begin preamble)
G17 G90
G21
(Begin operation: 8 Z1 UP helicoidale001)
(Path: 8 Z1 UP helicoidale001)
(8 Z1 UP helicoidale001)
(Begin toolchange)
( M6 T7 )
M3 S24000
(Finish operation: 8 Z1 UP helicoidale001)
(Begin operation: Fixture)
(Path: Fixture)
G54
(Finish operation: Fixture)
(Begin operation: Surface)
(Path: Surface)
(Surface)
(Surface)
(Tool type: endmill)
(Compensated Tool Path. Diameter: 8.0)
(Sample interval: 1.0)
(Step over %: 50.0)
()
G0 Z28.500
(Beginning of Multi-pass layers.)
(Layer 0 begins)
(Begin step 0.)
G0 X13.568 Y-3.737
(part 1)
G1 X13.568 Y-3.737 Z21.500 F2500.000
G1 X69.432 Y-3.737 Z21.500 F2500.000
(End of step 0.)
G0 Z26.500
G0 X10.993 Y0.263
G0 Z25.500
(Begin step 1.)
G0 X10.993 Y0.263
(part 1)
G1 X10.993 Y0.263 Z21.500 F2500.000
G1 X72.007 Y0.263 Z21.500 F2500.000
(End of step 1.)
G0 Z26.500
G0 X10.932 Y4.263
G0 Z25.500
(Begin step 2.)
G0 X10.932 Y4.263
(part 1)
G1 X10.932 Y4.263 Z21.500 F2500.000
G1 X72.068 Y4.263 Z21.500 F2500.000
(End of step 2.)
G0 Z26.500
G0 X10.870 Y8.263
G0 Z25.500
(Begin step 3.)
G0 X10.870 Y8.263
(part 1)
G1 X10.870 Y8.263 Z21.500 F2500.000
G1 X72.130 Y8.263 Z21.500 F2500.000
(End of step 3.)
G0 Z26.500
G0 X10.809 Y12.263
G0 Z25.500
(Begin step 4.)
G0 X10.809 Y12.263
(part 1)
G1 X10.809 Y12.263 Z21.500 F2500.000
G1 X72.191 Y12.263 Z21.500 F2500.000
(End of step 4.)
G0 Z26.500
G0 X10.747 Y16.263
G0 Z25.500
(Begin step 5.)
G0 X10.747 Y16.263
(part 1)
G1 X10.747 Y16.263 Z21.500 F2500.000
G1 X72.253 Y16.263 Z21.500 F2500.000
(End of step 5.)
G0 Z26.500
G0 X10.686 Y20.263
G0 Z25.500
(Begin step 6.)
G0 X10.686 Y20.263
(part 1)
G1 X10.686 Y20.263 Z21.500 F2500.000
G1 X72.314 Y20.263 Z21.500 F2500.000
(End of step 6.)
G0 Z26.500
G0 X10.624 Y24.263
G0 Z25.500
(Begin step 7.)
G0 X10.624 Y24.263
(part 1)
G1 X10.624 Y24.263 Z21.500 F2500.000
G1 X72.376 Y24.263 Z21.500 F2500.000
(End of step 7.)
G0 Z26.500
G0 X10.563 Y28.263
G0 Z25.500
(Begin step 8.)
G0 X10.563 Y28.263
(part 1)
G1 X10.563 Y28.263 Z21.500 F2500.000
G1 X72.437 Y28.263 Z21.500 F2500.000
(End of step 8.)
G0 Z26.500
G0 X10.501 Y32.263
G0 Z25.500
(Begin step 9.)
G0 X10.501 Y32.263
(part 1)
G1 X10.501 Y32.263 Z21.500 F2500.000
G1 X72.499 Y32.263 Z21.500 F2500.000
(End of step 9.)
G0 Z26.500
G0 X10.439 Y36.263
G0 Z25.500
(Begin step 10.)
G0 X10.439 Y36.263
(part 1)
G1 X10.439 Y36.263 Z21.500 F2500.000
G1 X72.561 Y36.263 Z21.500 F2500.000
(End of step 10.)
G0 Z26.500
G0 X10.378 Y40.263
G0 Z25.500
(Begin step 11.)
G0 X10.378 Y40.263
(part 1)
G1 X10.378 Y40.263 Z21.500 F2500.000
G1 X72.622 Y40.263 Z21.500 F2500.000
(End of step 11.)
G0 Z26.500
G0 X10.316 Y44.263
G0 Z25.500
(Begin step 12.)
G0 X10.316 Y44.263
(part 1)
G1 X10.316 Y44.263 Z21.500 F2500.000
G1 X72.684 Y44.263 Z21.500 F2500.000
(End of step 12.)
G0 Z26.500
G0 X10.255 Y48.263
G0 Z25.500
(Begin step 13.)
G0 X10.255 Y48.263
(part 1)
G1 X10.255 Y48.263 Z21.500 F2500.000
G1 X72.745 Y48.263 Z21.500 F2500.000
(End of step 13.)
G0 Z26.500
G0 X10.193 Y52.263
G0 Z25.500
(Begin step 14.)
G0 X10.193 Y52.263
(part 1)
G1 X10.193 Y52.263 Z21.500 F2500.000
G1 X72.807 Y52.263 Z21.500 F2500.000
(End of step 14.)
G0 Z26.500
G0 X10.132 Y56.263
G0 Z25.500
(Begin step 15.)
G0 X10.132 Y56.263
(part 1)
G1 X10.132 Y56.263 Z21.500 F2500.000
G1 X72.868 Y56.263 Z21.500 F2500.000
(End of step 15.)
G0 Z26.500
G0 X10.070 Y60.263
G0 Z25.500
(Begin step 16.)
G0 X10.070 Y60.263
(part 1)
G1 X10.070 Y60.263 Z21.500 F2500.000
G1 X72.930 Y60.263 Z21.500 F2500.000
(End of step 16.)
G0 Z26.500
G0 X10.009 Y64.263
G0 Z25.500
(Begin step 17.)
G0 X10.009 Y64.263
(part 1)
G1 X10.009 Y64.263 Z21.500 F2500.000
G1 X72.991 Y64.263 Z21.500 F2500.000
(End of step 17.)
G0 Z26.500
G0 X9.947 Y68.263
G0 Z25.500
(Begin step 18.)
G0 X9.947 Y68.263
(part 1)
G1 X9.947 Y68.263 Z21.500 F2500.000
G1 X73.053 Y68.263 Z21.500 F2500.000
(End of step 18.)
G0 Z26.500
G0 X9.886 Y72.263
G0 Z25.500
(Begin step 19.)
G0 X9.886 Y72.263
(part 1)
G1 X9.886 Y72.263 Z21.500 F2500.000
G1 X73.114 Y72.263 Z21.500 F2500.000
(End of step 19.)
G0 Z26.500
G0 X9.824 Y76.263
G0 Z25.500
(Begin step 20.)
G0 X9.824 Y76.263
(part 1)
G1 X9.824 Y76.263 Z21.500 F2500.000
G1 X73.176 Y76.263 Z21.500 F2500.000
(End of step 20.)
G0 Z26.500
G0 X9.763 Y80.263
G0 Z25.500
(Begin step 21.)
G0 X9.763 Y80.263
(part 1)
G1 X9.763 Y80.263 Z21.500 F2500.000
G1 X73.237 Y80.263 Z21.500 F2500.000
(End of step 21.)
G0 Z26.500
G0 X9.701 Y84.263
G0 Z25.500
(Begin step 22.)
G0 X9.701 Y84.263
(part 1)
G1 X9.701 Y84.263 Z21.500 F2500.000
G1 X73.299 Y84.263 Z21.500 F2500.000
(End of step 22.)
G0 Z26.500
G0 X9.640 Y88.263
G0 Z25.500
(Begin step 23.)
G0 X9.640 Y88.263
(part 1)
G1 X9.640 Y88.263 Z21.500 F2500.000
G1 X73.360 Y88.263 Z21.500 F2500.000
(End of step 23.)
G0 Z26.500
G0 X9.578 Y92.263
G0 Z25.500
(Begin step 24.)
G0 X9.578 Y92.263
(part 1)
G1 X9.578 Y92.263 Z21.500 F2500.000
G1 X73.422 Y92.263 Z21.500 F2500.000
(End of step 24.)
G0 Z26.500
G0 X9.516 Y96.263
G0 Z25.500
(Begin step 25.)
G0 X9.516 Y96.263
(part 1)
G1 X9.516 Y96.263 Z21.500 F2500.000
G1 X73.484 Y96.263 Z21.500 F2500.000
(End of step 25.)
G0 Z26.500
G0 X9.455 Y100.263
G0 Z25.500
(Begin step 26.)
G0 X9.455 Y100.263
(part 1)
G1 X9.455 Y100.263 Z21.500 F2500.000
G1 X73.545 Y100.263 Z21.500 F2500.000
(End of step 26.)
G0 Z26.500
G0 X9.393 Y104.263
G0 Z25.500
(Begin step 27.)
G0 X9.393 Y104.263
(part 1)
G1 X9.393 Y104.263 Z21.500 F2500.000
G1 X73.607 Y104.263 Z21.500 F2500.000
(End of step 27.)
G0 Z26.500
G0 X9.332 Y108.263
G0 Z25.500
(Begin step 28.)
G0 X9.332 Y108.263
(part 1)
G1 X9.332 Y108.263 Z21.500 F2500.000
G1 X73.668 Y108.263 Z21.500 F2500.000
(End of step 28.)
G0 Z26.500
G0 X9.270 Y112.263
G0 Z25.500
(Begin step 29.)
G0 X9.270 Y112.263
(part 1)
G1 X9.270 Y112.263 Z21.500 F2500.000
G1 X73.730 Y112.263 Z21.500 F2500.000
(End of step 29.)
G0 Z26.500
G0 X9.209 Y116.263
G0 Z25.500
(Begin step 30.)
G0 X9.209 Y116.263
(part 1)
G1 X9.209 Y116.263 Z21.500 F2500.000
G1 X73.791 Y116.263 Z21.500 F2500.000
(End of step 30.)
G0 Z26.500
G0 X9.147 Y120.263
G0 Z25.500
(Begin step 31.)
G0 X9.147 Y120.263
(part 1)
G1 X9.147 Y120.263 Z21.500 F2500.000
G1 X73.853 Y120.263 Z21.500 F2500.000
(End of step 31.)
G0 Z26.500
G0 X9.086 Y124.263
G0 Z25.500
(Begin step 32.)
G0 X9.086 Y124.263
(part 1)
G1 X9.086 Y124.263 Z21.500 F2500.000
G1 X73.914 Y124.263 Z21.500 F2500.000
(End of step 32.)
G0 Z26.500
G0 X9.024 Y128.263
G0 Z25.500
(Begin step 33.)
G0 X9.024 Y128.263
(part 1)
G1 X9.024 Y128.263 Z21.500 F2500.000
G1 X73.976 Y128.263 Z21.500 F2500.000
(End of step 33.)
G0 Z26.500
G0 X8.963 Y132.263
G0 Z25.500
(Begin step 34.)
G0 X8.963 Y132.263
(part 1)
G1 X8.963 Y132.263 Z21.500 F2500.000
G1 X74.037 Y132.263 Z21.500 F2500.000
(End of step 34.)
G0 Z26.500
G0 X8.901 Y136.263
G0 Z25.500
(Begin step 35.)
G0 X8.901 Y136.263
(part 1)
G1 X8.901 Y136.263 Z21.500 F2500.000
G1 X74.099 Y136.263 Z21.500 F2500.000
(End of step 35.)
G0 Z26.500
G0 X8.840 Y140.263
G0 Z25.500
(Begin step 36.)
G0 X8.840 Y140.263
(part 1)
G1 X8.840 Y140.263 Z21.500 F2500.000
G1 X74.160 Y140.263 Z21.500 F2500.000
(End of step 36.)
G0 Z26.500
G0 X8.778 Y144.263
G0 Z25.500
(Begin step 37.)
G0 X8.778 Y144.263
(part 1)
G1 X8.778 Y144.263 Z21.500 F2500.000
G1 X74.222 Y144.263 Z21.500 F2500.000
(End of step 37.)
G0 Z26.500
G0 X8.717 Y148.263
G0 Z25.500
(Begin step 38.)
G0 X8.717 Y148.263
(part 1)
G1 X8.717 Y148.263 Z21.500 F2500.000
G1 X74.283 Y148.263 Z21.500 F2500.000
(End of step 38.)
G0 Z26.500
G0 X8.655 Y152.263
G0 Z25.500
(Begin step 39.)
G0 X8.655 Y152.263
(part 1)
G1 X8.655 Y152.263 Z21.500 F2500.000
G1 X74.345 Y152.263 Z21.500 F2500.000
(End of step 39.)
G0 Z26.500
G0 X8.593 Y156.263
G0 Z25.500
(Begin step 40.)
G0 X8.593 Y156.263
(part 1)
G1 X8.593 Y156.263 Z21.500 F2500.000
G1 X74.407 Y156.263 Z21.500 F2500.000
(End of step 40.)
G0 Z26.500
G0 X8.532 Y160.263
G0 Z25.500
(Begin step 41.)
G0 X8.532 Y160.263
(part 1)
G1 X8.532 Y160.263 Z21.500 F2500.000
G1 X74.468 Y160.263 Z21.500 F2500.000
(End of step 41.)
G0 Z26.500
G0 X8.470 Y164.263
G0 Z25.500
(Begin step 42.)
G0 X8.470 Y164.263
(part 1)
G1 X8.470 Y164.263 Z21.500 F2500.000
G1 X74.530 Y164.263 Z21.500 F2500.000
(End of step 42.)
G0 Z26.500
G0 X8.409 Y168.263
G0 Z25.500
(Begin step 43.)
G0 X8.409 Y168.263
(part 1)
G1 X8.409 Y168.263 Z21.500 F2500.000
G1 X74.591 Y168.263 Z21.500 F2500.000
(End of step 43.)
G0 Z26.500
G0 X8.347 Y172.263
G0 Z25.500
(Begin step 44.)
G0 X8.347 Y172.263
(part 1)
G1 X8.347 Y172.263 Z21.500 F2500.000
G1 X74.653 Y172.263 Z21.500 F2500.000
(End of step 44.)
G0 Z26.500
G0 X8.286 Y176.263
G0 Z25.500
(Begin step 45.)
G0 X8.286 Y176.263
(part 1)
G1 X8.286 Y176.263 Z21.500 F2500.000
G1 X74.714 Y176.263 Z21.500 F2500.000
(End of step 45.)
G0 Z26.500
G0 X8.224 Y180.263
G0 Z25.500
(Begin step 46.)
G0 X8.224 Y180.263
(part 1)
G1 X8.224 Y180.263 Z21.500 F2500.000
G1 X74.776 Y180.263 Z21.500 F2500.000
(End of step 46.)
G0 Z26.500
G0 X8.163 Y184.263
G0 Z25.500
(Begin step 47.)
G0 X8.163 Y184.263
(part 1)
G1 X8.163 Y184.263 Z21.500 F2500.000
G1 X74.837 Y184.263 Z21.500 F2500.000
(End of step 47.)
G0 Z26.500
G0 X8.101 Y188.263
G0 Z25.500
(Begin step 48.)
G0 X8.101 Y188.263
(part 1)
G1 X8.101 Y188.263 Z21.500 F2500.000
G1 X74.899 Y188.263 Z21.500 F2500.000
(End of step 48.)
G0 Z26.500
G0 X8.040 Y192.263
G0 Z25.500
(Begin step 49.)
G0 X8.040 Y192.263
(part 1)
G1 X8.040 Y192.263 Z21.500 F2500.000
G1 X74.960 Y192.263 Z21.500 F2500.000
(End of step 49.)
G0 Z26.500
G0 X7.978 Y196.263
G0 Z25.500
(Begin step 50.)
G0 X7.978 Y196.263
(part 1)
G1 X7.978 Y196.263 Z21.500 F2500.000
G1 X75.022 Y196.263 Z21.500 F2500.000
(End of step 50.)
G0 Z26.500
G0 X7.917 Y200.263
G0 Z25.500
(Begin step 51.)
G0 X7.917 Y200.263
(part 1)
G1 X7.917 Y200.263 Z21.500 F2500.000
G1 X75.083 Y200.263 Z21.500 F2500.000
(End of step 51.)
G0 Z26.500
G0 X7.855 Y204.263
G0 Z25.500
(Begin step 52.)
G0 X7.855 Y204.263
(part 1)
G1 X7.855 Y204.263 Z21.500 F2500.000
G1 X75.145 Y204.263 Z21.500 F2500.000
(End of step 52.)
G0 Z26.500
G0 X7.794 Y208.263
G0 Z25.500
(Begin step 53.)
G0 X7.794 Y208.263
(part 1)
G1 X7.794 Y208.263 Z21.500 F2500.000
G1 X75.206 Y208.263 Z21.500 F2500.000
(End of step 53.)
G0 Z26.500
G0 X7.732 Y212.263
G0 Z25.500
(Begin step 54.)
G0 X7.732 Y212.263
(part 1)
G1 X7.732 Y212.263 Z21.500 F2500.000
G1 X75.268 Y212.263 Z21.500 F2500.000
(End of step 54.)
G0 Z26.500
G0 X7.671 Y216.263
G0 Z25.500
(Begin step 55.)
G0 X7.671 Y216.263
(part 1)
G1 X7.671 Y216.263 Z21.500 F2500.000
G1 X75.329 Y216.263 Z21.500 F2500.000
(End of step 55.)
G0 Z26.500
G0 X7.609 Y220.263
G0 Z25.500
(Begin step 56.)
G0 X7.609 Y220.263
(part 1)
G1 X7.609 Y220.263 Z21.500 F2500.000
G1 X75.391 Y220.263 Z21.500 F2500.000
(End of step 56.)
G0 Z26.500
G0 X7.547 Y224.263
G0 Z25.500
(Begin step 57.)
G0 X7.547 Y224.263
(part 1)
G1 X7.547 Y224.263 Z21.500 F2500.000
G1 X75.453 Y224.263 Z21.500 F2500.000
(End of step 57.)
G0 Z26.500
G0 X7.486 Y228.263
G0 Z25.500
(Begin step 58.)
G0 X7.486 Y228.263
(part 1)
G1 X7.486 Y228.263 Z21.500 F2500.000
G1 X75.514 Y228.263 Z21.500 F2500.000
(End of step 58.)
G0 Z26.500
G0 X7.424 Y232.263
G0 Z25.500
(Begin step 59.)
G0 X7.424 Y232.263
(part 1)
G1 X7.424 Y232.263 Z21.500 F2500.000
G1 X75.576 Y232.263 Z21.500 F2500.000
(End of step 59.)
G0 Z26.500
G0 X7.363 Y236.263
G0 Z25.500
(Begin step 60.)
G0 X7.363 Y236.263
(part 1)
G1 X7.363 Y236.263 Z21.500 F2500.000
G1 X75.637 Y236.263 Z21.500 F2500.000
(End of step 60.)
G0 Z26.500
G0 X7.301 Y240.263
G0 Z25.500
(Begin step 61.)
G0 X7.301 Y240.263
(part 1)
G1 X7.301 Y240.263 Z21.500 F2500.000
G1 X75.699 Y240.263 Z21.500 F2500.000
(End of step 61.)
G0 Z26.500
G0 X9.868 Y244.263
G0 Z25.500
(Begin step 62.)
G0 X9.868 Y244.263
(part 1)
G1 X9.868 Y244.263 Z21.500 F2500.000
G1 X73.132 Y244.263 Z21.500 F2500.000
(End of step 62.)
(End of layer 0)
(Layer 1 begins)
(Layer transition)
G0 Z26.500
G0 X13.568 Y-3.737
(Begin step 0.)
G0 X13.568 Y-3.737
(part 1)
G1 X13.568 Y-3.737 Z19.500 F2500.000
G1 X69.432 Y-3.737 Z19.500 F2500.000
(End of step 0.)
G0 Z26.500
G0 X10.993 Y0.263
G0 Z23.500
(Begin step 1.)
G0 X10.993 Y0.263
(part 1)
G1 X10.993 Y0.263 Z19.500 F2500.000
G1 X72.007 Y0.263 Z19.500 F2500.000
(End of step 1.)
G0 Z26.500
G0 X10.932 Y4.263
G0 Z23.500
(Begin step 2.)
G0 X10.932 Y4.263
(part 1)
G1 X10.932 Y4.263 Z19.500 F2500.000
G1 X72.068 Y4.263 Z19.500 F2500.000
(End of step 2.)
G0 Z26.500
G0 X10.870 Y8.263
G0 Z23.500
(Begin step 3.)
G0 X10.870 Y8.263
(part 1)
G1 X10.870 Y8.263 Z19.500 F2500.000
G1 X72.130 Y8.263 Z19.500 F2500.000
(End of step 3.)
G0 Z26.500
G0 X10.809 Y12.263
G0 Z23.500
(Begin step 4.)
G0 X10.809 Y12.263
(part 1)
G1 X10.809 Y12.263 Z19.500 F2500.000
G1 X72.191 Y12.263 Z19.500 F2500.000
(End of step 4.)
G0 Z26.500
G0 X10.747 Y16.263
G0 Z23.500
(Begin step 5.)
G0 X10.747 Y16.263
(part 1)
G1 X10.747 Y16.263 Z19.500 F2500.000
G1 X72.253 Y16.263 Z19.500 F2500.000
(End of step 5.)
G0 Z26.500
G0 X10.686 Y20.263
G0 Z23.500
(Begin step 6.)
G0 X10.686 Y20.263
(part 1)
G1 X10.686 Y20.263 Z19.500 F2500.000
G1 X72.314 Y20.263 Z19.500 F2500.000
(End of step 6.)
G0 Z26.500
G0 X10.624 Y24.263
G0 Z23.500
(Begin step 7.)
G0 X10.624 Y24.263
(part 1)
G1 X10.624 Y24.263 Z19.500 F2500.000
G1 X72.376 Y24.263 Z19.500 F2500.000
(End of step 7.)
G0 Z26.500
G0 X10.563 Y28.263
G0 Z23.500
(Begin step 8.)
G0 X10.563 Y28.263
(part 1)
G1 X10.563 Y28.263 Z19.500 F2500.000
G1 X72.437 Y28.263 Z19.500 F2500.000
(End of step 8.)
G0 Z26.500
G0 X10.501 Y32.263
G0 Z23.500
(Begin step 9.)
G0 X10.501 Y32.263
(part 1)
G1 X10.501 Y32.263 Z19.500 F2500.000
G1 X72.499 Y32.263 Z19.500 F2500.000
(End of step 9.)
G0 Z26.500
G0 X10.439 Y36.263
G0 Z23.500
(Begin step 10.)
G0 X10.439 Y36.263
(part 1)
G1 X10.439 Y36.263 Z19.500 F2500.000
G1 X72.561 Y36.263 Z19.500 F2500.000
(End of step 10.)
G0 Z26.500
G0 X10.378 Y40.263
G0 Z23.500
(Begin step 11.)
G0 X10.378 Y40.263
(part 1)
G1 X10.378 Y40.263 Z19.500 F2500.000
G1 X72.622 Y40.263 Z19.500 F2500.000
(End of step 11.)
G0 Z26.500
G0 X10.316 Y44.263
G0 Z23.500
(Begin step 12.)
G0 X10.316 Y44.263
(part 1)
G1 X10.316 Y44.263 Z19.500 F2500.000
G1 X72.684 Y44.263 Z19.500 F2500.000
(End of step 12.)
G0 Z26.500
G0 X10.255 Y48.263
G0 Z23.500
(Begin step 13.)
G0 X10.255 Y48.263
(part 1)
G1 X10.255 Y48.263 Z19.500 F2500.000
G1 X72.745 Y48.263 Z19.500 F2500.000
(End of step 13.)
G0 Z26.500
G0 X10.193 Y52.263
G0 Z23.500
(Begin step 14.)
G0 X10.193 Y52.263
(part 1)
G1 X10.193 Y52.263 Z19.500 F2500.000
G1 X72.807 Y52.263 Z19.500 F2500.000
(End of step 14.)
G0 Z26.500
G0 X10.132 Y56.263
G0 Z23.500
(Begin step 15.)
G0 X10.132 Y56.263
(part 1)
G1 X10.132 Y56.263 Z19.500 F2500.000
G1 X72.868 Y56.263 Z19.500 F2500.000
(End of step 15.)
G0 Z26.500
G0 X10.070 Y60.263
G0 Z23.500
(Begin step 16.)
G0 X10.070 Y60.263
(part 1)
G1 X10.070 Y60.263 Z19.500 F2500.000
G1 X72.930 Y60.263 Z19.500 F2500.000
(End of step 16.)
G0 Z26.500
G0 X10.009 Y64.263
G0 Z23.500
(Begin step 17.)
G0 X10.009 Y64.263
(part 1)
G1 X10.009 Y64.263 Z19.500 F2500.000
G1 X72.991 Y64.263 Z19.500 F2500.000
(End of step 17.)
G0 Z26.500
G0 X9.947 Y68.263
G0 Z23.500
(Begin step 18.)
G0 X9.947 Y68.263
(part 1)
G1 X9.947 Y68.263 Z19.500 F2500.000
G1 X73.053 Y68.263 Z19.500 F2500.000
(End of step 18.)
G0 Z26.500
G0 X9.886 Y72.263
G0 Z23.500
(Begin step 19.)
G0 X9.886 Y72.263
(part 1)
G1 X9.886 Y72.263 Z19.500 F2500.000
G1 X73.114 Y72.263 Z19.500 F2500.000
(End of step 19.)
G0 Z26.500
G0 X9.824 Y76.263
G0 Z23.500
(Begin step 20.)
G0 X9.824 Y76.263
(part 1)
G1 X9.824 Y76.263 Z19.500 F2500.000
G1 X73.176 Y76.263 Z19.500 F2500.000
(End of step 20.)
G0 Z26.500
G0 X9.763 Y80.263
G0 Z23.500
(Begin step 21.)
G0 X9.763 Y80.263
(part 1)
G1 X9.763 Y80.263 Z19.500 F2500.000
G1 X73.237 Y80.263 Z19.500 F2500.000
(End of step 21.)
G0 Z26.500
G0 X9.701 Y84.263
G0 Z23.500
(Begin step 22.)
G0 X9.701 Y84.263
(part 1)
G1 X9.701 Y84.263 Z19.500 F2500.000
G1 X73.299 Y84.263 Z19.500 F2500.000
(End of step 22.)
G0 Z26.500
G0 X9.640 Y88.263
G0 Z23.500
(Begin step 23.)
G0 X9.640 Y88.263
(part 1)
G1 X9.640 Y88.263 Z19.500 F2500.000
G1 X73.360 Y88.263 Z19.500 F2500.000
(End of step 23.)
G0 Z26.500
G0 X9.578 Y92.263
G0 Z23.500
(Begin step 24.)
G0 X9.578 Y92.263
(part 1)
G1 X9.578 Y92.263 Z19.500 F2500.000
G1 X73.422 Y92.263 Z19.500 F2500.000
(End of step 24.)
G0 Z26.500
G0 X9.516 Y96.263
G0 Z23.500
(Begin step 25.)
G0 X9.516 Y96.263
(part 1)
G1 X9.516 Y96.263 Z19.500 F2500.000
G1 X73.484 Y96.263 Z19.500 F2500.000
(End of step 25.)
G0 Z26.500
G0 X9.455 Y100.263
G0 Z23.500
(Begin step 26.)
G0 X9.455 Y100.263
(part 1)
G1 X9.455 Y100.263 Z19.500 F2500.000
G1 X73.545 Y100.263 Z19.500 F2500.000
(End of step 26.)
G0 Z26.500
G0 X9.393 Y104.263
G0 Z23.500
(Begin step 27.)
G0 X9.393 Y104.263
(part 1)
G1 X9.393 Y104.263 Z19.500 F2500.000
G1 X73.607 Y104.263 Z19.500 F2500.000
(End of step 27.)
G0 Z26.500
G0 X9.332 Y108.263
G0 Z23.500
(Begin step 28.)
G0 X9.332 Y108.263
(part 1)
G1 X9.332 Y108.263 Z19.500 F2500.000
G1 X73.668 Y108.263 Z19.500 F2500.000
(End of step 28.)
G0 Z26.500
G0 X9.270 Y112.263
G0 Z23.500
(Begin step 29.)
G0 X9.270 Y112.263
(part 1)
G1 X9.270 Y112.263 Z19.500 F2500.000
G1 X73.730 Y112.263 Z19.500 F2500.000
(End of step 29.)
G0 Z26.500
G0 X9.209 Y116.263
G0 Z23.500
(Begin step 30.)
G0 X9.209 Y116.263
(part 1)
G1 X9.209 Y116.263 Z19.500 F2500.000
G1 X73.791 Y116.263 Z19.500 F2500.000
(End of step 30.)
G0 Z26.500
G0 X9.147 Y120.263
G0 Z23.500
(Begin step 31.)
G0 X9.147 Y120.263
(part 1)
G1 X9.147 Y120.263 Z19.500 F2500.000
G1 X73.853 Y120.263 Z19.500 F2500.000
(End of step 31.)
G0 Z26.500
G0 X9.086 Y124.263
G0 Z23.500
(Begin step 32.)
G0 X9.086 Y124.263
(part 1)
G1 X9.086 Y124.263 Z19.500 F2500.000
G1 X73.914 Y124.263 Z19.500 F2500.000
(End of step 32.)
G0 Z26.500
G0 X9.024 Y128.263
G0 Z23.500
(Begin step 33.)
G0 X9.024 Y128.263
(part 1)
G1 X9.024 Y128.263 Z19.500 F2500.000
G1 X73.976 Y128.263 Z19.500 F2500.000
(End of step 33.)
G0 Z26.500
G0 X8.963 Y132.263
G0 Z23.500
(Begin step 34.)
G0 X8.963 Y132.263
(part 1)
G1 X8.963 Y132.263 Z19.500 F2500.000
G1 X74.037 Y132.263 Z19.500 F2500.000
(End of step 34.)
G0 Z26.500
G0 X8.901 Y136.263
G0 Z23.500
(Begin step 35.)
G0 X8.901 Y136.263
(part 1)
G1 X8.901 Y136.263 Z19.500 F2500.000
G1 X74.099 Y136.263 Z19.500 F2500.000
(End of step 35.)
G0 Z26.500
G0 X8.840 Y140.263
G0 Z23.500
(Begin step 36.)
G0 X8.840 Y140.263
(part 1)
G1 X8.840 Y140.263 Z19.500 F2500.000
G1 X74.160 Y140.263 Z19.500 F2500.000
(End of step 36.)
G0 Z26.500
G0 X8.778 Y144.263
G0 Z23.500
(Begin step 37.)
G0 X8.778 Y144.263
(part 1)
G1 X8.778 Y144.263 Z19.500 F2500.000
G1 X74.222 Y144.263 Z19.500 F2500.000
(End of step 37.)
G0 Z26.500
G0 X8.717 Y148.263
G0 Z23.500
(Begin step 38.)
G0 X8.717 Y148.263
(part 1)
G1 X8.717 Y148.263 Z19.500 F2500.000
G1 X74.283 Y148.263 Z19.500 F2500.000
(End of step 38.)
G0 Z26.500
G0 X8.655 Y152.263
G0 Z23.500
(Begin step 39.)
G0 X8.655 Y152.263
(part 1)
G1 X8.655 Y152.263 Z19.500 F2500.000
G1 X74.345 Y152.263 Z19.500 F2500.000
(End of step 39.)
G0 Z26.500
G0 X8.593 Y156.263
G0 Z23.500
(Begin step 40.)
G0 X8.593 Y156.263
(part 1)
G1 X8.593 Y156.263 Z19.500 F2500.000
G1 X74.407 Y156.263 Z19.500 F2500.000
(End of step 40.)
G0 Z26.500
G0 X8.532 Y160.263
G0 Z23.500
(Begin step 41.)
G0 X8.532 Y160.263
(part 1)
G1 X8.532 Y160.263 Z19.500 F2500.000
G1 X74.468 Y160.263 Z19.500 F2500.000
(End of step 41.)
G0 Z26.500
G0 X8.470 Y164.263
G0 Z23.500
(Begin step 42.)
G0 X8.470 Y164.263
(part 1)
G1 X8.470 Y164.263 Z19.500 F2500.000
G1 X74.530 Y164.263 Z19.500 F2500.000
(End of step 42.)
G0 Z26.500
G0 X8.409 Y168.263
G0 Z23.500
(Begin step 43.)
G0 X8.409 Y168.263
(part 1)
G1 X8.409 Y168.263 Z19.500 F2500.000
G1 X74.591 Y168.263 Z19.500 F2500.000
(End of step 43.)
G0 Z26.500
G0 X8.347 Y172.263
G0 Z23.500
(Begin step 44.)
G0 X8.347 Y172.263
(part 1)
G1 X8.347 Y172.263 Z19.500 F2500.000
G1 X74.653 Y172.263 Z19.500 F2500.000
(End of step 44.)
G0 Z26.500
G0 X8.286 Y176.263
G0 Z23.500
(Begin step 45.)
G0 X8.286 Y176.263
(part 1)
G1 X8.286 Y176.263 Z19.500 F2500.000
G1 X74.714 Y176.263 Z19.500 F2500.000
(End of step 45.)
G0 Z26.500
G0 X8.224 Y180.263
G0 Z23.500
(Begin step 46.)
G0 X8.224 Y180.263
(part 1)
G1 X8.224 Y180.263 Z19.500 F2500.000
G1 X74.776 Y180.263 Z19.500 F2500.000
(End of step 46.)
G0 Z26.500
G0 X8.163 Y184.263
G0 Z23.500
(Begin step 47.)
G0 X8.163 Y184.263
(part 1)
G1 X8.163 Y184.263 Z19.500 F2500.000
G1 X74.837 Y184.263 Z19.500 F2500.000
(End of step 47.)
G0 Z26.500
G0 X8.101 Y188.263
G0 Z23.500
(Begin step 48.)
G0 X8.101 Y188.263
(part 1)
G1 X8.101 Y188.263 Z19.500 F2500.000
G1 X74.899 Y188.263 Z19.500 F2500.000
(End of step 48.)
G0 Z26.500
G0 X8.040 Y192.263
G0 Z23.500
(Begin step 49.)
G0 X8.040 Y192.263
(part 1)
G1 X8.040 Y192.263 Z19.500 F2500.000
G1 X74.960 Y192.263 Z19.500 F2500.000
(End of step 49.)
G0 Z26.500
G0 X7.978 Y196.263
G0 Z23.500
(Begin step 50.)
G0 X7.978 Y196.263
(part 1)
G1 X7.978 Y196.263 Z19.500 F2500.000
G1 X75.022 Y196.263 Z19.500 F2500.000
(End of step 50.)
G0 Z26.500
G0 X7.917 Y200.263
G0 Z23.500
(Begin step 51.)
G0 X7.917 Y200.263
(part 1)
G1 X7.917 Y200.263 Z19.500 F2500.000
G1 X75.083 Y200.263 Z19.500 F2500.000
(End of step 51.)
G0 Z26.500
G0 X7.855 Y204.263
G0 Z23.500
(Begin step 52.)
G0 X7.855 Y204.263
(part 1)
G1 X7.855 Y204.263 Z19.500 F2500.000
G1 X75.145 Y204.263 Z19.500 F2500.000
(End of step 52.)
G0 Z26.500
G0 X7.794 Y208.263
G0 Z23.500
(Begin step 53.)
G0 X7.794 Y208.263
(part 1)
G1 X7.794 Y208.263 Z19.500 F2500.000
G1 X75.206 Y208.263 Z19.500 F2500.000
(End of step 53.)
G0 Z26.500
G0 X7.732 Y212.263
G0 Z23.500
(Begin step 54.)
G0 X7.732 Y212.263
(part 1)
G1 X7.732 Y212.263 Z19.500 F2500.000
G1 X75.268 Y212.263 Z19.500 F2500.000
(End of step 54.)
G0 Z26.500
G0 X7.671 Y216.263
G0 Z23.500
(Begin step 55.)
G0 X7.671 Y216.263
(part 1)
G1 X7.671 Y216.263 Z19.500 F2500.000
G1 X75.329 Y216.263 Z19.500 F2500.000
(End of step 55.)
G0 Z26.500
G0 X7.609 Y220.263
G0 Z23.500
(Begin step 56.)
G0 X7.609 Y220.263
(part 1)
G1 X7.609 Y220.263 Z19.500 F2500.000
G1 X75.391 Y220.263 Z19.500 F2500.000
(End of step 56.)
G0 Z26.500
G0 X7.547 Y224.263
G0 Z23.500
(Begin step 57.)
G0 X7.547 Y224.263
(part 1)
G1 X7.547 Y224.263 Z19.500 F2500.000
G1 X75.453 Y224.263 Z19.500 F2500.000
(End of step 57.)
G0 Z26.500
G0 X7.486 Y228.263
G0 Z23.500
(Begin step 58.)
G0 X7.486 Y228.263
(part 1)
G1 X7.486 Y228.263 Z19.500 F2500.000
G1 X75.514 Y228.263 Z19.500 F2500.000
(End of step 58.)
G0 Z26.500
G0 X7.424 Y232.263
G0 Z23.500
(Begin step 59.)
G0 X7.424 Y232.263
(part 1)
G1 X7.424 Y232.263 Z19.500 F2500.000
G1 X75.576 Y232.263 Z19.500 F2500.000
(End of step 59.)
G0 Z26.500
G0 X7.363 Y236.263
G0 Z23.500
(Begin step 60.)
G0 X7.363 Y236.263
(part 1)
G1 X7.363 Y236.263 Z19.500 F2500.000
G1 X75.637 Y236.263 Z19.500 F2500.000
(End of step 60.)
G0 Z26.500
G0 X7.301 Y240.263
G0 Z23.500
(Begin step 61.)
G0 X7.301 Y240.263
(part 1)
G1 X7.301 Y240.263 Z19.500 F2500.000
G1 X75.699 Y240.263 Z19.500 F2500.000
(End of step 61.)
G0 Z26.500
G0 X9.868 Y244.263
G0 Z23.500
(Begin step 62.)
G0 X9.868 Y244.263
(part 1)
G1 X9.868 Y244.263 Z19.500 F2500.000
G1 X73.132 Y244.263 Z19.500 F2500.000
(End of step 62.)
(End of layer 1)
(Layer 2 begins)
(Layer transition)
G0 Z26.500
G0 X13.568 Y-3.737
(Begin step 0.)
G0 X13.568 Y-3.737
(part 1)
G1 X13.568 Y-3.737 Z17.500 F2500.000
G1 X69.432 Y-3.737 Z17.500 F2500.000
(End of step 0.)
G0 Z26.500
G0 X10.993 Y0.263
G0 Z21.500
(Begin step 1.)
G0 X10.993 Y0.263
(part 1)
G1 X10.993 Y0.263 Z17.500 F2500.000
G1 X72.007 Y0.263 Z17.500 F2500.000
(End of step 1.)
G0 Z26.500
G0 X10.932 Y4.263
G0 Z21.500
(Begin step 2.)
G0 X10.932 Y4.263
(part 1)
G1 X10.932 Y4.263 Z17.500 F2500.000
G1 X72.068 Y4.263 Z17.500 F2500.000
(End of step 2.)
G0 Z26.500
G0 X10.870 Y8.263
G0 Z21.500
(Begin step 3.)
G0 X10.870 Y8.263
(part 1)
G1 X10.870 Y8.263 Z17.500 F2500.000
G1 X72.130 Y8.263 Z17.500 F2500.000
(End of step 3.)
G0 Z26.500
G0 X10.809 Y12.263
G0 Z21.500
(Begin step 4.)
G0 X10.809 Y12.263
(part 1)
G1 X10.809 Y12.263 Z17.500 F2500.000
G1 X72.191 Y12.263 Z17.500 F2500.000
(End of step 4.)
G0 Z26.500
G0 X10.747 Y16.263
G0 Z21.500
(Begin step 5.)
G0 X10.747 Y16.263
(part 1)
G1 X10.747 Y16.263 Z17.500 F2500.000
G1 X72.253 Y16.263 Z17.500 F2500.000
(End of step 5.)
G0 Z26.500
G0 X10.686 Y20.263
G0 Z21.500
(Begin step 6.)
G0 X10.686 Y20.263
(part 1)
G1 X10.686 Y20.263 Z17.500 F2500.000
G1 X72.314 Y20.263 Z17.500 F2500.000
(End of step 6.)
G0 Z26.500
G0 X10.624 Y24.263
G0 Z21.500
(Begin step 7.)
G0 X10.624 Y24.263
(part 1)
G1 X10.624 Y24.263 Z17.500 F2500.000
G1 X72.376 Y24.263 Z17.500 F2500.000
(End of step 7.)
G0 Z26.500
G0 X10.563 Y28.263
G0 Z21.500
(Begin step 8.)
G0 X10.563 Y28.263
(part 1)
G1 X10.563 Y28.263 Z17.500 F2500.000
G1 X72.437 Y28.263 Z17.500 F2500.000
(End of step 8.)
G0 Z26.500
G0 X10.501 Y32.263
G0 Z21.500
(Begin step 9.)
G0 X10.501 Y32.263
(part 1)
G1 X10.501 Y32.263 Z17.500 F2500.000
G1 X72.499 Y32.263 Z17.500 F2500.000
(End of step 9.)
G0 Z26.500
G0 X10.439 Y36.263
G0 Z21.500
(Begin step 10.)
G0 X10.439 Y36.263
(part 1)
G1 X10.439 Y36.263 Z17.500 F2500.000
G1 X72.561 Y36.263 Z17.500 F2500.000
(End of step 10.)
G0 Z26.500
G0 X10.378 Y40.263
G0 Z21.500
(Begin step 11.)
G0 X10.378 Y40.263
(part 1)
G1 X10.378 Y40.263 Z17.500 F2500.000
G1 X72.622 Y40.263 Z17.500 F2500.000
(End of step 11.)
G0 Z26.500
G0 X10.316 Y44.263
G0 Z21.500
(Begin step 12.)
G0 X10.316 Y44.263
(part 1)
G1 X10.316 Y44.263 Z17.500 F2500.000
G1 X72.684 Y44.263 Z17.500 F2500.000
(End of step 12.)
G0 Z26.500
G0 X10.255 Y48.263
G0 Z21.500
(Begin step 13.)
G0 X10.255 Y48.263
(part 1)
G1 X10.255 Y48.263 Z17.500 F2500.000
G1 X72.745 Y48.263 Z17.500 F2500.000
(End of step 13.)
G0 Z26.500
G0 X10.193 Y52.263
G0 Z21.500
(Begin step 14.)
G0 X10.193 Y52.263
(part 1)
G1 X10.193 Y52.263 Z17.500 F2500.000
G1 X72.807 Y52.263 Z17.500 F2500.000
(End of step 14.)
G0 Z26.500
G0 X10.132 Y56.263
G0 Z21.500
(Begin step 15.)
G0 X10.132 Y56.263
(part 1)
G1 X10.132 Y56.263 Z17.500 F2500.000
G1 X72.868 Y56.263 Z17.500 F2500.000
(End of step 15.)
G0 Z26.500
G0 X10.070 Y60.263
G0 Z21.500
(Begin step 16.)
G0 X10.070 Y60.263
(part 1)
G1 X10.070 Y60.263 Z17.500 F2500.000
G1 X72.930 Y60.263 Z17.500 F2500.000
(End of step 16.)
G0 Z26.500
G0 X10.009 Y64.263
G0 Z21.500
(Begin step 17.)
G0 X10.009 Y64.263
(part 1)
G1 X10.009 Y64.263 Z17.500 F2500.000
G1 X72.991 Y64.263 Z17.500 F2500.000
(End of step 17.)
G0 Z26.500
G0 X9.947 Y68.263
G0 Z21.500
(Begin step 18.)
G0 X9.947 Y68.263
(part 1)
G1 X9.947 Y68.263 Z17.500 F2500.000
G1 X73.053 Y68.263 Z17.500 F2500.000
(End of step 18.)
G0 Z26.500
G0 X9.886 Y72.263
G0 Z21.500
(Begin step 19.)
G0 X9.886 Y72.263
(part 1)
G1 X9.886 Y72.263 Z17.500 F2500.000
G1 X73.114 Y72.263 Z17.500 F2500.000
(End of step 19.)
G0 Z26.500
G0 X9.824 Y76.263
G0 Z21.500
(Begin step 20.)
G0 X9.824 Y76.263
(part 1)
G1 X9.824 Y76.263 Z17.500 F2500.000
G1 X73.176 Y76.263 Z17.500 F2500.000
(End of step 20.)
G0 Z26.500
G0 X9.763 Y80.263
G0 Z21.500
(Begin step 21.)
G0 X9.763 Y80.263
(part 1)
G1 X9.763 Y80.263 Z17.500 F2500.000
G1 X73.237 Y80.263 Z17.500 F2500.000
(End of step 21.)
G0 Z26.500
G0 X9.701 Y84.263
G0 Z21.500
(Begin step 22.)
G0 X9.701 Y84.263
(part 1)
G1 X9.701 Y84.263 Z17.500 F2500.000
G1 X73.299 Y84.263 Z17.500 F2500.000
(End of step 22.)
G0 Z26.500
G0 X9.640 Y88.263
G0 Z21.500
(Begin step 23.)
G0 X9.640 Y88.263
(part 1)
G1 X9.640 Y88.263 Z17.500 F2500.000
G1 X73.360 Y88.263 Z17.500 F2500.000
(End of step 23.)
G0 Z26.500
G0 X9.578 Y92.263
G0 Z21.500
(Begin step 24.)
G0 X9.578 Y92.263
(part 1)
G1 X9.578 Y92.263 Z17.500 F2500.000
G1 X73.422 Y92.263 Z17.500 F2500.000
(End of step 24.)
G0 Z26.500
G0 X9.516 Y96.263
G0 Z21.500
(Begin step 25.)
G0 X9.516 Y96.263
(part 1)
G1 X9.516 Y96.263 Z17.500 F2500.000
G1 X73.484 Y96.263 Z17.500 F2500.000
(End of step 25.)
G0 Z26.500
G0 X9.455 Y100.263
G0 Z21.500
(Begin step 26.)
G0 X9.455 Y100.263
(part 1)
G1 X9.455 Y100.263 Z17.500 F2500.000
G1 X73.545 Y100.263 Z17.500 F2500.000
(End of step 26.)
G0 Z26.500
G0 X9.393 Y104.263
G0 Z21.500
(Begin step 27.)
G0 X9.393 Y104.263
(part 1)
G1 X9.393 Y104.263 Z17.500 F2500.000
G1 X73.607 Y104.263 Z17.500 F2500.000
(End of step 27.)
G0 Z26.500
G0 X9.332 Y108.263
G0 Z21.500
(Begin step 28.)
G0 X9.332 Y108.263
(part 1)
G1 X9.332 Y108.263 Z17.500 F2500.000
G1 X73.668 Y108.263 Z17.500 F2500.000
(End of step 28.)
G0 Z26.500
G0 X9.270 Y112.263
G0 Z21.500
(Begin step 29.)
G0 X9.270 Y112.263
(part 1)
G1 X9.270 Y112.263 Z17.500 F2500.000
G1 X73.730 Y112.263 Z17.500 F2500.000
(End of step 29.)
G0 Z26.500
G0 X9.209 Y116.263
G0 Z21.500
(Begin step 30.)
G0 X9.209 Y116.263
(part 1)
G1 X9.209 Y116.263 Z17.500 F2500.000
G1 X73.791 Y116.263 Z17.500 F2500.000
(End of step 30.)
G0 Z26.500
G0 X9.147 Y120.263
G0 Z21.500
(Begin step 31.)
G0 X9.147 Y120.263
(part 1)
G1 X9.147 Y120.263 Z17.500 F2500.000
G1 X73.853 Y120.263 Z17.500 F2500.000
(End of step 31.)
G0 Z26.500
G0 X9.086 Y124.263
G0 Z21.500
(Begin step 32.)
G0 X9.086 Y124.263
(part 1)
G1 X9.086 Y124.263 Z17.500 F2500.000
G1 X73.914 Y124.263 Z17.500 F2500.000
(End of step 32.)
G0 Z26.500
G0 X9.024 Y128.263
G0 Z21.500
(Begin step 33.)
G0 X9.024 Y128.263
(part 1)
G1 X9.024 Y128.263 Z17.500 F2500.000
G1 X73.976 Y128.263 Z17.500 F2500.000
(End of step 33.)
G0 Z26.500
G0 X8.963 Y132.263
G0 Z21.500
(Begin step 34.)
G0 X8.963 Y132.263
(part 1)
G1 X8.963 Y132.263 Z17.500 F2500.000
G1 X74.037 Y132.263 Z17.500 F2500.000
(End of step 34.)
G0 Z26.500
G0 X8.901 Y136.263
G0 Z21.500
(Begin step 35.)
G0 X8.901 Y136.263
(part 1)
G1 X8.901 Y136.263 Z17.500 F2500.000
G1 X74.099 Y136.263 Z17.500 F2500.000
(End of step 35.)
G0 Z26.500
G0 X8.840 Y140.263
G0 Z21.500
(Begin step 36.)
G0 X8.840 Y140.263
(part 1)
G1 X8.840 Y140.263 Z17.500 F2500.000
G1 X74.160 Y140.263 Z17.500 F2500.000
(End of step 36.)
G0 Z26.500
G0 X8.778 Y144.263
G0 Z21.500
(Begin step 37.)
G0 X8.778 Y144.263
(part 1)
G1 X8.778 Y144.263 Z17.500 F2500.000
G1 X74.222 Y144.263 Z17.500 F2500.000
(End of step 37.)
G0 Z26.500
G0 X8.717 Y148.263
G0 Z21.500
(Begin step 38.)
G0 X8.717 Y148.263
(part 1)
G1 X8.717 Y148.263 Z17.500 F2500.000
G1 X74.283 Y148.263 Z17.500 F2500.000
(End of step 38.)
G0 Z26.500
G0 X8.655 Y152.263
G0 Z21.500
(Begin step 39.)
G0 X8.655 Y152.263
(part 1)
G1 X8.655 Y152.263 Z17.500 F2500.000
G1 X74.345 Y152.263 Z17.500 F2500.000
(End of step 39.)
G0 Z26.500
G0 X8.593 Y156.263
G0 Z21.500
(Begin step 40.)
G0 X8.593 Y156.263
(part 1)
G1 X8.593 Y156.263 Z17.500 F2500.000
G1 X74.407 Y156.263 Z17.500 F2500.000
(End of step 40.)
G0 Z26.500
G0 X8.532 Y160.263
G0 Z21.500
(Begin step 41.)
G0 X8.532 Y160.263
(part 1)
G1 X8.532 Y160.263 Z17.500 F2500.000
G1 X74.468 Y160.263 Z17.500 F2500.000
(End of step 41.)
G0 Z26.500
G0 X8.470 Y164.263
G0 Z21.500
(Begin step 42.)
G0 X8.470 Y164.263
(part 1)
G1 X8.470 Y164.263 Z17.500 F2500.000
G1 X74.530 Y164.263 Z17.500 F2500.000
(End of step 42.)
G0 Z26.500
G0 X8.409 Y168.263
G0 Z21.500
(Begin step 43.)
G0 X8.409 Y168.263
(part 1)
G1 X8.409 Y168.263 Z17.500 F2500.000
G1 X74.591 Y168.263 Z17.500 F2500.000
(End of step 43.)
G0 Z26.500
G0 X8.347 Y172.263
G0 Z21.500
(Begin step 44.)
G0 X8.347 Y172.263
(part 1)
G1 X8.347 Y172.263 Z17.500 F2500.000
G1 X74.653 Y172.263 Z17.500 F2500.000
(End of step 44.)
G0 Z26.500
G0 X8.286 Y176.263
G0 Z21.500
(Begin step 45.)
G0 X8.286 Y176.263
(part 1)
G1 X8.286 Y176.263 Z17.500 F2500.000
G1 X74.714 Y176.263 Z17.500 F2500.000
(End of step 45.)
G0 Z26.500
G0 X8.224 Y180.263
G0 Z21.500
(Begin step 46.)
G0 X8.224 Y180.263
(part 1)
G1 X8.224 Y180.263 Z17.500 F2500.000
G1 X74.776 Y180.263 Z17.500 F2500.000
(End of step 46.)
G0 Z26.500
G0 X8.163 Y184.263
G0 Z21.500
(Begin step 47.)
G0 X8.163 Y184.263
(part 1)
G1 X8.163 Y184.263 Z17.500 F2500.000
G1 X74.837 Y184.263 Z17.500 F2500.000
(End of step 47.)
G0 Z26.500
G0 X8.101 Y188.263
G0 Z21.500
(Begin step 48.)
G0 X8.101 Y188.263
(part 1)
G1 X8.101 Y188.263 Z17.500 F2500.000
G1 X74.899 Y188.263 Z17.500 F2500.000
(End of step 48.)
G0 Z26.500
G0 X8.040 Y192.263
G0 Z21.500
(Begin step 49.)
G0 X8.040 Y192.263
(part 1)
G1 X8.040 Y192.263 Z17.500 F2500.000
G1 X74.960 Y192.263 Z17.500 F2500.000
(End of step 49.)
G0 Z26.500
G0 X7.978 Y196.263
G0 Z21.500
(Begin step 50.)
G0 X7.978 Y196.263
(part 1)
G1 X7.978 Y196.263 Z17.500 F2500.000
G1 X75.022 Y196.263 Z17.500 F2500.000
(End of step 50.)
G0 Z26.500
G0 X7.917 Y200.263
G0 Z21.500
(Begin step 51.)
G0 X7.917 Y200.263
(part 1)
G1 X7.917 Y200.263 Z17.500 F2500.000
G1 X75.083 Y200.263 Z17.500 F2500.000
(End of step 51.)
G0 Z26.500
G0 X7.855 Y204.263
G0 Z21.500
(Begin step 52.)
G0 X7.855 Y204.263
(part 1)
G1 X7.855 Y204.263 Z17.500 F2500.000
G1 X75.145 Y204.263 Z17.500 F2500.000
(End of step 52.)
G0 Z26.500
G0 X7.794 Y208.263
G0 Z21.500
(Begin step 53.)
G0 X7.794 Y208.263
(part 1)
G1 X7.794 Y208.263 Z17.500 F2500.000
G1 X75.206 Y208.263 Z17.500 F2500.000
(End of step 53.)
G0 Z26.500
G0 X7.732 Y212.263
G0 Z21.500
(Begin step 54.)
G0 X7.732 Y212.263
(part 1)
G1 X7.732 Y212.263 Z17.500 F2500.000
G1 X75.268 Y212.263 Z17.500 F2500.000
(End of step 54.)
G0 Z26.500
G0 X7.671 Y216.263
G0 Z21.500
(Begin step 55.)
G0 X7.671 Y216.263
(part 1)
G1 X7.671 Y216.263 Z17.500 F2500.000
G1 X75.329 Y216.263 Z17.500 F2500.000
(End of step 55.)
G0 Z26.500
G0 X7.609 Y220.263
G0 Z21.500
(Begin step 56.)
G0 X7.609 Y220.263
(part 1)
G1 X7.609 Y220.263 Z17.500 F2500.000
G1 X75.391 Y220.263 Z17.500 F2500.000
(End of step 56.)
G0 Z26.500
G0 X7.547 Y224.263
G0 Z21.500
(Begin step 57.)
G0 X7.547 Y224.263
(part 1)
G1 X7.547 Y224.263 Z17.500 F2500.000
G1 X75.453 Y224.263 Z17.500 F2500.000
(End of step 57.)
G0 Z26.500
G0 X7.486 Y228.263
G0 Z21.500
(Begin step 58.)
G0 X7.486 Y228.263
(part 1)
G1 X7.486 Y228.263 Z17.500 F2500.000
G1 X75.514 Y228.263 Z17.500 F2500.000
(End of step 58.)
G0 Z26.500
G0 X7.424 Y232.263
G0 Z21.500
(Begin step 59.)
G0 X7.424 Y232.263
(part 1)
G1 X7.424 Y232.263 Z17.500 F2500.000
G1 X75.576 Y232.263 Z17.500 F2500.000
(End of step 59.)
G0 Z26.500
G0 X7.363 Y236.263
G0 Z21.500
(Begin step 60.)
G0 X7.363 Y236.263
(part 1)
G1 X7.363 Y236.263 Z17.500 F2500.000
G1 X75.637 Y236.263 Z17.500 F2500.000
(End of step 60.)
G0 Z26.500
G0 X7.301 Y240.263
G0 Z21.500
(Begin step 61.)
G0 X7.301 Y240.263
(part 1)
G1 X7.301 Y240.263 Z17.500 F2500.000
G1 X75.699 Y240.263 Z17.500 F2500.000
(End of step 61.)
G0 Z26.500
G0 X9.868 Y244.263
G0 Z21.500
(Begin step 62.)
G0 X9.868 Y244.263
(part 1)
G1 X9.868 Y244.263 Z17.500 F2500.000
G1 X73.132 Y244.263 Z17.500 F2500.000
(End of step 62.)
(End of layer 2)
(Layer 3 begins)
(Layer transition)
G0 Z26.500
G0 X13.568 Y-3.737
(Begin step 0.)
G0 X13.568 Y-3.737
(part 1)
G1 X13.568 Y-3.737 Z15.500 F2500.000
G1 X69.432 Y-3.737 Z15.500 F2500.000
(End of step 0.)
G0 Z26.500
G0 X10.993 Y0.263
G0 Z19.500
(Begin step 1.)
G0 X10.993 Y0.263
(part 1)
G1 X10.993 Y0.263 Z15.500 F2500.000
G1 X72.007 Y0.263 Z15.500 F2500.000
(End of step 1.)
G0 Z26.500
G0 X10.932 Y4.263
G0 Z19.500
(Begin step 2.)
G0 X10.932 Y4.263
(part 1)
G1 X10.932 Y4.263 Z15.500 F2500.000
G1 X72.068 Y4.263 Z15.500 F2500.000
(End of step 2.)
G0 Z26.500
G0 X10.870 Y8.263
G0 Z19.500
(Begin step 3.)
G0 X10.870 Y8.263
(part 1)
G1 X10.870 Y8.263 Z15.500 F2500.000
G1 X72.130 Y8.263 Z15.500 F2500.000
(End of step 3.)
G0 Z26.500
G0 X10.809 Y12.263
G0 Z19.500
(Begin step 4.)
G0 X10.809 Y12.263
(part 1)
G1 X10.809 Y12.263 Z15.500 F2500.000
G1 X72.191 Y12.263 Z15.500 F2500.000
(End of step 4.)
G0 Z26.500
G0 X10.747 Y16.263
G0 Z19.500
(Begin step 5.)
G0 X10.747 Y16.263
(part 1)
G1 X10.747 Y16.263 Z15.500 F2500.000
G1 X72.253 Y16.263 Z15.500 F2500.000
(End of step 5.)
G0 Z26.500
G0 X10.686 Y20.263
G0 Z19.500
(Begin step 6.)
G0 X10.686 Y20.263
(part 1)
G1 X10.686 Y20.263 Z15.500 F2500.000
G1 X72.314 Y20.263 Z15.500 F2500.000
(End of step 6.)
G0 Z26.500
G0 X10.624 Y24.263
G0 Z19.500
(Begin step 7.)
G0 X10.624 Y24.263
(part 1)
G1 X10.624 Y24.263 Z15.500 F2500.000
G1 X72.376 Y24.263 Z15.500 F2500.000
(End of step 7.)
G0 Z26.500
G0 X10.563 Y28.263
G0 Z19.500
(Begin step 8.)
G0 X10.563 Y28.263
(part 1)
G1 X10.563 Y28.263 Z15.500 F2500.000
G1 X72.437 Y28.263 Z15.500 F2500.000
(End of step 8.)
G0 Z26.500
G0 X10.501 Y32.263
G0 Z19.500
(Begin step 9.)
G0 X10.501 Y32.263
(part 1)
G1 X10.501 Y32.263 Z15.500 F2500.000
G1 X72.499 Y32.263 Z15.500 F2500.000
(End of step 9.)
G0 Z26.500
G0 X10.439 Y36.263
G0 Z19.500
(Begin step 10.)
G0 X10.439 Y36.263
(part 1)
G1 X10.439 Y36.263 Z15.500 F2500.000
G1 X72.561 Y36.263 Z15.500 F2500.000
(End of step 10.)
G0 Z26.500
G0 X10.378 Y40.263
G0 Z19.500
(Begin step 11.)
G0 X10.378 Y40.263
(part 1)
G1 X10.378 Y40.263 Z15.500 F2500.000
G1 X72.622 Y40.263 Z15.500 F2500.000
(End of step 11.)
G0 Z26.500
G0 X10.316 Y44.263
G0 Z19.500
(Begin step 12.)
G0 X10.316 Y44.263
(part 1)
G1 X10.316 Y44.263 Z15.500 F2500.000
G1 X72.684 Y44.263 Z15.500 F2500.000
(End of step 12.)
G0 Z26.500
G0 X10.255 Y48.263
G0 Z19.500
(Begin step 13.)
G0 X10.255 Y48.263
(part 1)
G1 X10.255 Y48.263 Z15.500 F2500.000
G1 X72.745 Y48.263 Z15.500 F2500.000
(End of step 13.)
G0 Z26.500
G0 X10.193 Y52.263
G0 Z19.500
(Begin step 14.)
G0 X10.193 Y52.263
(part 1)
G1 X10.193 Y52.263 Z15.500 F2500.000
G1 X72.807 Y52.263 Z15.500 F2500.000
(End of step 14.)
G0 Z26.500
G0 X10.132 Y56.263
G0 Z19.500
(Begin step 15.)
G0 X10.132 Y56.263
(part 1)
G1 X10.132 Y56.263 Z15.500 F2500.000
G1 X72.868 Y56.263 Z15.500 F2500.000
(End of step 15.)
G0 Z26.500
G0 X10.070 Y60.263
G0 Z19.500
(Begin step 16.)
G0 X10.070 Y60.263
(part 1)
G1 X10.070 Y60.263 Z15.500 F2500.000
G1 X72.930 Y60.263 Z15.500 F2500.000
(End of step 16.)
G0 Z26.500
G0 X10.009 Y64.263
G0 Z19.500
(Begin step 17.)
G0 X10.009 Y64.263
(part 1)
G1 X10.009 Y64.263 Z15.500 F2500.000
G1 X72.991 Y64.263 Z15.500 F2500.000
(End of step 17.)
G0 Z26.500
G0 X9.947 Y68.263
G0 Z19.500
(Begin step 18.)
G0 X9.947 Y68.263
(part 1)
G1 X9.947 Y68.263 Z15.500 F2500.000
G1 X73.053 Y68.263 Z15.500 F2500.000
(End of step 18.)
G0 Z26.500
G0 X9.886 Y72.263
G0 Z19.500
(Begin step 19.)
G0 X9.886 Y72.263
(part 1)
G1 X9.886 Y72.263 Z15.500 F2500.000
G1 X73.114 Y72.263 Z15.500 F2500.000
(End of step 19.)
G0 Z26.500
G0 X9.824 Y76.263
G0 Z19.500
(Begin step 20.)
G0 X9.824 Y76.263
(part 1)
G1 X9.824 Y76.263 Z15.500 F2500.000
G1 X73.176 Y76.263 Z15.500 F2500.000
(End of step 20.)
G0 Z26.500
G0 X9.763 Y80.263
G0 Z19.500
(Begin step 21.)
G0 X9.763 Y80.263
(part 1)
G1 X9.763 Y80.263 Z15.500 F2500.000
G1 X73.237 Y80.263 Z15.500 F2500.000
(End of step 21.)
G0 Z26.500
G0 X9.701 Y84.263
G0 Z19.500
(Begin step 22.)
G0 X9.701 Y84.263
(part 1)
G1 X9.701 Y84.263 Z15.500 F2500.000
G1 X36.531 Y84.263 Z15.500 F2500.000
G1 X38.519 Y84.263 Z15.523 F2500.000
G1 X39.513 Y84.263 Z15.530 F2500.000
G1 X41.500 Y84.263 Z15.534 F2500.000
G1 X43.487 Y84.263 Z15.530 F2500.000
G1 X44.481 Y84.263 Z15.524 F2500.000
G1 X46.469 Y84.263 Z15.500 F2500.000
G1 X73.299 Y84.263 Z15.500 F2500.000
(End of step 22.)
G0 Z26.500
G0 X9.640 Y88.263
G0 Z19.500
(Begin step 23.)
G0 X9.640 Y88.263
(part 1)
G1 X9.640 Y88.263 Z15.500 F2500.000
G1 X35.526 Y88.263 Z15.500 F2500.000
G1 X37.517 Y88.263 Z15.546 F2500.000
G1 X39.509 Y88.263 Z15.563 F2500.000
G1 X41.500 Y88.263 Z15.567 F2500.000
G1 X43.491 Y88.263 Z15.563 F2500.000
G1 X45.483 Y88.263 Z15.546 F2500.000
G1 X47.474 Y88.263 Z15.500 F2500.000
G1 X73.360 Y88.263 Z15.500 F2500.000
(End of step 23.)
G0 Z26.500
G0 X9.578 Y92.263
G0 Z19.500
(Begin step 24.)
G0 X9.578 Y92.263
(part 1)
G1 X9.578 Y92.263 Z15.500 F2500.000
G1 X34.517 Y92.263 Z15.500 F2500.000
G1 X35.515 Y92.263 Z15.507 F2500.000
G1 X36.512 Y92.263 Z15.556 F2500.000
G1 X37.510 Y92.263 Z15.579 F2500.000
G1 X38.507 Y92.263 Z15.590 F2500.000
G1 X39.505 Y92.263 Z15.596 F2500.000
G1 X41.500 Y92.263 Z15.600 F2500.000
G1 X43.495 Y92.263 Z15.596 F2500.000
G1 X44.493 Y92.263 Z15.590 F2500.000
G1 X45.490 Y92.263 Z15.579 F2500.000
G1 X46.488 Y92.263 Z15.555 F2500.000
G1 X47.485 Y92.263 Z15.507 F2500.000
G1 X48.483 Y92.263 Z15.500 F2500.000
G1 X73.422 Y92.263 Z15.500 F2500.000
(End of step 24.)
G0 Z26.500
G0 X9.516 Y96.263
G0 Z19.500
(Begin step 25.)
G0 X9.516 Y96.263
(part 1)
G1 X9.516 Y96.263 Z15.500 F2500.000
G1 X34.504 Y96.263 Z15.500 F2500.000
G1 X35.503 Y96.263 Z15.539 F2500.000
G1 X36.503 Y96.263 Z15.588 F2500.000
G1 X37.502 Y96.263 Z15.612 F2500.000
G1 X39.501 Y96.263 Z15.629 F2500.000
G1 X41.500 Y96.263 Z15.634 F2500.000
G1 X43.499 Y96.263 Z15.629 F2500.000
G1 X45.498 Y96.263 Z15.612 F2500.000
G1 X46.497 Y96.263 Z15.589 F2500.000
G1 X47.497 Y96.263 Z15.539 F2500.000
G1 X48.496 Y96.263 Z15.500 F2500.000
G1 X73.484 Y96.263 Z15.500 F2500.000
(End of step 25.)
G0 Z26.500
G0 X9.455 Y100.263
G0 Z19.500
(Begin step 26.)
G0 X9.455 Y100.263
(part 1)
G1 X9.455 Y100.263 Z15.500 F2500.000
G1 X34.105 Y100.263 Z15.500 F2500.000
G1 X35.091 Y100.263 Z15.544 F2500.000
G1 X36.077 Y100.263 Z15.604 F2500.000
G1 X37.063 Y100.263 Z15.638 F2500.000
G1 X38.049 Y100.263 Z15.653 F2500.000
G1 X39.035 Y100.263 Z15.660 F2500.000
G1 X41.993 Y100.263 Z15.667 F2500.000
G1 X43.965 Y100.263 Z15.660 F2500.000
G1 X44.951 Y100.263 Z15.652 F2500.000
G1 X45.937 Y100.263 Z15.638 F2500.000
G1 X46.923 Y100.263 Z15.605 F2500.000
G1 X47.909 Y100.263 Z15.545 F2500.000
G1 X48.895 Y100.263 Z15.500 F2500.000
G1 X73.545 Y100.263 Z15.500 F2500.000
(End of step 26.)
G0 Z26.500
G0 X9.393 Y104.263
G0 Z19.500
(Begin step 27.)
G0 X9.393 Y104.263
(part 1)
G1 X9.393 Y104.263 Z15.500 F2500.000
G1 X34.091 Y104.263 Z15.500 F2500.000
G1 X35.079 Y104.263 Z15.577 F2500.000
G1 X36.067 Y104.263 Z15.638 F2500.000
G1 X37.054 Y104.263 Z15.670 F2500.000
G1 X38.042 Y104.263 Z15.686 F2500.000
G1 X39.030 Y104.263 Z15.693 F2500.000
G1 X41.006 Y104.263 Z15.700 F2500.000
G1 X43.970 Y104.263 Z15.693 F2500.000
G1 X44.958 Y104.263 Z15.685 F2500.000
G1 X45.946 Y104.263 Z15.671 F2500.000
G1 X46.933 Y104.263 Z15.638 F2500.000
G1 X47.921 Y104.263 Z15.578 F2500.000
G1 X48.909 Y104.263 Z15.500 F2500.000
G1 X73.607 Y104.263 Z15.500 F2500.000
(End of step 27.)
G0 Z26.500
G0 X9.332 Y108.263
G0 Z19.500
(Begin step 28.)
G0 X9.332 Y108.263
(part 1)
G1 X9.332 Y108.263 Z15.500 F2500.000
G1 X33.087 Y108.263 Z15.500 F2500.000
G1 X34.077 Y108.263 Z15.521 F2500.000
G1 X35.066 Y108.263 Z15.611 F2500.000
G1 X36.056 Y108.263 Z15.671 F2500.000
G1 X37.046 Y108.263 Z15.704 F2500.000
G1 X38.036 Y108.263 Z15.718 F2500.000
G1 X39.026 Y108.263 Z15.727 F2500.000
G1 X41.005 Y108.263 Z15.733 F2500.000
G1 X43.974 Y108.263 Z15.726 F2500.000
G1 X44.964 Y108.263 Z15.719 F2500.000
G1 X45.954 Y108.263 Z15.704 F2500.000
G1 X46.944 Y108.263 Z15.671 F2500.000
G1 X47.934 Y108.263 Z15.611 F2500.000
G1 X48.923 Y108.263 Z15.521 F2500.000
G1 X49.913 Y108.263 Z15.500 F2500.000
G1 X73.668 Y108.263 Z15.500 F2500.000
(End of step 28.)
G0 Z26.500
G0 X9.270 Y112.263
G0 Z19.500
(Begin step 29.)
G0 X9.270 Y112.263
(part 1)
G1 X9.270 Y112.263 Z15.500 F2500.000
G1 X33.071 Y112.263 Z15.500 F2500.000
G1 X34.062 Y112.263 Z15.554 F2500.000
G1 X35.054 Y112.263 Z15.643 F2500.000
G1 X36.046 Y112.263 Z15.704 F2500.000
G1 X37.037 Y112.263 Z15.737 F2500.000
G1 X38.029 Y112.263 Z15.751 F2500.000
G1 X39.021 Y112.263 Z15.760 F2500.000
G1 X41.004 Y112.263 Z15.766 F2500.000
G1 X42.988 Y112.263 Z15.764 F2500.000
G1 X43.979 Y112.263 Z15.759 F2500.000
G1 X45.963 Y112.263 Z15.737 F2500.000
G1 X46.954 Y112.263 Z15.704 F2500.000
G1 X47.946 Y112.263 Z15.643 F2500.000
G1 X48.938 Y112.263 Z15.555 F2500.000
G1 X49.929 Y112.263 Z15.500 F2500.000
G1 X73.730 Y112.263 Z15.500 F2500.000
(End of step 29.)
G0 Z26.500
G0 X9.209 Y116.263
G0 Z19.500
(Begin step 30.)
G0 X9.209 Y116.263
(part 1)
G1 X9.209 Y116.263 Z15.500 F2500.000
G1 X33.055 Y116.263 Z15.500 F2500.000
G1 X35.042 Y116.263 Z15.677 F2500.000
G1 X36.035 Y116.263 Z15.736 F2500.000
G1 X37.029 Y116.263 Z15.770 F2500.000
G1 X38.022 Y116.263 Z15.785 F2500.000
G1 X39.016 Y116.263 Z15.793 F2500.000
G1 X41.003 Y116.263 Z15.800 F2500.000
G1 X42.990 Y116.263 Z15.797 F2500.000
G1 X44.978 Y116.263 Z15.785 F2500.000
G1 X45.971 Y116.263 Z15.769 F2500.000
G1 X46.965 Y116.263 Z15.737 F2500.000
G1 X47.958 Y116.263 Z15.677 F2500.000
G1 X49.945 Y116.263 Z15.500 F2500.000
G1 X73.791 Y116.263 Z15.500 F2500.000
(End of step 30.)
G0 Z26.500
G0 X9.147 Y120.263
G0 Z19.500
(Begin step 31.)
G0 X9.147 Y120.263
(part 1)
G1 X9.147 Y120.263 Z15.500 F2500.000
G1 X32.043 Y120.263 Z15.500 F2500.000
G1 X33.039 Y120.263 Z15.503 F2500.000
G1 X34.034 Y120.263 Z15.621 F2500.000
G1 X35.029 Y120.263 Z15.710 F2500.000
G1 X36.025 Y120.263 Z15.770 F2500.000
G1 X37.020 Y120.263 Z15.803 F2500.000
G1 X38.016 Y120.263 Z15.818 F2500.000
G1 X39.011 Y120.263 Z15.826 F2500.000
G1 X41.002 Y120.263 Z15.833 F2500.000
G1 X42.993 Y120.263 Z15.831 F2500.000
G1 X44.984 Y120.263 Z15.818 F2500.000
G1 X45.980 Y120.263 Z15.803 F2500.000
G1 X46.975 Y120.263 Z15.770 F2500.000
G1 X47.971 Y120.263 Z15.710 F2500.000
G1 X48.966 Y120.263 Z15.621 F2500.000
G1 X49.961 Y120.263 Z15.503 F2500.000
G1 X50.957 Y120.263 Z15.500 F2500.000
G1 X73.853 Y120.263 Z15.500 F2500.000
(End of step 31.)
G0 Z26.500
G0 X9.086 Y124.263
G0 Z19.500
(Begin step 32.)
G0 X9.086 Y124.263
(part 1)
G1 X9.086 Y124.263 Z15.500 F2500.000
G1 X32.025 Y124.263 Z15.500 F2500.000
G1 X33.022 Y124.263 Z15.536 F2500.000
G1 X34.020 Y124.263 Z15.653 F2500.000
G1 X35.017 Y124.263 Z15.743 F2500.000
G1 X36.015 Y124.263 Z15.803 F2500.000
G1 X37.012 Y124.263 Z15.837 F2500.000
G1 X38.009 Y124.263 Z15.852 F2500.000
G1 X39.007 Y124.263 Z15.860 F2500.000
G1 X41.001 Y124.263 Z15.866 F2500.000
G1 X42.996 Y124.263 Z15.864 F2500.000
G1 X44.991 Y124.263 Z15.852 F2500.000
G1 X45.988 Y124.263 Z15.836 F2500.000
G1 X46.985 Y124.263 Z15.803 F2500.000
G1 X47.983 Y124.263 Z15.743 F2500.000
G1 X48.980 Y124.263 Z15.653 F2500.000
G1 X49.978 Y124.263 Z15.535 F2500.000
G1 X50.975 Y124.263 Z15.500 F2500.000
G1 X73.914 Y124.263 Z15.500 F2500.000
(End of step 32.)
G0 Z26.500
G0 X9.024 Y128.263
G0 Z19.500
(Begin step 33.)
G0 X9.024 Y128.263
(part 1)
G1 X9.024 Y128.263 Z15.500 F2500.000
G1 X32.007 Y128.263 Z15.500 F2500.000
G1 X33.006 Y128.263 Z15.570 F2500.000
G1 X34.006 Y128.263 Z15.688 F2500.000
G1 X35.005 Y128.263 Z15.775 F2500.000
G1 X36.004 Y128.263 Z15.836 F2500.000
G1 X37.003 Y128.263 Z15.870 F2500.000
G1 X38.003 Y128.263 Z15.884 F2500.000
G1 X39.002 Y128.263 Z15.893 F2500.000
G1 X41.000 Y128.263 Z15.900 F2500.000
G1 X42.999 Y128.263 Z15.897 F2500.000
G1 X44.997 Y128.263 Z15.884 F2500.000
G1 X45.997 Y128.263 Z15.870 F2500.000
G1 X46.996 Y128.263 Z15.837 F2500.000
G1 X47.995 Y128.263 Z15.776 F2500.000
G1 X48.994 Y128.263 Z15.687 F2500.000
G1 X49.994 Y128.263 Z15.570 F2500.000
G1 X50.993 Y128.263 Z15.500 F2500.000
G1 X73.976 Y128.263 Z15.500 F2500.000
(End of step 33.)
G0 Z26.500
G0 X8.963 Y132.263
G0 Z19.500
(Begin step 34.)
G0 X8.963 Y132.263
(part 1)
G1 X8.963 Y132.263 Z15.500 F2500.000
G1 X31.640 Y132.263 Z15.500 F2500.000
G1 X32.626 Y132.263 Z15.552 F2500.000
G1 X33.612 Y132.263 Z15.680 F2500.000
G1 X34.598 Y132.263 Z15.778 F2500.000
G1 X35.584 Y132.263 Z15.849 F2500.000
G1 X36.570 Y132.263 Z15.891 F2500.000
G1 X37.556 Y132.263 Z15.912 F2500.000
G1 X38.542 Y132.263 Z15.923 F2500.000
G1 X39.528 Y132.263 Z15.929 F2500.000
G1 X41.500 Y132.263 Z15.932 F2500.000
G1 X43.472 Y132.263 Z15.929 F2500.000
G1 X44.458 Y132.263 Z15.923 F2500.000
G1 X45.444 Y132.263 Z15.913 F2500.000
G1 X46.430 Y132.263 Z15.890 F2500.000
G1 X47.416 Y132.263 Z15.849 F2500.000
G1 X48.402 Y132.263 Z15.778 F2500.000
G1 X49.388 Y132.263 Z15.680 F2500.000
G1 X50.374 Y132.263 Z15.552 F2500.000
G1 X51.360 Y132.263 Z15.500 F2500.000
G1 X74.037 Y132.263 Z15.500 F2500.000
(End of step 34.)
G0 Z26.500
G0 X8.901 Y136.263
G0 Z19.500
(Begin step 35.)
G0 X8.901 Y136.263
(part 1)
G1 X8.901 Y136.263 Z15.500 F2500.000
G1 X31.622 Y136.263 Z15.500 F2500.000
G1 X32.609 Y136.263 Z15.585 F2500.000
G1 X33.597 Y136.263 Z15.713 F2500.000
G1 X34.585 Y136.263 Z15.812 F2500.000
G1 X35.573 Y136.263 Z15.880 F2500.000
G1 X36.561 Y136.263 Z15.925 F2500.000
G1 X37.549 Y136.263 Z15.946 F2500.000
G1 X38.536 Y136.263 Z15.957 F2500.000
G1 X39.524 Y136.263 Z15.962 F2500.000
G1 X41.500 Y136.263 Z15.966 F2500.000
G1 X43.476 Y136.263 Z15.962 F2500.000
G1 X45.451 Y136.263 Z15.946 F2500.000
G1 X46.439 Y136.263 Z15.924 F2500.000
G1 X47.427 Y136.263 Z15.881 F2500.000
G1 X48.415 Y136.263 Z15.811 F2500.000
G1 X49.403 Y136.263 Z15.713 F2500.000
G1 X50.391 Y136.263 Z15.585 F2500.000
G1 X51.378 Y136.263 Z15.500 F2500.000
G1 X74.099 Y136.263 Z15.500 F2500.000
(End of step 35.)
G0 Z26.500
G0 X8.840 Y140.263
G0 Z19.500
(Begin step 36.)
G0 X8.840 Y140.263
(part 1)
G1 X8.840 Y140.263 Z15.500 F2500.000
G1 X31.603 Y140.263 Z15.500 F2500.000
G1 X32.593 Y140.263 Z15.620 F2500.000
G1 X33.582 Y140.263 Z15.746 F2500.000
G1 X34.572 Y140.263 Z15.844 F2500.000
G1 X35.562 Y140.263 Z15.915 F2500.000
G1 X36.551 Y140.263 Z15.958 F2500.000
G1 X37.541 Y140.263 Z15.979 F2500.000
G1 X39.521 Y140.263 Z15.995 F2500.000
G1 X41.500 Y140.263 Z15.999 F2500.000
G1 X43.479 Y140.263 Z15.995 F2500.000
G1 X45.459 Y140.263 Z15.979 F2500.000
G1 X46.449 Y140.263 Z15.958 F2500.000
G1 X47.438 Y140.263 Z15.915 F2500.000
G1 X48.428 Y140.263 Z15.845 F2500.000
G1 X49.418 Y140.263 Z15.747 F2500.000
G1 X50.407 Y140.263 Z15.620 F2500.000
G1 X51.397 Y140.263 Z15.500 F2500.000
G1 X74.160 Y140.263 Z15.500 F2500.000
(End of step 36.)
G0 Z26.500
G0 X8.778 Y144.263
G0 Z19.500
(Begin step 37.)
G0 X8.778 Y144.263
(part 1)
G1 X8.778 Y144.263 Z15.500 F2500.000
G1 X31.584 Y144.263 Z15.500 F2500.000
G1 X32.576 Y144.263 Z15.653 F2500.000
G1 X33.567 Y144.263 Z15.779 F2500.000
G1 X34.559 Y144.263 Z15.878 F2500.000
G1 X35.551 Y144.263 Z15.947 F2500.000
G1 X36.542 Y144.263 Z15.991 F2500.000
G1 X37.534 Y144.263 Z16.011 F2500.000
G1 X39.517 Y144.263 Z16.029 F2500.000
G1 X41.500 Y144.263 Z16.033 F2500.000
G1 X43.483 Y144.263 Z16.029 F2500.000
G1 X45.466 Y144.263 Z16.013 F2500.000
G1 X46.458 Y144.263 Z15.991 F2500.000
G1 X47.449 Y144.263 Z15.947 F2500.000
G1 X48.441 Y144.263 Z15.877 F2500.000
G1 X49.433 Y144.263 Z15.780 F2500.000
G1 X50.424 Y144.263 Z15.652 F2500.000
G1 X51.416 Y144.263 Z15.500 F2500.000
G1 X74.222 Y144.263 Z15.500 F2500.000
(End of step 37.)
G0 Z26.500
G0 X8.717 Y148.263
G0 Z19.500
(Begin step 38.)
G0 X8.717 Y148.263
(part 1)
G1 X8.717 Y148.263 Z15.500 F2500.000
G1 X30.572 Y148.263 Z15.500 F2500.000
G1 X31.566 Y148.263 Z15.531 F2500.000
G1 X32.559 Y148.263 Z15.687 F2500.000
G1 X33.552 Y148.263 Z15.813 F2500.000
G1 X34.546 Y148.263 Z15.910 F2500.000
G1 X35.539 Y148.263 Z15.981 F2500.000
G1 X36.533 Y148.263 Z16.024 F2500.000
G1 X37.526 Y148.263 Z16.045 F2500.000
G1 X39.513 Y148.263 Z16.062 F2500.000
G1 X41.500 Y148.263 Z16.066 F2500.000
G1 X43.487 Y148.263 Z16.062 F2500.000
G1 X45.474 Y148.263 Z16.046 F2500.000
G1 X46.467 Y148.263 Z16.024 F2500.000
G1 X47.461 Y148.263 Z15.981 F2500.000
G1 X48.454 Y148.263 Z15.911 F2500.000
G1 X49.448 Y148.263 Z15.813 F2500.000
G1 X50.441 Y148.263 Z15.687 F2500.000
G1 X51.434 Y148.263 Z15.531 F2500.000
G1 X52.428 Y148.263 Z15.500 F2500.000
G1 X74.283 Y148.263 Z15.500 F2500.000
(End of step 38.)
G0 Z26.500
G0 X8.655 Y152.263
G0 Z19.500
(Begin step 39.)
G0 X8.655 Y152.263
(part 1)
G1 X8.655 Y152.263 Z15.500 F2500.000
G1 X30.552 Y152.263 Z15.500 F2500.000
G1 X31.547 Y152.263 Z15.565 F2500.000
G1 X32.542 Y152.263 Z15.720 F2500.000
G1 X33.538 Y152.263 Z15.846 F2500.000
G1 X34.533 Y152.263 Z15.944 F2500.000
G1 X35.528 Y152.263 Z16.014 F2500.000
G1 X36.523 Y152.263 Z16.057 F2500.000
G1 X37.519 Y152.263 Z16.079 F2500.000
G1 X39.509 Y152.263 Z16.095 F2500.000
G1 X41.500 Y152.263 Z16.099 F2500.000
G1 X43.491 Y152.263 Z16.095 F2500.000
G1 X44.486 Y152.263 Z16.089 F2500.000
G1 X45.481 Y152.263 Z16.079 F2500.000
G1 X46.477 Y152.263 Z16.057 F2500.000
G1 X47.472 Y152.263 Z16.014 F2500.000
G1 X48.467 Y152.263 Z15.944 F2500.000
G1 X49.462 Y152.263 Z15.846 F2500.000
G1 X50.458 Y152.263 Z15.720 F2500.000
G1 X51.453 Y152.263 Z15.565 F2500.000
G1 X52.448 Y152.263 Z15.500 F2500.000
G1 X74.345 Y152.263 Z15.500 F2500.000
(End of step 39.)
G0 Z26.500
G0 X8.593 Y156.263
G0 Z19.500
(Begin step 40.)
G0 X8.593 Y156.263
(part 1)
G1 X8.593 Y156.263 Z15.500 F2500.000
G1 X30.531 Y156.263 Z15.500 F2500.000
G1 X31.528 Y156.263 Z15.599 F2500.000
G1 X32.525 Y156.263 Z15.754 F2500.000
G1 X33.523 Y156.263 Z15.878 F2500.000
G1 X34.520 Y156.263 Z15.977 F2500.000
G1 X35.517 Y156.263 Z16.047 F2500.000
G1 X36.514 Y156.263 Z16.091 F2500.000
G1 X37.511 Y156.263 Z16.112 F2500.000
G1 X39.506 Y156.263 Z16.128 F2500.000
G1 X41.500 Y156.263 Z16.132 F2500.000
G1 X44.492 Y156.263 Z16.123 F2500.000
G1 X45.489 Y156.263 Z16.112 F2500.000
G1 X46.486 Y156.263 Z16.090 F2500.000
G1 X47.483 Y156.263 Z16.047 F2500.000
G1 X48.480 Y156.263 Z15.977 F2500.000
G1 X49.477 Y156.263 Z15.878 F2500.000
G1 X50.475 Y156.263 Z15.753 F2500.000
G1 X51.472 Y156.263 Z15.598 F2500.000
G1 X52.469 Y156.263 Z15.500 F2500.000
G1 X74.407 Y156.263 Z15.500 F2500.000
(End of step 40.)
G0 Z26.500
G0 X8.532 Y160.263
G0 Z19.500
(Begin step 41.)
G0 X8.532 Y160.263
(part 1)
G1 X8.532 Y160.263 Z15.500 F2500.000
G1 X30.511 Y160.263 Z15.500 F2500.000
G1 X31.510 Y160.263 Z15.631 F2500.000
G1 X32.509 Y160.263 Z15.788 F2500.000
G1 X33.508 Y160.263 Z15.914 F2500.000
G1 X34.507 Y160.263 Z16.010 F2500.000
G1 X35.506 Y160.263 Z16.080 F2500.000
G1 X36.505 Y160.263 Z16.123 F2500.000
G1 X37.504 Y160.263 Z16.145 F2500.000
G1 X39.502 Y160.263 Z16.162 F2500.000
G1 X41.500 Y160.263 Z16.166 F2500.000
G1 X43.498 Y160.263 Z16.161 F2500.000
G1 X45.496 Y160.263 Z16.145 F2500.000
G1 X46.495 Y160.263 Z16.124 F2500.000
G1 X47.494 Y160.263 Z16.080 F2500.000
G1 X48.493 Y160.263 Z16.011 F2500.000
G1 X49.492 Y160.263 Z15.913 F2500.000
G1 X50.491 Y160.263 Z15.787 F2500.000
G1 X51.490 Y160.263 Z15.632 F2500.000
G1 X52.489 Y160.263 Z15.500 F2500.000
G1 X74.468 Y160.263 Z15.500 F2500.000
(End of step 41.)
G0 Z26.500
G0 X8.470 Y164.263
G0 Z19.500
(Begin step 42.)
G0 X8.470 Y164.263
(part 1)
G1 X8.470 Y164.263 Z15.500 F2500.000
G1 X30.161 Y164.263 Z15.500 F2500.000
G1 X31.147 Y164.263 Z15.606 F2500.000
G1 X32.133 Y164.263 Z15.768 F2500.000
G1 X33.119 Y164.263 Z15.902 F2500.000
G1 X34.105 Y164.263 Z16.009 F2500.000
G1 X35.091 Y164.263 Z16.089 F2500.000
G1 X36.077 Y164.263 Z16.142 F2500.000
G1 X37.063 Y164.263 Z16.170 F2500.000
G1 X38.049 Y164.263 Z16.184 F2500.000
G1 X39.035 Y164.263 Z16.192 F2500.000
G1 X41.007 Y164.263 Z16.199 F2500.000
G1 X43.965 Y164.263 Z16.193 F2500.000
G1 X44.951 Y164.263 Z16.185 F2500.000
G1 X45.937 Y164.263 Z16.169 F2500.000
G1 X46.923 Y164.263 Z16.142 F2500.000
G1 X47.909 Y164.263 Z16.089 F2500.000
G1 X48.895 Y164.263 Z16.010 F2500.000
G1 X49.881 Y164.263 Z15.904 F2500.000
G1 X50.867 Y164.263 Z15.769 F2500.000
G1 X51.853 Y164.263 Z15.607 F2500.000
G1 X52.839 Y164.263 Z15.500 F2500.000
G1 X74.530 Y164.263 Z15.500 F2500.000
(End of step 42.)
G0 Z26.500
G0 X8.409 Y168.263
G0 Z19.500
(Begin step 43.)
G0 X8.409 Y168.263
(part 1)
G1 X8.409 Y168.263 Z15.500 F2500.000
G1 X30.140 Y168.263 Z15.500 F2500.000
G1 X31.128 Y168.263 Z15.641 F2500.000
G1 X32.116 Y168.263 Z15.803 F2500.000
G1 X33.104 Y168.263 Z15.936 F2500.000
G1 X34.092 Y168.263 Z16.043 F2500.000
G1 X35.079 Y168.263 Z16.121 F2500.000
G1 X36.067 Y168.263 Z16.175 F2500.000
G1 X37.055 Y168.263 Z16.204 F2500.000
G1 X39.031 Y168.263 Z16.226 F2500.000
G1 X41.006 Y168.263 Z16.232 F2500.000
G1 X43.969 Y168.263 Z16.226 F2500.000
G1 X45.945 Y168.263 Z16.203 F2500.000
G1 X46.933 Y168.263 Z16.175 F2500.000
G1 X47.921 Y168.263 Z16.122 F2500.000
G1 X48.908 Y168.263 Z16.042 F2500.000
G1 X49.896 Y168.263 Z15.937 F2500.000
G1 X50.884 Y168.263 Z15.803 F2500.000
G1 X51.872 Y168.263 Z15.640 F2500.000
G1 X52.860 Y168.263 Z15.500 F2500.000
G1 X74.591 Y168.263 Z15.500 F2500.000
(End of step 43.)
G0 Z26.500
G0 X8.347 Y172.263
G0 Z19.500
(Begin step 44.)
G0 X8.347 Y172.263
(part 1)
G1 X8.347 Y172.263 Z15.500 F2500.000
G1 X30.119 Y172.263 Z15.500 F2500.000
G1 X31.109 Y172.263 Z15.675 F2500.000
G1 X32.099 Y172.263 Z15.837 F2500.000
G1 X33.088 Y172.263 Z15.971 F2500.000
G1 X34.078 Y172.263 Z16.076 F2500.000
G1 X35.067 Y172.263 Z16.154 F2500.000
G1 X36.057 Y172.263 Z16.208 F2500.000
G1 X37.047 Y172.263 Z16.237 F2500.000
G1 X38.036 Y172.263 Z16.251 F2500.000
G1 X39.026 Y172.263 Z16.259 F2500.000
G1 X41.005 Y172.263 Z16.265 F2500.000
G1 X43.974 Y172.263 Z16.259 F2500.000
G1 X44.964 Y172.263 Z16.251 F2500.000
G1 X45.953 Y172.263 Z16.238 F2500.000
G1 X46.943 Y172.263 Z16.208 F2500.000
G1 X47.933 Y172.263 Z16.155 F2500.000
G1 X48.922 Y172.263 Z16.076 F2500.000
G1 X49.912 Y172.263 Z15.970 F2500.000
G1 X50.901 Y172.263 Z15.836 F2500.000
G1 X51.891 Y172.263 Z15.675 F2500.000
G1 X52.881 Y172.263 Z15.500 F2500.000
G1 X74.653 Y172.263 Z15.500 F2500.000
(End of step 44.)
G0 Z26.500
G0 X8.286 Y176.263
G0 Z19.500
(Begin step 45.)
G0 X8.286 Y176.263
(part 1)
G1 X8.286 Y176.263 Z15.500 F2500.000
G1 X29.107 Y176.263 Z15.500 F2500.000
G1 X30.098 Y176.263 Z15.518 F2500.000
G1 X31.090 Y176.263 Z15.709 F2500.000
G1 X32.081 Y176.263 Z15.871 F2500.000
G1 X33.073 Y176.263 Z16.004 F2500.000
G1 X34.064 Y176.263 Z16.110 F2500.000
G1 X35.055 Y176.263 Z16.188 F2500.000
G1 X36.047 Y176.263 Z16.241 F2500.000
G1 X37.038 Y176.263 Z16.271 F2500.000
G1 X39.021 Y176.263 Z16.292 F2500.000
G1 X41.004 Y176.263 Z16.299 F2500.000
G1 X43.979 Y176.263 Z16.292 F2500.000
G1 X44.970 Y176.263 Z16.285 F2500.000
G1 X45.962 Y176.263 Z16.270 F2500.000
G1 X46.953 Y176.263 Z16.241 F2500.000
G1 X47.945 Y176.263 Z16.188 F2500.000
G1 X48.936 Y176.263 Z16.110 F2500.000
G1 X49.927 Y176.263 Z16.004 F2500.000
G1 X50.919 Y176.263 Z15.869 F2500.000
G1 X51.910 Y176.263 Z15.709 F2500.000
G1 X52.902 Y176.263 Z15.518 F2500.000
G1 X53.893 Y176.263 Z15.500 F2500.000
G1 X74.714 Y176.263 Z15.500 F2500.000
(End of step 45.)
G0 Z26.500
G0 X8.224 Y180.263
G0 Z19.500
(Begin step 46.)
G0 X8.224 Y180.263
(part 1)
G1 X8.224 Y180.263 Z15.500 F2500.000
G1 X29.084 Y180.263 Z15.500 F2500.000
G1 X30.077 Y180.263 Z15.553 F2500.000
G1 X31.070 Y180.263 Z15.743 F2500.000
G1 X32.064 Y180.263 Z15.905 F2500.000
G1 X33.057 Y180.263 Z16.037 F2500.000
G1 X34.050 Y180.263 Z16.143 F2500.000
G1 X35.044 Y180.263 Z16.222 F2500.000
G1 X36.037 Y180.263 Z16.273 F2500.000
G1 X37.030 Y180.263 Z16.303 F2500.000
G1 X38.023 Y180.263 Z16.318 F2500.000
G1 X39.017 Y180.263 Z16.325 F2500.000
G1 X41.997 Y180.263 Z16.331 F2500.000
G1 X43.983 Y180.263 Z16.326 F2500.000
G1 X44.977 Y180.263 Z16.318 F2500.000
G1 X45.970 Y180.263 Z16.304 F2500.000
G1 X46.963 Y180.263 Z16.274 F2500.000
G1 X47.956 Y180.263 Z16.221 F2500.000
G1 X48.950 Y180.263 Z16.143 F2500.000
G1 X49.943 Y180.263 Z16.037 F2500.000
G1 X50.936 Y180.263 Z15.904 F2500.000
G1 X51.930 Y180.263 Z15.744 F2500.000
G1 X52.923 Y180.263 Z15.553 F2500.000
G1 X53.916 Y180.263 Z15.500 F2500.000
G1 X74.776 Y180.263 Z15.500 F2500.000
(End of step 46.)
G0 Z26.500
G0 X8.163 Y184.263
G0 Z19.500
(Begin step 47.)
G0 X8.163 Y184.263
(part 1)
G1 X8.163 Y184.263 Z15.500 F2500.000
G1 X29.061 Y184.263 Z15.500 F2500.000
G1 X30.056 Y184.263 Z15.587 F2500.000
G1 X31.051 Y184.263 Z15.778 F2500.000
G1 X32.046 Y184.263 Z15.939 F2500.000
G1 X33.041 Y184.263 Z16.071 F2500.000
G1 X34.036 Y184.263 Z16.176 F2500.000
G1 X35.032 Y184.263 Z16.255 F2500.000
G1 X36.027 Y184.263 Z16.307 F2500.000
G1 X37.022 Y184.263 Z16.336 F2500.000
G1 X38.017 Y184.263 Z16.351 F2500.000
G1 X39.012 Y184.263 Z16.358 F2500.000
G1 X41.002 Y184.263 Z16.365 F2500.000
G1 X43.988 Y184.263 Z16.359 F2500.000
G1 X44.983 Y184.263 Z16.351 F2500.000
G1 X45.978 Y184.263 Z16.337 F2500.000
G1 X46.973 Y184.263 Z16.308 F2500.000
G1 X47.968 Y184.263 Z16.255 F2500.000
G1 X48.964 Y184.263 Z16.176 F2500.000
G1 X49.959 Y184.263 Z16.071 F2500.000
G1 X50.954 Y184.263 Z15.938 F2500.000
G1 X51.949 Y184.263 Z15.777 F2500.000
G1 X52.944 Y184.263 Z15.587 F2500.000
G1 X53.939 Y184.263 Z15.500 F2500.000
G1 X74.837 Y184.263 Z15.500 F2500.000
(End of step 47.)
G0 Z26.500
G0 X8.101 Y188.263
G0 Z19.500
(Begin step 48.)
G0 X8.101 Y188.263
(part 1)
G1 X8.101 Y188.263 Z15.500 F2500.000
G1 X29.038 Y188.263 Z15.500 F2500.000
G1 X30.035 Y188.263 Z15.621 F2500.000
G1 X31.032 Y188.263 Z15.812 F2500.000
G1 X32.029 Y188.263 Z15.973 F2500.000
G1 X33.026 Y188.263 Z16.105 F2500.000
G1 X34.023 Y188.263 Z16.209 F2500.000
G1 X35.020 Y188.263 Z16.288 F2500.000
G1 X36.017 Y188.263 Z16.340 F2500.000
G1 X37.014 Y188.263 Z16.369 F2500.000
G1 X38.011 Y188.263 Z16.384 F2500.000
G1 X39.008 Y188.263 Z16.392 F2500.000
G1 X41.998 Y188.263 Z16.398 F2500.000
G1 X43.992 Y188.263 Z16.392 F2500.000
G1 X44.989 Y188.263 Z16.384 F2500.000
G1 X45.986 Y188.263 Z16.370 F2500.000
G1 X46.983 Y188.263 Z16.340 F2500.000
G1 X47.980 Y188.263 Z16.287 F2500.000
G1 X48.977 Y188.263 Z16.210 F2500.000
G1 X49.974 Y188.263 Z16.105 F2500.000
G1 X50.971 Y188.263 Z15.972 F2500.000
G1 X51.968 Y188.263 Z15.811 F2500.000
G1 X52.965 Y188.263 Z15.621 F2500.000
G1 X53.962 Y188.263 Z15.500 F2500.000
G1 X74.899 Y188.263 Z15.500 F2500.000
(End of step 48.)
G0 Z26.500
G0 X8.040 Y192.263
G0 Z19.500
(Begin step 49.)
G0 X8.040 Y192.263
(part 1)
G1 X8.040 Y192.263 Z15.500 F2500.000
G1 X29.015 Y192.263 Z15.500 F2500.000
G1 X30.014 Y192.263 Z15.657 F2500.000
G1 X31.012 Y192.263 Z15.846 F2500.000
G1 X32.011 Y192.263 Z16.007 F2500.000
G1 X33.010 Y192.263 Z16.139 F2500.000
G1 X34.009 Y192.263 Z16.244 F2500.000
G1 X35.008 Y192.263 Z16.322 F2500.000
G1 X36.007 Y192.263 Z16.373 F2500.000
G1 X37.005 Y192.263 Z16.403 F2500.000
G1 X38.004 Y192.263 Z16.418 F2500.000
G1 X39.003 Y192.263 Z16.425 F2500.000
G1 X41.999 Y192.263 Z16.432 F2500.000
G1 X43.997 Y192.263 Z16.425 F2500.000
G1 X44.996 Y192.263 Z16.417 F2500.000
G1 X45.995 Y192.263 Z16.403 F2500.000
G1 X46.993 Y192.263 Z16.373 F2500.000
G1 X47.992 Y192.263 Z16.321 F2500.000
G1 X48.991 Y192.263 Z16.244 F2500.000
G1 X49.990 Y192.263 Z16.139 F2500.000
G1 X50.989 Y192.263 Z16.007 F2500.000
G1 X51.988 Y192.263 Z15.845 F2500.000
G1 X52.986 Y192.263 Z15.655 F2500.000
G1 X53.985 Y192.263 Z15.500 F2500.000
G1 X74.960 Y192.263 Z15.500 F2500.000
(End of step 49.)
G0 Z26.500
G0 X7.978 Y196.263
G0 Z19.500
(Begin step 50.)
G0 X7.978 Y196.263
(part 1)
G1 X7.978 Y196.263 Z15.500 F2500.000
G1 X28.683 Y196.263 Z15.500 F2500.000
G1 X29.669 Y196.263 Z15.622 F2500.000
G1 X30.655 Y196.263 Z15.819 F2500.000
G1 X31.641 Y196.263 Z15.987 F2500.000
G1 X32.627 Y196.263 Z16.126 F2500.000
G1 X33.613 Y196.263 Z16.239 F2500.000
G1 X34.598 Y196.263 Z16.327 F2500.000
G1 X35.584 Y196.263 Z16.388 F2500.000
G1 X36.570 Y196.263 Z16.426 F2500.000
G1 X37.556 Y196.263 Z16.446 F2500.000
G1 X38.542 Y196.263 Z16.455 F2500.000
G1 X41.500 Y196.263 Z16.465 F2500.000
G1 X44.458 Y196.263 Z16.456 F2500.000
G1 X45.444 Y196.263 Z16.446 F2500.000
G1 X46.430 Y196.263 Z16.426 F2500.000
G1 X47.416 Y196.263 Z16.389 F2500.000
G1 X48.402 Y196.263 Z16.327 F2500.000
G1 X49.387 Y196.263 Z16.241 F2500.000
G1 X50.373 Y196.263 Z16.126 F2500.000
G1 X51.359 Y196.263 Z15.987 F2500.000
G1 X52.345 Y196.263 Z15.820 F2500.000
G1 X53.331 Y196.263 Z15.622 F2500.000
G1 X54.317 Y196.263 Z15.500 F2500.000
G1 X75.022 Y196.263 Z15.500 F2500.000
(End of step 50.)
G0 Z26.500
G0 X7.917 Y200.263
G0 Z19.500
(Begin step 51.)
G0 X7.917 Y200.263
(part 1)
G1 X7.917 Y200.263 Z15.500 F2500.000
G1 X28.659 Y200.263 Z15.500 F2500.000
G1 X29.647 Y200.263 Z15.657 F2500.000
G1 X30.635 Y200.263 Z15.854 F2500.000
G1 X31.623 Y200.263 Z16.022 F2500.000
G1 X32.610 Y200.263 Z16.162 F2500.000
G1 X33.598 Y200.263 Z16.273 F2500.000
G1 X34.586 Y200.263 Z16.361 F2500.000
G1 X35.574 Y200.263 Z16.421 F2500.000
G1 X36.561 Y200.263 Z16.460 F2500.000
G1 X37.549 Y200.263 Z16.477 F2500.000
G1 X38.537 Y200.263 Z16.488 F2500.000
G1 X39.525 Y200.263 Z16.495 F2500.000
G1 X41.500 Y200.263 Z16.498 F2500.000
G1 X43.475 Y200.263 Z16.494 F2500.000
G1 X44.463 Y200.263 Z16.487 F2500.000
G1 X45.451 Y200.263 Z16.478 F2500.000
G1 X46.439 Y200.263 Z16.459 F2500.000
G1 X47.426 Y200.263 Z16.421 F2500.000
G1 X48.414 Y200.263 Z16.360 F2500.000
G1 X49.402 Y200.263 Z16.273 F2500.000
G1 X50.390 Y200.263 Z16.161 F2500.000
G1 X51.377 Y200.263 Z16.022 F2500.000
G1 X52.365 Y200.263 Z15.853 F2500.000
G1 X53.353 Y200.263 Z15.658 F2500.000
G1 X54.341 Y200.263 Z15.500 F2500.000
G1 X75.083 Y200.263 Z15.500 F2500.000
(End of step 51.)
G0 Z26.500
G0 X7.855 Y204.263
G0 Z19.500
(Begin step 52.)
G0 X7.855 Y204.263
(part 1)
G1 X7.855 Y204.263 Z15.500 F2500.000
G1 X28.636 Y204.263 Z15.500 F2500.000
G1 X30.615 Y204.263 Z15.889 F2500.000
G1 X31.604 Y204.263 Z16.055 F2500.000
G1 X32.594 Y204.263 Z16.195 F2500.000
G1 X33.584 Y204.263 Z16.307 F2500.000
G1 X34.573 Y204.263 Z16.394 F2500.000
G1 X35.563 Y204.263 Z16.455 F2500.000
G1 X36.552 Y204.263 Z16.492 F2500.000
G1 X37.542 Y204.263 Z16.511 F2500.000
G1 X38.531 Y204.263 Z16.522 F2500.000
G1 X40.510 Y204.263 Z16.530 F2500.000
G1 X41.500 Y204.263 Z16.530 F2500.000
G1 X44.469 Y204.263 Z16.522 F2500.000
G1 X45.458 Y204.263 Z16.512 F2500.000
G1 X46.448 Y204.263 Z16.493 F2500.000
G1 X47.437 Y204.263 Z16.454 F2500.000
G1 X48.427 Y204.263 Z16.394 F2500.000
G1 X49.416 Y204.263 Z16.308 F2500.000
G1 X50.406 Y204.263 Z16.195 F2500.000
G1 X51.396 Y204.263 Z16.056 F2500.000
G1 X52.385 Y204.263 Z15.888 F2500.000
G1 X54.364 Y204.263 Z15.500 F2500.000
G1 X75.145 Y204.263 Z15.500 F2500.000
(End of step 52.)
G0 Z26.500
G0 X7.794 Y208.263
G0 Z19.500
(Begin step 53.)
G0 X7.794 Y208.263
(part 1)
G1 X7.794 Y208.263 Z15.500 F2500.000
G1 X28.612 Y208.263 Z15.502 F2500.000
G1 X29.604 Y208.263 Z15.726 F2500.000
G1 X30.595 Y208.263 Z15.923 F2500.000
G1 X31.586 Y208.263 Z16.090 F2500.000
G1 X32.578 Y208.263 Z16.229 F2500.000
G1 X33.569 Y208.263 Z16.341 F2500.000
G1 X34.560 Y208.263 Z16.426 F2500.000
G1 X35.552 Y208.263 Z16.488 F2500.000
G1 X36.543 Y208.263 Z16.525 F2500.000
G1 X37.535 Y208.263 Z16.545 F2500.000
G1 X39.517 Y208.263 Z16.560 F2500.000
G1 X41.500 Y208.263 Z16.565 F2500.000
G1 X43.483 Y208.263 Z16.561 F2500.000
G1 X44.474 Y208.263 Z16.555 F2500.000
G1 X45.465 Y208.263 Z16.545 F2500.000
G1 X46.457 Y208.263 Z16.526 F2500.000
G1 X47.448 Y208.263 Z16.488 F2500.000
G1 X48.440 Y208.263 Z16.425 F2500.000
G1 X49.431 Y208.263 Z16.341 F2500.000
G1 X50.422 Y208.263 Z16.229 F2500.000
G1 X51.414 Y208.263 Z16.091 F2500.000
G1 X52.405 Y208.263 Z15.923 F2500.000
G1 X53.396 Y208.263 Z15.727 F2500.000
G1 X54.388 Y208.263 Z15.502 F2500.000
G1 X75.206 Y208.263 Z15.500 F2500.000
(End of step 53.)
G0 Z26.500
G0 X7.732 Y212.263
G0 Z19.500
(Begin step 54.)
G0 X7.732 Y212.263
(part 1)
G1 X7.732 Y212.263 Z15.500 F2500.000
G1 X27.596 Y212.263 Z15.500 F2500.000
G1 X28.589 Y212.263 Z15.536 F2500.000
G1 X29.582 Y212.263 Z15.762 F2500.000
G1 X30.575 Y212.263 Z15.958 F2500.000
G1 X31.568 Y212.263 Z16.125 F2500.000
G1 X32.561 Y212.263 Z16.263 F2500.000
G1 X33.555 Y212.263 Z16.374 F2500.000
G1 X34.548 Y212.263 Z16.460 F2500.000
G1 X35.541 Y212.263 Z16.521 F2500.000
G1 X36.534 Y212.263 Z16.559 F2500.000
G1 X37.527 Y212.263 Z16.579 F2500.000
G1 X38.520 Y212.263 Z16.588 F2500.000
G1 X39.514 Y212.263 Z16.594 F2500.000
G1 X41.500 Y212.263 Z16.598 F2500.000
G1 X43.486 Y212.263 Z16.593 F2500.000
G1 X45.473 Y212.263 Z16.579 F2500.000
G1 X46.466 Y212.263 Z16.559 F2500.000
G1 X47.459 Y212.263 Z16.521 F2500.000
G1 X48.452 Y212.263 Z16.460 F2500.000
G1 X49.445 Y212.263 Z16.375 F2500.000
G1 X50.439 Y212.263 Z16.263 F2500.000
G1 X51.432 Y212.263 Z16.125 F2500.000
G1 X52.425 Y212.263 Z15.958 F2500.000
G1 X53.418 Y212.263 Z15.762 F2500.000
G1 X54.411 Y212.263 Z15.536 F2500.000
G1 X55.404 Y212.263 Z15.500 F2500.000
G1 X75.268 Y212.263 Z15.500 F2500.000
(End of step 54.)
G0 Z26.500
G0 X7.671 Y216.263
G0 Z19.500
(Begin step 55.)
G0 X7.671 Y216.263
(part 1)
G1 X7.671 Y216.263 Z15.500 F2500.000
G1 X27.570 Y216.263 Z15.500 F2500.000
G1 X28.565 Y216.263 Z15.572 F2500.000
G1 X29.560 Y216.263 Z15.797 F2500.000
G1 X30.555 Y216.263 Z15.992 F2500.000
G1 X31.550 Y216.263 Z16.158 F2500.000
G1 X32.545 Y216.263 Z16.298 F2500.000
G1 X33.540 Y216.263 Z16.409 F2500.000
G1 X34.535 Y216.263 Z16.494 F2500.000
G1 X35.530 Y216.263 Z16.555 F2500.000
G1 X36.525 Y216.263 Z16.592 F2500.000
G1 X37.520 Y216.263 Z16.611 F2500.000
G1 X38.515 Y216.263 Z16.621 F2500.000
G1 X41.500 Y216.263 Z16.631 F2500.000
G1 X43.490 Y216.263 Z16.627 F2500.000
G1 X44.485 Y216.263 Z16.621 F2500.000
G1 X45.480 Y216.263 Z16.611 F2500.000
G1 X46.475 Y216.263 Z16.592 F2500.000
G1 X47.470 Y216.263 Z16.555 F2500.000
G1 X48.465 Y216.263 Z16.494 F2500.000
G1 X49.460 Y216.263 Z16.409 F2500.000
G1 X50.455 Y216.263 Z16.296 F2500.000
G1 X51.450 Y216.263 Z16.159 F2500.000
G1 X52.445 Y216.263 Z15.993 F2500.000
G1 X53.440 Y216.263 Z15.798 F2500.000
G1 X54.435 Y216.263 Z15.572 F2500.000
G1 X55.430 Y216.263 Z15.500 F2500.000
G1 X75.329 Y216.263 Z15.500 F2500.000
(End of step 55.)
G0 Z26.500
G0 X7.609 Y220.263
G0 Z19.500
(Begin step 56.)
G0 X7.609 Y220.263
(part 1)
G1 X7.609 Y220.263 Z15.500 F2500.000
G1 X27.545 Y220.263 Z15.500 F2500.000
G1 X28.542 Y220.263 Z15.607 F2500.000
G1 X29.538 Y220.263 Z15.833 F2500.000
G1 X30.535 Y220.263 Z16.028 F2500.000
G1 X31.532 Y220.263 Z16.194 F2500.000
G1 X32.529 Y220.263 Z16.332 F2500.000
G1 X33.526 Y220.263 Z16.443 F2500.000
G1 X34.522 Y220.263 Z16.528 F2500.000
G1 X35.519 Y220.263 Z16.587 F2500.000
G1 X36.516 Y220.263 Z16.626 F2500.000
G1 X37.513 Y220.263 Z16.644 F2500.000
G1 X38.510 Y220.263 Z16.655 F2500.000
G1 X41.500 Y220.263 Z16.665 F2500.000
G1 X43.494 Y220.263 Z16.661 F2500.000
G1 X44.490 Y220.263 Z16.655 F2500.000
G1 X45.487 Y220.263 Z16.645 F2500.000
G1 X46.484 Y220.263 Z16.625 F2500.000
G1 X47.481 Y220.263 Z16.587 F2500.000
G1 X48.478 Y220.263 Z16.528 F2500.000
G1 X49.474 Y220.263 Z16.442 F2500.000
G1 X50.471 Y220.263 Z16.332 F2500.000
G1 X51.468 Y220.263 Z16.194 F2500.000
G1 X52.465 Y220.263 Z16.028 F2500.000
G1 X53.462 Y220.263 Z15.833 F2500.000
G1 X54.458 Y220.263 Z15.608 F2500.000
G1 X55.455 Y220.263 Z15.500 F2500.000
G1 X75.391 Y220.263 Z15.500 F2500.000
(End of step 56.)
G0 Z26.500
G0 X7.547 Y224.263
G0 Z19.500
(Begin step 57.)
G0 X7.547 Y224.263
(part 1)
G1 X7.547 Y224.263 Z15.500 F2500.000
G1 X27.520 Y224.263 Z15.500 F2500.000
G1 X28.518 Y224.263 Z15.642 F2500.000
G1 X29.517 Y224.263 Z15.868 F2500.000
G1 X30.515 Y224.263 Z16.061 F2500.000
G1 X31.514 Y224.263 Z16.228 F2500.000
G1 X32.513 Y224.263 Z16.365 F2500.000
G1 X33.511 Y224.263 Z16.476 F2500.000
G1 X34.510 Y224.263 Z16.561 F2500.000
G1 X35.508 Y224.263 Z16.621 F2500.000
G1 X36.507 Y224.263 Z16.658 F2500.000
G1 X37.506 Y224.263 Z16.677 F2500.000
G1 X38.504 Y224.263 Z16.687 F2500.000
G1 X39.503 Y224.263 Z16.694 F2500.000
G1 X41.500 Y224.263 Z16.698 F2500.000
G1 X43.497 Y224.263 Z16.693 F2500.000
G1 X44.496 Y224.263 Z16.687 F2500.000
G1 X45.494 Y224.263 Z16.677 F2500.000
G1 X46.493 Y224.263 Z16.658 F2500.000
G1 X47.492 Y224.263 Z16.621 F2500.000
G1 X48.490 Y224.263 Z16.561 F2500.000
G1 X49.489 Y224.263 Z16.475 F2500.000
G1 X50.487 Y224.263 Z16.365 F2500.000
G1 X51.486 Y224.263 Z16.228 F2500.000
G1 X52.485 Y224.263 Z16.061 F2500.000
G1 X53.483 Y224.263 Z15.868 F2500.000
G1 X54.482 Y224.263 Z15.642 F2500.000
G1 X55.480 Y224.263 Z15.500 F2500.000
G1 X75.453 Y224.263 Z15.500 F2500.000
(End of step 57.)
G0 Z26.500
G0 X7.486 Y228.263
G0 Z19.500
(Begin step 58.)
G0 X7.486 Y228.263
(part 1)
G1 X7.486 Y228.263 Z15.500 F2500.000
G1 X27.204 Y228.263 Z15.500 F2500.000
G1 X28.190 Y228.263 Z15.603 F2500.000
G1 X29.176 Y228.263 Z15.835 F2500.000
G1 X30.162 Y228.263 Z16.035 F2500.000
G1 X31.148 Y228.263 Z16.208 F2500.000
G1 X32.134 Y228.263 Z16.353 F2500.000
G1 X33.120 Y228.263 Z16.471 F2500.000
G1 X34.106 Y228.263 Z16.565 F2500.000
G1 X35.092 Y228.263 Z16.633 F2500.000
G1 X36.077 Y228.263 Z16.679 F2500.000
G1 X37.063 Y228.263 Z16.705 F2500.000
G1 X39.035 Y228.263 Z16.725 F2500.000
G1 X41.007 Y228.263 Z16.731 F2500.000
G1 X43.965 Y228.263 Z16.724 F2500.000
G1 X44.951 Y228.263 Z16.717 F2500.000
G1 X45.937 Y228.263 Z16.704 F2500.000
G1 X46.923 Y228.263 Z16.679 F2500.000
G1 X47.908 Y228.263 Z16.633 F2500.000
G1 X48.894 Y228.263 Z16.564 F2500.000
G1 X49.880 Y228.263 Z16.470 F2500.000
G1 X50.866 Y228.263 Z16.353 F2500.000
G1 X51.852 Y228.263 Z16.207 F2500.000
G1 X52.838 Y228.263 Z16.035 F2500.000
G1 X53.824 Y228.263 Z15.834 F2500.000
G1 X54.810 Y228.263 Z15.603 F2500.000
G1 X55.796 Y228.263 Z15.500 F2500.000
G1 X75.514 Y228.263 Z15.500 F2500.000
(End of step 58.)
G0 Z26.500
G0 X7.424 Y232.263
G0 Z19.500
(Begin step 59.)
G0 X7.424 Y232.263
(part 1)
G1 X7.424 Y232.263 Z15.500 F2500.000
G1 X27.178 Y232.263 Z15.500 F2500.000
G1 X28.166 Y232.263 Z15.638 F2500.000
G1 X29.154 Y232.263 Z15.870 F2500.000
G1 X30.141 Y232.263 Z16.071 F2500.000
G1 X31.129 Y232.263 Z16.243 F2500.000
G1 X32.117 Y232.263 Z16.387 F2500.000
G1 X33.105 Y232.263 Z16.505 F2500.000
G1 X34.092 Y232.263 Z16.598 F2500.000
G1 X35.080 Y232.263 Z16.666 F2500.000
G1 X36.068 Y232.263 Z16.712 F2500.000
G1 X37.055 Y232.263 Z16.738 F2500.000
G1 X38.043 Y232.263 Z16.751 F2500.000
G1 X39.031 Y232.263 Z16.758 F2500.000
G1 X41.006 Y232.263 Z16.764 F2500.000
G1 X43.969 Y232.263 Z16.758 F2500.000
G1 X44.957 Y232.263 Z16.750 F2500.000
G1 X45.945 Y232.263 Z16.737 F2500.000
G1 X46.932 Y232.263 Z16.711 F2500.000
G1 X47.920 Y232.263 Z16.666 F2500.000
G1 X48.908 Y232.263 Z16.598 F2500.000
G1 X49.895 Y232.263 Z16.505 F2500.000
G1 X50.883 Y232.263 Z16.387 F2500.000
G1 X51.871 Y232.263 Z16.243 F2500.000
G1 X52.859 Y232.263 Z16.070 F2500.000
G1 X53.846 Y232.263 Z15.869 F2500.000
G1 X54.834 Y232.263 Z15.639 F2500.000
G1 X55.822 Y232.263 Z15.500 F2500.000
G1 X75.576 Y232.263 Z15.500 F2500.000
(End of step 59.)
G0 Z26.500
G0 X7.363 Y236.263
G0 Z19.500
(Begin step 60.)
G0 X7.363 Y236.263
(part 1)
G1 X7.363 Y236.263 Z15.500 F2500.000
G1 X27.153 Y236.263 Z15.500 F2500.000
G1 X28.142 Y236.263 Z15.674 F2500.000
G1 X29.131 Y236.263 Z15.904 F2500.000
G1 X30.121 Y236.263 Z16.105 F2500.000
G1 X31.110 Y236.263 Z16.276 F2500.000
G1 X32.100 Y236.263 Z16.422 F2500.000
G1 X33.089 Y236.263 Z16.539 F2500.000
G1 X34.079 Y236.263 Z16.631 F2500.000
G1 X35.068 Y236.263 Z16.699 F2500.000
G1 X36.058 Y236.263 Z16.745 F2500.000
G1 X37.047 Y236.263 Z16.771 F2500.000
G1 X38.037 Y236.263 Z16.784 F2500.000
G1 X39.026 Y236.263 Z16.791 F2500.000
G1 X41.995 Y236.263 Z16.797 F2500.000
G1 X43.974 Y236.263 Z16.791 F2500.000
G1 X44.963 Y236.263 Z16.784 F2500.000
G1 X45.953 Y236.263 Z16.771 F2500.000
G1 X46.942 Y236.263 Z16.745 F2500.000
G1 X47.932 Y236.263 Z16.699 F2500.000
G1 X48.921 Y236.263 Z16.631 F2500.000
G1 X49.911 Y236.263 Z16.539 F2500.000
G1 X50.900 Y236.263 Z16.422 F2500.000
G1 X51.890 Y236.263 Z16.276 F2500.000
G1 X52.879 Y236.263 Z16.105 F2500.000
G1 X53.869 Y236.263 Z15.905 F2500.000
G1 X54.858 Y236.263 Z15.674 F2500.000
G1 X55.847 Y236.263 Z15.500 F2500.000
G1 X75.637 Y236.263 Z15.500 F2500.000
(End of step 60.)
G0 Z26.500
G0 X7.301 Y240.263
G0 Z19.500
(Begin step 61.)
G0 X7.301 Y240.263
(part 1)
G1 X7.301 Y240.263 Z15.500 F2500.000
G1 X27.127 Y240.263 Z15.500 F2500.000
G1 X28.118 Y240.263 Z15.710 F2500.000
G1 X29.109 Y240.263 Z15.940 F2500.000
G1 X30.100 Y240.263 Z16.141 F2500.000
G1 X31.092 Y240.263 Z16.312 F2500.000
G1 X32.083 Y240.263 Z16.456 F2500.000
G1 X33.074 Y240.263 Z16.573 F2500.000
G1 X34.066 Y240.263 Z16.665 F2500.000
G1 X35.057 Y240.263 Z16.733 F2500.000
G1 X36.048 Y240.263 Z16.776 F2500.000
G1 X37.039 Y240.263 Z16.797 F2500.000
G1 X38.031 Y240.263 Z16.800 F2500.000
G1 X45.961 Y240.263 Z16.797 F2500.000
G1 X46.952 Y240.263 Z16.776 F2500.000
G1 X47.943 Y240.263 Z16.732 F2500.000
G1 X48.934 Y240.263 Z16.665 F2500.000
G1 X49.926 Y240.263 Z16.573 F2500.000
G1 X50.917 Y240.263 Z16.456 F2500.000
G1 X51.908 Y240.263 Z16.312 F2500.000
G1 X52.900 Y240.263 Z16.141 F2500.000
G1 X53.891 Y240.263 Z15.940 F2500.000
G1 X54.882 Y240.263 Z15.710 F2500.000
G1 X55.873 Y240.263 Z15.500 F2500.000
G1 X75.699 Y240.263 Z15.500 F2500.000
(End of step 61.)
G0 Z26.500
G0 X9.868 Y244.263
G0 Z19.500
(Begin step 62.)
G0 X9.868 Y244.263
(part 1)
G1 X9.868 Y244.263 Z15.500 F2500.000
G1 X29.638 Y244.263 Z15.500 F2500.000
G1 X30.626 Y244.263 Z15.695 F2500.000
G1 X31.615 Y244.263 Z15.927 F2500.000
G1 X32.603 Y244.263 Z16.129 F2500.000
G1 X33.592 Y244.263 Z16.302 F2500.000
G1 X34.580 Y244.263 Z16.447 F2500.000
G1 X35.569 Y244.263 Z16.566 F2500.000
G1 X36.557 Y244.263 Z16.659 F2500.000
G1 X37.546 Y244.263 Z16.728 F2500.000
G1 X38.534 Y244.263 Z16.774 F2500.000
G1 X39.523 Y244.263 Z16.797 F2500.000
G1 X40.511 Y244.263 Z16.800 F2500.000
G1 X43.477 Y244.263 Z16.797 F2500.000
G1 X44.465 Y244.263 Z16.774 F2500.000
G1 X45.454 Y244.263 Z16.728 F2500.000
G1 X46.442 Y244.263 Z16.659 F2500.000
G1 X47.431 Y244.263 Z16.566 F2500.000
G1 X48.419 Y244.263 Z16.447 F2500.000
G1 X49.408 Y244.263 Z16.302 F2500.000
G1 X50.397 Y244.263 Z16.129 F2500.000
G1 X51.385 Y244.263 Z15.927 F2500.000
G1 X52.374 Y244.263 Z15.695 F2500.000
G1 X53.362 Y244.263 Z15.500 F2500.000
G1 X73.132 Y244.263 Z15.500 F2500.000
(End of step 62.)
(End of layer 3)
(Layer 4 begins)
(Layer transition)
G0 Z26.500
G0 X13.568 Y-3.737
(Begin step 0.)
G0 X13.568 Y-3.737
(part 1)
G1 X13.568 Y-3.737 Z13.500 F2500.000
G1 X31.524 Y-3.737 Z13.500 F2500.000
G1 X32.522 Y-3.737 Z13.773 F2500.000
G1 X33.519 Y-3.737 Z14.023 F2500.000
G1 X34.517 Y-3.737 Z14.238 F2500.000
G1 X35.515 Y-3.737 Z14.420 F2500.000
G1 X36.512 Y-3.737 Z14.566 F2500.000
G1 X37.510 Y-3.737 Z14.678 F2500.000
G1 X38.507 Y-3.737 Z14.754 F2500.000
G1 X39.505 Y-3.737 Z14.794 F2500.000
G1 X40.502 Y-3.737 Z14.801 F2500.000
G1 X41.500 Y-3.737 Z14.802 F2500.000
G1 X42.498 Y-3.737 Z14.801 F2500.000
G1 X43.495 Y-3.737 Z14.794 F2500.000
G1 X44.493 Y-3.737 Z14.754 F2500.000
G1 X45.490 Y-3.737 Z14.678 F2500.000
G1 X46.488 Y-3.737 Z14.566 F2500.000
G1 X47.486 Y-3.737 Z14.420 F2500.000
G1 X48.483 Y-3.737 Z14.238 F2500.000
G1 X49.481 Y-3.737 Z14.023 F2500.000
G1 X50.478 Y-3.737 Z13.773 F2500.000
G1 X51.476 Y-3.737 Z13.500 F2500.000
G1 X69.432 Y-3.737 Z13.500 F2500.000
(End of step 0.)
G0 Z26.500
G0 X10.993 Y0.263
G0 Z17.500
(Begin step 1.)
G0 X10.993 Y0.263
(part 1)
G1 X10.993 Y0.263 Z13.500 F2500.000
G1 X28.707 Y0.263 Z13.500 F2500.000
G1 X29.691 Y0.263 Z13.706 F2500.000
G1 X30.675 Y0.263 Z13.962 F2500.000
G1 X31.659 Y0.263 Z14.183 F2500.000
G1 X32.643 Y0.263 Z14.371 F2500.000
G1 X33.627 Y0.263 Z14.528 F2500.000
G1 X34.611 Y0.263 Z14.648 F2500.000
G1 X35.595 Y0.263 Z14.736 F2500.000
G1 X36.580 Y0.263 Z14.790 F2500.000
G1 X37.564 Y0.263 Z14.814 F2500.000
G1 X38.548 Y0.263 Z14.825 F2500.000
G1 X39.532 Y0.263 Z14.831 F2500.000
G1 X41.500 Y0.263 Z14.835 F2500.000
G1 X43.468 Y0.263 Z14.831 F2500.000
G1 X44.452 Y0.263 Z14.825 F2500.000
G1 X45.436 Y0.263 Z14.814 F2500.000
G1 X46.420 Y0.263 Z14.790 F2500.000
G1 X47.405 Y0.263 Z14.736 F2500.000
G1 X48.389 Y0.263 Z14.648 F2500.000
G1 X49.373 Y0.263 Z14.528 F2500.000
G1 X50.357 Y0.263 Z14.371 F2500.000
G1 X51.341 Y0.263 Z14.184 F2500.000
G1 X52.325 Y0.263 Z13.962 F2500.000
G1 X53.309 Y0.263 Z13.706 F2500.000
G1 X54.293 Y0.263 Z13.500 F2500.000
G1 X72.007 Y0.263 Z13.500 F2500.000
(End of step 1.)
G0 Z26.500
G0 X10.932 Y4.263
G0 Z17.500
(Begin step 2.)
G0 X10.932 Y4.263
(part 1)
G1 X10.932 Y4.263 Z13.500 F2500.000
G1 X28.681 Y4.263 Z13.500 F2500.000
G1 X29.667 Y4.263 Z13.738 F2500.000
G1 X30.653 Y4.263 Z13.993 F2500.000
G1 X31.639 Y4.263 Z14.216 F2500.000
G1 X32.625 Y4.263 Z14.405 F2500.000
G1 X33.611 Y4.263 Z14.559 F2500.000
G1 X34.597 Y4.263 Z14.681 F2500.000
G1 X35.584 Y4.263 Z14.769 F2500.000
G1 X36.570 Y4.263 Z14.822 F2500.000
G1 X37.556 Y4.263 Z14.847 F2500.000
G1 X38.542 Y4.263 Z14.858 F2500.000
G1 X39.528 Y4.263 Z14.864 F2500.000
G1 X41.500 Y4.263 Z14.869 F2500.000
G1 X43.472 Y4.263 Z14.864 F2500.000
G1 X44.458 Y4.263 Z14.858 F2500.000
G1 X45.444 Y4.263 Z14.848 F2500.000
G1 X46.430 Y4.263 Z14.823 F2500.000
G1 X47.416 Y4.263 Z14.769 F2500.000
G1 X48.403 Y4.263 Z14.681 F2500.000
G1 X49.389 Y4.263 Z14.559 F2500.000
G1 X50.375 Y4.263 Z14.405 F2500.000
G1 X51.361 Y4.263 Z14.216 F2500.000
G1 X52.347 Y4.263 Z13.993 F2500.000
G1 X53.333 Y4.263 Z13.738 F2500.000
G1 X54.319 Y4.263 Z13.500 F2500.000
G1 X72.068 Y4.263 Z13.500 F2500.000
(End of step 2.)
G0 Z26.500
G0 X10.870 Y8.263
G0 Z17.500
(Begin step 3.)
G0 X10.870 Y8.263
(part 1)
G1 X10.870 Y8.263 Z13.500 F2500.000
G1 X28.655 Y8.263 Z13.500 F2500.000
G1 X29.643 Y8.263 Z13.771 F2500.000
G1 X30.631 Y8.263 Z14.027 F2500.000
G1 X31.619 Y8.263 Z14.249 F2500.000
G1 X32.607 Y8.263 Z14.438 F2500.000
G1 X33.596 Y8.263 Z14.592 F2500.000
G1 X34.584 Y8.263 Z14.714 F2500.000
G1 X35.572 Y8.263 Z14.802 F2500.000
G1 X36.560 Y8.263 Z14.855 F2500.000
G1 X37.548 Y8.263 Z14.881 F2500.000
G1 X38.536 Y8.263 Z14.892 F2500.000
G1 X39.524 Y8.263 Z14.898 F2500.000
G1 X41.500 Y8.263 Z14.902 F2500.000
G1 X43.476 Y8.263 Z14.898 F2500.000
G1 X44.464 Y8.263 Z14.892 F2500.000
G1 X45.452 Y8.263 Z14.881 F2500.000
G1 X46.440 Y8.263 Z14.855 F2500.000
G1 X47.428 Y8.263 Z14.802 F2500.000
G1 X48.416 Y8.263 Z14.714 F2500.000
G1 X49.404 Y8.263 Z14.592 F2500.000
G1 X50.393 Y8.263 Z14.438 F2500.000
G1 X51.381 Y8.263 Z14.249 F2500.000
G1 X52.369 Y8.263 Z14.027 F2500.000
G1 X53.357 Y8.263 Z13.771 F2500.000
G1 X54.345 Y8.263 Z13.500 F2500.000
G1 X72.130 Y8.263 Z13.500 F2500.000
(End of step 3.)
G0 Z26.500
G0 X10.809 Y12.263
G0 Z17.500
(Begin step 4.)
G0 X10.809 Y12.263
(part 1)
G1 X10.809 Y12.263 Z13.500 F2500.000
G1 X27.639 Y12.263 Z13.500 F2500.000
G1 X28.629 Y12.263 Z13.515 F2500.000
G1 X29.619 Y12.263 Z13.803 F2500.000
G1 X30.610 Y12.263 Z14.060 F2500.000
G1 X31.600 Y12.263 Z14.280 F2500.000
G1 X32.590 Y12.263 Z14.470 F2500.000
G1 X33.580 Y12.263 Z14.625 F2500.000
G1 X34.570 Y12.263 Z14.747 F2500.000
G1 X35.560 Y12.263 Z14.834 F2500.000
G1 X36.550 Y12.263 Z14.889 F2500.000
G1 X37.540 Y12.263 Z14.914 F2500.000
G1 X38.530 Y12.263 Z14.924 F2500.000
G1 X41.500 Y12.263 Z14.935 F2500.000
G1 X43.480 Y12.263 Z14.931 F2500.000
G1 X44.470 Y12.263 Z14.925 F2500.000
G1 X45.460 Y12.263 Z14.913 F2500.000
G1 X46.450 Y12.263 Z14.889 F2500.000
G1 X47.440 Y12.263 Z14.834 F2500.000
G1 X48.430 Y12.263 Z14.747 F2500.000
G1 X49.420 Y12.263 Z14.625 F2500.000
G1 X50.410 Y12.263 Z14.470 F2500.000
G1 X51.400 Y12.263 Z14.280 F2500.000
G1 X52.390 Y12.263 Z14.060 F2500.000
G1 X53.381 Y12.263 Z13.804 F2500.000
G1 X54.371 Y12.263 Z13.515 F2500.000
G1 X55.361 Y12.263 Z13.500 F2500.000
G1 X72.191 Y12.263 Z13.500 F2500.000
(End of step 4.)
G0 Z26.500
G0 X10.747 Y16.263
G0 Z17.500
(Begin step 5.)
G0 X10.747 Y16.263
(part 1)
G1 X10.747 Y16.263 Z13.500 F2500.000
G1 X27.612 Y16.263 Z13.500 F2500.000
G1 X28.604 Y16.263 Z13.546 F2500.000
G1 X29.596 Y16.263 Z13.836 F2500.000
G1 X30.588 Y16.263 Z14.091 F2500.000
G1 X31.580 Y16.263 Z14.313 F2500.000
G1 X32.572 Y16.263 Z14.503 F2500.000
G1 X33.564 Y16.263 Z14.659 F2500.000
G1 X34.556 Y16.263 Z14.780 F2500.000
G1 X35.548 Y16.263 Z14.867 F2500.000
G1 X36.540 Y16.263 Z14.921 F2500.000
G1 X37.532 Y16.263 Z14.946 F2500.000
G1 X38.524 Y16.263 Z14.958 F2500.000
G1 X39.516 Y16.263 Z14.964 F2500.000
G1 X41.500 Y16.263 Z14.968 F2500.000
G1 X43.484 Y16.263 Z14.964 F2500.000
G1 X44.476 Y16.263 Z14.957 F2500.000
G1 X45.468 Y16.263 Z14.947 F2500.000
G1 X46.460 Y16.263 Z14.921 F2500.000
G1 X47.452 Y16.263 Z14.867 F2500.000
G1 X48.444 Y16.263 Z14.780 F2500.000
G1 X49.436 Y16.263 Z14.658 F2500.000
G1 X50.428 Y16.263 Z14.503 F2500.000
G1 X51.420 Y16.263 Z14.313 F2500.000
G1 X52.412 Y16.263 Z14.091 F2500.000
G1 X53.404 Y16.263 Z13.836 F2500.000
G1 X54.396 Y16.263 Z13.546 F2500.000
G1 X55.388 Y16.263 Z13.500 F2500.000
G1 X72.253 Y16.263 Z13.500 F2500.000
(End of step 5.)
G0 Z26.500
G0 X10.686 Y20.263
G0 Z17.500
(Begin step 6.)
G0 X10.686 Y20.263
(part 1)
G1 X10.686 Y20.263 Z13.500 F2500.000
G1 X27.584 Y20.263 Z13.500 F2500.000
G1 X28.578 Y20.263 Z13.580 F2500.000
G1 X29.572 Y20.263 Z13.869 F2500.000
G1 X30.566 Y20.263 Z14.125 F2500.000
G1 X31.560 Y20.263 Z14.346 F2500.000
G1 X32.554 Y20.263 Z14.536 F2500.000
G1 X33.548 Y20.263 Z14.691 F2500.000
G1 X34.542 Y20.263 Z14.813 F2500.000
G1 X35.536 Y20.263 Z14.901 F2500.000
G1 X36.530 Y20.263 Z14.954 F2500.000
G1 X37.524 Y20.263 Z14.979 F2500.000
G1 X38.518 Y20.263 Z14.991 F2500.000
G1 X41.500 Y20.263 Z15.002 F2500.000
G1 X43.488 Y20.263 Z14.997 F2500.000
G1 X44.482 Y20.263 Z14.991 F2500.000
G1 X45.476 Y20.263 Z14.979 F2500.000
G1 X46.470 Y20.263 Z14.954 F2500.000
G1 X47.464 Y20.263 Z14.901 F2500.000
G1 X48.458 Y20.263 Z14.813 F2500.000
G1 X49.452 Y20.263 Z14.691 F2500.000
G1 X50.446 Y20.263 Z14.536 F2500.000
G1 X51.440 Y20.263 Z14.347 F2500.000
G1 X52.434 Y20.263 Z14.125 F2500.000
G1 X53.428 Y20.263 Z13.869 F2500.000
G1 X54.422 Y20.263 Z13.580 F2500.000
G1 X55.416 Y20.263 Z13.500 F2500.000
G1 X72.314 Y20.263 Z13.500 F2500.000
(End of step 6.)
G0 Z26.500
G0 X10.624 Y24.263
G0 Z17.500
(Begin step 7.)
G0 X10.624 Y24.263
(part 1)
G1 X10.624 Y24.263 Z13.500 F2500.000
G1 X27.556 Y24.263 Z13.500 F2500.000
G1 X28.552 Y24.263 Z13.613 F2500.000
G1 X29.548 Y24.263 Z13.901 F2500.000
G1 X30.544 Y24.263 Z14.157 F2500.000
G1 X31.540 Y24.263 Z14.379 F2500.000
G1 X32.536 Y24.263 Z14.568 F2500.000
G1 X33.532 Y24.263 Z14.724 F2500.000
G1 X34.528 Y24.263 Z14.846 F2500.000
G1 X35.524 Y24.263 Z14.934 F2500.000
G1 X36.520 Y24.263 Z14.988 F2500.000
G1 X37.516 Y24.263 Z15.014 F2500.000
G1 X38.512 Y24.263 Z15.024 F2500.000
G1 X39.508 Y24.263 Z15.031 F2500.000
G1 X41.500 Y24.263 Z15.035 F2500.000
G1 X43.492 Y24.263 Z15.031 F2500.000
G1 X44.488 Y24.263 Z15.024 F2500.000
G1 X45.484 Y24.263 Z15.014 F2500.000
G1 X46.480 Y24.263 Z14.988 F2500.000
G1 X47.476 Y24.263 Z14.934 F2500.000
G1 X48.472 Y24.263 Z14.846 F2500.000
G1 X49.468 Y24.263 Z14.724 F2500.000
G1 X50.464 Y24.263 Z14.568 F2500.000
G1 X51.460 Y24.263 Z14.379 F2500.000
G1 X52.456 Y24.263 Z14.157 F2500.000
G1 X53.452 Y24.263 Z13.901 F2500.000
G1 X54.448 Y24.263 Z13.613 F2500.000
G1 X55.444 Y24.263 Z13.500 F2500.000
G1 X72.376 Y24.263 Z13.500 F2500.000
(End of step 7.)
G0 Z26.500
G0 X10.563 Y28.263
G0 Z17.500
(Begin step 8.)
G0 X10.563 Y28.263
(part 1)
G1 X10.563 Y28.263 Z13.500 F2500.000
G1 X27.528 Y28.263 Z13.500 F2500.000
G1 X28.526 Y28.263 Z13.645 F2500.000
G1 X29.524 Y28.263 Z13.935 F2500.000
G1 X30.522 Y28.263 Z14.190 F2500.000
G1 X31.520 Y28.263 Z14.413 F2500.000
G1 X32.518 Y28.263 Z14.601 F2500.000
G1 X33.516 Y28.263 Z14.757 F2500.000
G1 X34.514 Y28.263 Z14.879 F2500.000
G1 X35.512 Y28.263 Z14.966 F2500.000
G1 X36.510 Y28.263 Z15.021 F2500.000
G1 X37.508 Y28.263 Z15.046 F2500.000
G1 X38.506 Y28.263 Z15.057 F2500.000
G1 X39.504 Y28.263 Z15.064 F2500.000
G1 X41.500 Y28.263 Z15.068 F2500.000
G1 X43.496 Y28.263 Z15.064 F2500.000
G1 X44.494 Y28.263 Z15.057 F2500.000
G1 X45.492 Y28.263 Z15.046 F2500.000
G1 X46.490 Y28.263 Z15.021 F2500.000
G1 X47.488 Y28.263 Z14.966 F2500.000
G1 X48.486 Y28.263 Z14.878 F2500.000
G1 X49.484 Y28.263 Z14.757 F2500.000
G1 X50.482 Y28.263 Z14.601 F2500.000
G1 X51.480 Y28.263 Z14.413 F2500.000
G1 X52.478 Y28.263 Z14.190 F2500.000
G1 X53.476 Y28.263 Z13.934 F2500.000
G1 X54.474 Y28.263 Z13.645 F2500.000
G1 X55.472 Y28.263 Z13.500 F2500.000
G1 X72.437 Y28.263 Z13.500 F2500.000
(End of step 8.)
G0 Z26.500
G0 X10.501 Y32.263
G0 Z17.500
(Begin step 9.)
G0 X10.501 Y32.263
(part 1)
G1 X10.501 Y32.263 Z13.500 F2500.000
G1 X27.500 Y32.263 Z13.500 F2500.000
G1 X28.500 Y32.263 Z13.678 F2500.000
G1 X29.500 Y32.263 Z13.967 F2500.000
G1 X30.500 Y32.263 Z14.223 F2500.000
G1 X31.500 Y32.263 Z14.445 F2500.000
G1 X32.500 Y32.263 Z14.634 F2500.000
G1 X33.500 Y32.263 Z14.790 F2500.000
G1 X34.500 Y32.263 Z14.911 F2500.000
G1 X35.500 Y32.263 Z14.999 F2500.000
G1 X36.500 Y32.263 Z15.053 F2500.000
G1 X37.500 Y32.263 Z15.080 F2500.000
G1 X38.500 Y32.263 Z15.091 F2500.000
G1 X41.500 Y32.263 Z15.101 F2500.000
G1 X43.500 Y32.263 Z15.097 F2500.000
G1 X44.500 Y32.263 Z15.091 F2500.000
G1 X45.500 Y32.263 Z15.080 F2500.000
G1 X46.500 Y32.263 Z15.053 F2500.000
G1 X47.500 Y32.263 Z14.999 F2500.000
G1 X48.500 Y32.263 Z14.911 F2500.000
G1 X49.500 Y32.263 Z14.789 F2500.000
G1 X50.500 Y32.263 Z14.634 F2500.000
G1 X51.500 Y32.263 Z14.445 F2500.000
G1 X52.500 Y32.263 Z14.223 F2500.000
G1 X53.500 Y32.263 Z13.967 F2500.000
G1 X54.500 Y32.263 Z13.678 F2500.000
G1 X55.500 Y32.263 Z13.500 F2500.000
G1 X72.499 Y32.263 Z13.500 F2500.000
(End of step 9.)
G0 Z26.500
G0 X10.439 Y36.263
G0 Z17.500
(Begin step 10.)
G0 X10.439 Y36.263
(part 1)
G1 X10.439 Y36.263 Z13.500 F2500.000
G1 X27.202 Y36.263 Z13.500 F2500.000
G1 X28.188 Y36.263 Z13.621 F2500.000
G1 X29.174 Y36.263 Z13.917 F2500.000
G1 X30.160 Y36.263 Z14.178 F2500.000
G1 X31.146 Y36.263 Z14.408 F2500.000
G1 X32.133 Y36.263 Z14.605 F2500.000
G1 X33.119 Y36.263 Z14.769 F2500.000
G1 X34.105 Y36.263 Z14.901 F2500.000
G1 X35.091 Y36.263 Z15.001 F2500.000
G1 X36.077 Y36.263 Z15.068 F2500.000
G1 X37.063 Y36.263 Z15.104 F2500.000
G1 X38.049 Y36.263 Z15.119 F2500.000
G1 X39.035 Y36.263 Z15.128 F2500.000
G1 X41.007 Y36.263 Z15.135 F2500.000
G1 X43.965 Y36.263 Z15.128 F2500.000
G1 X44.951 Y36.263 Z15.119 F2500.000
G1 X45.937 Y36.263 Z15.104 F2500.000
G1 X46.923 Y36.263 Z15.068 F2500.000
G1 X47.909 Y36.263 Z15.001 F2500.000
G1 X48.895 Y36.263 Z14.901 F2500.000
G1 X49.881 Y36.263 Z14.769 F2500.000
G1 X50.867 Y36.263 Z14.605 F2500.000
G1 X51.854 Y36.263 Z14.408 F2500.000
G1 X52.840 Y36.263 Z14.178 F2500.000
G1 X53.826 Y36.263 Z13.917 F2500.000
G1 X54.812 Y36.263 Z13.621 F2500.000
G1 X55.798 Y36.263 Z13.500 F2500.000
G1 X72.561 Y36.263 Z13.500 F2500.000
(End of step 10.)
G0 Z26.500
G0 X10.378 Y40.263
G0 Z17.500
(Begin step 11.)
G0 X10.378 Y40.263
(part 1)
G1 X10.378 Y40.263 Z13.500 F2500.000
G1 X27.174 Y40.263 Z13.500 F2500.000
G1 X28.162 Y40.263 Z13.655 F2500.000
G1 X29.150 Y40.263 Z13.950 F2500.000
G1 X30.138 Y40.263 Z14.210 F2500.000
G1 X31.126 Y40.263 Z14.441 F2500.000
G1 X32.114 Y40.263 Z14.638 F2500.000
G1 X33.102 Y40.263 Z14.803 F2500.000
G1 X34.090 Y40.263 Z14.934 F2500.000
G1 X35.078 Y40.263 Z15.033 F2500.000
G1 X36.066 Y40.263 Z15.101 F2500.000
G1 X37.054 Y40.263 Z15.137 F2500.000
G1 X38.042 Y40.263 Z15.153 F2500.000
G1 X39.030 Y40.263 Z15.161 F2500.000
G1 X41.006 Y40.263 Z15.167 F2500.000
G1 X43.970 Y40.263 Z15.161 F2500.000
G1 X44.958 Y40.263 Z15.154 F2500.000
G1 X45.946 Y40.263 Z15.137 F2500.000
G1 X46.934 Y40.263 Z15.101 F2500.000
G1 X47.922 Y40.263 Z15.033 F2500.000
G1 X48.910 Y40.263 Z14.934 F2500.000
G1 X49.898 Y40.263 Z14.803 F2500.000
G1 X50.886 Y40.263 Z14.638 F2500.000
G1 X51.874 Y40.263 Z14.441 F2500.000
G1 X52.862 Y40.263 Z14.210 F2500.000
G1 X53.850 Y40.263 Z13.950 F2500.000
G1 X54.838 Y40.263 Z13.655 F2500.000
G1 X55.826 Y40.263 Z13.500 F2500.000
G1 X72.622 Y40.263 Z13.500 F2500.000
(End of step 11.)
G0 Z26.500
G0 X10.316 Y44.263
G0 Z17.500
(Begin step 12.)
G0 X10.316 Y44.263
(part 1)
G1 X10.316 Y44.263 Z13.500 F2500.000
G1 X27.146 Y44.263 Z13.500 F2500.000
G1 X28.136 Y44.263 Z13.687 F2500.000
G1 X29.126 Y44.263 Z13.982 F2500.000
G1 X30.116 Y44.263 Z14.244 F2500.000
G1 X31.105 Y44.263 Z14.474 F2500.000
G1 X32.095 Y44.263 Z14.671 F2500.000
G1 X33.085 Y44.263 Z14.834 F2500.000
G1 X34.075 Y44.263 Z14.966 F2500.000
G1 X35.065 Y44.263 Z15.067 F2500.000
G1 X36.055 Y44.263 Z15.133 F2500.000
G1 X37.045 Y44.263 Z15.171 F2500.000
G1 X38.035 Y44.263 Z15.187 F2500.000
G1 X39.025 Y44.263 Z15.195 F2500.000
G1 X41.005 Y44.263 Z15.201 F2500.000
G1 X43.975 Y44.263 Z15.194 F2500.000
G1 X44.965 Y44.263 Z15.187 F2500.000
G1 X45.955 Y44.263 Z15.170 F2500.000
G1 X46.945 Y44.263 Z15.133 F2500.000
G1 X47.935 Y44.263 Z15.067 F2500.000
G1 X48.925 Y44.263 Z14.967 F2500.000
G1 X49.915 Y44.263 Z14.835 F2500.000
G1 X50.905 Y44.263 Z14.671 F2500.000
G1 X51.895 Y44.263 Z14.474 F2500.000
G1 X52.884 Y44.263 Z14.244 F2500.000
G1 X53.874 Y44.263 Z13.982 F2500.000
G1 X54.864 Y44.263 Z13.687 F2500.000
G1 X55.854 Y44.263 Z13.500 F2500.000
G1 X72.684 Y44.263 Z13.500 F2500.000
(End of step 12.)
G0 Z26.500
G0 X10.255 Y48.263
G0 Z17.500
(Begin step 13.)
G0 X10.255 Y48.263
(part 1)
G1 X10.255 Y48.263 Z13.500 F2500.000
G1 X27.117 Y48.263 Z13.500 F2500.000
G1 X28.109 Y48.263 Z13.719 F2500.000
G1 X29.101 Y48.263 Z14.015 F2500.000
G1 X30.093 Y48.263 Z14.277 F2500.000
G1 X31.085 Y48.263 Z14.506 F2500.000
G1 X32.077 Y48.263 Z14.702 F2500.000
G1 X33.069 Y48.263 Z14.868 F2500.000
G1 X34.061 Y48.263 Z15.001 F2500.000
G1 X35.053 Y48.263 Z15.100 F2500.000
G1 X36.044 Y48.263 Z15.167 F2500.000
G1 X37.036 Y48.263 Z15.204 F2500.000
G1 X38.028 Y48.263 Z15.220 F2500.000
G1 X39.020 Y48.263 Z15.227 F2500.000
G1 X41.004 Y48.263 Z15.234 F2500.000
G1 X43.980 Y48.263 Z15.228 F2500.000
G1 X44.972 Y48.263 Z15.219 F2500.000
G1 X45.964 Y48.263 Z15.204 F2500.000
G1 X46.956 Y48.263 Z15.167 F2500.000
G1 X47.947 Y48.263 Z15.100 F2500.000
G1 X48.939 Y48.263 Z15.000 F2500.000
G1 X49.931 Y48.263 Z14.868 F2500.000
G1 X50.923 Y48.263 Z14.704 F2500.000
G1 X51.915 Y48.263 Z14.507 F2500.000
G1 X52.907 Y48.263 Z14.277 F2500.000
G1 X53.899 Y48.263 Z14.014 F2500.000
G1 X54.891 Y48.263 Z13.720 F2500.000
G1 X55.883 Y48.263 Z13.500 F2500.000
G1 X72.745 Y48.263 Z13.500 F2500.000
(End of step 13.)
G0 Z26.500
G0 X10.193 Y52.263
G0 Z17.500
(Begin step 14.)
G0 X10.193 Y52.263
(part 1)
G1 X10.193 Y52.263 Z13.500 F2500.000
G1 X27.089 Y52.263 Z13.500 F2500.000
G1 X28.083 Y52.263 Z13.754 F2500.000
G1 X29.077 Y52.263 Z14.049 F2500.000
G1 X30.071 Y52.263 Z14.311 F2500.000
G1 X31.064 Y52.263 Z14.540 F2500.000
G1 X32.058 Y52.263 Z14.737 F2500.000
G1 X33.052 Y52.263 Z14.901 F2500.000
G1 X34.046 Y52.263 Z15.033 F2500.000
G1 X35.040 Y52.263 Z15.133 F2500.000
G1 X36.034 Y52.263 Z15.200 F2500.000
G1 X37.028 Y52.263 Z15.237 F2500.000
G1 X38.021 Y52.263 Z15.252 F2500.000
G1 X39.015 Y52.263 Z15.261 F2500.000
G1 X41.997 Y52.263 Z15.267 F2500.000
G1 X43.985 Y52.263 Z15.260 F2500.000
G1 X44.979 Y52.263 Z15.253 F2500.000
G1 X45.972 Y52.263 Z15.237 F2500.000
G1 X46.966 Y52.263 Z15.200 F2500.000
G1 X47.960 Y52.263 Z15.132 F2500.000
G1 X48.954 Y52.263 Z15.033 F2500.000
G1 X49.948 Y52.263 Z14.901 F2500.000
G1 X50.942 Y52.263 Z14.737 F2500.000
G1 X51.936 Y52.263 Z14.540 F2500.000
G1 X52.929 Y52.263 Z14.311 F2500.000
G1 X53.923 Y52.263 Z14.049 F2500.000
G1 X54.917 Y52.263 Z13.754 F2500.000
G1 X55.911 Y52.263 Z13.500 F2500.000
G1 X72.807 Y52.263 Z13.500 F2500.000
(End of step 14.)
G0 Z26.500
G0 X10.132 Y56.263
G0 Z17.500
(Begin step 15.)
G0 X10.132 Y56.263
(part 1)
G1 X10.132 Y56.263 Z13.500 F2500.000
G1 X27.061 Y56.263 Z13.500 F2500.000
G1 X28.056 Y56.263 Z13.786 F2500.000
G1 X29.052 Y56.263 Z14.082 F2500.000
G1 X30.048 Y56.263 Z14.344 F2500.000
G1 X31.044 Y56.263 Z14.572 F2500.000
G1 X32.040 Y56.263 Z14.770 F2500.000
G1 X33.036 Y56.263 Z14.933 F2500.000
G1 X34.031 Y56.263 Z15.066 F2500.000
G1 X35.027 Y56.263 Z15.166 F2500.000
G1 X36.023 Y56.263 Z15.233 F2500.000
G1 X37.019 Y56.263 Z15.269 F2500.000
G1 X38.015 Y56.263 Z15.286 F2500.000
G1 X39.010 Y56.263 Z15.294 F2500.000
G1 X41.002 Y56.263 Z15.301 F2500.000
G1 X43.990 Y56.263 Z15.294 F2500.000
G1 X44.985 Y56.263 Z15.286 F2500.000
G1 X45.981 Y56.263 Z15.270 F2500.000
G1 X46.977 Y56.263 Z15.233 F2500.000
G1 X47.973 Y56.263 Z15.166 F2500.000
G1 X48.969 Y56.263 Z15.066 F2500.000
G1 X49.964 Y56.263 Z14.934 F2500.000
G1 X50.960 Y56.263 Z14.770 F2500.000
G1 X51.956 Y56.263 Z14.573 F2500.000
G1 X52.952 Y56.263 Z14.344 F2500.000
G1 X53.948 Y56.263 Z14.082 F2500.000
G1 X54.944 Y56.263 Z13.785 F2500.000
G1 X55.939 Y56.263 Z13.500 F2500.000
G1 X72.868 Y56.263 Z13.500 F2500.000
(End of step 15.)
G0 Z26.500
G0 X10.070 Y60.263
G0 Z17.500
(Begin step 16.)
G0 X10.070 Y60.263
(part 1)
G1 X10.070 Y60.263 Z13.500 F2500.000
G1 X27.032 Y60.263 Z13.500 F2500.000
G1 X28.030 Y60.263 Z13.819 F2500.000
G1 X29.028 Y60.263 Z14.115 F2500.000
G1 X30.026 Y60.263 Z14.377 F2500.000
G1 X31.023 Y60.263 Z14.607 F2500.000
G1 X32.021 Y60.263 Z14.803 F2500.000
G1 X33.019 Y60.263 Z14.967 F2500.000
G1 X34.017 Y60.263 Z15.098 F2500.000
G1 X35.014 Y60.263 Z15.199 F2500.000
G1 X36.012 Y60.263 Z15.265 F2500.000
G1 X37.010 Y60.263 Z15.303 F2500.000
G1 X38.008 Y60.263 Z15.319 F2500.000
G1 X39.006 Y60.263 Z15.327 F2500.000
G1 X41.001 Y60.263 Z15.334 F2500.000
G1 X43.994 Y60.263 Z15.327 F2500.000
G1 X44.992 Y60.263 Z15.319 F2500.000
G1 X45.990 Y60.263 Z15.302 F2500.000
G1 X46.988 Y60.263 Z15.265 F2500.000
G1 X47.986 Y60.263 Z15.199 F2500.000
G1 X48.983 Y60.263 Z15.099 F2500.000
G1 X49.981 Y60.263 Z14.967 F2500.000
G1 X50.979 Y60.263 Z14.803 F2500.000
G1 X51.977 Y60.263 Z14.607 F2500.000
G1 X52.974 Y60.263 Z14.377 F2500.000
G1 X53.972 Y60.263 Z14.115 F2500.000
G1 X54.970 Y60.263 Z13.819 F2500.000
G1 X55.968 Y60.263 Z13.500 F2500.000
G1 X72.930 Y60.263 Z13.500 F2500.000
(End of step 16.)
G0 Z26.500
G0 X10.009 Y64.263
G0 Z17.500
(Begin step 17.)
G0 X10.009 Y64.263
(part 1)
G1 X10.009 Y64.263 Z13.500 F2500.000
G1 X26.004 Y64.263 Z13.500 F2500.000
G1 X27.004 Y64.263 Z13.523 F2500.000
G1 X28.004 Y64.263 Z13.852 F2500.000
G1 X29.003 Y64.263 Z14.148 F2500.000
G1 X30.003 Y64.263 Z14.410 F2500.000
G1 X31.003 Y64.263 Z14.639 F2500.000
G1 X32.003 Y64.263 Z14.836 F2500.000
G1 X33.002 Y64.263 Z15.001 F2500.000
G1 X34.002 Y64.263 Z15.132 F2500.000
G1 X35.002 Y64.263 Z15.231 F2500.000
G1 X36.002 Y64.263 Z15.299 F2500.000
G1 X37.001 Y64.263 Z15.337 F2500.000
G1 X38.001 Y64.263 Z15.353 F2500.000
G1 X39.001 Y64.263 Z15.360 F2500.000
G1 X42.000 Y64.263 Z15.367 F2500.000
G1 X43.999 Y64.263 Z15.361 F2500.000
G1 X44.999 Y64.263 Z15.353 F2500.000
G1 X45.999 Y64.263 Z15.337 F2500.000
G1 X46.998 Y64.263 Z15.299 F2500.000
G1 X47.998 Y64.263 Z15.231 F2500.000
G1 X48.998 Y64.263 Z15.132 F2500.000
G1 X49.998 Y64.263 Z15.000 F2500.000
G1 X50.997 Y64.263 Z14.836 F2500.000
G1 X51.997 Y64.263 Z14.639 F2500.000
G1 X52.997 Y64.263 Z14.411 F2500.000
G1 X53.997 Y64.263 Z14.148 F2500.000
G1 X54.996 Y64.263 Z13.851 F2500.000
G1 X55.996 Y64.263 Z13.523 F2500.000
G1 X56.996 Y64.263 Z13.500 F2500.000
G1 X72.991 Y64.263 Z13.500 F2500.000
(End of step 17.)
G0 Z26.500
G0 X9.947 Y68.263
G0 Z17.500
(Begin step 18.)
G0 X9.947 Y68.263
(part 1)
G1 X9.947 Y68.263 Z13.500 F2500.000
G1 X26.710 Y68.263 Z13.500 F2500.000
G1 X27.696 Y68.263 Z13.796 F2500.000
G1 X28.682 Y68.263 Z14.097 F2500.000
G1 X29.668 Y68.263 Z14.365 F2500.000
G1 X30.654 Y68.263 Z14.601 F2500.000
G1 X31.640 Y68.263 Z14.805 F2500.000
G1 X32.626 Y68.263 Z14.977 F2500.000
G1 X33.612 Y68.263 Z15.119 F2500.000
G1 X34.598 Y68.263 Z15.229 F2500.000
G1 X35.584 Y68.263 Z15.308 F2500.000
G1 X36.570 Y68.263 Z15.357 F2500.000
G1 X37.556 Y68.263 Z15.380 F2500.000
G1 X38.542 Y68.263 Z15.391 F2500.000
G1 X39.528 Y68.263 Z15.397 F2500.000
G1 X41.500 Y68.263 Z15.401 F2500.000
G1 X44.458 Y68.263 Z15.390 F2500.000
G1 X45.444 Y68.263 Z15.380 F2500.000
G1 X46.430 Y68.263 Z15.357 F2500.000
G1 X47.416 Y68.263 Z15.308 F2500.000
G1 X48.402 Y68.263 Z15.229 F2500.000
G1 X49.388 Y68.263 Z15.119 F2500.000
G1 X50.374 Y68.263 Z14.978 F2500.000
G1 X51.360 Y68.263 Z14.806 F2500.000
G1 X52.346 Y68.263 Z14.601 F2500.000
G1 X53.332 Y68.263 Z14.365 F2500.000
G1 X54.318 Y68.263 Z14.097 F2500.000
G1 X56.290 Y68.263 Z13.500 F2500.000
G1 X73.053 Y68.263 Z13.500 F2500.000
(End of step 18.)
G0 Z26.500
G0 X9.886 Y72.263
G0 Z17.500
(Begin step 19.)
G0 X9.886 Y72.263
(part 1)
G1 X9.886 Y72.263 Z13.500 F2500.000
G1 X26.681 Y72.263 Z13.500 F2500.000
G1 X27.669 Y72.263 Z13.829 F2500.000
G1 X28.657 Y72.263 Z14.131 F2500.000
G1 X29.645 Y72.263 Z14.399 F2500.000
G1 X30.633 Y72.263 Z14.635 F2500.000
G1 X31.621 Y72.263 Z14.839 F2500.000
G1 X32.608 Y72.263 Z15.011 F2500.000
G1 X33.596 Y72.263 Z15.153 F2500.000
G1 X34.584 Y72.263 Z15.263 F2500.000
G1 X35.572 Y72.263 Z15.341 F2500.000
G1 X36.560 Y72.263 Z15.390 F2500.000
G1 X37.548 Y72.263 Z15.414 F2500.000
G1 X38.536 Y72.263 Z15.424 F2500.000
G1 X39.524 Y72.263 Z15.430 F2500.000
G1 X41.500 Y72.263 Z15.434 F2500.000
G1 X44.464 Y72.263 Z15.424 F2500.000
G1 X45.452 Y72.263 Z15.413 F2500.000
G1 X46.440 Y72.263 Z15.390 F2500.000
G1 X47.428 Y72.263 Z15.340 F2500.000
G1 X48.416 Y72.263 Z15.263 F2500.000
G1 X49.404 Y72.263 Z15.152 F2500.000
G1 X50.392 Y72.263 Z15.010 F2500.000
G1 X51.379 Y72.263 Z14.839 F2500.000
G1 X52.367 Y72.263 Z14.635 F2500.000
G1 X53.355 Y72.263 Z14.398 F2500.000
G1 X54.343 Y72.263 Z14.131 F2500.000
G1 X55.331 Y72.263 Z13.829 F2500.000
G1 X56.319 Y72.263 Z13.500 F2500.000
G1 X73.114 Y72.263 Z13.500 F2500.000
(End of step 19.)
G0 Z26.500
G0 X9.824 Y76.263
G0 Z17.500
(Begin step 20.)
G0 X9.824 Y76.263
(part 1)
G1 X9.824 Y76.263 Z13.500 F2500.000
G1 X25.662 Y76.263 Z13.500 F2500.000
G1 X26.652 Y76.263 Z13.528 F2500.000
G1 X27.642 Y76.263 Z13.863 F2500.000
G1 X28.632 Y76.263 Z14.164 F2500.000
G1 X29.622 Y76.263 Z14.432 F2500.000
G1 X30.611 Y76.263 Z14.667 F2500.000
G1 X31.601 Y76.263 Z14.872 F2500.000
G1 X32.591 Y76.263 Z15.044 F2500.000
G1 X33.581 Y76.263 Z15.184 F2500.000
G1 X34.571 Y76.263 Z15.295 F2500.000
G1 X35.561 Y76.263 Z15.375 F2500.000
G1 X36.551 Y76.263 Z15.424 F2500.000
G1 X37.541 Y76.263 Z15.446 F2500.000
G1 X38.530 Y76.263 Z15.457 F2500.000
G1 X39.520 Y76.263 Z15.463 F2500.000
G1 X41.500 Y76.263 Z15.467 F2500.000
G1 X44.470 Y76.263 Z15.457 F2500.000
G1 X45.459 Y76.263 Z15.446 F2500.000
G1 X46.449 Y76.263 Z15.424 F2500.000
G1 X47.439 Y76.263 Z15.375 F2500.000
G1 X48.429 Y76.263 Z15.295 F2500.000
