(Exported by FreeCAD)
(Post Processor: grbl_post)
(Output Time:2023-05-30 22:25:02.246825)
(Begin preamble)
G17 G90
G21
(Begin operation: 3.175 Z2 droite003)
(Path: 3.175 Z2 droite003)
(3.175 Z2 droite003)
(Begin toolchange)
( M6 T2 )
M3 S24000
(Finish operation: 3.175 Z2 droite003)
(Begin operation: Fixture)
(Path: Fixture)
G54
G0 Z5.000
(Finish operation: Fixture)
(Begin operation: Profile)
(Path: Profile)
(Profile)
(Compensated Tool Path. Diameter: 3.17)
G0 Z5.000
G0 X277.321 Y611.121
G0 Z3.000
G1 X277.321 Y611.121 Z-2.113 F1000.000
G2 X277.785 Y610.000 Z-2.113 I-1.121 J-1.121 K0.000 F2500.000
G1 X277.785 Y549.000 Z-2.113 F2500.000
G2 X276.200 Y547.415 Z-2.113 I-1.585 J0.000 K0.000 F2500.000
G1 X251.200 Y547.415 Z-2.113 F2500.000
G3 X215.498 Y546.184 Z-2.113 I-6.329 J-334.828 K0.000 F2500.000
G3 X189.324 Y542.259 Z-2.113 I18.312 J-211.321 K0.000 F2500.000
G3 X167.636 Y535.896 Z-2.113 I29.129 J-139.433 K0.000 F2500.000
G3 X146.621 Y524.985 Z-2.113 I33.962 J-91.106 K0.000 F2500.000
G3 X125.199 Y502.723 Z-2.113 I42.506 J-62.339 K0.000 F2500.000
G3 X113.930 Y477.073 Z-2.113 I88.306 J-54.099 K0.000 F2500.000
G3 X111.533 Y446.339 Z-2.113 I71.865 J-21.064 K0.000 F2500.000
G3 X114.385 Y431.826 Z-2.113 I144.481 J20.851 K0.000 F2500.000
G3 X121.315 Y409.400 Z-2.113 I222.278 J56.413 K0.000 F2500.000
G2 X127.154 Y392.375 Z-2.113 I-427.504 J-156.131 K0.000 F2500.000
G2 X131.804 Y373.655 Z-2.113 I-137.577 J-44.105 K0.000 F2500.000
G2 X133.004 Y360.630 Z-2.113 I-73.485 J-13.342 K0.000 F2500.000
G2 X129.455 Y341.064 Z-2.113 I-53.022 J-0.487 K0.000 F2500.000
G2 X123.970 Y329.478 Z-2.113 I-94.912 J37.843 K0.000 F2500.000
G2 X115.254 Y314.763 Z-2.113 I-403.107 J228.837 K0.000 F2500.000
G3 X96.764 Y284.100 Z-2.113 I787.814 J-495.941 K0.000 F2500.000
G3 X81.765 Y255.269 Z-2.113 I324.051 J-186.908 K0.000 F2500.000
G3 X74.132 Y236.351 Z-2.113 I173.951 J-81.181 K0.000 F2500.000
G3 X66.799 Y200.314 Z-2.113 I126.434 J-44.495 K0.000 F2500.000
G3 X73.952 Y147.639 Z-2.113 I141.542 J-7.603 K0.000 F2500.000
G3 X82.022 Y128.985 Z-2.113 I107.705 J35.525 K0.000 F2500.000
G3 X111.016 Y95.606 Z-2.113 I88.888 J47.928 K0.000 F2500.000
G3 X136.769 Y81.114 Z-2.113 I76.401 J105.643 K0.000 F2500.000
G3 X166.323 Y71.861 Z-2.113 I66.828 J161.621 K0.000 F2500.000
G3 X195.701 Y67.097 Z-2.113 I62.155 J290.333 K0.000 F2500.000
G3 X219.107 Y65.113 Z-2.113 I55.977 J521.080 K0.000 F2500.000
G3 X251.214 Y63.941 Z-2.113 I43.497 J751.548 K0.000 F2500.000
G1 X276.200 Y63.941 Z-2.113 F2500.000
G2 X277.785 Y62.356 Z-2.113 I-0.000 J-1.585 K0.000 F2500.000
G1 X277.785 Y0.000 Z-2.113 F2500.000
G2 X276.200 Y-1.585 Z-2.113 I-1.585 J0.000 K0.000 F2500.000
G1 X197.336 Y-1.585 Z-2.113 F2500.000
G2 X166.705 Y2.373 Z-2.113 I34.983 J391.283 K0.000 F2500.000
G2 X131.744 Y10.539 Z-2.113 I43.542 J265.313 K0.000 F2500.000
G2 X96.114 Y24.948 Z-2.113 I61.179 J202.543 K0.000 F2500.000
G2 X68.352 Y42.415 Z-2.113 I82.430 J161.811 K0.000 F2500.000
G2 X27.219 Y87.622 Z-2.113 I102.145 J134.258 K0.000 F2500.000
G2 X10.984 Y121.188 Z-2.113 I157.353 J96.815 K0.000 F2500.000
G2 X-1.504 Y187.069 Z-2.113 I196.592 J71.389 K0.000 F2500.000
G2 X4.591 Y241.636 Z-2.113 I196.824 J5.639 K0.000 F2500.000
G2 X15.364 Y273.592 Z-2.113 I231.928 J-60.394 K0.000 F2500.000
G2 X31.027 Y306.113 Z-2.113 I343.338 J-145.324 K0.000 F2500.000
G2 X31.131 Y306.699 Z-2.113 I1.337 J0.065 K0.000 F2500.000
G2 X32.414 Y308.680 Z-2.113 I39.345 J-24.083 K0.000 F2500.000
G1 X35.545 Y314.339 Z-2.113 F2500.000
G3 X40.140 Y331.010 Z-2.113 I-45.563 J21.526 K0.000 F2500.000
G1 X49.227 Y392.430 Z-2.113 F2500.000
G3 X49.784 Y409.425 Z-2.113 I-73.708 J10.923 K0.000 F2500.000
G2 X46.192 Y424.339 Z-2.113 I236.069 J64.750 K0.000 F2500.000
G2 X43.234 Y444.170 Z-2.113 I150.243 J32.545 K0.000 F2500.000
G2 X46.870 Y490.183 Z-2.113 I143.479 J11.813 K0.000 F2500.000
G2 X63.128 Y531.542 Z-2.113 I166.105 J-41.418 K0.000 F2500.000
G2 X97.521 Y573.271 Z-2.113 I125.902 J-68.731 K0.000 F2500.000
G2 X129.533 Y593.665 Z-2.113 I101.220 J-123.558 K0.000 F2500.000
G2 X157.135 Y604.321 Z-2.113 I84.124 J-176.839 K0.000 F2500.000
G2 X189.110 Y611.563 Z-2.113 I69.383 J-232.120 K0.000 F2500.000
G1 X189.372 Y611.585 Z-2.113 F2500.000
G1 X276.200 Y611.585 Z-2.113 F2500.000
G2 X277.321 Y611.121 Z-2.113 I-0.000 J-1.585 K0.000 F2500.000
G1 X277.321 Y611.121 Z-4.227 F1000.000
G2 X277.785 Y610.000 Z-4.227 I-1.121 J-1.121 K0.000 F2500.000
G1 X277.785 Y549.000 Z-4.227 F2500.000
G2 X276.200 Y547.415 Z-4.227 I-1.585 J0.000 K0.000 F2500.000
G1 X251.200 Y547.415 Z-4.227 F2500.000
G3 X215.498 Y546.184 Z-4.227 I-6.329 J-334.828 K0.000 F2500.000
G3 X189.324 Y542.259 Z-4.227 I18.312 J-211.321 K0.000 F2500.000
G3 X167.636 Y535.896 Z-4.227 I29.129 J-139.433 K0.000 F2500.000
G3 X146.621 Y524.985 Z-4.227 I33.962 J-91.106 K0.000 F2500.000
G3 X125.199 Y502.723 Z-4.227 I42.506 J-62.339 K0.000 F2500.000
G3 X113.930 Y477.073 Z-4.227 I88.306 J-54.099 K0.000 F2500.000
G3 X111.533 Y446.339 Z-4.227 I71.865 J-21.064 K0.000 F2500.000
G3 X114.385 Y431.826 Z-4.227 I144.481 J20.851 K0.000 F2500.000
G3 X121.315 Y409.400 Z-4.227 I222.278 J56.413 K0.000 F2500.000
G2 X127.154 Y392.375 Z-4.227 I-427.504 J-156.131 K0.000 F2500.000
G2 X131.804 Y373.655 Z-4.227 I-137.577 J-44.105 K0.000 F2500.000
G2 X133.004 Y360.630 Z-4.227 I-73.485 J-13.342 K0.000 F2500.000
G2 X129.455 Y341.064 Z-4.227 I-53.022 J-0.487 K0.000 F2500.000
G2 X123.970 Y329.478 Z-4.227 I-94.912 J37.843 K0.000 F2500.000
G2 X115.254 Y314.763 Z-4.227 I-403.107 J228.837 K0.000 F2500.000
G3 X96.764 Y284.100 Z-4.227 I787.814 J-495.941 K0.000 F2500.000
G3 X81.765 Y255.269 Z-4.227 I324.051 J-186.908 K0.000 F2500.000
G3 X74.132 Y236.351 Z-4.227 I173.951 J-81.181 K0.000 F2500.000
G3 X66.799 Y200.314 Z-4.227 I126.434 J-44.495 K0.000 F2500.000
G3 X73.952 Y147.639 Z-4.227 I141.542 J-7.603 K0.000 F2500.000
G3 X82.022 Y128.985 Z-4.227 I107.705 J35.525 K0.000 F2500.000
G3 X111.016 Y95.606 Z-4.227 I88.888 J47.928 K0.000 F2500.000
G3 X136.769 Y81.114 Z-4.227 I76.401 J105.643 K0.000 F2500.000
G3 X166.323 Y71.861 Z-4.227 I66.828 J161.621 K0.000 F2500.000
G3 X195.701 Y67.097 Z-4.227 I62.155 J290.333 K0.000 F2500.000
G3 X219.107 Y65.113 Z-4.227 I55.977 J521.080 K0.000 F2500.000
G3 X251.214 Y63.941 Z-4.227 I43.497 J751.548 K0.000 F2500.000
G1 X276.200 Y63.941 Z-4.227 F2500.000
G2 X277.785 Y62.356 Z-4.227 I-0.000 J-1.585 K0.000 F2500.000
G1 X277.785 Y0.000 Z-4.227 F2500.000
G2 X276.200 Y-1.585 Z-4.227 I-1.585 J0.000 K0.000 F2500.000
G1 X197.336 Y-1.585 Z-4.227 F2500.000
G2 X166.705 Y2.373 Z-4.227 I34.983 J391.283 K0.000 F2500.000
G2 X131.744 Y10.539 Z-4.227 I43.542 J265.313 K0.000 F2500.000
G2 X96.114 Y24.948 Z-4.227 I61.179 J202.543 K0.000 F2500.000
G2 X68.352 Y42.415 Z-4.227 I82.430 J161.811 K0.000 F2500.000
G2 X27.219 Y87.622 Z-4.227 I102.145 J134.258 K0.000 F2500.000
G2 X10.984 Y121.188 Z-4.227 I157.353 J96.815 K0.000 F2500.000
G2 X-1.504 Y187.069 Z-4.227 I196.592 J71.389 K0.000 F2500.000
G2 X4.591 Y241.636 Z-4.227 I196.824 J5.639 K0.000 F2500.000
G2 X15.364 Y273.592 Z-4.227 I231.928 J-60.394 K0.000 F2500.000
G2 X31.027 Y306.113 Z-4.227 I343.338 J-145.324 K0.000 F2500.000
G2 X31.131 Y306.699 Z-4.227 I1.337 J0.065 K0.000 F2500.000
G2 X32.414 Y308.680 Z-4.227 I39.345 J-24.083 K0.000 F2500.000
G1 X35.545 Y314.339 Z-4.227 F2500.000
G3 X40.140 Y331.010 Z-4.227 I-45.563 J21.526 K0.000 F2500.000
G1 X49.227 Y392.430 Z-4.227 F2500.000
G3 X49.784 Y409.425 Z-4.227 I-73.708 J10.923 K0.000 F2500.000
G2 X46.192 Y424.339 Z-4.227 I236.069 J64.750 K0.000 F2500.000
G2 X43.234 Y444.170 Z-4.227 I150.243 J32.545 K0.000 F2500.000
G2 X46.870 Y490.183 Z-4.227 I143.479 J11.813 K0.000 F2500.000
G2 X63.128 Y531.542 Z-4.227 I166.105 J-41.418 K0.000 F2500.000
G2 X97.521 Y573.271 Z-4.227 I125.902 J-68.731 K0.000 F2500.000
G2 X129.533 Y593.665 Z-4.227 I101.220 J-123.558 K0.000 F2500.000
G2 X157.135 Y604.321 Z-4.227 I84.124 J-176.839 K0.000 F2500.000
G2 X189.110 Y611.563 Z-4.227 I69.383 J-232.120 K0.000 F2500.000
G1 X189.372 Y611.585 Z-4.227 F2500.000
G1 X276.200 Y611.585 Z-4.227 F2500.000
G2 X277.321 Y611.121 Z-4.227 I-0.000 J-1.585 K0.000 F2500.000
G1 X277.321 Y611.121 Z-6.340 F1000.000
G2 X277.785 Y610.000 Z-6.340 I-1.121 J-1.121 K0.000 F2500.000
G1 X277.785 Y549.000 Z-6.340 F2500.000
G2 X276.200 Y547.415 Z-6.340 I-1.585 J0.000 K0.000 F2500.000
G1 X251.200 Y547.415 Z-6.340 F2500.000
G3 X215.498 Y546.184 Z-6.340 I-6.329 J-334.828 K0.000 F2500.000
G3 X189.324 Y542.259 Z-6.340 I18.312 J-211.321 K0.000 F2500.000
G3 X167.636 Y535.896 Z-6.340 I29.129 J-139.433 K0.000 F2500.000
G3 X146.621 Y524.985 Z-6.340 I33.962 J-91.106 K0.000 F2500.000
G3 X125.199 Y502.723 Z-6.340 I42.506 J-62.339 K0.000 F2500.000
G3 X113.930 Y477.073 Z-6.340 I88.306 J-54.099 K0.000 F2500.000
G3 X111.533 Y446.339 Z-6.340 I71.865 J-21.064 K0.000 F2500.000
G3 X114.385 Y431.826 Z-6.340 I144.481 J20.851 K0.000 F2500.000
G3 X121.315 Y409.400 Z-6.340 I222.278 J56.413 K0.000 F2500.000
G2 X127.154 Y392.375 Z-6.340 I-427.504 J-156.131 K0.000 F2500.000
G2 X131.804 Y373.655 Z-6.340 I-137.577 J-44.105 K0.000 F2500.000
G2 X133.004 Y360.630 Z-6.340 I-73.485 J-13.342 K0.000 F2500.000
G2 X129.455 Y341.064 Z-6.340 I-53.022 J-0.487 K0.000 F2500.000
G2 X123.970 Y329.478 Z-6.340 I-94.912 J37.843 K0.000 F2500.000
G2 X115.254 Y314.763 Z-6.340 I-403.107 J228.837 K0.000 F2500.000
G3 X96.764 Y284.100 Z-6.340 I787.814 J-495.941 K0.000 F2500.000
G3 X81.765 Y255.269 Z-6.340 I324.051 J-186.908 K0.000 F2500.000
G3 X74.132 Y236.351 Z-6.340 I173.951 J-81.181 K0.000 F2500.000
G3 X66.799 Y200.314 Z-6.340 I126.434 J-44.495 K0.000 F2500.000
G3 X73.952 Y147.639 Z-6.340 I141.542 J-7.603 K0.000 F2500.000
G3 X82.022 Y128.985 Z-6.340 I107.705 J35.525 K0.000 F2500.000
G3 X111.016 Y95.606 Z-6.340 I88.888 J47.928 K0.000 F2500.000
G3 X136.769 Y81.114 Z-6.340 I76.401 J105.643 K0.000 F2500.000
G3 X166.323 Y71.861 Z-6.340 I66.828 J161.621 K0.000 F2500.000
G3 X195.701 Y67.097 Z-6.340 I62.155 J290.333 K0.000 F2500.000
G3 X219.107 Y65.113 Z-6.340 I55.977 J521.080 K0.000 F2500.000
G3 X251.214 Y63.941 Z-6.340 I43.497 J751.548 K0.000 F2500.000
G1 X276.200 Y63.941 Z-6.340 F2500.000
G2 X277.785 Y62.356 Z-6.340 I-0.000 J-1.585 K0.000 F2500.000
G1 X277.785 Y0.000 Z-6.340 F2500.000
G2 X276.200 Y-1.585 Z-6.340 I-1.585 J0.000 K0.000 F2500.000
G1 X197.336 Y-1.585 Z-6.340 F2500.000
G2 X166.705 Y2.373 Z-6.340 I34.983 J391.283 K0.000 F2500.000
G2 X131.744 Y10.539 Z-6.340 I43.542 J265.313 K0.000 F2500.000
G2 X96.114 Y24.948 Z-6.340 I61.179 J202.543 K0.000 F2500.000
G2 X68.352 Y42.415 Z-6.340 I82.430 J161.811 K0.000 F2500.000
G2 X27.219 Y87.622 Z-6.340 I102.145 J134.258 K0.000 F2500.000
G2 X10.984 Y121.188 Z-6.340 I157.353 J96.815 K0.000 F2500.000
G2 X-1.504 Y187.069 Z-6.340 I196.592 J71.389 K0.000 F2500.000
G2 X4.591 Y241.636 Z-6.340 I196.824 J5.639 K0.000 F2500.000
G2 X15.364 Y273.592 Z-6.340 I231.928 J-60.394 K0.000 F2500.000
G2 X31.027 Y306.113 Z-6.340 I343.338 J-145.324 K0.000 F2500.000
G2 X31.131 Y306.699 Z-6.340 I1.337 J0.065 K0.000 F2500.000
G2 X32.414 Y308.680 Z-6.340 I39.345 J-24.083 K0.000 F2500.000
G1 X35.545 Y314.339 Z-6.340 F2500.000
G3 X40.140 Y331.010 Z-6.340 I-45.563 J21.526 K0.000 F2500.000
G1 X49.227 Y392.430 Z-6.340 F2500.000
G3 X49.784 Y409.425 Z-6.340 I-73.708 J10.923 K0.000 F2500.000
G2 X46.192 Y424.339 Z-6.340 I236.069 J64.750 K0.000 F2500.000
G2 X43.234 Y444.170 Z-6.340 I150.243 J32.545 K0.000 F2500.000
G2 X46.870 Y490.183 Z-6.340 I143.479 J11.813 K0.000 F2500.000
G2 X63.128 Y531.542 Z-6.340 I166.105 J-41.418 K0.000 F2500.000
G2 X97.521 Y573.271 Z-6.340 I125.902 J-68.731 K0.000 F2500.000
G2 X129.533 Y593.665 Z-6.340 I101.220 J-123.558 K0.000 F2500.000
G2 X157.135 Y604.321 Z-6.340 I84.124 J-176.839 K0.000 F2500.000
G2 X189.110 Y611.563 Z-6.340 I69.383 J-232.120 K0.000 F2500.000
G1 X189.372 Y611.585 Z-6.340 F2500.000
G1 X276.200 Y611.585 Z-6.340 F2500.000
G2 X277.321 Y611.121 Z-6.340 I-0.000 J-1.585 K0.000 F2500.000
G1 X277.321 Y611.121 Z-8.453 F1000.000
G2 X277.785 Y610.000 Z-8.453 I-1.121 J-1.121 K0.000 F2500.000
G1 X277.785 Y549.000 Z-8.453 F2500.000
G2 X276.200 Y547.415 Z-8.453 I-1.585 J0.000 K0.000 F2500.000
G1 X251.200 Y547.415 Z-8.453 F2500.000
G3 X215.498 Y546.184 Z-8.453 I-6.329 J-334.828 K0.000 F2500.000
G3 X189.324 Y542.259 Z-8.453 I18.312 J-211.321 K0.000 F2500.000
G3 X167.636 Y535.896 Z-8.453 I29.129 J-139.433 K0.000 F2500.000
G3 X146.621 Y524.985 Z-8.453 I33.962 J-91.106 K0.000 F2500.000
G3 X125.199 Y502.723 Z-8.453 I42.506 J-62.339 K0.000 F2500.000
G3 X113.930 Y477.073 Z-8.453 I88.306 J-54.099 K0.000 F2500.000
G3 X111.533 Y446.339 Z-8.453 I71.865 J-21.064 K0.000 F2500.000
G3 X114.385 Y431.826 Z-8.453 I144.481 J20.851 K0.000 F2500.000
G3 X121.315 Y409.400 Z-8.453 I222.278 J56.413 K0.000 F2500.000
G2 X127.154 Y392.375 Z-8.453 I-427.504 J-156.131 K0.000 F2500.000
G2 X131.804 Y373.655 Z-8.453 I-137.577 J-44.105 K0.000 F2500.000
G2 X133.004 Y360.630 Z-8.453 I-73.485 J-13.342 K0.000 F2500.000
G2 X129.455 Y341.064 Z-8.453 I-53.022 J-0.487 K0.000 F2500.000
G2 X123.970 Y329.478 Z-8.453 I-94.912 J37.843 K0.000 F2500.000
G2 X115.254 Y314.763 Z-8.453 I-403.107 J228.837 K0.000 F2500.000
G3 X96.764 Y284.100 Z-8.453 I787.814 J-495.941 K0.000 F2500.000
G3 X81.765 Y255.269 Z-8.453 I324.051 J-186.908 K0.000 F2500.000
G3 X74.132 Y236.351 Z-8.453 I173.951 J-81.181 K0.000 F2500.000
G3 X66.799 Y200.314 Z-8.453 I126.434 J-44.495 K0.000 F2500.000
G3 X73.952 Y147.639 Z-8.453 I141.542 J-7.603 K0.000 F2500.000
G3 X82.022 Y128.985 Z-8.453 I107.705 J35.525 K0.000 F2500.000
G3 X111.016 Y95.606 Z-8.453 I88.888 J47.928 K0.000 F2500.000
G3 X136.769 Y81.114 Z-8.453 I76.401 J105.643 K0.000 F2500.000
G3 X166.323 Y71.861 Z-8.453 I66.828 J161.621 K0.000 F2500.000
G3 X195.701 Y67.097 Z-8.453 I62.155 J290.333 K0.000 F2500.000
G3 X219.107 Y65.113 Z-8.453 I55.977 J521.080 K0.000 F2500.000
G3 X251.214 Y63.941 Z-8.453 I43.497 J751.548 K0.000 F2500.000
G1 X276.200 Y63.941 Z-8.453 F2500.000
G2 X277.785 Y62.356 Z-8.453 I-0.000 J-1.585 K0.000 F2500.000
G1 X277.785 Y0.000 Z-8.453 F2500.000
G2 X276.200 Y-1.585 Z-8.453 I-1.585 J0.000 K0.000 F2500.000
G1 X197.336 Y-1.585 Z-8.453 F2500.000
G2 X166.705 Y2.373 Z-8.453 I34.983 J391.283 K0.000 F2500.000
G2 X131.744 Y10.539 Z-8.453 I43.542 J265.313 K0.000 F2500.000
G2 X96.114 Y24.948 Z-8.453 I61.179 J202.543 K0.000 F2500.000
G2 X68.352 Y42.415 Z-8.453 I82.430 J161.811 K0.000 F2500.000
G2 X27.219 Y87.622 Z-8.453 I102.145 J134.258 K0.000 F2500.000
G2 X10.984 Y121.188 Z-8.453 I157.353 J96.815 K0.000 F2500.000
G2 X-1.504 Y187.069 Z-8.453 I196.592 J71.389 K0.000 F2500.000
G2 X4.591 Y241.636 Z-8.453 I196.824 J5.639 K0.000 F2500.000
G2 X15.364 Y273.592 Z-8.453 I231.928 J-60.394 K0.000 F2500.000
G2 X31.027 Y306.113 Z-8.453 I343.338 J-145.324 K0.000 F2500.000
G2 X31.131 Y306.699 Z-8.453 I1.337 J0.065 K0.000 F2500.000
G2 X32.414 Y308.680 Z-8.453 I39.345 J-24.083 K0.000 F2500.000
G1 X35.545 Y314.339 Z-8.453 F2500.000
G3 X40.140 Y331.010 Z-8.453 I-45.563 J21.526 K0.000 F2500.000
G1 X49.227 Y392.430 Z-8.453 F2500.000
G3 X49.784 Y409.425 Z-8.453 I-73.708 J10.923 K0.000 F2500.000
G2 X46.192 Y424.339 Z-8.453 I236.069 J64.750 K0.000 F2500.000
G2 X43.234 Y444.170 Z-8.453 I150.243 J32.545 K0.000 F2500.000
G2 X46.870 Y490.183 Z-8.453 I143.479 J11.813 K0.000 F2500.000
G2 X63.128 Y531.542 Z-8.453 I166.105 J-41.418 K0.000 F2500.000
G2 X97.521 Y573.271 Z-8.453 I125.902 J-68.731 K0.000 F2500.000
G2 X129.533 Y593.665 Z-8.453 I101.220 J-123.558 K0.000 F2500.000
G2 X157.135 Y604.321 Z-8.453 I84.124 J-176.839 K0.000 F2500.000
G2 X189.110 Y611.563 Z-8.453 I69.383 J-232.120 K0.000 F2500.000
G1 X189.372 Y611.585 Z-8.453 F2500.000
G1 X276.200 Y611.585 Z-8.453 F2500.000
G2 X277.321 Y611.121 Z-8.453 I-0.000 J-1.585 K0.000 F2500.000
G1 X277.321 Y611.121 Z-10.567 F1000.000
G2 X277.785 Y610.000 Z-10.567 I-1.121 J-1.121 K0.000 F2500.000
G1 X277.785 Y549.000 Z-10.567 F2500.000
G2 X276.200 Y547.415 Z-10.567 I-1.585 J0.000 K0.000 F2500.000
G1 X251.200 Y547.415 Z-10.567 F2500.000
G3 X215.498 Y546.184 Z-10.567 I-6.329 J-334.828 K0.000 F2500.000
G3 X189.324 Y542.259 Z-10.567 I18.312 J-211.321 K0.000 F2500.000
G3 X167.636 Y535.896 Z-10.567 I29.129 J-139.433 K0.000 F2500.000
G3 X146.621 Y524.985 Z-10.567 I33.962 J-91.106 K0.000 F2500.000
G3 X125.199 Y502.723 Z-10.567 I42.506 J-62.339 K0.000 F2500.000
G3 X113.930 Y477.073 Z-10.567 I88.306 J-54.099 K0.000 F2500.000
G3 X111.533 Y446.339 Z-10.567 I71.865 J-21.064 K0.000 F2500.000
G3 X114.385 Y431.826 Z-10.567 I144.481 J20.851 K0.000 F2500.000
G3 X121.315 Y409.400 Z-10.567 I222.278 J56.413 K0.000 F2500.000
G2 X127.154 Y392.375 Z-10.567 I-427.504 J-156.131 K0.000 F2500.000
G2 X131.804 Y373.655 Z-10.567 I-137.577 J-44.105 K0.000 F2500.000
G2 X133.004 Y360.630 Z-10.567 I-73.485 J-13.342 K0.000 F2500.000
G2 X129.455 Y341.064 Z-10.567 I-53.022 J-0.487 K0.000 F2500.000
G2 X123.970 Y329.478 Z-10.567 I-94.912 J37.843 K0.000 F2500.000
G2 X115.254 Y314.763 Z-10.567 I-403.107 J228.837 K0.000 F2500.000
G3 X96.764 Y284.100 Z-10.567 I787.814 J-495.941 K0.000 F2500.000
G3 X81.765 Y255.269 Z-10.567 I324.051 J-186.908 K0.000 F2500.000
G3 X74.132 Y236.351 Z-10.567 I173.951 J-81.181 K0.000 F2500.000
G3 X66.799 Y200.314 Z-10.567 I126.434 J-44.495 K0.000 F2500.000
G3 X73.952 Y147.639 Z-10.567 I141.542 J-7.603 K0.000 F2500.000
G3 X82.022 Y128.985 Z-10.567 I107.705 J35.525 K0.000 F2500.000
G3 X111.016 Y95.606 Z-10.567 I88.888 J47.928 K0.000 F2500.000
G3 X136.769 Y81.114 Z-10.567 I76.401 J105.643 K0.000 F2500.000
G3 X166.323 Y71.861 Z-10.567 I66.828 J161.621 K0.000 F2500.000
G3 X195.701 Y67.097 Z-10.567 I62.155 J290.333 K0.000 F2500.000
G3 X219.107 Y65.113 Z-10.567 I55.977 J521.080 K0.000 F2500.000
G3 X251.214 Y63.941 Z-10.567 I43.497 J751.548 K0.000 F2500.000
G1 X276.200 Y63.941 Z-10.567 F2500.000
G2 X277.785 Y62.356 Z-10.567 I-0.000 J-1.585 K0.000 F2500.000
G1 X277.785 Y0.000 Z-10.567 F2500.000
G2 X276.200 Y-1.585 Z-10.567 I-1.585 J0.000 K0.000 F2500.000
G1 X197.336 Y-1.585 Z-10.567 F2500.000
G2 X166.705 Y2.373 Z-10.567 I34.983 J391.283 K0.000 F2500.000
G2 X131.744 Y10.539 Z-10.567 I43.542 J265.313 K0.000 F2500.000
G2 X96.114 Y24.948 Z-10.567 I61.179 J202.543 K0.000 F2500.000
G2 X68.352 Y42.415 Z-10.567 I82.430 J161.811 K0.000 F2500.000
G2 X27.219 Y87.622 Z-10.567 I102.145 J134.258 K0.000 F2500.000
G2 X10.984 Y121.188 Z-10.567 I157.353 J96.815 K0.000 F2500.000
G2 X-1.504 Y187.069 Z-10.567 I196.592 J71.389 K0.000 F2500.000
G2 X4.591 Y241.636 Z-10.567 I196.824 J5.639 K0.000 F2500.000
G2 X15.364 Y273.592 Z-10.567 I231.928 J-60.394 K0.000 F2500.000
G2 X31.027 Y306.113 Z-10.567 I343.338 J-145.324 K0.000 F2500.000
G2 X31.131 Y306.699 Z-10.567 I1.337 J0.065 K0.000 F2500.000
G2 X32.414 Y308.680 Z-10.567 I39.345 J-24.083 K0.000 F2500.000
G1 X35.545 Y314.339 Z-10.567 F2500.000
G3 X40.140 Y331.010 Z-10.567 I-45.563 J21.526 K0.000 F2500.000
G1 X49.227 Y392.430 Z-10.567 F2500.000
G3 X49.784 Y409.425 Z-10.567 I-73.708 J10.923 K0.000 F2500.000
G2 X46.192 Y424.339 Z-10.567 I236.069 J64.750 K0.000 F2500.000
G2 X43.234 Y444.170 Z-10.567 I150.243 J32.545 K0.000 F2500.000
G2 X46.870 Y490.183 Z-10.567 I143.479 J11.813 K0.000 F2500.000
G2 X63.128 Y531.542 Z-10.567 I166.105 J-41.418 K0.000 F2500.000
G2 X97.521 Y573.271 Z-10.567 I125.902 J-68.731 K0.000 F2500.000
G2 X129.533 Y593.665 Z-10.567 I101.220 J-123.558 K0.000 F2500.000
G2 X157.135 Y604.321 Z-10.567 I84.124 J-176.839 K0.000 F2500.000
G2 X189.110 Y611.563 Z-10.567 I69.383 J-232.120 K0.000 F2500.000
G1 X189.372 Y611.585 Z-10.567 F2500.000
G1 X276.200 Y611.585 Z-10.567 F2500.000
G2 X277.321 Y611.121 Z-10.567 I-0.000 J-1.585 K0.000 F2500.000
G1 X277.321 Y611.121 Z-12.680 F1000.000
G2 X277.785 Y610.000 Z-12.680 I-1.121 J-1.121 K0.000 F2500.000
G1 X277.785 Y549.000 Z-12.680 F2500.000
G2 X276.200 Y547.415 Z-12.680 I-1.585 J0.000 K0.000 F2500.000
G1 X251.200 Y547.415 Z-12.680 F2500.000
G3 X215.498 Y546.184 Z-12.680 I-6.329 J-334.828 K0.000 F2500.000
G3 X189.324 Y542.259 Z-12.680 I18.312 J-211.321 K0.000 F2500.000
G3 X167.636 Y535.896 Z-12.680 I29.129 J-139.433 K0.000 F2500.000
G3 X146.621 Y524.985 Z-12.680 I33.962 J-91.106 K0.000 F2500.000
G3 X125.199 Y502.723 Z-12.680 I42.506 J-62.339 K0.000 F2500.000
G3 X113.930 Y477.073 Z-12.680 I88.306 J-54.099 K0.000 F2500.000
G3 X111.533 Y446.339 Z-12.680 I71.865 J-21.064 K0.000 F2500.000
G3 X114.385 Y431.826 Z-12.680 I144.481 J20.851 K0.000 F2500.000
G3 X121.315 Y409.400 Z-12.680 I222.278 J56.413 K0.000 F2500.000
G2 X127.154 Y392.375 Z-12.680 I-427.504 J-156.131 K0.000 F2500.000
G2 X131.804 Y373.655 Z-12.680 I-137.577 J-44.105 K0.000 F2500.000
G2 X133.004 Y360.630 Z-12.680 I-73.485 J-13.342 K0.000 F2500.000
G2 X129.455 Y341.064 Z-12.680 I-53.022 J-0.487 K0.000 F2500.000
G2 X123.970 Y329.478 Z-12.680 I-94.912 J37.843 K0.000 F2500.000
G2 X115.254 Y314.763 Z-12.680 I-403.107 J228.837 K0.000 F2500.000
G3 X96.764 Y284.100 Z-12.680 I787.814 J-495.941 K0.000 F2500.000
G3 X81.765 Y255.269 Z-12.680 I324.051 J-186.908 K0.000 F2500.000
G3 X74.132 Y236.351 Z-12.680 I173.951 J-81.181 K0.000 F2500.000
G3 X66.799 Y200.314 Z-12.680 I126.434 J-44.495 K0.000 F2500.000
G3 X73.952 Y147.639 Z-12.680 I141.542 J-7.603 K0.000 F2500.000
G3 X82.022 Y128.985 Z-12.680 I107.705 J35.525 K0.000 F2500.000
G3 X111.016 Y95.606 Z-12.680 I88.888 J47.928 K0.000 F2500.000
G3 X136.769 Y81.114 Z-12.680 I76.401 J105.643 K0.000 F2500.000
G3 X166.323 Y71.861 Z-12.680 I66.828 J161.621 K0.000 F2500.000
G3 X195.701 Y67.097 Z-12.680 I62.155 J290.333 K0.000 F2500.000
G3 X219.107 Y65.113 Z-12.680 I55.977 J521.080 K0.000 F2500.000
G3 X251.214 Y63.941 Z-12.680 I43.497 J751.548 K0.000 F2500.000
G1 X276.200 Y63.941 Z-12.680 F2500.000
G2 X277.785 Y62.356 Z-12.680 I-0.000 J-1.585 K0.000 F2500.000
G1 X277.785 Y0.000 Z-12.680 F2500.000
G2 X276.200 Y-1.585 Z-12.680 I-1.585 J0.000 K0.000 F2500.000
G1 X197.336 Y-1.585 Z-12.680 F2500.000
G2 X166.705 Y2.373 Z-12.680 I34.983 J391.283 K0.000 F2500.000
G2 X131.744 Y10.539 Z-12.680 I43.542 J265.313 K0.000 F2500.000
G2 X96.114 Y24.948 Z-12.680 I61.179 J202.543 K0.000 F2500.000
G2 X68.352 Y42.415 Z-12.680 I82.430 J161.811 K0.000 F2500.000
G2 X27.219 Y87.622 Z-12.680 I102.145 J134.258 K0.000 F2500.000
G2 X10.984 Y121.188 Z-12.680 I157.353 J96.815 K0.000 F2500.000
G2 X-1.504 Y187.069 Z-12.680 I196.592 J71.389 K0.000 F2500.000
G2 X4.591 Y241.636 Z-12.680 I196.824 J5.639 K0.000 F2500.000
G2 X15.364 Y273.592 Z-12.680 I231.928 J-60.394 K0.000 F2500.000
G2 X31.027 Y306.113 Z-12.680 I343.338 J-145.324 K0.000 F2500.000
G2 X31.131 Y306.699 Z-12.680 I1.337 J0.065 K0.000 F2500.000
G2 X32.414 Y308.680 Z-12.680 I39.345 J-24.083 K0.000 F2500.000
G1 X35.545 Y314.339 Z-12.680 F2500.000
G3 X40.140 Y331.010 Z-12.680 I-45.563 J21.526 K0.000 F2500.000
G1 X49.227 Y392.430 Z-12.680 F2500.000
G3 X49.784 Y409.425 Z-12.680 I-73.708 J10.923 K0.000 F2500.000
G2 X46.192 Y424.339 Z-12.680 I236.069 J64.750 K0.000 F2500.000
G2 X43.234 Y444.170 Z-12.680 I150.243 J32.545 K0.000 F2500.000
G2 X46.870 Y490.183 Z-12.680 I143.479 J11.813 K0.000 F2500.000
G2 X63.128 Y531.542 Z-12.680 I166.105 J-41.418 K0.000 F2500.000
G2 X97.521 Y573.271 Z-12.680 I125.902 J-68.731 K0.000 F2500.000
G2 X129.533 Y593.665 Z-12.680 I101.220 J-123.558 K0.000 F2500.000
G2 X157.135 Y604.321 Z-12.680 I84.124 J-176.839 K0.000 F2500.000
G2 X189.110 Y611.563 Z-12.680 I69.383 J-232.120 K0.000 F2500.000
G1 X189.372 Y611.585 Z-12.680 F2500.000
G1 X276.200 Y611.585 Z-12.680 F2500.000
G2 X277.321 Y611.121 Z-12.680 I-0.000 J-1.585 K0.000 F2500.000
G1 X277.321 Y611.121 Z-14.793 F1000.000
G2 X277.785 Y610.000 Z-14.793 I-1.121 J-1.121 K0.000 F2500.000
G1 X277.785 Y549.000 Z-14.793 F2500.000
G2 X276.200 Y547.415 Z-14.793 I-1.585 J0.000 K0.000 F2500.000
G1 X251.200 Y547.415 Z-14.793 F2500.000
G3 X215.498 Y546.184 Z-14.793 I-6.329 J-334.828 K0.000 F2500.000
G3 X189.324 Y542.259 Z-14.793 I18.312 J-211.321 K0.000 F2500.000
G3 X167.636 Y535.896 Z-14.793 I29.129 J-139.433 K0.000 F2500.000
G3 X146.621 Y524.985 Z-14.793 I33.962 J-91.106 K0.000 F2500.000
G3 X125.199 Y502.723 Z-14.793 I42.506 J-62.339 K0.000 F2500.000
G3 X113.930 Y477.073 Z-14.793 I88.306 J-54.099 K0.000 F2500.000
G3 X111.533 Y446.339 Z-14.793 I71.865 J-21.064 K0.000 F2500.000
G3 X114.385 Y431.826 Z-14.793 I144.481 J20.851 K0.000 F2500.000
G3 X121.315 Y409.400 Z-14.793 I222.278 J56.413 K0.000 F2500.000
G2 X127.154 Y392.375 Z-14.793 I-427.504 J-156.131 K0.000 F2500.000
G2 X131.804 Y373.655 Z-14.793 I-137.577 J-44.105 K0.000 F2500.000
G2 X133.004 Y360.630 Z-14.793 I-73.485 J-13.342 K0.000 F2500.000
G2 X129.455 Y341.064 Z-14.793 I-53.022 J-0.487 K0.000 F2500.000
G2 X123.970 Y329.478 Z-14.793 I-94.912 J37.843 K0.000 F2500.000
G2 X115.254 Y314.763 Z-14.793 I-403.107 J228.837 K0.000 F2500.000
G3 X96.764 Y284.100 Z-14.793 I787.814 J-495.941 K0.000 F2500.000
G3 X81.765 Y255.269 Z-14.793 I324.051 J-186.908 K0.000 F2500.000
G3 X74.132 Y236.351 Z-14.793 I173.951 J-81.181 K0.000 F2500.000
G3 X66.799 Y200.314 Z-14.793 I126.434 J-44.495 K0.000 F2500.000
G3 X73.952 Y147.639 Z-14.793 I141.542 J-7.603 K0.000 F2500.000
G3 X82.022 Y128.985 Z-14.793 I107.705 J35.525 K0.000 F2500.000
G3 X111.016 Y95.606 Z-14.793 I88.888 J47.928 K0.000 F2500.000
G3 X136.769 Y81.114 Z-14.793 I76.401 J105.643 K0.000 F2500.000
G3 X166.323 Y71.861 Z-14.793 I66.828 J161.621 K0.000 F2500.000
G3 X195.701 Y67.097 Z-14.793 I62.155 J290.333 K0.000 F2500.000
G3 X219.107 Y65.113 Z-14.793 I55.977 J521.080 K0.000 F2500.000
G3 X251.214 Y63.941 Z-14.793 I43.497 J751.548 K0.000 F2500.000
G1 X276.200 Y63.941 Z-14.793 F2500.000
G2 X277.785 Y62.356 Z-14.793 I-0.000 J-1.585 K0.000 F2500.000
G1 X277.785 Y0.000 Z-14.793 F2500.000
G2 X276.200 Y-1.585 Z-14.793 I-1.585 J0.000 K0.000 F2500.000
G1 X197.336 Y-1.585 Z-14.793 F2500.000
G2 X166.705 Y2.373 Z-14.793 I34.983 J391.283 K0.000 F2500.000
G2 X131.744 Y10.539 Z-14.793 I43.542 J265.313 K0.000 F2500.000
G2 X96.114 Y24.948 Z-14.793 I61.179 J202.543 K0.000 F2500.000
G2 X68.352 Y42.415 Z-14.793 I82.430 J161.811 K0.000 F2500.000
G2 X27.219 Y87.622 Z-14.793 I102.145 J134.258 K0.000 F2500.000
G2 X10.984 Y121.188 Z-14.793 I157.353 J96.815 K0.000 F2500.000
G2 X-1.504 Y187.069 Z-14.793 I196.592 J71.389 K0.000 F2500.000
G2 X4.591 Y241.636 Z-14.793 I196.824 J5.639 K0.000 F2500.000
G2 X15.364 Y273.592 Z-14.793 I231.928 J-60.394 K0.000 F2500.000
G2 X31.027 Y306.113 Z-14.793 I343.338 J-145.324 K0.000 F2500.000
G2 X31.131 Y306.699 Z-14.793 I1.337 J0.065 K0.000 F2500.000
G2 X32.414 Y308.680 Z-14.793 I39.345 J-24.083 K0.000 F2500.000
G1 X35.545 Y314.339 Z-14.793 F2500.000
G3 X40.140 Y331.010 Z-14.793 I-45.563 J21.526 K0.000 F2500.000
G1 X49.227 Y392.430 Z-14.793 F2500.000
G3 X49.784 Y409.425 Z-14.793 I-73.708 J10.923 K0.000 F2500.000
G2 X46.192 Y424.339 Z-14.793 I236.069 J64.750 K0.000 F2500.000
G2 X43.234 Y444.170 Z-14.793 I150.243 J32.545 K0.000 F2500.000
G2 X46.870 Y490.183 Z-14.793 I143.479 J11.813 K0.000 F2500.000
G2 X63.128 Y531.542 Z-14.793 I166.105 J-41.418 K0.000 F2500.000
G2 X97.521 Y573.271 Z-14.793 I125.902 J-68.731 K0.000 F2500.000
G2 X129.533 Y593.665 Z-14.793 I101.220 J-123.558 K0.000 F2500.000
G2 X157.135 Y604.321 Z-14.793 I84.124 J-176.839 K0.000 F2500.000
G2 X189.110 Y611.563 Z-14.793 I69.383 J-232.120 K0.000 F2500.000
G1 X189.372 Y611.585 Z-14.793 F2500.000
G1 X276.200 Y611.585 Z-14.793 F2500.000
G2 X277.321 Y611.121 Z-14.793 I-0.000 J-1.585 K0.000 F2500.000
G1 X277.321 Y611.121 Z-16.907 F1000.000
G2 X277.785 Y610.000 Z-16.907 I-1.121 J-1.121 K0.000 F2500.000
G1 X277.785 Y549.000 Z-16.907 F2500.000
G2 X276.200 Y547.415 Z-16.907 I-1.585 J0.000 K0.000 F2500.000
G1 X251.200 Y547.415 Z-16.907 F2500.000
G3 X215.498 Y546.184 Z-16.907 I-6.329 J-334.828 K0.000 F2500.000
G3 X189.324 Y542.259 Z-16.907 I18.312 J-211.321 K0.000 F2500.000
G3 X167.636 Y535.896 Z-16.907 I29.129 J-139.433 K0.000 F2500.000
G3 X146.621 Y524.985 Z-16.907 I33.962 J-91.106 K0.000 F2500.000
G3 X125.199 Y502.723 Z-16.907 I42.506 J-62.339 K0.000 F2500.000
G3 X113.930 Y477.073 Z-16.907 I88.306 J-54.099 K0.000 F2500.000
G3 X111.533 Y446.339 Z-16.907 I71.865 J-21.064 K0.000 F2500.000
G3 X114.385 Y431.826 Z-16.907 I144.481 J20.851 K0.000 F2500.000
G3 X121.315 Y409.400 Z-16.907 I222.278 J56.413 K0.000 F2500.000
G2 X127.154 Y392.375 Z-16.907 I-427.504 J-156.131 K0.000 F2500.000
G2 X131.804 Y373.655 Z-16.907 I-137.577 J-44.105 K0.000 F2500.000
G2 X133.004 Y360.630 Z-16.907 I-73.485 J-13.342 K0.000 F2500.000
G2 X129.455 Y341.064 Z-16.907 I-53.022 J-0.487 K0.000 F2500.000
G2 X123.970 Y329.478 Z-16.907 I-94.912 J37.843 K0.000 F2500.000
G2 X115.254 Y314.763 Z-16.907 I-403.107 J228.837 K0.000 F2500.000
G3 X96.764 Y284.100 Z-16.907 I787.814 J-495.941 K0.000 F2500.000
G3 X81.765 Y255.269 Z-16.907 I324.051 J-186.908 K0.000 F2500.000
G3 X74.132 Y236.351 Z-16.907 I173.951 J-81.181 K0.000 F2500.000
G3 X66.799 Y200.314 Z-16.907 I126.434 J-44.495 K0.000 F2500.000
G3 X73.952 Y147.639 Z-16.907 I141.542 J-7.603 K0.000 F2500.000
G3 X82.022 Y128.985 Z-16.907 I107.705 J35.525 K0.000 F2500.000
G3 X111.016 Y95.606 Z-16.907 I88.888 J47.928 K0.000 F2500.000
G3 X136.769 Y81.114 Z-16.907 I76.401 J105.643 K0.000 F2500.000
G3 X166.323 Y71.861 Z-16.907 I66.828 J161.621 K0.000 F2500.000
G3 X195.701 Y67.097 Z-16.907 I62.155 J290.333 K0.000 F2500.000
G3 X219.107 Y65.113 Z-16.907 I55.977 J521.080 K0.000 F2500.000
G3 X251.214 Y63.941 Z-16.907 I43.497 J751.548 K0.000 F2500.000
G1 X276.200 Y63.941 Z-16.907 F2500.000
G2 X277.785 Y62.356 Z-16.907 I-0.000 J-1.585 K0.000 F2500.000
G1 X277.785 Y0.000 Z-16.907 F2500.000
G2 X276.200 Y-1.585 Z-16.907 I-1.585 J0.000 K0.000 F2500.000
G1 X197.336 Y-1.585 Z-16.907 F2500.000
G2 X166.705 Y2.373 Z-16.907 I34.983 J391.283 K0.000 F2500.000
G2 X131.744 Y10.539 Z-16.907 I43.542 J265.313 K0.000 F2500.000
G2 X96.114 Y24.948 Z-16.907 I61.179 J202.543 K0.000 F2500.000
G2 X68.352 Y42.415 Z-16.907 I82.430 J161.811 K0.000 F2500.000
G2 X27.219 Y87.622 Z-16.907 I102.145 J134.258 K0.000 F2500.000
G2 X10.984 Y121.188 Z-16.907 I157.353 J96.815 K0.000 F2500.000
G2 X-1.504 Y187.069 Z-16.907 I196.592 J71.389 K0.000 F2500.000
G2 X4.591 Y241.636 Z-16.907 I196.824 J5.639 K0.000 F2500.000
G2 X15.364 Y273.592 Z-16.907 I231.928 J-60.394 K0.000 F2500.000
G2 X31.027 Y306.113 Z-16.907 I343.338 J-145.324 K0.000 F2500.000
G2 X31.131 Y306.699 Z-16.907 I1.337 J0.065 K0.000 F2500.000
G2 X32.414 Y308.680 Z-16.907 I39.345 J-24.083 K0.000 F2500.000
G1 X35.545 Y314.339 Z-16.907 F2500.000
G3 X40.140 Y331.010 Z-16.907 I-45.563 J21.526 K0.000 F2500.000
G1 X49.227 Y392.430 Z-16.907 F2500.000
G3 X49.784 Y409.425 Z-16.907 I-73.708 J10.923 K0.000 F2500.000
G2 X46.192 Y424.339 Z-16.907 I236.069 J64.750 K0.000 F2500.000
G2 X43.234 Y444.170 Z-16.907 I150.243 J32.545 K0.000 F2500.000
G2 X46.870 Y490.183 Z-16.907 I143.479 J11.813 K0.000 F2500.000
G2 X63.128 Y531.542 Z-16.907 I166.105 J-41.418 K0.000 F2500.000
G2 X97.521 Y573.271 Z-16.907 I125.902 J-68.731 K0.000 F2500.000
G2 X129.533 Y593.665 Z-16.907 I101.220 J-123.558 K0.000 F2500.000
G2 X157.135 Y604.321 Z-16.907 I84.124 J-176.839 K0.000 F2500.000
G2 X189.110 Y611.563 Z-16.907 I69.383 J-232.120 K0.000 F2500.000
G1 X189.372 Y611.585 Z-16.907 F2500.000
G1 X276.200 Y611.585 Z-16.907 F2500.000
G2 X277.321 Y611.121 Z-16.907 I-0.000 J-1.585 K0.000 F2500.000
G1 X277.321 Y611.121 Z-18.000 F1000.000
G2 X277.785 Y610.000 Z-18.000 I-1.121 J-1.121 K0.000 F2500.000
G1 X277.785 Y549.000 Z-18.000 F2500.000
G2 X276.200 Y547.415 Z-18.000 I-1.585 J0.000 K0.000 F2500.000
G1 X251.200 Y547.415 Z-18.000 F2500.000
G3 X215.498 Y546.184 Z-18.000 I-6.329 J-334.828 K0.000 F2500.000
G3 X189.324 Y542.259 Z-18.000 I18.312 J-211.321 K0.000 F2500.000
G3 X167.636 Y535.896 Z-18.000 I29.129 J-139.433 K0.000 F2500.000
G3 X146.621 Y524.985 Z-18.000 I33.962 J-91.106 K0.000 F2500.000
G3 X125.199 Y502.723 Z-18.000 I42.506 J-62.339 K0.000 F2500.000
G3 X113.930 Y477.073 Z-18.000 I88.306 J-54.099 K0.000 F2500.000
G3 X111.533 Y446.339 Z-18.000 I71.865 J-21.064 K0.000 F2500.000
G3 X114.385 Y431.826 Z-18.000 I144.481 J20.851 K0.000 F2500.000
G3 X121.315 Y409.400 Z-18.000 I222.278 J56.413 K0.000 F2500.000
G2 X127.154 Y392.375 Z-18.000 I-427.504 J-156.131 K0.000 F2500.000
G2 X131.804 Y373.655 Z-18.000 I-137.577 J-44.105 K0.000 F2500.000
G2 X133.004 Y360.630 Z-18.000 I-73.485 J-13.342 K0.000 F2500.000
G2 X129.455 Y341.064 Z-18.000 I-53.022 J-0.487 K0.000 F2500.000
G2 X123.970 Y329.478 Z-18.000 I-94.912 J37.843 K0.000 F2500.000
G2 X115.254 Y314.763 Z-18.000 I-403.107 J228.837 K0.000 F2500.000
G3 X96.764 Y284.100 Z-18.000 I787.814 J-495.941 K0.000 F2500.000
G3 X81.765 Y255.269 Z-18.000 I324.051 J-186.908 K0.000 F2500.000
G3 X74.132 Y236.351 Z-18.000 I173.951 J-81.181 K0.000 F2500.000
G3 X66.799 Y200.314 Z-18.000 I126.434 J-44.495 K0.000 F2500.000
G3 X73.952 Y147.639 Z-18.000 I141.542 J-7.603 K0.000 F2500.000
G3 X82.022 Y128.985 Z-18.000 I107.705 J35.525 K0.000 F2500.000
G3 X111.016 Y95.606 Z-18.000 I88.888 J47.928 K0.000 F2500.000
G3 X136.769 Y81.114 Z-18.000 I76.401 J105.643 K0.000 F2500.000
G3 X166.323 Y71.861 Z-18.000 I66.828 J161.621 K0.000 F2500.000
G3 X195.701 Y67.097 Z-18.000 I62.155 J290.333 K0.000 F2500.000
G3 X219.107 Y65.113 Z-18.000 I55.977 J521.080 K0.000 F2500.000
G3 X251.214 Y63.941 Z-18.000 I43.497 J751.548 K0.000 F2500.000
G1 X276.200 Y63.941 Z-18.000 F2500.000
G2 X277.785 Y62.356 Z-18.000 I-0.000 J-1.585 K0.000 F2500.000
G1 X277.785 Y0.000 Z-18.000 F2500.000
G2 X276.200 Y-1.585 Z-18.000 I-1.585 J0.000 K0.000 F2500.000
G1 X197.336 Y-1.585 Z-18.000 F2500.000
G2 X166.705 Y2.373 Z-18.000 I34.983 J391.283 K0.000 F2500.000
G2 X131.744 Y10.539 Z-18.000 I43.542 J265.313 K0.000 F2500.000
G2 X96.114 Y24.948 Z-18.000 I61.179 J202.543 K0.000 F2500.000
G2 X68.352 Y42.415 Z-18.000 I82.430 J161.811 K0.000 F2500.000
G2 X27.219 Y87.622 Z-18.000 I102.145 J134.258 K0.000 F2500.000
G2 X10.984 Y121.188 Z-18.000 I157.353 J96.815 K0.000 F2500.000
G2 X-1.504 Y187.069 Z-18.000 I196.592 J71.389 K0.000 F2500.000
G2 X4.591 Y241.636 Z-18.000 I196.824 J5.639 K0.000 F2500.000
G2 X15.364 Y273.592 Z-18.000 I231.928 J-60.394 K0.000 F2500.000
G2 X31.027 Y306.113 Z-18.000 I343.338 J-145.324 K0.000 F2500.000
G2 X31.131 Y306.699 Z-18.000 I1.337 J0.065 K0.000 F2500.000
G2 X32.414 Y308.680 Z-18.000 I39.345 J-24.083 K0.000 F2500.000
G1 X35.545 Y314.339 Z-18.000 F2500.000
G3 X40.140 Y331.010 Z-18.000 I-45.563 J21.526 K0.000 F2500.000
G1 X49.227 Y392.430 Z-18.000 F2500.000
G3 X49.784 Y409.425 Z-18.000 I-73.708 J10.923 K0.000 F2500.000
G2 X46.192 Y424.339 Z-18.000 I236.069 J64.750 K0.000 F2500.000
G2 X43.234 Y444.170 Z-18.000 I150.243 J32.545 K0.000 F2500.000
G2 X46.870 Y490.183 Z-18.000 I143.479 J11.813 K0.000 F2500.000
G2 X63.128 Y531.542 Z-18.000 I166.105 J-41.418 K0.000 F2500.000
G2 X97.521 Y573.271 Z-18.000 I125.902 J-68.731 K0.000 F2500.000
G2 X129.533 Y593.665 Z-18.000 I101.220 J-123.558 K0.000 F2500.000
G2 X157.135 Y604.321 Z-18.000 I84.124 J-176.839 K0.000 F2500.000
G2 X189.110 Y611.563 Z-18.000 I69.383 J-232.120 K0.000 F2500.000
G1 X189.372 Y611.585 Z-18.000 F2500.000
G1 X276.200 Y611.585 Z-18.000 F2500.000
G2 X277.321 Y611.121 Z-18.000 I-0.000 J-1.585 K0.000 F2500.000
G0 Z5.000
G0 Z5.000
(Finish operation: Profile)
(Begin operation: Helix)
(Path: Helix)
(Helix)
(helix cut operation)
G0 Z5.000
G0 Z5.000
G0 X246.200 Y32.000 Z5.000
G0 X246.200 Y32.000 Z0.000
G0 X247.615 Y32.000
G1 Z0.000 F1000.000
G2 X244.785 Y32.000 Z-0.750 I-1.415 J0.000 F2500.000
G2 X247.615 Y32.000 Z-1.500 I1.415 J0.000 F2500.000
G2 X244.785 Y32.000 Z-2.250 I-1.415 J0.000 F2500.000
G2 X247.615 Y32.000 Z-3.000 I1.415 J0.000 F2500.000
G2 X244.785 Y32.000 Z-3.750 I-1.415 J0.000 F2500.000
G2 X247.615 Y32.000 Z-4.500 I1.415 J0.000 F2500.000
G2 X244.785 Y32.000 Z-5.250 I-1.415 J0.000 F2500.000
G2 X247.615 Y32.000 Z-6.000 I1.415 J0.000 F2500.000
G2 X244.785 Y32.000 Z-6.750 I-1.415 J0.000 F2500.000
G2 X247.615 Y32.000 Z-7.500 I1.415 J0.000 F2500.000
G2 X244.785 Y32.000 Z-8.250 I-1.415 J0.000 F2500.000
G2 X247.615 Y32.000 Z-9.000 I1.415 J0.000 F2500.000
G2 X244.785 Y32.000 Z-9.750 I-1.415 J0.000 F2500.000
G2 X247.615 Y32.000 Z-10.500 I1.415 J0.000 F2500.000
G2 X244.785 Y32.000 Z-11.250 I-1.415 J0.000 F2500.000
G2 X247.615 Y32.000 Z-12.000 I1.415 J0.000 F2500.000
G2 X244.785 Y32.000 Z-12.750 I-1.415 J0.000 F2500.000
G2 X247.615 Y32.000 Z-13.500 I1.415 J0.000 F2500.000
G2 X244.785 Y32.000 Z-14.250 I-1.415 J0.000 F2500.000
G2 X247.615 Y32.000 Z-15.000 I1.415 J0.000 F2500.000
G2 X244.785 Y32.000 Z-15.750 I-1.415 J0.000 F2500.000
G2 X247.615 Y32.000 Z-16.500 I1.415 J0.000 F2500.000
G2 X244.785 Y32.000 Z-17.250 I-1.415 J0.000 F2500.000
G2 X247.615 Y32.000 Z-18.000 I1.415 J0.000 F2500.000
G2 X244.785 Y32.000 Z-18.000 I-1.415 J0.000 F2500.000
G2 X247.615 Y32.000 Z-18.000 I1.415 J0.000 F2500.000
G0 X246.200 Y32.000 Z-18.000
G0 Z0.000
G0 Z5.000
G0 X246.200 Y578.618 Z5.000
G0 X246.200 Y578.618 Z0.000
G0 X247.615 Y578.618
G1 Z0.000 F1000.000
G2 X244.785 Y578.618 Z-0.750 I-1.415 J0.000 F2500.000
G2 X247.615 Y578.618 Z-1.500 I1.415 J0.000 F2500.000
G2 X244.785 Y578.618 Z-2.250 I-1.415 J0.000 F2500.000
G2 X247.615 Y578.618 Z-3.000 I1.415 J0.000 F2500.000
G2 X244.785 Y578.618 Z-3.750 I-1.415 J0.000 F2500.000
G2 X247.615 Y578.618 Z-4.500 I1.415 J0.000 F2500.000
G2 X244.785 Y578.618 Z-5.250 I-1.415 J0.000 F2500.000
G2 X247.615 Y578.618 Z-6.000 I1.415 J0.000 F2500.000
G2 X244.785 Y578.618 Z-6.750 I-1.415 J0.000 F2500.000
G2 X247.615 Y578.618 Z-7.500 I1.415 J0.000 F2500.000
G2 X244.785 Y578.618 Z-8.250 I-1.415 J0.000 F2500.000
G2 X247.615 Y578.618 Z-9.000 I1.415 J0.000 F2500.000
G2 X244.785 Y578.618 Z-9.750 I-1.415 J0.000 F2500.000
G2 X247.615 Y578.618 Z-10.500 I1.415 J0.000 F2500.000
G2 X244.785 Y578.618 Z-11.250 I-1.415 J0.000 F2500.000
G2 X247.615 Y578.618 Z-12.000 I1.415 J0.000 F2500.000
G2 X244.785 Y578.618 Z-12.750 I-1.415 J0.000 F2500.000
G2 X247.615 Y578.618 Z-13.500 I1.415 J0.000 F2500.000
G2 X244.785 Y578.618 Z-14.250 I-1.415 J0.000 F2500.000
G2 X247.615 Y578.618 Z-15.000 I1.415 J0.000 F2500.000
G2 X244.785 Y578.618 Z-15.750 I-1.415 J0.000 F2500.000
G2 X247.615 Y578.618 Z-16.500 I1.415 J0.000 F2500.000
G2 X244.785 Y578.618 Z-17.250 I-1.415 J0.000 F2500.000
G2 X247.615 Y578.618 Z-18.000 I1.415 J0.000 F2500.000
G2 X244.785 Y578.618 Z-18.000 I-1.415 J0.000 F2500.000
G2 X247.615 Y578.618 Z-18.000 I1.415 J0.000 F2500.000
G0 X246.200 Y578.618 Z-18.000
G0 Z0.000
G0 Z5.000
(Finish operation: Helix)
(Begin postamble)
M5
G17 G90
M2
