(Exported by FreeCAD)
(Post Processor: grbl_post)
(Output Time:2023-05-30 11:32:31.497537)
(Begin preamble)
G17 G90
G21
(Begin operation: Fixture)
(Path: Fixture)
G54
(Finish operation: Fixture)
(Begin operation: 8 Z1 UP helicoidale008)
(Path: 8 Z1 UP helicoidale008)
(8 Z1 UP helicoidale008)
(Begin toolchange)
( M6 T7 )
M3 S24000
(Finish operation: 8 Z1 UP helicoidale008)
(Begin operation: Profile004)
(Path: Profile004)
(Profile004)
(Compensated Tool Path. Diameter: 8.0)
G0 Z5.000
G0 X102.828 Y266.828
G0 Z3.000
G1 X102.828 Y266.828 Z-2.667 F1000.000
G2 X104.000 Y264.000 Z-2.667 I-2.828 J-2.828 K0.000 F2500.000
G1 X104.000 Y5.000 Z-2.667 F2500.000
G2 X95.242 Y-3.993 Z-2.667 I-9.003 J0.007 K0.000 F2500.000
G1 X5.033 Y-4.000 Z-2.667 F2500.000
G2 X-3.993 Y4.792 Z-2.667 I0.007 J9.037 K0.000 F2500.000
G1 X-4.000 Y264.000 Z-2.667 F2500.000
G2 X0.000 Y268.000 Z-2.667 I4.000 J-0.000 K0.000 F2500.000
G1 X100.000 Y268.000 Z-2.667 F2500.000
G2 X102.828 Y266.828 Z-2.667 I-0.000 J-4.000 K0.000 F2500.000
G1 X102.828 Y266.828 Z-5.333 F1000.000
G2 X104.000 Y264.000 Z-5.333 I-2.828 J-2.828 K0.000 F2500.000
G1 X104.000 Y5.000 Z-5.333 F2500.000
G2 X95.242 Y-3.993 Z-5.333 I-9.003 J0.007 K0.000 F2500.000
G1 X5.033 Y-4.000 Z-5.333 F2500.000
G2 X-3.993 Y4.792 Z-5.333 I0.007 J9.037 K0.000 F2500.000
G1 X-4.000 Y264.000 Z-5.333 F2500.000
G2 X0.000 Y268.000 Z-5.333 I4.000 J-0.000 K0.000 F2500.000
G1 X100.000 Y268.000 Z-5.333 F2500.000
G2 X102.828 Y266.828 Z-5.333 I-0.000 J-4.000 K0.000 F2500.000
G1 X102.828 Y266.828 Z-8.000 F1000.000
G2 X104.000 Y264.000 Z-8.000 I-2.828 J-2.828 K0.000 F2500.000
G1 X104.000 Y5.000 Z-8.000 F2500.000
G2 X95.242 Y-3.993 Z-8.000 I-9.003 J0.007 K0.000 F2500.000
G1 X5.033 Y-4.000 Z-8.000 F2500.000
G2 X-3.993 Y4.792 Z-8.000 I0.007 J9.037 K0.000 F2500.000
G1 X-4.000 Y264.000 Z-8.000 F2500.000
G2 X0.000 Y268.000 Z-8.000 I4.000 J-0.000 K0.000 F2500.000
G1 X100.000 Y268.000 Z-8.000 F2500.000
G2 X102.828 Y266.828 Z-8.000 I-0.000 J-4.000 K0.000 F2500.000
G1 X102.828 Y266.828 Z-10.667 F1000.000
G2 X104.000 Y264.000 Z-10.667 I-2.828 J-2.828 K0.000 F2500.000
G1 X104.000 Y5.000 Z-10.667 F2500.000
G2 X95.242 Y-3.993 Z-10.667 I-9.003 J0.007 K0.000 F2500.000
G1 X5.033 Y-4.000 Z-10.667 F2500.000
G2 X-3.993 Y4.792 Z-10.667 I0.007 J9.037 K0.000 F2500.000
G1 X-4.000 Y264.000 Z-10.667 F2500.000
G2 X0.000 Y268.000 Z-10.667 I4.000 J-0.000 K0.000 F2500.000
G1 X100.000 Y268.000 Z-10.667 F2500.000
G2 X102.828 Y266.828 Z-10.667 I-0.000 J-4.000 K0.000 F2500.000
G1 X102.828 Y266.828 Z-13.333 F1000.000
G2 X104.000 Y264.000 Z-13.333 I-2.828 J-2.828 K0.000 F2500.000
G1 X104.000 Y5.000 Z-13.333 F2500.000
G2 X95.242 Y-3.993 Z-13.333 I-9.003 J0.007 K0.000 F2500.000
G1 X5.033 Y-4.000 Z-13.333 F2500.000
G2 X-3.993 Y4.792 Z-13.333 I0.007 J9.037 K0.000 F2500.000
G1 X-4.000 Y264.000 Z-13.333 F2500.000
G2 X0.000 Y268.000 Z-13.333 I4.000 J-0.000 K0.000 F2500.000
G1 X100.000 Y268.000 Z-13.333 F2500.000
G2 X102.828 Y266.828 Z-13.333 I-0.000 J-4.000 K0.000 F2500.000
G1 X102.828 Y266.828 Z-16.000 F1000.000
G2 X104.000 Y264.000 Z-16.000 I-2.828 J-2.828 K0.000 F2500.000
G1 X104.000 Y5.000 Z-16.000 F2500.000
G2 X95.242 Y-3.993 Z-16.000 I-9.003 J0.007 K0.000 F2500.000
G1 X5.033 Y-4.000 Z-16.000 F2500.000
G2 X-3.993 Y4.792 Z-16.000 I0.007 J9.037 K0.000 F2500.000
G1 X-4.000 Y264.000 Z-16.000 F2500.000
G2 X0.000 Y268.000 Z-16.000 I4.000 J-0.000 K0.000 F2500.000
G1 X100.000 Y268.000 Z-16.000 F2500.000
G2 X102.828 Y266.828 Z-16.000 I-0.000 J-4.000 K0.000 F2500.000
G1 X102.828 Y266.828 Z-18.000 F1000.000
G2 X104.000 Y264.000 Z-18.000 I-2.828 J-2.828 K0.000 F2500.000
G1 X104.000 Y5.000 Z-18.000 F2500.000
G2 X95.242 Y-3.993 Z-18.000 I-9.003 J0.007 K0.000 F2500.000
G1 X5.033 Y-4.000 Z-18.000 F2500.000
G2 X-3.993 Y4.792 Z-18.000 I0.007 J9.037 K0.000 F2500.000
G1 X-4.000 Y264.000 Z-18.000 F2500.000
G2 X0.000 Y268.000 Z-18.000 I4.000 J-0.000 K0.000 F2500.000
G1 X100.000 Y268.000 Z-18.000 F2500.000
G2 X102.828 Y266.828 Z-18.000 I-0.000 J-4.000 K0.000 F2500.000
G0 Z5.000
G0 Z5.000
(Finish operation: Profile004)
(Begin postamble)
M5
G17 G90
M2
