(Exported by FreeCAD)
(Post Processor: grbl_post)
(Output Time:2023-05-22 19:28:30.801556)
(Begin preamble)
G17 G90
G21
(Begin operation: 8 Z1 UP helicoidale004)
(Path: 8 Z1 UP helicoidale004)
(8 Z1 UP helicoidale004)
(Begin toolchange)
( M6 T7 )
M3 S24000
(Finish operation: 8 Z1 UP helicoidale004)
(Begin operation: Fixture)
(Path: Fixture)
G54
G0 Z5.000
(Finish operation: Fixture)
(Begin operation: Profile003)
(Path: Profile003)
(Profile003)
(Compensated Tool Path. Diameter: 8.0)
G0 Z5.000
G0 X51.360 Y326.362
G0 Z3.000
G1 X51.360 Y326.362 Z-2.667 F1000.000
G2 X53.993 Y320.242 Z-2.667 I-6.368 J-6.365 K0.000 F2500.000
G1 X54.000 Y0.000 Z-2.667 F2500.000
G2 X50.000 Y-4.000 Z-2.667 I-4.000 J0.000 K0.000 F2500.000
G1 X0.000 Y-4.000 Z-2.667 F2500.000
G2 X-4.000 Y0.000 Z-2.667 I0.000 J4.000 K0.000 F2500.000
G1 X-4.000 Y320.000 Z-2.667 F2500.000
G2 X4.758 Y328.993 Z-2.667 I9.003 J-0.007 K0.000 F2500.000
G1 X45.000 Y329.000 Z-2.667 F2500.000
G2 X51.360 Y326.362 Z-2.667 I-0.007 J-9.003 K0.000 F2500.000
G1 X51.360 Y326.362 Z-5.333 F1000.000
G2 X53.993 Y320.242 Z-5.333 I-6.368 J-6.365 K0.000 F2500.000
G1 X54.000 Y0.000 Z-5.333 F2500.000
G2 X50.000 Y-4.000 Z-5.333 I-4.000 J0.000 K0.000 F2500.000
G1 X0.000 Y-4.000 Z-5.333 F2500.000
G2 X-4.000 Y0.000 Z-5.333 I0.000 J4.000 K0.000 F2500.000
G1 X-4.000 Y320.000 Z-5.333 F2500.000
G2 X4.758 Y328.993 Z-5.333 I9.003 J-0.007 K0.000 F2500.000
G1 X45.000 Y329.000 Z-5.333 F2500.000
G2 X51.360 Y326.362 Z-5.333 I-0.007 J-9.003 K0.000 F2500.000
G1 X51.360 Y326.362 Z-8.000 F1000.000
G2 X53.993 Y320.242 Z-8.000 I-6.368 J-6.365 K0.000 F2500.000
G1 X54.000 Y0.000 Z-8.000 F2500.000
G2 X50.000 Y-4.000 Z-8.000 I-4.000 J0.000 K0.000 F2500.000
G1 X0.000 Y-4.000 Z-8.000 F2500.000
G2 X-4.000 Y0.000 Z-8.000 I0.000 J4.000 K0.000 F2500.000
G1 X-4.000 Y320.000 Z-8.000 F2500.000
G2 X4.758 Y328.993 Z-8.000 I9.003 J-0.007 K0.000 F2500.000
G1 X45.000 Y329.000 Z-8.000 F2500.000
G2 X51.360 Y326.362 Z-8.000 I-0.007 J-9.003 K0.000 F2500.000
G1 X51.360 Y326.362 Z-10.667 F1000.000
G2 X53.993 Y320.242 Z-10.667 I-6.368 J-6.365 K0.000 F2500.000
G1 X54.000 Y0.000 Z-10.667 F2500.000
G2 X50.000 Y-4.000 Z-10.667 I-4.000 J0.000 K0.000 F2500.000
G1 X0.000 Y-4.000 Z-10.667 F2500.000
G2 X-4.000 Y0.000 Z-10.667 I0.000 J4.000 K0.000 F2500.000
G1 X-4.000 Y320.000 Z-10.667 F2500.000
G2 X4.758 Y328.993 Z-10.667 I9.003 J-0.007 K0.000 F2500.000
G1 X45.000 Y329.000 Z-10.667 F2500.000
G2 X51.360 Y326.362 Z-10.667 I-0.007 J-9.003 K0.000 F2500.000
G1 X51.360 Y326.362 Z-13.333 F1000.000
G2 X53.993 Y320.242 Z-13.333 I-6.368 J-6.365 K0.000 F2500.000
G1 X54.000 Y0.000 Z-13.333 F2500.000
G2 X50.000 Y-4.000 Z-13.333 I-4.000 J0.000 K0.000 F2500.000
G1 X0.000 Y-4.000 Z-13.333 F2500.000
G2 X-4.000 Y0.000 Z-13.333 I0.000 J4.000 K0.000 F2500.000
G1 X-4.000 Y320.000 Z-13.333 F2500.000
G2 X4.758 Y328.993 Z-13.333 I9.003 J-0.007 K0.000 F2500.000
G1 X45.000 Y329.000 Z-13.333 F2500.000
G2 X51.360 Y326.362 Z-13.333 I-0.007 J-9.003 K0.000 F2500.000
G1 X51.360 Y326.362 Z-16.000 F1000.000
G2 X53.993 Y320.242 Z-16.000 I-6.368 J-6.365 K0.000 F2500.000
G1 X54.000 Y0.000 Z-16.000 F2500.000
G2 X50.000 Y-4.000 Z-16.000 I-4.000 J0.000 K0.000 F2500.000
G1 X0.000 Y-4.000 Z-16.000 F2500.000
G2 X-4.000 Y0.000 Z-16.000 I0.000 J4.000 K0.000 F2500.000
G1 X-4.000 Y320.000 Z-16.000 F2500.000
G2 X4.758 Y328.993 Z-16.000 I9.003 J-0.007 K0.000 F2500.000
G1 X45.000 Y329.000 Z-16.000 F2500.000
G2 X51.360 Y326.362 Z-16.000 I-0.007 J-9.003 K0.000 F2500.000
G1 X51.360 Y326.362 Z-18.000 F1000.000
G2 X53.993 Y320.242 Z-18.000 I-6.368 J-6.365 K0.000 F2500.000
G1 X54.000 Y0.000 Z-18.000 F2500.000
G2 X50.000 Y-4.000 Z-18.000 I-4.000 J0.000 K0.000 F2500.000
G1 X0.000 Y-4.000 Z-18.000 F2500.000
G2 X-4.000 Y0.000 Z-18.000 I0.000 J4.000 K0.000 F2500.000
G1 X-4.000 Y320.000 Z-18.000 F2500.000
G2 X4.758 Y328.993 Z-18.000 I9.003 J-0.007 K0.000 F2500.000
G1 X45.000 Y329.000 Z-18.000 F2500.000
G2 X51.360 Y326.362 Z-18.000 I-0.007 J-9.003 K0.000 F2500.000
G0 Z5.000
G0 Z5.000
(Finish operation: Profile003)
(Begin operation: Pocket_Shape003)
(Path: Pocket_Shape003)
(Pocket_Shape003)
G0 Z5.000
G0 X45.702 Y320.702
G0 Z3.000
G1 X45.702 Y320.702 Z-2.667 F1000.000
G3 X44.879 Y321.000 Z-2.667 I-0.730 J-0.730 K0.000 F2500.000
G1 X5.121 Y321.000 Z-2.667 F2500.000
G3 X4.000 Y319.879 Z-2.667 I-0.093 J-1.028 K0.000 F2500.000
G1 X4.000 Y264.000 Z-2.667 F2500.000
G1 X46.000 Y264.000 Z-2.667 F2500.000
G1 X46.000 Y319.879 Z-2.667 F2500.000
G3 X45.702 Y320.702 Z-2.667 I-1.028 J0.093 K0.000 F2500.000
G0 Z5.000
G0 X42.000 Y317.000 Z5.000
G0 X42.000 Y317.000 Z3.000
G1 X42.000 Y317.000 Z-2.667 F1000.000
G1 X8.000 Y317.000 Z-2.667 F2500.000
G1 X8.000 Y268.000 Z-2.667 F2500.000
G1 X42.000 Y268.000 Z-2.667 F2500.000
G1 X42.000 Y317.000 Z-2.667 F2500.000
G0 Z5.000
G0 X38.000 Y313.000 Z5.000
G0 X38.000 Y313.000 Z3.000
G1 X38.000 Y313.000 Z-2.667 F1000.000
G1 X12.000 Y313.000 Z-2.667 F2500.000
G1 X12.000 Y272.000 Z-2.667 F2500.000
G1 X38.000 Y272.000 Z-2.667 F2500.000
G1 X38.000 Y313.000 Z-2.667 F2500.000
G0 Z5.000
G0 X34.000 Y309.000 Z5.000
G0 X34.000 Y309.000 Z3.000
G1 X34.000 Y309.000 Z-2.667 F1000.000
G1 X16.000 Y309.000 Z-2.667 F2500.000
G1 X16.000 Y276.000 Z-2.667 F2500.000
G1 X34.000 Y276.000 Z-2.667 F2500.000
G1 X34.000 Y309.000 Z-2.667 F2500.000
G0 Z5.000
G0 X30.000 Y305.000 Z5.000
G0 X30.000 Y305.000 Z3.000
G1 X30.000 Y305.000 Z-2.667 F1000.000
G1 X20.000 Y305.000 Z-2.667 F2500.000
G1 X20.000 Y280.000 Z-2.667 F2500.000
G1 X30.000 Y280.000 Z-2.667 F2500.000
G1 X30.000 Y305.000 Z-2.667 F2500.000
G0 Z5.000
G0 X26.000 Y301.000 Z5.000
G0 X26.000 Y301.000 Z3.000
G1 X26.000 Y301.000 Z-2.667 F1000.000
G1 X24.000 Y301.000 Z-2.667 F2500.000
G1 X24.000 Y284.000 Z-2.667 F2500.000
G1 X26.000 Y284.000 Z-2.667 F2500.000
G1 X26.000 Y301.000 Z-2.667 F2500.000
G1 X26.000 Y301.000 Z-5.333 F1000.000
G1 X24.000 Y301.000 Z-5.333 F2500.000
G1 X24.000 Y284.000 Z-5.333 F2500.000
G1 X26.000 Y284.000 Z-5.333 F2500.000
G1 X26.000 Y301.000 Z-5.333 F2500.000
G0 Z5.000
G0 Y305.000 Z5.000
G0 Y305.000 Z3.000
G1 X26.000 Y305.000 Z-5.333 F1000.000
G1 X20.000 Y305.000 Z-5.333 F2500.000
G1 X20.000 Y280.000 Z-5.333 F2500.000
G1 X30.000 Y280.000 Z-5.333 F2500.000
G1 X30.000 Y305.000 Z-5.333 F2500.000
G1 X26.000 Y305.000 Z-5.333 F2500.000
G0 Z5.000
G0 Y309.000 Z5.000
G0 Y309.000 Z3.000
G1 X26.000 Y309.000 Z-5.333 F1000.000
G1 X16.000 Y309.000 Z-5.333 F2500.000
G1 X16.000 Y276.000 Z-5.333 F2500.000
G1 X34.000 Y276.000 Z-5.333 F2500.000
G1 X34.000 Y309.000 Z-5.333 F2500.000
G1 X26.000 Y309.000 Z-5.333 F2500.000
G0 Z5.000
G0 Y313.000 Z5.000
G0 Y313.000 Z3.000
G1 X26.000 Y313.000 Z-5.333 F1000.000
G1 X12.000 Y313.000 Z-5.333 F2500.000
G1 X12.000 Y272.000 Z-5.333 F2500.000
G1 X38.000 Y272.000 Z-5.333 F2500.000
G1 X38.000 Y313.000 Z-5.333 F2500.000
G1 X26.000 Y313.000 Z-5.333 F2500.000
G0 Z5.000
G0 Y317.000 Z5.000
G0 Y317.000 Z3.000
G1 X26.000 Y317.000 Z-5.333 F1000.000
G1 X8.000 Y317.000 Z-5.333 F2500.000
G1 X8.000 Y268.000 Z-5.333 F2500.000
G1 X42.000 Y268.000 Z-5.333 F2500.000
G1 X42.000 Y317.000 Z-5.333 F2500.000
G1 X26.000 Y317.000 Z-5.333 F2500.000
G0 Z5.000
G0 Y321.000 Z5.000
G0 Y321.000 Z3.000
G1 X26.000 Y321.000 Z-5.333 F1000.000
G1 X5.121 Y321.000 Z-5.333 F2500.000
G3 X4.000 Y319.879 Z-5.333 I-0.093 J-1.028 K0.000 F2500.000
G1 X4.000 Y264.000 Z-5.333 F2500.000
G1 X46.000 Y264.000 Z-5.333 F2500.000
G1 X46.000 Y319.879 Z-5.333 F2500.000
G3 X44.879 Y321.000 Z-5.333 I-1.028 J0.093 K0.000 F2500.000
G1 X26.000 Y321.000 Z-5.333 F2500.000
G1 X26.000 Y321.000 Z-8.000 F1000.000
G1 X5.121 Y321.000 Z-8.000 F2500.000
G3 X4.000 Y319.879 Z-8.000 I-0.093 J-1.028 K0.000 F2500.000
G1 X4.000 Y264.000 Z-8.000 F2500.000
G1 X46.000 Y264.000 Z-8.000 F2500.000
G1 X46.000 Y319.879 Z-8.000 F2500.000
G3 X44.879 Y321.000 Z-8.000 I-1.028 J0.093 K0.000 F2500.000
G1 X26.000 Y321.000 Z-8.000 F2500.000
G0 Z5.000
G0 Y317.000 Z5.000
G0 Y317.000 Z3.000
G1 X26.000 Y317.000 Z-8.000 F1000.000
G1 X8.000 Y317.000 Z-8.000 F2500.000
G1 X8.000 Y268.000 Z-8.000 F2500.000
G1 X42.000 Y268.000 Z-8.000 F2500.000
G1 X42.000 Y317.000 Z-8.000 F2500.000
G1 X26.000 Y317.000 Z-8.000 F2500.000
G0 Z5.000
G0 Y313.000 Z5.000
G0 Y313.000 Z3.000
G1 X26.000 Y313.000 Z-8.000 F1000.000
G1 X12.000 Y313.000 Z-8.000 F2500.000
G1 X12.000 Y272.000 Z-8.000 F2500.000
G1 X38.000 Y272.000 Z-8.000 F2500.000
G1 X38.000 Y313.000 Z-8.000 F2500.000
G1 X26.000 Y313.000 Z-8.000 F2500.000
G0 Z5.000
G0 Y309.000 Z5.000
G0 Y309.000 Z3.000
G1 X26.000 Y309.000 Z-8.000 F1000.000
G1 X16.000 Y309.000 Z-8.000 F2500.000
G1 X16.000 Y276.000 Z-8.000 F2500.000
G1 X34.000 Y276.000 Z-8.000 F2500.000
G1 X34.000 Y309.000 Z-8.000 F2500.000
G1 X26.000 Y309.000 Z-8.000 F2500.000
G0 Z5.000
G0 Y305.000 Z5.000
G0 Y305.000 Z3.000
G1 X26.000 Y305.000 Z-8.000 F1000.000
G1 X20.000 Y305.000 Z-8.000 F2500.000
G1 X20.000 Y280.000 Z-8.000 F2500.000
G1 X30.000 Y280.000 Z-8.000 F2500.000
G1 X30.000 Y305.000 Z-8.000 F2500.000
G1 X26.000 Y305.000 Z-8.000 F2500.000
G0 Z5.000
G0 Y301.000 Z5.000
G0 Y301.000 Z3.000
G1 X26.000 Y301.000 Z-8.000 F1000.000
G1 X24.000 Y301.000 Z-8.000 F2500.000
G1 X24.000 Y284.000 Z-8.000 F2500.000
G1 X26.000 Y284.000 Z-8.000 F2500.000
G1 X26.000 Y301.000 Z-8.000 F2500.000
G1 X26.000 Y301.000 Z-8.800 F1000.000
G1 X24.000 Y301.000 Z-8.800 F2500.000
G1 X24.000 Y284.000 Z-8.800 F2500.000
G1 X26.000 Y284.000 Z-8.800 F2500.000
G1 X26.000 Y301.000 Z-8.800 F2500.000
G0 Z5.000
G0 Y305.000 Z5.000
G0 Y305.000 Z3.000
G1 X26.000 Y305.000 Z-8.800 F1000.000
G1 X20.000 Y305.000 Z-8.800 F2500.000
G1 X20.000 Y280.000 Z-8.800 F2500.000
G1 X30.000 Y280.000 Z-8.800 F2500.000
G1 X30.000 Y305.000 Z-8.800 F2500.000
G1 X26.000 Y305.000 Z-8.800 F2500.000
G0 Z5.000
G0 Y309.000 Z5.000
G0 Y309.000 Z3.000
G1 X26.000 Y309.000 Z-8.800 F1000.000
G1 X16.000 Y309.000 Z-8.800 F2500.000
G1 X16.000 Y276.000 Z-8.800 F2500.000
G1 X34.000 Y276.000 Z-8.800 F2500.000
G1 X34.000 Y309.000 Z-8.800 F2500.000
G1 X26.000 Y309.000 Z-8.800 F2500.000
G0 Z5.000
G0 Y313.000 Z5.000
G0 Y313.000 Z3.000
G1 X26.000 Y313.000 Z-8.800 F1000.000
G1 X12.000 Y313.000 Z-8.800 F2500.000
G1 X12.000 Y272.000 Z-8.800 F2500.000
G1 X38.000 Y272.000 Z-8.800 F2500.000
G1 X38.000 Y313.000 Z-8.800 F2500.000
G1 X26.000 Y313.000 Z-8.800 F2500.000
G0 Z5.000
G0 Y317.000 Z5.000
G0 Y317.000 Z3.000
G1 X26.000 Y317.000 Z-8.800 F1000.000
G1 X8.000 Y317.000 Z-8.800 F2500.000
G1 X8.000 Y268.000 Z-8.800 F2500.000
G1 X42.000 Y268.000 Z-8.800 F2500.000
G1 X42.000 Y317.000 Z-8.800 F2500.000
G1 X26.000 Y317.000 Z-8.800 F2500.000
G0 Z5.000
G0 Y321.000 Z5.000
G0 Y321.000 Z3.000
G1 X26.000 Y321.000 Z-8.800 F1000.000
G1 X5.121 Y321.000 Z-8.800 F2500.000
G3 X4.000 Y319.879 Z-8.800 I-0.093 J-1.028 K0.000 F2500.000
G1 X4.000 Y264.000 Z-8.800 F2500.000
G1 X46.000 Y264.000 Z-8.800 F2500.000
G1 X46.000 Y319.879 Z-8.800 F2500.000
G3 X44.879 Y321.000 Z-8.800 I-1.028 J0.093 K0.000 F2500.000
G1 X26.000 Y321.000 Z-8.800 F2500.000
G1 X26.000 Y321.000 Z-9.000 F1000.000
G1 X5.121 Y321.000 Z-9.000 F2500.000
G3 X4.000 Y319.879 Z-9.000 I-0.093 J-1.028 K0.000 F2500.000
G1 X4.000 Y264.000 Z-9.000 F2500.000
G1 X46.000 Y264.000 Z-9.000 F2500.000
G1 X46.000 Y319.879 Z-9.000 F2500.000
G3 X44.879 Y321.000 Z-9.000 I-1.028 J0.093 K0.000 F2500.000
G1 X26.000 Y321.000 Z-9.000 F2500.000
G0 Z5.000
G0 Y317.000 Z5.000
G0 Y317.000 Z3.000
G1 X26.000 Y317.000 Z-9.000 F1000.000
G1 X8.000 Y317.000 Z-9.000 F2500.000
G1 X8.000 Y268.000 Z-9.000 F2500.000
G1 X42.000 Y268.000 Z-9.000 F2500.000
G1 X42.000 Y317.000 Z-9.000 F2500.000
G1 X26.000 Y317.000 Z-9.000 F2500.000
G0 Z5.000
G0 Y313.000 Z5.000
G0 Y313.000 Z3.000
G1 X26.000 Y313.000 Z-9.000 F1000.000
G1 X12.000 Y313.000 Z-9.000 F2500.000
G1 X12.000 Y272.000 Z-9.000 F2500.000
G1 X38.000 Y272.000 Z-9.000 F2500.000
G1 X38.000 Y313.000 Z-9.000 F2500.000
G1 X26.000 Y313.000 Z-9.000 F2500.000
G0 Z5.000
G0 Y309.000 Z5.000
G0 Y309.000 Z3.000
G1 X26.000 Y309.000 Z-9.000 F1000.000
G1 X16.000 Y309.000 Z-9.000 F2500.000
G1 X16.000 Y276.000 Z-9.000 F2500.000
G1 X34.000 Y276.000 Z-9.000 F2500.000
G1 X34.000 Y309.000 Z-9.000 F2500.000
G1 X26.000 Y309.000 Z-9.000 F2500.000
G0 Z5.000
G0 Y305.000 Z5.000
G0 Y305.000 Z3.000
G1 X26.000 Y305.000 Z-9.000 F1000.000
G1 X20.000 Y305.000 Z-9.000 F2500.000
G1 X20.000 Y280.000 Z-9.000 F2500.000
G1 X30.000 Y280.000 Z-9.000 F2500.000
G1 X30.000 Y305.000 Z-9.000 F2500.000
G1 X26.000 Y305.000 Z-9.000 F2500.000
G0 Z5.000
G0 Y301.000 Z5.000
G0 Y301.000 Z3.000
G1 X26.000 Y301.000 Z-9.000 F1000.000
G1 X24.000 Y301.000 Z-9.000 F2500.000
G1 X24.000 Y284.000 Z-9.000 F2500.000
G1 X26.000 Y284.000 Z-9.000 F2500.000
G1 X26.000 Y301.000 Z-9.000 F2500.000
G0 Z5.000
G0 Z5.000
(Finish operation: Pocket_Shape003)
(Begin postamble)
M5
G17 G90
M2
