(Exported by FreeCAD)
(Post Processor: grbl_post)
(Output Time:2023-05-30 11:22:57.225533)
(Begin preamble)
G17 G90
G21
(Begin operation: Fixture)
(Path: Fixture)
G54
(Finish operation: Fixture)
(Begin operation: 8 Z1 UP helicoidale004)
(Path: 8 Z1 UP helicoidale004)
(8 Z1 UP helicoidale004)
(Begin toolchange)
( M6 T7 )
M3 S24000
(Finish operation: 8 Z1 UP helicoidale004)
(Begin operation: Profile003)
(Path: Profile003)
(Profile003)
(Compensated Tool Path. Diameter: 8.0)
G0 Z5.000
G0 X101.360 Y326.362
G0 Z3.000
G1 X101.360 Y326.362 Z-2.667 F1000.000
G2 X103.993 Y320.242 Z-2.667 I-6.368 J-6.365 K0.000 F2500.000
G1 X104.000 Y-0.000 Z-2.667 F2500.000
G2 X100.000 Y-4.000 Z-2.667 I-4.000 J0.000 K0.000 F2500.000
G1 X0.000 Y-4.000 Z-2.667 F2500.000
G2 X-4.000 Y0.000 Z-2.667 I0.000 J4.000 K0.000 F2500.000
G1 X-4.000 Y320.000 Z-2.667 F2500.000
G2 X4.758 Y328.993 Z-2.667 I9.003 J-0.007 K0.000 F2500.000
G1 X95.000 Y329.000 Z-2.667 F2500.000
G2 X101.360 Y326.362 Z-2.667 I-0.007 J-9.003 K0.000 F2500.000
G1 X101.360 Y326.362 Z-5.333 F1000.000
G2 X103.993 Y320.242 Z-5.333 I-6.368 J-6.365 K0.000 F2500.000
G1 X104.000 Y-0.000 Z-5.333 F2500.000
G2 X100.000 Y-4.000 Z-5.333 I-4.000 J0.000 K0.000 F2500.000
G1 X0.000 Y-4.000 Z-5.333 F2500.000
G2 X-4.000 Y0.000 Z-5.333 I0.000 J4.000 K0.000 F2500.000
G1 X-4.000 Y320.000 Z-5.333 F2500.000
G2 X4.758 Y328.993 Z-5.333 I9.003 J-0.007 K0.000 F2500.000
G1 X95.000 Y329.000 Z-5.333 F2500.000
G2 X101.360 Y326.362 Z-5.333 I-0.007 J-9.003 K0.000 F2500.000
G1 X101.360 Y326.362 Z-8.000 F1000.000
G2 X103.993 Y320.242 Z-8.000 I-6.368 J-6.365 K0.000 F2500.000
G1 X104.000 Y-0.000 Z-8.000 F2500.000
G2 X100.000 Y-4.000 Z-8.000 I-4.000 J0.000 K0.000 F2500.000
G1 X0.000 Y-4.000 Z-8.000 F2500.000
G2 X-4.000 Y0.000 Z-8.000 I0.000 J4.000 K0.000 F2500.000
G1 X-4.000 Y320.000 Z-8.000 F2500.000
G2 X4.758 Y328.993 Z-8.000 I9.003 J-0.007 K0.000 F2500.000
G1 X95.000 Y329.000 Z-8.000 F2500.000
G2 X101.360 Y326.362 Z-8.000 I-0.007 J-9.003 K0.000 F2500.000
G1 X101.360 Y326.362 Z-10.667 F1000.000
G2 X103.993 Y320.242 Z-10.667 I-6.368 J-6.365 K0.000 F2500.000
G1 X104.000 Y-0.000 Z-10.667 F2500.000
G2 X100.000 Y-4.000 Z-10.667 I-4.000 J0.000 K0.000 F2500.000
G1 X0.000 Y-4.000 Z-10.667 F2500.000
G2 X-4.000 Y0.000 Z-10.667 I0.000 J4.000 K0.000 F2500.000
G1 X-4.000 Y320.000 Z-10.667 F2500.000
G2 X4.758 Y328.993 Z-10.667 I9.003 J-0.007 K0.000 F2500.000
G1 X95.000 Y329.000 Z-10.667 F2500.000
G2 X101.360 Y326.362 Z-10.667 I-0.007 J-9.003 K0.000 F2500.000
G1 X101.360 Y326.362 Z-13.333 F1000.000
G2 X103.993 Y320.242 Z-13.333 I-6.368 J-6.365 K0.000 F2500.000
G1 X104.000 Y-0.000 Z-13.333 F2500.000
G2 X100.000 Y-4.000 Z-13.333 I-4.000 J0.000 K0.000 F2500.000
G1 X0.000 Y-4.000 Z-13.333 F2500.000
G2 X-4.000 Y0.000 Z-13.333 I0.000 J4.000 K0.000 F2500.000
G1 X-4.000 Y320.000 Z-13.333 F2500.000
G2 X4.758 Y328.993 Z-13.333 I9.003 J-0.007 K0.000 F2500.000
G1 X95.000 Y329.000 Z-13.333 F2500.000
G2 X101.360 Y326.362 Z-13.333 I-0.007 J-9.003 K0.000 F2500.000
G1 X101.360 Y326.362 Z-16.000 F1000.000
G2 X103.993 Y320.242 Z-16.000 I-6.368 J-6.365 K0.000 F2500.000
G1 X104.000 Y-0.000 Z-16.000 F2500.000
G2 X100.000 Y-4.000 Z-16.000 I-4.000 J0.000 K0.000 F2500.000
G1 X0.000 Y-4.000 Z-16.000 F2500.000
G2 X-4.000 Y0.000 Z-16.000 I0.000 J4.000 K0.000 F2500.000
G1 X-4.000 Y320.000 Z-16.000 F2500.000
G2 X4.758 Y328.993 Z-16.000 I9.003 J-0.007 K0.000 F2500.000
G1 X95.000 Y329.000 Z-16.000 F2500.000
G2 X101.360 Y326.362 Z-16.000 I-0.007 J-9.003 K0.000 F2500.000
G1 X101.360 Y326.362 Z-18.000 F1000.000
G2 X103.993 Y320.242 Z-18.000 I-6.368 J-6.365 K0.000 F2500.000
G1 X104.000 Y-0.000 Z-18.000 F2500.000
G2 X100.000 Y-4.000 Z-18.000 I-4.000 J0.000 K0.000 F2500.000
G1 X0.000 Y-4.000 Z-18.000 F2500.000
G2 X-4.000 Y0.000 Z-18.000 I0.000 J4.000 K0.000 F2500.000
G1 X-4.000 Y320.000 Z-18.000 F2500.000
G2 X4.758 Y328.993 Z-18.000 I9.003 J-0.007 K0.000 F2500.000
G1 X95.000 Y329.000 Z-18.000 F2500.000
G2 X101.360 Y326.362 Z-18.000 I-0.007 J-9.003 K0.000 F2500.000
G0 Z5.000
G0 Z5.000
(Finish operation: Profile003)
(Begin postamble)
M5
G17 G90
M2
