(Exported by FreeCAD)
(Post Processor: grbl_post)
(Output Time:2023-05-22 19:20:04.809064)
(Begin preamble)
G17 G90
G21
(Begin operation: 6 ball L24 Q008)
(Path: 6 ball L24 Q008)
(6 ball L24 Q008)
(Begin toolchange)
( M6 T4 )
M3 S24000
(Finish operation: 6 ball L24 Q008)
(Begin operation: Fixture)
(Path: Fixture)
G54
G0 Z5.000
(Finish operation: Fixture)
(Begin operation: Surface)
(Path: Surface)
(Surface)
(Surface)
(Tool type: ballend)
(Compensated Tool Path. Diameter: 6.0)
(Sample interval: 1.0)
(Step over %: 30.0)
()
G0 Z5.000
(Beginning of Single-pass layer.)
G0 X26.002 Y23.998
(Begin step 0.)
(part 1.)
G1 X26.002 Y23.998 Z-2.315 F2500.000
G1 X26.002 Y24.998 Z-2.308 F2500.000
G1 X26.002 Y300.998 Z-0.185 F2500.000
G1 X25.807 Y301.002 Z-0.185 F2500.000
G1 X24.007 Y301.002 Z-0.185 F2500.000
G1 X23.998 Y300.811 Z-0.186 F2500.000
G1 X23.998 Y24.011 Z-2.315 F2500.000
G1 X24.184 Y23.998 Z-2.315 F2500.000
G1 X26.002 Y23.998 Z-2.315 F2500.000
(Break)
G0 Z3.000
G0 X27.802 Y22.198
(part 3.)
G1 X27.802 Y22.198 Z-2.329 F2500.000
G1 X27.802 Y23.196 Z-2.321 F2500.000
G1 X27.802 Y302.798 Z-0.171 F2500.000
G1 X27.607 Y302.802 Z-0.171 F2500.000
G1 X22.207 Y302.802 Z-0.171 F2500.000
G1 X22.198 Y302.611 Z-0.172 F2500.000
G1 X22.198 Y22.211 Z-2.329 F2500.000
G1 X22.384 Y22.198 Z-2.329 F2500.000
G1 X27.802 Y22.198 Z-2.329 F2500.000
(Break)
G0 Z3.000
G0 X29.602 Y20.398
(part 5.)
G1 X29.602 Y20.398 Z-2.343 F2500.000
G1 X29.602 Y21.395 Z-2.335 F2500.000
G1 X29.602 Y304.598 Z-0.157 F2500.000
G1 X29.407 Y304.602 Z-0.157 F2500.000
G1 X20.407 Y304.602 Z-0.157 F2500.000
G1 X20.398 Y304.411 Z-0.158 F2500.000
G1 X20.398 Y20.411 Z-2.343 F2500.000
G1 X20.584 Y20.398 Z-2.343 F2500.000
G1 X29.602 Y20.398 Z-2.343 F2500.000
(Break)
G0 Z3.000
G0 X31.402 Y18.598
(part 7.)
G1 X31.402 Y18.598 Z-2.357 F2500.000
G1 X31.402 Y19.597 Z-2.349 F2500.000
G1 X31.402 Y306.398 Z-0.143 F2500.000
G1 X31.207 Y306.402 Z-0.143 F2500.000
G1 X18.607 Y306.402 Z-0.143 F2500.000
G1 X18.598 Y306.211 Z-0.144 F2500.000
G1 X18.598 Y18.611 Z-2.357 F2500.000
G1 X18.784 Y18.598 Z-2.357 F2500.000
G1 X31.402 Y18.598 Z-2.357 F2500.000
(Break)
G0 Z3.000
G0 X33.202 Y16.798
(part 9.)
G1 X33.202 Y16.798 Z-2.371 F2500.000
G1 X33.202 Y17.796 Z-2.363 F2500.000
G1 X33.202 Y308.198 Z-0.129 F2500.000
G1 X33.007 Y308.202 Z-0.129 F2500.000
G1 X16.807 Y308.202 Z-0.129 F2500.000
G1 X16.798 Y308.011 Z-0.131 F2500.000
G1 X16.798 Y16.811 Z-2.371 F2500.000
G1 X16.984 Y16.798 Z-2.371 F2500.000
G1 X33.202 Y16.798 Z-2.371 F2500.000
(Break)
G0 Z3.000
G0 X35.002 Y14.998
(part 11.)
G1 X35.002 Y14.998 Z-2.385 F2500.000
G1 X35.002 Y15.998 Z-2.377 F2500.000
G1 X35.002 Y309.998 Z-0.115 F2500.000
G1 X34.807 Y310.002 Z-0.115 F2500.000
G1 X15.007 Y310.002 Z-0.115 F2500.000
G1 X14.998 Y309.811 Z-0.117 F2500.000
G1 X14.998 Y15.011 Z-2.384 F2500.000
G1 X15.184 Y14.998 Z-2.385 F2500.000
G1 X35.002 Y14.998 Z-2.385 F2500.000
(Break)
G0 Z3.000
G0 X36.802 Y13.198
(part 13.)
G1 X36.802 Y13.198 Z-2.398 F2500.000
G1 X36.802 Y14.196 Z-2.391 F2500.000
G1 X36.802 Y311.798 Z-0.101 F2500.000
G1 X36.607 Y311.802 Z-0.101 F2500.000
G1 X13.207 Y311.802 Z-0.101 F2500.000
G1 X13.198 Y311.611 Z-0.103 F2500.000
G1 X13.198 Y13.211 Z-2.398 F2500.000
G1 X13.384 Y13.198 Z-2.398 F2500.000
G1 X36.802 Y13.198 Z-2.398 F2500.000
(Break)
G0 Z3.000
G0 X38.602 Y11.398
(part 15.)
G1 X38.602 Y11.398 Z-2.412 F2500.000
G1 X38.602 Y12.395 Z-2.405 F2500.000
G1 X38.602 Y313.598 Z-0.088 F2500.000
G1 X38.407 Y313.602 Z-0.088 F2500.000
G1 X11.407 Y313.602 Z-0.088 F2500.000
G1 X11.398 Y313.411 Z-0.089 F2500.000
G1 X11.398 Y11.411 Z-2.412 F2500.000
G1 X11.584 Y11.398 Z-2.412 F2500.000
G1 X38.602 Y11.398 Z-2.412 F2500.000
(Break)
G0 Z3.000
G0 X40.402 Y9.598
(part 17.)
G1 X40.402 Y9.598 Z-2.426 F2500.000
G1 X40.402 Y10.597 Z-2.418 F2500.000
G1 X40.402 Y315.398 Z-0.074 F2500.000
G1 X40.207 Y315.402 Z-0.074 F2500.000
G1 X9.607 Y315.402 Z-0.074 F2500.000
G1 X9.598 Y315.211 Z-0.075 F2500.000
G1 X9.598 Y9.611 Z-2.426 F2500.000
G1 X9.784 Y9.598 Z-2.426 F2500.000
G1 X40.402 Y9.598 Z-2.426 F2500.000
(Break)
G0 Z3.000
G0 X42.202 Y7.798
(part 19.)
G1 X42.202 Y7.798 Z-2.440 F2500.000
G1 X42.202 Y8.796 Z-2.432 F2500.000
G1 X42.202 Y317.198 Z-0.060 F2500.000
G1 X42.007 Y317.202 Z-0.060 F2500.000
G1 X7.807 Y317.202 Z-0.060 F2500.000
G1 X7.798 Y317.011 Z-0.061 F2500.000
G1 X7.798 Y7.811 Z-2.440 F2500.000
G1 X7.984 Y7.798 Z-2.440 F2500.000
G1 X42.202 Y7.798 Z-2.440 F2500.000
(Break)
G0 Z3.000
G0 X44.002 Y5.998
(part 21.)
G1 X44.002 Y5.998 Z-2.454 F2500.000
G1 X44.002 Y6.995 Z-2.446 F2500.000
G1 X44.002 Y318.998 Z-0.046 F2500.000
G1 X43.807 Y319.002 Z-0.046 F2500.000
G1 X6.007 Y319.002 Z-0.046 F2500.000
G1 X5.998 Y318.811 Z-0.048 F2500.000
G1 X5.998 Y6.011 Z-2.454 F2500.000
G1 X6.184 Y5.998 Z-2.454 F2500.000
G1 X44.002 Y5.998 Z-2.454 F2500.000
(Break)
G0 Z3.000
G0 X45.802 Y4.198
(part 23.)
G1 X45.802 Y4.198 Z-2.468 F2500.000
G1 X45.802 Y5.196 Z-2.460 F2500.000
G1 X45.802 Y319.798 Z-0.040 F2500.000
G1 X45.796 Y319.998 Z-0.038 F2500.000
G1 X45.770 Y320.195 Z-0.037 F2500.000
G1 X45.697 Y320.381 Z-0.035 F2500.000
G1 X45.581 Y320.542 Z-0.034 F2500.000
G1 X45.428 Y320.671 Z-0.033 F2500.000
G1 X45.247 Y320.755 Z-0.033 F2500.000
G1 X45.051 Y320.793 Z-0.032 F2500.000
G1 X44.852 Y320.802 Z-0.032 F2500.000
G1 X5.252 Y320.802 Z-0.032 F2500.000
G1 X5.052 Y320.799 Z-0.032 F2500.000
G1 X4.853 Y320.781 Z-0.032 F2500.000
G1 X4.663 Y320.720 Z-0.033 F2500.000
G1 X4.494 Y320.614 Z-0.034 F2500.000
G1 X4.358 Y320.468 Z-0.035 F2500.000
G1 X4.262 Y320.294 Z-0.036 F2500.000
G1 X4.211 Y320.101 Z-0.038 F2500.000
G1 X4.199 Y319.901 Z-0.039 F2500.000
G1 X4.198 Y319.701 Z-0.041 F2500.000
G1 X4.198 Y4.301 Z-2.467 F2500.000
G1 X4.294 Y4.198 Z-2.468 F2500.000
G1 X45.802 Y4.198 Z-2.468 F2500.000
(Break)
G0 Z3.000
G0 X47.602 Y2.398
(part 25.)
G1 X47.602 Y2.398 Z-2.481 F2500.000
G1 X47.602 Y3.396 Z-2.474 F2500.000
G1 X47.602 Y319.798 Z-0.040 F2500.000
G1 X47.599 Y319.998 Z-0.038 F2500.000
G1 X47.587 Y320.197 Z-0.037 F2500.000
G1 X47.564 Y320.396 Z-0.035 F2500.000
G1 X47.529 Y320.592 Z-0.034 F2500.000
G1 X47.474 Y320.785 Z-0.032 F2500.000
G1 X47.405 Y320.972 Z-0.031 F2500.000
G1 X47.326 Y321.155 Z-0.029 F2500.000
G1 X47.229 Y321.331 Z-0.028 F2500.000
G1 X47.119 Y321.497 Z-0.027 F2500.000
G1 X46.999 Y321.657 Z-0.026 F2500.000
G1 X46.865 Y321.806 Z-0.024 F2500.000
G1 X46.720 Y321.943 Z-0.023 F2500.000
G1 X46.566 Y322.070 Z-0.022 F2500.000
G1 X46.403 Y322.186 Z-0.022 F2500.000
G1 X46.229 Y322.285 Z-0.021 F2500.000
G1 X46.050 Y322.373 Z-0.020 F2500.000
G1 X45.865 Y322.450 Z-0.020 F2500.000
G1 X45.673 Y322.506 Z-0.019 F2500.000
G1 X45.479 Y322.550 Z-0.019 F2500.000
G1 X45.281 Y322.583 Z-0.019 F2500.000
G1 X45.082 Y322.594 Z-0.018 F2500.000
G1 X44.882 Y322.602 Z-0.018 F2500.000
G1 X5.082 Y322.602 Z-0.018 F2500.000
G1 X4.683 Y322.578 Z-0.019 F2500.000
G1 X4.486 Y322.544 Z-0.019 F2500.000
G1 X4.292 Y322.496 Z-0.019 F2500.000
G1 X4.101 Y322.436 Z-0.020 F2500.000
G1 X3.917 Y322.359 Z-0.020 F2500.000
G1 X3.739 Y322.267 Z-0.021 F2500.000
G1 X3.568 Y322.165 Z-0.022 F2500.000
G1 X3.405 Y322.049 Z-0.023 F2500.000
G1 X3.253 Y321.919 Z-0.024 F2500.000
G1 X3.111 Y321.779 Z-0.025 F2500.000
G1 X2.977 Y321.630 Z-0.026 F2500.000
G1 X2.860 Y321.468 Z-0.027 F2500.000
G1 X2.754 Y321.299 Z-0.028 F2500.000
G1 X2.657 Y321.124 Z-0.030 F2500.000
G1 X2.581 Y320.939 Z-0.031 F2500.000
G1 X2.516 Y320.750 Z-0.033 F2500.000
G1 X2.463 Y320.557 Z-0.034 F2500.000
G1 X2.430 Y320.360 Z-0.036 F2500.000
G1 X2.411 Y320.161 Z-0.037 F2500.000
G1 X2.399 Y319.962 Z-0.039 F2500.000
G1 X2.398 Y319.762 Z-0.040 F2500.000
G1 X2.398 Y2.562 Z-2.480 F2500.000
G1 X2.434 Y2.398 Z-2.481 F2500.000
G1 X47.602 Y2.398 Z-2.481 F2500.000
(Break)
G0 Z3.000
G0 X49.402 Y0.598
(part 27.)
G1 X49.402 Y0.598 Z-2.495 F2500.000
G1 X49.402 Y1.595 Z-2.488 F2500.000
G1 X49.402 Y319.798 Z-0.040 F2500.000
G1 X49.401 Y319.998 Z-0.038 F2500.000
G1 X49.379 Y320.397 Z-0.035 F2500.000
G1 X49.356 Y320.595 Z-0.034 F2500.000
G1 X49.288 Y320.990 Z-0.031 F2500.000
G1 X49.177 Y321.374 Z-0.028 F2500.000
G1 X49.110 Y321.562 Z-0.026 F2500.000
G1 X48.954 Y321.930 Z-0.024 F2500.000
G1 X48.761 Y322.280 Z-0.021 F2500.000
G1 X48.652 Y322.448 Z-0.020 F2500.000
G1 X48.417 Y322.771 Z-0.017 F2500.000
G1 X48.150 Y323.070 Z-0.015 F2500.000
G1 X48.006 Y323.207 Z-0.014 F2500.000
G1 X47.857 Y323.341 Z-0.013 F2500.000
G1 X47.704 Y323.470 Z-0.012 F2500.000
G1 X47.378 Y323.701 Z-0.010 F2500.000
G1 X47.030 Y323.899 Z-0.008 F2500.000
G1 X46.852 Y323.989 Z-0.008 F2500.000
G1 X46.483 Y324.142 Z-0.007 F2500.000
G1 X46.100 Y324.256 Z-0.006 F2500.000
G1 X45.906 Y324.304 Z-0.005 F2500.000
G1 X45.511 Y324.371 Z-0.005 F2500.000
G1 X45.112 Y324.395 Z-0.005 F2500.000
G1 X44.912 Y324.402 Z-0.005 F2500.000
G1 X5.112 Y324.402 Z-0.005 F2500.000
G1 X4.912 Y324.396 Z-0.005 F2500.000
G1 X4.513 Y324.374 Z-0.005 F2500.000
G1 X4.119 Y324.308 Z-0.005 F2500.000
G1 X3.924 Y324.263 Z-0.006 F2500.000
G1 X3.540 Y324.152 Z-0.006 F2500.000
G1 X3.170 Y323.999 Z-0.008 F2500.000
G1 X2.991 Y323.911 Z-0.008 F2500.000
G1 X2.642 Y323.715 Z-0.010 F2500.000
G1 X2.316 Y323.484 Z-0.012 F2500.000
G1 X2.162 Y323.357 Z-0.013 F2500.000
G1 X1.866 Y323.088 Z-0.015 F2500.000
G1 X1.599 Y322.789 Z-0.017 F2500.000
G1 X1.478 Y322.631 Z-0.018 F2500.000
G1 X1.363 Y322.468 Z-0.019 F2500.000
G1 X1.251 Y322.302 Z-0.021 F2500.000
G1 X1.058 Y321.952 Z-0.023 F2500.000
G1 X0.976 Y321.769 Z-0.025 F2500.000
G1 X0.900 Y321.584 Z-0.026 F2500.000
G1 X0.829 Y321.397 Z-0.028 F2500.000
G1 X0.719 Y321.013 Z-0.031 F2500.000
G1 X0.648 Y320.620 Z-0.034 F2500.000
G1 X0.622 Y320.422 Z-0.035 F2500.000
G1 X0.600 Y320.022 Z-0.038 F2500.000
G1 X0.598 Y0.622 Z-2.495 F2500.000
G1 X0.773 Y0.598 Z-2.495 F2500.000
G1 X49.402 Y0.598 Z-2.495 F2500.000
(Break)
G0 Z3.000
G0 X49.992 Y-1.202
(part 29.)
G1 X49.992 Y-1.202 Z-2.500 F2500.000
G1 X50.192 Y-1.187 Z-2.500 F2500.000
G1 X50.385 Y-1.139 Z-2.500 F2500.000
G1 X50.569 Y-1.059 Z-2.500 F2500.000
G1 X50.736 Y-0.950 Z-2.500 F2500.000
G1 X50.883 Y-0.815 Z-2.500 F2500.000
G1 X51.006 Y-0.658 Z-2.500 F2500.000
G1 X51.101 Y-0.482 Z-2.500 F2500.000
G1 X51.166 Y-0.293 Z-2.500 F2500.000
G1 X51.198 Y-0.096 Z-2.500 F2500.000
G1 X51.202 Y0.104 Z-2.500 F2500.000
G1 X51.202 Y32.084 Z-2.500 F2500.000
G1 X51.202 Y33.084 Z-2.497 F2500.000
G1 X51.202 Y319.904 Z-0.291 F2500.000
G1 X51.198 Y320.104 Z-0.288 F2500.000
G1 X51.176 Y320.503 Z-0.284 F2500.000
G1 X51.162 Y320.703 Z-0.285 F2500.000
G1 X51.097 Y321.097 Z-0.280 F2500.000
G1 X51.063 Y321.295 Z-0.281 F2500.000
G1 X51.017 Y321.489 Z-0.279 F2500.000
G1 X50.907 Y321.874 Z-0.276 F2500.000
G1 X50.848 Y322.065 Z-0.277 F2500.000
G1 X50.696 Y322.435 Z-0.271 F2500.000
G1 X50.620 Y322.620 Z-0.273 F2500.000
G1 X50.531 Y322.799 Z-0.271 F2500.000
G1 X50.337 Y323.149 Z-0.268 F2500.000
G1 X50.237 Y323.322 Z-0.269 F2500.000
G1 X50.122 Y323.485 Z-0.265 F2500.000
G1 X49.891 Y323.812 Z-0.266 F2500.000
G1 X49.764 Y323.966 Z-0.263 F2500.000
G1 X49.497 Y324.264 Z-0.261 F2500.000
G1 X49.360 Y324.410 Z-0.262 F2500.000
G1 X49.063 Y324.677 Z-0.258 F2500.000
G1 X48.913 Y324.810 Z-0.259 F2500.000
G1 X48.754 Y324.931 Z-0.257 F2500.000
G1 X48.428 Y325.163 Z-0.256 F2500.000
G1 X48.262 Y325.274 Z-0.257 F2500.000
G1 X47.912 Y325.468 Z-0.253 F2500.000
G1 X47.737 Y325.565 Z-0.255 F2500.000
G1 X47.555 Y325.646 Z-0.253 F2500.000
G1 X47.370 Y325.723 Z-0.251 F2500.000
G1 X47.185 Y325.800 Z-0.252 F2500.000
G1 X46.998 Y325.870 Z-0.253 F2500.000
G1 X46.614 Y325.981 Z-0.250 F2500.000
G1 X46.422 Y326.036 Z-0.252 F2500.000
G1 X46.226 Y326.075 Z-0.250 F2500.000
G1 X45.831 Y326.142 Z-0.250 F2500.000
G1 X45.633 Y326.168 Z-0.251 F2500.000
G1 X45.434 Y326.180 Z-0.248 F2500.000
G1 X45.034 Y326.202 Z-0.251 F2500.000
G1 X44.834 Y326.202 Z-0.251 F2500.000
G1 X5.034 Y326.202 Z-0.251 F2500.000
G1 X4.834 Y326.195 Z-0.249 F2500.000
G1 X4.435 Y326.172 Z-0.250 F2500.000
G1 X4.236 Y326.153 Z-0.251 F2500.000
G1 X4.039 Y326.120 Z-0.249 F2500.000
G1 X3.645 Y326.052 Z-0.252 F2500.000
G1 X3.451 Y326.000 Z-0.250 F2500.000
G1 X3.067 Y325.889 Z-0.252 F2500.000
G1 X2.878 Y325.826 Z-0.253 F2500.000
G1 X2.508 Y325.673 Z-0.252 F2500.000
G1 X2.324 Y325.595 Z-0.255 F2500.000
G1 X2.147 Y325.501 Z-0.253 F2500.000
G1 X1.797 Y325.307 Z-0.255 F2500.000
G1 X1.627 Y325.202 Z-0.257 F2500.000
G1 X1.301 Y324.971 Z-0.256 F2500.000
G1 X1.139 Y324.854 Z-0.260 F2500.000
G1 X0.988 Y324.722 Z-0.258 F2500.000
G1 X0.690 Y324.456 Z-0.261 F2500.000
G1 X0.548 Y324.315 Z-0.262 F2500.000
G1 X0.282 Y324.017 Z-0.262 F2500.000
G1 X0.150 Y323.866 Z-0.266 F2500.000
G1 X0.033 Y323.704 Z-0.264 F2500.000
G1 X-0.199 Y323.378 Z-0.268 F2500.000
G1 X-0.304 Y323.208 Z-0.269 F2500.000
G1 X-0.498 Y322.858 Z-0.270 F2500.000
G1 X-0.592 Y322.682 Z-0.273 F2500.000
G1 X-0.747 Y322.313 Z-0.272 F2500.000
G1 X-0.823 Y322.128 Z-0.276 F2500.000
G1 X-0.888 Y321.939 Z-0.276 F2500.000
G1 X-0.998 Y321.555 Z-0.278 F2500.000
G1 X-1.051 Y321.362 Z-0.281 F2500.000
G1 X-1.085 Y321.165 Z-0.280 F2500.000
G1 X-1.152 Y320.770 Z-0.284 F2500.000
G1 X-1.172 Y320.572 Z-0.285 F2500.000
G1 X-1.194 Y320.172 Z-0.286 F2500.000
G1 X-1.202 Y319.972 Z-0.290 F2500.000
G1 X-1.202 Y33.152 Z-2.496 F2500.000
G1 X-1.202 Y32.152 Z-2.500 F2500.000
G1 X-1.202 Y0.172 Z-2.500 F2500.000
G1 X-1.202 Y-0.028 Z-2.500 F2500.000
G1 X-1.181 Y-0.226 Z-2.500 F2500.000
G1 X-1.127 Y-0.419 Z-2.500 F2500.000
G1 X-1.042 Y-0.600 Z-2.500 F2500.000
G1 X-0.928 Y-0.764 Z-2.500 F2500.000
G1 X-0.789 Y-0.907 Z-2.500 F2500.000
G1 X-0.628 Y-1.025 Z-2.500 F2500.000
G1 X-0.449 Y-1.115 Z-2.500 F2500.000
G1 X-0.259 Y-1.174 Z-2.500 F2500.000
G1 X-0.061 Y-1.201 Z-2.500 F2500.000
G1 X49.992 Y-1.202 Z-2.500 F2500.000
(Break)
G0 Z3.000
G0 X0.000 Y-3.002
(part 31.)
G1 X0.000 Y-3.002 Z-2.500 F2500.000
G1 X50.000 Y-3.002 Z-2.500 F2500.000
G1 X50.200 Y-2.996 Z-2.500 F2500.000
G1 X50.399 Y-2.976 Z-2.500 F2500.000
G1 X50.596 Y-2.942 Z-2.500 F2500.000
G1 X50.791 Y-2.896 Z-2.500 F2500.000
G1 X50.982 Y-2.837 Z-2.500 F2500.000
G1 X51.168 Y-2.765 Z-2.500 F2500.000
G1 X51.350 Y-2.681 Z-2.500 F2500.000
G1 X51.525 Y-2.586 Z-2.500 F2500.000
G1 X51.694 Y-2.478 Z-2.500 F2500.000
G1 X51.855 Y-2.360 Z-2.500 F2500.000
G1 X52.008 Y-2.231 Z-2.500 F2500.000
G1 X52.153 Y-2.093 Z-2.500 F2500.000
G1 X52.287 Y-1.945 Z-2.500 F2500.000
G1 X52.411 Y-1.788 Z-2.500 F2500.000
G1 X52.525 Y-1.624 Z-2.500 F2500.000
G1 X52.628 Y-1.452 Z-2.500 F2500.000
G1 X52.718 Y-1.274 Z-2.500 F2500.000
G1 X52.797 Y-1.090 Z-2.500 F2500.000
G1 X52.864 Y-0.901 Z-2.500 F2500.000
G1 X52.917 Y-0.709 Z-2.500 F2500.000
G1 X52.958 Y-0.513 Z-2.500 F2500.000
G1 X52.986 Y-0.315 Z-2.500 F2500.000
G1 X53.000 Y-0.115 Z-2.500 F2500.000
G1 X53.002 Y0.084 Z-2.500 F2500.000
G1 X53.001 Y320.084 Z-2.500 F2500.000
G1 X52.969 Y320.684 Z-2.500 F2500.000
G1 X52.953 Y320.883 Z-2.500 F2500.000
G1 X52.925 Y321.081 Z-2.500 F2500.000
G1 X52.824 Y321.672 Z-2.500 F2500.000
G1 X52.780 Y321.867 Z-2.500 F2500.000
G1 X52.615 Y322.444 Z-2.500 F2500.000
G1 X52.556 Y322.635 Z-2.500 F2500.000
G1 X52.484 Y322.822 Z-2.500 F2500.000
G1 X52.254 Y323.376 Z-2.500 F2500.000
G1 X52.167 Y323.556 Z-2.500 F2500.000
G1 X51.878 Y324.082 Z-2.500 F2500.000
G1 X51.777 Y324.255 Z-2.500 F2500.000
G1 X51.666 Y324.421 Z-2.500 F2500.000
G1 X51.318 Y324.909 Z-2.500 F2500.000
G1 X51.193 Y325.066 Z-2.500 F2500.000
G1 X50.794 Y325.514 Z-2.500 F2500.000
G1 X50.657 Y325.660 Z-2.500 F2500.000
G1 X50.511 Y325.796 Z-2.500 F2500.000
G1 X50.063 Y326.195 Z-2.500 F2500.000
G1 X49.907 Y326.320 Z-2.500 F2500.000
G1 X49.418 Y326.668 Z-2.500 F2500.000
G1 X49.252 Y326.779 Z-2.500 F2500.000
G1 X49.079 Y326.880 Z-2.500 F2500.000
G1 X48.553 Y327.169 Z-2.500 F2500.000
G1 X48.373 Y327.255 Z-2.500 F2500.000
G1 X47.819 Y327.485 Z-2.500 F2500.000
G1 X47.632 Y327.557 Z-2.500 F2500.000
G1 X47.441 Y327.616 Z-2.500 F2500.000
G1 X46.864 Y327.781 Z-2.500 F2500.000
G1 X46.669 Y327.825 Z-2.500 F2500.000
G1 X46.078 Y327.926 Z-2.500 F2500.000
G1 X45.880 Y327.954 Z-2.500 F2500.000
G1 X45.680 Y327.969 Z-2.500 F2500.000
G1 X45.081 Y328.001 Z-2.500 F2500.000
G1 X44.881 Y328.002 Z-2.500 F2500.000
G1 X5.081 Y328.002 Z-2.500 F2500.000
G1 X4.881 Y328.000 Z-2.500 F2500.000
G1 X4.282 Y327.967 Z-2.500 F2500.000
G1 X4.083 Y327.949 Z-2.500 F2500.000
G1 X3.885 Y327.920 Z-2.500 F2500.000
G1 X3.294 Y327.818 Z-2.500 F2500.000
G1 X3.099 Y327.772 Z-2.500 F2500.000
G1 X2.523 Y327.606 Z-2.500 F2500.000
G1 X2.332 Y327.544 Z-2.500 F2500.000
G1 X2.146 Y327.471 Z-2.500 F2500.000
G1 X1.593 Y327.240 Z-2.500 F2500.000
G1 X1.413 Y327.152 Z-2.500 F2500.000
G1 X0.888 Y326.862 Z-2.500 F2500.000
G1 X0.716 Y326.759 Z-2.500 F2500.000
G1 X0.551 Y326.646 Z-2.500 F2500.000
G1 X0.063 Y326.297 Z-2.500 F2500.000
G1 X-0.092 Y326.171 Z-2.500 F2500.000
G1 X-0.539 Y325.771 Z-2.500 F2500.000
G1 X-0.684 Y325.633 Z-2.500 F2500.000
G1 X-0.819 Y325.486 Z-2.500 F2500.000
G1 X-1.217 Y325.037 Z-2.500 F2500.000
G1 X-1.340 Y324.879 Z-2.500 F2500.000
G1 X-1.687 Y324.390 Z-2.500 F2500.000
G1 X-1.797 Y324.223 Z-2.500 F2500.000
G1 X-1.896 Y324.049 Z-2.500 F2500.000
G1 X-2.185 Y323.523 Z-2.500 F2500.000
G1 X-2.269 Y323.342 Z-2.500 F2500.000
G1 X-2.498 Y322.787 Z-2.500 F2500.000
G1 X-2.568 Y322.600 Z-2.500 F2500.000
G1 X-2.626 Y322.408 Z-2.500 F2500.000
G1 X-2.790 Y321.831 Z-2.500 F2500.000
G1 X-2.831 Y321.635 Z-2.500 F2500.000
G1 X-2.931 Y321.044 Z-2.500 F2500.000
G1 X-2.957 Y320.846 Z-2.500 F2500.000
G1 X-2.971 Y320.646 Z-2.500 F2500.000
G1 X-3.002 Y320.047 Z-2.500 F2500.000
G1 X-3.002 Y319.847 Z-2.500 F2500.000
G1 X-3.002 Y0.047 Z-2.500 F2500.000
G1 X-2.998 Y-0.153 Z-2.500 F2500.000
G1 X-2.981 Y-0.352 Z-2.500 F2500.000
G1 X-2.951 Y-0.550 Z-2.500 F2500.000
G1 X-2.908 Y-0.745 Z-2.500 F2500.000
G1 X-2.852 Y-0.937 Z-2.500 F2500.000
G1 X-2.783 Y-1.125 Z-2.500 F2500.000
G1 X-2.702 Y-1.308 Z-2.500 F2500.000
G1 X-2.609 Y-1.485 Z-2.500 F2500.000
G1 X-2.505 Y-1.655 Z-2.500 F2500.000
G1 X-2.389 Y-1.818 Z-2.500 F2500.000
G1 X-2.263 Y-1.973 Z-2.500 F2500.000
G1 X-2.126 Y-2.119 Z-2.500 F2500.000
G1 X-1.980 Y-2.256 Z-2.500 F2500.000
G1 X-1.826 Y-2.383 Z-2.500 F2500.000
G1 X-1.663 Y-2.499 Z-2.500 F2500.000
G1 X-1.493 Y-2.604 Z-2.500 F2500.000
G1 X-1.316 Y-2.698 Z-2.500 F2500.000
G1 X-1.134 Y-2.780 Z-2.500 F2500.000
G1 X-0.946 Y-2.849 Z-2.500 F2500.000
G1 X-0.755 Y-2.906 Z-2.500 F2500.000
G1 X-0.559 Y-2.950 Z-2.500 F2500.000
G1 X-0.362 Y-2.980 Z-2.500 F2500.000
G1 X-0.163 Y-2.998 Z-2.500 F2500.000
G1 X0.000 Y-3.002 Z-2.500 F2500.000
(End of step 0.)
G0 Z5.000
(Finish operation: Surface)
(Begin postamble)
M5
G17 G90
M2
