(Exported by FreeCAD)
(Post Processor: grbl_post)
(Output Time:2023-05-30 12:15:37.930555)
(Begin preamble)
G17 G90
G21
(Begin operation: 8 Z1 UP helicoidale006)
(Path: 8 Z1 UP helicoidale006)
(8 Z1 UP helicoidale006)
(Begin toolchange)
( M6 T7 )
M3 S24000
(Finish operation: 8 Z1 UP helicoidale006)
(Begin operation: Fixture)
(Path: Fixture)
G54
G0 Z5.000
(Finish operation: Fixture)
(Begin operation: Pocket_Shape002)
(Path: Pocket_Shape002)
(Pocket_Shape002)
G0 Z5.000
G0 X292.933 Y603.461
G0 Z3.000
G1 X292.933 Y603.461 Z-8.000 F1000.000
G3 X256.421 Y605.400 Z-8.000 I-35.838 J-330.092 K0.000 F2500.000
G1 X237.557 Y605.400 Z-8.000 F2500.000
G3 X200.839 Y603.438 Z-8.000 I-0.674 J-332.031 K0.000 F2500.000
G1 X200.839 Y553.521 Z-8.000 F2500.000
G3 X201.960 Y552.400 Z-8.000 I1.028 J-0.093 K0.000 F2500.000
G1 X292.018 Y552.400 Z-8.000 F2500.000
G3 X293.139 Y553.521 Z-8.000 I0.093 J1.028 K0.000 F2500.000
G1 X293.139 Y603.438 Z-8.000 F2500.000
G3 X292.933 Y603.461 Z-8.000 I-36.044 J-330.069 K0.000 F2500.000
G0 Z5.000
G0 X287.539 Y598.381 Z5.000
G0 X287.539 Y598.381 Z3.000
G1 X287.539 Y598.381 Z-8.000 F1000.000
G3 X256.393 Y599.800 Z-8.000 I-30.621 J-329.590 K0.000 F2500.000
G1 X237.585 Y599.800 Z-8.000 F2500.000
G3 X206.439 Y598.381 Z-8.000 I-0.644 J-328.379 K0.000 F2500.000
G1 X206.439 Y558.000 Z-8.000 F2500.000
G1 X287.539 Y558.000 Z-8.000 F2500.000
G1 X287.539 Y598.381 Z-8.000 F2500.000
G0 Z5.000
G0 X281.939 Y593.241 Z5.000
G0 X281.939 Y593.241 Z3.000
G1 X281.939 Y593.241 Z-8.000 F1000.000
G3 X256.366 Y594.200 Z-8.000 I-25.111 J-328.156 K0.000 F2500.000
G1 X237.612 Y594.200 Z-8.000 F2500.000
G3 X212.039 Y593.241 Z-8.000 I-0.462 J-329.115 K0.000 F2500.000
G1 X212.039 Y563.600 Z-8.000 F2500.000
G1 X281.939 Y563.600 Z-8.000 F2500.000
G1 X281.939 Y593.241 Z-8.000 F2500.000
G0 Z5.000
G0 X276.339 Y588.008 Z5.000
G0 X276.339 Y588.008 Z3.000
G1 X276.339 Y588.008 Z-8.000 F1000.000
G3 X256.338 Y588.600 Z-8.000 I-19.722 J-327.936 K0.000 F2500.000
G1 X237.640 Y588.600 Z-8.000 F2500.000
G3 X217.639 Y588.008 Z-8.000 I-0.279 J-328.528 K0.000 F2500.000
G1 X217.639 Y569.200 Z-8.000 F2500.000
G1 X276.339 Y569.200 Z-8.000 F2500.000
G1 X276.339 Y588.008 Z-8.000 F2500.000
G0 Z5.000
G0 X270.739 Y582.687 Z5.000
G0 X270.739 Y582.687 Z3.000
G1 X270.739 Y582.687 Z-8.000 F1000.000
G3 X256.310 Y583.000 Z-8.000 I-14.283 J-325.262 K0.000 F2500.000
G1 X237.668 Y583.000 Z-8.000 F2500.000
G3 X223.239 Y582.687 Z-8.000 I-0.146 J-325.576 K0.000 F2500.000
G1 X223.239 Y574.800 Z-8.000 F2500.000
G1 X270.739 Y574.800 Z-8.000 F2500.000
G1 X270.739 Y582.687 Z-8.000 F2500.000
G0 Z5.000
G0 X268.739 Y580.766 Z5.000
G0 X268.739 Y580.766 Z3.000
G1 X268.739 Y580.766 Z-8.000 F1000.000
G3 X256.300 Y581.000 Z-8.000 I-12.234 J-319.489 K0.000 F2500.000
G1 X237.678 Y581.000 Z-8.000 F2500.000
G3 X225.239 Y580.766 Z-8.000 I-0.205 J-319.723 K0.000 F2500.000
G1 X225.239 Y576.800 Z-8.000 F2500.000
G1 X268.739 Y576.800 Z-8.000 F2500.000
G1 X268.739 Y580.766 Z-8.000 F2500.000
G0 Z5.000
G0 X266.739 Y578.836 Z5.000
G0 X266.739 Y578.836 Z3.000
G1 X266.739 Y578.836 Z-8.000 F1000.000
G3 X256.290 Y579.000 Z-8.000 I-10.854 J-358.550 K0.000 F2500.000
G1 X237.688 Y579.000 Z-8.000 F2500.000
G3 X227.239 Y578.836 Z-8.000 I-0.107 J-326.067 K0.000 F2500.000
G1 X227.239 Y578.800 Z-8.000 F2500.000
G1 X266.739 Y578.800 Z-8.000 F2500.000
G1 X266.739 Y578.836 Z-8.000 F2500.000
G1 X266.739 Y578.836 Z-16.000 F1000.000
G3 X256.290 Y579.000 Z-16.000 I-10.854 J-358.550 K0.000 F2500.000
G1 X237.688 Y579.000 Z-16.000 F2500.000
G3 X227.239 Y578.836 Z-16.000 I-0.107 J-326.067 K0.000 F2500.000
G1 X227.239 Y578.800 Z-16.000 F2500.000
G1 X266.739 Y578.800 Z-16.000 F2500.000
G1 X266.739 Y578.836 Z-16.000 F2500.000
G0 Z5.000
G0 X266.803 Y580.834 Z5.000
G0 X266.803 Y580.834 Z3.000
G1 X266.803 Y580.834 Z-16.000 F1000.000
G3 X256.300 Y581.000 Z-16.000 I-10.298 J-319.557 K0.000 F2500.000
G1 X237.678 Y581.000 Z-16.000 F2500.000
G3 X225.239 Y580.766 Z-16.000 I-0.205 J-319.723 K0.000 F2500.000
G1 X225.239 Y576.800 Z-16.000 F2500.000
G1 X268.739 Y576.800 Z-16.000 F2500.000
G1 X268.739 Y580.766 Z-16.000 F2500.000
G3 X266.803 Y580.834 Z-16.000 I-12.234 J-319.489 K0.000 F2500.000
G0 Z5.000
G0 X266.867 Y582.834 Z5.000
G0 X266.867 Y582.834 Z3.000
G1 X266.867 Y582.834 Z-16.000 F1000.000
G3 X256.310 Y583.000 Z-16.000 I-10.411 J-325.409 K0.000 F2500.000
G1 X237.668 Y583.000 Z-16.000 F2500.000
G3 X223.239 Y582.687 Z-16.000 I-0.146 J-325.576 K0.000 F2500.000
G1 X223.239 Y574.800 Z-16.000 F2500.000
G1 X270.739 Y574.800 Z-16.000 F2500.000
G1 X270.739 Y582.687 Z-16.000 F2500.000
G3 X266.867 Y582.834 Z-16.000 I-14.283 J-325.262 K0.000 F2500.000
G0 Z5.000
G0 X267.045 Y588.435 Z5.000
G0 X267.045 Y588.435 Z3.000
G1 X267.045 Y588.435 Z-16.000 F1000.000
G3 X256.338 Y588.600 Z-16.000 I-10.429 J-328.363 K0.000 F2500.000
G1 X237.640 Y588.600 Z-16.000 F2500.000
G3 X217.639 Y588.008 Z-16.000 I-0.279 J-328.528 K0.000 F2500.000
G1 X217.639 Y569.200 Z-16.000 F2500.000
G1 X276.339 Y569.200 Z-16.000 F2500.000
G1 X276.339 Y588.008 Z-16.000 F2500.000
G3 X267.045 Y588.435 Z-16.000 I-19.722 J-327.936 K0.000 F2500.000
G0 Z5.000
G0 X267.222 Y594.036 Z5.000
G0 X267.222 Y594.036 Z3.000
G1 X267.222 Y594.036 Z-16.000 F1000.000
G3 X256.366 Y594.200 Z-16.000 I-10.395 J-328.952 K0.000 F2500.000
G1 X237.612 Y594.200 Z-16.000 F2500.000
G3 X212.039 Y593.241 Z-16.000 I-0.462 J-329.115 K0.000 F2500.000
G1 X212.039 Y563.600 Z-16.000 F2500.000
G1 X281.939 Y563.600 Z-16.000 F2500.000
G1 X281.939 Y593.241 Z-16.000 F2500.000
G3 X267.222 Y594.036 Z-16.000 I-25.111 J-328.156 K0.000 F2500.000
G0 Z5.000
G0 X267.400 Y599.634 Z5.000
G0 X267.400 Y599.634 Z3.000
G1 X267.400 Y599.634 Z-16.000 F1000.000
G3 X256.393 Y599.800 Z-16.000 I-10.482 J-330.844 K0.000 F2500.000
G1 X237.585 Y599.800 Z-16.000 F2500.000
G3 X206.439 Y598.381 Z-16.000 I-0.644 J-328.379 K0.000 F2500.000
G1 X206.439 Y558.000 Z-16.000 F2500.000
G1 X287.539 Y558.000 Z-16.000 F2500.000
G1 X287.539 Y598.381 Z-16.000 F2500.000
G3 X267.400 Y599.634 Z-16.000 I-30.621 J-329.590 K0.000 F2500.000
G0 Z5.000
G0 X267.576 Y605.235 Z5.000
G0 X267.576 Y605.235 Z3.000
G1 X267.576 Y605.235 Z-16.000 F1000.000
G3 X256.421 Y605.400 Z-16.000 I-10.482 J-331.866 K0.000 F2500.000
G1 X237.557 Y605.400 Z-16.000 F2500.000
G3 X200.839 Y603.438 Z-16.000 I-0.674 J-332.031 K0.000 F2500.000
G1 X200.839 Y553.521 Z-16.000 F2500.000
G3 X201.960 Y552.400 Z-16.000 I1.028 J-0.093 K0.000 F2500.000
G1 X292.018 Y552.400 Z-16.000 F2500.000
G3 X293.139 Y553.521 Z-16.000 I0.093 J1.028 K0.000 F2500.000
G1 X293.139 Y603.438 Z-16.000 F2500.000
G3 X267.576 Y605.235 Z-16.000 I-36.044 J-330.069 K0.000 F2500.000
G1 X267.576 Y605.235 Z-17.990 F1000.000
G3 X256.421 Y605.400 Z-17.990 I-10.482 J-331.866 K0.000 F2500.000
G1 X237.557 Y605.400 Z-17.990 F2500.000
G3 X200.839 Y603.438 Z-17.990 I-0.674 J-332.031 K0.000 F2500.000
G1 X200.839 Y553.521 Z-17.990 F2500.000
G3 X201.960 Y552.400 Z-17.990 I1.028 J-0.093 K0.000 F2500.000
G1 X292.018 Y552.400 Z-17.990 F2500.000
G3 X293.139 Y553.521 Z-17.990 I0.093 J1.028 K0.000 F2500.000
G1 X293.139 Y603.438 Z-17.990 F2500.000
G3 X267.576 Y605.235 Z-17.990 I-36.044 J-330.069 K0.000 F2500.000
G0 Z5.000
G0 X267.399 Y599.634 Z5.000
G0 X267.399 Y599.634 Z3.000
G1 X267.399 Y599.634 Z-17.990 F1000.000
G3 X256.393 Y599.800 Z-17.990 I-10.481 J-330.844 K0.000 F2500.000
G1 X237.585 Y599.800 Z-17.990 F2500.000
G3 X206.439 Y598.381 Z-17.990 I-0.644 J-328.379 K0.000 F2500.000
G1 X206.439 Y558.000 Z-17.990 F2500.000
G1 X287.539 Y558.000 Z-17.990 F2500.000
G1 X287.539 Y598.381 Z-17.990 F2500.000
G3 X267.399 Y599.634 Z-17.990 I-30.621 J-329.590 K0.000 F2500.000
G0 Z5.000
G0 X267.222 Y594.036 Z5.000
G0 X267.222 Y594.036 Z3.000
G1 X267.222 Y594.036 Z-17.990 F1000.000
G3 X256.366 Y594.200 Z-17.990 I-10.394 J-328.952 K0.000 F2500.000
G1 X237.612 Y594.200 Z-17.990 F2500.000
G3 X212.039 Y593.241 Z-17.990 I-0.462 J-329.115 K0.000 F2500.000
G1 X212.039 Y563.600 Z-17.990 F2500.000
G1 X281.939 Y563.600 Z-17.990 F2500.000
G1 X281.939 Y593.241 Z-17.990 F2500.000
G3 X267.222 Y594.036 Z-17.990 I-25.111 J-328.156 K0.000 F2500.000
G0 Z5.000
G0 X267.044 Y588.435 Z5.000
G0 X267.044 Y588.435 Z3.000
G1 X267.044 Y588.435 Z-17.990 F1000.000
G3 X256.338 Y588.600 Z-17.990 I-10.428 J-328.363 K0.000 F2500.000
G1 X237.640 Y588.600 Z-17.990 F2500.000
G3 X217.639 Y588.008 Z-17.990 I-0.279 J-328.528 K0.000 F2500.000
G1 X217.639 Y569.200 Z-17.990 F2500.000
G1 X276.339 Y569.200 Z-17.990 F2500.000
G1 X276.339 Y588.008 Z-17.990 F2500.000
G3 X267.044 Y588.435 Z-17.990 I-19.722 J-327.936 K0.000 F2500.000
G0 Z5.000
G0 X266.865 Y582.834 Z5.000
G0 X266.865 Y582.834 Z3.000
G1 X266.865 Y582.834 Z-17.990 F1000.000
G3 X256.310 Y583.000 Z-17.990 I-10.409 J-325.409 K0.000 F2500.000
G1 X237.668 Y583.000 Z-17.990 F2500.000
G3 X223.239 Y582.687 Z-17.990 I-0.146 J-325.576 K0.000 F2500.000
G1 X223.239 Y574.800 Z-17.990 F2500.000
G1 X270.739 Y574.800 Z-17.990 F2500.000
G1 X270.739 Y582.687 Z-17.990 F2500.000
G3 X266.865 Y582.834 Z-17.990 I-14.283 J-325.262 K0.000 F2500.000
G0 Z5.000
G0 X266.801 Y580.834 Z5.000
G0 X266.801 Y580.834 Z3.000
G1 X266.801 Y580.834 Z-17.990 F1000.000
G3 X256.300 Y581.000 Z-17.990 I-10.296 J-319.557 K0.000 F2500.000
G1 X237.678 Y581.000 Z-17.990 F2500.000
G3 X225.239 Y580.766 Z-17.990 I-0.205 J-319.723 K0.000 F2500.000
G1 X225.239 Y576.800 Z-17.990 F2500.000
G1 X268.739 Y576.800 Z-17.990 F2500.000
G1 X268.739 Y580.766 Z-17.990 F2500.000
G3 X266.801 Y580.834 Z-17.990 I-12.234 J-319.489 K0.000 F2500.000
G0 Z5.000
G0 X266.739 Y578.836 Z5.000
G0 X266.739 Y578.836 Z3.000
G1 X266.739 Y578.836 Z-17.990 F1000.000
G3 X256.290 Y579.000 Z-17.990 I-10.854 J-358.550 K0.000 F2500.000
G1 X237.688 Y579.000 Z-17.990 F2500.000
G3 X227.239 Y578.836 Z-17.990 I-0.107 J-326.067 K0.000 F2500.000
G1 X227.239 Y578.800 Z-17.990 F2500.000
G1 X266.739 Y578.800 Z-17.990 F2500.000
G1 X266.739 Y578.836 Z-17.990 F2500.000
G0 Z5.000
G0 Z5.000
(Finish operation: Pocket_Shape002)
(Begin postamble)
M5
G17 G90
M2
