(Exported by FreeCAD)
(Post Processor: grbl_post)
(Output Time:2023-05-30 12:15:36.506318)
(Begin preamble)
G17 G90
G21
(Begin operation: 3.175 Z2 droite008)
(Path: 3.175 Z2 droite008)
(3.175 Z2 droite008)
(Begin toolchange)
( M6 T2 )
M3 S24000
(Finish operation: 3.175 Z2 droite008)
(Begin operation: Fixture)
(Path: Fixture)
G54
G0 Z5.000
(Finish operation: Fixture)
(Begin operation: DressupTag002)
(Path: DressupTag002)
G0 Z5.000
G0 X418.341 Y548.780 Z5.000
G0 X418.341 Y548.780 Z3.000
G1 X418.341 Y548.780 Z-3.170 F1000.000
G2 X436.533 Y519.901 Z-3.170 I-116.953 J-93.845 K0.000 F2500.000
G2 X446.724 Y491.345 Z-3.170 I-125.835 J-61.000 K0.000 F2500.000
G2 X450.985 Y452.215 Z-3.170 I-157.277 J-36.925 K0.000 F2500.000
G2 X448.125 Y425.075 Z-3.170 I-147.903 J1.867 K0.000 F2500.000
G2 X442.181 Y401.694 Z-3.170 I-261.267 J53.967 K0.000 F2500.000
G2 X435.269 Y380.376 Z-3.170 I-840.891 J260.884 K0.000 F2500.000
G3 X431.542 Y369.189 Z-3.170 I382.487 J-133.641 K0.000 F2500.000
G3 X429.721 Y362.408 Z-3.170 I55.242 J-18.472 K0.000 F2500.000
G3 X429.655 Y361.817 Z-3.170 I1.468 J-0.461 K0.000 F2500.000
G1 X431.661 Y357.665 Z-3.170 F2500.000
G1 X444.620 Y336.070 Z-3.170 F2500.000
G2 X459.781 Y310.732 Z-3.170 I-664.107 J-414.586 K0.000 F2500.000
G2 X471.503 Y288.575 Z-3.170 I-322.529 J-184.811 K0.000 F2500.000
G2 X485.828 Y253.703 Z-3.170 I-250.391 J-123.238 K0.000 F2500.000
G2 X493.632 Y221.501 Z-3.170 I-174.942 J-59.441 K0.000 F2500.000
G2 X495.737 Y196.644 Z-3.170 I-229.207 J-31.926 K0.000 F2500.000
G2 X494.451 Y166.506 Z-3.170 I-185.054 J-7.201 K0.000 F2500.000
G2 X484.568 Y124.434 Z-3.170 I-216.555 J28.674 K0.000 F2500.000
G2 X472.797 Y98.218 Z-3.170 I-175.544 J63.070 K0.000 F2500.000
G2 X454.293 Y70.524 Z-3.170 I-157.877 J85.455 K0.000 F2500.000
G2 X421.527 Y40.072 Z-3.170 I-123.062 J99.562 K0.000 F2500.000
G2 X390.303 Y22.706 Z-3.170 I-108.461 J158.255 K0.000 F2500.000
G2 X357.683 Y11.307 Z-3.170 I-93.842 J216.158 K0.000 F2500.000
G2 X322.489 Y3.986 Z-3.170 I-85.505 J322.819 K0.000 F2500.000
G2 X281.040 Y-0.342 Z-3.170 I-71.175 J480.936 K0.000 F2500.000
G2 X243.674 Y-1.569 Z-3.170 I-35.826 J521.423 K0.000 F2500.000
G2 X199.510 Y0.678 Z-3.170 I8.087 J593.862 K0.000 F2500.000
G2 X163.776 Y5.266 Z-3.170 I33.726 J404.161 K0.000 F2500.000
G2 X134.409 Y11.839 Z-3.170 I50.104 J292.748 K0.000 F2500.000
G2 X102.853 Y23.090 Z-3.170 I58.961 J215.251 K0.000 F2500.000
G2 X75.959 Y37.733 Z-3.170 I72.935 J165.980 K0.000 F2500.000
G2 X44.398 Y64.948 Z-3.170 I86.422 J132.128 K0.000 F2500.000
G2 X25.122 Y91.355 Z-3.170 I134.491 J118.412 K0.000 F2500.000
G2 X8.715 Y126.452 Z-3.170 I156.454 J94.520 K0.000 F2500.000
G2 X1.286 Y155.417 Z-3.170 I212.185 J69.863 K0.000 F2500.000
G2 X-1.846 Y184.728 Z-3.170 I178.511 J33.896 K0.000 F2500.000
G2 X-0.906 Y210.518 Z-3.170 I238.844 J4.203 K0.000 F2500.000
G2 X5.674 Y245.832 Z-3.170 I178.837 J-15.050 K0.000 F2500.000
G2 X16.460 Y275.509 Z-3.170 I258.151 J-77.030 K0.000 F2500.000
G2 X31.724 Y306.348 Z-3.170 I325.773 J-142.046 K0.000 F2500.000
G2 X49.358 Y336.070 Z-3.170 I640.348 J-359.831 K0.000 F2500.000
G1 X62.317 Y357.665 Z-3.170 F2500.000
G1 X64.323 Y361.817 Z-3.170 F2500.000
G1 X64.341 Y361.894 Z-3.170 F2500.000
G3 X63.883 Y364.157 Z-3.170 I-26.903 J-4.262 K0.000 F2500.000
G3 X61.456 Y372.252 Z-3.170 I-142.033 J-38.172 K0.000 F2500.000
G2 X54.920 Y391.833 Z-3.170 I1463.430 J499.431 K0.000 F2500.000
G2 X47.349 Y418.230 Z-3.170 I290.242 J97.525 K0.000 F2500.000
G2 X43.432 Y442.323 Z-3.170 I156.902 J37.873 K0.000 F2500.000
G2 X44.730 Y478.193 Z-3.170 I162.830 J12.065 K0.000 F2500.000
G2 X53.172 Y510.179 Z-3.170 I141.978 J-20.364 K0.000 F2500.000
G2 X124.237 Y588.405 Z-3.170 I139.494 J-55.332 K0.000 F2500.000
G2 X150.934 Y599.198 Z-3.170 I77.477 J-153.231 K0.000 F2500.000
G2 X178.505 Y605.842 Z-3.170 I70.225 J-230.883 K0.000 F2500.000
G2 X232.152 Y610.951 Z-3.170 I58.057 J-325.382 K0.000 F2500.000
G2 X256.624 Y610.962 Z-3.170 I13.102 J-1957.315 K0.000 F2500.000
G2 X310.579 Y606.674 Z-3.170 I1.098 J-327.745 K0.000 F2500.000
G2 X335.688 Y601.319 Z-3.170 I-38.441 J-241.795 K0.000 F2500.000
G2 X360.168 Y592.883 Z-3.170 I-44.756 J-169.621 K0.000 F2500.000
G2 X418.341 Y548.780 Z-3.170 I-58.780 J-137.949 K0.000 F2500.000
G1 X418.341 Y548.780 Z-6.340 F1000.000
G2 X436.533 Y519.901 Z-6.340 I-116.953 J-93.845 K0.000 F2500.000
G2 X446.724 Y491.345 Z-6.340 I-125.835 J-61.000 K0.000 F2500.000
G2 X450.985 Y452.215 Z-6.340 I-157.277 J-36.925 K0.000 F2500.000
G2 X448.125 Y425.075 Z-6.340 I-147.903 J1.867 K0.000 F2500.000
G2 X442.181 Y401.694 Z-6.340 I-261.267 J53.967 K0.000 F2500.000
G2 X435.269 Y380.376 Z-6.340 I-840.891 J260.884 K0.000 F2500.000
G3 X431.542 Y369.189 Z-6.340 I382.487 J-133.641 K0.000 F2500.000
G3 X429.721 Y362.408 Z-6.340 I55.242 J-18.472 K0.000 F2500.000
G3 X429.655 Y361.817 Z-6.340 I1.468 J-0.461 K0.000 F2500.000
G1 X431.661 Y357.665 Z-6.340 F2500.000
G1 X444.620 Y336.070 Z-6.340 F2500.000
G2 X459.781 Y310.732 Z-6.340 I-664.107 J-414.586 K0.000 F2500.000
G2 X471.503 Y288.575 Z-6.340 I-322.529 J-184.811 K0.000 F2500.000
G2 X485.828 Y253.703 Z-6.340 I-250.391 J-123.238 K0.000 F2500.000
G2 X493.632 Y221.501 Z-6.340 I-174.942 J-59.441 K0.000 F2500.000
G2 X495.737 Y196.644 Z-6.340 I-229.207 J-31.926 K0.000 F2500.000
G2 X494.451 Y166.506 Z-6.340 I-185.054 J-7.201 K0.000 F2500.000
G2 X484.568 Y124.434 Z-6.340 I-216.555 J28.674 K0.000 F2500.000
G2 X472.797 Y98.218 Z-6.340 I-175.544 J63.070 K0.000 F2500.000
G2 X454.293 Y70.524 Z-6.340 I-157.877 J85.455 K0.000 F2500.000
G2 X421.527 Y40.072 Z-6.340 I-123.062 J99.562 K0.000 F2500.000
G2 X390.303 Y22.706 Z-6.340 I-108.461 J158.255 K0.000 F2500.000
G2 X357.683 Y11.307 Z-6.340 I-93.842 J216.158 K0.000 F2500.000
G2 X322.489 Y3.986 Z-6.340 I-85.505 J322.819 K0.000 F2500.000
G2 X281.040 Y-0.342 Z-6.340 I-71.175 J480.936 K0.000 F2500.000
G2 X243.674 Y-1.569 Z-6.340 I-35.826 J521.423 K0.000 F2500.000
G2 X199.510 Y0.678 Z-6.340 I8.087 J593.862 K0.000 F2500.000
G2 X163.776 Y5.266 Z-6.340 I33.726 J404.161 K0.000 F2500.000
G2 X134.409 Y11.839 Z-6.340 I50.104 J292.748 K0.000 F2500.000
G2 X102.853 Y23.090 Z-6.340 I58.961 J215.251 K0.000 F2500.000
G2 X75.959 Y37.733 Z-6.340 I72.935 J165.980 K0.000 F2500.000
G2 X44.398 Y64.948 Z-6.340 I86.422 J132.128 K0.000 F2500.000
G2 X25.122 Y91.355 Z-6.340 I134.491 J118.412 K0.000 F2500.000
G2 X8.715 Y126.452 Z-6.340 I156.454 J94.520 K0.000 F2500.000
G2 X1.286 Y155.417 Z-6.340 I212.185 J69.863 K0.000 F2500.000
G2 X-1.846 Y184.728 Z-6.340 I178.511 J33.896 K0.000 F2500.000
G2 X-0.906 Y210.518 Z-6.340 I238.844 J4.203 K0.000 F2500.000
G2 X5.674 Y245.832 Z-6.340 I178.837 J-15.050 K0.000 F2500.000
G2 X16.460 Y275.509 Z-6.340 I258.151 J-77.030 K0.000 F2500.000
G2 X31.724 Y306.348 Z-6.340 I325.773 J-142.046 K0.000 F2500.000
G2 X49.358 Y336.070 Z-6.340 I640.348 J-359.831 K0.000 F2500.000
G1 X62.317 Y357.665 Z-6.340 F2500.000
G1 X64.323 Y361.817 Z-6.340 F2500.000
G1 X64.341 Y361.894 Z-6.340 F2500.000
G3 X63.883 Y364.157 Z-6.340 I-26.903 J-4.262 K0.000 F2500.000
G3 X61.456 Y372.252 Z-6.340 I-142.033 J-38.172 K0.000 F2500.000
G2 X54.920 Y391.833 Z-6.340 I1463.430 J499.431 K0.000 F2500.000
G2 X47.349 Y418.230 Z-6.340 I290.242 J97.525 K0.000 F2500.000
G2 X43.432 Y442.323 Z-6.340 I156.902 J37.873 K0.000 F2500.000
G2 X44.730 Y478.193 Z-6.340 I162.830 J12.065 K0.000 F2500.000
G2 X53.172 Y510.179 Z-6.340 I141.978 J-20.364 K0.000 F2500.000
G2 X124.237 Y588.405 Z-6.340 I139.494 J-55.332 K0.000 F2500.000
G2 X150.934 Y599.198 Z-6.340 I77.477 J-153.231 K0.000 F2500.000
G2 X178.505 Y605.842 Z-6.340 I70.225 J-230.883 K0.000 F2500.000
G2 X232.152 Y610.951 Z-6.340 I58.057 J-325.382 K0.000 F2500.000
G2 X256.624 Y610.962 Z-6.340 I13.102 J-1957.315 K0.000 F2500.000
G2 X310.579 Y606.674 Z-6.340 I1.098 J-327.745 K0.000 F2500.000
G2 X335.688 Y601.319 Z-6.340 I-38.441 J-241.795 K0.000 F2500.000
G2 X360.168 Y592.883 Z-6.340 I-44.756 J-169.621 K0.000 F2500.000
G2 X418.341 Y548.780 Z-6.340 I-58.780 J-137.949 K0.000 F2500.000
G1 X418.341 Y548.780 Z-9.510 F1000.000
G2 X436.533 Y519.901 Z-9.510 I-116.953 J-93.845 K0.000 F2500.000
G2 X446.724 Y491.345 Z-9.510 I-125.835 J-61.000 K0.000 F2500.000
G2 X450.985 Y452.215 Z-9.510 I-157.277 J-36.925 K0.000 F2500.000
G2 X448.125 Y425.075 Z-9.510 I-147.903 J1.867 K0.000 F2500.000
G2 X442.181 Y401.694 Z-9.510 I-261.267 J53.967 K0.000 F2500.000
G2 X435.269 Y380.376 Z-9.510 I-840.891 J260.884 K0.000 F2500.000
G3 X431.542 Y369.189 Z-9.510 I382.487 J-133.641 K0.000 F2500.000
G3 X429.721 Y362.408 Z-9.510 I55.242 J-18.472 K0.000 F2500.000
G3 X429.655 Y361.817 Z-9.510 I1.468 J-0.461 K0.000 F2500.000
G1 X431.661 Y357.665 Z-9.510 F2500.000
G1 X444.620 Y336.070 Z-9.510 F2500.000
G2 X459.781 Y310.732 Z-9.510 I-664.107 J-414.586 K0.000 F2500.000
G2 X471.503 Y288.575 Z-9.510 I-322.529 J-184.811 K0.000 F2500.000
G2 X485.828 Y253.703 Z-9.510 I-250.391 J-123.238 K0.000 F2500.000
G2 X493.632 Y221.501 Z-9.510 I-174.942 J-59.441 K0.000 F2500.000
G2 X495.737 Y196.644 Z-9.510 I-229.207 J-31.926 K0.000 F2500.000
G2 X494.451 Y166.506 Z-9.510 I-185.054 J-7.201 K0.000 F2500.000
G2 X484.568 Y124.434 Z-9.510 I-216.555 J28.674 K0.000 F2500.000
G2 X472.797 Y98.218 Z-9.510 I-175.544 J63.070 K0.000 F2500.000
G2 X454.293 Y70.524 Z-9.510 I-157.877 J85.455 K0.000 F2500.000
G2 X421.527 Y40.072 Z-9.510 I-123.062 J99.562 K0.000 F2500.000
G2 X390.303 Y22.706 Z-9.510 I-108.461 J158.255 K0.000 F2500.000
G2 X357.683 Y11.307 Z-9.510 I-93.842 J216.158 K0.000 F2500.000
G2 X322.489 Y3.986 Z-9.510 I-85.505 J322.819 K0.000 F2500.000
G2 X281.040 Y-0.342 Z-9.510 I-71.175 J480.936 K0.000 F2500.000
G2 X243.674 Y-1.569 Z-9.510 I-35.826 J521.423 K0.000 F2500.000
G2 X199.510 Y0.678 Z-9.510 I8.087 J593.862 K0.000 F2500.000
G2 X163.776 Y5.266 Z-9.510 I33.726 J404.161 K0.000 F2500.000
G2 X134.409 Y11.839 Z-9.510 I50.104 J292.748 K0.000 F2500.000
G2 X102.853 Y23.090 Z-9.510 I58.961 J215.251 K0.000 F2500.000
G2 X75.959 Y37.733 Z-9.510 I72.935 J165.980 K0.000 F2500.000
G2 X44.398 Y64.948 Z-9.510 I86.422 J132.128 K0.000 F2500.000
G2 X25.122 Y91.355 Z-9.510 I134.491 J118.412 K0.000 F2500.000
G2 X8.715 Y126.452 Z-9.510 I156.454 J94.520 K0.000 F2500.000
G2 X1.286 Y155.417 Z-9.510 I212.185 J69.863 K0.000 F2500.000
G2 X-1.846 Y184.728 Z-9.510 I178.511 J33.896 K0.000 F2500.000
G2 X-0.906 Y210.518 Z-9.510 I238.844 J4.203 K0.000 F2500.000
G2 X5.674 Y245.832 Z-9.510 I178.837 J-15.050 K0.000 F2500.000
G2 X16.460 Y275.509 Z-9.510 I258.151 J-77.030 K0.000 F2500.000
G2 X31.724 Y306.348 Z-9.510 I325.773 J-142.046 K0.000 F2500.000
G2 X49.358 Y336.070 Z-9.510 I640.348 J-359.831 K0.000 F2500.000
G1 X62.317 Y357.665 Z-9.510 F2500.000
G1 X64.323 Y361.817 Z-9.510 F2500.000
G1 X64.341 Y361.894 Z-9.510 F2500.000
G3 X63.883 Y364.157 Z-9.510 I-26.903 J-4.262 K0.000 F2500.000
G3 X61.456 Y372.252 Z-9.510 I-142.033 J-38.172 K0.000 F2500.000
G2 X54.920 Y391.833 Z-9.510 I1463.430 J499.431 K0.000 F2500.000
G2 X47.349 Y418.230 Z-9.510 I290.242 J97.525 K0.000 F2500.000
G2 X43.432 Y442.323 Z-9.510 I156.902 J37.873 K0.000 F2500.000
G2 X44.730 Y478.193 Z-9.510 I162.830 J12.065 K0.000 F2500.000
G2 X53.172 Y510.179 Z-9.510 I141.978 J-20.364 K0.000 F2500.000
G2 X124.237 Y588.405 Z-9.510 I139.494 J-55.332 K0.000 F2500.000
G2 X150.934 Y599.198 Z-9.510 I77.477 J-153.231 K0.000 F2500.000
G2 X178.505 Y605.842 Z-9.510 I70.225 J-230.883 K0.000 F2500.000
G2 X232.152 Y610.951 Z-9.510 I58.057 J-325.382 K0.000 F2500.000
G2 X256.624 Y610.962 Z-9.510 I13.102 J-1957.315 K0.000 F2500.000
G2 X310.579 Y606.674 Z-9.510 I1.098 J-327.745 K0.000 F2500.000
G2 X335.688 Y601.319 Z-9.510 I-38.441 J-241.795 K0.000 F2500.000
G2 X360.168 Y592.883 Z-9.510 I-44.756 J-169.621 K0.000 F2500.000
G2 X418.341 Y548.780 Z-9.510 I-58.780 J-137.949 K0.000 F2500.000
G1 X418.341 Y548.780 Z-12.680 F1000.000
G2 X436.533 Y519.901 Z-12.680 I-116.953 J-93.845 K0.000 F2500.000
G2 X446.724 Y491.345 Z-12.680 I-125.835 J-61.000 K0.000 F2500.000
G2 X450.985 Y452.215 Z-12.680 I-157.277 J-36.925 K0.000 F2500.000
G2 X448.125 Y425.075 Z-12.680 I-147.903 J1.867 K0.000 F2500.000
G2 X442.181 Y401.694 Z-12.680 I-261.267 J53.967 K0.000 F2500.000
G2 X435.269 Y380.376 Z-12.680 I-840.891 J260.884 K0.000 F2500.000
G3 X431.542 Y369.189 Z-12.680 I382.487 J-133.641 K0.000 F2500.000
G3 X429.721 Y362.408 Z-12.680 I55.242 J-18.472 K0.000 F2500.000
G3 X429.655 Y361.817 Z-12.680 I1.468 J-0.461 K0.000 F2500.000
G1 X431.661 Y357.665 Z-12.680 F2500.000
G1 X444.620 Y336.070 Z-12.680 F2500.000
G2 X459.781 Y310.732 Z-12.680 I-664.107 J-414.586 K0.000 F2500.000
G2 X471.503 Y288.575 Z-12.680 I-322.529 J-184.811 K0.000 F2500.000
G2 X485.828 Y253.703 Z-12.680 I-250.391 J-123.238 K0.000 F2500.000
G2 X493.632 Y221.501 Z-12.680 I-174.942 J-59.441 K0.000 F2500.000
G2 X495.737 Y196.644 Z-12.680 I-229.207 J-31.926 K0.000 F2500.000
G2 X494.451 Y166.506 Z-12.680 I-185.054 J-7.201 K0.000 F2500.000
G2 X484.568 Y124.434 Z-12.680 I-216.555 J28.674 K0.000 F2500.000
G2 X472.797 Y98.218 Z-12.680 I-175.544 J63.070 K0.000 F2500.000
G2 X454.293 Y70.524 Z-12.680 I-157.877 J85.455 K0.000 F2500.000
G2 X421.527 Y40.072 Z-12.680 I-123.062 J99.562 K0.000 F2500.000
G2 X390.303 Y22.706 Z-12.680 I-108.461 J158.255 K0.000 F2500.000
G2 X357.683 Y11.307 Z-12.680 I-93.842 J216.158 K0.000 F2500.000
G2 X322.489 Y3.986 Z-12.680 I-85.505 J322.819 K0.000 F2500.000
G2 X281.040 Y-0.342 Z-12.680 I-71.175 J480.936 K0.000 F2500.000
G2 X243.674 Y-1.569 Z-12.680 I-35.826 J521.423 K0.000 F2500.000
G2 X199.510 Y0.678 Z-12.680 I8.087 J593.862 K0.000 F2500.000
G2 X163.776 Y5.266 Z-12.680 I33.726 J404.161 K0.000 F2500.000
G2 X134.409 Y11.839 Z-12.680 I50.104 J292.748 K0.000 F2500.000
G2 X102.853 Y23.090 Z-12.680 I58.961 J215.251 K0.000 F2500.000
G2 X75.959 Y37.733 Z-12.680 I72.935 J165.980 K0.000 F2500.000
G2 X44.398 Y64.948 Z-12.680 I86.422 J132.128 K0.000 F2500.000
G2 X25.122 Y91.355 Z-12.680 I134.491 J118.412 K0.000 F2500.000
G2 X8.715 Y126.452 Z-12.680 I156.454 J94.520 K0.000 F2500.000
G2 X1.286 Y155.417 Z-12.680 I212.185 J69.863 K0.000 F2500.000
G2 X-1.846 Y184.728 Z-12.680 I178.511 J33.896 K0.000 F2500.000
G2 X-0.906 Y210.518 Z-12.680 I238.844 J4.203 K0.000 F2500.000
G2 X5.674 Y245.832 Z-12.680 I178.837 J-15.050 K0.000 F2500.000
G2 X16.460 Y275.509 Z-12.680 I258.151 J-77.030 K0.000 F2500.000
G2 X31.724 Y306.348 Z-12.680 I325.773 J-142.046 K0.000 F2500.000
G2 X49.358 Y336.070 Z-12.680 I640.348 J-359.831 K0.000 F2500.000
G1 X62.317 Y357.665 Z-12.680 F2500.000
G1 X64.323 Y361.817 Z-12.680 F2500.000
G1 X64.341 Y361.894 Z-12.680 F2500.000
G3 X63.883 Y364.157 Z-12.680 I-26.903 J-4.262 K0.000 F2500.000
G3 X61.456 Y372.252 Z-12.680 I-142.033 J-38.172 K0.000 F2500.000
G2 X54.920 Y391.833 Z-12.680 I1463.430 J499.431 K0.000 F2500.000
G2 X47.349 Y418.230 Z-12.680 I290.242 J97.525 K0.000 F2500.000
G2 X43.432 Y442.323 Z-12.680 I156.902 J37.873 K0.000 F2500.000
G2 X44.730 Y478.193 Z-12.680 I162.830 J12.065 K0.000 F2500.000
G2 X53.172 Y510.179 Z-12.680 I141.978 J-20.364 K0.000 F2500.000
G2 X124.237 Y588.405 Z-12.680 I139.494 J-55.332 K0.000 F2500.000
G2 X150.934 Y599.198 Z-12.680 I77.477 J-153.231 K0.000 F2500.000
G2 X178.505 Y605.842 Z-12.680 I70.225 J-230.883 K0.000 F2500.000
G2 X232.152 Y610.951 Z-12.680 I58.057 J-325.382 K0.000 F2500.000
G2 X256.624 Y610.962 Z-12.680 I13.102 J-1957.315 K0.000 F2500.000
G2 X310.579 Y606.674 Z-12.680 I1.098 J-327.745 K0.000 F2500.000
G2 X335.688 Y601.319 Z-12.680 I-38.441 J-241.795 K0.000 F2500.000
G2 X360.168 Y592.883 Z-12.680 I-44.756 J-169.621 K0.000 F2500.000
G2 X418.341 Y548.780 Z-12.680 I-58.780 J-137.949 K0.000 F2500.000
G1 X418.341 Y548.780 Z-15.850 F1000.000
G2 X436.533 Y519.901 Z-15.850 I-116.953 J-93.845 K0.000 F2500.000
G2 X446.724 Y491.345 Z-15.850 I-125.835 J-61.000 K0.000 F2500.000
G2 X450.985 Y452.215 Z-15.850 I-157.277 J-36.925 K0.000 F2500.000
G2 X448.125 Y425.075 Z-15.850 I-147.903 J1.867 K0.000 F2500.000
G2 X442.181 Y401.694 Z-15.850 I-261.267 J53.967 K0.000 F2500.000
G2 X435.269 Y380.376 Z-15.850 I-840.891 J260.884 K0.000 F2500.000
G3 X431.542 Y369.189 Z-15.850 I382.487 J-133.641 K0.000 F2500.000
G3 X429.721 Y362.408 Z-15.850 I55.242 J-18.472 K0.000 F2500.000
G3 X429.655 Y361.817 Z-15.850 I1.468 J-0.461 K0.000 F2500.000
G1 X431.661 Y357.665 Z-15.850 F2500.000
G1 X444.620 Y336.070 Z-15.850 F2500.000
G2 X459.781 Y310.732 Z-15.850 I-664.107 J-414.586 K0.000 F2500.000
G2 X471.503 Y288.575 Z-15.850 I-322.529 J-184.811 K0.000 F2500.000
G2 X485.828 Y253.703 Z-15.850 I-250.391 J-123.238 K0.000 F2500.000
G2 X493.632 Y221.501 Z-15.850 I-174.942 J-59.441 K0.000 F2500.000
G2 X495.737 Y196.644 Z-15.850 I-229.207 J-31.926 K0.000 F2500.000
G2 X494.451 Y166.506 Z-15.850 I-185.054 J-7.201 K0.000 F2500.000
G2 X484.568 Y124.434 Z-15.850 I-216.555 J28.674 K0.000 F2500.000
G2 X472.797 Y98.218 Z-15.850 I-175.544 J63.070 K0.000 F2500.000
G2 X454.293 Y70.524 Z-15.850 I-157.877 J85.455 K0.000 F2500.000
G2 X421.527 Y40.072 Z-15.850 I-123.062 J99.562 K0.000 F2500.000
G2 X390.303 Y22.706 Z-15.850 I-108.461 J158.255 K0.000 F2500.000
G2 X357.683 Y11.307 Z-15.850 I-93.842 J216.158 K0.000 F2500.000
G2 X322.489 Y3.986 Z-15.850 I-85.505 J322.819 K0.000 F2500.000
G2 X281.040 Y-0.342 Z-15.850 I-71.175 J480.936 K0.000 F2500.000
G2 X243.674 Y-1.569 Z-15.850 I-35.826 J521.423 K0.000 F2500.000
G2 X199.510 Y0.678 Z-15.850 I8.087 J593.862 K0.000 F2500.000
G2 X163.776 Y5.266 Z-15.850 I33.726 J404.161 K0.000 F2500.000
G2 X134.409 Y11.839 Z-15.850 I50.104 J292.748 K0.000 F2500.000
G2 X102.853 Y23.090 Z-15.850 I58.961 J215.251 K0.000 F2500.000
G2 X75.959 Y37.733 Z-15.850 I72.935 J165.980 K0.000 F2500.000
G2 X44.398 Y64.948 Z-15.850 I86.422 J132.128 K0.000 F2500.000
G2 X25.122 Y91.355 Z-15.850 I134.491 J118.412 K0.000 F2500.000
G2 X8.715 Y126.452 Z-15.850 I156.454 J94.520 K0.000 F2500.000
G2 X1.286 Y155.417 Z-15.850 I212.185 J69.863 K0.000 F2500.000
G2 X-1.846 Y184.728 Z-15.850 I178.511 J33.896 K0.000 F2500.000
G2 X-0.906 Y210.518 Z-15.850 I238.844 J4.203 K0.000 F2500.000
G2 X5.674 Y245.832 Z-15.850 I178.837 J-15.050 K0.000 F2500.000
G2 X16.460 Y275.509 Z-15.850 I258.151 J-77.030 K0.000 F2500.000
G2 X31.724 Y306.348 Z-15.850 I325.773 J-142.046 K0.000 F2500.000
G2 X49.358 Y336.070 Z-15.850 I640.348 J-359.831 K0.000 F2500.000
G1 X62.317 Y357.665 Z-15.850 F2500.000
G1 X64.323 Y361.817 Z-15.850 F2500.000
G1 X64.341 Y361.894 Z-15.850 F2500.000
G3 X63.883 Y364.157 Z-15.850 I-26.903 J-4.262 K0.000 F2500.000
G3 X61.456 Y372.252 Z-15.850 I-142.033 J-38.172 K0.000 F2500.000
G2 X54.920 Y391.833 Z-15.850 I1463.430 J499.431 K0.000 F2500.000
G2 X47.349 Y418.230 Z-15.850 I290.242 J97.525 K0.000 F2500.000
G2 X43.432 Y442.323 Z-15.850 I156.902 J37.873 K0.000 F2500.000
G2 X44.730 Y478.193 Z-15.850 I162.830 J12.065 K0.000 F2500.000
G2 X53.172 Y510.179 Z-15.850 I141.978 J-20.364 K0.000 F2500.000
G2 X124.237 Y588.405 Z-15.850 I139.494 J-55.332 K0.000 F2500.000
G2 X150.934 Y599.198 Z-15.850 I77.477 J-153.231 K0.000 F2500.000
G2 X178.505 Y605.842 Z-15.850 I70.225 J-230.883 K0.000 F2500.000
G2 X232.152 Y610.951 Z-15.850 I58.057 J-325.382 K0.000 F2500.000
G2 X256.624 Y610.962 Z-15.850 I13.102 J-1957.315 K0.000 F2500.000
G2 X310.579 Y606.674 Z-15.850 I1.098 J-327.745 K0.000 F2500.000
G2 X335.688 Y601.319 Z-15.850 I-38.441 J-241.795 K0.000 F2500.000
G2 X360.168 Y592.883 Z-15.850 I-44.756 J-169.621 K0.000 F2500.000
G2 X418.341 Y548.780 Z-15.850 I-58.780 J-137.949 K0.000 F2500.000
G1 X418.341 Y548.780 Z-18.000 F1000.000
G2 X436.533 Y519.901 Z-18.000 I-116.953 J-93.845 K0.000 F2500.000
G2 X446.724 Y491.345 Z-18.000 I-125.835 J-61.000 K0.000 F2500.000
G2 X450.985 Y452.215 Z-18.000 I-157.277 J-36.925 K0.000 F2500.000
G2 X448.125 Y425.075 Z-18.000 I-147.903 J1.867 K0.000 F2500.000
G2 X442.181 Y401.694 Z-18.000 I-261.267 J53.967 K0.000 F2500.000
G2 X435.269 Y380.376 Z-18.000 I-840.891 J260.884 K0.000 F2500.000
G3 X431.542 Y369.189 Z-18.000 I382.487 J-133.641 K0.000 F2500.000
G3 X429.721 Y362.408 Z-18.000 I55.242 J-18.472 K0.000 F2500.000
G3 X429.655 Y361.817 Z-18.000 I1.468 J-0.461 K0.000 F2500.000
G1 X431.661 Y357.665 Z-18.000 F2500.000
G1 X444.620 Y336.070 Z-18.000 F2500.000
G2 X459.781 Y310.732 Z-18.000 I-664.107 J-414.586 K0.000 F2500.000
G2 X471.503 Y288.575 Z-18.000 I-322.529 J-184.811 K0.000 F2500.000
G2 X485.828 Y253.703 Z-18.000 I-250.391 J-123.238 K0.000 F2500.000
G2 X493.632 Y221.501 Z-18.000 I-174.942 J-59.441 K0.000 F2500.000
G2 X495.737 Y196.644 Z-18.000 I-229.207 J-31.926 K0.000 F2500.000
G2 X494.451 Y166.506 Z-18.000 I-185.054 J-7.201 K0.000 F2500.000
G2 X484.568 Y124.434 Z-18.000 I-216.555 J28.674 K0.000 F2500.000
G2 X472.797 Y98.218 Z-18.000 I-175.544 J63.070 K0.000 F2500.000
G2 X454.293 Y70.524 Z-18.000 I-157.877 J85.455 K0.000 F2500.000
G2 X421.527 Y40.072 Z-18.000 I-123.062 J99.562 K0.000 F2500.000
G2 X390.303 Y22.706 Z-18.000 I-108.461 J158.255 K0.000 F2500.000
G2 X357.683 Y11.307 Z-18.000 I-93.842 J216.158 K0.000 F2500.000
G2 X322.489 Y3.986 Z-18.000 I-85.505 J322.819 K0.000 F2500.000
G2 X281.040 Y-0.342 Z-18.000 I-71.175 J480.936 K0.000 F2500.000
G2 X243.674 Y-1.569 Z-18.000 I-35.826 J521.423 K0.000 F2500.000
G2 X199.510 Y0.678 Z-18.000 I8.087 J593.862 K0.000 F2500.000
G2 X163.776 Y5.266 Z-18.000 I33.726 J404.161 K0.000 F2500.000
G2 X134.409 Y11.839 Z-18.000 I50.104 J292.748 K0.000 F2500.000
G2 X102.853 Y23.090 Z-18.000 I58.961 J215.251 K0.000 F2500.000
G2 X75.959 Y37.733 Z-18.000 I72.935 J165.980 K0.000 F2500.000
G2 X44.398 Y64.948 Z-18.000 I86.422 J132.128 K0.000 F2500.000
G2 X25.122 Y91.355 Z-18.000 I134.491 J118.412 K0.000 F2500.000
G2 X8.715 Y126.452 Z-18.000 I156.454 J94.520 K0.000 F2500.000
G2 X1.286 Y155.417 Z-18.000 I212.185 J69.863 K0.000 F2500.000
G2 X-1.846 Y184.728 Z-18.000 I178.511 J33.896 K0.000 F2500.000
G2 X-0.906 Y210.518 Z-18.000 I238.844 J4.203 K0.000 F2500.000
G2 X5.674 Y245.832 Z-18.000 I178.837 J-15.050 K0.000 F2500.000
G2 X16.460 Y275.509 Z-18.000 I258.151 J-77.030 K0.000 F2500.000
G2 X31.724 Y306.348 Z-18.000 I325.773 J-142.046 K0.000 F2500.000
G2 X49.358 Y336.070 Z-18.000 I640.348 J-359.831 K0.000 F2500.000
G1 X62.317 Y357.665 Z-18.000 F2500.000
G1 X64.323 Y361.817 Z-18.000 F2500.000
G1 X64.341 Y361.894 Z-18.000 F2500.000
G3 X63.883 Y364.157 Z-18.000 I-26.903 J-4.262 K0.000 F2500.000
G3 X61.456 Y372.252 Z-18.000 I-142.033 J-38.172 K0.000 F2500.000
G2 X54.920 Y391.833 Z-18.000 I1463.430 J499.431 K0.000 F2500.000
G2 X47.349 Y418.230 Z-18.000 I290.242 J97.525 K0.000 F2500.000
G2 X43.432 Y442.323 Z-18.000 I156.902 J37.873 K0.000 F2500.000
G2 X44.730 Y478.193 Z-18.000 I162.830 J12.065 K0.000 F2500.000
G2 X53.172 Y510.179 Z-18.000 I141.978 J-20.364 K0.000 F2500.000
G2 X124.237 Y588.405 Z-18.000 I139.494 J-55.332 K0.000 F2500.000
G2 X150.934 Y599.198 Z-18.000 I77.477 J-153.231 K0.000 F2500.000
G2 X178.505 Y605.842 Z-18.000 I70.225 J-230.883 K0.000 F2500.000
G2 X232.152 Y610.951 Z-18.000 I58.057 J-325.382 K0.000 F2500.000
G2 X256.624 Y610.962 Z-18.000 I13.102 J-1957.315 K0.000 F2500.000
G2 X310.579 Y606.674 Z-18.000 I1.098 J-327.745 K0.000 F2500.000
G2 X335.688 Y601.319 Z-18.000 I-38.441 J-241.795 K0.000 F2500.000
G2 X360.168 Y592.883 Z-18.000 I-44.756 J-169.621 K0.000 F2500.000
G2 X418.341 Y548.780 Z-18.000 I-58.780 J-137.949 K0.000 F2500.000
G0 X418.341 Y548.780 Z5.000
(Finish operation: DressupTag002)
(Begin operation: Helix001)
(Path: Helix001)
(Helix001)
(helix cut operation)
G0 Z5.000
G0 Z5.000
G0 X196.989 Y28.500 Z5.000
G0 X196.989 Y28.500 Z0.000
G0 X200.354 Y28.500
G1 Z0.000 F1000.000
G2 X193.624 Y28.500 Z-0.750 I-3.365 J0.000 F2500.000
G2 X200.354 Y28.500 Z-1.500 I3.365 J0.000 F2500.000
G2 X193.624 Y28.500 Z-2.250 I-3.365 J0.000 F2500.000
G2 X200.354 Y28.500 Z-3.000 I3.365 J0.000 F2500.000
G2 X193.624 Y28.500 Z-3.750 I-3.365 J0.000 F2500.000
G2 X200.354 Y28.500 Z-4.500 I3.365 J0.000 F2500.000
G2 X193.624 Y28.500 Z-5.250 I-3.365 J0.000 F2500.000
G2 X200.354 Y28.500 Z-6.000 I3.365 J0.000 F2500.000
G2 X193.624 Y28.500 Z-6.750 I-3.365 J0.000 F2500.000
G2 X200.354 Y28.500 Z-7.500 I3.365 J0.000 F2500.000
G2 X193.624 Y28.500 Z-8.250 I-3.365 J0.000 F2500.000
G2 X200.354 Y28.500 Z-9.000 I3.365 J0.000 F2500.000
G2 X193.624 Y28.500 Z-9.750 I-3.365 J0.000 F2500.000
G2 X200.354 Y28.500 Z-10.500 I3.365 J0.000 F2500.000
G2 X193.624 Y28.500 Z-11.250 I-3.365 J0.000 F2500.000
G2 X200.354 Y28.500 Z-12.000 I3.365 J0.000 F2500.000
G2 X193.624 Y28.500 Z-12.750 I-3.365 J0.000 F2500.000
G2 X200.354 Y28.500 Z-13.500 I3.365 J0.000 F2500.000
G2 X193.624 Y28.500 Z-14.250 I-3.365 J0.000 F2500.000
G2 X200.354 Y28.500 Z-15.000 I3.365 J0.000 F2500.000
G2 X193.624 Y28.500 Z-15.750 I-3.365 J0.000 F2500.000
G2 X200.354 Y28.500 Z-16.500 I3.365 J0.000 F2500.000
G2 X193.624 Y28.500 Z-17.250 I-3.365 J0.000 F2500.000
G2 X200.354 Y28.500 Z-18.000 I3.365 J0.000 F2500.000
G2 X193.624 Y28.500 Z-18.000 I-3.365 J0.000 F2500.000
G2 X200.354 Y28.500 Z-18.000 I3.365 J0.000 F2500.000
G0 Z0.000
G0 X199.464 Y28.500
G1 Z0.000 F1000.000
G2 X194.514 Y28.500 Z-0.750 I-2.475 J0.000 F2500.000
G2 X199.464 Y28.500 Z-1.500 I2.475 J0.000 F2500.000
G2 X194.514 Y28.500 Z-2.250 I-2.475 J0.000 F2500.000
G2 X199.464 Y28.500 Z-3.000 I2.475 J0.000 F2500.000
G2 X194.514 Y28.500 Z-3.750 I-2.475 J0.000 F2500.000
G2 X199.464 Y28.500 Z-4.500 I2.475 J0.000 F2500.000
G2 X194.514 Y28.500 Z-5.250 I-2.475 J0.000 F2500.000
G2 X199.464 Y28.500 Z-6.000 I2.475 J0.000 F2500.000
G2 X194.514 Y28.500 Z-6.750 I-2.475 J0.000 F2500.000
G2 X199.464 Y28.500 Z-7.500 I2.475 J0.000 F2500.000
G2 X194.514 Y28.500 Z-8.250 I-2.475 J0.000 F2500.000
G2 X199.464 Y28.500 Z-9.000 I2.475 J0.000 F2500.000
G2 X194.514 Y28.500 Z-9.750 I-2.475 J0.000 F2500.000
G2 X199.464 Y28.500 Z-10.500 I2.475 J0.000 F2500.000
G2 X194.514 Y28.500 Z-11.250 I-2.475 J0.000 F2500.000
G2 X199.464 Y28.500 Z-12.000 I2.475 J0.000 F2500.000
G2 X194.514 Y28.500 Z-12.750 I-2.475 J0.000 F2500.000
G2 X199.464 Y28.500 Z-13.500 I2.475 J0.000 F2500.000
G2 X194.514 Y28.500 Z-14.250 I-2.475 J0.000 F2500.000
G2 X199.464 Y28.500 Z-15.000 I2.475 J0.000 F2500.000
G2 X194.514 Y28.500 Z-15.750 I-2.475 J0.000 F2500.000
G2 X199.464 Y28.500 Z-16.500 I2.475 J0.000 F2500.000
G2 X194.514 Y28.500 Z-17.250 I-2.475 J0.000 F2500.000
G2 X199.464 Y28.500 Z-18.000 I2.475 J0.000 F2500.000
G2 X194.514 Y28.500 Z-18.000 I-2.475 J0.000 F2500.000
G2 X199.464 Y28.500 Z-18.000 I2.475 J0.000 F2500.000
G0 Z0.000
G0 X198.574 Y28.500
G1 Z0.000 F1000.000
G2 X195.404 Y28.500 Z-0.750 I-1.585 J0.000 F2500.000
G2 X198.574 Y28.500 Z-1.500 I1.585 J0.000 F2500.000
G2 X195.404 Y28.500 Z-2.250 I-1.585 J0.000 F2500.000
G2 X198.574 Y28.500 Z-3.000 I1.585 J0.000 F2500.000
G2 X195.404 Y28.500 Z-3.750 I-1.585 J0.000 F2500.000
G2 X198.574 Y28.500 Z-4.500 I1.585 J0.000 F2500.000
G2 X195.404 Y28.500 Z-5.250 I-1.585 J0.000 F2500.000
G2 X198.574 Y28.500 Z-6.000 I1.585 J0.000 F2500.000
G2 X195.404 Y28.500 Z-6.750 I-1.585 J0.000 F2500.000
G2 X198.574 Y28.500 Z-7.500 I1.585 J0.000 F2500.000
G2 X195.404 Y28.500 Z-8.250 I-1.585 J0.000 F2500.000
G2 X198.574 Y28.500 Z-9.000 I1.585 J0.000 F2500.000
G2 X195.404 Y28.500 Z-9.750 I-1.585 J0.000 F2500.000
G2 X198.574 Y28.500 Z-10.500 I1.585 J0.000 F2500.000
G2 X195.404 Y28.500 Z-11.250 I-1.585 J0.000 F2500.000
G2 X198.574 Y28.500 Z-12.000 I1.585 J0.000 F2500.000
G2 X195.404 Y28.500 Z-12.750 I-1.585 J0.000 F2500.000
G2 X198.574 Y28.500 Z-13.500 I1.585 J0.000 F2500.000
G2 X195.404 Y28.500 Z-14.250 I-1.585 J0.000 F2500.000
G2 X198.574 Y28.500 Z-15.000 I1.585 J0.000 F2500.000
G2 X195.404 Y28.500 Z-15.750 I-1.585 J0.000 F2500.000
G2 X198.574 Y28.500 Z-16.500 I1.585 J0.000 F2500.000
G2 X195.404 Y28.500 Z-17.250 I-1.585 J0.000 F2500.000
G2 X198.574 Y28.500 Z-18.000 I1.585 J0.000 F2500.000
G2 X195.404 Y28.500 Z-18.000 I-1.585 J0.000 F2500.000
G2 X198.574 Y28.500 Z-18.000 I1.585 J0.000 F2500.000
G0 Z0.000
G0 Z5.000
G0 X296.989 Y28.500 Z5.000
G0 X296.989 Y28.500 Z0.000
G0 X300.354 Y28.500
G1 Z0.000 F1000.000
G2 X293.624 Y28.500 Z-0.750 I-3.365 J0.000 F2500.000
G2 X300.354 Y28.500 Z-1.500 I3.365 J0.000 F2500.000
G2 X293.624 Y28.500 Z-2.250 I-3.365 J0.000 F2500.000
G2 X300.354 Y28.500 Z-3.000 I3.365 J0.000 F2500.000
G2 X293.624 Y28.500 Z-3.750 I-3.365 J0.000 F2500.000
G2 X300.354 Y28.500 Z-4.500 I3.365 J0.000 F2500.000
G2 X293.624 Y28.500 Z-5.250 I-3.365 J0.000 F2500.000
G2 X300.354 Y28.500 Z-6.000 I3.365 J0.000 F2500.000
G2 X293.624 Y28.500 Z-6.750 I-3.365 J0.000 F2500.000
G2 X300.354 Y28.500 Z-7.500 I3.365 J0.000 F2500.000
G2 X293.624 Y28.500 Z-8.250 I-3.365 J0.000 F2500.000
G2 X300.354 Y28.500 Z-9.000 I3.365 J0.000 F2500.000
G2 X293.624 Y28.500 Z-9.750 I-3.365 J0.000 F2500.000
G2 X300.354 Y28.500 Z-10.500 I3.365 J0.000 F2500.000
G2 X293.624 Y28.500 Z-11.250 I-3.365 J0.000 F2500.000
G2 X300.354 Y28.500 Z-12.000 I3.365 J0.000 F2500.000
G2 X293.624 Y28.500 Z-12.750 I-3.365 J0.000 F2500.000
G2 X300.354 Y28.500 Z-13.500 I3.365 J0.000 F2500.000
G2 X293.624 Y28.500 Z-14.250 I-3.365 J0.000 F2500.000
G2 X300.354 Y28.500 Z-15.000 I3.365 J0.000 F2500.000
G2 X293.624 Y28.500 Z-15.750 I-3.365 J0.000 F2500.000
G2 X300.354 Y28.500 Z-16.500 I3.365 J0.000 F2500.000
G2 X293.624 Y28.500 Z-17.250 I-3.365 J0.000 F2500.000
G2 X300.354 Y28.500 Z-18.000 I3.365 J0.000 F2500.000
G2 X293.624 Y28.500 Z-18.000 I-3.365 J0.000 F2500.000
G2 X300.354 Y28.500 Z-18.000 I3.365 J0.000 F2500.000
G0 Z0.000
G0 X299.464 Y28.500
G1 Z0.000 F1000.000
G2 X294.514 Y28.500 Z-0.750 I-2.475 J0.000 F2500.000
G2 X299.464 Y28.500 Z-1.500 I2.475 J0.000 F2500.000
G2 X294.514 Y28.500 Z-2.250 I-2.475 J0.000 F2500.000
G2 X299.464 Y28.500 Z-3.000 I2.475 J0.000 F2500.000
G2 X294.514 Y28.500 Z-3.750 I-2.475 J0.000 F2500.000
G2 X299.464 Y28.500 Z-4.500 I2.475 J0.000 F2500.000
G2 X294.514 Y28.500 Z-5.250 I-2.475 J0.000 F2500.000
G2 X299.464 Y28.500 Z-6.000 I2.475 J0.000 F2500.000
G2 X294.514 Y28.500 Z-6.750 I-2.475 J0.000 F2500.000
G2 X299.464 Y28.500 Z-7.500 I2.475 J0.000 F2500.000
G2 X294.514 Y28.500 Z-8.250 I-2.475 J0.000 F2500.000
G2 X299.464 Y28.500 Z-9.000 I2.475 J0.000 F2500.000
G2 X294.514 Y28.500 Z-9.750 I-2.475 J0.000 F2500.000
G2 X299.464 Y28.500 Z-10.500 I2.475 J0.000 F2500.000
G2 X294.514 Y28.500 Z-11.250 I-2.475 J0.000 F2500.000
G2 X299.464 Y28.500 Z-12.000 I2.475 J0.000 F2500.000
G2 X294.514 Y28.500 Z-12.750 I-2.475 J0.000 F2500.000
G2 X299.464 Y28.500 Z-13.500 I2.475 J0.000 F2500.000
G2 X294.514 Y28.500 Z-14.250 I-2.475 J0.000 F2500.000
G2 X299.464 Y28.500 Z-15.000 I2.475 J0.000 F2500.000
G2 X294.514 Y28.500 Z-15.750 I-2.475 J0.000 F2500.000
G2 X299.464 Y28.500 Z-16.500 I2.475 J0.000 F2500.000
G2 X294.514 Y28.500 Z-17.250 I-2.475 J0.000 F2500.000
G2 X299.464 Y28.500 Z-18.000 I2.475 J0.000 F2500.000
G2 X294.514 Y28.500 Z-18.000 I-2.475 J0.000 F2500.000
G2 X299.464 Y28.500 Z-18.000 I2.475 J0.000 F2500.000
G0 Z0.000
G0 X298.574 Y28.500
G1 Z0.000 F1000.000
G2 X295.404 Y28.500 Z-0.750 I-1.585 J0.000 F2500.000
G2 X298.574 Y28.500 Z-1.500 I1.585 J0.000 F2500.000
G2 X295.404 Y28.500 Z-2.250 I-1.585 J0.000 F2500.000
G2 X298.574 Y28.500 Z-3.000 I1.585 J0.000 F2500.000
G2 X295.404 Y28.500 Z-3.750 I-1.585 J0.000 F2500.000
G2 X298.574 Y28.500 Z-4.500 I1.585 J0.000 F2500.000
G2 X295.404 Y28.500 Z-5.250 I-1.585 J0.000 F2500.000
G2 X298.574 Y28.500 Z-6.000 I1.585 J0.000 F2500.000
G2 X295.404 Y28.500 Z-6.750 I-1.585 J0.000 F2500.000
G2 X298.574 Y28.500 Z-7.500 I1.585 J0.000 F2500.000
G2 X295.404 Y28.500 Z-8.250 I-1.585 J0.000 F2500.000
G2 X298.574 Y28.500 Z-9.000 I1.585 J0.000 F2500.000
G2 X295.404 Y28.500 Z-9.750 I-1.585 J0.000 F2500.000
G2 X298.574 Y28.500 Z-10.500 I1.585 J0.000 F2500.000
G2 X295.404 Y28.500 Z-11.250 I-1.585 J0.000 F2500.000
G2 X298.574 Y28.500 Z-12.000 I1.585 J0.000 F2500.000
G2 X295.404 Y28.500 Z-12.750 I-1.585 J0.000 F2500.000
G2 X298.574 Y28.500 Z-13.500 I1.585 J0.000 F2500.000
G2 X295.404 Y28.500 Z-14.250 I-1.585 J0.000 F2500.000
G2 X298.574 Y28.500 Z-15.000 I1.585 J0.000 F2500.000
G2 X295.404 Y28.500 Z-15.750 I-1.585 J0.000 F2500.000
G2 X298.574 Y28.500 Z-16.500 I1.585 J0.000 F2500.000
G2 X295.404 Y28.500 Z-17.250 I-1.585 J0.000 F2500.000
G2 X298.574 Y28.500 Z-18.000 I1.585 J0.000 F2500.000
G2 X295.404 Y28.500 Z-18.000 I-1.585 J0.000 F2500.000
G2 X298.574 Y28.500 Z-18.000 I1.585 J0.000 F2500.000
G0 Z0.000
G0 Z5.000
G0 X401.989 Y361.000 Z5.000
G0 X401.989 Y361.000 Z0.000
G0 X405.354 Y361.000
G1 Z0.000 F1000.000
G2 X398.624 Y361.000 Z-0.750 I-3.365 J0.000 F2500.000
G2 X405.354 Y361.000 Z-1.500 I3.365 J0.000 F2500.000
G2 X398.624 Y361.000 Z-2.250 I-3.365 J0.000 F2500.000
G2 X405.354 Y361.000 Z-3.000 I3.365 J0.000 F2500.000
G2 X398.624 Y361.000 Z-3.750 I-3.365 J0.000 F2500.000
G2 X405.354 Y361.000 Z-4.500 I3.365 J0.000 F2500.000
G2 X398.624 Y361.000 Z-5.250 I-3.365 J0.000 F2500.000
G2 X405.354 Y361.000 Z-6.000 I3.365 J0.000 F2500.000
G2 X398.624 Y361.000 Z-6.750 I-3.365 J0.000 F2500.000
G2 X405.354 Y361.000 Z-7.500 I3.365 J0.000 F2500.000
G2 X398.624 Y361.000 Z-8.250 I-3.365 J0.000 F2500.000
G2 X405.354 Y361.000 Z-9.000 I3.365 J0.000 F2500.000
G2 X398.624 Y361.000 Z-9.750 I-3.365 J0.000 F2500.000
G2 X405.354 Y361.000 Z-10.500 I3.365 J0.000 F2500.000
G2 X398.624 Y361.000 Z-11.250 I-3.365 J0.000 F2500.000
G2 X405.354 Y361.000 Z-12.000 I3.365 J0.000 F2500.000
G2 X398.624 Y361.000 Z-12.750 I-3.365 J0.000 F2500.000
G2 X405.354 Y361.000 Z-13.500 I3.365 J0.000 F2500.000
G2 X398.624 Y361.000 Z-14.250 I-3.365 J0.000 F2500.000
G2 X405.354 Y361.000 Z-15.000 I3.365 J0.000 F2500.000
G2 X398.624 Y361.000 Z-15.750 I-3.365 J0.000 F2500.000
G2 X405.354 Y361.000 Z-16.500 I3.365 J0.000 F2500.000
G2 X398.624 Y361.000 Z-17.250 I-3.365 J0.000 F2500.000
G2 X405.354 Y361.000 Z-18.000 I3.365 J0.000 F2500.000
G2 X398.624 Y361.000 Z-18.000 I-3.365 J0.000 F2500.000
G2 X405.354 Y361.000 Z-18.000 I3.365 J0.000 F2500.000
G0 Z0.000
G0 X404.464 Y361.000
G1 Z0.000 F1000.000
G2 X399.514 Y361.000 Z-0.750 I-2.475 J0.000 F2500.000
G2 X404.464 Y361.000 Z-1.500 I2.475 J0.000 F2500.000
G2 X399.514 Y361.000 Z-2.250 I-2.475 J0.000 F2500.000
G2 X404.464 Y361.000 Z-3.000 I2.475 J0.000 F2500.000
G2 X399.514 Y361.000 Z-3.750 I-2.475 J0.000 F2500.000
G2 X404.464 Y361.000 Z-4.500 I2.475 J0.000 F2500.000
G2 X399.514 Y361.000 Z-5.250 I-2.475 J0.000 F2500.000
G2 X404.464 Y361.000 Z-6.000 I2.475 J0.000 F2500.000
G2 X399.514 Y361.000 Z-6.750 I-2.475 J0.000 F2500.000
G2 X404.464 Y361.000 Z-7.500 I2.475 J0.000 F2500.000
G2 X399.514 Y361.000 Z-8.250 I-2.475 J0.000 F2500.000
G2 X404.464 Y361.000 Z-9.000 I2.475 J0.000 F2500.000
G2 X399.514 Y361.000 Z-9.750 I-2.475 J0.000 F2500.000
G2 X404.464 Y361.000 Z-10.500 I2.475 J0.000 F2500.000
G2 X399.514 Y361.000 Z-11.250 I-2.475 J0.000 F2500.000
G2 X404.464 Y361.000 Z-12.000 I2.475 J0.000 F2500.000
G2 X399.514 Y361.000 Z-12.750 I-2.475 J0.000 F2500.000
G2 X404.464 Y361.000 Z-13.500 I2.475 J0.000 F2500.000
G2 X399.514 Y361.000 Z-14.250 I-2.475 J0.000 F2500.000
G2 X404.464 Y361.000 Z-15.000 I2.475 J0.000 F2500.000
G2 X399.514 Y361.000 Z-15.750 I-2.475 J0.000 F2500.000
G2 X404.464 Y361.000 Z-16.500 I2.475 J0.000 F2500.000
G2 X399.514 Y361.000 Z-17.250 I-2.475 J0.000 F2500.000
G2 X404.464 Y361.000 Z-18.000 I2.475 J0.000 F2500.000
G2 X399.514 Y361.000 Z-18.000 I-2.475 J0.000 F2500.000
G2 X404.464 Y361.000 Z-18.000 I2.475 J0.000 F2500.000
G0 Z0.000
G0 X403.574 Y361.000
G1 Z0.000 F1000.000
G2 X400.404 Y361.000 Z-0.750 I-1.585 J0.000 F2500.000
G2 X403.574 Y361.000 Z-1.500 I1.585 J0.000 F2500.000
G2 X400.404 Y361.000 Z-2.250 I-1.585 J0.000 F2500.000
G2 X403.574 Y361.000 Z-3.000 I1.585 J0.000 F2500.000
G2 X400.404 Y361.000 Z-3.750 I-1.585 J0.000 F2500.000
G2 X403.574 Y361.000 Z-4.500 I1.585 J0.000 F2500.000
G2 X400.404 Y361.000 Z-5.250 I-1.585 J0.000 F2500.000
G2 X403.574 Y361.000 Z-6.000 I1.585 J0.000 F2500.000
G2 X400.404 Y361.000 Z-6.750 I-1.585 J0.000 F2500.000
G2 X403.574 Y361.000 Z-7.500 I1.585 J0.000 F2500.000
G2 X400.404 Y361.000 Z-8.250 I-1.585 J0.000 F2500.000
G2 X403.574 Y361.000 Z-9.000 I1.585 J0.000 F2500.000
G2 X400.404 Y361.000 Z-9.750 I-1.585 J0.000 F2500.000
G2 X403.574 Y361.000 Z-10.500 I1.585 J0.000 F2500.000
G2 X400.404 Y361.000 Z-11.250 I-1.585 J0.000 F2500.000
G2 X403.574 Y361.000 Z-12.000 I1.585 J0.000 F2500.000
G2 X400.404 Y361.000 Z-12.750 I-1.585 J0.000 F2500.000
G2 X403.574 Y361.000 Z-13.500 I1.585 J0.000 F2500.000
G2 X400.404 Y361.000 Z-14.250 I-1.585 J0.000 F2500.000
G2 X403.574 Y361.000 Z-15.000 I1.585 J0.000 F2500.000
G2 X400.404 Y361.000 Z-15.750 I-1.585 J0.000 F2500.000
G2 X403.574 Y361.000 Z-16.500 I1.585 J0.000 F2500.000
G2 X400.404 Y361.000 Z-17.250 I-1.585 J0.000 F2500.000
G2 X403.574 Y361.000 Z-18.000 I1.585 J0.000 F2500.000
G2 X400.404 Y361.000 Z-18.000 I-1.585 J0.000 F2500.000
G2 X403.574 Y361.000 Z-18.000 I1.585 J0.000 F2500.000
G0 Z0.000
G0 Z5.000
G0 X316.989 Y580.900 Z5.000
G0 X316.989 Y580.900 Z0.000
G0 X320.354 Y580.900
G1 Z0.000 F1000.000
G2 X313.624 Y580.900 Z-0.750 I-3.365 J0.000 F2500.000
G2 X320.354 Y580.900 Z-1.500 I3.365 J0.000 F2500.000
G2 X313.624 Y580.900 Z-2.250 I-3.365 J0.000 F2500.000
G2 X320.354 Y580.900 Z-3.000 I3.365 J0.000 F2500.000
G2 X313.624 Y580.900 Z-3.750 I-3.365 J0.000 F2500.000
G2 X320.354 Y580.900 Z-4.500 I3.365 J0.000 F2500.000
G2 X313.624 Y580.900 Z-5.250 I-3.365 J0.000 F2500.000
G2 X320.354 Y580.900 Z-6.000 I3.365 J0.000 F2500.000
G2 X313.624 Y580.900 Z-6.750 I-3.365 J0.000 F2500.000
G2 X320.354 Y580.900 Z-7.500 I3.365 J0.000 F2500.000
G2 X313.624 Y580.900 Z-8.250 I-3.365 J0.000 F2500.000
G2 X320.354 Y580.900 Z-9.000 I3.365 J0.000 F2500.000
G2 X313.624 Y580.900 Z-9.750 I-3.365 J0.000 F2500.000
G2 X320.354 Y580.900 Z-10.500 I3.365 J0.000 F2500.000
G2 X313.624 Y580.900 Z-11.250 I-3.365 J0.000 F2500.000
G2 X320.354 Y580.900 Z-12.000 I3.365 J0.000 F2500.000
G2 X313.624 Y580.900 Z-12.750 I-3.365 J0.000 F2500.000
G2 X320.354 Y580.900 Z-13.500 I3.365 J0.000 F2500.000
G2 X313.624 Y580.900 Z-14.250 I-3.365 J0.000 F2500.000
G2 X320.354 Y580.900 Z-15.000 I3.365 J0.000 F2500.000
G2 X313.624 Y580.900 Z-15.750 I-3.365 J0.000 F2500.000
G2 X320.354 Y580.900 Z-16.500 I3.365 J0.000 F2500.000
G2 X313.624 Y580.900 Z-17.250 I-3.365 J0.000 F2500.000
G2 X320.354 Y580.900 Z-18.000 I3.365 J0.000 F2500.000
G2 X313.624 Y580.900 Z-18.000 I-3.365 J0.000 F2500.000
G2 X320.354 Y580.900 Z-18.000 I3.365 J0.000 F2500.000
G0 Z0.000
G0 X319.464 Y580.900
G1 Z0.000 F1000.000
G2 X314.514 Y580.900 Z-0.750 I-2.475 J0.000 F2500.000
G2 X319.464 Y580.900 Z-1.500 I2.475 J0.000 F2500.000
G2 X314.514 Y580.900 Z-2.250 I-2.475 J0.000 F2500.000
G2 X319.464 Y580.900 Z-3.000 I2.475 J0.000 F2500.000
G2 X314.514 Y580.900 Z-3.750 I-2.475 J0.000 F2500.000
G2 X319.464 Y580.900 Z-4.500 I2.475 J0.000 F2500.000
G2 X314.514 Y580.900 Z-5.250 I-2.475 J0.000 F2500.000
G2 X319.464 Y580.900 Z-6.000 I2.475 J0.000 F2500.000
G2 X314.514 Y580.900 Z-6.750 I-2.475 J0.000 F2500.000
G2 X319.464 Y580.900 Z-7.500 I2.475 J0.000 F2500.000
G2 X314.514 Y580.900 Z-8.250 I-2.475 J0.000 F2500.000
G2 X319.464 Y580.900 Z-9.000 I2.475 J0.000 F2500.000
G2 X314.514 Y580.900 Z-9.750 I-2.475 J0.000 F2500.000
G2 X319.464 Y580.900 Z-10.500 I2.475 J0.000 F2500.000
G2 X314.514 Y580.900 Z-11.250 I-2.475 J0.000 F2500.000
G2 X319.464 Y580.900 Z-12.000 I2.475 J0.000 F2500.000
G2 X314.514 Y580.900 Z-12.750 I-2.475 J0.000 F2500.000
G2 X319.464 Y580.900 Z-13.500 I2.475 J0.000 F2500.000
G2 X314.514 Y580.900 Z-14.250 I-2.475 J0.000 F2500.000
G2 X319.464 Y580.900 Z-15.000 I2.475 J0.000 F2500.000
G2 X314.514 Y580.900 Z-15.750 I-2.475 J0.000 F2500.000
G2 X319.464 Y580.900 Z-16.500 I2.475 J0.000 F2500.000
G2 X314.514 Y580.900 Z-17.250 I-2.475 J0.000 F2500.000
G2 X319.464 Y580.900 Z-18.000 I2.475 J0.000 F2500.000
G2 X314.514 Y580.900 Z-18.000 I-2.475 J0.000 F2500.000
G2 X319.464 Y580.900 Z-18.000 I2.475 J0.000 F2500.000
G0 Z0.000
G0 X318.574 Y580.900
G1 Z0.000 F1000.000
G2 X315.404 Y580.900 Z-0.750 I-1.585 J0.000 F2500.000
G2 X318.574 Y580.900 Z-1.500 I1.585 J0.000 F2500.000
G2 X315.404 Y580.900 Z-2.250 I-1.585 J0.000 F2500.000
G2 X318.574 Y580.900 Z-3.000 I1.585 J0.000 F2500.000
G2 X315.404 Y580.900 Z-3.750 I-1.585 J0.000 F2500.000
G2 X318.574 Y580.900 Z-4.500 I1.585 J0.000 F2500.000
G2 X315.404 Y580.900 Z-5.250 I-1.585 J0.000 F2500.000
G2 X318.574 Y580.900 Z-6.000 I1.585 J0.000 F2500.000
G2 X315.404 Y580.900 Z-6.750 I-1.585 J0.000 F2500.000
G2 X318.574 Y580.900 Z-7.500 I1.585 J0.000 F2500.000
G2 X315.404 Y580.900 Z-8.250 I-1.585 J0.000 F2500.000
G2 X318.574 Y580.900 Z-9.000 I1.585 J0.000 F2500.000
G2 X315.404 Y580.900 Z-9.750 I-1.585 J0.000 F2500.000
G2 X318.574 Y580.900 Z-10.500 I1.585 J0.000 F2500.000
G2 X315.404 Y580.900 Z-11.250 I-1.585 J0.000 F2500.000
G2 X318.574 Y580.900 Z-12.000 I1.585 J0.000 F2500.000
G2 X315.404 Y580.900 Z-12.750 I-1.585 J0.000 F2500.000
G2 X318.574 Y580.900 Z-13.500 I1.585 J0.000 F2500.000
G2 X315.404 Y580.900 Z-14.250 I-1.585 J0.000 F2500.000
G2 X318.574 Y580.900 Z-15.000 I1.585 J0.000 F2500.000
G2 X315.404 Y580.900 Z-15.750 I-1.585 J0.000 F2500.000
G2 X318.574 Y580.900 Z-16.500 I1.585 J0.000 F2500.000
G2 X315.404 Y580.900 Z-17.250 I-1.585 J0.000 F2500.000
G2 X318.574 Y580.900 Z-18.000 I1.585 J0.000 F2500.000
G2 X315.404 Y580.900 Z-18.000 I-1.585 J0.000 F2500.000
G2 X318.574 Y580.900 Z-18.000 I1.585 J0.000 F2500.000
G0 Z0.000
G0 Z5.000
G0 X176.989 Y580.900 Z5.000
G0 X176.989 Y580.900 Z0.000
G0 X180.354 Y580.900
G1 Z0.000 F1000.000
G2 X173.624 Y580.900 Z-0.750 I-3.365 J0.000 F2500.000
G2 X180.354 Y580.900 Z-1.500 I3.365 J0.000 F2500.000
G2 X173.624 Y580.900 Z-2.250 I-3.365 J0.000 F2500.000
G2 X180.354 Y580.900 Z-3.000 I3.365 J0.000 F2500.000
G2 X173.624 Y580.900 Z-3.750 I-3.365 J0.000 F2500.000
G2 X180.354 Y580.900 Z-4.500 I3.365 J0.000 F2500.000
G2 X173.624 Y580.900 Z-5.250 I-3.365 J0.000 F2500.000
G2 X180.354 Y580.900 Z-6.000 I3.365 J0.000 F2500.000
G2 X173.624 Y580.900 Z-6.750 I-3.365 J0.000 F2500.000
G2 X180.354 Y580.900 Z-7.500 I3.365 J0.000 F2500.000
G2 X173.624 Y580.900 Z-8.250 I-3.365 J0.000 F2500.000
G2 X180.354 Y580.900 Z-9.000 I3.365 J0.000 F2500.000
G2 X173.624 Y580.900 Z-9.750 I-3.365 J0.000 F2500.000
G2 X180.354 Y580.900 Z-10.500 I3.365 J0.000 F2500.000
G2 X173.624 Y580.900 Z-11.250 I-3.365 J0.000 F2500.000
G2 X180.354 Y580.900 Z-12.000 I3.365 J0.000 F2500.000
G2 X173.624 Y580.900 Z-12.750 I-3.365 J0.000 F2500.000
G2 X180.354 Y580.900 Z-13.500 I3.365 J0.000 F2500.000
G2 X173.624 Y580.900 Z-14.250 I-3.365 J0.000 F2500.000
G2 X180.354 Y580.900 Z-15.000 I3.365 J0.000 F2500.000
G2 X173.624 Y580.900 Z-15.750 I-3.365 J0.000 F2500.000
G2 X180.354 Y580.900 Z-16.500 I3.365 J0.000 F2500.000
G2 X173.624 Y580.900 Z-17.250 I-3.365 J0.000 F2500.000
G2 X180.354 Y580.900 Z-18.000 I3.365 J0.000 F2500.000
G2 X173.624 Y580.900 Z-18.000 I-3.365 J0.000 F2500.000
G2 X180.354 Y580.900 Z-18.000 I3.365 J0.000 F2500.000
G0 Z0.000
G0 X179.464 Y580.900
G1 Z0.000 F1000.000
G2 X174.514 Y580.900 Z-0.750 I-2.475 J0.000 F2500.000
G2 X179.464 Y580.900 Z-1.500 I2.475 J0.000 F2500.000
G2 X174.514 Y580.900 Z-2.250 I-2.475 J0.000 F2500.000
G2 X179.464 Y580.900 Z-3.000 I2.475 J0.000 F2500.000
G2 X174.514 Y580.900 Z-3.750 I-2.475 J0.000 F2500.000
G2 X179.464 Y580.900 Z-4.500 I2.475 J0.000 F2500.000
G2 X174.514 Y580.900 Z-5.250 I-2.475 J0.000 F2500.000
G2 X179.464 Y580.900 Z-6.000 I2.475 J0.000 F2500.000
G2 X174.514 Y580.900 Z-6.750 I-2.475 J0.000 F2500.000
G2 X179.464 Y580.900 Z-7.500 I2.475 J0.000 F2500.000
G2 X174.514 Y580.900 Z-8.250 I-2.475 J0.000 F2500.000
G2 X179.464 Y580.900 Z-9.000 I2.475 J0.000 F2500.000
G2 X174.514 Y580.900 Z-9.750 I-2.475 J0.000 F2500.000
G2 X179.464 Y580.900 Z-10.500 I2.475 J0.000 F2500.000
G2 X174.514 Y580.900 Z-11.250 I-2.475 J0.000 F2500.000
G2 X179.464 Y580.900 Z-12.000 I2.475 J0.000 F2500.000
G2 X174.514 Y580.900 Z-12.750 I-2.475 J0.000 F2500.000
G2 X179.464 Y580.900 Z-13.500 I2.475 J0.000 F2500.000
G2 X174.514 Y580.900 Z-14.250 I-2.475 J0.000 F2500.000
G2 X179.464 Y580.900 Z-15.000 I2.475 J0.000 F2500.000
G2 X174.514 Y580.900 Z-15.750 I-2.475 J0.000 F2500.000
G2 X179.464 Y580.900 Z-16.500 I2.475 J0.000 F2500.000
G2 X174.514 Y580.900 Z-17.250 I-2.475 J0.000 F2500.000
G2 X179.464 Y580.900 Z-18.000 I2.475 J0.000 F2500.000
G2 X174.514 Y580.900 Z-18.000 I-2.475 J0.000 F2500.000
G2 X179.464 Y580.900 Z-18.000 I2.475 J0.000 F2500.000
G0 Z0.000
G0 X178.574 Y580.900
G1 Z0.000 F1000.000
G2 X175.404 Y580.900 Z-0.750 I-1.585 J0.000 F2500.000
G2 X178.574 Y580.900 Z-1.500 I1.585 J0.000 F2500.000
G2 X175.404 Y580.900 Z-2.250 I-1.585 J0.000 F2500.000
G2 X178.574 Y580.900 Z-3.000 I1.585 J0.000 F2500.000
G2 X175.404 Y580.900 Z-3.750 I-1.585 J0.000 F2500.000
G2 X178.574 Y580.900 Z-4.500 I1.585 J0.000 F2500.000
G2 X175.404 Y580.900 Z-5.250 I-1.585 J0.000 F2500.000
G2 X178.574 Y580.900 Z-6.000 I1.585 J0.000 F2500.000
G2 X175.404 Y580.900 Z-6.750 I-1.585 J0.000 F2500.000
G2 X178.574 Y580.900 Z-7.500 I1.585 J0.000 F2500.000
G2 X175.404 Y580.900 Z-8.250 I-1.585 J0.000 F2500.000
G2 X178.574 Y580.900 Z-9.000 I1.585 J0.000 F2500.000
G2 X175.404 Y580.900 Z-9.750 I-1.585 J0.000 F2500.000
G2 X178.574 Y580.900 Z-10.500 I1.585 J0.000 F2500.000
G2 X175.404 Y580.900 Z-11.250 I-1.585 J0.000 F2500.000
G2 X178.574 Y580.900 Z-12.000 I1.585 J0.000 F2500.000
G2 X175.404 Y580.900 Z-12.750 I-1.585 J0.000 F2500.000
G2 X178.574 Y580.900 Z-13.500 I1.585 J0.000 F2500.000
G2 X175.404 Y580.900 Z-14.250 I-1.585 J0.000 F2500.000
G2 X178.574 Y580.900 Z-15.000 I1.585 J0.000 F2500.000
G2 X175.404 Y580.900 Z-15.750 I-1.585 J0.000 F2500.000
G2 X178.574 Y580.900 Z-16.500 I1.585 J0.000 F2500.000
G2 X175.404 Y580.900 Z-17.250 I-1.585 J0.000 F2500.000
G2 X178.574 Y580.900 Z-18.000 I1.585 J0.000 F2500.000
G2 X175.404 Y580.900 Z-18.000 I-1.585 J0.000 F2500.000
G2 X178.574 Y580.900 Z-18.000 I1.585 J0.000 F2500.000
G0 Z0.000
G0 Z5.000
G0 X91.989 Y361.000 Z5.000
G0 X91.989 Y361.000 Z0.000
G0 X95.354 Y361.000
G1 Z0.000 F1000.000
G2 X88.624 Y361.000 Z-0.750 I-3.365 J0.000 F2500.000
G2 X95.354 Y361.000 Z-1.500 I3.365 J0.000 F2500.000
G2 X88.624 Y361.000 Z-2.250 I-3.365 J0.000 F2500.000
G2 X95.354 Y361.000 Z-3.000 I3.365 J0.000 F2500.000
G2 X88.624 Y361.000 Z-3.750 I-3.365 J0.000 F2500.000
G2 X95.354 Y361.000 Z-4.500 I3.365 J0.000 F2500.000
G2 X88.624 Y361.000 Z-5.250 I-3.365 J0.000 F2500.000
G2 X95.354 Y361.000 Z-6.000 I3.365 J0.000 F2500.000
G2 X88.624 Y361.000 Z-6.750 I-3.365 J0.000 F2500.000
G2 X95.354 Y361.000 Z-7.500 I3.365 J0.000 F2500.000
G2 X88.624 Y361.000 Z-8.250 I-3.365 J0.000 F2500.000
G2 X95.354 Y361.000 Z-9.000 I3.365 J0.000 F2500.000
G2 X88.624 Y361.000 Z-9.750 I-3.365 J0.000 F2500.000
G2 X95.354 Y361.000 Z-10.500 I3.365 J0.000 F2500.000
G2 X88.624 Y361.000 Z-11.250 I-3.365 J0.000 F2500.000
G2 X95.354 Y361.000 Z-12.000 I3.365 J0.000 F2500.000
G2 X88.624 Y361.000 Z-12.750 I-3.365 J0.000 F2500.000
G2 X95.354 Y361.000 Z-13.500 I3.365 J0.000 F2500.000
G2 X88.624 Y361.000 Z-14.250 I-3.365 J0.000 F2500.000
G2 X95.354 Y361.000 Z-15.000 I3.365 J0.000 F2500.000
G2 X88.624 Y361.000 Z-15.750 I-3.365 J0.000 F2500.000
G2 X95.354 Y361.000 Z-16.500 I3.365 J0.000 F2500.000
G2 X88.624 Y361.000 Z-17.250 I-3.365 J0.000 F2500.000
G2 X95.354 Y361.000 Z-18.000 I3.365 J0.000 F2500.000
G2 X88.624 Y361.000 Z-18.000 I-3.365 J0.000 F2500.000
G2 X95.354 Y361.000 Z-18.000 I3.365 J0.000 F2500.000
G0 Z0.000
G0 X94.464 Y361.000
G1 Z0.000 F1000.000
G2 X89.514 Y361.000 Z-0.750 I-2.475 J0.000 F2500.000
G2 X94.464 Y361.000 Z-1.500 I2.475 J0.000 F2500.000
G2 X89.514 Y361.000 Z-2.250 I-2.475 J0.000 F2500.000
G2 X94.464 Y361.000 Z-3.000 I2.475 J0.000 F2500.000
G2 X89.514 Y361.000 Z-3.750 I-2.475 J0.000 F2500.000
G2 X94.464 Y361.000 Z-4.500 I2.475 J0.000 F2500.000
G2 X89.514 Y361.000 Z-5.250 I-2.475 J0.000 F2500.000
G2 X94.464 Y361.000 Z-6.000 I2.475 J0.000 F2500.000
G2 X89.514 Y361.000 Z-6.750 I-2.475 J0.000 F2500.000
G2 X94.464 Y361.000 Z-7.500 I2.475 J0.000 F2500.000
G2 X89.514 Y361.000 Z-8.250 I-2.475 J0.000 F2500.000
G2 X94.464 Y361.000 Z-9.000 I2.475 J0.000 F2500.000
G2 X89.514 Y361.000 Z-9.750 I-2.475 J0.000 F2500.000
G2 X94.464 Y361.000 Z-10.500 I2.475 J0.000 F2500.000
G2 X89.514 Y361.000 Z-11.250 I-2.475 J0.000 F2500.000
G2 X94.464 Y361.000 Z-12.000 I2.475 J0.000 F2500.000
G2 X89.514 Y361.000 Z-12.750 I-2.475 J0.000 F2500.000
G2 X94.464 Y361.000 Z-13.500 I2.475 J0.000 F2500.000
G2 X89.514 Y361.000 Z-14.250 I-2.475 J0.000 F2500.000
G2 X94.464 Y361.000 Z-15.000 I2.475 J0.000 F2500.000
G2 X89.514 Y361.000 Z-15.750 I-2.475 J0.000 F2500.000
G2 X94.464 Y361.000 Z-16.500 I2.475 J0.000 F2500.000
G2 X89.514 Y361.000 Z-17.250 I-2.475 J0.000 F2500.000
G2 X94.464 Y361.000 Z-18.000 I2.475 J0.000 F2500.000
G2 X89.514 Y361.000 Z-18.000 I-2.475 J0.000 F2500.000
G2 X94.464 Y361.000 Z-18.000 I2.475 J0.000 F2500.000
G0 Z0.000
G0 X93.574 Y361.000
G1 Z0.000 F1000.000
G2 X90.404 Y361.000 Z-0.750 I-1.585 J0.000 F2500.000
G2 X93.574 Y361.000 Z-1.500 I1.585 J0.000 F2500.000
G2 X90.404 Y361.000 Z-2.250 I-1.585 J0.000 F2500.000
G2 X93.574 Y361.000 Z-3.000 I1.585 J0.000 F2500.000
G2 X90.404 Y361.000 Z-3.750 I-1.585 J0.000 F2500.000
G2 X93.574 Y361.000 Z-4.500 I1.585 J0.000 F2500.000
G2 X90.404 Y361.000 Z-5.250 I-1.585 J0.000 F2500.000
G2 X93.574 Y361.000 Z-6.000 I1.585 J0.000 F2500.000
G2 X90.404 Y361.000 Z-6.750 I-1.585 J0.000 F2500.000
G2 X93.574 Y361.000 Z-7.500 I1.585 J0.000 F2500.000
G2 X90.404 Y361.000 Z-8.250 I-1.585 J0.000 F2500.000
G2 X93.574 Y361.000 Z-9.000 I1.585 J0.000 F2500.000
G2 X90.404 Y361.000 Z-9.750 I-1.585 J0.000 F2500.000
G2 X93.574 Y361.000 Z-10.500 I1.585 J0.000 F2500.000
G2 X90.404 Y361.000 Z-11.250 I-1.585 J0.000 F2500.000
G2 X93.574 Y361.000 Z-12.000 I1.585 J0.000 F2500.000
G2 X90.404 Y361.000 Z-12.750 I-1.585 J0.000 F2500.000
G2 X93.574 Y361.000 Z-13.500 I1.585 J0.000 F2500.000
G2 X90.404 Y361.000 Z-14.250 I-1.585 J0.000 F2500.000
G2 X93.574 Y361.000 Z-15.000 I1.585 J0.000 F2500.000
G2 X90.404 Y361.000 Z-15.750 I-1.585 J0.000 F2500.000
G2 X93.574 Y361.000 Z-16.500 I1.585 J0.000 F2500.000
G2 X90.404 Y361.000 Z-17.250 I-1.585 J0.000 F2500.000
G2 X93.574 Y361.000 Z-18.000 I1.585 J0.000 F2500.000
G2 X90.404 Y361.000 Z-18.000 I-1.585 J0.000 F2500.000
G2 X93.574 Y361.000 Z-18.000 I1.585 J0.000 F2500.000
G0 Z0.000
G0 Z5.000
(Finish operation: Helix001)
(Begin postamble)
M5
G17 G90
M2
