(Exported by FreeCAD)
(Post Processor: grbl_post)
(Output Time:2023-05-21 20:34:42.868491)
(Begin preamble)
G17 G90
G21
(Begin operation: Fixture)
(Path: Fixture)
G54
(Finish operation: Fixture)
(Begin operation: 3.175 Z2 droite003)
(Path: 3.175 Z2 droite003)
(3.175 Z2 droite003)
(Begin toolchange)
( M6 T2 )
M3 S24000
(Finish operation: 3.175 Z2 droite003)
(Begin operation: DressupTag)
(Path: DressupTag)
G0 Z5.000
G0 X400.951 Y531.445 Z5.000
G0 X400.951 Y531.445 Z3.000
G1 X400.951 Y531.445 Z-3.170 F1000.000
G2 X410.459 Y517.611 Z-3.170 I-103.174 J-81.094 K0.000 F2500.000
G2 X425.441 Y483.820 Z-3.170 I-136.210 J-80.608 K0.000 F2500.000
G2 X431.038 Y455.340 Z-3.170 I-125.496 J-39.451 K0.000 F2500.000
G2 X429.841 Y423.964 Z-3.170 I-130.571 J-10.733 K0.000 F2500.000
G2 X424.018 Y398.469 Z-3.170 I-222.406 J37.390 K0.000 F2500.000
G2 X417.157 Y377.643 Z-3.170 I-323.883 J95.147 K0.000 F2500.000
G3 X413.021 Y365.636 Z-3.170 I305.982 J-112.122 K0.000 F2500.000
G3 X409.682 Y352.323 Z-3.170 I87.088 J-28.920 K0.000 F2500.000
G3 X409.380 Y349.088 Z-3.170 I18.777 J-3.383 K0.000 F2500.000
G3 X410.831 Y345.917 Z-3.170 I34.125 J13.699 K0.000 F2500.000
G3 X415.607 Y337.541 Z-3.170 I168.620 J90.602 K0.000 F2500.000
G2 X429.756 Y314.449 Z-3.170 I-2158.342 J-1338.337 K0.000 F2500.000
G2 X446.933 Y284.240 Z-3.170 I-453.478 J-277.827 K0.000 F2500.000
G2 X458.521 Y260.158 Z-3.170 I-298.599 J-158.513 K0.000 F2500.000
G2 X468.304 Y233.219 Z-3.170 I-202.186 J-88.671 K0.000 F2500.000
G2 X475.476 Y192.667 Z-3.170 I-176.587 J-52.141 K0.000 F2500.000
G2 X464.910 Y116.976 Z-3.170 I-194.571 J-11.423 K0.000 F2500.000
G2 X452.880 Y90.070 Z-3.170 I-156.671 J53.911 K0.000 F2500.000
G2 X415.681 Y45.568 Z-3.170 I-135.161 J75.181 K0.000 F2500.000
G2 X383.449 Y24.875 Z-3.170 I-109.837 J135.634 K0.000 F2500.000
G2 X347.440 Y11.091 Z-3.170 I-93.255 J189.698 K0.000 F2500.000
G2 X312.013 Y3.655 Z-3.170 I-78.002 J283.493 K0.000 F2500.000
G2 X277.547 Y0.004 Z-3.170 I-68.410 J481.310 K0.000 F2500.000
G2 X237.055 Y-1.585 Z-3.170 I-49.878 J754.130 K0.000 F2500.000
G2 X196.025 Y0.060 Z-3.170 I9.459 J748.200 K0.000 F2500.000
G2 X162.101 Y3.663 Z-3.170 I27.556 J420.929 K0.000 F2500.000
G2 X130.555 Y10.033 Z-3.170 I39.374 J276.322 K0.000 F2500.000
G2 X97.706 Y21.536 Z-3.170 I52.390 J202.256 K0.000 F2500.000
G2 X69.429 Y37.306 Z-3.170 I71.573 J161.574 K0.000 F2500.000
G2 X25.038 Y83.488 Z-3.170 I87.133 J128.181 K0.000 F2500.000
G2 X9.395 Y116.194 Z-3.170 I145.878 J89.864 K0.000 F2500.000
G2 X-1.735 Y179.308 Z-3.170 I184.316 J65.043 K0.000 F2500.000
G2 X2.933 Y222.487 Z-3.170 I181.626 J2.208 K0.000 F2500.000
G2 X12.404 Y252.629 Z-3.170 I210.831 J-49.691 K0.000 F2500.000
G2 X25.724 Y281.592 Z-3.170 I306.606 J-123.458 K0.000 F2500.000
G2 X44.974 Y315.625 Z-3.170 I546.715 J-286.774 K0.000 F2500.000
G3 X59.452 Y339.228 Z-3.170 I-5927.353 J3652.004 K0.000 F2500.000
G3 X63.641 Y346.753 Z-3.170 I-91.254 J55.723 K0.000 F2500.000
G3 X64.684 Y349.089 Z-3.170 I-20.513 J10.568 K0.000 F2500.000
G3 X64.486 Y351.600 Z-3.170 I-21.255 J-0.415 K0.000 F2500.000
G3 X62.718 Y359.952 Z-3.170 I-77.356 J-12.015 K0.000 F2500.000
G3 X58.354 Y373.612 Z-3.170 I-216.977 J-61.790 K0.000 F2500.000
G2 X52.542 Y390.324 Z-3.170 I397.201 J147.486 K0.000 F2500.000
G2 X46.955 Y410.286 Z-3.170 I228.797 J74.807 K0.000 F2500.000
G2 X43.772 Y427.008 Z-3.170 I175.197 J42.010 K0.000 F2500.000
G2 X45.996 Y474.235 Z-3.170 I128.528 J17.613 K0.000 F2500.000
G2 X60.363 Y511.868 Z-3.170 I153.102 J-36.892 K0.000 F2500.000
G2 X92.990 Y551.719 Z-3.170 I114.785 J-60.693 K0.000 F2500.000
G2 X123.812 Y570.819 Z-3.170 I92.023 J-114.083 K0.000 F2500.000
G2 X154.418 Y581.660 Z-3.170 I78.549 J-173.134 K0.000 F2500.000
G2 X192.403 Y588.398 Z-3.170 I64.528 J-253.326 K0.000 F2500.000
G2 X237.028 Y590.234 Z-3.170 I38.333 J-388.600 K0.000 F2500.000
G2 X272.172 Y589.221 Z-3.170 I6.088 J-398.900 K0.000 F2500.000
G2 X308.074 Y584.335 Z-3.170 I-18.664 J-271.494 K0.000 F2500.000
G2 X337.318 Y576.127 Z-3.170 I-39.294 J-196.212 K0.000 F2500.000
G2 X367.876 Y561.205 Z-3.170 I-52.521 J-146.299 K0.000 F2500.000
G2 X395.859 Y537.535 Z-3.170 I-69.516 J-110.561 K0.000 F2500.000
G2 X400.951 Y531.445 Z-3.170 I-98.082 J-87.184 K0.000 F2500.000
G1 X400.951 Y531.445 Z-6.340 F1000.000
G2 X410.459 Y517.611 Z-6.340 I-103.174 J-81.094 K0.000 F2500.000
G2 X425.441 Y483.820 Z-6.340 I-136.210 J-80.608 K0.000 F2500.000
G2 X431.038 Y455.340 Z-6.340 I-125.496 J-39.451 K0.000 F2500.000
G2 X429.841 Y423.964 Z-6.340 I-130.571 J-10.733 K0.000 F2500.000
G2 X424.018 Y398.469 Z-6.340 I-222.406 J37.390 K0.000 F2500.000
G2 X417.157 Y377.643 Z-6.340 I-323.883 J95.147 K0.000 F2500.000
G3 X413.021 Y365.636 Z-6.340 I305.982 J-112.122 K0.000 F2500.000
G3 X409.682 Y352.323 Z-6.340 I87.088 J-28.920 K0.000 F2500.000
G3 X409.380 Y349.088 Z-6.340 I18.777 J-3.383 K0.000 F2500.000
G3 X410.831 Y345.917 Z-6.340 I34.125 J13.699 K0.000 F2500.000
G3 X415.607 Y337.541 Z-6.340 I168.620 J90.602 K0.000 F2500.000
G2 X429.756 Y314.449 Z-6.340 I-2158.342 J-1338.337 K0.000 F2500.000
G2 X446.933 Y284.240 Z-6.340 I-453.478 J-277.827 K0.000 F2500.000
G2 X458.521 Y260.158 Z-6.340 I-298.599 J-158.513 K0.000 F2500.000
G2 X468.304 Y233.219 Z-6.340 I-202.186 J-88.671 K0.000 F2500.000
G2 X475.476 Y192.667 Z-6.340 I-176.587 J-52.141 K0.000 F2500.000
G2 X464.910 Y116.976 Z-6.340 I-194.571 J-11.423 K0.000 F2500.000
G2 X452.880 Y90.070 Z-6.340 I-156.671 J53.911 K0.000 F2500.000
G2 X415.681 Y45.568 Z-6.340 I-135.161 J75.181 K0.000 F2500.000
G2 X383.449 Y24.875 Z-6.340 I-109.837 J135.634 K0.000 F2500.000
G2 X347.440 Y11.091 Z-6.340 I-93.255 J189.698 K0.000 F2500.000
G2 X312.013 Y3.655 Z-6.340 I-78.002 J283.493 K0.000 F2500.000
G2 X277.547 Y0.004 Z-6.340 I-68.410 J481.310 K0.000 F2500.000
G2 X237.055 Y-1.585 Z-6.340 I-49.878 J754.130 K0.000 F2500.000
G2 X196.025 Y0.060 Z-6.340 I9.459 J748.200 K0.000 F2500.000
G2 X162.101 Y3.663 Z-6.340 I27.556 J420.929 K0.000 F2500.000
G2 X130.555 Y10.033 Z-6.340 I39.374 J276.322 K0.000 F2500.000
G2 X97.706 Y21.536 Z-6.340 I52.390 J202.256 K0.000 F2500.000
G2 X69.429 Y37.306 Z-6.340 I71.573 J161.574 K0.000 F2500.000
G2 X25.038 Y83.488 Z-6.340 I87.133 J128.181 K0.000 F2500.000
G2 X9.395 Y116.194 Z-6.340 I145.878 J89.864 K0.000 F2500.000
G2 X-1.735 Y179.308 Z-6.340 I184.316 J65.043 K0.000 F2500.000
G2 X2.933 Y222.487 Z-6.340 I181.626 J2.208 K0.000 F2500.000
G2 X12.404 Y252.629 Z-6.340 I210.831 J-49.691 K0.000 F2500.000
G2 X25.724 Y281.592 Z-6.340 I306.606 J-123.458 K0.000 F2500.000
G2 X44.974 Y315.625 Z-6.340 I546.715 J-286.774 K0.000 F2500.000
G3 X59.452 Y339.228 Z-6.340 I-5927.353 J3652.004 K0.000 F2500.000
G3 X63.641 Y346.753 Z-6.340 I-91.254 J55.723 K0.000 F2500.000
G3 X64.684 Y349.089 Z-6.340 I-20.513 J10.568 K0.000 F2500.000
G3 X64.486 Y351.600 Z-6.340 I-21.255 J-0.415 K0.000 F2500.000
G3 X62.718 Y359.952 Z-6.340 I-77.356 J-12.015 K0.000 F2500.000
G3 X58.354 Y373.612 Z-6.340 I-216.977 J-61.790 K0.000 F2500.000
G2 X52.542 Y390.324 Z-6.340 I397.201 J147.486 K0.000 F2500.000
G2 X46.955 Y410.286 Z-6.340 I228.797 J74.807 K0.000 F2500.000
G2 X43.772 Y427.008 Z-6.340 I175.197 J42.010 K0.000 F2500.000
G2 X45.996 Y474.235 Z-6.340 I128.528 J17.613 K0.000 F2500.000
G2 X60.363 Y511.868 Z-6.340 I153.102 J-36.892 K0.000 F2500.000
G2 X92.990 Y551.719 Z-6.340 I114.785 J-60.693 K0.000 F2500.000
G2 X123.812 Y570.819 Z-6.340 I92.023 J-114.083 K0.000 F2500.000
G2 X154.418 Y581.660 Z-6.340 I78.549 J-173.134 K0.000 F2500.000
G2 X192.403 Y588.398 Z-6.340 I64.528 J-253.326 K0.000 F2500.000
G2 X237.028 Y590.234 Z-6.340 I38.333 J-388.600 K0.000 F2500.000
G2 X272.172 Y589.221 Z-6.340 I6.088 J-398.900 K0.000 F2500.000
G2 X308.074 Y584.335 Z-6.340 I-18.664 J-271.494 K0.000 F2500.000
G2 X337.318 Y576.127 Z-6.340 I-39.294 J-196.212 K0.000 F2500.000
G2 X367.876 Y561.205 Z-6.340 I-52.521 J-146.299 K0.000 F2500.000
G2 X395.859 Y537.535 Z-6.340 I-69.516 J-110.561 K0.000 F2500.000
G2 X400.951 Y531.445 Z-6.340 I-98.082 J-87.184 K0.000 F2500.000
G1 X400.951 Y531.445 Z-9.510 F1000.000
G2 X410.459 Y517.611 Z-9.510 I-103.174 J-81.094 K0.000 F2500.000
G2 X425.441 Y483.820 Z-9.510 I-136.210 J-80.608 K0.000 F2500.000
G2 X431.038 Y455.340 Z-9.510 I-125.496 J-39.451 K0.000 F2500.000
G2 X429.841 Y423.964 Z-9.510 I-130.571 J-10.733 K0.000 F2500.000
G2 X424.018 Y398.469 Z-9.510 I-222.406 J37.390 K0.000 F2500.000
G2 X417.157 Y377.643 Z-9.510 I-323.883 J95.147 K0.000 F2500.000
G3 X413.021 Y365.636 Z-9.510 I305.982 J-112.122 K0.000 F2500.000
G3 X409.682 Y352.323 Z-9.510 I87.088 J-28.920 K0.000 F2500.000
G3 X409.380 Y349.088 Z-9.510 I18.777 J-3.383 K0.000 F2500.000
G3 X410.831 Y345.917 Z-9.510 I34.125 J13.699 K0.000 F2500.000
G3 X415.607 Y337.541 Z-9.510 I168.620 J90.602 K0.000 F2500.000
G2 X429.756 Y314.449 Z-9.510 I-2158.342 J-1338.337 K0.000 F2500.000
G2 X446.933 Y284.240 Z-9.510 I-453.478 J-277.827 K0.000 F2500.000
G2 X458.521 Y260.158 Z-9.510 I-298.599 J-158.513 K0.000 F2500.000
G2 X468.304 Y233.219 Z-9.510 I-202.186 J-88.671 K0.000 F2500.000
G2 X475.476 Y192.667 Z-9.510 I-176.587 J-52.141 K0.000 F2500.000
G2 X464.910 Y116.976 Z-9.510 I-194.571 J-11.423 K0.000 F2500.000
G2 X452.880 Y90.070 Z-9.510 I-156.671 J53.911 K0.000 F2500.000
G2 X415.681 Y45.568 Z-9.510 I-135.161 J75.181 K0.000 F2500.000
G2 X383.449 Y24.875 Z-9.510 I-109.837 J135.634 K0.000 F2500.000
G2 X347.440 Y11.091 Z-9.510 I-93.255 J189.698 K0.000 F2500.000
G2 X312.013 Y3.655 Z-9.510 I-78.002 J283.493 K0.000 F2500.000
G2 X277.547 Y0.004 Z-9.510 I-68.410 J481.310 K0.000 F2500.000
G2 X237.055 Y-1.585 Z-9.510 I-49.878 J754.130 K0.000 F2500.000
G2 X196.025 Y0.060 Z-9.510 I9.459 J748.200 K0.000 F2500.000
G2 X162.101 Y3.663 Z-9.510 I27.556 J420.929 K0.000 F2500.000
G2 X130.555 Y10.033 Z-9.510 I39.374 J276.322 K0.000 F2500.000
G2 X97.706 Y21.536 Z-9.510 I52.390 J202.256 K0.000 F2500.000
G2 X69.429 Y37.306 Z-9.510 I71.573 J161.574 K0.000 F2500.000
G2 X25.038 Y83.488 Z-9.510 I87.133 J128.181 K0.000 F2500.000
G2 X9.395 Y116.194 Z-9.510 I145.878 J89.864 K0.000 F2500.000
G2 X-1.735 Y179.308 Z-9.510 I184.316 J65.043 K0.000 F2500.000
G2 X2.933 Y222.487 Z-9.510 I181.626 J2.208 K0.000 F2500.000
G2 X12.404 Y252.629 Z-9.510 I210.831 J-49.691 K0.000 F2500.000
G2 X25.724 Y281.592 Z-9.510 I306.606 J-123.458 K0.000 F2500.000
G2 X44.974 Y315.625 Z-9.510 I546.715 J-286.774 K0.000 F2500.000
G3 X59.452 Y339.228 Z-9.510 I-5927.353 J3652.004 K0.000 F2500.000
G3 X63.641 Y346.753 Z-9.510 I-91.254 J55.723 K0.000 F2500.000
G3 X64.684 Y349.089 Z-9.510 I-20.513 J10.568 K0.000 F2500.000
G3 X64.486 Y351.600 Z-9.510 I-21.255 J-0.415 K0.000 F2500.000
G3 X62.718 Y359.952 Z-9.510 I-77.356 J-12.015 K0.000 F2500.000
G3 X58.354 Y373.612 Z-9.510 I-216.977 J-61.790 K0.000 F2500.000
G2 X52.542 Y390.324 Z-9.510 I397.201 J147.486 K0.000 F2500.000
G2 X46.955 Y410.286 Z-9.510 I228.797 J74.807 K0.000 F2500.000
G2 X43.772 Y427.008 Z-9.510 I175.197 J42.010 K0.000 F2500.000
G2 X45.996 Y474.235 Z-9.510 I128.528 J17.613 K0.000 F2500.000
G2 X60.363 Y511.868 Z-9.510 I153.102 J-36.892 K0.000 F2500.000
G2 X92.990 Y551.719 Z-9.510 I114.785 J-60.693 K0.000 F2500.000
G2 X123.812 Y570.819 Z-9.510 I92.023 J-114.083 K0.000 F2500.000
G2 X154.418 Y581.660 Z-9.510 I78.549 J-173.134 K0.000 F2500.000
G2 X192.403 Y588.398 Z-9.510 I64.528 J-253.326 K0.000 F2500.000
G2 X237.028 Y590.234 Z-9.510 I38.333 J-388.600 K0.000 F2500.000
G2 X272.172 Y589.221 Z-9.510 I6.088 J-398.900 K0.000 F2500.000
G2 X308.074 Y584.335 Z-9.510 I-18.664 J-271.494 K0.000 F2500.000
G2 X337.318 Y576.127 Z-9.510 I-39.294 J-196.212 K0.000 F2500.000
G2 X367.876 Y561.205 Z-9.510 I-52.521 J-146.299 K0.000 F2500.000
G2 X395.859 Y537.535 Z-9.510 I-69.516 J-110.561 K0.000 F2500.000
G2 X400.951 Y531.445 Z-9.510 I-98.082 J-87.184 K0.000 F2500.000
G1 X400.951 Y531.445 Z-12.680 F1000.000
G2 X410.459 Y517.611 Z-12.680 I-103.174 J-81.094 K0.000 F2500.000
G2 X425.441 Y483.820 Z-12.680 I-136.210 J-80.608 K0.000 F2500.000
G2 X431.038 Y455.340 Z-12.680 I-125.496 J-39.451 K0.000 F2500.000
G2 X429.841 Y423.964 Z-12.680 I-130.571 J-10.733 K0.000 F2500.000
G2 X424.018 Y398.469 Z-12.680 I-222.406 J37.390 K0.000 F2500.000
G2 X417.157 Y377.643 Z-12.680 I-323.883 J95.147 K0.000 F2500.000
G3 X413.021 Y365.636 Z-12.680 I305.982 J-112.122 K0.000 F2500.000
G3 X409.682 Y352.323 Z-12.680 I87.088 J-28.920 K0.000 F2500.000
G3 X409.380 Y349.088 Z-12.680 I18.777 J-3.383 K0.000 F2500.000
G3 X410.831 Y345.917 Z-12.680 I34.125 J13.699 K0.000 F2500.000
G3 X415.607 Y337.541 Z-12.680 I168.620 J90.602 K0.000 F2500.000
G2 X429.756 Y314.449 Z-12.680 I-2158.342 J-1338.337 K0.000 F2500.000
G2 X446.933 Y284.240 Z-12.680 I-453.478 J-277.827 K0.000 F2500.000
G2 X458.521 Y260.158 Z-12.680 I-298.599 J-158.513 K0.000 F2500.000
G2 X468.304 Y233.219 Z-12.680 I-202.186 J-88.671 K0.000 F2500.000
G2 X475.476 Y192.667 Z-12.680 I-176.587 J-52.141 K0.000 F2500.000
G2 X464.910 Y116.976 Z-12.680 I-194.571 J-11.423 K0.000 F2500.000
G2 X452.880 Y90.070 Z-12.680 I-156.671 J53.911 K0.000 F2500.000
G2 X415.681 Y45.568 Z-12.680 I-135.161 J75.181 K0.000 F2500.000
G2 X383.449 Y24.875 Z-12.680 I-109.837 J135.634 K0.000 F2500.000
G2 X347.440 Y11.091 Z-12.680 I-93.255 J189.698 K0.000 F2500.000
G2 X312.013 Y3.655 Z-12.680 I-78.002 J283.493 K0.000 F2500.000
G2 X277.547 Y0.004 Z-12.680 I-68.410 J481.310 K0.000 F2500.000
G2 X237.055 Y-1.585 Z-12.680 I-49.878 J754.130 K0.000 F2500.000
G2 X196.025 Y0.060 Z-12.680 I9.459 J748.200 K0.000 F2500.000
G2 X162.101 Y3.663 Z-12.680 I27.556 J420.929 K0.000 F2500.000
G2 X130.555 Y10.033 Z-12.680 I39.374 J276.322 K0.000 F2500.000
G2 X97.706 Y21.536 Z-12.680 I52.390 J202.256 K0.000 F2500.000
G2 X69.429 Y37.306 Z-12.680 I71.573 J161.574 K0.000 F2500.000
G2 X25.038 Y83.488 Z-12.680 I87.133 J128.181 K0.000 F2500.000
G2 X9.395 Y116.194 Z-12.680 I145.878 J89.864 K0.000 F2500.000
G2 X-1.735 Y179.308 Z-12.680 I184.316 J65.043 K0.000 F2500.000
G2 X2.933 Y222.487 Z-12.680 I181.626 J2.208 K0.000 F2500.000
G2 X12.404 Y252.629 Z-12.680 I210.831 J-49.691 K0.000 F2500.000
G2 X25.724 Y281.592 Z-12.680 I306.606 J-123.458 K0.000 F2500.000
G2 X44.974 Y315.625 Z-12.680 I546.715 J-286.774 K0.000 F2500.000
G3 X59.452 Y339.228 Z-12.680 I-5927.353 J3652.004 K0.000 F2500.000
G3 X63.641 Y346.753 Z-12.680 I-91.254 J55.723 K0.000 F2500.000
G3 X64.684 Y349.089 Z-12.680 I-20.513 J10.568 K0.000 F2500.000
G3 X64.486 Y351.600 Z-12.680 I-21.255 J-0.415 K0.000 F2500.000
G3 X62.718 Y359.952 Z-12.680 I-77.356 J-12.015 K0.000 F2500.000
G3 X58.354 Y373.612 Z-12.680 I-216.977 J-61.790 K0.000 F2500.000
G2 X52.542 Y390.324 Z-12.680 I397.201 J147.486 K0.000 F2500.000
G2 X46.955 Y410.286 Z-12.680 I228.797 J74.807 K0.000 F2500.000
G2 X43.772 Y427.008 Z-12.680 I175.197 J42.010 K0.000 F2500.000
G2 X45.996 Y474.235 Z-12.680 I128.528 J17.613 K0.000 F2500.000
G2 X60.363 Y511.868 Z-12.680 I153.102 J-36.892 K0.000 F2500.000
G2 X92.990 Y551.719 Z-12.680 I114.785 J-60.693 K0.000 F2500.000
G2 X123.812 Y570.819 Z-12.680 I92.023 J-114.083 K0.000 F2500.000
G2 X154.418 Y581.660 Z-12.680 I78.549 J-173.134 K0.000 F2500.000
G2 X192.403 Y588.398 Z-12.680 I64.528 J-253.326 K0.000 F2500.000
G2 X237.028 Y590.234 Z-12.680 I38.333 J-388.600 K0.000 F2500.000
G2 X272.172 Y589.221 Z-12.680 I6.088 J-398.900 K0.000 F2500.000
G2 X308.074 Y584.335 Z-12.680 I-18.664 J-271.494 K0.000 F2500.000
G2 X337.318 Y576.127 Z-12.680 I-39.294 J-196.212 K0.000 F2500.000
G2 X367.876 Y561.205 Z-12.680 I-52.521 J-146.299 K0.000 F2500.000
G2 X395.859 Y537.535 Z-12.680 I-69.516 J-110.561 K0.000 F2500.000
G2 X400.951 Y531.445 Z-12.680 I-98.082 J-87.184 K0.000 F2500.000
G1 X400.951 Y531.445 Z-15.850 F1000.000
G2 X410.459 Y517.611 Z-15.850 I-103.174 J-81.094 K0.000 F2500.000
G2 X425.441 Y483.820 Z-15.850 I-136.210 J-80.608 K0.000 F2500.000
G2 X431.038 Y455.340 Z-15.850 I-125.496 J-39.451 K0.000 F2500.000
G2 X429.841 Y423.964 Z-15.850 I-130.571 J-10.733 K0.000 F2500.000
G2 X424.018 Y398.469 Z-15.850 I-222.406 J37.390 K0.000 F2500.000
G2 X417.157 Y377.643 Z-15.850 I-323.883 J95.147 K0.000 F2500.000
G3 X413.021 Y365.636 Z-15.850 I305.982 J-112.122 K0.000 F2500.000
G3 X409.682 Y352.323 Z-15.850 I87.088 J-28.920 K0.000 F2500.000
G3 X409.380 Y349.088 Z-15.850 I18.777 J-3.383 K0.000 F2500.000
G3 X410.831 Y345.917 Z-15.850 I34.125 J13.699 K0.000 F2500.000
G3 X415.607 Y337.541 Z-15.850 I168.620 J90.602 K0.000 F2500.000
G2 X429.756 Y314.449 Z-15.850 I-2158.342 J-1338.337 K0.000 F2500.000
G2 X446.933 Y284.240 Z-15.850 I-453.478 J-277.827 K0.000 F2500.000
G2 X458.521 Y260.158 Z-15.850 I-298.599 J-158.513 K0.000 F2500.000
G2 X468.304 Y233.219 Z-15.850 I-202.186 J-88.671 K0.000 F2500.000
G2 X475.476 Y192.667 Z-15.850 I-176.587 J-52.141 K0.000 F2500.000
G2 X464.910 Y116.976 Z-15.850 I-194.571 J-11.423 K0.000 F2500.000
G2 X452.880 Y90.070 Z-15.850 I-156.671 J53.911 K0.000 F2500.000
G2 X415.681 Y45.568 Z-15.850 I-135.161 J75.181 K0.000 F2500.000
G2 X383.449 Y24.875 Z-15.850 I-109.837 J135.634 K0.000 F2500.000
G2 X347.440 Y11.091 Z-15.850 I-93.255 J189.698 K0.000 F2500.000
G2 X312.013 Y3.655 Z-15.850 I-78.002 J283.493 K0.000 F2500.000
G2 X277.547 Y0.004 Z-15.850 I-68.410 J481.310 K0.000 F2500.000
G2 X237.055 Y-1.585 Z-15.850 I-49.878 J754.130 K0.000 F2500.000
G2 X196.025 Y0.060 Z-15.850 I9.459 J748.200 K0.000 F2500.000
G2 X162.101 Y3.663 Z-15.850 I27.556 J420.929 K0.000 F2500.000
G2 X130.555 Y10.033 Z-15.850 I39.374 J276.322 K0.000 F2500.000
G2 X97.706 Y21.536 Z-15.850 I52.390 J202.256 K0.000 F2500.000
G2 X69.429 Y37.306 Z-15.850 I71.573 J161.574 K0.000 F2500.000
G2 X25.038 Y83.488 Z-15.850 I87.133 J128.181 K0.000 F2500.000
G2 X9.395 Y116.194 Z-15.850 I145.878 J89.864 K0.000 F2500.000
G2 X-1.735 Y179.308 Z-15.850 I184.316 J65.043 K0.000 F2500.000
G2 X2.933 Y222.487 Z-15.850 I181.626 J2.208 K0.000 F2500.000
G2 X12.404 Y252.629 Z-15.850 I210.831 J-49.691 K0.000 F2500.000
G2 X25.724 Y281.592 Z-15.850 I306.606 J-123.458 K0.000 F2500.000
G2 X44.974 Y315.625 Z-15.850 I546.715 J-286.774 K0.000 F2500.000
G3 X59.452 Y339.228 Z-15.850 I-5927.353 J3652.004 K0.000 F2500.000
G3 X63.641 Y346.753 Z-15.850 I-91.254 J55.723 K0.000 F2500.000
G3 X64.684 Y349.089 Z-15.850 I-20.513 J10.568 K0.000 F2500.000
G3 X64.486 Y351.600 Z-15.850 I-21.255 J-0.415 K0.000 F2500.000
G3 X62.718 Y359.952 Z-15.850 I-77.356 J-12.015 K0.000 F2500.000
G3 X58.354 Y373.612 Z-15.850 I-216.977 J-61.790 K0.000 F2500.000
G2 X52.542 Y390.324 Z-15.850 I397.201 J147.486 K0.000 F2500.000
G2 X46.955 Y410.286 Z-15.850 I228.797 J74.807 K0.000 F2500.000
G2 X43.772 Y427.008 Z-15.850 I175.197 J42.010 K0.000 F2500.000
G2 X45.996 Y474.235 Z-15.850 I128.528 J17.613 K0.000 F2500.000
G2 X60.363 Y511.868 Z-15.850 I153.102 J-36.892 K0.000 F2500.000
G2 X92.990 Y551.719 Z-15.850 I114.785 J-60.693 K0.000 F2500.000
G2 X123.812 Y570.819 Z-15.850 I92.023 J-114.083 K0.000 F2500.000
G2 X154.418 Y581.660 Z-15.850 I78.549 J-173.134 K0.000 F2500.000
G2 X192.403 Y588.398 Z-15.850 I64.528 J-253.326 K0.000 F2500.000
G2 X237.028 Y590.234 Z-15.850 I38.333 J-388.600 K0.000 F2500.000
G2 X272.172 Y589.221 Z-15.850 I6.088 J-398.900 K0.000 F2500.000
G2 X308.074 Y584.335 Z-15.850 I-18.664 J-271.494 K0.000 F2500.000
G2 X337.318 Y576.127 Z-15.850 I-39.294 J-196.212 K0.000 F2500.000
G2 X367.876 Y561.205 Z-15.850 I-52.521 J-146.299 K0.000 F2500.000
G2 X395.859 Y537.535 Z-15.850 I-69.516 J-110.561 K0.000 F2500.000
G2 X400.951 Y531.445 Z-15.850 I-98.082 J-87.184 K0.000 F2500.000
G1 X400.951 Y531.445 Z-18.000 F1000.000
G2 X410.459 Y517.611 Z-18.000 I-103.174 J-81.094 K0.000 F2500.000
G2 X425.441 Y483.820 Z-18.000 I-136.210 J-80.608 K0.000 F2500.000
G2 X431.038 Y455.340 Z-18.000 I-125.496 J-39.451 K0.000 F2500.000
G2 X429.841 Y423.964 Z-18.000 I-130.571 J-10.733 K0.000 F2500.000
G2 X424.018 Y398.469 Z-18.000 I-222.406 J37.390 K0.000 F2500.000
G2 X417.157 Y377.643 Z-18.000 I-323.883 J95.147 K0.000 F2500.000
G3 X413.021 Y365.636 Z-18.000 I305.982 J-112.122 K0.000 F2500.000
G3 X409.682 Y352.323 Z-18.000 I87.088 J-28.920 K0.000 F2500.000
G3 X409.380 Y349.088 Z-18.000 I18.777 J-3.383 K0.000 F2500.000
G3 X410.831 Y345.917 Z-18.000 I34.125 J13.699 K0.000 F2500.000
G3 X415.607 Y337.541 Z-18.000 I168.620 J90.602 K0.000 F2500.000
G2 X429.756 Y314.449 Z-18.000 I-2158.342 J-1338.337 K0.000 F2500.000
G2 X446.933 Y284.240 Z-18.000 I-453.478 J-277.827 K0.000 F2500.000
G2 X458.521 Y260.158 Z-18.000 I-298.599 J-158.513 K0.000 F2500.000
G2 X468.304 Y233.219 Z-18.000 I-202.186 J-88.671 K0.000 F2500.000
G2 X475.476 Y192.667 Z-18.000 I-176.587 J-52.141 K0.000 F2500.000
G2 X474.517 Y158.827 Z-18.000 I-194.571 J-11.423 K0.000 F2500.000
G1 X474.277 Y156.841 Z-16.000 F1750.018
G2 X473.568 Y151.760 Z-16.000 I-193.372 J24.402 K0.000 F2500.000
G1 X473.255 Y149.785 Z-18.000 F1750.018
G2 X464.910 Y116.976 Z-18.000 I-192.350 J31.458 K0.000 F2500.000
G2 X452.880 Y90.070 Z-18.000 I-156.671 J53.911 K0.000 F2500.000
G2 X415.681 Y45.568 Z-18.000 I-135.161 J75.181 K0.000 F2500.000
G2 X383.449 Y24.875 Z-18.000 I-109.837 J135.634 K0.000 F2500.000
G2 X347.440 Y11.091 Z-18.000 I-93.255 J189.698 K0.000 F2500.000
G2 X312.013 Y3.655 Z-18.000 I-78.002 J283.493 K0.000 F2500.000
G2 X277.547 Y0.004 Z-18.000 I-68.410 J481.310 K0.000 F2500.000
G2 X237.055 Y-1.585 Z-18.000 I-49.878 J754.130 K0.000 F2500.000
G2 X196.025 Y0.060 Z-18.000 I9.459 J748.200 K0.000 F2500.000
G2 X162.101 Y3.663 Z-18.000 I27.556 J420.929 K0.000 F2500.000
G2 X130.555 Y10.033 Z-18.000 I39.374 J276.322 K0.000 F2500.000
G2 X118.216 Y13.638 Z-18.000 I52.390 J202.256 K0.000 F2500.000
G1 X116.317 Y14.266 Z-16.000 F1750.016
G2 X111.475 Y15.962 Z-16.000 I66.628 J198.023 K0.000 F2500.000
G1 X109.599 Y16.655 Z-18.000 F1750.016
G2 X97.706 Y21.536 Z-18.000 I73.346 J195.634 K0.000 F2500.000
G2 X69.429 Y37.306 Z-18.000 I71.573 J161.574 K0.000 F2500.000
G2 X25.038 Y83.488 Z-18.000 I87.133 J128.181 K0.000 F2500.000
G2 X9.395 Y116.194 Z-18.000 I145.878 J89.864 K0.000 F2500.000
G2 X-1.735 Y179.308 Z-18.000 I184.316 J65.043 K0.000 F2500.000
G2 X2.933 Y222.487 Z-18.000 I181.626 J2.208 K0.000 F2500.000
G2 X12.404 Y252.629 Z-18.000 I210.831 J-49.691 K0.000 F2500.000
G2 X25.724 Y281.592 Z-18.000 I306.606 J-123.458 K0.000 F2500.000
G2 X44.974 Y315.625 Z-18.000 I546.715 J-286.774 K0.000 F2500.000
G3 X59.452 Y339.228 Z-18.000 I-5927.353 J3652.004 K0.000 F2500.000
G3 X63.641 Y346.753 Z-18.000 I-91.254 J55.723 K0.000 F2500.000
G3 X64.684 Y349.089 Z-18.000 I-20.513 J10.568 K0.000 F2500.000
G3 X64.486 Y351.600 Z-18.000 I-21.255 J-0.415 K0.000 F2500.000
G3 X62.718 Y359.952 Z-18.000 I-77.356 J-12.015 K0.000 F2500.000
G3 X58.354 Y373.612 Z-18.000 I-216.977 J-61.790 K0.000 F2500.000
G2 X52.542 Y390.324 Z-18.000 I397.201 J147.486 K0.000 F2500.000
G2 X50.806 Y395.861 Z-18.000 I228.797 J74.807 K0.000 F2500.000
G1 X50.238 Y397.779 Z-16.000 F1750.012
G2 X48.855 Y402.719 Z-16.000 I231.101 J67.352 K0.000 F2500.000
G1 X48.345 Y404.653 Z-18.000 F1750.012
G2 X46.955 Y410.286 Z-18.000 I232.994 J60.478 K0.000 F2500.000
G2 X43.772 Y427.008 Z-18.000 I175.197 J42.010 K0.000 F2500.000
G2 X45.996 Y474.235 Z-18.000 I128.528 J17.613 K0.000 F2500.000
G2 X60.363 Y511.868 Z-18.000 I153.102 J-36.892 K0.000 F2500.000
G2 X92.990 Y551.719 Z-18.000 I114.785 J-60.693 K0.000 F2500.000
G2 X123.812 Y570.819 Z-18.000 I92.023 J-114.083 K0.000 F2500.000
G2 X154.418 Y581.660 Z-18.000 I78.549 J-173.134 K0.000 F2500.000
G2 X192.403 Y588.398 Z-18.000 I64.528 J-253.326 K0.000 F2500.000
G2 X237.028 Y590.234 Z-18.000 I38.333 J-388.600 K0.000 F2500.000
G2 X272.172 Y589.221 Z-18.000 I6.088 J-398.900 K0.000 F2500.000
G2 X308.074 Y584.335 Z-18.000 I-18.664 J-271.494 K0.000 F2500.000
G2 X337.318 Y576.127 Z-18.000 I-39.294 J-196.212 K0.000 F2500.000
G2 X348.875 Y571.447 Z-18.000 I-52.521 J-146.299 K0.000 F2500.000
G1 X350.692 Y570.611 Z-16.000 F1750.029
G2 X355.302 Y568.360 Z-16.000 I-65.895 J-140.783 K0.000 F2500.000
G1 X357.079 Y567.441 Z-18.000 F1750.029
G2 X367.876 Y561.205 Z-18.000 I-72.282 J-137.613 K0.000 F2500.000
G2 X395.859 Y537.535 Z-18.000 I-69.516 J-110.561 K0.000 F2500.000
G2 X400.951 Y531.445 Z-18.000 I-98.082 J-87.184 K0.000 F2500.000
G0 X400.951 Y531.445 Z5.000
(Finish operation: DressupTag)
(Begin operation: DressupDogbone)
(Path: DressupDogbone)
(Pocket_Shape)
G0 Z5.000
G0 X260.427 Y586.740
G0 Z3.000
G1 X260.427 Y586.740 Z-3.170 F1000.000
G3 X237.017 Y587.064 Z-3.170 I-17.289 J-404.212 K0.000 F2500.000
G3 X213.612 Y586.740 Z-3.170 I-6.110 J-404.172 K0.000 F2500.000
G1 X213.172 Y587.162
G1 X213.612 Y586.740
G1 X213.612 Y539.247 Z-3.170 F2500.000
G1 X213.148 Y538.783
G1 X213.612 Y539.247
G1 X260.442 Y539.247 Z-3.170 F2500.000
G1 X260.907 Y538.783
G1 X260.442 Y539.247
G1 X260.442 Y586.740 Z-3.170 F2500.000
G1 X260.883 Y587.162
G1 X260.442 Y586.740
G3 X260.427 Y586.740 Z-3.170 I-17.305 J-404.211 K0.000 F2500.000
G0 Z5.000
G0 X257.906 Y584.299 Z5.000
G0 X257.906 Y584.299 Z3.000
G1 X257.906 Y584.299 Z-3.170 F1000.000
G3 X237.000 Y584.528 Z-3.170 I-14.790 J-396.328 K0.000 F2500.000
G3 X216.148 Y584.299 Z-3.170 I-6.089 J-395.517 K0.000 F2500.000
G1 X215.705 Y584.726
G1 X216.148 Y584.299
G1 X216.148 Y541.783 Z-3.170 F2500.000
G1 X215.684 Y541.319
G1 X216.148 Y541.783
G1 X257.906 Y541.783 Z-3.170 F2500.000
G1 X258.371 Y541.319
G1 X257.906 Y541.783
G1 X257.906 Y584.299 Z-3.170 F2500.000
G1 X258.350 Y584.726
G1 X257.906 Y584.299
G0 Z5.000
G0 X255.370 Y581.855 Z5.000
G0 X255.370 Y581.855 Z3.000
G1 X255.370 Y581.855 Z-3.170 F1000.000
G3 X236.982 Y581.992 Z-3.170 I-12.379 J-428.393 K0.000 F2500.000
G3 X218.684 Y581.855 Z-3.170 I-6.061 J-413.466 K0.000 F2500.000
G1 X218.237 Y582.290
G1 X218.684 Y581.855
G1 X218.684 Y544.319 Z-3.170 F2500.000
G1 X218.220 Y543.855
G1 X218.684 Y544.319
G1 X255.370 Y544.319 Z-3.170 F2500.000
G1 X255.835 Y543.855
G1 X255.370 Y544.319
G1 X255.370 Y581.855 Z-3.170 F2500.000
G1 X255.819 Y582.290
G1 X255.370 Y581.855
G0 Z5.000
G0 X252.834 Y579.375 Z5.000
G0 X252.834 Y579.375 Z3.000
G1 X252.834 Y579.375 Z-3.170 F1000.000
G3 X236.965 Y579.456 Z-3.170 I-10.004 J-407.836 K0.000 F2500.000
G3 X221.220 Y579.375 Z-3.170 I-6.054 J-355.577 K0.000 F2500.000
G1 X220.771 Y579.812
G1 X221.220 Y579.375
G1 X221.220 Y546.855 Z-3.170 F2500.000
G1 X220.756 Y546.391
G1 X221.220 Y546.855
G1 X252.834 Y546.855 Z-3.170 F2500.000
G1 X253.299 Y546.391
G1 X252.834 Y546.855
G1 X252.834 Y579.375 Z-3.170 F2500.000
G1 X253.285 Y579.815
G1 X252.834 Y579.375
G0 Z5.000
G0 X250.298 Y576.895 Z5.000
G0 X250.298 Y576.895 Z3.000
G1 X250.298 Y576.895 Z-3.170 F1000.000
G3 X236.948 Y576.920 Z-3.170 I-7.436 J-416.455 K0.000 F2500.000
G3 X224.699 Y576.917 Z-3.170 I-6.010 J-431.881 K0.000 F2500.000
G1 Y576.917
G1 Y576.917
G1 X223.756 Y576.895 Z-3.170 F2500.000
G1 X223.305 Y577.337
G1 X223.756 Y576.895
G1 X223.756 Y549.391 Z-3.170 F2500.000
G1 X223.292 Y548.927
G1 X223.756 Y549.391
G1 X250.298 Y549.391 Z-3.170 F2500.000
G1 X250.763 Y548.927
G1 X250.298 Y549.391
G1 X250.298 Y576.895 Z-3.170 F2500.000
G1 X250.753 Y577.342
G1 X250.298 Y576.895
G0 Z5.000
G0 X247.762 Y574.392 Z5.000
G0 X247.762 Y574.392 Z3.000
G1 X247.762 Y574.392 Z-3.170 F1000.000
G3 X236.931 Y574.384 Z-3.170 I-5.114 J-387.475 K0.000 F2500.000
G3 X226.292 Y574.392 Z-3.170 I-5.617 J-375.099 K0.000 F2500.000
G1 X225.836 Y574.843
G1 X226.292 Y574.392
G1 X226.292 Y551.927 Z-3.170 F2500.000
G1 X225.828 Y551.463
G1 X226.292 Y551.927
G1 X247.762 Y551.927 Z-3.170 F2500.000
G1 X248.227 Y551.463
G1 X247.762 Y551.927
G1 X247.762 Y574.392 Z-3.170 F2500.000
G1 X248.219 Y574.843
G1 X247.762 Y574.392
G0 Z5.000
G0 X245.226 Y571.875 Z5.000
G0 X245.226 Y571.875 Z3.000
G1 X245.226 Y571.875 Z-3.170 F1000.000
G3 X236.914 Y571.848 Z-3.170 I-3.185 J-298.125 K0.000 F2500.000
G3 X228.828 Y571.875 Z-3.170 I-4.998 J-285.065 K0.000 F2500.000
G1 X228.370 Y572.328
G1 X228.828 Y571.875
G1 X228.828 Y554.463 Z-3.170 F2500.000
G1 X228.364 Y553.999
G1 X228.828 Y554.463
G1 X245.226 Y554.463 Z-3.170 F2500.000
G1 X245.691 Y553.999
G1 X245.226 Y554.463
G1 X245.226 Y571.875 Z-3.170 F2500.000
G1 X245.685 Y572.328
G1 X245.226 Y571.875
G0 Z5.000
G0 X242.690 Y569.350 Z5.000
G0 X242.690 Y569.350 Z3.000
G1 X242.690 Y569.350 Z-3.170 F1000.000
G2 X231.364 Y569.349 Z-3.170 I-5.670 J426.498 K0.000 F2500.000
G1 X230.893 Y569.827
G1 X231.364 Y569.349
G1 X231.364 Y556.999 Z-3.170 F2500.000
G1 X230.900 Y556.535
G1 X231.364 Y556.999
G1 X242.690 Y556.999 Z-3.170 F2500.000
G1 X243.155 Y556.535
G1 X242.690 Y556.999
G1 X242.690 Y569.350 Z-3.170 F2500.000
G1 X243.162 Y569.828
G1 X242.690 Y569.350
G0 Z5.000
G0 X240.154 Y566.797 Z5.000
G0 X240.154 Y566.797 Z3.000
G1 X240.154 Y566.797 Z-3.170 F1000.000
G2 X233.900 Y566.796 Z-3.170 I-3.165 J236.111 K0.000 F2500.000
G1 X233.429 Y567.274
G1 X233.900 Y566.796
G1 X233.900 Y559.535 Z-3.170 F2500.000
G1 X233.436 Y559.071
G1 X233.900 Y559.535
G1 X240.154 Y559.535 Z-3.170 F2500.000
G1 X240.619 Y559.071
G1 X240.154 Y559.535
G1 X240.154 Y566.797 Z-3.170 F2500.000
G1 X240.626 Y567.275
G1 X240.154 Y566.797
G0 Z5.000
G0 X237.618 Y564.245 Z5.000
G0 X237.618 Y564.245 Z3.000
G1 X237.618 Y564.245 Z-3.170 F1000.000
G2 X236.436 Y564.243 Z-3.170 I-0.666 J44.738 K0.000 F2500.000
G1 X235.966 Y564.719
G1 X236.436 Y564.243
G1 X236.436 Y562.071 Z-3.170 F2500.000
G1 X235.972 Y561.607
G1 X236.436 Y562.071
G1 X237.618 Y562.071 Z-3.170 F2500.000
G1 X238.083 Y561.607
G1 X237.618 Y562.071
G1 X237.618 Y564.245 Z-3.170 F2500.000
G1 X238.091 Y564.725
G1 X237.618 Y564.245
G1 X237.618 Y564.245 Z-6.340 F1000.000
G2 X236.436 Y564.243 Z-6.340 I-0.666 J44.738 K0.000 F2500.000
G1 X235.966 Y564.719
G1 X236.436 Y564.243
G1 X236.436 Y562.071 Z-6.340 F2500.000
G1 X235.972 Y561.607
G1 X236.436 Y562.071
G1 X237.618 Y562.071 Z-6.340 F2500.000
G1 X238.083 Y561.607
G1 X237.618 Y562.071
G1 X237.618 Y564.245 Z-6.340 F2500.000
G1 X238.091 Y564.725
G1 X237.618 Y564.245
G0 Z5.000
G0 X237.612 Y566.777 Z5.000
G0 X237.612 Y566.777 Z3.000
G1 X237.612 Y566.777 Z-6.340 F1000.000
G2 X233.900 Y566.796 Z-6.340 I-0.622 J236.131 K0.000 F2500.000
G1 X233.429 Y567.274
G1 X233.900 Y566.796
G1 X233.900 Y559.535 Z-6.340 F2500.000
G1 X233.436 Y559.071
G1 X233.900 Y559.535
G1 X240.154 Y559.535 Z-6.340 F2500.000
G1 X240.619 Y559.071
G1 X240.154 Y559.535
G1 X240.154 Y566.797 Z-6.340 F2500.000
G1 X240.626 Y567.275
G1 X240.154 Y566.797
G2 X237.612 Y566.777 Z-6.340 I-3.165 J236.111 K0.000 F2500.000
G0 Z5.000
G0 X237.608 Y569.312 Z5.000
G0 X237.608 Y569.312 Z3.000
G1 X237.608 Y569.312 Z-6.340 F1000.000
G2 X231.364 Y569.349 Z-6.340 I-0.588 J426.536 K0.000 F2500.000
G1 X230.893 Y569.827
G1 X231.364 Y569.349
G1 X231.364 Y556.999 Z-6.340 F2500.000
G1 X230.900 Y556.535
G1 X231.364 Y556.999
G1 X242.690 Y556.999 Z-6.340 F2500.000
G1 X243.155 Y556.535
G1 X242.690 Y556.999
G1 X242.690 Y569.350 Z-6.340 F2500.000
G1 X243.162 Y569.828
G1 X242.690 Y569.350
G2 X237.608 Y569.312 Z-6.340 I-5.670 J426.498 K0.000 F2500.000
G0 Z5.000
G0 X237.570 Y571.859 Z5.000
G0 X237.570 Y571.859 Z3.000
G1 X237.570 Y571.859 Z-6.340 F1000.000
G3 X236.914 Y571.848 Z-6.340 I4.471 J-298.108 K0.000 F2500.000
G3 X228.828 Y571.875 Z-6.340 I-4.998 J-285.065 K0.000 F2500.000
G1 X228.370 Y572.328
G1 X228.828 Y571.875
G1 X228.828 Y554.463 Z-6.340 F2500.000
G1 X228.364 Y553.999
G1 X228.828 Y554.463
G1 X245.226 Y554.463 Z-6.340 F2500.000
G1 X245.691 Y553.999
G1 X245.226 Y554.463
G1 X245.226 Y571.875 Z-6.340 F2500.000
G1 X245.685 Y572.328
G1 X245.226 Y571.875
G3 X237.570 Y571.859 Z-6.340 I-3.185 J-298.125 K0.000 F2500.000
G0 Z5.000
G0 X237.537 Y574.392 Z5.000
G0 X237.537 Y574.392 Z3.000
G1 X237.537 Y574.392 Z-6.340 F1000.000
G3 X236.931 Y574.384 Z-6.340 I5.112 J-387.475 K0.000 F2500.000
G3 X226.292 Y574.392 Z-6.340 I-5.617 J-375.099 K0.000 F2500.000
G1 X225.836 Y574.843
G1 X226.292 Y574.392
G1 X226.292 Y551.927 Z-6.340 F2500.000
G1 X225.828 Y551.463
G1 X226.292 Y551.927
G1 X247.762 Y551.927 Z-6.340 F2500.000
G1 X248.227 Y551.463
G1 X247.762 Y551.927
G1 X247.762 Y574.392 Z-6.340 F2500.000
G1 X248.219 Y574.843
G1 X247.762 Y574.392
G3 X237.537 Y574.392 Z-6.340 I-5.114 J-387.475 K0.000 F2500.000
G0 Z5.000
G0 X237.504 Y576.927 Z5.000
G0 X237.504 Y576.927 Z3.000
G1 X237.504 Y576.927 Z-6.340 F1000.000
G3 X236.948 Y576.920 Z-6.340 I5.359 J-416.487 K0.000 F2500.000
G3 X224.699 Y576.917 Z-6.340 I-6.010 J-431.881 K0.000 F2500.000
G1 Y576.917
G1 Y576.917
G1 X223.756 Y576.895 Z-6.340 F2500.000
G1 X223.305 Y577.337
G1 X223.756 Y576.895
G1 X223.756 Y549.391 Z-6.340 F2500.000
G1 X223.292 Y548.927
G1 X223.756 Y549.391
G1 X250.298 Y549.391 Z-6.340 F2500.000
G1 X250.763 Y548.927
G1 X250.298 Y549.391
G1 X250.298 Y576.895 Z-6.340 F2500.000
G1 X250.753 Y577.342
G1 X250.298 Y576.895
G3 X237.504 Y576.927 Z-6.340 I-7.436 J-416.455 K0.000 F2500.000
G0 Z5.000
G0 X237.471 Y579.463 Z5.000
G0 X237.471 Y579.463 Z3.000
G1 X237.471 Y579.463 Z-6.340 F1000.000
G3 X236.965 Y579.456 Z-6.340 I5.359 J-407.924 K0.000 F2500.000
G3 X221.220 Y579.375 Z-6.340 I-6.054 J-355.577 K0.000 F2500.000
G1 X220.771 Y579.812
G1 X221.220 Y579.375
G1 X221.220 Y546.855 Z-6.340 F2500.000
G1 X220.756 Y546.391
G1 X221.220 Y546.855
G1 X252.834 Y546.855 Z-6.340 F2500.000
G1 X253.299 Y546.391
G1 X252.834 Y546.855
G1 X252.834 Y579.375 Z-6.340 F2500.000
G1 X253.285 Y579.815
G1 X252.834 Y579.375
G3 X237.471 Y579.463 Z-6.340 I-10.004 J-407.836 K0.000 F2500.000
G0 Z5.000
G0 X237.438 Y581.998 Z5.000
G0 X237.438 Y581.998 Z3.000
G1 X237.438 Y581.998 Z-6.340 F1000.000
G3 X236.982 Y581.992 Z-6.340 I5.554 J-428.535 K0.000 F2500.000
G3 X218.684 Y581.855 Z-6.340 I-6.061 J-413.466 K0.000 F2500.000
G1 X218.237 Y582.290
G1 X218.684 Y581.855
G1 X218.684 Y544.319 Z-6.340 F2500.000
G1 X218.220 Y543.855
G1 X218.684 Y544.319
G1 X255.370 Y544.319 Z-6.340 F2500.000
G1 X255.835 Y543.855
G1 X255.370 Y544.319
G1 X255.370 Y581.855 Z-6.340 F2500.000
G1 X255.819 Y582.290
G1 X255.370 Y581.855
G3 X237.438 Y581.998 Z-6.340 I-12.379 J-428.393 K0.000 F2500.000
G0 Z5.000
G0 X237.401 Y584.534 Z5.000
G0 X237.401 Y584.534 Z3.000
G1 X237.401 Y584.534 Z-6.340 F1000.000
G3 X237.000 Y584.528 Z-6.340 I5.716 J-396.562 K0.000 F2500.000
G3 X216.148 Y584.299 Z-6.340 I-6.089 J-395.517 K0.000 F2500.000
G1 X215.705 Y584.726
G1 X216.148 Y584.299
G1 X216.148 Y541.783 Z-6.340 F2500.000
G1 X215.684 Y541.319
G1 X216.148 Y541.783
G1 X257.906 Y541.783 Z-6.340 F2500.000
G1 X258.371 Y541.319
G1 X257.906 Y541.783
G1 X257.906 Y584.299 Z-6.340 F2500.000
G1 X258.350 Y584.726
G1 X257.906 Y584.299
G3 X237.401 Y584.534 Z-6.340 I-14.790 J-396.328 K0.000 F2500.000
G0 Z5.000
G0 X237.365 Y587.069 Z5.000
G0 X237.365 Y587.069 Z3.000
G1 X237.365 Y587.069 Z-6.340 F1000.000
G3 X237.017 Y587.064 Z-6.340 I5.772 J-404.540 K0.000 F2500.000
G3 X213.612 Y586.740 Z-6.340 I-6.110 J-404.172 K0.000 F2500.000
G1 X213.172 Y587.162
G1 X213.612 Y586.740
G1 X213.612 Y539.247 Z-6.340 F2500.000
G1 X213.148 Y538.783
G1 X213.612 Y539.247
G1 X260.442 Y539.247 Z-6.340 F2500.000
G1 X260.907 Y538.783
G1 X260.442 Y539.247
G1 X260.442 Y586.740 Z-6.340 F2500.000
G1 X260.883 Y587.162
G1 X260.442 Y586.740
G3 X237.365 Y587.069 Z-6.340 I-17.305 J-404.211 K0.000 F2500.000
G1 X237.365 Y587.069 Z-9.000 F1000.000
G3 X237.017 Y587.064 Z-9.000 I5.772 J-404.540 K0.000 F2500.000
G3 X213.612 Y586.740 Z-9.000 I-6.110 J-404.172 K0.000 F2500.000
G1 X213.172 Y587.162
G1 X213.612 Y586.740
G1 X213.612 Y539.247 Z-9.000 F2500.000
G1 X213.148 Y538.783
G1 X213.612 Y539.247
G1 X260.442 Y539.247 Z-9.000 F2500.000
G1 X260.907 Y538.783
G1 X260.442 Y539.247
G1 X260.442 Y586.740 Z-9.000 F2500.000
G1 X260.883 Y587.162
G1 X260.442 Y586.740
G3 X237.365 Y587.069 Z-9.000 I-17.305 J-404.211 K0.000 F2500.000
G0 Z5.000
G0 X237.402 Y584.534 Z5.000
G0 X237.402 Y584.534 Z3.000
G1 X237.402 Y584.534 Z-9.000 F1000.000
G3 X237.000 Y584.528 Z-9.000 I5.715 J-396.562 K0.000 F2500.000
G3 X216.148 Y584.299 Z-9.000 I-6.089 J-395.517 K0.000 F2500.000
G1 X215.705 Y584.726
G1 X216.148 Y584.299
G1 X216.148 Y541.783 Z-9.000 F2500.000
G1 X215.684 Y541.319
G1 X216.148 Y541.783
G1 X257.906 Y541.783 Z-9.000 F2500.000
G1 X258.371 Y541.319
G1 X257.906 Y541.783
G1 X257.906 Y584.299 Z-9.000 F2500.000
G1 X258.350 Y584.726
G1 X257.906 Y584.299
G3 X237.402 Y584.534 Z-9.000 I-14.790 J-396.328 K0.000 F2500.000
G0 Z5.000
G0 X237.435 Y581.998 Z5.000
G0 X237.435 Y581.998 Z3.000
G1 X237.435 Y581.998 Z-9.000 F1000.000
G3 X236.982 Y581.992 Z-9.000 I5.557 J-428.535 K0.000 F2500.000
G3 X218.684 Y581.855 Z-9.000 I-6.061 J-413.466 K0.000 F2500.000
G1 X218.237 Y582.290
G1 X218.684 Y581.855
G1 X218.684 Y544.319 Z-9.000 F2500.000
G1 X218.220 Y543.855
G1 X218.684 Y544.319
G1 X255.370 Y544.319 Z-9.000 F2500.000
G1 X255.835 Y543.855
G1 X255.370 Y544.319
G1 X255.370 Y581.855 Z-9.000 F2500.000
G1 X255.819 Y582.290
G1 X255.370 Y581.855
G3 X237.435 Y581.998 Z-9.000 I-12.379 J-428.393 K0.000 F2500.000
G0 Z5.000
G0 X237.468 Y579.463 Z5.000
G0 X237.468 Y579.463 Z3.000
G1 X237.468 Y579.463 Z-9.000 F1000.000
G3 X236.965 Y579.456 Z-9.000 I5.362 J-407.924 K0.000 F2500.000
G3 X221.220 Y579.375 Z-9.000 I-6.054 J-355.577 K0.000 F2500.000
G1 X220.771 Y579.812
G1 X221.220 Y579.375
G1 X221.220 Y546.855 Z-9.000 F2500.000
G1 X220.756 Y546.391
G1 X221.220 Y546.855
G1 X252.834 Y546.855 Z-9.000 F2500.000
G1 X253.299 Y546.391
G1 X252.834 Y546.855
G1 X252.834 Y579.375 Z-9.000 F2500.000
G1 X253.285 Y579.815
G1 X252.834 Y579.375
G3 X237.468 Y579.463 Z-9.000 I-10.004 J-407.836 K0.000 F2500.000
G0 Z5.000
G0 X237.501 Y576.927 Z5.000
G0 X237.501 Y576.927 Z3.000
G1 X237.501 Y576.927 Z-9.000 F1000.000
G3 X236.948 Y576.920 Z-9.000 I5.362 J-416.487 K0.000 F2500.000
G3 X224.699 Y576.917 Z-9.000 I-6.010 J-431.881 K0.000 F2500.000
G1 Y576.917
G1 Y576.917
G1 X223.756 Y576.895 Z-9.000 F2500.000
G1 X223.305 Y577.337
G1 X223.756 Y576.895
G1 X223.756 Y549.391 Z-9.000 F2500.000
G1 X223.292 Y548.927
G1 X223.756 Y549.391
G1 X250.298 Y549.391 Z-9.000 F2500.000
G1 X250.763 Y548.927
G1 X250.298 Y549.391
G1 X250.298 Y576.895 Z-9.000 F2500.000
G1 X250.753 Y577.342
G1 X250.298 Y576.895
G3 X237.501 Y576.927 Z-9.000 I-7.436 J-416.455 K0.000 F2500.000
G0 Z5.000
G0 X237.534 Y574.392 Z5.000
G0 X237.534 Y574.392 Z3.000
G1 X237.534 Y574.392 Z-9.000 F1000.000
G3 X236.931 Y574.384 Z-9.000 I5.114 J-387.475 K0.000 F2500.000
G3 X226.292 Y574.392 Z-9.000 I-5.617 J-375.099 K0.000 F2500.000
G1 X225.836 Y574.843
G1 X226.292 Y574.392
G1 X226.292 Y551.927 Z-9.000 F2500.000
G1 X225.828 Y551.463
G1 X226.292 Y551.927
G1 X247.762 Y551.927 Z-9.000 F2500.000
G1 X248.227 Y551.463
G1 X247.762 Y551.927
G1 X247.762 Y574.392 Z-9.000 F2500.000
G1 X248.219 Y574.843
G1 X247.762 Y574.392
G3 X237.534 Y574.392 Z-9.000 I-5.114 J-387.475 K0.000 F2500.000
G0 Z5.000
G0 X237.572 Y571.859 Z5.000
G0 X237.572 Y571.859 Z3.000
G1 X237.572 Y571.859 Z-9.000 F1000.000
G3 X236.914 Y571.848 Z-9.000 I4.469 J-298.108 K0.000 F2500.000
G3 X228.828 Y571.875 Z-9.000 I-4.998 J-285.065 K0.000 F2500.000
G1 X228.370 Y572.328
G1 X228.828 Y571.875
G1 X228.828 Y554.463 Z-9.000 F2500.000
G1 X228.364 Y553.999
G1 X228.828 Y554.463
G1 X245.226 Y554.463 Z-9.000 F2500.000
G1 X245.691 Y553.999
G1 X245.226 Y554.463
G1 X245.226 Y571.875 Z-9.000 F2500.000
G1 X245.685 Y572.328
G1 X245.226 Y571.875
G3 X237.572 Y571.859 Z-9.000 I-3.185 J-298.125 K0.000 F2500.000
G0 Z5.000
G0 X237.575 Y569.312 Z5.000
G0 X237.575 Y569.312 Z3.000
G1 X237.575 Y569.312 Z-9.000 F1000.000
G2 X231.364 Y569.349 Z-9.000 I-0.555 J426.536 K0.000 F2500.000
G1 X230.893 Y569.827
G1 X231.364 Y569.349
G1 X231.364 Y556.999 Z-9.000 F2500.000
G1 X230.900 Y556.535
G1 X231.364 Y556.999
G1 X242.690 Y556.999 Z-9.000 F2500.000
G1 X243.155 Y556.535
G1 X242.690 Y556.999
G1 X242.690 Y569.350 Z-9.000 F2500.000
G1 X243.162 Y569.828
G1 X242.690 Y569.350
G2 X237.575 Y569.312 Z-9.000 I-5.670 J426.498 K0.000 F2500.000
G0 Z5.000
G0 X237.582 Y566.777 Z5.000
G0 X237.582 Y566.777 Z3.000
G1 X237.582 Y566.777 Z-9.000 F1000.000
G2 X233.900 Y566.796 Z-9.000 I-0.592 J236.131 K0.000 F2500.000
G1 X233.429 Y567.274
G1 X233.900 Y566.796
G1 X233.900 Y559.535 Z-9.000 F2500.000
G1 X233.436 Y559.071
G1 X233.900 Y559.535
G1 X240.154 Y559.535 Z-9.000 F2500.000
G1 X240.619 Y559.071
G1 X240.154 Y559.535
G1 X240.154 Y566.797 Z-9.000 F2500.000
G1 X240.626 Y567.275
G1 X240.154 Y566.797
G2 X237.582 Y566.777 Z-9.000 I-3.165 J236.111 K0.000 F2500.000
G0 Z5.000
G0 X237.618 Y564.245 Z5.000
G0 X237.618 Y564.245 Z3.000
G1 X237.618 Y564.245 Z-9.000 F1000.000
G2 X236.436 Y564.243 Z-9.000 I-0.666 J44.738 K0.000 F2500.000
G1 X235.966 Y564.719
G1 X236.436 Y564.243
G1 X236.436 Y562.071 Z-9.000 F2500.000
G1 X235.972 Y561.607
G1 X236.436 Y562.071
G1 X237.618 Y562.071 Z-9.000 F2500.000
G1 X238.083 Y561.607
G1 X237.618 Y562.071
G1 X237.618 Y564.245 Z-9.000 F2500.000
G1 X238.091 Y564.725
G1 X237.618 Y564.245
G0 Z5.000
G0 Z5.000
(Finish operation: DressupDogbone)
(Begin operation: Helix)
(Path: Helix)
(Helix)
(helix cut operation)
G0 Z5.000
G0 Z5.000
G0 X187.027 Y25.999 Z5.000
G0 X187.027 Y25.999 Z0.000
G0 X189.942 Y25.999
G1 Z0.000 F1000.000
G2 X184.112 Y25.999 Z-1.500 I-2.915 J0.000 F2500.000
G2 X189.942 Y25.999 Z-3.000 I2.915 J0.000 F2500.000
G2 X184.112 Y25.999 Z-4.500 I-2.915 J0.000 F2500.000
G2 X189.942 Y25.999 Z-6.000 I2.915 J0.000 F2500.000
G2 X184.112 Y25.999 Z-7.500 I-2.915 J0.000 F2500.000
G2 X189.942 Y25.999 Z-9.000 I2.915 J0.000 F2500.000
G2 X184.112 Y25.999 Z-10.500 I-2.915 J0.000 F2500.000
G2 X189.942 Y25.999 Z-12.000 I2.915 J0.000 F2500.000
G2 X184.112 Y25.999 Z-13.500 I-2.915 J0.000 F2500.000
G2 X189.942 Y25.999 Z-15.000 I2.915 J0.000 F2500.000
G2 X184.112 Y25.999 Z-16.500 I-2.915 J0.000 F2500.000
G2 X189.942 Y25.999 Z-18.000 I2.915 J0.000 F2500.000
G2 X184.112 Y25.999 Z-18.000 I-2.915 J0.000 F2500.000
G2 X189.942 Y25.999 Z-18.000 I2.915 J0.000 F2500.000
G0 Z0.000
G0 X188.612 Y25.999
G1 Z0.000 F1000.000
G2 X185.442 Y25.999 Z-1.500 I-1.585 J0.000 F2500.000
G2 X188.612 Y25.999 Z-3.000 I1.585 J0.000 F2500.000
G2 X185.442 Y25.999 Z-4.500 I-1.585 J0.000 F2500.000
G2 X188.612 Y25.999 Z-6.000 I1.585 J0.000 F2500.000
G2 X185.442 Y25.999 Z-7.500 I-1.585 J0.000 F2500.000
G2 X188.612 Y25.999 Z-9.000 I1.585 J0.000 F2500.000
G2 X185.442 Y25.999 Z-10.500 I-1.585 J0.000 F2500.000
G2 X188.612 Y25.999 Z-12.000 I1.585 J0.000 F2500.000
G2 X185.442 Y25.999 Z-13.500 I-1.585 J0.000 F2500.000
G2 X188.612 Y25.999 Z-15.000 I1.585 J0.000 F2500.000
G2 X185.442 Y25.999 Z-16.500 I-1.585 J0.000 F2500.000
G2 X188.612 Y25.999 Z-18.000 I1.585 J0.000 F2500.000
G2 X185.442 Y25.999 Z-18.000 I-1.585 J0.000 F2500.000
G2 X188.612 Y25.999 Z-18.000 I1.585 J0.000 F2500.000
G0 Z0.000
G0 Z5.000
G0 X287.027 Y25.999 Z5.000
G0 X287.027 Y25.999 Z0.000
G0 X289.942 Y25.999
G1 Z0.000 F1000.000
G2 X284.112 Y25.999 Z-1.500 I-2.915 J0.000 F2500.000
G2 X289.942 Y25.999 Z-3.000 I2.915 J0.000 F2500.000
G2 X284.112 Y25.999 Z-4.500 I-2.915 J0.000 F2500.000
G2 X289.942 Y25.999 Z-6.000 I2.915 J0.000 F2500.000
G2 X284.112 Y25.999 Z-7.500 I-2.915 J0.000 F2500.000
G2 X289.942 Y25.999 Z-9.000 I2.915 J0.000 F2500.000
G2 X284.112 Y25.999 Z-10.500 I-2.915 J0.000 F2500.000
G2 X289.942 Y25.999 Z-12.000 I2.915 J0.000 F2500.000
G2 X284.112 Y25.999 Z-13.500 I-2.915 J0.000 F2500.000
G2 X289.942 Y25.999 Z-15.000 I2.915 J0.000 F2500.000
G2 X284.112 Y25.999 Z-16.500 I-2.915 J0.000 F2500.000
G2 X289.942 Y25.999 Z-18.000 I2.915 J0.000 F2500.000
G2 X284.112 Y25.999 Z-18.000 I-2.915 J0.000 F2500.000
G2 X289.942 Y25.999 Z-18.000 I2.915 J0.000 F2500.000
G0 Z0.000
G0 X288.612 Y25.999
G1 Z0.000 F1000.000
G2 X285.442 Y25.999 Z-1.500 I-1.585 J0.000 F2500.000
G2 X288.612 Y25.999 Z-3.000 I1.585 J0.000 F2500.000
G2 X285.442 Y25.999 Z-4.500 I-1.585 J0.000 F2500.000
G2 X288.612 Y25.999 Z-6.000 I1.585 J0.000 F2500.000
G2 X285.442 Y25.999 Z-7.500 I-1.585 J0.000 F2500.000
G2 X288.612 Y25.999 Z-9.000 I1.585 J0.000 F2500.000
G2 X285.442 Y25.999 Z-10.500 I-1.585 J0.000 F2500.000
G2 X288.612 Y25.999 Z-12.000 I1.585 J0.000 F2500.000
G2 X285.442 Y25.999 Z-13.500 I-1.585 J0.000 F2500.000
G2 X288.612 Y25.999 Z-15.000 I1.585 J0.000 F2500.000
G2 X285.442 Y25.999 Z-16.500 I-1.585 J0.000 F2500.000
G2 X288.612 Y25.999 Z-18.000 I1.585 J0.000 F2500.000
G2 X285.442 Y25.999 Z-18.000 I-1.585 J0.000 F2500.000
G2 X288.612 Y25.999 Z-18.000 I1.585 J0.000 F2500.000
G0 Z0.000
G0 Z5.000
G0 X387.027 Y353.971 Z5.000
G0 X387.027 Y353.971 Z0.000
G0 X389.942 Y353.971
G1 Z0.000 F1000.000
G2 X384.112 Y353.971 Z-1.500 I-2.915 J0.000 F2500.000
G2 X389.942 Y353.971 Z-3.000 I2.915 J0.000 F2500.000
G2 X384.112 Y353.971 Z-4.500 I-2.915 J0.000 F2500.000
G2 X389.942 Y353.971 Z-6.000 I2.915 J0.000 F2500.000
G2 X384.112 Y353.971 Z-7.500 I-2.915 J0.000 F2500.000
G2 X389.942 Y353.971 Z-9.000 I2.915 J0.000 F2500.000
G2 X384.112 Y353.971 Z-10.500 I-2.915 J0.000 F2500.000
G2 X389.942 Y353.971 Z-12.000 I2.915 J0.000 F2500.000
G2 X384.112 Y353.971 Z-13.500 I-2.915 J0.000 F2500.000
G2 X389.942 Y353.971 Z-15.000 I2.915 J0.000 F2500.000
G2 X384.112 Y353.971 Z-16.500 I-2.915 J0.000 F2500.000
G2 X389.942 Y353.971 Z-18.000 I2.915 J0.000 F2500.000
G2 X384.112 Y353.971 Z-18.000 I-2.915 J0.000 F2500.000
G2 X389.942 Y353.971 Z-18.000 I2.915 J0.000 F2500.000
G0 Z0.000
G0 X388.612 Y353.971
G1 Z0.000 F1000.000
G2 X385.442 Y353.971 Z-1.500 I-1.585 J0.000 F2500.000
G2 X388.612 Y353.971 Z-3.000 I1.585 J0.000 F2500.000
G2 X385.442 Y353.971 Z-4.500 I-1.585 J0.000 F2500.000
G2 X388.612 Y353.971 Z-6.000 I1.585 J0.000 F2500.000
G2 X385.442 Y353.971 Z-7.500 I-1.585 J0.000 F2500.000
G2 X388.612 Y353.971 Z-9.000 I1.585 J0.000 F2500.000
G2 X385.442 Y353.971 Z-10.500 I-1.585 J0.000 F2500.000
G2 X388.612 Y353.971 Z-12.000 I1.585 J0.000 F2500.000
G2 X385.442 Y353.971 Z-13.500 I-1.585 J0.000 F2500.000
G2 X388.612 Y353.971 Z-15.000 I1.585 J0.000 F2500.000
G2 X385.442 Y353.971 Z-16.500 I-1.585 J0.000 F2500.000
G2 X388.612 Y353.971 Z-18.000 I1.585 J0.000 F2500.000
G2 X385.442 Y353.971 Z-18.000 I-1.585 J0.000 F2500.000
G2 X388.612 Y353.971 Z-18.000 I1.585 J0.000 F2500.000
G0 Z0.000
G0 Z5.000
G0 X287.027 Y562.643 Z5.000
G0 X287.027 Y562.643 Z0.000
G0 X289.942 Y562.643
G1 Z0.000 F1000.000
G2 X284.112 Y562.643 Z-1.500 I-2.915 J0.000 F2500.000
G2 X289.942 Y562.643 Z-3.000 I2.915 J0.000 F2500.000
G2 X284.112 Y562.643 Z-4.500 I-2.915 J0.000 F2500.000
G2 X289.942 Y562.643 Z-6.000 I2.915 J0.000 F2500.000
G2 X284.112 Y562.643 Z-7.500 I-2.915 J0.000 F2500.000
G2 X289.942 Y562.643 Z-9.000 I2.915 J0.000 F2500.000
G2 X284.112 Y562.643 Z-10.500 I-2.915 J0.000 F2500.000
G2 X289.942 Y562.643 Z-12.000 I2.915 J0.000 F2500.000
G2 X284.112 Y562.643 Z-13.500 I-2.915 J0.000 F2500.000
G2 X289.942 Y562.643 Z-15.000 I2.915 J0.000 F2500.000
G2 X284.112 Y562.643 Z-16.500 I-2.915 J0.000 F2500.000
G2 X289.942 Y562.643 Z-18.000 I2.915 J0.000 F2500.000
G2 X284.112 Y562.643 Z-18.000 I-2.915 J0.000 F2500.000
G2 X289.942 Y562.643 Z-18.000 I2.915 J0.000 F2500.000
G0 Z0.000
G0 X288.612 Y562.643
G1 Z0.000 F1000.000
G2 X285.442 Y562.643 Z-1.500 I-1.585 J0.000 F2500.000
G2 X288.612 Y562.643 Z-3.000 I1.585 J0.000 F2500.000
G2 X285.442 Y562.643 Z-4.500 I-1.585 J0.000 F2500.000
G2 X288.612 Y562.643 Z-6.000 I1.585 J0.000 F2500.000
G2 X285.442 Y562.643 Z-7.500 I-1.585 J0.000 F2500.000
G2 X288.612 Y562.643 Z-9.000 I1.585 J0.000 F2500.000
G2 X285.442 Y562.643 Z-10.500 I-1.585 J0.000 F2500.000
G2 X288.612 Y562.643 Z-12.000 I1.585 J0.000 F2500.000
G2 X285.442 Y562.643 Z-13.500 I-1.585 J0.000 F2500.000
G2 X288.612 Y562.643 Z-15.000 I1.585 J0.000 F2500.000
G2 X285.442 Y562.643 Z-16.500 I-1.585 J0.000 F2500.000
G2 X288.612 Y562.643 Z-18.000 I1.585 J0.000 F2500.000
G2 X285.442 Y562.643 Z-18.000 I-1.585 J0.000 F2500.000
G2 X288.612 Y562.643 Z-18.000 I1.585 J0.000 F2500.000
G0 Z0.000
G0 Z5.000
G0 X187.027 Y562.643 Z5.000
G0 X187.027 Y562.643 Z0.000
G0 X189.942 Y562.643
G1 Z0.000 F1000.000
G2 X184.112 Y562.643 Z-1.500 I-2.915 J0.000 F2500.000
G2 X189.942 Y562.643 Z-3.000 I2.915 J0.000 F2500.000
G2 X184.112 Y562.643 Z-4.500 I-2.915 J0.000 F2500.000
G2 X189.942 Y562.643 Z-6.000 I2.915 J0.000 F2500.000
G2 X184.112 Y562.643 Z-7.500 I-2.915 J0.000 F2500.000
G2 X189.942 Y562.643 Z-9.000 I2.915 J0.000 F2500.000
G2 X184.112 Y562.643 Z-10.500 I-2.915 J0.000 F2500.000
G2 X189.942 Y562.643 Z-12.000 I2.915 J0.000 F2500.000
G2 X184.112 Y562.643 Z-13.500 I-2.915 J0.000 F2500.000
G2 X189.942 Y562.643 Z-15.000 I2.915 J0.000 F2500.000
G2 X184.112 Y562.643 Z-16.500 I-2.915 J0.000 F2500.000
G2 X189.942 Y562.643 Z-18.000 I2.915 J0.000 F2500.000
G2 X184.112 Y562.643 Z-18.000 I-2.915 J0.000 F2500.000
G2 X189.942 Y562.643 Z-18.000 I2.915 J0.000 F2500.000
G0 Z0.000
G0 X188.612 Y562.643
G1 Z0.000 F1000.000
G2 X185.442 Y562.643 Z-1.500 I-1.585 J0.000 F2500.000
G2 X188.612 Y562.643 Z-3.000 I1.585 J0.000 F2500.000
G2 X185.442 Y562.643 Z-4.500 I-1.585 J0.000 F2500.000
G2 X188.612 Y562.643 Z-6.000 I1.585 J0.000 F2500.000
G2 X185.442 Y562.643 Z-7.500 I-1.585 J0.000 F2500.000
G2 X188.612 Y562.643 Z-9.000 I1.585 J0.000 F2500.000
G2 X185.442 Y562.643 Z-10.500 I-1.585 J0.000 F2500.000
G2 X188.612 Y562.643 Z-12.000 I1.585 J0.000 F2500.000
G2 X185.442 Y562.643 Z-13.500 I-1.585 J0.000 F2500.000
G2 X188.612 Y562.643 Z-15.000 I1.585 J0.000 F2500.000
G2 X185.442 Y562.643 Z-16.500 I-1.585 J0.000 F2500.000
G2 X188.612 Y562.643 Z-18.000 I1.585 J0.000 F2500.000
G2 X185.442 Y562.643 Z-18.000 I-1.585 J0.000 F2500.000
G2 X188.612 Y562.643 Z-18.000 I1.585 J0.000 F2500.000
G0 Z0.000
G0 Z5.000
G0 X87.027 Y353.971 Z5.000
G0 X87.027 Y353.971 Z0.000
G0 X89.942 Y353.971
G1 Z0.000 F1000.000
G2 X84.112 Y353.971 Z-1.500 I-2.915 J0.000 F2500.000
G2 X89.942 Y353.971 Z-3.000 I2.915 J0.000 F2500.000
G2 X84.112 Y353.971 Z-4.500 I-2.915 J0.000 F2500.000
G2 X89.942 Y353.971 Z-6.000 I2.915 J0.000 F2500.000
G2 X84.112 Y353.971 Z-7.500 I-2.915 J0.000 F2500.000
G2 X89.942 Y353.971 Z-9.000 I2.915 J0.000 F2500.000
G2 X84.112 Y353.971 Z-10.500 I-2.915 J0.000 F2500.000
G2 X89.942 Y353.971 Z-12.000 I2.915 J0.000 F2500.000
G2 X84.112 Y353.971 Z-13.500 I-2.915 J0.000 F2500.000
G2 X89.942 Y353.971 Z-15.000 I2.915 J0.000 F2500.000
G2 X84.112 Y353.971 Z-16.500 I-2.915 J0.000 F2500.000
G2 X89.942 Y353.971 Z-18.000 I2.915 J0.000 F2500.000
G2 X84.112 Y353.971 Z-18.000 I-2.915 J0.000 F2500.000
G2 X89.942 Y353.971 Z-18.000 I2.915 J0.000 F2500.000
G0 Z0.000
G0 X88.612 Y353.971
G1 Z0.000 F1000.000
G2 X85.442 Y353.971 Z-1.500 I-1.585 J0.000 F2500.000
G2 X88.612 Y353.971 Z-3.000 I1.585 J0.000 F2500.000
G2 X85.442 Y353.971 Z-4.500 I-1.585 J0.000 F2500.000
G2 X88.612 Y353.971 Z-6.000 I1.585 J0.000 F2500.000
G2 X85.442 Y353.971 Z-7.500 I-1.585 J0.000 F2500.000
G2 X88.612 Y353.971 Z-9.000 I1.585 J0.000 F2500.000
G2 X85.442 Y353.971 Z-10.500 I-1.585 J0.000 F2500.000
G2 X88.612 Y353.971 Z-12.000 I1.585 J0.000 F2500.000
G2 X85.442 Y353.971 Z-13.500 I-1.585 J0.000 F2500.000
G2 X88.612 Y353.971 Z-15.000 I1.585 J0.000 F2500.000
G2 X85.442 Y353.971 Z-16.500 I-1.585 J0.000 F2500.000
G2 X88.612 Y353.971 Z-18.000 I1.585 J0.000 F2500.000
G2 X85.442 Y353.971 Z-18.000 I-1.585 J0.000 F2500.000
G2 X88.612 Y353.971 Z-18.000 I1.585 J0.000 F2500.000
G0 Z0.000
G0 Z5.000
(Finish operation: Helix)
(Begin postamble)
M5
G17 G90
M2
