(Exported by FreeCAD)
(Post Processor: grbl_post)
(Output Time:2023-05-30 10:49:56.611668)
(Begin preamble)
G17 G90
G21
(Begin operation: 6 ball L24 Q008)
(Path: 6 ball L24 Q008)
(6 ball L24 Q008)
(Begin toolchange)
( M6 T4 )
M3 S24000
(Finish operation: 6 ball L24 Q008)
(Begin operation: Fixture)
(Path: Fixture)
G54
G0 Z5.000
(Finish operation: Fixture)
(Begin operation: Surface001)
(Path: Surface001)
(Surface001)
(Surface001)
(Tool type: ballend)
(Compensated Tool Path. Diameter: 6.0)
(Sample interval: 1.0)
(Step over %: 25.0)
()
G0 Z5.000
(Beginning of Single-pass layer.)
G0 X50.502 Y49.498
(Begin step 0.)
(part 1.)
G1 X50.502 Y49.498 Z-2.119 F2500.000
G1 X50.502 Y50.498 Z-2.111 F2500.000
G1 X50.502 Y275.498 Z-0.381 F2500.000
G1 X50.307 Y275.502 Z-0.381 F2500.000
G1 X49.507 Y275.502 Z-0.381 F2500.000
G1 X49.498 Y275.311 Z-0.382 F2500.000
G1 X49.498 Y49.511 Z-2.119 F2500.000
G1 X49.684 Y49.498 Z-2.119 F2500.000
G1 X50.502 Y49.498 Z-2.119 F2500.000
(Break)
G1 X52.002 Y47.998 Z-2.131 F2500.000
(part 3.)
G1 X52.002 Y47.998 Z-2.131 F2500.000
G1 X52.002 Y48.998 Z-2.123 F2500.000
G1 X52.002 Y276.998 Z-0.369 F2500.000
G1 X51.807 Y277.002 Z-0.369 F2500.000
G1 X48.007 Y277.002 Z-0.369 F2500.000
G1 X47.998 Y276.811 Z-0.371 F2500.000
G1 X47.998 Y48.011 Z-2.131 F2500.000
G1 X48.184 Y47.998 Z-2.131 F2500.000
G1 X52.002 Y47.998 Z-2.131 F2500.000
(Break)
G1 X53.502 Y46.498 Z-2.142 F2500.000
(part 5.)
G1 X53.502 Y46.498 Z-2.142 F2500.000
G1 X53.502 Y47.498 Z-2.135 F2500.000
G1 X53.502 Y278.498 Z-0.358 F2500.000
G1 X53.307 Y278.502 Z-0.358 F2500.000
G1 X46.507 Y278.502 Z-0.358 F2500.000
G1 X46.498 Y278.311 Z-0.359 F2500.000
G1 X46.498 Y46.511 Z-2.142 F2500.000
G1 X46.684 Y46.498 Z-2.142 F2500.000
G1 X53.502 Y46.498 Z-2.142 F2500.000
(Break)
G1 X55.002 Y44.998 Z-2.154 F2500.000
(part 7.)
G1 X55.002 Y44.998 Z-2.154 F2500.000
G1 X55.002 Y45.994 Z-2.146 F2500.000
G1 X55.002 Y279.998 Z-0.346 F2500.000
G1 X54.807 Y280.002 Z-0.346 F2500.000
G1 X45.007 Y280.002 Z-0.346 F2500.000
G1 X44.998 Y279.811 Z-0.348 F2500.000
G1 X44.998 Y45.011 Z-2.154 F2500.000
G1 X45.184 Y44.998 Z-2.154 F2500.000
G1 X55.002 Y44.998 Z-2.154 F2500.000
(Break)
G1 X56.502 Y43.498 Z-2.165 F2500.000
(part 9.)
G1 X56.502 Y43.498 Z-2.165 F2500.000
G1 X56.502 Y44.498 Z-2.158 F2500.000
G1 X56.502 Y281.498 Z-0.335 F2500.000
G1 X56.307 Y281.502 Z-0.335 F2500.000
G1 X43.507 Y281.502 Z-0.335 F2500.000
G1 X43.498 Y281.311 Z-0.336 F2500.000
G1 X43.498 Y43.511 Z-2.165 F2500.000
G1 X43.684 Y43.498 Z-2.165 F2500.000
G1 X56.502 Y43.498 Z-2.165 F2500.000
(Break)
G1 X58.002 Y41.998 Z-2.177 F2500.000
(part 11.)
G1 X58.002 Y41.998 Z-2.177 F2500.000
G1 X58.002 Y42.994 Z-2.169 F2500.000
G1 X58.002 Y282.998 Z-0.323 F2500.000
G1 X57.807 Y283.002 Z-0.323 F2500.000
G1 X42.007 Y283.002 Z-0.323 F2500.000
G1 X41.998 Y282.811 Z-0.324 F2500.000
G1 X41.998 Y42.011 Z-2.177 F2500.000
G1 X42.184 Y41.998 Z-2.177 F2500.000
G1 X58.002 Y41.998 Z-2.177 F2500.000
(Break)
G1 X59.502 Y40.498 Z-2.188 F2500.000
(part 13.)
G1 X59.502 Y40.498 Z-2.188 F2500.000
G1 X59.502 Y41.498 Z-2.181 F2500.000
G1 X59.502 Y284.498 Z-0.311 F2500.000
G1 X59.307 Y284.502 Z-0.311 F2500.000
G1 X40.507 Y284.502 Z-0.311 F2500.000
G1 X40.498 Y284.311 Z-0.313 F2500.000
G1 X40.498 Y40.511 Z-2.188 F2500.000
G1 X40.684 Y40.498 Z-2.188 F2500.000
G1 X59.502 Y40.498 Z-2.188 F2500.000
(Break)
G1 X61.002 Y38.998 Z-2.200 F2500.000
(part 15.)
G1 X61.002 Y38.998 Z-2.200 F2500.000
G1 X61.002 Y39.998 Z-2.192 F2500.000
G1 X61.002 Y285.998 Z-0.300 F2500.000
G1 X60.807 Y286.002 Z-0.300 F2500.000
G1 X39.007 Y286.002 Z-0.300 F2500.000
G1 X38.998 Y285.811 Z-0.301 F2500.000
G1 X38.998 Y39.011 Z-2.200 F2500.000
G1 X39.184 Y38.998 Z-2.200 F2500.000
G1 X61.002 Y38.998 Z-2.200 F2500.000
(Break)
G1 X62.502 Y37.498 Z-2.211 F2500.000
(part 17.)
G1 X62.502 Y37.498 Z-2.211 F2500.000
G1 X62.502 Y38.498 Z-2.204 F2500.000
G1 X62.502 Y287.498 Z-0.288 F2500.000
G1 X62.307 Y287.502 Z-0.288 F2500.000
G1 X37.507 Y287.502 Z-0.288 F2500.000
G1 X37.498 Y287.311 Z-0.290 F2500.000
G1 X37.498 Y37.511 Z-2.211 F2500.000
G1 X37.684 Y37.498 Z-2.211 F2500.000
G1 X62.502 Y37.498 Z-2.211 F2500.000
(Break)
G1 X64.002 Y35.998 Z-2.223 F2500.000
(part 19.)
G1 X64.002 Y35.998 Z-2.223 F2500.000
G1 X64.002 Y36.994 Z-2.215 F2500.000
G1 X64.002 Y288.998 Z-0.277 F2500.000
G1 X63.807 Y289.002 Z-0.277 F2500.000
G1 X36.007 Y289.002 Z-0.277 F2500.000
G1 X35.998 Y288.811 Z-0.278 F2500.000
G1 X35.998 Y36.011 Z-2.223 F2500.000
G1 X36.184 Y35.998 Z-2.223 F2500.000
G1 X64.002 Y35.998 Z-2.223 F2500.000
(Break)
G1 X65.502 Y34.498 Z-2.235 F2500.000
(part 21.)
G1 X65.502 Y34.498 Z-2.235 F2500.000
G1 X65.502 Y35.494 Z-2.227 F2500.000
G1 X65.502 Y290.498 Z-0.265 F2500.000
G1 X65.307 Y290.502 Z-0.265 F2500.000
G1 X34.507 Y290.502 Z-0.265 F2500.000
G1 X34.498 Y290.311 Z-0.267 F2500.000
G1 X34.498 Y34.511 Z-2.234 F2500.000
G1 X34.684 Y34.498 Z-2.235 F2500.000
G1 X65.502 Y34.498 Z-2.235 F2500.000
(Break)
G1 X67.002 Y32.998 Z-2.246 F2500.000
(part 23.)
G1 X67.002 Y32.998 Z-2.246 F2500.000
G1 X67.002 Y33.994 Z-2.238 F2500.000
G1 X67.002 Y291.998 Z-0.254 F2500.000
G1 X66.807 Y292.002 Z-0.254 F2500.000
G1 X33.007 Y292.002 Z-0.254 F2500.000
G1 X32.998 Y291.811 Z-0.255 F2500.000
G1 X32.998 Y33.011 Z-2.246 F2500.000
G1 X33.184 Y32.998 Z-2.246 F2500.000
G1 X67.002 Y32.998 Z-2.246 F2500.000
(Break)
G1 X68.502 Y31.498 Z-2.258 F2500.000
(part 25.)
G1 X68.502 Y31.498 Z-2.258 F2500.000
G1 X68.502 Y32.498 Z-2.250 F2500.000
G1 X68.502 Y293.498 Z-0.242 F2500.000
G1 X68.307 Y293.502 Z-0.242 F2500.000
G1 X31.507 Y293.502 Z-0.242 F2500.000
G1 X31.498 Y293.311 Z-0.244 F2500.000
G1 X31.498 Y31.511 Z-2.258 F2500.000
G1 X31.684 Y31.498 Z-2.258 F2500.000
G1 X68.502 Y31.498 Z-2.258 F2500.000
(Break)
G1 X70.002 Y29.998 Z-2.269 F2500.000
(part 27.)
G1 X70.002 Y29.998 Z-2.269 F2500.000
G1 X70.002 Y30.998 Z-2.261 F2500.000
G1 X70.002 Y294.998 Z-0.231 F2500.000
G1 X69.807 Y295.002 Z-0.231 F2500.000
G1 X30.007 Y295.002 Z-0.231 F2500.000
G1 X29.998 Y294.811 Z-0.232 F2500.000
G1 X29.998 Y30.011 Z-2.269 F2500.000
G1 X30.184 Y29.998 Z-2.269 F2500.000
G1 X70.002 Y29.998 Z-2.269 F2500.000
(Break)
G1 X71.502 Y28.498 Z-2.281 F2500.000
(part 29.)
G1 X71.502 Y28.498 Z-2.281 F2500.000
G1 X71.502 Y29.494 Z-2.273 F2500.000
G1 X71.502 Y296.498 Z-0.219 F2500.000
G1 X71.307 Y296.502 Z-0.219 F2500.000
G1 X28.507 Y296.502 Z-0.219 F2500.000
G1 X28.498 Y296.311 Z-0.221 F2500.000
G1 X28.498 Y28.511 Z-2.281 F2500.000
G1 X28.684 Y28.498 Z-2.281 F2500.000
G1 X71.502 Y28.498 Z-2.281 F2500.000
(Break)
G1 X73.002 Y26.998 Z-2.292 F2500.000
(part 31.)
G1 X73.002 Y26.998 Z-2.292 F2500.000
G1 X73.002 Y27.998 Z-2.285 F2500.000
G1 X73.002 Y297.998 Z-0.208 F2500.000
G1 X72.807 Y298.002 Z-0.208 F2500.000
G1 X27.007 Y298.002 Z-0.208 F2500.000
G1 X26.998 Y297.811 Z-0.209 F2500.000
G1 X26.998 Y27.011 Z-2.292 F2500.000
G1 X27.184 Y26.998 Z-2.292 F2500.000
G1 X73.002 Y26.998 Z-2.292 F2500.000
(Break)
G1 X74.502 Y25.498 Z-2.304 F2500.000
(part 33.)
G1 X74.502 Y25.498 Z-2.304 F2500.000
G1 X74.502 Y26.498 Z-2.296 F2500.000
G1 X74.502 Y299.498 Z-0.196 F2500.000
G1 X74.307 Y299.502 Z-0.196 F2500.000
G1 X25.507 Y299.502 Z-0.196 F2500.000
G1 X25.498 Y299.311 Z-0.198 F2500.000
G1 X25.498 Y25.511 Z-2.304 F2500.000
G1 X25.684 Y25.498 Z-2.304 F2500.000
G1 X74.502 Y25.498 Z-2.304 F2500.000
(Break)
G1 X76.002 Y23.998 Z-2.315 F2500.000
(part 35.)
G1 X76.002 Y23.998 Z-2.315 F2500.000
G1 X76.002 Y24.998 Z-2.308 F2500.000
G1 X76.002 Y300.998 Z-0.185 F2500.000
G1 X75.807 Y301.002 Z-0.185 F2500.000
G1 X24.007 Y301.002 Z-0.185 F2500.000
G1 X23.998 Y300.811 Z-0.186 F2500.000
G1 X23.998 Y24.011 Z-2.315 F2500.000
G1 X24.184 Y23.998 Z-2.315 F2500.000
G1 X76.002 Y23.998 Z-2.315 F2500.000
(Break)
G1 X77.502 Y22.498 Z-2.327 F2500.000
(part 37.)
G1 X77.502 Y22.498 Z-2.327 F2500.000
G1 X77.502 Y23.498 Z-2.319 F2500.000
G1 X77.502 Y302.498 Z-0.173 F2500.000
G1 X77.307 Y302.502 Z-0.173 F2500.000
G1 X22.507 Y302.502 Z-0.173 F2500.000
G1 X22.498 Y302.311 Z-0.174 F2500.000
G1 X22.498 Y22.511 Z-2.327 F2500.000
G1 X22.684 Y22.498 Z-2.327 F2500.000
G1 X77.502 Y22.498 Z-2.327 F2500.000
(Break)
G1 X79.002 Y20.998 Z-2.338 F2500.000
(part 39.)
G1 X79.002 Y20.998 Z-2.338 F2500.000
G1 X79.002 Y21.994 Z-2.331 F2500.000
G1 X79.002 Y303.998 Z-0.161 F2500.000
G1 X78.807 Y304.002 Z-0.161 F2500.000
G1 X21.007 Y304.002 Z-0.161 F2500.000
G1 X20.998 Y303.811 Z-0.163 F2500.000
G1 X20.998 Y21.011 Z-2.338 F2500.000
G1 X21.184 Y20.998 Z-2.338 F2500.000
G1 X79.002 Y20.998 Z-2.338 F2500.000
(Break)
G1 X80.502 Y19.498 Z-2.350 F2500.000
(part 41.)
G1 X80.502 Y19.498 Z-2.350 F2500.000
G1 X80.502 Y20.494 Z-2.342 F2500.000
G1 X80.502 Y305.498 Z-0.150 F2500.000
G1 X80.307 Y305.502 Z-0.150 F2500.000
G1 X19.507 Y305.502 Z-0.150 F2500.000
G1 X19.498 Y305.311 Z-0.151 F2500.000
G1 X19.498 Y19.511 Z-2.350 F2500.000
G1 X19.684 Y19.498 Z-2.350 F2500.000
G1 X80.502 Y19.498 Z-2.350 F2500.000
(Break)
G1 X82.002 Y17.998 Z-2.361 F2500.000
(part 43.)
G1 X82.002 Y17.998 Z-2.361 F2500.000
G1 X82.002 Y18.998 Z-2.354 F2500.000
G1 X82.002 Y306.998 Z-0.138 F2500.000
G1 X81.807 Y307.002 Z-0.138 F2500.000
G1 X18.007 Y307.002 Z-0.138 F2500.000
G1 X17.998 Y306.811 Z-0.140 F2500.000
G1 X17.998 Y18.011 Z-2.361 F2500.000
G1 X18.184 Y17.998 Z-2.361 F2500.000
G1 X82.002 Y17.998 Z-2.361 F2500.000
(Break)
G1 X83.502 Y16.498 Z-2.373 F2500.000
(part 45.)
G1 X83.502 Y16.498 Z-2.373 F2500.000
G1 X83.502 Y17.494 Z-2.365 F2500.000
G1 X83.502 Y308.498 Z-0.127 F2500.000
G1 X83.307 Y308.502 Z-0.127 F2500.000
G1 X16.507 Y308.502 Z-0.127 F2500.000
G1 X16.498 Y308.311 Z-0.128 F2500.000
G1 X16.498 Y16.511 Z-2.373 F2500.000
G1 X16.684 Y16.498 Z-2.373 F2500.000
G1 X83.502 Y16.498 Z-2.373 F2500.000
(Break)
G1 X85.002 Y14.998 Z-2.385 F2500.000
(part 47.)
G1 X85.002 Y14.998 Z-2.385 F2500.000
G1 X85.002 Y15.998 Z-2.377 F2500.000
G1 X85.002 Y309.998 Z-0.115 F2500.000
G1 X84.807 Y310.002 Z-0.115 F2500.000
G1 X15.007 Y310.002 Z-0.115 F2500.000
G1 X14.998 Y309.811 Z-0.117 F2500.000
G1 X14.998 Y15.011 Z-2.384 F2500.000
G1 X15.184 Y14.998 Z-2.385 F2500.000
G1 X85.002 Y14.998 Z-2.385 F2500.000
(Break)
G1 X86.502 Y13.498 Z-2.396 F2500.000
(part 49.)
G1 X86.502 Y13.498 Z-2.396 F2500.000
G1 X86.502 Y14.494 Z-2.388 F2500.000
G1 X86.502 Y311.498 Z-0.104 F2500.000
G1 X86.307 Y311.502 Z-0.104 F2500.000
G1 X13.507 Y311.502 Z-0.104 F2500.000
G1 X13.498 Y311.311 Z-0.105 F2500.000
G1 X13.498 Y13.511 Z-2.396 F2500.000
G1 X13.684 Y13.498 Z-2.396 F2500.000
G1 X86.502 Y13.498 Z-2.396 F2500.000
(Break)
G1 X88.002 Y11.998 Z-2.408 F2500.000
(part 51.)
G1 X88.002 Y11.998 Z-2.408 F2500.000
G1 X88.002 Y12.998 Z-2.400 F2500.000
G1 X88.002 Y312.998 Z-0.092 F2500.000
G1 X87.807 Y313.002 Z-0.092 F2500.000
G1 X12.007 Y313.002 Z-0.092 F2500.000
G1 X11.998 Y312.811 Z-0.094 F2500.000
G1 X11.998 Y12.011 Z-2.408 F2500.000
G1 X12.184 Y11.998 Z-2.408 F2500.000
G1 X88.002 Y11.998 Z-2.408 F2500.000
(Break)
G1 X89.502 Y10.498 Z-2.419 F2500.000
(part 53.)
G1 X89.502 Y10.498 Z-2.419 F2500.000
G1 X89.502 Y11.494 Z-2.411 F2500.000
G1 X89.502 Y314.498 Z-0.081 F2500.000
G1 X89.307 Y314.502 Z-0.081 F2500.000
G1 X10.507 Y314.502 Z-0.081 F2500.000
G1 X10.498 Y314.311 Z-0.082 F2500.000
G1 X10.498 Y10.511 Z-2.419 F2500.000
G1 X10.684 Y10.498 Z-2.419 F2500.000
G1 X89.502 Y10.498 Z-2.419 F2500.000
(Break)
G1 X91.002 Y8.998 Z-2.431 F2500.000
(part 55.)
G1 X91.002 Y8.998 Z-2.431 F2500.000
G1 X91.002 Y9.995 Z-2.423 F2500.000
G1 X91.002 Y315.998 Z-0.069 F2500.000
G1 X90.807 Y316.002 Z-0.069 F2500.000
G1 X9.007 Y316.002 Z-0.069 F2500.000
G1 X8.998 Y315.811 Z-0.071 F2500.000
G1 X8.998 Y9.011 Z-2.431 F2500.000
G1 X9.184 Y8.998 Z-2.431 F2500.000
G1 X91.002 Y8.998 Z-2.431 F2500.000
(Break)
G1 X92.502 Y7.498 Z-2.442 F2500.000
(part 57.)
G1 X92.502 Y7.498 Z-2.442 F2500.000
G1 X92.502 Y8.498 Z-2.435 F2500.000
G1 X92.502 Y317.498 Z-0.058 F2500.000
G1 X92.307 Y317.502 Z-0.058 F2500.000
G1 X7.507 Y317.502 Z-0.058 F2500.000
G1 X7.498 Y317.311 Z-0.059 F2500.000
G1 X7.498 Y7.511 Z-2.442 F2500.000
G1 X7.684 Y7.498 Z-2.442 F2500.000
G1 X92.502 Y7.498 Z-2.442 F2500.000
(Break)
G1 X94.002 Y5.998 Z-2.454 F2500.000
(part 59.)
G1 X94.002 Y5.998 Z-2.454 F2500.000
G1 X94.002 Y6.995 Z-2.446 F2500.000
G1 X94.002 Y318.998 Z-0.046 F2500.000
G1 X93.807 Y319.002 Z-0.046 F2500.000
G1 X6.007 Y319.002 Z-0.046 F2500.000
G1 X5.998 Y318.811 Z-0.048 F2500.000
G1 X5.998 Y6.011 Z-2.454 F2500.000
G1 X6.184 Y5.998 Z-2.454 F2500.000
G1 X94.002 Y5.998 Z-2.454 F2500.000
(Break)
G1 X95.502 Y4.498 Z-2.465 F2500.000
(part 61.)
G1 X95.502 Y4.498 Z-2.465 F2500.000
G1 X95.502 Y5.495 Z-2.458 F2500.000
G1 X95.502 Y319.698 Z-0.041 F2500.000
G1 X95.501 Y319.898 Z-0.039 F2500.000
G1 X95.485 Y320.097 Z-0.038 F2500.000
G1 X95.408 Y320.280 Z-0.036 F2500.000
G1 X95.265 Y320.418 Z-0.035 F2500.000
G1 X95.079 Y320.488 Z-0.035 F2500.000
G1 X94.880 Y320.502 Z-0.035 F2500.000
G1 X5.280 Y320.502 Z-0.035 F2500.000
G1 X5.080 Y320.500 Z-0.035 F2500.000
G1 X4.881 Y320.480 Z-0.035 F2500.000
G1 X4.702 Y320.395 Z-0.035 F2500.000
G1 X4.571 Y320.246 Z-0.036 F2500.000
G1 X4.508 Y320.058 Z-0.038 F2500.000
G1 X4.498 Y319.858 Z-0.039 F2500.000
G1 X4.498 Y4.658 Z-2.464 F2500.000
G1 X4.538 Y4.498 Z-2.465 F2500.000
G1 X95.502 Y4.498 Z-2.465 F2500.000
(Break)
G1 X97.002 Y2.998 Z-2.477 F2500.000
(part 63.)
G1 X97.002 Y2.998 Z-2.477 F2500.000
G1 X97.002 Y3.997 Z-2.469 F2500.000
G1 X97.002 Y319.798 Z-0.040 F2500.000
G1 X96.998 Y319.998 Z-0.038 F2500.000
G1 X96.986 Y320.197 Z-0.037 F2500.000
G1 X96.956 Y320.395 Z-0.035 F2500.000
G1 X96.906 Y320.588 Z-0.034 F2500.000
G1 X96.837 Y320.776 Z-0.032 F2500.000
G1 X96.751 Y320.956 Z-0.031 F2500.000
G1 X96.646 Y321.126 Z-0.030 F2500.000
G1 X96.526 Y321.285 Z-0.028 F2500.000
G1 X96.390 Y321.432 Z-0.027 F2500.000
G1 X96.241 Y321.565 Z-0.026 F2500.000
G1 X96.078 Y321.681 Z-0.025 F2500.000
G1 X95.904 Y321.779 Z-0.025 F2500.000
G1 X95.721 Y321.860 Z-0.024 F2500.000
G1 X95.531 Y321.922 Z-0.024 F2500.000
G1 X95.336 Y321.966 Z-0.023 F2500.000
G1 X95.138 Y321.990 Z-0.023 F2500.000
G1 X94.939 Y322.001 Z-0.023 F2500.000
G1 X5.139 Y322.002 Z-0.023 F2500.000
G1 X4.939 Y321.994 Z-0.023 F2500.000
G1 X4.740 Y321.979 Z-0.023 F2500.000
G1 X4.543 Y321.944 Z-0.023 F2500.000
G1 X4.351 Y321.888 Z-0.024 F2500.000
G1 X4.165 Y321.813 Z-0.024 F2500.000
G1 X3.989 Y321.720 Z-0.025 F2500.000
G1 X3.822 Y321.610 Z-0.026 F2500.000
G1 X3.667 Y321.484 Z-0.027 F2500.000
G1 X3.525 Y321.343 Z-0.028 F2500.000
G1 X3.398 Y321.189 Z-0.029 F2500.000
G1 X3.287 Y321.023 Z-0.031 F2500.000
G1 X3.192 Y320.847 Z-0.032 F2500.000
G1 X3.116 Y320.662 Z-0.033 F2500.000
G1 X3.060 Y320.470 Z-0.035 F2500.000
G1 X3.024 Y320.274 Z-0.036 F2500.000
G1 X3.007 Y320.075 Z-0.038 F2500.000
G1 X2.998 Y319.875 Z-0.039 F2500.000
G1 X2.998 Y3.075 Z-2.476 F2500.000
G1 X3.121 Y2.998 Z-2.477 F2500.000
G1 X97.002 Y2.998 Z-2.477 F2500.000
(Break)
G1 X98.502 Y1.498 Z-2.488 F2500.000
(part 65.)
G1 X98.502 Y1.498 Z-2.488 F2500.000
G1 X98.502 Y2.496 Z-2.481 F2500.000
G1 X98.502 Y319.898 Z-0.039 F2500.000
G1 X98.483 Y320.297 Z-0.036 F2500.000
G1 X98.460 Y320.496 Z-0.035 F2500.000
G1 X98.427 Y320.693 Z-0.033 F2500.000
G1 X98.381 Y320.887 Z-0.032 F2500.000
G1 X98.326 Y321.079 Z-0.030 F2500.000
G1 X98.257 Y321.267 Z-0.029 F2500.000
G1 X98.181 Y321.452 Z-0.027 F2500.000
G1 X98.091 Y321.630 Z-0.026 F2500.000
G1 X97.995 Y321.805 Z-0.024 F2500.000
G1 X97.885 Y321.972 Z-0.023 F2500.000
G1 X97.769 Y322.135 Z-0.022 F2500.000
G1 X97.641 Y322.289 Z-0.021 F2500.000
G1 X97.508 Y322.438 Z-0.020 F2500.000
G1 X97.363 Y322.575 Z-0.019 F2500.000
G1 X97.214 Y322.708 Z-0.018 F2500.000
G1 X97.053 Y322.828 Z-0.017 F2500.000
G1 X96.890 Y322.943 Z-0.016 F2500.000
G1 X96.542 Y323.140 Z-0.014 F2500.000
G1 X96.174 Y323.296 Z-0.013 F2500.000
G1 X95.790 Y323.409 Z-0.012 F2500.000
G1 X95.594 Y323.444 Z-0.012 F2500.000
G1 X95.396 Y323.477 Z-0.012 F2500.000
G1 X94.997 Y323.500 Z-0.011 F2500.000
G1 X5.197 Y323.502 Z-0.011 F2500.000
G1 X4.997 Y323.500 Z-0.011 F2500.000
G1 X4.598 Y323.476 Z-0.012 F2500.000
G1 X4.204 Y323.407 Z-0.012 F2500.000
G1 X4.012 Y323.352 Z-0.013 F2500.000
G1 X3.821 Y323.294 Z-0.013 F2500.000
G1 X3.453 Y323.137 Z-0.014 F2500.000
G1 X3.105 Y322.940 Z-0.016 F2500.000
G1 X2.942 Y322.824 Z-0.017 F2500.000
G1 X2.782 Y322.704 Z-0.018 F2500.000
G1 X2.633 Y322.571 Z-0.019 F2500.000
G1 X2.488 Y322.433 Z-0.020 F2500.000
G1 X2.355 Y322.284 Z-0.021 F2500.000
G1 X2.227 Y322.131 Z-0.022 F2500.000
G1 X2.112 Y321.968 Z-0.023 F2500.000
G1 X2.002 Y321.800 Z-0.025 F2500.000
G1 X1.906 Y321.625 Z-0.026 F2500.000
G1 X1.817 Y321.446 Z-0.027 F2500.000
G1 X1.740 Y321.262 Z-0.029 F2500.000
G1 X1.673 Y321.074 Z-0.030 F2500.000
G1 X1.617 Y320.882 Z-0.032 F2500.000
G1 X1.572 Y320.687 Z-0.033 F2500.000
G1 X1.539 Y320.490 Z-0.035 F2500.000
G1 X1.516 Y320.291 Z-0.036 F2500.000
G1 X1.498 Y319.892 Z-0.039 F2500.000
G1 X1.498 Y1.692 Z-2.487 F2500.000
G1 X1.504 Y1.498 Z-2.488 F2500.000
G1 X98.502 Y1.498 Z-2.488 F2500.000
(Break)
G1 X99.988 Y-0.002 Z-2.500 F2500.000
(part 67.)
G1 X99.988 Y-0.002 Z-2.500 F2500.000
G1 X100.002 Y0.184 Z-2.498 F2500.000
G1 X100.002 Y319.984 Z-0.038 F2500.000
G1 X99.967 Y320.583 Z-0.034 F2500.000
G1 X99.900 Y320.977 Z-0.031 F2500.000
G1 X99.860 Y321.173 Z-0.029 F2500.000
G1 X99.749 Y321.557 Z-0.026 F2500.000
G1 X99.683 Y321.746 Z-0.025 F2500.000
G1 X99.530 Y322.115 Z-0.022 F2500.000
G1 X99.439 Y322.293 Z-0.021 F2500.000
G1 X99.245 Y322.643 Z-0.018 F2500.000
G1 X99.132 Y322.808 Z-0.017 F2500.000
G1 X98.899 Y323.133 Z-0.014 F2500.000
G1 X98.632 Y323.431 Z-0.012 F2500.000
G1 X98.494 Y323.576 Z-0.011 F2500.000
G1 X98.196 Y323.842 Z-0.009 F2500.000
G1 X98.040 Y323.967 Z-0.008 F2500.000
G1 X97.714 Y324.198 Z-0.006 F2500.000
G1 X97.543 Y324.301 Z-0.005 F2500.000
G1 X97.192 Y324.495 Z-0.004 F2500.000
G1 X96.639 Y324.725 Z-0.002 F2500.000
G1 X96.254 Y324.836 Z-0.001 F2500.000
G1 X96.061 Y324.886 Z-0.001 F2500.000
G1 X95.667 Y324.953 Z-0.000 F2500.000
G1 X95.468 Y324.976 Z-0.000 F2500.000
G1 X95.069 Y324.998 Z-0.000 F2500.000
G1 X94.869 Y325.002 Z-0.000 F2500.000
G1 X5.069 Y325.002 Z-0.000 F2500.000
G1 X4.869 Y324.995 Z-0.000 F2500.000
G1 X4.470 Y324.972 Z-0.000 F2500.000
G1 X4.272 Y324.942 Z-0.000 F2500.000
G1 X3.878 Y324.874 Z-0.001 F2500.000
G1 X3.494 Y324.764 Z-0.002 F2500.000
G1 X3.303 Y324.703 Z-0.002 F2500.000
G1 X2.934 Y324.550 Z-0.003 F2500.000
G1 X2.753 Y324.465 Z-0.004 F2500.000
G1 X2.403 Y324.271 Z-0.006 F2500.000
G1 X2.236 Y324.162 Z-0.006 F2500.000
G1 X1.909 Y323.931 Z-0.008 F2500.000
G1 X1.758 Y323.801 Z-0.009 F2500.000
G1 X1.460 Y323.534 Z-0.011 F2500.000
G1 X1.193 Y323.236 Z-0.014 F2500.000
G1 X1.064 Y323.083 Z-0.015 F2500.000
G1 X0.832 Y322.757 Z-0.017 F2500.000
G1 X0.725 Y322.589 Z-0.018 F2500.000
G1 X0.531 Y322.239 Z-0.021 F2500.000
G1 X0.447 Y322.058 Z-0.023 F2500.000
G1 X0.294 Y321.689 Z-0.025 F2500.000
G1 X0.234 Y321.498 Z-0.027 F2500.000
G1 X0.123 Y321.113 Z-0.030 F2500.000
G1 X0.056 Y320.719 Z-0.033 F2500.000
G1 X0.027 Y320.521 Z-0.034 F2500.000
G1 X0.005 Y320.122 Z-0.037 F2500.000
G1 X-0.002 Y319.922 Z-0.039 F2500.000
G1 X-0.002 Y0.122 Z-2.499 F2500.000
G1 X0.074 Y-0.002 Z-2.500 F2500.000
G1 X99.988 Y-0.002 Z-2.500 F2500.000
(Break)
G1 X99.994 Y-1.502 Z-2.500 F2500.000
(part 69.)
G1 X99.994 Y-1.502 Z-2.500 F2500.000
G1 X100.193 Y-1.490 Z-2.500 F2500.000
G1 X100.389 Y-1.451 Z-2.500 F2500.000
G1 X100.578 Y-1.386 Z-2.500 F2500.000
G1 X100.757 Y-1.297 Z-2.500 F2500.000
G1 X100.923 Y-1.185 Z-2.500 F2500.000
G1 X101.072 Y-1.052 Z-2.500 F2500.000
G1 X101.202 Y-0.901 Z-2.500 F2500.000
G1 X101.311 Y-0.733 Z-2.500 F2500.000
G1 X101.397 Y-0.553 Z-2.500 F2500.000
G1 X101.458 Y-0.362 Z-2.500 F2500.000
G1 X101.493 Y-0.166 Z-2.500 F2500.000
G1 X101.502 Y0.034 Z-2.500 F2500.000
G1 X101.502 Y52.002 Z-2.500 F2500.000
G1 X101.502 Y53.001 Z-2.495 F2500.000
G1 X101.502 Y319.834 Z-0.443 F2500.000
G1 X101.502 Y320.034 Z-0.441 F2500.000
G1 X101.480 Y320.434 Z-0.435 F2500.000
G1 X101.469 Y320.633 Z-0.437 F2500.000
G1 X101.446 Y320.832 Z-0.435 F2500.000
G1 X101.413 Y321.029 Z-0.431 F2500.000
G1 X101.344 Y321.423 Z-0.433 F2500.000
G1 X101.293 Y321.616 Z-0.429 F2500.000
G1 X101.182 Y322.001 Z-0.427 F2500.000
G1 X101.121 Y322.191 Z-0.428 F2500.000
G1 X100.969 Y322.561 Z-0.422 F2500.000
G1 X100.892 Y322.746 Z-0.424 F2500.000
G1 X100.804 Y322.925 Z-0.423 F2500.000
G1 X100.707 Y323.100 Z-0.419 F2500.000
G1 X100.512 Y323.449 Z-0.421 F2500.000
G1 X100.399 Y323.614 Z-0.417 F2500.000
G1 X100.167 Y323.940 Z-0.416 F2500.000
G1 X100.046 Y324.099 Z-0.417 F2500.000
G1 X99.780 Y324.398 Z-0.411 F2500.000
G1 X99.646 Y324.547 Z-0.414 F2500.000
G1 X99.503 Y324.686 Z-0.412 F2500.000
G1 X99.354 Y324.819 Z-0.409 F2500.000
G1 X99.054 Y325.084 Z-0.412 F2500.000
G1 X98.729 Y325.317 Z-0.406 F2500.000
G1 X98.566 Y325.433 Z-0.407 F2500.000
G1 X98.398 Y325.542 Z-0.408 F2500.000
G1 X98.048 Y325.735 Z-0.404 F2500.000
G1 X97.873 Y325.832 Z-0.407 F2500.000
G1 X97.691 Y325.915 Z-0.404 F2500.000
G1 X97.322 Y326.068 Z-0.403 F2500.000
G1 X97.136 Y326.141 Z-0.405 F2500.000
G1 X96.944 Y326.198 Z-0.401 F2500.000
G1 X96.560 Y326.309 Z-0.403 F2500.000
G1 X96.365 Y326.355 Z-0.403 F2500.000
G1 X96.168 Y326.389 Z-0.400 F2500.000
G1 X95.774 Y326.455 Z-0.403 F2500.000
G1 X95.575 Y326.472 Z-0.401 F2500.000
G1 X95.175 Y326.495 Z-0.400 F2500.000
G1 X94.975 Y326.502 Z-0.403 F2500.000
G1 X4.975 Y326.502 Z-0.403 F2500.000
G1 X4.576 Y326.481 Z-0.399 F2500.000
G1 X4.376 Y326.470 Z-0.402 F2500.000
G1 X4.178 Y326.448 Z-0.402 F2500.000
G1 X3.783 Y326.381 Z-0.400 F2500.000
G1 X3.586 Y326.346 Z-0.404 F2500.000
G1 X3.393 Y326.296 Z-0.402 F2500.000
G1 X3.008 Y326.185 Z-0.402 F2500.000
G1 X2.818 Y326.125 Z-0.405 F2500.000
G1 X2.448 Y325.972 Z-0.402 F2500.000
G1 X2.263 Y325.896 Z-0.406 F2500.000
G1 X2.083 Y325.808 Z-0.406 F2500.000
G1 X1.733 Y325.615 Z-0.405 F2500.000
G1 X1.559 Y325.517 Z-0.409 F2500.000
G1 X1.394 Y325.404 Z-0.407 F2500.000
G1 X1.068 Y325.173 Z-0.409 F2500.000
G1 X0.908 Y325.052 Z-0.411 F2500.000
G1 X0.609 Y324.786 Z-0.409 F2500.000
G1 X0.460 Y324.653 Z-0.413 F2500.000
G1 X0.321 Y324.510 Z-0.413 F2500.000
G1 X0.054 Y324.212 Z-0.413 F2500.000
G1 X-0.078 Y324.061 Z-0.418 F2500.000
G1 X-0.196 Y323.900 Z-0.415 F2500.000
G1 X-0.427 Y323.574 Z-0.418 F2500.000
G1 X-0.537 Y323.407 Z-0.421 F2500.000
G1 X-0.731 Y323.057 Z-0.419 F2500.000
G1 X-0.827 Y322.882 Z-0.424 F2500.000
G1 X-0.911 Y322.700 Z-0.424 F2500.000
G1 X-1.064 Y322.331 Z-0.425 F2500.000
G1 X-1.138 Y322.145 Z-0.429 F2500.000
G1 X-1.196 Y321.953 Z-0.427 F2500.000
G1 X-1.307 Y321.569 Z-0.430 F2500.000
G1 X-1.354 Y321.375 Z-0.433 F2500.000
G1 X-1.421 Y320.980 Z-0.432 F2500.000
G1 X-1.454 Y320.783 Z-0.437 F2500.000
G1 X-1.472 Y320.584 Z-0.436 F2500.000
G1 X-1.494 Y320.185 Z-0.437 F2500.000
G1 X-1.502 Y319.985 Z-0.442 F2500.000
G1 X-1.502 Y53.152 Z-2.494 F2500.000
G1 X-1.502 Y52.152 Z-2.500 F2500.000
G1 X-1.502 Y-0.015 Z-2.500 F2500.000
G1 X-1.487 Y-0.214 Z-2.500 F2500.000
G1 X-1.445 Y-0.410 Z-2.500 F2500.000
G1 X-1.378 Y-0.598 Z-2.500 F2500.000
G1 X-1.286 Y-0.776 Z-2.500 F2500.000
G1 X-1.172 Y-0.940 Z-2.500 F2500.000
G1 X-1.037 Y-1.087 Z-2.500 F2500.000
G1 X-0.883 Y-1.215 Z-2.500 F2500.000
G1 X-0.714 Y-1.321 Z-2.500 F2500.000
G1 X-0.533 Y-1.405 Z-2.500 F2500.000
G1 X-0.341 Y-1.463 Z-2.500 F2500.000
G1 X-0.144 Y-1.495 Z-2.500 F2500.000
G1 X0.056 Y-1.502 Z-2.500 F2500.000
G1 X99.994 Y-1.502 Z-2.500 F2500.000
(Break)
G0 Z3.000
G0 X0.000 Y-3.002
G0 Z3.000
(part 71.)
G1 X0.000 Y-3.002 Z-2.500 F2500.000
G1 X100.000 Y-3.002 Z-2.500 F2500.000
G1 X100.200 Y-2.996 Z-2.500 F2500.000
G1 X100.399 Y-2.976 Z-2.500 F2500.000
G1 X100.596 Y-2.942 Z-2.500 F2500.000
G1 X100.791 Y-2.896 Z-2.500 F2500.000
G1 X100.982 Y-2.837 Z-2.500 F2500.000
G1 X101.168 Y-2.765 Z-2.500 F2500.000
G1 X101.350 Y-2.681 Z-2.500 F2500.000
G1 X101.525 Y-2.586 Z-2.500 F2500.000
G1 X101.694 Y-2.478 Z-2.500 F2500.000
G1 X101.855 Y-2.360 Z-2.500 F2500.000
G1 X102.008 Y-2.231 Z-2.500 F2500.000
G1 X102.153 Y-2.093 Z-2.500 F2500.000
G1 X102.287 Y-1.945 Z-2.500 F2500.000
G1 X102.411 Y-1.788 Z-2.500 F2500.000
G1 X102.525 Y-1.624 Z-2.500 F2500.000
G1 X102.628 Y-1.452 Z-2.500 F2500.000
G1 X102.718 Y-1.274 Z-2.500 F2500.000
G1 X102.797 Y-1.090 Z-2.500 F2500.000
G1 X102.864 Y-0.901 Z-2.500 F2500.000
G1 X102.917 Y-0.709 Z-2.500 F2500.000
G1 X102.958 Y-0.513 Z-2.500 F2500.000
G1 X102.986 Y-0.315 Z-2.500 F2500.000
G1 X103.000 Y-0.115 Z-2.500 F2500.000
G1 X103.002 Y0.084 Z-2.500 F2500.000
G1 X103.001 Y320.084 Z-2.500 F2500.000
G1 X102.969 Y320.684 Z-2.500 F2500.000
G1 X102.953 Y320.883 Z-2.500 F2500.000
G1 X102.925 Y321.081 Z-2.500 F2500.000
G1 X102.824 Y321.672 Z-2.500 F2500.000
G1 X102.780 Y321.867 Z-2.500 F2500.000
G1 X102.615 Y322.444 Z-2.500 F2500.000
G1 X102.556 Y322.635 Z-2.500 F2500.000
G1 X102.484 Y322.822 Z-2.500 F2500.000
G1 X102.254 Y323.376 Z-2.500 F2500.000
G1 X102.167 Y323.556 Z-2.500 F2500.000
G1 X101.878 Y324.082 Z-2.500 F2500.000
G1 X101.777 Y324.255 Z-2.500 F2500.000
G1 X101.666 Y324.421 Z-2.500 F2500.000
G1 X101.318 Y324.909 Z-2.500 F2500.000
G1 X101.193 Y325.066 Z-2.500 F2500.000
G1 X100.794 Y325.514 Z-2.500 F2500.000
G1 X100.657 Y325.660 Z-2.500 F2500.000
G1 X100.511 Y325.796 Z-2.500 F2500.000
G1 X100.063 Y326.195 Z-2.500 F2500.000
G1 X99.907 Y326.320 Z-2.500 F2500.000
G1 X99.418 Y326.668 Z-2.500 F2500.000
G1 X99.252 Y326.779 Z-2.500 F2500.000
G1 X99.079 Y326.880 Z-2.500 F2500.000
G1 X98.553 Y327.169 Z-2.500 F2500.000
G1 X98.373 Y327.255 Z-2.500 F2500.000
G1 X97.819 Y327.485 Z-2.500 F2500.000
G1 X97.632 Y327.557 Z-2.500 F2500.000
G1 X97.441 Y327.616 Z-2.500 F2500.000
G1 X96.864 Y327.781 Z-2.500 F2500.000
G1 X96.669 Y327.825 Z-2.500 F2500.000
G1 X96.078 Y327.926 Z-2.500 F2500.000
G1 X95.880 Y327.954 Z-2.500 F2500.000
G1 X95.680 Y327.969 Z-2.500 F2500.000
G1 X95.081 Y328.001 Z-2.500 F2500.000
G1 X94.881 Y328.002 Z-2.500 F2500.000
G1 X5.081 Y328.002 Z-2.500 F2500.000
G1 X4.881 Y328.000 Z-2.500 F2500.000
G1 X4.282 Y327.967 Z-2.500 F2500.000
G1 X4.083 Y327.949 Z-2.500 F2500.000
G1 X3.885 Y327.920 Z-2.500 F2500.000
G1 X3.294 Y327.818 Z-2.500 F2500.000
G1 X3.099 Y327.772 Z-2.500 F2500.000
G1 X2.523 Y327.606 Z-2.500 F2500.000
G1 X2.332 Y327.544 Z-2.500 F2500.000
G1 X2.146 Y327.471 Z-2.500 F2500.000
G1 X1.593 Y327.240 Z-2.500 F2500.000
G1 X1.413 Y327.152 Z-2.500 F2500.000
G1 X0.888 Y326.862 Z-2.500 F2500.000
G1 X0.716 Y326.759 Z-2.500 F2500.000
G1 X0.551 Y326.646 Z-2.500 F2500.000
G1 X0.063 Y326.297 Z-2.500 F2500.000
G1 X-0.092 Y326.171 Z-2.500 F2500.000
G1 X-0.539 Y325.771 Z-2.500 F2500.000
G1 X-0.684 Y325.633 Z-2.500 F2500.000
G1 X-0.819 Y325.486 Z-2.500 F2500.000
G1 X-1.217 Y325.037 Z-2.500 F2500.000
G1 X-1.340 Y324.879 Z-2.500 F2500.000
G1 X-1.687 Y324.390 Z-2.500 F2500.000
G1 X-1.797 Y324.223 Z-2.500 F2500.000
G1 X-1.896 Y324.049 Z-2.500 F2500.000
G1 X-2.185 Y323.523 Z-2.500 F2500.000
G1 X-2.269 Y323.342 Z-2.500 F2500.000
G1 X-2.498 Y322.787 Z-2.500 F2500.000
G1 X-2.568 Y322.600 Z-2.500 F2500.000
G1 X-2.626 Y322.408 Z-2.500 F2500.000
G1 X-2.790 Y321.831 Z-2.500 F2500.000
G1 X-2.831 Y321.635 Z-2.500 F2500.000
G1 X-2.931 Y321.044 Z-2.500 F2500.000
G1 X-2.957 Y320.846 Z-2.500 F2500.000
G1 X-2.971 Y320.646 Z-2.500 F2500.000
G1 X-3.002 Y320.047 Z-2.500 F2500.000
G1 X-3.002 Y319.847 Z-2.500 F2500.000
G1 X-3.002 Y0.047 Z-2.500 F2500.000
G1 X-2.998 Y-0.153 Z-2.500 F2500.000
G1 X-2.981 Y-0.352 Z-2.500 F2500.000
G1 X-2.951 Y-0.550 Z-2.500 F2500.000
G1 X-2.908 Y-0.745 Z-2.500 F2500.000
G1 X-2.852 Y-0.937 Z-2.500 F2500.000
G1 X-2.783 Y-1.125 Z-2.500 F2500.000
G1 X-2.702 Y-1.308 Z-2.500 F2500.000
G1 X-2.609 Y-1.485 Z-2.500 F2500.000
G1 X-2.505 Y-1.655 Z-2.500 F2500.000
G1 X-2.389 Y-1.818 Z-2.500 F2500.000
G1 X-2.263 Y-1.973 Z-2.500 F2500.000
G1 X-2.126 Y-2.119 Z-2.500 F2500.000
G1 X-1.980 Y-2.256 Z-2.500 F2500.000
G1 X-1.826 Y-2.383 Z-2.500 F2500.000
G1 X-1.663 Y-2.499 Z-2.500 F2500.000
G1 X-1.493 Y-2.604 Z-2.500 F2500.000
G1 X-1.316 Y-2.698 Z-2.500 F2500.000
G1 X-1.134 Y-2.780 Z-2.500 F2500.000
G1 X-0.946 Y-2.849 Z-2.500 F2500.000
G1 X-0.755 Y-2.906 Z-2.500 F2500.000
G1 X-0.559 Y-2.950 Z-2.500 F2500.000
G1 X-0.362 Y-2.980 Z-2.500 F2500.000
G1 X-0.163 Y-2.998 Z-2.500 F2500.000
G1 X0.000 Y-3.002 Z-2.500 F2500.000
(End of step 0.)
G0 Z5.000
(Finish operation: Surface001)
(Begin postamble)
M5
G17 G90
M2
