(Exported by FreeCAD)
(Post Processor: grbl_post)
(Output Time:2023-05-24 19:18:34.823852)
(Begin preamble)
G17 G90
G21
(Begin operation: Fixture)
(Path: Fixture)
G54
(Finish operation: Fixture)
(Begin operation: 3.175 Z2 droite008)
(Path: 3.175 Z2 droite008)
(3.175 Z2 droite008)
(Begin toolchange)
( M6 T2 )
M3 S24000
(Finish operation: 3.175 Z2 droite008)
(Begin operation: DressupTag002)
(Path: DressupTag002)
G0 Z5.000
G0 X422.331 Y552.784 Z5.000
G0 X422.331 Y552.784 Z3.000
G1 X422.331 Y552.784 Z-3.170 F1000.000
G2 X440.642 Y523.664 Z-3.170 I-116.954 J-93.856 K0.000 F2500.000
G2 X450.718 Y495.345 Z-3.170 I-125.860 J-60.736 K0.000 F2500.000
G2 X454.992 Y457.550 Z-3.170 I-157.266 J-36.923 K0.000 F2500.000
G2 X452.139 Y429.176 Z-3.170 I-148.062 J0.555 K0.000 F2500.000
G2 X446.176 Y405.694 Z-3.170 I-260.844 J53.743 K0.000 F2500.000
G2 X439.263 Y384.376 Z-3.170 I-840.891 J260.884 K0.000 F2500.000
G3 X435.536 Y373.189 Z-3.170 I382.487 J-133.642 K0.000 F2500.000
G3 X433.715 Y366.408 Z-3.170 I55.242 J-18.472 K0.000 F2500.000
G3 X433.650 Y365.817 Z-3.170 I1.468 J-0.461 K0.000 F2500.000
G1 X435.655 Y361.665 Z-3.170 F2500.000
G1 X448.614 Y340.070 Z-3.170 F2500.000
G2 X463.775 Y314.732 Z-3.170 I-664.107 J-414.586 K0.000 F2500.000
G2 X475.498 Y292.575 Z-3.170 I-322.529 J-184.810 K0.000 F2500.000
G2 X489.823 Y257.703 Z-3.170 I-250.391 J-123.238 K0.000 F2500.000
G2 X497.626 Y225.501 Z-3.170 I-174.942 J-59.441 K0.000 F2500.000
G2 X499.731 Y200.644 Z-3.170 I-229.207 J-31.926 K0.000 F2500.000
G2 X498.445 Y170.506 Z-3.170 I-185.054 J-7.201 K0.000 F2500.000
G2 X488.562 Y128.434 Z-3.170 I-216.555 J28.674 K0.000 F2500.000
G2 X476.791 Y102.218 Z-3.170 I-175.544 J63.070 K0.000 F2500.000
G2 X458.287 Y74.524 Z-3.170 I-157.877 J85.455 K0.000 F2500.000
G2 X425.521 Y44.072 Z-3.170 I-123.062 J99.562 K0.000 F2500.000
G2 X394.298 Y26.706 Z-3.170 I-108.461 J158.255 K0.000 F2500.000
G2 X361.678 Y15.307 Z-3.170 I-93.842 J216.158 K0.000 F2500.000
G2 X335.710 Y9.531 Z-3.170 I-82.706 J310.578 K0.000 F2500.000
G2 X306.512 Y5.452 Z-3.170 I-66.987 J372.971 K0.000 F2500.000
G2 X265.538 Y2.683 Z-3.170 I-60.144 J585.561 K0.000 F2500.000
G2 X247.669 Y2.431 Z-3.170 I-14.584 J399.042 K0.000 F2500.000
G2 X203.505 Y4.678 Z-3.170 I8.087 J593.861 K0.000 F2500.000
G2 X167.770 Y9.266 Z-3.170 I33.726 J404.161 K0.000 F2500.000
G2 X138.404 Y15.839 Z-3.170 I50.104 J292.748 K0.000 F2500.000
G2 X106.847 Y27.090 Z-3.170 I58.961 J215.251 K0.000 F2500.000
G2 X79.953 Y41.733 Z-3.170 I72.935 J165.980 K0.000 F2500.000
G2 X48.392 Y68.948 Z-3.170 I86.422 J132.128 K0.000 F2500.000
G2 X29.117 Y95.355 Z-3.170 I134.491 J118.412 K0.000 F2500.000
G2 X12.710 Y130.452 Z-3.170 I156.454 J94.520 K0.000 F2500.000
G2 X5.280 Y159.417 Z-3.170 I212.185 J69.863 K0.000 F2500.000
G2 X2.148 Y188.728 Z-3.170 I178.511 J33.896 K0.000 F2500.000
G2 X3.089 Y214.518 Z-3.170 I238.844 J4.203 K0.000 F2500.000
G2 X9.668 Y249.832 Z-3.170 I178.837 J-15.050 K0.000 F2500.000
G2 X20.455 Y279.509 Z-3.170 I258.151 J-77.030 K0.000 F2500.000
G2 X35.719 Y310.348 Z-3.170 I325.773 J-142.046 K0.000 F2500.000
G2 X53.353 Y340.070 Z-3.170 I640.348 J-359.831 K0.000 F2500.000
G1 X66.312 Y361.665 Z-3.170 F2500.000
G1 X68.317 Y365.817 Z-3.170 F2500.000
G1 X68.336 Y365.894 Z-3.170 F2500.000
G3 X67.878 Y368.157 Z-3.170 I-26.903 J-4.262 K0.000 F2500.000
G3 X65.451 Y376.252 Z-3.170 I-142.033 J-38.172 K0.000 F2500.000
G2 X58.914 Y395.833 Z-3.170 I1463.431 J499.431 K0.000 F2500.000
G2 X51.344 Y422.230 Z-3.170 I290.242 J97.525 K0.000 F2500.000
G2 X47.398 Y446.681 Z-3.170 I156.594 J37.810 K0.000 F2500.000
G2 X48.730 Y482.225 Z-3.170 I163.109 J11.686 K0.000 F2500.000
G2 X57.167 Y514.179 Z-3.170 I141.936 J-20.384 K0.000 F2500.000
G2 X128.231 Y592.405 Z-3.170 I139.494 J-55.332 K0.000 F2500.000
G2 X154.928 Y603.198 Z-3.170 I77.477 J-153.231 K0.000 F2500.000
G2 X178.347 Y609.047 Z-3.170 I69.080 J-226.760 K0.000 F2500.000
G2 X234.863 Y614.919 Z-3.170 I61.423 J-316.282 K0.000 F2500.000
G2 X249.205 Y614.989 Z-3.170 I16.063 J-1808.797 K0.000 F2500.000
G2 X266.793 Y614.924 Z-3.170 I5.855 J-798.432 K0.000 F2500.000
G2 X318.305 Y610.040 Z-3.170 I-4.418 J-320.616 K0.000 F2500.000
G2 X343.389 Y604.281 Z-3.170 I-39.309 J-228.765 K0.000 F2500.000
G2 X366.539 Y595.846 Z-3.170 I-46.337 J-163.148 K0.000 F2500.000
G2 X422.331 Y552.784 Z-3.170 I-61.162 J-136.918 K0.000 F2500.000
G1 X422.331 Y552.784 Z-6.340 F1000.000
G2 X440.642 Y523.664 Z-6.340 I-116.954 J-93.856 K0.000 F2500.000
G2 X450.718 Y495.345 Z-6.340 I-125.860 J-60.736 K0.000 F2500.000
G2 X454.992 Y457.550 Z-6.340 I-157.266 J-36.923 K0.000 F2500.000
G2 X452.139 Y429.176 Z-6.340 I-148.062 J0.555 K0.000 F2500.000
G2 X446.176 Y405.694 Z-6.340 I-260.844 J53.743 K0.000 F2500.000
G2 X439.263 Y384.376 Z-6.340 I-840.891 J260.884 K0.000 F2500.000
G3 X435.536 Y373.189 Z-6.340 I382.487 J-133.642 K0.000 F2500.000
G3 X433.715 Y366.408 Z-6.340 I55.242 J-18.472 K0.000 F2500.000
G3 X433.650 Y365.817 Z-6.340 I1.468 J-0.461 K0.000 F2500.000
G1 X435.655 Y361.665 Z-6.340 F2500.000
G1 X448.614 Y340.070 Z-6.340 F2500.000
G2 X463.775 Y314.732 Z-6.340 I-664.107 J-414.586 K0.000 F2500.000
G2 X475.498 Y292.575 Z-6.340 I-322.529 J-184.810 K0.000 F2500.000
G2 X489.823 Y257.703 Z-6.340 I-250.391 J-123.238 K0.000 F2500.000
G2 X497.626 Y225.501 Z-6.340 I-174.942 J-59.441 K0.000 F2500.000
G2 X499.731 Y200.644 Z-6.340 I-229.207 J-31.926 K0.000 F2500.000
G2 X498.445 Y170.506 Z-6.340 I-185.054 J-7.201 K0.000 F2500.000
G2 X488.562 Y128.434 Z-6.340 I-216.555 J28.674 K0.000 F2500.000
G2 X476.791 Y102.218 Z-6.340 I-175.544 J63.070 K0.000 F2500.000
G2 X458.287 Y74.524 Z-6.340 I-157.877 J85.455 K0.000 F2500.000
G2 X425.521 Y44.072 Z-6.340 I-123.062 J99.562 K0.000 F2500.000
G2 X394.298 Y26.706 Z-6.340 I-108.461 J158.255 K0.000 F2500.000
G2 X361.678 Y15.307 Z-6.340 I-93.842 J216.158 K0.000 F2500.000
G2 X335.710 Y9.531 Z-6.340 I-82.706 J310.578 K0.000 F2500.000
G2 X306.512 Y5.452 Z-6.340 I-66.987 J372.971 K0.000 F2500.000
G2 X265.538 Y2.683 Z-6.340 I-60.144 J585.561 K0.000 F2500.000
G2 X247.669 Y2.431 Z-6.340 I-14.584 J399.042 K0.000 F2500.000
G2 X203.505 Y4.678 Z-6.340 I8.087 J593.861 K0.000 F2500.000
G2 X167.770 Y9.266 Z-6.340 I33.726 J404.161 K0.000 F2500.000
G2 X138.404 Y15.839 Z-6.340 I50.104 J292.748 K0.000 F2500.000
G2 X106.847 Y27.090 Z-6.340 I58.961 J215.251 K0.000 F2500.000
G2 X79.953 Y41.733 Z-6.340 I72.935 J165.980 K0.000 F2500.000
G2 X48.392 Y68.948 Z-6.340 I86.422 J132.128 K0.000 F2500.000
G2 X29.117 Y95.355 Z-6.340 I134.491 J118.412 K0.000 F2500.000
G2 X12.710 Y130.452 Z-6.340 I156.454 J94.520 K0.000 F2500.000
G2 X5.280 Y159.417 Z-6.340 I212.185 J69.863 K0.000 F2500.000
G2 X2.148 Y188.728 Z-6.340 I178.511 J33.896 K0.000 F2500.000
G2 X3.089 Y214.518 Z-6.340 I238.844 J4.203 K0.000 F2500.000
G2 X9.668 Y249.832 Z-6.340 I178.837 J-15.050 K0.000 F2500.000
G2 X20.455 Y279.509 Z-6.340 I258.151 J-77.030 K0.000 F2500.000
G2 X35.719 Y310.348 Z-6.340 I325.773 J-142.046 K0.000 F2500.000
G2 X53.353 Y340.070 Z-6.340 I640.348 J-359.831 K0.000 F2500.000
G1 X66.312 Y361.665 Z-6.340 F2500.000
G1 X68.317 Y365.817 Z-6.340 F2500.000
G1 X68.336 Y365.894 Z-6.340 F2500.000
G3 X67.878 Y368.157 Z-6.340 I-26.903 J-4.262 K0.000 F2500.000
G3 X65.451 Y376.252 Z-6.340 I-142.033 J-38.172 K0.000 F2500.000
G2 X58.914 Y395.833 Z-6.340 I1463.431 J499.431 K0.000 F2500.000
G2 X51.344 Y422.230 Z-6.340 I290.242 J97.525 K0.000 F2500.000
G2 X47.398 Y446.681 Z-6.340 I156.594 J37.810 K0.000 F2500.000
G2 X48.730 Y482.225 Z-6.340 I163.109 J11.686 K0.000 F2500.000
G2 X57.167 Y514.179 Z-6.340 I141.936 J-20.384 K0.000 F2500.000
G2 X128.231 Y592.405 Z-6.340 I139.494 J-55.332 K0.000 F2500.000
G2 X154.928 Y603.198 Z-6.340 I77.477 J-153.231 K0.000 F2500.000
G2 X178.347 Y609.047 Z-6.340 I69.080 J-226.760 K0.000 F2500.000
G2 X234.863 Y614.919 Z-6.340 I61.423 J-316.282 K0.000 F2500.000
G2 X249.205 Y614.989 Z-6.340 I16.063 J-1808.797 K0.000 F2500.000
G2 X266.793 Y614.924 Z-6.340 I5.855 J-798.432 K0.000 F2500.000
G2 X318.305 Y610.040 Z-6.340 I-4.418 J-320.616 K0.000 F2500.000
G2 X343.389 Y604.281 Z-6.340 I-39.309 J-228.765 K0.000 F2500.000
G2 X366.539 Y595.846 Z-6.340 I-46.337 J-163.148 K0.000 F2500.000
G2 X422.331 Y552.784 Z-6.340 I-61.162 J-136.918 K0.000 F2500.000
G1 X422.331 Y552.784 Z-9.510 F1000.000
G2 X440.642 Y523.664 Z-9.510 I-116.954 J-93.856 K0.000 F2500.000
G2 X450.718 Y495.345 Z-9.510 I-125.860 J-60.736 K0.000 F2500.000
G2 X454.992 Y457.550 Z-9.510 I-157.266 J-36.923 K0.000 F2500.000
G2 X452.139 Y429.176 Z-9.510 I-148.062 J0.555 K0.000 F2500.000
G2 X446.176 Y405.694 Z-9.510 I-260.844 J53.743 K0.000 F2500.000
G2 X439.263 Y384.376 Z-9.510 I-840.891 J260.884 K0.000 F2500.000
G3 X435.536 Y373.189 Z-9.510 I382.487 J-133.642 K0.000 F2500.000
G3 X433.715 Y366.408 Z-9.510 I55.242 J-18.472 K0.000 F2500.000
G3 X433.650 Y365.817 Z-9.510 I1.468 J-0.461 K0.000 F2500.000
G1 X435.655 Y361.665 Z-9.510 F2500.000
G1 X448.614 Y340.070 Z-9.510 F2500.000
G2 X463.775 Y314.732 Z-9.510 I-664.107 J-414.586 K0.000 F2500.000
G2 X475.498 Y292.575 Z-9.510 I-322.529 J-184.810 K0.000 F2500.000
G2 X489.823 Y257.703 Z-9.510 I-250.391 J-123.238 K0.000 F2500.000
G2 X497.626 Y225.501 Z-9.510 I-174.942 J-59.441 K0.000 F2500.000
G2 X499.731 Y200.644 Z-9.510 I-229.207 J-31.926 K0.000 F2500.000
G2 X498.445 Y170.506 Z-9.510 I-185.054 J-7.201 K0.000 F2500.000
G2 X488.562 Y128.434 Z-9.510 I-216.555 J28.674 K0.000 F2500.000
G2 X476.791 Y102.218 Z-9.510 I-175.544 J63.070 K0.000 F2500.000
G2 X458.287 Y74.524 Z-9.510 I-157.877 J85.455 K0.000 F2500.000
G2 X425.521 Y44.072 Z-9.510 I-123.062 J99.562 K0.000 F2500.000
G2 X394.298 Y26.706 Z-9.510 I-108.461 J158.255 K0.000 F2500.000
G2 X361.678 Y15.307 Z-9.510 I-93.842 J216.158 K0.000 F2500.000
G2 X335.710 Y9.531 Z-9.510 I-82.706 J310.578 K0.000 F2500.000
G2 X306.512 Y5.452 Z-9.510 I-66.987 J372.971 K0.000 F2500.000
G2 X265.538 Y2.683 Z-9.510 I-60.144 J585.561 K0.000 F2500.000
G2 X247.669 Y2.431 Z-9.510 I-14.584 J399.042 K0.000 F2500.000
G2 X203.505 Y4.678 Z-9.510 I8.087 J593.861 K0.000 F2500.000
G2 X167.770 Y9.266 Z-9.510 I33.726 J404.161 K0.000 F2500.000
G2 X138.404 Y15.839 Z-9.510 I50.104 J292.748 K0.000 F2500.000
G2 X106.847 Y27.090 Z-9.510 I58.961 J215.251 K0.000 F2500.000
G2 X79.953 Y41.733 Z-9.510 I72.935 J165.980 K0.000 F2500.000
G2 X48.392 Y68.948 Z-9.510 I86.422 J132.128 K0.000 F2500.000
G2 X29.117 Y95.355 Z-9.510 I134.491 J118.412 K0.000 F2500.000
G2 X12.710 Y130.452 Z-9.510 I156.454 J94.520 K0.000 F2500.000
G2 X5.280 Y159.417 Z-9.510 I212.185 J69.863 K0.000 F2500.000
G2 X2.148 Y188.728 Z-9.510 I178.511 J33.896 K0.000 F2500.000
G2 X3.089 Y214.518 Z-9.510 I238.844 J4.203 K0.000 F2500.000
G2 X9.668 Y249.832 Z-9.510 I178.837 J-15.050 K0.000 F2500.000
G2 X20.455 Y279.509 Z-9.510 I258.151 J-77.030 K0.000 F2500.000
G2 X35.719 Y310.348 Z-9.510 I325.773 J-142.046 K0.000 F2500.000
G2 X53.353 Y340.070 Z-9.510 I640.348 J-359.831 K0.000 F2500.000
G1 X66.312 Y361.665 Z-9.510 F2500.000
G1 X68.317 Y365.817 Z-9.510 F2500.000
G1 X68.336 Y365.894 Z-9.510 F2500.000
G3 X67.878 Y368.157 Z-9.510 I-26.903 J-4.262 K0.000 F2500.000
G3 X65.451 Y376.252 Z-9.510 I-142.033 J-38.172 K0.000 F2500.000
G2 X58.914 Y395.833 Z-9.510 I1463.431 J499.431 K0.000 F2500.000
G2 X51.344 Y422.230 Z-9.510 I290.242 J97.525 K0.000 F2500.000
G2 X47.398 Y446.681 Z-9.510 I156.594 J37.810 K0.000 F2500.000
G2 X48.730 Y482.225 Z-9.510 I163.109 J11.686 K0.000 F2500.000
G2 X57.167 Y514.179 Z-9.510 I141.936 J-20.384 K0.000 F2500.000
G2 X128.231 Y592.405 Z-9.510 I139.494 J-55.332 K0.000 F2500.000
G2 X154.928 Y603.198 Z-9.510 I77.477 J-153.231 K0.000 F2500.000
G2 X178.347 Y609.047 Z-9.510 I69.080 J-226.760 K0.000 F2500.000
G2 X234.863 Y614.919 Z-9.510 I61.423 J-316.282 K0.000 F2500.000
G2 X249.205 Y614.989 Z-9.510 I16.063 J-1808.797 K0.000 F2500.000
G2 X266.793 Y614.924 Z-9.510 I5.855 J-798.432 K0.000 F2500.000
G2 X318.305 Y610.040 Z-9.510 I-4.418 J-320.616 K0.000 F2500.000
G2 X343.389 Y604.281 Z-9.510 I-39.309 J-228.765 K0.000 F2500.000
G2 X366.539 Y595.846 Z-9.510 I-46.337 J-163.148 K0.000 F2500.000
G2 X422.331 Y552.784 Z-9.510 I-61.162 J-136.918 K0.000 F2500.000
G1 X422.331 Y552.784 Z-12.680 F1000.000
G2 X440.642 Y523.664 Z-12.680 I-116.954 J-93.856 K0.000 F2500.000
G2 X450.718 Y495.345 Z-12.680 I-125.860 J-60.736 K0.000 F2500.000
G2 X454.992 Y457.550 Z-12.680 I-157.266 J-36.923 K0.000 F2500.000
G2 X452.139 Y429.176 Z-12.680 I-148.062 J0.555 K0.000 F2500.000
G2 X446.176 Y405.694 Z-12.680 I-260.844 J53.743 K0.000 F2500.000
G2 X439.263 Y384.376 Z-12.680 I-840.891 J260.884 K0.000 F2500.000
G3 X435.536 Y373.189 Z-12.680 I382.487 J-133.642 K0.000 F2500.000
G3 X433.715 Y366.408 Z-12.680 I55.242 J-18.472 K0.000 F2500.000
G3 X433.650 Y365.817 Z-12.680 I1.468 J-0.461 K0.000 F2500.000
G1 X435.655 Y361.665 Z-12.680 F2500.000
G1 X448.614 Y340.070 Z-12.680 F2500.000
G2 X463.775 Y314.732 Z-12.680 I-664.107 J-414.586 K0.000 F2500.000
G2 X475.498 Y292.575 Z-12.680 I-322.529 J-184.810 K0.000 F2500.000
G2 X489.823 Y257.703 Z-12.680 I-250.391 J-123.238 K0.000 F2500.000
G2 X497.626 Y225.501 Z-12.680 I-174.942 J-59.441 K0.000 F2500.000
G2 X499.731 Y200.644 Z-12.680 I-229.207 J-31.926 K0.000 F2500.000
G2 X498.445 Y170.506 Z-12.680 I-185.054 J-7.201 K0.000 F2500.000
G2 X488.562 Y128.434 Z-12.680 I-216.555 J28.674 K0.000 F2500.000
G2 X476.791 Y102.218 Z-12.680 I-175.544 J63.070 K0.000 F2500.000
G2 X458.287 Y74.524 Z-12.680 I-157.877 J85.455 K0.000 F2500.000
G2 X425.521 Y44.072 Z-12.680 I-123.062 J99.562 K0.000 F2500.000
G2 X394.298 Y26.706 Z-12.680 I-108.461 J158.255 K0.000 F2500.000
G2 X361.678 Y15.307 Z-12.680 I-93.842 J216.158 K0.000 F2500.000
G2 X335.710 Y9.531 Z-12.680 I-82.706 J310.578 K0.000 F2500.000
G2 X306.512 Y5.452 Z-12.680 I-66.987 J372.971 K0.000 F2500.000
G2 X265.538 Y2.683 Z-12.680 I-60.144 J585.561 K0.000 F2500.000
G2 X247.669 Y2.431 Z-12.680 I-14.584 J399.042 K0.000 F2500.000
G2 X203.505 Y4.678 Z-12.680 I8.087 J593.861 K0.000 F2500.000
G2 X167.770 Y9.266 Z-12.680 I33.726 J404.161 K0.000 F2500.000
G2 X138.404 Y15.839 Z-12.680 I50.104 J292.748 K0.000 F2500.000
G2 X106.847 Y27.090 Z-12.680 I58.961 J215.251 K0.000 F2500.000
G2 X79.953 Y41.733 Z-12.680 I72.935 J165.980 K0.000 F2500.000
G2 X48.392 Y68.948 Z-12.680 I86.422 J132.128 K0.000 F2500.000
G2 X29.117 Y95.355 Z-12.680 I134.491 J118.412 K0.000 F2500.000
G2 X12.710 Y130.452 Z-12.680 I156.454 J94.520 K0.000 F2500.000
G2 X5.280 Y159.417 Z-12.680 I212.185 J69.863 K0.000 F2500.000
G2 X2.148 Y188.728 Z-12.680 I178.511 J33.896 K0.000 F2500.000
G2 X3.089 Y214.518 Z-12.680 I238.844 J4.203 K0.000 F2500.000
G2 X9.668 Y249.832 Z-12.680 I178.837 J-15.050 K0.000 F2500.000
G2 X20.455 Y279.509 Z-12.680 I258.151 J-77.030 K0.000 F2500.000
G2 X35.719 Y310.348 Z-12.680 I325.773 J-142.046 K0.000 F2500.000
G2 X53.353 Y340.070 Z-12.680 I640.348 J-359.831 K0.000 F2500.000
G1 X66.312 Y361.665 Z-12.680 F2500.000
G1 X68.317 Y365.817 Z-12.680 F2500.000
G1 X68.336 Y365.894 Z-12.680 F2500.000
G3 X67.878 Y368.157 Z-12.680 I-26.903 J-4.262 K0.000 F2500.000
G3 X65.451 Y376.252 Z-12.680 I-142.033 J-38.172 K0.000 F2500.000
G2 X58.914 Y395.833 Z-12.680 I1463.431 J499.431 K0.000 F2500.000
G2 X51.344 Y422.230 Z-12.680 I290.242 J97.525 K0.000 F2500.000
G2 X47.398 Y446.681 Z-12.680 I156.594 J37.810 K0.000 F2500.000
G2 X48.730 Y482.225 Z-12.680 I163.109 J11.686 K0.000 F2500.000
G2 X57.167 Y514.179 Z-12.680 I141.936 J-20.384 K0.000 F2500.000
G2 X128.231 Y592.405 Z-12.680 I139.494 J-55.332 K0.000 F2500.000
G2 X154.928 Y603.198 Z-12.680 I77.477 J-153.231 K0.000 F2500.000
G2 X178.347 Y609.047 Z-12.680 I69.080 J-226.760 K0.000 F2500.000
G2 X234.863 Y614.919 Z-12.680 I61.423 J-316.282 K0.000 F2500.000
G2 X249.205 Y614.989 Z-12.680 I16.063 J-1808.797 K0.000 F2500.000
G2 X266.793 Y614.924 Z-12.680 I5.855 J-798.432 K0.000 F2500.000
G2 X318.305 Y610.040 Z-12.680 I-4.418 J-320.616 K0.000 F2500.000
G2 X343.389 Y604.281 Z-12.680 I-39.309 J-228.765 K0.000 F2500.000
G2 X366.539 Y595.846 Z-12.680 I-46.337 J-163.148 K0.000 F2500.000
G2 X422.331 Y552.784 Z-12.680 I-61.162 J-136.918 K0.000 F2500.000
G1 X422.331 Y552.784 Z-15.850 F1000.000
G2 X440.642 Y523.664 Z-15.850 I-116.954 J-93.856 K0.000 F2500.000
G2 X450.718 Y495.345 Z-15.850 I-125.860 J-60.736 K0.000 F2500.000
G2 X454.992 Y457.550 Z-15.850 I-157.266 J-36.923 K0.000 F2500.000
G2 X452.139 Y429.176 Z-15.850 I-148.062 J0.555 K0.000 F2500.000
G2 X446.176 Y405.694 Z-15.850 I-260.844 J53.743 K0.000 F2500.000
G2 X439.263 Y384.376 Z-15.850 I-840.891 J260.884 K0.000 F2500.000
G3 X435.536 Y373.189 Z-15.850 I382.487 J-133.642 K0.000 F2500.000
G3 X433.715 Y366.408 Z-15.850 I55.242 J-18.472 K0.000 F2500.000
G3 X433.650 Y365.817 Z-15.850 I1.468 J-0.461 K0.000 F2500.000
G1 X435.655 Y361.665 Z-15.850 F2500.000
G1 X448.614 Y340.070 Z-15.850 F2500.000
G2 X463.775 Y314.732 Z-15.850 I-664.107 J-414.586 K0.000 F2500.000
G2 X475.498 Y292.575 Z-15.850 I-322.529 J-184.810 K0.000 F2500.000
G2 X489.823 Y257.703 Z-15.850 I-250.391 J-123.238 K0.000 F2500.000
G2 X497.626 Y225.501 Z-15.850 I-174.942 J-59.441 K0.000 F2500.000
G2 X499.731 Y200.644 Z-15.850 I-229.207 J-31.926 K0.000 F2500.000
G2 X498.445 Y170.506 Z-15.850 I-185.054 J-7.201 K0.000 F2500.000
G2 X488.562 Y128.434 Z-15.850 I-216.555 J28.674 K0.000 F2500.000
G2 X476.791 Y102.218 Z-15.850 I-175.544 J63.070 K0.000 F2500.000
G2 X458.287 Y74.524 Z-15.850 I-157.877 J85.455 K0.000 F2500.000
G2 X425.521 Y44.072 Z-15.850 I-123.062 J99.562 K0.000 F2500.000
G2 X394.298 Y26.706 Z-15.850 I-108.461 J158.255 K0.000 F2500.000
G2 X361.678 Y15.307 Z-15.850 I-93.842 J216.158 K0.000 F2500.000
G2 X335.710 Y9.531 Z-15.850 I-82.706 J310.578 K0.000 F2500.000
G2 X306.512 Y5.452 Z-15.850 I-66.987 J372.971 K0.000 F2500.000
G2 X265.538 Y2.683 Z-15.850 I-60.144 J585.561 K0.000 F2500.000
G2 X247.669 Y2.431 Z-15.850 I-14.584 J399.042 K0.000 F2500.000
G2 X203.505 Y4.678 Z-15.850 I8.087 J593.861 K0.000 F2500.000
G2 X167.770 Y9.266 Z-15.850 I33.726 J404.161 K0.000 F2500.000
G2 X138.404 Y15.839 Z-15.850 I50.104 J292.748 K0.000 F2500.000
G2 X106.847 Y27.090 Z-15.850 I58.961 J215.251 K0.000 F2500.000
G2 X79.953 Y41.733 Z-15.850 I72.935 J165.980 K0.000 F2500.000
G2 X48.392 Y68.948 Z-15.850 I86.422 J132.128 K0.000 F2500.000
G2 X29.117 Y95.355 Z-15.850 I134.491 J118.412 K0.000 F2500.000
G2 X12.710 Y130.452 Z-15.850 I156.454 J94.520 K0.000 F2500.000
G2 X5.280 Y159.417 Z-15.850 I212.185 J69.863 K0.000 F2500.000
G2 X2.148 Y188.728 Z-15.850 I178.511 J33.896 K0.000 F2500.000
G2 X3.089 Y214.518 Z-15.850 I238.844 J4.203 K0.000 F2500.000
G2 X9.668 Y249.832 Z-15.850 I178.837 J-15.050 K0.000 F2500.000
G2 X20.455 Y279.509 Z-15.850 I258.151 J-77.030 K0.000 F2500.000
G2 X35.719 Y310.348 Z-15.850 I325.773 J-142.046 K0.000 F2500.000
G2 X53.353 Y340.070 Z-15.850 I640.348 J-359.831 K0.000 F2500.000
G1 X66.312 Y361.665 Z-15.850 F2500.000
G1 X68.317 Y365.817 Z-15.850 F2500.000
G1 X68.336 Y365.894 Z-15.850 F2500.000
G3 X67.878 Y368.157 Z-15.850 I-26.903 J-4.262 K0.000 F2500.000
G3 X65.451 Y376.252 Z-15.850 I-142.033 J-38.172 K0.000 F2500.000
G2 X58.914 Y395.833 Z-15.850 I1463.431 J499.431 K0.000 F2500.000
G2 X51.344 Y422.230 Z-15.850 I290.242 J97.525 K0.000 F2500.000
G2 X47.398 Y446.681 Z-15.850 I156.594 J37.810 K0.000 F2500.000
G2 X48.730 Y482.225 Z-15.850 I163.109 J11.686 K0.000 F2500.000
G2 X57.167 Y514.179 Z-15.850 I141.936 J-20.384 K0.000 F2500.000
G2 X128.231 Y592.405 Z-15.850 I139.494 J-55.332 K0.000 F2500.000
G2 X154.928 Y603.198 Z-15.850 I77.477 J-153.231 K0.000 F2500.000
G2 X178.347 Y609.047 Z-15.850 I69.080 J-226.760 K0.000 F2500.000
G2 X234.863 Y614.919 Z-15.850 I61.423 J-316.282 K0.000 F2500.000
G2 X249.205 Y614.989 Z-15.850 I16.063 J-1808.797 K0.000 F2500.000
G2 X266.793 Y614.924 Z-15.850 I5.855 J-798.432 K0.000 F2500.000
G2 X318.305 Y610.040 Z-15.850 I-4.418 J-320.616 K0.000 F2500.000
G2 X343.389 Y604.281 Z-15.850 I-39.309 J-228.765 K0.000 F2500.000
G2 X366.539 Y595.846 Z-15.850 I-46.337 J-163.148 K0.000 F2500.000
G2 X422.331 Y552.784 Z-15.850 I-61.162 J-136.918 K0.000 F2500.000
G1 X422.331 Y552.784 Z-18.000 F1000.000
G2 X440.642 Y523.664 Z-18.000 I-116.954 J-93.856 K0.000 F2500.000
G2 X450.718 Y495.345 Z-18.000 I-125.860 J-60.736 K0.000 F2500.000
G2 X454.992 Y457.550 Z-18.000 I-157.266 J-36.923 K0.000 F2500.000
G2 X452.139 Y429.176 Z-18.000 I-148.062 J0.555 K0.000 F2500.000
G2 X446.176 Y405.694 Z-18.000 I-260.844 J53.743 K0.000 F2500.000
G2 X439.263 Y384.376 Z-18.000 I-840.891 J260.884 K0.000 F2500.000
G3 X435.536 Y373.189 Z-18.000 I382.487 J-133.642 K0.000 F2500.000
G3 X433.715 Y366.408 Z-18.000 I55.242 J-18.472 K0.000 F2500.000
G3 X433.650 Y365.817 Z-18.000 I1.468 J-0.461 K0.000 F2500.000
G1 X435.655 Y361.665 Z-18.000 F2500.000
G1 X448.614 Y340.070 Z-18.000 F2500.000
G2 X463.775 Y314.732 Z-18.000 I-664.107 J-414.586 K0.000 F2500.000
G2 X475.498 Y292.575 Z-18.000 I-322.529 J-184.810 K0.000 F2500.000
G2 X489.823 Y257.703 Z-18.000 I-250.391 J-123.238 K0.000 F2500.000
G2 X497.626 Y225.501 Z-18.000 I-174.942 J-59.441 K0.000 F2500.000
G2 X499.731 Y200.644 Z-18.000 I-229.207 J-31.926 K0.000 F2500.000
G2 X498.445 Y170.506 Z-18.000 I-185.054 J-7.201 K0.000 F2500.000
G2 X488.562 Y128.434 Z-18.000 I-216.555 J28.674 K0.000 F2500.000
G2 X476.791 Y102.218 Z-18.000 I-175.544 J63.070 K0.000 F2500.000
G2 X458.287 Y74.524 Z-18.000 I-157.877 J85.455 K0.000 F2500.000
G2 X425.521 Y44.072 Z-18.000 I-123.062 J99.562 K0.000 F2500.000
G2 X394.298 Y26.706 Z-18.000 I-108.461 J158.255 K0.000 F2500.000
G2 X361.678 Y15.307 Z-18.000 I-93.842 J216.158 K0.000 F2500.000
G2 X335.710 Y9.531 Z-18.000 I-82.706 J310.578 K0.000 F2500.000
G2 X306.512 Y5.452 Z-18.000 I-66.987 J372.971 K0.000 F2500.000
G2 X265.538 Y2.683 Z-18.000 I-60.144 J585.561 K0.000 F2500.000
G2 X247.669 Y2.431 Z-18.000 I-14.584 J399.042 K0.000 F2500.000
G2 X203.505 Y4.678 Z-18.000 I8.087 J593.861 K0.000 F2500.000
G2 X167.770 Y9.266 Z-18.000 I33.726 J404.161 K0.000 F2500.000
G2 X138.404 Y15.839 Z-18.000 I50.104 J292.748 K0.000 F2500.000
G2 X106.847 Y27.090 Z-18.000 I58.961 J215.251 K0.000 F2500.000
G2 X79.953 Y41.733 Z-18.000 I72.935 J165.980 K0.000 F2500.000
G2 X48.392 Y68.948 Z-18.000 I86.422 J132.128 K0.000 F2500.000
G2 X29.117 Y95.355 Z-18.000 I134.491 J118.412 K0.000 F2500.000
G2 X12.710 Y130.452 Z-18.000 I156.454 J94.520 K0.000 F2500.000
G2 X5.280 Y159.417 Z-18.000 I212.185 J69.863 K0.000 F2500.000
G2 X2.148 Y188.728 Z-18.000 I178.511 J33.896 K0.000 F2500.000
G2 X3.089 Y214.518 Z-18.000 I238.844 J4.203 K0.000 F2500.000
G2 X9.668 Y249.832 Z-18.000 I178.837 J-15.050 K0.000 F2500.000
G2 X20.455 Y279.509 Z-18.000 I258.151 J-77.030 K0.000 F2500.000
G2 X35.719 Y310.348 Z-18.000 I325.773 J-142.046 K0.000 F2500.000
G2 X53.353 Y340.070 Z-18.000 I640.348 J-359.831 K0.000 F2500.000
G1 X66.312 Y361.665 Z-18.000 F2500.000
G1 X68.317 Y365.817 Z-18.000 F2500.000
G1 X68.336 Y365.894 Z-18.000 F2500.000
G3 X67.878 Y368.157 Z-18.000 I-26.903 J-4.262 K0.000 F2500.000
G3 X65.451 Y376.252 Z-18.000 I-142.033 J-38.172 K0.000 F2500.000
G2 X58.914 Y395.833 Z-18.000 I1463.431 J499.431 K0.000 F2500.000
G2 X51.344 Y422.230 Z-18.000 I290.242 J97.525 K0.000 F2500.000
G2 X47.398 Y446.681 Z-18.000 I156.594 J37.810 K0.000 F2500.000
G2 X48.730 Y482.225 Z-18.000 I163.109 J11.686 K0.000 F2500.000
G2 X57.167 Y514.179 Z-18.000 I141.936 J-20.384 K0.000 F2500.000
G2 X128.231 Y592.405 Z-18.000 I139.494 J-55.332 K0.000 F2500.000
G2 X154.928 Y603.198 Z-18.000 I77.477 J-153.231 K0.000 F2500.000
G2 X178.347 Y609.047 Z-18.000 I69.080 J-226.760 K0.000 F2500.000
G2 X234.863 Y614.919 Z-18.000 I61.423 J-316.282 K0.000 F2500.000
G2 X249.205 Y614.989 Z-18.000 I16.063 J-1808.797 K0.000 F2500.000
G2 X266.793 Y614.924 Z-18.000 I5.855 J-798.432 K0.000 F2500.000
G2 X318.305 Y610.040 Z-18.000 I-4.418 J-320.616 K0.000 F2500.000
G2 X343.389 Y604.281 Z-18.000 I-39.309 J-228.765 K0.000 F2500.000
G2 X366.539 Y595.846 Z-18.000 I-46.337 J-163.148 K0.000 F2500.000
G2 X422.331 Y552.784 Z-18.000 I-61.162 J-136.918 K0.000 F2500.000
G0 X422.331 Y552.784 Z5.000
(Finish operation: DressupTag002)
(Begin operation: Pocket_Shape002)
(Path: Pocket_Shape002)
(Pocket_Shape002)
G0 Z5.000
G0 X274.388 Y611.537
G0 Z3.000
G1 X274.388 Y611.537 Z-3.170 F1000.000
G3 X260.427 Y611.815 Z-3.170 I-13.859 J-345.057 K0.000 F2500.000
G1 X241.540 Y611.815 Z-3.170 F2500.000
G3 X227.568 Y611.536 Z-3.170 I-0.101 J-345.335 K0.000 F2500.000
G1 X227.568 Y557.448 Z-3.170 F2500.000
G3 X231.031 Y553.985 Z-3.170 I3.423 J-0.040 K0.000 F2500.000
G1 X270.936 Y553.985 Z-3.170 F2500.000
G3 X274.398 Y557.448 Z-3.170 I0.040 J3.423 K0.000 F2500.000
G1 X274.398 Y611.536 Z-3.170 F2500.000
G3 X274.388 Y611.537 Z-3.170 I-13.870 J-345.056 K0.000 F2500.000
G0 Z5.000
G0 X272.179 Y609.396 Z5.000
G0 X272.179 Y609.396 Z3.000
G1 X272.179 Y609.396 Z-3.170 F1000.000
G3 X260.416 Y609.596 Z-3.170 I-11.425 J-325.557 K0.000 F2500.000
G1 X241.550 Y609.596 Z-3.170 F2500.000
G3 X229.787 Y609.396 Z-3.170 I-0.338 J-325.757 K0.000 F2500.000
G1 X229.787 Y557.515 Z-3.170 F2500.000
G3 X231.098 Y556.204 Z-3.170 I1.221 J-0.090 K0.000 F2500.000
G1 X270.869 Y556.204 Z-3.170 F2500.000
G3 X272.179 Y557.515 Z-3.170 I0.090 J1.221 K0.000 F2500.000
G1 X272.179 Y609.396 Z-3.170 F2500.000
G0 Z5.000
G0 X269.960 Y607.247 Z5.000
G0 X269.960 Y607.247 Z3.000
G1 X269.960 Y607.247 Z-3.170 F1000.000
G3 X260.406 Y607.377 Z-3.170 I-10.266 J-402.244 K0.000 F2500.000
G1 X241.561 Y607.377 Z-3.170 F2500.000
G3 X232.006 Y607.247 Z-3.170 I-0.021 J-348.658 K0.000 F2500.000
G1 X232.006 Y558.423 Z-3.170 F2500.000
G1 X269.960 Y558.423 Z-3.170 F2500.000
G1 X269.960 Y607.247 Z-3.170 F2500.000
G0 Z5.000
G0 X267.741 Y605.076 Z5.000
G0 X267.741 Y605.076 Z3.000
G1 X267.741 Y605.076 Z-3.170 F1000.000
G3 X260.395 Y605.158 Z-3.170 I-7.380 J-332.468 K0.000 F2500.000
G1 X241.572 Y605.158 Z-3.170 F2500.000
G3 X234.225 Y605.076 Z-3.170 I0.033 J-332.550 K0.000 F2500.000
G1 X234.225 Y560.642 Z-3.170 F2500.000
G1 X267.741 Y560.642 Z-3.170 F2500.000
G1 X267.741 Y605.076 Z-3.170 F2500.000
G0 Z5.000
G0 X265.522 Y602.888 Z5.000
G0 X265.522 Y602.888 Z3.000
G1 X265.522 Y602.888 Z-3.170 F1000.000
G1 X260.384 Y602.939 Z-3.170 F2500.000
G1 X241.583 Y602.939 Z-3.170 F2500.000
G1 X236.444 Y602.888 Z-3.170 F2500.000
G1 X236.444 Y562.861 Z-3.170 F2500.000
G1 X265.522 Y562.861 Z-3.170 F2500.000
G1 X265.522 Y602.888 Z-3.170 F2500.000
G0 Z5.000
G0 X263.303 Y600.691 Z5.000
G0 X263.303 Y600.691 Z3.000
G1 X263.303 Y600.691 Z-3.170 F1000.000
G1 X260.373 Y600.720 Z-3.170 F2500.000
G1 X241.594 Y600.720 Z-3.170 F2500.000
G1 X238.663 Y600.691 Z-3.170 F2500.000
G1 X238.663 Y565.080 Z-3.170 F2500.000
G1 X263.303 Y565.080 Z-3.170 F2500.000
G1 X263.303 Y600.691 Z-3.170 F2500.000
G0 Z5.000
G0 X261.084 Y598.494 Z5.000
G0 X261.084 Y598.494 Z3.000
G1 X261.084 Y598.494 Z-3.170 F1000.000
G1 X260.362 Y598.501 Z-3.170 F2500.000
G1 X241.605 Y598.501 Z-3.170 F2500.000
G1 X240.882 Y598.494 Z-3.170 F2500.000
G1 X240.882 Y567.299 Z-3.170 F2500.000
G1 X261.084 Y567.299 Z-3.170 F2500.000
G1 X261.084 Y598.494 Z-3.170 F2500.000
G0 Z5.000
G0 X258.865 Y596.282 Z5.000
G0 X258.865 Y596.282 Z3.000
G1 X258.865 Y596.282 Z-3.170 F1000.000
G1 X243.101 Y596.282 Z-3.170 F2500.000
G1 X243.101 Y569.518 Z-3.170 F2500.000
G1 X258.865 Y569.518 Z-3.170 F2500.000
G1 X258.865 Y596.282 Z-3.170 F2500.000
G0 Z5.000
G0 X256.646 Y594.063 Z5.000
G0 X256.646 Y594.063 Z3.000
G1 X256.646 Y594.063 Z-3.170 F1000.000
G1 X245.320 Y594.063 Z-3.170 F2500.000
G1 X245.320 Y571.737 Z-3.170 F2500.000
G1 X256.646 Y571.737 Z-3.170 F2500.000
G1 X256.646 Y594.063 Z-3.170 F2500.000
G0 Z5.000
G0 X254.427 Y591.844 Z5.000
G0 X254.427 Y591.844 Z3.000
G1 X254.427 Y591.844 Z-3.170 F1000.000
G1 X247.539 Y591.844 Z-3.170 F2500.000
G1 X247.539 Y573.956 Z-3.170 F2500.000
G1 X254.427 Y573.956 Z-3.170 F2500.000
G1 X254.427 Y591.844 Z-3.170 F2500.000
G0 Z5.000
G0 X252.208 Y589.625 Z5.000
G0 X252.208 Y589.625 Z3.000
G1 X252.208 Y589.625 Z-3.170 F1000.000
G1 X249.758 Y589.625 Z-3.170 F2500.000
G1 X249.758 Y576.175 Z-3.170 F2500.000
G1 X252.208 Y576.175 Z-3.170 F2500.000
G1 X252.208 Y589.625 Z-3.170 F2500.000
G0 Z5.000
G0 X251.416 Y588.832 Z5.000
G0 X251.416 Y588.832 Z3.000
G1 X251.416 Y588.832 Z-3.170 F1000.000
G1 X250.551 Y588.832 Z-3.170 F2500.000
G1 X250.551 Y576.968 Z-3.170 F2500.000
G1 X251.416 Y576.968 Z-3.170 F2500.000
G1 X251.416 Y588.832 Z-3.170 F2500.000
G1 X251.416 Y588.832 Z-6.340 F1000.000
G1 X250.551 Y588.832 Z-6.340 F2500.000
G1 X250.551 Y576.968 Z-6.340 F2500.000
G1 X251.416 Y576.968 Z-6.340 F2500.000
G1 X251.416 Y588.832 Z-6.340 F2500.000
G0 Z5.000
G0 X252.208 Z5.000
G0 X252.208 Z3.000
G1 X252.208 Y588.832 Z-6.340 F1000.000
G1 X252.208 Y589.625 Z-6.340 F2500.000
G1 X249.758 Y589.625 Z-6.340 F2500.000
G1 X249.758 Y576.175 Z-6.340 F2500.000
G1 X252.208 Y576.175 Z-6.340 F2500.000
G1 X252.208 Y588.832 Z-6.340 F2500.000
G0 Z5.000
G0 X254.427 Z5.000
G0 X254.427 Z3.000
G1 X254.427 Y588.832 Z-6.340 F1000.000
G1 X254.427 Y591.844 Z-6.340 F2500.000
G1 X247.539 Y591.844 Z-6.340 F2500.000
G1 X247.539 Y573.956 Z-6.340 F2500.000
G1 X254.427 Y573.956 Z-6.340 F2500.000
G1 X254.427 Y588.832 Z-6.340 F2500.000
G0 Z5.000
G0 X256.646 Z5.000
G0 X256.646 Z3.000
G1 X256.646 Y588.832 Z-6.340 F1000.000
G1 X256.646 Y594.063 Z-6.340 F2500.000
G1 X245.320 Y594.063 Z-6.340 F2500.000
G1 X245.320 Y571.737 Z-6.340 F2500.000
G1 X256.646 Y571.737 Z-6.340 F2500.000
G1 X256.646 Y588.832 Z-6.340 F2500.000
G0 Z5.000
G0 X258.865 Z5.000
G0 X258.865 Z3.000
G1 X258.865 Y588.832 Z-6.340 F1000.000
G1 X258.865 Y596.282 Z-6.340 F2500.000
G1 X243.101 Y596.282 Z-6.340 F2500.000
G1 X243.101 Y569.518 Z-6.340 F2500.000
G1 X258.865 Y569.518 Z-6.340 F2500.000
G1 X258.865 Y588.832 Z-6.340 F2500.000
G0 Z5.000
G0 X261.084 Z5.000
G0 X261.084 Z3.000
G1 X261.084 Y588.832 Z-6.340 F1000.000
G1 X261.084 Y598.494 Z-6.340 F2500.000
G1 X260.362 Y598.501 Z-6.340 F2500.000
G1 X241.605 Y598.501 Z-6.340 F2500.000
G1 X240.882 Y598.494 Z-6.340 F2500.000
G1 X240.882 Y567.299 Z-6.340 F2500.000
G1 X261.084 Y567.299 Z-6.340 F2500.000
G1 X261.084 Y588.832 Z-6.340 F2500.000
G0 Z5.000
G0 X263.303 Z5.000
G0 X263.303 Z3.000
G1 X263.303 Y588.832 Z-6.340 F1000.000
G1 X263.303 Y600.691 Z-6.340 F2500.000
G1 X260.373 Y600.720 Z-6.340 F2500.000
G1 X241.594 Y600.720 Z-6.340 F2500.000
G1 X238.663 Y600.691 Z-6.340 F2500.000
G1 X238.663 Y565.080 Z-6.340 F2500.000
G1 X263.303 Y565.080 Z-6.340 F2500.000
G1 X263.303 Y588.832 Z-6.340 F2500.000
G0 Z5.000
G0 X265.522 Z5.000
G0 X265.522 Z3.000
G1 X265.522 Y588.832 Z-6.340 F1000.000
G1 X265.522 Y602.888 Z-6.340 F2500.000
G1 X260.384 Y602.939 Z-6.340 F2500.000
G1 X241.583 Y602.939 Z-6.340 F2500.000
G1 X236.444 Y602.888 Z-6.340 F2500.000
G1 X236.444 Y562.861 Z-6.340 F2500.000
G1 X265.522 Y562.861 Z-6.340 F2500.000
G1 X265.522 Y588.832 Z-6.340 F2500.000
G0 Z5.000
G0 X267.741 Z5.000
G0 X267.741 Z3.000
G1 X267.741 Y588.832 Z-6.340 F1000.000
G1 X267.741 Y605.076 Z-6.340 F2500.000
G3 X260.395 Y605.158 Z-6.340 I-7.380 J-332.468 K0.000 F2500.000
G1 X241.572 Y605.158 Z-6.340 F2500.000
G3 X234.225 Y605.076 Z-6.340 I0.033 J-332.550 K0.000 F2500.000
G1 X234.225 Y560.642 Z-6.340 F2500.000
G1 X267.741 Y560.642 Z-6.340 F2500.000
G1 X267.741 Y588.832 Z-6.340 F2500.000
G0 Z5.000
G0 X269.960 Z5.000
G0 X269.960 Z3.000
G1 X269.960 Y588.832 Z-6.340 F1000.000
G1 X269.960 Y607.247 Z-6.340 F2500.000
G3 X260.406 Y607.377 Z-6.340 I-10.266 J-402.244 K0.000 F2500.000
G1 X241.561 Y607.377 Z-6.340 F2500.000
G3 X232.006 Y607.247 Z-6.340 I-0.021 J-348.658 K0.000 F2500.000
G1 X232.006 Y558.423 Z-6.340 F2500.000
G1 X269.960 Y558.423 Z-6.340 F2500.000
G1 X269.960 Y588.832 Z-6.340 F2500.000
G0 Z5.000
G0 X272.179 Z5.000
G0 X272.179 Z3.000
G1 X272.179 Y588.832 Z-6.340 F1000.000
G1 X272.179 Y609.396 Z-6.340 F2500.000
G3 X260.416 Y609.596 Z-6.340 I-11.425 J-325.557 K0.000 F2500.000
G1 X241.550 Y609.596 Z-6.340 F2500.000
G3 X229.787 Y609.396 Z-6.340 I-0.338 J-325.757 K0.000 F2500.000
G1 X229.787 Y557.515 Z-6.340 F2500.000
G3 X231.098 Y556.204 Z-6.340 I1.221 J-0.090 K0.000 F2500.000
G1 X270.869 Y556.204 Z-6.340 F2500.000
G3 X272.179 Y557.515 Z-6.340 I0.090 J1.221 K0.000 F2500.000
G1 X272.179 Y588.832 Z-6.340 F2500.000
G0 Z5.000
G0 X274.398 Z5.000
G0 X274.398 Z3.000
G1 X274.398 Y588.832 Z-6.340 F1000.000
G1 X274.398 Y611.536 Z-6.340 F2500.000
G3 X260.427 Y611.815 Z-6.340 I-13.870 J-345.056 K0.000 F2500.000
G1 X241.540 Y611.815 Z-6.340 F2500.000
G3 X227.568 Y611.536 Z-6.340 I-0.101 J-345.335 K0.000 F2500.000
G1 X227.568 Y557.448 Z-6.340 F2500.000
G3 X231.031 Y553.985 Z-6.340 I3.423 J-0.040 K0.000 F2500.000
G1 X270.936 Y553.985 Z-6.340 F2500.000
G3 X274.398 Y557.448 Z-6.340 I0.040 J3.423 K0.000 F2500.000
G1 X274.398 Y588.832 Z-6.340 F2500.000
G1 X274.398 Y588.832 Z-9.000 F1000.000
G1 X274.398 Y611.536 Z-9.000 F2500.000
G3 X260.427 Y611.815 Z-9.000 I-13.870 J-345.056 K0.000 F2500.000
G1 X241.540 Y611.815 Z-9.000 F2500.000
G3 X227.568 Y611.536 Z-9.000 I-0.101 J-345.335 K0.000 F2500.000
G1 X227.568 Y557.448 Z-9.000 F2500.000
G3 X231.031 Y553.985 Z-9.000 I3.423 J-0.040 K0.000 F2500.000
G1 X270.936 Y553.985 Z-9.000 F2500.000
G3 X274.398 Y557.448 Z-9.000 I0.040 J3.423 K0.000 F2500.000
G1 X274.398 Y588.832 Z-9.000 F2500.000
G0 Z5.000
G0 X272.179 Z5.000
G0 X272.179 Z3.000
G1 X272.179 Y588.832 Z-9.000 F1000.000
G1 X272.179 Y609.396 Z-9.000 F2500.000
G3 X260.416 Y609.596 Z-9.000 I-11.425 J-325.557 K0.000 F2500.000
G1 X241.550 Y609.596 Z-9.000 F2500.000
G3 X229.787 Y609.396 Z-9.000 I-0.338 J-325.757 K0.000 F2500.000
G1 X229.787 Y557.515 Z-9.000 F2500.000
G3 X231.098 Y556.204 Z-9.000 I1.221 J-0.090 K0.000 F2500.000
G1 X270.869 Y556.204 Z-9.000 F2500.000
G3 X272.179 Y557.515 Z-9.000 I0.090 J1.221 K0.000 F2500.000
G1 X272.179 Y588.832 Z-9.000 F2500.000
G0 Z5.000
G0 X269.960 Z5.000
G0 X269.960 Z3.000
G1 X269.960 Y588.832 Z-9.000 F1000.000
G1 X269.960 Y607.247 Z-9.000 F2500.000
G3 X260.406 Y607.377 Z-9.000 I-10.266 J-402.244 K0.000 F2500.000
G1 X241.561 Y607.377 Z-9.000 F2500.000
G3 X232.006 Y607.247 Z-9.000 I-0.021 J-348.658 K0.000 F2500.000
G1 X232.006 Y558.423 Z-9.000 F2500.000
G1 X269.960 Y558.423 Z-9.000 F2500.000
G1 X269.960 Y588.832 Z-9.000 F2500.000
G0 Z5.000
G0 X267.741 Z5.000
G0 X267.741 Z3.000
G1 X267.741 Y588.832 Z-9.000 F1000.000
G1 X267.741 Y605.076 Z-9.000 F2500.000
G3 X260.395 Y605.158 Z-9.000 I-7.380 J-332.468 K0.000 F2500.000
G1 X241.572 Y605.158 Z-9.000 F2500.000
G3 X234.225 Y605.076 Z-9.000 I0.033 J-332.550 K0.000 F2500.000
G1 X234.225 Y560.642 Z-9.000 F2500.000
G1 X267.741 Y560.642 Z-9.000 F2500.000
G1 X267.741 Y588.832 Z-9.000 F2500.000
G0 Z5.000
G0 X265.522 Z5.000
G0 X265.522 Z3.000
G1 X265.522 Y588.832 Z-9.000 F1000.000
G1 X265.522 Y602.888 Z-9.000 F2500.000
G1 X260.384 Y602.939 Z-9.000 F2500.000
G1 X241.583 Y602.939 Z-9.000 F2500.000
G1 X236.444 Y602.888 Z-9.000 F2500.000
G1 X236.444 Y562.861 Z-9.000 F2500.000
G1 X265.522 Y562.861 Z-9.000 F2500.000
G1 X265.522 Y588.832 Z-9.000 F2500.000
G0 Z5.000
G0 X263.303 Z5.000
G0 X263.303 Z3.000
G1 X263.303 Y588.832 Z-9.000 F1000.000
G1 X263.303 Y600.691 Z-9.000 F2500.000
G1 X260.373 Y600.720 Z-9.000 F2500.000
G1 X241.594 Y600.720 Z-9.000 F2500.000
G1 X238.663 Y600.691 Z-9.000 F2500.000
G1 X238.663 Y565.080 Z-9.000 F2500.000
G1 X263.303 Y565.080 Z-9.000 F2500.000
G1 X263.303 Y588.832 Z-9.000 F2500.000
G0 Z5.000
G0 X261.084 Z5.000
G0 X261.084 Z3.000
G1 X261.084 Y588.832 Z-9.000 F1000.000
G1 X261.084 Y598.494 Z-9.000 F2500.000
G1 X260.362 Y598.501 Z-9.000 F2500.000
G1 X241.605 Y598.501 Z-9.000 F2500.000
G1 X240.882 Y598.494 Z-9.000 F2500.000
G1 X240.882 Y567.299 Z-9.000 F2500.000
G1 X261.084 Y567.299 Z-9.000 F2500.000
G1 X261.084 Y588.832 Z-9.000 F2500.000
G0 Z5.000
G0 X258.865 Z5.000
G0 X258.865 Z3.000
G1 X258.865 Y588.832 Z-9.000 F1000.000
G1 X258.865 Y596.282 Z-9.000 F2500.000
G1 X243.101 Y596.282 Z-9.000 F2500.000
G1 X243.101 Y569.518 Z-9.000 F2500.000
G1 X258.865 Y569.518 Z-9.000 F2500.000
G1 X258.865 Y588.832 Z-9.000 F2500.000
G0 Z5.000
G0 X256.646 Z5.000
G0 X256.646 Z3.000
G1 X256.646 Y588.832 Z-9.000 F1000.000
G1 X256.646 Y594.063 Z-9.000 F2500.000
G1 X245.320 Y594.063 Z-9.000 F2500.000
G1 X245.320 Y571.737 Z-9.000 F2500.000
G1 X256.646 Y571.737 Z-9.000 F2500.000
G1 X256.646 Y588.832 Z-9.000 F2500.000
G0 Z5.000
G0 X254.427 Z5.000
G0 X254.427 Z3.000
G1 X254.427 Y588.832 Z-9.000 F1000.000
G1 X254.427 Y591.844 Z-9.000 F2500.000
G1 X247.539 Y591.844 Z-9.000 F2500.000
G1 X247.539 Y573.956 Z-9.000 F2500.000
G1 X254.427 Y573.956 Z-9.000 F2500.000
G1 X254.427 Y588.832 Z-9.000 F2500.000
G0 Z5.000
G0 X252.208 Z5.000
G0 X252.208 Z3.000
G1 X252.208 Y588.832 Z-9.000 F1000.000
G1 X252.208 Y589.625 Z-9.000 F2500.000
G1 X249.758 Y589.625 Z-9.000 F2500.000
G1 X249.758 Y576.175 Z-9.000 F2500.000
G1 X252.208 Y576.175 Z-9.000 F2500.000
G1 X252.208 Y588.832 Z-9.000 F2500.000
G0 Z5.000
G0 X251.416 Z5.000
G0 X251.416 Z3.000
G1 X251.416 Y588.832 Z-9.000 F1000.000
G1 X250.551 Y588.832 Z-9.000 F2500.000
G1 X250.551 Y576.968 Z-9.000 F2500.000
G1 X251.416 Y576.968 Z-9.000 F2500.000
G1 X251.416 Y588.832 Z-9.000 F2500.000
G0 Z5.000
G0 Z5.000
(Finish operation: Pocket_Shape002)
(Begin operation: Helix001)
(Path: Helix001)
(Helix001)
(helix cut operation)
G0 Z5.000
G0 Z5.000
G0 X200.983 Y32.500 Z5.000
G0 X200.983 Y32.500 Z0.000
G0 X204.348 Y32.500
G1 Z0.000 F1000.000
G2 X197.618 Y32.500 Z-0.750 I-3.365 J0.000 F2500.000
G2 X204.348 Y32.500 Z-1.500 I3.365 J0.000 F2500.000
G2 X197.618 Y32.500 Z-2.250 I-3.365 J0.000 F2500.000
G2 X204.348 Y32.500 Z-3.000 I3.365 J0.000 F2500.000
G2 X197.618 Y32.500 Z-3.750 I-3.365 J0.000 F2500.000
G2 X204.348 Y32.500 Z-4.500 I3.365 J0.000 F2500.000
G2 X197.618 Y32.500 Z-5.250 I-3.365 J0.000 F2500.000
G2 X204.348 Y32.500 Z-6.000 I3.365 J0.000 F2500.000
G2 X197.618 Y32.500 Z-6.750 I-3.365 J0.000 F2500.000
G2 X204.348 Y32.500 Z-7.500 I3.365 J0.000 F2500.000
G2 X197.618 Y32.500 Z-8.250 I-3.365 J0.000 F2500.000
G2 X204.348 Y32.500 Z-9.000 I3.365 J0.000 F2500.000
G2 X197.618 Y32.500 Z-9.750 I-3.365 J0.000 F2500.000
G2 X204.348 Y32.500 Z-10.500 I3.365 J0.000 F2500.000
G2 X197.618 Y32.500 Z-11.250 I-3.365 J0.000 F2500.000
G2 X204.348 Y32.500 Z-12.000 I3.365 J0.000 F2500.000
G2 X197.618 Y32.500 Z-12.750 I-3.365 J0.000 F2500.000
G2 X204.348 Y32.500 Z-13.500 I3.365 J0.000 F2500.000
G2 X197.618 Y32.500 Z-14.250 I-3.365 J0.000 F2500.000
G2 X204.348 Y32.500 Z-15.000 I3.365 J0.000 F2500.000
G2 X197.618 Y32.500 Z-15.750 I-3.365 J0.000 F2500.000
G2 X204.348 Y32.500 Z-16.500 I3.365 J0.000 F2500.000
G2 X197.618 Y32.500 Z-17.250 I-3.365 J0.000 F2500.000
G2 X204.348 Y32.500 Z-18.000 I3.365 J0.000 F2500.000
G2 X197.618 Y32.500 Z-18.000 I-3.365 J0.000 F2500.000
G2 X204.348 Y32.500 Z-18.000 I3.365 J0.000 F2500.000
G0 Z0.000
G0 X203.458 Y32.500
G1 Z0.000 F1000.000
G2 X198.508 Y32.500 Z-0.750 I-2.475 J0.000 F2500.000
G2 X203.458 Y32.500 Z-1.500 I2.475 J0.000 F2500.000
G2 X198.508 Y32.500 Z-2.250 I-2.475 J0.000 F2500.000
G2 X203.458 Y32.500 Z-3.000 I2.475 J0.000 F2500.000
G2 X198.508 Y32.500 Z-3.750 I-2.475 J0.000 F2500.000
G2 X203.458 Y32.500 Z-4.500 I2.475 J0.000 F2500.000
G2 X198.508 Y32.500 Z-5.250 I-2.475 J0.000 F2500.000
G2 X203.458 Y32.500 Z-6.000 I2.475 J0.000 F2500.000
G2 X198.508 Y32.500 Z-6.750 I-2.475 J0.000 F2500.000
G2 X203.458 Y32.500 Z-7.500 I2.475 J0.000 F2500.000
G2 X198.508 Y32.500 Z-8.250 I-2.475 J0.000 F2500.000
G2 X203.458 Y32.500 Z-9.000 I2.475 J0.000 F2500.000
G2 X198.508 Y32.500 Z-9.750 I-2.475 J0.000 F2500.000
G2 X203.458 Y32.500 Z-10.500 I2.475 J0.000 F2500.000
G2 X198.508 Y32.500 Z-11.250 I-2.475 J0.000 F2500.000
G2 X203.458 Y32.500 Z-12.000 I2.475 J0.000 F2500.000
G2 X198.508 Y32.500 Z-12.750 I-2.475 J0.000 F2500.000
G2 X203.458 Y32.500 Z-13.500 I2.475 J0.000 F2500.000
G2 X198.508 Y32.500 Z-14.250 I-2.475 J0.000 F2500.000
G2 X203.458 Y32.500 Z-15.000 I2.475 J0.000 F2500.000
G2 X198.508 Y32.500 Z-15.750 I-2.475 J0.000 F2500.000
G2 X203.458 Y32.500 Z-16.500 I2.475 J0.000 F2500.000
G2 X198.508 Y32.500 Z-17.250 I-2.475 J0.000 F2500.000
G2 X203.458 Y32.500 Z-18.000 I2.475 J0.000 F2500.000
G2 X198.508 Y32.500 Z-18.000 I-2.475 J0.000 F2500.000
G2 X203.458 Y32.500 Z-18.000 I2.475 J0.000 F2500.000
G0 Z0.000
G0 X202.568 Y32.500
G1 Z0.000 F1000.000
G2 X199.398 Y32.500 Z-0.750 I-1.585 J0.000 F2500.000
G2 X202.568 Y32.500 Z-1.500 I1.585 J0.000 F2500.000
G2 X199.398 Y32.500 Z-2.250 I-1.585 J0.000 F2500.000
G2 X202.568 Y32.500 Z-3.000 I1.585 J0.000 F2500.000
G2 X199.398 Y32.500 Z-3.750 I-1.585 J0.000 F2500.000
G2 X202.568 Y32.500 Z-4.500 I1.585 J0.000 F2500.000
G2 X199.398 Y32.500 Z-5.250 I-1.585 J0.000 F2500.000
G2 X202.568 Y32.500 Z-6.000 I1.585 J0.000 F2500.000
G2 X199.398 Y32.500 Z-6.750 I-1.585 J0.000 F2500.000
G2 X202.568 Y32.500 Z-7.500 I1.585 J0.000 F2500.000
G2 X199.398 Y32.500 Z-8.250 I-1.585 J0.000 F2500.000
G2 X202.568 Y32.500 Z-9.000 I1.585 J0.000 F2500.000
G2 X199.398 Y32.500 Z-9.750 I-1.585 J0.000 F2500.000
G2 X202.568 Y32.500 Z-10.500 I1.585 J0.000 F2500.000
G2 X199.398 Y32.500 Z-11.250 I-1.585 J0.000 F2500.000
G2 X202.568 Y32.500 Z-12.000 I1.585 J0.000 F2500.000
G2 X199.398 Y32.500 Z-12.750 I-1.585 J0.000 F2500.000
G2 X202.568 Y32.500 Z-13.500 I1.585 J0.000 F2500.000
G2 X199.398 Y32.500 Z-14.250 I-1.585 J0.000 F2500.000
G2 X202.568 Y32.500 Z-15.000 I1.585 J0.000 F2500.000
G2 X199.398 Y32.500 Z-15.750 I-1.585 J0.000 F2500.000
G2 X202.568 Y32.500 Z-16.500 I1.585 J0.000 F2500.000
G2 X199.398 Y32.500 Z-17.250 I-1.585 J0.000 F2500.000
G2 X202.568 Y32.500 Z-18.000 I1.585 J0.000 F2500.000
G2 X199.398 Y32.500 Z-18.000 I-1.585 J0.000 F2500.000
G2 X202.568 Y32.500 Z-18.000 I1.585 J0.000 F2500.000
G0 Z0.000
G0 Z5.000
G0 X300.983 Y32.500 Z5.000
G0 X300.983 Y32.500 Z0.000
G0 X304.348 Y32.500
G1 Z0.000 F1000.000
G2 X297.618 Y32.500 Z-0.750 I-3.365 J0.000 F2500.000
G2 X304.348 Y32.500 Z-1.500 I3.365 J0.000 F2500.000
G2 X297.618 Y32.500 Z-2.250 I-3.365 J0.000 F2500.000
G2 X304.348 Y32.500 Z-3.000 I3.365 J0.000 F2500.000
G2 X297.618 Y32.500 Z-3.750 I-3.365 J0.000 F2500.000
G2 X304.348 Y32.500 Z-4.500 I3.365 J0.000 F2500.000
G2 X297.618 Y32.500 Z-5.250 I-3.365 J0.000 F2500.000
G2 X304.348 Y32.500 Z-6.000 I3.365 J0.000 F2500.000
G2 X297.618 Y32.500 Z-6.750 I-3.365 J0.000 F2500.000
G2 X304.348 Y32.500 Z-7.500 I3.365 J0.000 F2500.000
G2 X297.618 Y32.500 Z-8.250 I-3.365 J0.000 F2500.000
G2 X304.348 Y32.500 Z-9.000 I3.365 J0.000 F2500.000
G2 X297.618 Y32.500 Z-9.750 I-3.365 J0.000 F2500.000
G2 X304.348 Y32.500 Z-10.500 I3.365 J0.000 F2500.000
G2 X297.618 Y32.500 Z-11.250 I-3.365 J0.000 F2500.000
G2 X304.348 Y32.500 Z-12.000 I3.365 J0.000 F2500.000
G2 X297.618 Y32.500 Z-12.750 I-3.365 J0.000 F2500.000
G2 X304.348 Y32.500 Z-13.500 I3.365 J0.000 F2500.000
G2 X297.618 Y32.500 Z-14.250 I-3.365 J0.000 F2500.000
G2 X304.348 Y32.500 Z-15.000 I3.365 J0.000 F2500.000
G2 X297.618 Y32.500 Z-15.750 I-3.365 J0.000 F2500.000
G2 X304.348 Y32.500 Z-16.500 I3.365 J0.000 F2500.000
G2 X297.618 Y32.500 Z-17.250 I-3.365 J0.000 F2500.000
G2 X304.348 Y32.500 Z-18.000 I3.365 J0.000 F2500.000
G2 X297.618 Y32.500 Z-18.000 I-3.365 J0.000 F2500.000
G2 X304.348 Y32.500 Z-18.000 I3.365 J0.000 F2500.000
G0 Z0.000
G0 X303.458 Y32.500
G1 Z0.000 F1000.000
G2 X298.508 Y32.500 Z-0.750 I-2.475 J0.000 F2500.000
G2 X303.458 Y32.500 Z-1.500 I2.475 J0.000 F2500.000
G2 X298.508 Y32.500 Z-2.250 I-2.475 J0.000 F2500.000
G2 X303.458 Y32.500 Z-3.000 I2.475 J0.000 F2500.000
G2 X298.508 Y32.500 Z-3.750 I-2.475 J0.000 F2500.000
G2 X303.458 Y32.500 Z-4.500 I2.475 J0.000 F2500.000
G2 X298.508 Y32.500 Z-5.250 I-2.475 J0.000 F2500.000
G2 X303.458 Y32.500 Z-6.000 I2.475 J0.000 F2500.000
G2 X298.508 Y32.500 Z-6.750 I-2.475 J0.000 F2500.000
G2 X303.458 Y32.500 Z-7.500 I2.475 J0.000 F2500.000
G2 X298.508 Y32.500 Z-8.250 I-2.475 J0.000 F2500.000
G2 X303.458 Y32.500 Z-9.000 I2.475 J0.000 F2500.000
G2 X298.508 Y32.500 Z-9.750 I-2.475 J0.000 F2500.000
G2 X303.458 Y32.500 Z-10.500 I2.475 J0.000 F2500.000
G2 X298.508 Y32.500 Z-11.250 I-2.475 J0.000 F2500.000
G2 X303.458 Y32.500 Z-12.000 I2.475 J0.000 F2500.000
G2 X298.508 Y32.500 Z-12.750 I-2.475 J0.000 F2500.000
G2 X303.458 Y32.500 Z-13.500 I2.475 J0.000 F2500.000
G2 X298.508 Y32.500 Z-14.250 I-2.475 J0.000 F2500.000
G2 X303.458 Y32.500 Z-15.000 I2.475 J0.000 F2500.000
G2 X298.508 Y32.500 Z-15.750 I-2.475 J0.000 F2500.000
G2 X303.458 Y32.500 Z-16.500 I2.475 J0.000 F2500.000
G2 X298.508 Y32.500 Z-17.250 I-2.475 J0.000 F2500.000
G2 X303.458 Y32.500 Z-18.000 I2.475 J0.000 F2500.000
G2 X298.508 Y32.500 Z-18.000 I-2.475 J0.000 F2500.000
G2 X303.458 Y32.500 Z-18.000 I2.475 J0.000 F2500.000
G0 Z0.000
G0 X302.568 Y32.500
G1 Z0.000 F1000.000
G2 X299.398 Y32.500 Z-0.750 I-1.585 J0.000 F2500.000
G2 X302.568 Y32.500 Z-1.500 I1.585 J0.000 F2500.000
G2 X299.398 Y32.500 Z-2.250 I-1.585 J0.000 F2500.000
G2 X302.568 Y32.500 Z-3.000 I1.585 J0.000 F2500.000
G2 X299.398 Y32.500 Z-3.750 I-1.585 J0.000 F2500.000
G2 X302.568 Y32.500 Z-4.500 I1.585 J0.000 F2500.000
G2 X299.398 Y32.500 Z-5.250 I-1.585 J0.000 F2500.000
G2 X302.568 Y32.500 Z-6.000 I1.585 J0.000 F2500.000
G2 X299.398 Y32.500 Z-6.750 I-1.585 J0.000 F2500.000
G2 X302.568 Y32.500 Z-7.500 I1.585 J0.000 F2500.000
G2 X299.398 Y32.500 Z-8.250 I-1.585 J0.000 F2500.000
G2 X302.568 Y32.500 Z-9.000 I1.585 J0.000 F2500.000
G2 X299.398 Y32.500 Z-9.750 I-1.585 J0.000 F2500.000
G2 X302.568 Y32.500 Z-10.500 I1.585 J0.000 F2500.000
G2 X299.398 Y32.500 Z-11.250 I-1.585 J0.000 F2500.000
G2 X302.568 Y32.500 Z-12.000 I1.585 J0.000 F2500.000
G2 X299.398 Y32.500 Z-12.750 I-1.585 J0.000 F2500.000
G2 X302.568 Y32.500 Z-13.500 I1.585 J0.000 F2500.000
G2 X299.398 Y32.500 Z-14.250 I-1.585 J0.000 F2500.000
G2 X302.568 Y32.500 Z-15.000 I1.585 J0.000 F2500.000
G2 X299.398 Y32.500 Z-15.750 I-1.585 J0.000 F2500.000
G2 X302.568 Y32.500 Z-16.500 I1.585 J0.000 F2500.000
G2 X299.398 Y32.500 Z-17.250 I-1.585 J0.000 F2500.000
G2 X302.568 Y32.500 Z-18.000 I1.585 J0.000 F2500.000
G2 X299.398 Y32.500 Z-18.000 I-1.585 J0.000 F2500.000
G2 X302.568 Y32.500 Z-18.000 I1.585 J0.000 F2500.000
G0 Z0.000
G0 Z5.000
G0 X405.983 Y365.000 Z5.000
G0 X405.983 Y365.000 Z0.000
G0 X409.348 Y365.000
G1 Z0.000 F1000.000
G2 X402.618 Y365.000 Z-0.750 I-3.365 J0.000 F2500.000
G2 X409.348 Y365.000 Z-1.500 I3.365 J0.000 F2500.000
G2 X402.618 Y365.000 Z-2.250 I-3.365 J0.000 F2500.000
G2 X409.348 Y365.000 Z-3.000 I3.365 J0.000 F2500.000
G2 X402.618 Y365.000 Z-3.750 I-3.365 J0.000 F2500.000
G2 X409.348 Y365.000 Z-4.500 I3.365 J0.000 F2500.000
G2 X402.618 Y365.000 Z-5.250 I-3.365 J0.000 F2500.000
G2 X409.348 Y365.000 Z-6.000 I3.365 J0.000 F2500.000
G2 X402.618 Y365.000 Z-6.750 I-3.365 J0.000 F2500.000
G2 X409.348 Y365.000 Z-7.500 I3.365 J0.000 F2500.000
G2 X402.618 Y365.000 Z-8.250 I-3.365 J0.000 F2500.000
G2 X409.348 Y365.000 Z-9.000 I3.365 J0.000 F2500.000
G2 X402.618 Y365.000 Z-9.750 I-3.365 J0.000 F2500.000
G2 X409.348 Y365.000 Z-10.500 I3.365 J0.000 F2500.000
G2 X402.618 Y365.000 Z-11.250 I-3.365 J0.000 F2500.000
G2 X409.348 Y365.000 Z-12.000 I3.365 J0.000 F2500.000
G2 X402.618 Y365.000 Z-12.750 I-3.365 J0.000 F2500.000
G2 X409.348 Y365.000 Z-13.500 I3.365 J0.000 F2500.000
G2 X402.618 Y365.000 Z-14.250 I-3.365 J0.000 F2500.000
G2 X409.348 Y365.000 Z-15.000 I3.365 J0.000 F2500.000
G2 X402.618 Y365.000 Z-15.750 I-3.365 J0.000 F2500.000
G2 X409.348 Y365.000 Z-16.500 I3.365 J0.000 F2500.000
G2 X402.618 Y365.000 Z-17.250 I-3.365 J0.000 F2500.000
G2 X409.348 Y365.000 Z-18.000 I3.365 J0.000 F2500.000
G2 X402.618 Y365.000 Z-18.000 I-3.365 J0.000 F2500.000
G2 X409.348 Y365.000 Z-18.000 I3.365 J0.000 F2500.000
G0 Z0.000
G0 X408.458 Y365.000
G1 Z0.000 F1000.000
G2 X403.508 Y365.000 Z-0.750 I-2.475 J0.000 F2500.000
G2 X408.458 Y365.000 Z-1.500 I2.475 J0.000 F2500.000
G2 X403.508 Y365.000 Z-2.250 I-2.475 J0.000 F2500.000
G2 X408.458 Y365.000 Z-3.000 I2.475 J0.000 F2500.000
G2 X403.508 Y365.000 Z-3.750 I-2.475 J0.000 F2500.000
G2 X408.458 Y365.000 Z-4.500 I2.475 J0.000 F2500.000
G2 X403.508 Y365.000 Z-5.250 I-2.475 J0.000 F2500.000
G2 X408.458 Y365.000 Z-6.000 I2.475 J0.000 F2500.000
G2 X403.508 Y365.000 Z-6.750 I-2.475 J0.000 F2500.000
G2 X408.458 Y365.000 Z-7.500 I2.475 J0.000 F2500.000
G2 X403.508 Y365.000 Z-8.250 I-2.475 J0.000 F2500.000
G2 X408.458 Y365.000 Z-9.000 I2.475 J0.000 F2500.000
G2 X403.508 Y365.000 Z-9.750 I-2.475 J0.000 F2500.000
G2 X408.458 Y365.000 Z-10.500 I2.475 J0.000 F2500.000
G2 X403.508 Y365.000 Z-11.250 I-2.475 J0.000 F2500.000
G2 X408.458 Y365.000 Z-12.000 I2.475 J0.000 F2500.000
G2 X403.508 Y365.000 Z-12.750 I-2.475 J0.000 F2500.000
G2 X408.458 Y365.000 Z-13.500 I2.475 J0.000 F2500.000
G2 X403.508 Y365.000 Z-14.250 I-2.475 J0.000 F2500.000
G2 X408.458 Y365.000 Z-15.000 I2.475 J0.000 F2500.000
G2 X403.508 Y365.000 Z-15.750 I-2.475 J0.000 F2500.000
G2 X408.458 Y365.000 Z-16.500 I2.475 J0.000 F2500.000
G2 X403.508 Y365.000 Z-17.250 I-2.475 J0.000 F2500.000
G2 X408.458 Y365.000 Z-18.000 I2.475 J0.000 F2500.000
G2 X403.508 Y365.000 Z-18.000 I-2.475 J0.000 F2500.000
G2 X408.458 Y365.000 Z-18.000 I2.475 J0.000 F2500.000
G0 Z0.000
G0 X407.568 Y365.000
G1 Z0.000 F1000.000
G2 X404.398 Y365.000 Z-0.750 I-1.585 J0.000 F2500.000
G2 X407.568 Y365.000 Z-1.500 I1.585 J0.000 F2500.000
G2 X404.398 Y365.000 Z-2.250 I-1.585 J0.000 F2500.000
G2 X407.568 Y365.000 Z-3.000 I1.585 J0.000 F2500.000
G2 X404.398 Y365.000 Z-3.750 I-1.585 J0.000 F2500.000
G2 X407.568 Y365.000 Z-4.500 I1.585 J0.000 F2500.000
G2 X404.398 Y365.000 Z-5.250 I-1.585 J0.000 F2500.000
G2 X407.568 Y365.000 Z-6.000 I1.585 J0.000 F2500.000
G2 X404.398 Y365.000 Z-6.750 I-1.585 J0.000 F2500.000
G2 X407.568 Y365.000 Z-7.500 I1.585 J0.000 F2500.000
G2 X404.398 Y365.000 Z-8.250 I-1.585 J0.000 F2500.000
G2 X407.568 Y365.000 Z-9.000 I1.585 J0.000 F2500.000
G2 X404.398 Y365.000 Z-9.750 I-1.585 J0.000 F2500.000
G2 X407.568 Y365.000 Z-10.500 I1.585 J0.000 F2500.000
G2 X404.398 Y365.000 Z-11.250 I-1.585 J0.000 F2500.000
G2 X407.568 Y365.000 Z-12.000 I1.585 J0.000 F2500.000
G2 X404.398 Y365.000 Z-12.750 I-1.585 J0.000 F2500.000
G2 X407.568 Y365.000 Z-13.500 I1.585 J0.000 F2500.000
G2 X404.398 Y365.000 Z-14.250 I-1.585 J0.000 F2500.000
G2 X407.568 Y365.000 Z-15.000 I1.585 J0.000 F2500.000
G2 X404.398 Y365.000 Z-15.750 I-1.585 J0.000 F2500.000
G2 X407.568 Y365.000 Z-16.500 I1.585 J0.000 F2500.000
G2 X404.398 Y365.000 Z-17.250 I-1.585 J0.000 F2500.000
G2 X407.568 Y365.000 Z-18.000 I1.585 J0.000 F2500.000
G2 X404.398 Y365.000 Z-18.000 I-1.585 J0.000 F2500.000
G2 X407.568 Y365.000 Z-18.000 I1.585 J0.000 F2500.000
G0 Z0.000
G0 Z5.000
G0 X300.983 Y584.900 Z5.000
G0 X300.983 Y584.900 Z0.000
G0 X304.348 Y584.900
G1 Z0.000 F1000.000
G2 X297.618 Y584.900 Z-0.750 I-3.365 J0.000 F2500.000
G2 X304.348 Y584.900 Z-1.500 I3.365 J0.000 F2500.000
G2 X297.618 Y584.900 Z-2.250 I-3.365 J0.000 F2500.000
G2 X304.348 Y584.900 Z-3.000 I3.365 J0.000 F2500.000
G2 X297.618 Y584.900 Z-3.750 I-3.365 J0.000 F2500.000
G2 X304.348 Y584.900 Z-4.500 I3.365 J0.000 F2500.000
G2 X297.618 Y584.900 Z-5.250 I-3.365 J0.000 F2500.000
G2 X304.348 Y584.900 Z-6.000 I3.365 J0.000 F2500.000
G2 X297.618 Y584.900 Z-6.750 I-3.365 J0.000 F2500.000
G2 X304.348 Y584.900 Z-7.500 I3.365 J0.000 F2500.000
G2 X297.618 Y584.900 Z-8.250 I-3.365 J0.000 F2500.000
G2 X304.348 Y584.900 Z-9.000 I3.365 J0.000 F2500.000
G2 X297.618 Y584.900 Z-9.750 I-3.365 J0.000 F2500.000
G2 X304.348 Y584.900 Z-10.500 I3.365 J0.000 F2500.000
G2 X297.618 Y584.900 Z-11.250 I-3.365 J0.000 F2500.000
G2 X304.348 Y584.900 Z-12.000 I3.365 J0.000 F2500.000
G2 X297.618 Y584.900 Z-12.750 I-3.365 J0.000 F2500.000
G2 X304.348 Y584.900 Z-13.500 I3.365 J0.000 F2500.000
G2 X297.618 Y584.900 Z-14.250 I-3.365 J0.000 F2500.000
G2 X304.348 Y584.900 Z-15.000 I3.365 J0.000 F2500.000
G2 X297.618 Y584.900 Z-15.750 I-3.365 J0.000 F2500.000
G2 X304.348 Y584.900 Z-16.500 I3.365 J0.000 F2500.000
G2 X297.618 Y584.900 Z-17.250 I-3.365 J0.000 F2500.000
G2 X304.348 Y584.900 Z-18.000 I3.365 J0.000 F2500.000
G2 X297.618 Y584.900 Z-18.000 I-3.365 J0.000 F2500.000
G2 X304.348 Y584.900 Z-18.000 I3.365 J0.000 F2500.000
G0 Z0.000
G0 X303.458 Y584.900
G1 Z0.000 F1000.000
G2 X298.508 Y584.900 Z-0.750 I-2.475 J0.000 F2500.000
G2 X303.458 Y584.900 Z-1.500 I2.475 J0.000 F2500.000
G2 X298.508 Y584.900 Z-2.250 I-2.475 J0.000 F2500.000
G2 X303.458 Y584.900 Z-3.000 I2.475 J0.000 F2500.000
G2 X298.508 Y584.900 Z-3.750 I-2.475 J0.000 F2500.000
G2 X303.458 Y584.900 Z-4.500 I2.475 J0.000 F2500.000
G2 X298.508 Y584.900 Z-5.250 I-2.475 J0.000 F2500.000
G2 X303.458 Y584.900 Z-6.000 I2.475 J0.000 F2500.000
G2 X298.508 Y584.900 Z-6.750 I-2.475 J0.000 F2500.000
G2 X303.458 Y584.900 Z-7.500 I2.475 J0.000 F2500.000
G2 X298.508 Y584.900 Z-8.250 I-2.475 J0.000 F2500.000
G2 X303.458 Y584.900 Z-9.000 I2.475 J0.000 F2500.000
G2 X298.508 Y584.900 Z-9.750 I-2.475 J0.000 F2500.000
G2 X303.458 Y584.900 Z-10.500 I2.475 J0.000 F2500.000
G2 X298.508 Y584.900 Z-11.250 I-2.475 J0.000 F2500.000
G2 X303.458 Y584.900 Z-12.000 I2.475 J0.000 F2500.000
G2 X298.508 Y584.900 Z-12.750 I-2.475 J0.000 F2500.000
G2 X303.458 Y584.900 Z-13.500 I2.475 J0.000 F2500.000
G2 X298.508 Y584.900 Z-14.250 I-2.475 J0.000 F2500.000
G2 X303.458 Y584.900 Z-15.000 I2.475 J0.000 F2500.000
G2 X298.508 Y584.900 Z-15.750 I-2.475 J0.000 F2500.000
G2 X303.458 Y584.900 Z-16.500 I2.475 J0.000 F2500.000
G2 X298.508 Y584.900 Z-17.250 I-2.475 J0.000 F2500.000
G2 X303.458 Y584.900 Z-18.000 I2.475 J0.000 F2500.000
G2 X298.508 Y584.900 Z-18.000 I-2.475 J0.000 F2500.000
G2 X303.458 Y584.900 Z-18.000 I2.475 J0.000 F2500.000
G0 Z0.000
G0 X302.568 Y584.900
G1 Z0.000 F1000.000
G2 X299.398 Y584.900 Z-0.750 I-1.585 J0.000 F2500.000
G2 X302.568 Y584.900 Z-1.500 I1.585 J0.000 F2500.000
G2 X299.398 Y584.900 Z-2.250 I-1.585 J0.000 F2500.000
G2 X302.568 Y584.900 Z-3.000 I1.585 J0.000 F2500.000
G2 X299.398 Y584.900 Z-3.750 I-1.585 J0.000 F2500.000
G2 X302.568 Y584.900 Z-4.500 I1.585 J0.000 F2500.000
G2 X299.398 Y584.900 Z-5.250 I-1.585 J0.000 F2500.000
G2 X302.568 Y584.900 Z-6.000 I1.585 J0.000 F2500.000
G2 X299.398 Y584.900 Z-6.750 I-1.585 J0.000 F2500.000
G2 X302.568 Y584.900 Z-7.500 I1.585 J0.000 F2500.000
G2 X299.398 Y584.900 Z-8.250 I-1.585 J0.000 F2500.000
G2 X302.568 Y584.900 Z-9.000 I1.585 J0.000 F2500.000
G2 X299.398 Y584.900 Z-9.750 I-1.585 J0.000 F2500.000
G2 X302.568 Y584.900 Z-10.500 I1.585 J0.000 F2500.000
G2 X299.398 Y584.900 Z-11.250 I-1.585 J0.000 F2500.000
G2 X302.568 Y584.900 Z-12.000 I1.585 J0.000 F2500.000
G2 X299.398 Y584.900 Z-12.750 I-1.585 J0.000 F2500.000
G2 X302.568 Y584.900 Z-13.500 I1.585 J0.000 F2500.000
G2 X299.398 Y584.900 Z-14.250 I-1.585 J0.000 F2500.000
G2 X302.568 Y584.900 Z-15.000 I1.585 J0.000 F2500.000
G2 X299.398 Y584.900 Z-15.750 I-1.585 J0.000 F2500.000
G2 X302.568 Y584.900 Z-16.500 I1.585 J0.000 F2500.000
G2 X299.398 Y584.900 Z-17.250 I-1.585 J0.000 F2500.000
G2 X302.568 Y584.900 Z-18.000 I1.585 J0.000 F2500.000
G2 X299.398 Y584.900 Z-18.000 I-1.585 J0.000 F2500.000
G2 X302.568 Y584.900 Z-18.000 I1.585 J0.000 F2500.000
G0 Z0.000
G0 Z5.000
G0 X200.983 Y584.900 Z5.000
G0 X200.983 Y584.900 Z0.000
G0 X204.348 Y584.900
G1 Z0.000 F1000.000
G2 X197.618 Y584.900 Z-0.750 I-3.365 J0.000 F2500.000
G2 X204.348 Y584.900 Z-1.500 I3.365 J0.000 F2500.000
G2 X197.618 Y584.900 Z-2.250 I-3.365 J0.000 F2500.000
G2 X204.348 Y584.900 Z-3.000 I3.365 J0.000 F2500.000
G2 X197.618 Y584.900 Z-3.750 I-3.365 J0.000 F2500.000
G2 X204.348 Y584.900 Z-4.500 I3.365 J0.000 F2500.000
G2 X197.618 Y584.900 Z-5.250 I-3.365 J0.000 F2500.000
G2 X204.348 Y584.900 Z-6.000 I3.365 J0.000 F2500.000
G2 X197.618 Y584.900 Z-6.750 I-3.365 J0.000 F2500.000
G2 X204.348 Y584.900 Z-7.500 I3.365 J0.000 F2500.000
G2 X197.618 Y584.900 Z-8.250 I-3.365 J0.000 F2500.000
G2 X204.348 Y584.900 Z-9.000 I3.365 J0.000 F2500.000
G2 X197.618 Y584.900 Z-9.750 I-3.365 J0.000 F2500.000
G2 X204.348 Y584.900 Z-10.500 I3.365 J0.000 F2500.000
G2 X197.618 Y584.900 Z-11.250 I-3.365 J0.000 F2500.000
G2 X204.348 Y584.900 Z-12.000 I3.365 J0.000 F2500.000
G2 X197.618 Y584.900 Z-12.750 I-3.365 J0.000 F2500.000
G2 X204.348 Y584.900 Z-13.500 I3.365 J0.000 F2500.000
G2 X197.618 Y584.900 Z-14.250 I-3.365 J0.000 F2500.000
G2 X204.348 Y584.900 Z-15.000 I3.365 J0.000 F2500.000
G2 X197.618 Y584.900 Z-15.750 I-3.365 J0.000 F2500.000
G2 X204.348 Y584.900 Z-16.500 I3.365 J0.000 F2500.000
G2 X197.618 Y584.900 Z-17.250 I-3.365 J0.000 F2500.000
G2 X204.348 Y584.900 Z-18.000 I3.365 J0.000 F2500.000
G2 X197.618 Y584.900 Z-18.000 I-3.365 J0.000 F2500.000
G2 X204.348 Y584.900 Z-18.000 I3.365 J0.000 F2500.000
G0 Z0.000
G0 X203.458 Y584.900
G1 Z0.000 F1000.000
G2 X198.508 Y584.900 Z-0.750 I-2.475 J0.000 F2500.000
G2 X203.458 Y584.900 Z-1.500 I2.475 J0.000 F2500.000
G2 X198.508 Y584.900 Z-2.250 I-2.475 J0.000 F2500.000
G2 X203.458 Y584.900 Z-3.000 I2.475 J0.000 F2500.000
G2 X198.508 Y584.900 Z-3.750 I-2.475 J0.000 F2500.000
G2 X203.458 Y584.900 Z-4.500 I2.475 J0.000 F2500.000
G2 X198.508 Y584.900 Z-5.250 I-2.475 J0.000 F2500.000
G2 X203.458 Y584.900 Z-6.000 I2.475 J0.000 F2500.000
G2 X198.508 Y584.900 Z-6.750 I-2.475 J0.000 F2500.000
G2 X203.458 Y584.900 Z-7.500 I2.475 J0.000 F2500.000
G2 X198.508 Y584.900 Z-8.250 I-2.475 J0.000 F2500.000
G2 X203.458 Y584.900 Z-9.000 I2.475 J0.000 F2500.000
G2 X198.508 Y584.900 Z-9.750 I-2.475 J0.000 F2500.000
G2 X203.458 Y584.900 Z-10.500 I2.475 J0.000 F2500.000
G2 X198.508 Y584.900 Z-11.250 I-2.475 J0.000 F2500.000
G2 X203.458 Y584.900 Z-12.000 I2.475 J0.000 F2500.000
G2 X198.508 Y584.900 Z-12.750 I-2.475 J0.000 F2500.000
G2 X203.458 Y584.900 Z-13.500 I2.475 J0.000 F2500.000
G2 X198.508 Y584.900 Z-14.250 I-2.475 J0.000 F2500.000
G2 X203.458 Y584.900 Z-15.000 I2.475 J0.000 F2500.000
G2 X198.508 Y584.900 Z-15.750 I-2.475 J0.000 F2500.000
G2 X203.458 Y584.900 Z-16.500 I2.475 J0.000 F2500.000
G2 X198.508 Y584.900 Z-17.250 I-2.475 J0.000 F2500.000
G2 X203.458 Y584.900 Z-18.000 I2.475 J0.000 F2500.000
G2 X198.508 Y584.900 Z-18.000 I-2.475 J0.000 F2500.000
G2 X203.458 Y584.900 Z-18.000 I2.475 J0.000 F2500.000
G0 Z0.000
G0 X202.568 Y584.900
G1 Z0.000 F1000.000
G2 X199.398 Y584.900 Z-0.750 I-1.585 J0.000 F2500.000
G2 X202.568 Y584.900 Z-1.500 I1.585 J0.000 F2500.000
G2 X199.398 Y584.900 Z-2.250 I-1.585 J0.000 F2500.000
G2 X202.568 Y584.900 Z-3.000 I1.585 J0.000 F2500.000
G2 X199.398 Y584.900 Z-3.750 I-1.585 J0.000 F2500.000
G2 X202.568 Y584.900 Z-4.500 I1.585 J0.000 F2500.000
G2 X199.398 Y584.900 Z-5.250 I-1.585 J0.000 F2500.000
G2 X202.568 Y584.900 Z-6.000 I1.585 J0.000 F2500.000
G2 X199.398 Y584.900 Z-6.750 I-1.585 J0.000 F2500.000
G2 X202.568 Y584.900 Z-7.500 I1.585 J0.000 F2500.000
G2 X199.398 Y584.900 Z-8.250 I-1.585 J0.000 F2500.000
G2 X202.568 Y584.900 Z-9.000 I1.585 J0.000 F2500.000
G2 X199.398 Y584.900 Z-9.750 I-1.585 J0.000 F2500.000
G2 X202.568 Y584.900 Z-10.500 I1.585 J0.000 F2500.000
G2 X199.398 Y584.900 Z-11.250 I-1.585 J0.000 F2500.000
G2 X202.568 Y584.900 Z-12.000 I1.585 J0.000 F2500.000
G2 X199.398 Y584.900 Z-12.750 I-1.585 J0.000 F2500.000
G2 X202.568 Y584.900 Z-13.500 I1.585 J0.000 F2500.000
G2 X199.398 Y584.900 Z-14.250 I-1.585 J0.000 F2500.000
G2 X202.568 Y584.900 Z-15.000 I1.585 J0.000 F2500.000
G2 X199.398 Y584.900 Z-15.750 I-1.585 J0.000 F2500.000
G2 X202.568 Y584.900 Z-16.500 I1.585 J0.000 F2500.000
G2 X199.398 Y584.900 Z-17.250 I-1.585 J0.000 F2500.000
G2 X202.568 Y584.900 Z-18.000 I1.585 J0.000 F2500.000
G2 X199.398 Y584.900 Z-18.000 I-1.585 J0.000 F2500.000
G2 X202.568 Y584.900 Z-18.000 I1.585 J0.000 F2500.000
G0 Z0.000
G0 Z5.000
G0 X95.983 Y365.000 Z5.000
G0 X95.983 Y365.000 Z0.000
G0 X99.348 Y365.000
G1 Z0.000 F1000.000
G2 X92.618 Y365.000 Z-0.750 I-3.365 J0.000 F2500.000
G2 X99.348 Y365.000 Z-1.500 I3.365 J0.000 F2500.000
G2 X92.618 Y365.000 Z-2.250 I-3.365 J0.000 F2500.000
G2 X99.348 Y365.000 Z-3.000 I3.365 J0.000 F2500.000
G2 X92.618 Y365.000 Z-3.750 I-3.365 J0.000 F2500.000
G2 X99.348 Y365.000 Z-4.500 I3.365 J0.000 F2500.000
G2 X92.618 Y365.000 Z-5.250 I-3.365 J0.000 F2500.000
G2 X99.348 Y365.000 Z-6.000 I3.365 J0.000 F2500.000
G2 X92.618 Y365.000 Z-6.750 I-3.365 J0.000 F2500.000
G2 X99.348 Y365.000 Z-7.500 I3.365 J0.000 F2500.000
G2 X92.618 Y365.000 Z-8.250 I-3.365 J0.000 F2500.000
G2 X99.348 Y365.000 Z-9.000 I3.365 J0.000 F2500.000
G2 X92.618 Y365.000 Z-9.750 I-3.365 J0.000 F2500.000
G2 X99.348 Y365.000 Z-10.500 I3.365 J0.000 F2500.000
G2 X92.618 Y365.000 Z-11.250 I-3.365 J0.000 F2500.000
G2 X99.348 Y365.000 Z-12.000 I3.365 J0.000 F2500.000
G2 X92.618 Y365.000 Z-12.750 I-3.365 J0.000 F2500.000
G2 X99.348 Y365.000 Z-13.500 I3.365 J0.000 F2500.000
G2 X92.618 Y365.000 Z-14.250 I-3.365 J0.000 F2500.000
G2 X99.348 Y365.000 Z-15.000 I3.365 J0.000 F2500.000
G2 X92.618 Y365.000 Z-15.750 I-3.365 J0.000 F2500.000
G2 X99.348 Y365.000 Z-16.500 I3.365 J0.000 F2500.000
G2 X92.618 Y365.000 Z-17.250 I-3.365 J0.000 F2500.000
G2 X99.348 Y365.000 Z-18.000 I3.365 J0.000 F2500.000
G2 X92.618 Y365.000 Z-18.000 I-3.365 J0.000 F2500.000
G2 X99.348 Y365.000 Z-18.000 I3.365 J0.000 F2500.000
G0 Z0.000
G0 X98.458 Y365.000
G1 Z0.000 F1000.000
G2 X93.508 Y365.000 Z-0.750 I-2.475 J0.000 F2500.000
G2 X98.458 Y365.000 Z-1.500 I2.475 J0.000 F2500.000
G2 X93.508 Y365.000 Z-2.250 I-2.475 J0.000 F2500.000
G2 X98.458 Y365.000 Z-3.000 I2.475 J0.000 F2500.000
G2 X93.508 Y365.000 Z-3.750 I-2.475 J0.000 F2500.000
G2 X98.458 Y365.000 Z-4.500 I2.475 J0.000 F2500.000
G2 X93.508 Y365.000 Z-5.250 I-2.475 J0.000 F2500.000
G2 X98.458 Y365.000 Z-6.000 I2.475 J0.000 F2500.000
G2 X93.508 Y365.000 Z-6.750 I-2.475 J0.000 F2500.000
G2 X98.458 Y365.000 Z-7.500 I2.475 J0.000 F2500.000
G2 X93.508 Y365.000 Z-8.250 I-2.475 J0.000 F2500.000
G2 X98.458 Y365.000 Z-9.000 I2.475 J0.000 F2500.000
G2 X93.508 Y365.000 Z-9.750 I-2.475 J0.000 F2500.000
G2 X98.458 Y365.000 Z-10.500 I2.475 J0.000 F2500.000
G2 X93.508 Y365.000 Z-11.250 I-2.475 J0.000 F2500.000
G2 X98.458 Y365.000 Z-12.000 I2.475 J0.000 F2500.000
G2 X93.508 Y365.000 Z-12.750 I-2.475 J0.000 F2500.000
G2 X98.458 Y365.000 Z-13.500 I2.475 J0.000 F2500.000
G2 X93.508 Y365.000 Z-14.250 I-2.475 J0.000 F2500.000
G2 X98.458 Y365.000 Z-15.000 I2.475 J0.000 F2500.000
G2 X93.508 Y365.000 Z-15.750 I-2.475 J0.000 F2500.000
G2 X98.458 Y365.000 Z-16.500 I2.475 J0.000 F2500.000
G2 X93.508 Y365.000 Z-17.250 I-2.475 J0.000 F2500.000
G2 X98.458 Y365.000 Z-18.000 I2.475 J0.000 F2500.000
G2 X93.508 Y365.000 Z-18.000 I-2.475 J0.000 F2500.000
G2 X98.458 Y365.000 Z-18.000 I2.475 J0.000 F2500.000
G0 Z0.000
G0 X97.568 Y365.000
G1 Z0.000 F1000.000
G2 X94.398 Y365.000 Z-0.750 I-1.585 J0.000 F2500.000
G2 X97.568 Y365.000 Z-1.500 I1.585 J0.000 F2500.000
G2 X94.398 Y365.000 Z-2.250 I-1.585 J0.000 F2500.000
G2 X97.568 Y365.000 Z-3.000 I1.585 J0.000 F2500.000
G2 X94.398 Y365.000 Z-3.750 I-1.585 J0.000 F2500.000
G2 X97.568 Y365.000 Z-4.500 I1.585 J0.000 F2500.000
G2 X94.398 Y365.000 Z-5.250 I-1.585 J0.000 F2500.000
G2 X97.568 Y365.000 Z-6.000 I1.585 J0.000 F2500.000
G2 X94.398 Y365.000 Z-6.750 I-1.585 J0.000 F2500.000
G2 X97.568 Y365.000 Z-7.500 I1.585 J0.000 F2500.000
G2 X94.398 Y365.000 Z-8.250 I-1.585 J0.000 F2500.000
G2 X97.568 Y365.000 Z-9.000 I1.585 J0.000 F2500.000
G2 X94.398 Y365.000 Z-9.750 I-1.585 J0.000 F2500.000
G2 X97.568 Y365.000 Z-10.500 I1.585 J0.000 F2500.000
G2 X94.398 Y365.000 Z-11.250 I-1.585 J0.000 F2500.000
G2 X97.568 Y365.000 Z-12.000 I1.585 J0.000 F2500.000
G2 X94.398 Y365.000 Z-12.750 I-1.585 J0.000 F2500.000
G2 X97.568 Y365.000 Z-13.500 I1.585 J0.000 F2500.000
G2 X94.398 Y365.000 Z-14.250 I-1.585 J0.000 F2500.000
G2 X97.568 Y365.000 Z-15.000 I1.585 J0.000 F2500.000
G2 X94.398 Y365.000 Z-15.750 I-1.585 J0.000 F2500.000
G2 X97.568 Y365.000 Z-16.500 I1.585 J0.000 F2500.000
G2 X94.398 Y365.000 Z-17.250 I-1.585 J0.000 F2500.000
G2 X97.568 Y365.000 Z-18.000 I1.585 J0.000 F2500.000
G2 X94.398 Y365.000 Z-18.000 I-1.585 J0.000 F2500.000
G2 X97.568 Y365.000 Z-18.000 I1.585 J0.000 F2500.000
G0 Z0.000
G0 Z5.000
(Finish operation: Helix001)
(Begin postamble)
M5
G17 G90
M2
