(Exported by FreeCAD)
(Post Processor: grbl_post)
(Output Time:2023-10-22 11:11:16.393682)
(Begin preamble)
G17 G90
G21
(Begin operation: TC: 3.175 Z2 droite010)
(Path: TC: 3.175 Z2 droite010)
(TC: 3.175 Z2 droite010)
(Begin toolchange)
( M6 T2 )
M3 S24000
(Finish operation: TC: 3.175 Z2 droite010)
(Begin operation: Fixture)
(Path: Fixture)
G54
(Finish operation: Fixture)
(Begin operation: Profile)
(Path: Profile)
(Profile)
(Compensated Tool Path. Diameter: 3.17)
G0 Z5.000
G0 X126.826 Y449.345
G0 Z3.000
G1 X126.826 Y449.345 Z-1.057 F100.000
G2 X132.194 Y440.390 Z-1.057 I-65.630 J-45.436 K0.000 F2000.000
G2 X141.108 Y413.383 Z-1.057 I-86.648 J-43.571 K0.000 F2000.000
G2 X141.213 Y382.129 Z-1.057 I-89.494 J-15.929 K0.000 F2000.000
G2 X138.614 Y370.434 Z-1.057 I-131.606 J23.115 K0.000 F2000.000
G2 X134.776 Y358.084 Z-1.057 I-191.394 J52.699 K0.000 F2000.000
G2 X129.094 Y342.074 Z-1.057 I-1139.521 J395.412 K0.000 F2000.000
G3 X124.565 Y327.969 Z-1.057 I172.723 J-63.240 K0.000 F2000.000
G3 X121.947 Y315.321 Z-1.057 I86.251 J-24.452 K0.000 F2000.000
G3 X123.092 Y290.466 Z-1.057 I67.218 J-9.356 K0.000 F2000.000
G3 X129.843 Y272.539 Z-1.057 I78.937 J19.490 K0.000 F2000.000
G3 X140.459 Y255.864 Z-1.057 I103.619 J54.252 K0.000 F2000.000
G2 X157.499 Y228.204 Z-1.057 I-738.751 J-474.194 K0.000 F2000.000
G2 X167.711 Y209.669 Z-1.057 I-301.505 J-178.198 K0.000 F2000.000
G2 X178.416 Y185.961 Z-1.057 I-208.238 J-108.297 K0.000 F2000.000
G2 X185.759 Y162.049 Z-1.057 I-153.804 J-60.315 K0.000 F2000.000
G2 X188.947 Y139.845 Z-1.057 I-130.134 J-30.013 K0.000 F2000.000
G2 X183.106 Y94.307 Z-1.057 I-124.388 J-7.188 K0.000 F2000.000
G2 X167.587 Y61.136 Z-1.057 I-146.731 J48.432 K0.000 F2000.000
G2 X149.697 Y39.608 Z-1.057 I-75.696 J44.710 K0.000 F2000.000
G2 X130.886 Y26.416 Z-1.057 I-75.691 J87.916 K0.000 F2000.000
G2 X109.507 Y16.527 Z-1.057 I-78.440 J141.527 K0.000 F2000.000
G2 X82.510 Y8.338 Z-1.057 I-80.339 J216.267 K0.000 F2000.000
G2 X48.900 Y2.238 Z-1.057 I-77.499 J331.367 K0.000 F2000.000
G2 X0.059 Y-1.584 Z-1.057 I-64.196 J506.380 K0.000 F2000.000
G2 X-39.219 Y0.644 Z-1.057 I7.974 J488.009 K0.000 F2000.000
G2 X-69.185 Y4.809 Z-1.057 I31.725 J338.128 K0.000 F2000.000
G2 X-98.104 Y11.862 Z-1.057 I42.558 J237.313 K0.000 F2000.000
G2 X-121.381 Y20.892 Z-1.057 I49.100 J161.077 K0.000 F2000.000
G2 X-142.112 Y33.261 Z-1.057 I51.365 J109.650 K0.000 F2000.000
G2 X-164.480 Y56.806 Z-1.057 I53.287 J73.018 K0.000 F2000.000
G2 X-174.967 Y74.962 Z-1.057 I141.117 J93.617 K0.000 F2000.000
G2 X-183.222 Y95.439 Z-1.057 I121.082 J60.718 K0.000 F2000.000
G2 X-188.500 Y140.892 Z-1.057 I117.624 J36.691 K0.000 F2000.000
G2 X-183.258 Y170.006 Z-1.057 I146.642 J-11.373 K0.000 F2000.000
G2 X-173.925 Y195.617 Z-1.057 I198.543 J-57.841 K0.000 F2000.000
G2 X-160.752 Y221.865 Z-1.057 I300.886 J-134.579 K0.000 F2000.000
G2 X-141.412 Y254.294 Z-1.057 I702.036 J-396.689 K0.000 F2000.000
G3 X-133.383 Y266.574 Z-1.057 I-96.515 J71.868 K0.000 F2000.000
G3 X-126.224 Y282.483 Z-1.057 I-72.804 J42.329 K0.000 F2000.000
G3 X-122.910 Y309.249 Z-1.057 I-64.025 J21.514 K0.000 F2000.000
G3 X-124.891 Y321.612 Z-1.057 I-84.117 J-7.137 K0.000 F2000.000
G3 X-128.790 Y334.838 Z-1.057 I-130.245 J-31.202 K0.000 F2000.000
G3 X-133.259 Y347.158 Z-1.057 I-645.157 J-227.111 K0.000 F2000.000
G2 X-139.919 Y366.292 Z-1.057 I286.719 J110.516 K0.000 F2000.000
G2 X-143.386 Y380.518 Z-1.057 I114.951 J35.550 K0.000 F2000.000
G2 X-144.621 Y404.133 Z-1.057 I89.277 J16.509 K0.000 F2000.000
G2 X-138.114 Y431.998 Z-1.057 I98.970 J-8.417 K0.000 F2000.000
G2 X-115.671 Y463.806 Z-1.057 I74.656 J-28.854 K0.000 F2000.000
G2 X-95.747 Y476.822 Z-1.057 I62.673 J-74.180 K0.000 F2000.000
G2 X-72.829 Y485.359 Z-1.057 I57.843 J-120.252 K0.000 F2000.000
G2 X-39.217 Y491.198 Z-1.057 I50.018 J-188.251 K0.000 F2000.000
G2 X-1.685 Y492.187 Z-1.057 I26.812 J-305.045 K0.000 F2000.000
G2 X22.614 Y492.335 Z-1.057 I14.132 J-323.585 K0.000 F2000.000
G2 X48.087 Y490.277 Z-1.057 I-6.445 J-238.412 K0.000 F2000.000
G2 X72.667 Y485.228 Z-1.057 I-21.720 J-168.102 K0.000 F2000.000
G2 X95.113 Y476.501 Z-1.057 I-31.960 J-115.431 K0.000 F2000.000
G2 X110.513 Y466.674 Z-1.057 I-40.337 J-80.194 K0.000 F2000.000
G2 X126.826 Y449.345 Z-1.057 I-49.318 J-62.765 K0.000 F2000.000
G1 X126.826 Y449.345 Z-2.113 F100.000
G2 X132.194 Y440.390 Z-2.113 I-65.630 J-45.436 K0.000 F2000.000
G2 X141.108 Y413.383 Z-2.113 I-86.648 J-43.571 K0.000 F2000.000
G2 X141.213 Y382.129 Z-2.113 I-89.494 J-15.929 K0.000 F2000.000
G2 X138.614 Y370.434 Z-2.113 I-131.606 J23.115 K0.000 F2000.000
G2 X134.776 Y358.084 Z-2.113 I-191.394 J52.699 K0.000 F2000.000
G2 X129.094 Y342.074 Z-2.113 I-1139.521 J395.412 K0.000 F2000.000
G3 X124.565 Y327.969 Z-2.113 I172.723 J-63.240 K0.000 F2000.000
G3 X121.947 Y315.321 Z-2.113 I86.251 J-24.452 K0.000 F2000.000
G3 X123.092 Y290.466 Z-2.113 I67.218 J-9.356 K0.000 F2000.000
G3 X129.843 Y272.539 Z-2.113 I78.937 J19.490 K0.000 F2000.000
G3 X140.459 Y255.864 Z-2.113 I103.619 J54.252 K0.000 F2000.000
G2 X157.499 Y228.204 Z-2.113 I-738.751 J-474.194 K0.000 F2000.000
G2 X167.711 Y209.669 Z-2.113 I-301.505 J-178.198 K0.000 F2000.000
G2 X178.416 Y185.961 Z-2.113 I-208.238 J-108.297 K0.000 F2000.000
G2 X185.759 Y162.049 Z-2.113 I-153.804 J-60.315 K0.000 F2000.000
G2 X188.947 Y139.845 Z-2.113 I-130.134 J-30.013 K0.000 F2000.000
G2 X183.106 Y94.307 Z-2.113 I-124.388 J-7.188 K0.000 F2000.000
G2 X167.587 Y61.136 Z-2.113 I-146.731 J48.432 K0.000 F2000.000
G2 X149.697 Y39.608 Z-2.113 I-75.696 J44.710 K0.000 F2000.000
G2 X130.886 Y26.416 Z-2.113 I-75.691 J87.916 K0.000 F2000.000
G2 X109.507 Y16.527 Z-2.113 I-78.440 J141.527 K0.000 F2000.000
G2 X82.510 Y8.338 Z-2.113 I-80.339 J216.267 K0.000 F2000.000
G2 X48.900 Y2.238 Z-2.113 I-77.499 J331.367 K0.000 F2000.000
G2 X0.059 Y-1.584 Z-2.113 I-64.196 J506.380 K0.000 F2000.000
G2 X-39.219 Y0.644 Z-2.113 I7.974 J488.009 K0.000 F2000.000
G2 X-69.185 Y4.809 Z-2.113 I31.725 J338.128 K0.000 F2000.000
G2 X-98.104 Y11.862 Z-2.113 I42.558 J237.313 K0.000 F2000.000
G2 X-121.381 Y20.892 Z-2.113 I49.100 J161.077 K0.000 F2000.000
G2 X-142.112 Y33.261 Z-2.113 I51.365 J109.650 K0.000 F2000.000
G2 X-164.480 Y56.806 Z-2.113 I53.287 J73.018 K0.000 F2000.000
G2 X-174.967 Y74.962 Z-2.113 I141.117 J93.617 K0.000 F2000.000
G2 X-183.222 Y95.439 Z-2.113 I121.082 J60.718 K0.000 F2000.000
G2 X-188.500 Y140.892 Z-2.113 I117.624 J36.691 K0.000 F2000.000
G2 X-183.258 Y170.006 Z-2.113 I146.642 J-11.373 K0.000 F2000.000
G2 X-173.925 Y195.617 Z-2.113 I198.543 J-57.841 K0.000 F2000.000
G2 X-160.752 Y221.865 Z-2.113 I300.886 J-134.579 K0.000 F2000.000
G2 X-141.412 Y254.294 Z-2.113 I702.036 J-396.689 K0.000 F2000.000
G3 X-133.383 Y266.574 Z-2.113 I-96.515 J71.868 K0.000 F2000.000
G3 X-126.224 Y282.483 Z-2.113 I-72.804 J42.329 K0.000 F2000.000
G3 X-122.910 Y309.249 Z-2.113 I-64.025 J21.514 K0.000 F2000.000
G3 X-124.891 Y321.612 Z-2.113 I-84.117 J-7.137 K0.000 F2000.000
G3 X-128.790 Y334.838 Z-2.113 I-130.245 J-31.202 K0.000 F2000.000
G3 X-133.259 Y347.158 Z-2.113 I-645.157 J-227.111 K0.000 F2000.000
G2 X-139.919 Y366.292 Z-2.113 I286.719 J110.516 K0.000 F2000.000
G2 X-143.386 Y380.518 Z-2.113 I114.951 J35.550 K0.000 F2000.000
G2 X-144.621 Y404.133 Z-2.113 I89.277 J16.509 K0.000 F2000.000
G2 X-138.114 Y431.998 Z-2.113 I98.970 J-8.417 K0.000 F2000.000
G2 X-115.671 Y463.806 Z-2.113 I74.656 J-28.854 K0.000 F2000.000
G2 X-95.747 Y476.822 Z-2.113 I62.673 J-74.180 K0.000 F2000.000
G2 X-72.829 Y485.359 Z-2.113 I57.843 J-120.252 K0.000 F2000.000
G2 X-39.217 Y491.198 Z-2.113 I50.018 J-188.251 K0.000 F2000.000
G2 X-1.685 Y492.187 Z-2.113 I26.812 J-305.045 K0.000 F2000.000
G2 X22.614 Y492.335 Z-2.113 I14.132 J-323.585 K0.000 F2000.000
G2 X48.087 Y490.277 Z-2.113 I-6.445 J-238.412 K0.000 F2000.000
G2 X72.667 Y485.228 Z-2.113 I-21.720 J-168.102 K0.000 F2000.000
G2 X95.113 Y476.501 Z-2.113 I-31.960 J-115.431 K0.000 F2000.000
G2 X110.513 Y466.674 Z-2.113 I-40.337 J-80.194 K0.000 F2000.000
G2 X126.826 Y449.345 Z-2.113 I-49.318 J-62.765 K0.000 F2000.000
G1 X126.826 Y449.345 Z-3.170 F100.000
G2 X132.194 Y440.390 Z-3.170 I-65.630 J-45.436 K0.000 F2000.000
G2 X141.108 Y413.383 Z-3.170 I-86.648 J-43.571 K0.000 F2000.000
G2 X141.213 Y382.129 Z-3.170 I-89.494 J-15.929 K0.000 F2000.000
G2 X138.614 Y370.434 Z-3.170 I-131.606 J23.115 K0.000 F2000.000
G2 X134.776 Y358.084 Z-3.170 I-191.394 J52.699 K0.000 F2000.000
G2 X129.094 Y342.074 Z-3.170 I-1139.521 J395.412 K0.000 F2000.000
G3 X124.565 Y327.969 Z-3.170 I172.723 J-63.240 K0.000 F2000.000
G3 X121.947 Y315.321 Z-3.170 I86.251 J-24.452 K0.000 F2000.000
G3 X123.092 Y290.466 Z-3.170 I67.218 J-9.356 K0.000 F2000.000
G3 X129.843 Y272.539 Z-3.170 I78.937 J19.490 K0.000 F2000.000
G3 X140.459 Y255.864 Z-3.170 I103.619 J54.252 K0.000 F2000.000
G2 X157.499 Y228.204 Z-3.170 I-738.751 J-474.194 K0.000 F2000.000
G2 X167.711 Y209.669 Z-3.170 I-301.505 J-178.198 K0.000 F2000.000
G2 X178.416 Y185.961 Z-3.170 I-208.238 J-108.297 K0.000 F2000.000
G2 X185.759 Y162.049 Z-3.170 I-153.804 J-60.315 K0.000 F2000.000
G2 X188.947 Y139.845 Z-3.170 I-130.134 J-30.013 K0.000 F2000.000
G2 X183.106 Y94.307 Z-3.170 I-124.388 J-7.188 K0.000 F2000.000
G2 X167.587 Y61.136 Z-3.170 I-146.731 J48.432 K0.000 F2000.000
G2 X149.697 Y39.608 Z-3.170 I-75.696 J44.710 K0.000 F2000.000
G2 X130.886 Y26.416 Z-3.170 I-75.691 J87.916 K0.000 F2000.000
G2 X109.507 Y16.527 Z-3.170 I-78.440 J141.527 K0.000 F2000.000
G2 X82.510 Y8.338 Z-3.170 I-80.339 J216.267 K0.000 F2000.000
G2 X48.900 Y2.238 Z-3.170 I-77.499 J331.367 K0.000 F2000.000
G2 X0.059 Y-1.584 Z-3.170 I-64.196 J506.380 K0.000 F2000.000
G2 X-39.219 Y0.644 Z-3.170 I7.974 J488.009 K0.000 F2000.000
G2 X-69.185 Y4.809 Z-3.170 I31.725 J338.128 K0.000 F2000.000
G2 X-98.104 Y11.862 Z-3.170 I42.558 J237.313 K0.000 F2000.000
G2 X-121.381 Y20.892 Z-3.170 I49.100 J161.077 K0.000 F2000.000
G2 X-142.112 Y33.261 Z-3.170 I51.365 J109.650 K0.000 F2000.000
G2 X-164.480 Y56.806 Z-3.170 I53.287 J73.018 K0.000 F2000.000
G2 X-174.967 Y74.962 Z-3.170 I141.117 J93.617 K0.000 F2000.000
G2 X-183.222 Y95.439 Z-3.170 I121.082 J60.718 K0.000 F2000.000
G2 X-188.500 Y140.892 Z-3.170 I117.624 J36.691 K0.000 F2000.000
G2 X-183.258 Y170.006 Z-3.170 I146.642 J-11.373 K0.000 F2000.000
G2 X-173.925 Y195.617 Z-3.170 I198.543 J-57.841 K0.000 F2000.000
G2 X-160.752 Y221.865 Z-3.170 I300.886 J-134.579 K0.000 F2000.000
G2 X-141.412 Y254.294 Z-3.170 I702.036 J-396.689 K0.000 F2000.000
G3 X-133.383 Y266.574 Z-3.170 I-96.515 J71.868 K0.000 F2000.000
G3 X-126.224 Y282.483 Z-3.170 I-72.804 J42.329 K0.000 F2000.000
G3 X-122.910 Y309.249 Z-3.170 I-64.025 J21.514 K0.000 F2000.000
G3 X-124.891 Y321.612 Z-3.170 I-84.117 J-7.137 K0.000 F2000.000
G3 X-128.790 Y334.838 Z-3.170 I-130.245 J-31.202 K0.000 F2000.000
G3 X-133.259 Y347.158 Z-3.170 I-645.157 J-227.111 K0.000 F2000.000
G2 X-139.919 Y366.292 Z-3.170 I286.719 J110.516 K0.000 F2000.000
G2 X-143.386 Y380.518 Z-3.170 I114.951 J35.550 K0.000 F2000.000
G2 X-144.621 Y404.133 Z-3.170 I89.277 J16.509 K0.000 F2000.000
G2 X-138.114 Y431.998 Z-3.170 I98.970 J-8.417 K0.000 F2000.000
G2 X-115.671 Y463.806 Z-3.170 I74.656 J-28.854 K0.000 F2000.000
G2 X-95.747 Y476.822 Z-3.170 I62.673 J-74.180 K0.000 F2000.000
G2 X-72.829 Y485.359 Z-3.170 I57.843 J-120.252 K0.000 F2000.000
G2 X-39.217 Y491.198 Z-3.170 I50.018 J-188.251 K0.000 F2000.000
G2 X-1.685 Y492.187 Z-3.170 I26.812 J-305.045 K0.000 F2000.000
G2 X22.614 Y492.335 Z-3.170 I14.132 J-323.585 K0.000 F2000.000
G2 X48.087 Y490.277 Z-3.170 I-6.445 J-238.412 K0.000 F2000.000
G2 X72.667 Y485.228 Z-3.170 I-21.720 J-168.102 K0.000 F2000.000
G2 X95.113 Y476.501 Z-3.170 I-31.960 J-115.431 K0.000 F2000.000
G2 X110.513 Y466.674 Z-3.170 I-40.337 J-80.194 K0.000 F2000.000
G2 X126.826 Y449.345 Z-3.170 I-49.318 J-62.765 K0.000 F2000.000
G1 X126.826 Y449.345 Z-4.227 F100.000
G2 X132.194 Y440.390 Z-4.227 I-65.630 J-45.436 K0.000 F2000.000
G2 X141.108 Y413.383 Z-4.227 I-86.648 J-43.571 K0.000 F2000.000
G2 X141.213 Y382.129 Z-4.227 I-89.494 J-15.929 K0.000 F2000.000
G2 X138.614 Y370.434 Z-4.227 I-131.606 J23.115 K0.000 F2000.000
G2 X134.776 Y358.084 Z-4.227 I-191.394 J52.699 K0.000 F2000.000
G2 X129.094 Y342.074 Z-4.227 I-1139.521 J395.412 K0.000 F2000.000
G3 X124.565 Y327.969 Z-4.227 I172.723 J-63.240 K0.000 F2000.000
G3 X121.947 Y315.321 Z-4.227 I86.251 J-24.452 K0.000 F2000.000
G3 X123.092 Y290.466 Z-4.227 I67.218 J-9.356 K0.000 F2000.000
G3 X129.843 Y272.539 Z-4.227 I78.937 J19.490 K0.000 F2000.000
G3 X140.459 Y255.864 Z-4.227 I103.619 J54.252 K0.000 F2000.000
G2 X157.499 Y228.204 Z-4.227 I-738.751 J-474.194 K0.000 F2000.000
G2 X167.711 Y209.669 Z-4.227 I-301.505 J-178.198 K0.000 F2000.000
G2 X178.416 Y185.961 Z-4.227 I-208.238 J-108.297 K0.000 F2000.000
G2 X185.759 Y162.049 Z-4.227 I-153.804 J-60.315 K0.000 F2000.000
G2 X188.947 Y139.845 Z-4.227 I-130.134 J-30.013 K0.000 F2000.000
G2 X183.106 Y94.307 Z-4.227 I-124.388 J-7.188 K0.000 F2000.000
G2 X167.587 Y61.136 Z-4.227 I-146.731 J48.432 K0.000 F2000.000
G2 X149.697 Y39.608 Z-4.227 I-75.696 J44.710 K0.000 F2000.000
G2 X130.886 Y26.416 Z-4.227 I-75.691 J87.916 K0.000 F2000.000
G2 X109.507 Y16.527 Z-4.227 I-78.440 J141.527 K0.000 F2000.000
G2 X82.510 Y8.338 Z-4.227 I-80.339 J216.267 K0.000 F2000.000
G2 X48.900 Y2.238 Z-4.227 I-77.499 J331.367 K0.000 F2000.000
G2 X0.059 Y-1.584 Z-4.227 I-64.196 J506.380 K0.000 F2000.000
G2 X-39.219 Y0.644 Z-4.227 I7.974 J488.009 K0.000 F2000.000
G2 X-69.185 Y4.809 Z-4.227 I31.725 J338.128 K0.000 F2000.000
G2 X-98.104 Y11.862 Z-4.227 I42.558 J237.313 K0.000 F2000.000
G2 X-121.381 Y20.892 Z-4.227 I49.100 J161.077 K0.000 F2000.000
G2 X-142.112 Y33.261 Z-4.227 I51.365 J109.650 K0.000 F2000.000
G2 X-164.480 Y56.806 Z-4.227 I53.287 J73.018 K0.000 F2000.000
G2 X-174.967 Y74.962 Z-4.227 I141.117 J93.617 K0.000 F2000.000
G2 X-183.222 Y95.439 Z-4.227 I121.082 J60.718 K0.000 F2000.000
G2 X-188.500 Y140.892 Z-4.227 I117.624 J36.691 K0.000 F2000.000
G2 X-183.258 Y170.006 Z-4.227 I146.642 J-11.373 K0.000 F2000.000
G2 X-173.925 Y195.617 Z-4.227 I198.543 J-57.841 K0.000 F2000.000
G2 X-160.752 Y221.865 Z-4.227 I300.886 J-134.579 K0.000 F2000.000
G2 X-141.412 Y254.294 Z-4.227 I702.036 J-396.689 K0.000 F2000.000
G3 X-133.383 Y266.574 Z-4.227 I-96.515 J71.868 K0.000 F2000.000
G3 X-126.224 Y282.483 Z-4.227 I-72.804 J42.329 K0.000 F2000.000
G3 X-122.910 Y309.249 Z-4.227 I-64.025 J21.514 K0.000 F2000.000
G3 X-124.891 Y321.612 Z-4.227 I-84.117 J-7.137 K0.000 F2000.000
G3 X-128.790 Y334.838 Z-4.227 I-130.245 J-31.202 K0.000 F2000.000
G3 X-133.259 Y347.158 Z-4.227 I-645.157 J-227.111 K0.000 F2000.000
G2 X-139.919 Y366.292 Z-4.227 I286.719 J110.516 K0.000 F2000.000
G2 X-143.386 Y380.518 Z-4.227 I114.951 J35.550 K0.000 F2000.000
G2 X-144.621 Y404.133 Z-4.227 I89.277 J16.509 K0.000 F2000.000
G2 X-138.114 Y431.998 Z-4.227 I98.970 J-8.417 K0.000 F2000.000
G2 X-115.671 Y463.806 Z-4.227 I74.656 J-28.854 K0.000 F2000.000
G2 X-95.747 Y476.822 Z-4.227 I62.673 J-74.180 K0.000 F2000.000
G2 X-72.829 Y485.359 Z-4.227 I57.843 J-120.252 K0.000 F2000.000
G2 X-39.217 Y491.198 Z-4.227 I50.018 J-188.251 K0.000 F2000.000
G2 X-1.685 Y492.187 Z-4.227 I26.812 J-305.045 K0.000 F2000.000
G2 X22.614 Y492.335 Z-4.227 I14.132 J-323.585 K0.000 F2000.000
G2 X48.087 Y490.277 Z-4.227 I-6.445 J-238.412 K0.000 F2000.000
G2 X72.667 Y485.228 Z-4.227 I-21.720 J-168.102 K0.000 F2000.000
G2 X95.113 Y476.501 Z-4.227 I-31.960 J-115.431 K0.000 F2000.000
G2 X110.513 Y466.674 Z-4.227 I-40.337 J-80.194 K0.000 F2000.000
G2 X126.826 Y449.345 Z-4.227 I-49.318 J-62.765 K0.000 F2000.000
G1 X126.826 Y449.345 Z-5.283 F100.000
G2 X132.194 Y440.390 Z-5.283 I-65.630 J-45.436 K0.000 F2000.000
G2 X141.108 Y413.383 Z-5.283 I-86.648 J-43.571 K0.000 F2000.000
G2 X141.213 Y382.129 Z-5.283 I-89.494 J-15.929 K0.000 F2000.000
G2 X138.614 Y370.434 Z-5.283 I-131.606 J23.115 K0.000 F2000.000
G2 X134.776 Y358.084 Z-5.283 I-191.394 J52.699 K0.000 F2000.000
G2 X129.094 Y342.074 Z-5.283 I-1139.521 J395.412 K0.000 F2000.000
G3 X124.565 Y327.969 Z-5.283 I172.723 J-63.240 K0.000 F2000.000
G3 X121.947 Y315.321 Z-5.283 I86.251 J-24.452 K0.000 F2000.000
G3 X123.092 Y290.466 Z-5.283 I67.218 J-9.356 K0.000 F2000.000
G3 X129.843 Y272.539 Z-5.283 I78.937 J19.490 K0.000 F2000.000
G3 X140.459 Y255.864 Z-5.283 I103.619 J54.252 K0.000 F2000.000
G2 X157.499 Y228.204 Z-5.283 I-738.751 J-474.194 K0.000 F2000.000
G2 X167.711 Y209.669 Z-5.283 I-301.505 J-178.198 K0.000 F2000.000
G2 X178.416 Y185.961 Z-5.283 I-208.238 J-108.297 K0.000 F2000.000
G2 X185.759 Y162.049 Z-5.283 I-153.804 J-60.315 K0.000 F2000.000
G2 X188.947 Y139.845 Z-5.283 I-130.134 J-30.013 K0.000 F2000.000
G2 X183.106 Y94.307 Z-5.283 I-124.388 J-7.188 K0.000 F2000.000
G2 X167.587 Y61.136 Z-5.283 I-146.731 J48.432 K0.000 F2000.000
G2 X149.697 Y39.608 Z-5.283 I-75.696 J44.710 K0.000 F2000.000
G2 X130.886 Y26.416 Z-5.283 I-75.691 J87.916 K0.000 F2000.000
G2 X109.507 Y16.527 Z-5.283 I-78.440 J141.527 K0.000 F2000.000
G2 X82.510 Y8.338 Z-5.283 I-80.339 J216.267 K0.000 F2000.000
G2 X48.900 Y2.238 Z-5.283 I-77.499 J331.367 K0.000 F2000.000
G2 X0.059 Y-1.584 Z-5.283 I-64.196 J506.380 K0.000 F2000.000
G2 X-39.219 Y0.644 Z-5.283 I7.974 J488.009 K0.000 F2000.000
G2 X-69.185 Y4.809 Z-5.283 I31.725 J338.128 K0.000 F2000.000
G2 X-98.104 Y11.862 Z-5.283 I42.558 J237.313 K0.000 F2000.000
G2 X-121.381 Y20.892 Z-5.283 I49.100 J161.077 K0.000 F2000.000
G2 X-142.112 Y33.261 Z-5.283 I51.365 J109.650 K0.000 F2000.000
G2 X-164.480 Y56.806 Z-5.283 I53.287 J73.018 K0.000 F2000.000
G2 X-174.967 Y74.962 Z-5.283 I141.117 J93.617 K0.000 F2000.000
G2 X-183.222 Y95.439 Z-5.283 I121.082 J60.718 K0.000 F2000.000
G2 X-188.500 Y140.892 Z-5.283 I117.624 J36.691 K0.000 F2000.000
G2 X-183.258 Y170.006 Z-5.283 I146.642 J-11.373 K0.000 F2000.000
G2 X-173.925 Y195.617 Z-5.283 I198.543 J-57.841 K0.000 F2000.000
G2 X-160.752 Y221.865 Z-5.283 I300.886 J-134.579 K0.000 F2000.000
G2 X-141.412 Y254.294 Z-5.283 I702.036 J-396.689 K0.000 F2000.000
G3 X-133.383 Y266.574 Z-5.283 I-96.515 J71.868 K0.000 F2000.000
G3 X-126.224 Y282.483 Z-5.283 I-72.804 J42.329 K0.000 F2000.000
G3 X-122.910 Y309.249 Z-5.283 I-64.025 J21.514 K0.000 F2000.000
G3 X-124.891 Y321.612 Z-5.283 I-84.117 J-7.137 K0.000 F2000.000
G3 X-128.790 Y334.838 Z-5.283 I-130.245 J-31.202 K0.000 F2000.000
G3 X-133.259 Y347.158 Z-5.283 I-645.157 J-227.111 K0.000 F2000.000
G2 X-139.919 Y366.292 Z-5.283 I286.719 J110.516 K0.000 F2000.000
G2 X-143.386 Y380.518 Z-5.283 I114.951 J35.550 K0.000 F2000.000
G2 X-144.621 Y404.133 Z-5.283 I89.277 J16.509 K0.000 F2000.000
G2 X-138.114 Y431.998 Z-5.283 I98.970 J-8.417 K0.000 F2000.000
G2 X-115.671 Y463.806 Z-5.283 I74.656 J-28.854 K0.000 F2000.000
G2 X-95.747 Y476.822 Z-5.283 I62.673 J-74.180 K0.000 F2000.000
G2 X-72.829 Y485.359 Z-5.283 I57.843 J-120.252 K0.000 F2000.000
G2 X-39.217 Y491.198 Z-5.283 I50.018 J-188.251 K0.000 F2000.000
G2 X-1.685 Y492.187 Z-5.283 I26.812 J-305.045 K0.000 F2000.000
G2 X22.614 Y492.335 Z-5.283 I14.132 J-323.585 K0.000 F2000.000
G2 X48.087 Y490.277 Z-5.283 I-6.445 J-238.412 K0.000 F2000.000
G2 X72.667 Y485.228 Z-5.283 I-21.720 J-168.102 K0.000 F2000.000
G2 X95.113 Y476.501 Z-5.283 I-31.960 J-115.431 K0.000 F2000.000
G2 X110.513 Y466.674 Z-5.283 I-40.337 J-80.194 K0.000 F2000.000
G2 X126.826 Y449.345 Z-5.283 I-49.318 J-62.765 K0.000 F2000.000
G1 X126.826 Y449.345 Z-6.340 F100.000
G2 X132.194 Y440.390 Z-6.340 I-65.630 J-45.436 K0.000 F2000.000
G2 X141.108 Y413.383 Z-6.340 I-86.648 J-43.571 K0.000 F2000.000
G2 X141.213 Y382.129 Z-6.340 I-89.494 J-15.929 K0.000 F2000.000
G2 X138.614 Y370.434 Z-6.340 I-131.606 J23.115 K0.000 F2000.000
G2 X134.776 Y358.084 Z-6.340 I-191.394 J52.699 K0.000 F2000.000
G2 X129.094 Y342.074 Z-6.340 I-1139.521 J395.412 K0.000 F2000.000
G3 X124.565 Y327.969 Z-6.340 I172.723 J-63.240 K0.000 F2000.000
G3 X121.947 Y315.321 Z-6.340 I86.251 J-24.452 K0.000 F2000.000
G3 X123.092 Y290.466 Z-6.340 I67.218 J-9.356 K0.000 F2000.000
G3 X129.843 Y272.539 Z-6.340 I78.937 J19.490 K0.000 F2000.000
G3 X140.459 Y255.864 Z-6.340 I103.619 J54.252 K0.000 F2000.000
G2 X157.499 Y228.204 Z-6.340 I-738.751 J-474.194 K0.000 F2000.000
G2 X167.711 Y209.669 Z-6.340 I-301.505 J-178.198 K0.000 F2000.000
G2 X178.416 Y185.961 Z-6.340 I-208.238 J-108.297 K0.000 F2000.000
G2 X185.759 Y162.049 Z-6.340 I-153.804 J-60.315 K0.000 F2000.000
G2 X188.947 Y139.845 Z-6.340 I-130.134 J-30.013 K0.000 F2000.000
G2 X183.106 Y94.307 Z-6.340 I-124.388 J-7.188 K0.000 F2000.000
G2 X167.587 Y61.136 Z-6.340 I-146.731 J48.432 K0.000 F2000.000
G2 X149.697 Y39.608 Z-6.340 I-75.696 J44.710 K0.000 F2000.000
G2 X130.886 Y26.416 Z-6.340 I-75.691 J87.916 K0.000 F2000.000
G2 X109.507 Y16.527 Z-6.340 I-78.440 J141.527 K0.000 F2000.000
G2 X82.510 Y8.338 Z-6.340 I-80.339 J216.267 K0.000 F2000.000
G2 X48.900 Y2.238 Z-6.340 I-77.499 J331.367 K0.000 F2000.000
G2 X0.059 Y-1.584 Z-6.340 I-64.196 J506.380 K0.000 F2000.000
G2 X-39.219 Y0.644 Z-6.340 I7.974 J488.009 K0.000 F2000.000
G2 X-69.185 Y4.809 Z-6.340 I31.725 J338.128 K0.000 F2000.000
G2 X-98.104 Y11.862 Z-6.340 I42.558 J237.313 K0.000 F2000.000
G2 X-121.381 Y20.892 Z-6.340 I49.100 J161.077 K0.000 F2000.000
G2 X-142.112 Y33.261 Z-6.340 I51.365 J109.650 K0.000 F2000.000
G2 X-164.480 Y56.806 Z-6.340 I53.287 J73.018 K0.000 F2000.000
G2 X-174.967 Y74.962 Z-6.340 I141.117 J93.617 K0.000 F2000.000
G2 X-183.222 Y95.439 Z-6.340 I121.082 J60.718 K0.000 F2000.000
G2 X-188.500 Y140.892 Z-6.340 I117.624 J36.691 K0.000 F2000.000
G2 X-183.258 Y170.006 Z-6.340 I146.642 J-11.373 K0.000 F2000.000
G2 X-173.925 Y195.617 Z-6.340 I198.543 J-57.841 K0.000 F2000.000
G2 X-160.752 Y221.865 Z-6.340 I300.886 J-134.579 K0.000 F2000.000
G2 X-141.412 Y254.294 Z-6.340 I702.036 J-396.689 K0.000 F2000.000
G3 X-133.383 Y266.574 Z-6.340 I-96.515 J71.868 K0.000 F2000.000
G3 X-126.224 Y282.483 Z-6.340 I-72.804 J42.329 K0.000 F2000.000
G3 X-122.910 Y309.249 Z-6.340 I-64.025 J21.514 K0.000 F2000.000
G3 X-124.891 Y321.612 Z-6.340 I-84.117 J-7.137 K0.000 F2000.000
G3 X-128.790 Y334.838 Z-6.340 I-130.245 J-31.202 K0.000 F2000.000
G3 X-133.259 Y347.158 Z-6.340 I-645.157 J-227.111 K0.000 F2000.000
G2 X-139.919 Y366.292 Z-6.340 I286.719 J110.516 K0.000 F2000.000
G2 X-143.386 Y380.518 Z-6.340 I114.951 J35.550 K0.000 F2000.000
G2 X-144.621 Y404.133 Z-6.340 I89.277 J16.509 K0.000 F2000.000
G2 X-138.114 Y431.998 Z-6.340 I98.970 J-8.417 K0.000 F2000.000
G2 X-115.671 Y463.806 Z-6.340 I74.656 J-28.854 K0.000 F2000.000
G2 X-95.747 Y476.822 Z-6.340 I62.673 J-74.180 K0.000 F2000.000
G2 X-72.829 Y485.359 Z-6.340 I57.843 J-120.252 K0.000 F2000.000
G2 X-39.217 Y491.198 Z-6.340 I50.018 J-188.251 K0.000 F2000.000
G2 X-1.685 Y492.187 Z-6.340 I26.812 J-305.045 K0.000 F2000.000
G2 X22.614 Y492.335 Z-6.340 I14.132 J-323.585 K0.000 F2000.000
G2 X48.087 Y490.277 Z-6.340 I-6.445 J-238.412 K0.000 F2000.000
G2 X72.667 Y485.228 Z-6.340 I-21.720 J-168.102 K0.000 F2000.000
G2 X95.113 Y476.501 Z-6.340 I-31.960 J-115.431 K0.000 F2000.000
G2 X110.513 Y466.674 Z-6.340 I-40.337 J-80.194 K0.000 F2000.000
G2 X126.826 Y449.345 Z-6.340 I-49.318 J-62.765 K0.000 F2000.000
G1 X126.826 Y449.345 Z-7.000 F100.000
G2 X132.194 Y440.390 Z-7.000 I-65.630 J-45.436 K0.000 F2000.000
G2 X141.108 Y413.383 Z-7.000 I-86.648 J-43.571 K0.000 F2000.000
G2 X141.213 Y382.129 Z-7.000 I-89.494 J-15.929 K0.000 F2000.000
G2 X138.614 Y370.434 Z-7.000 I-131.606 J23.115 K0.000 F2000.000
G2 X134.776 Y358.084 Z-7.000 I-191.394 J52.699 K0.000 F2000.000
G2 X129.094 Y342.074 Z-7.000 I-1139.521 J395.412 K0.000 F2000.000
G3 X124.565 Y327.969 Z-7.000 I172.723 J-63.240 K0.000 F2000.000
G3 X121.947 Y315.321 Z-7.000 I86.251 J-24.452 K0.000 F2000.000
G3 X123.092 Y290.466 Z-7.000 I67.218 J-9.356 K0.000 F2000.000
G3 X129.843 Y272.539 Z-7.000 I78.937 J19.490 K0.000 F2000.000
G3 X140.459 Y255.864 Z-7.000 I103.619 J54.252 K0.000 F2000.000
G2 X157.499 Y228.204 Z-7.000 I-738.751 J-474.194 K0.000 F2000.000
G2 X167.711 Y209.669 Z-7.000 I-301.505 J-178.198 K0.000 F2000.000
G2 X178.416 Y185.961 Z-7.000 I-208.238 J-108.297 K0.000 F2000.000
G2 X185.759 Y162.049 Z-7.000 I-153.804 J-60.315 K0.000 F2000.000
G2 X188.947 Y139.845 Z-7.000 I-130.134 J-30.013 K0.000 F2000.000
G2 X183.106 Y94.307 Z-7.000 I-124.388 J-7.188 K0.000 F2000.000
G2 X167.587 Y61.136 Z-7.000 I-146.731 J48.432 K0.000 F2000.000
G2 X149.697 Y39.608 Z-7.000 I-75.696 J44.710 K0.000 F2000.000
G2 X130.886 Y26.416 Z-7.000 I-75.691 J87.916 K0.000 F2000.000
G2 X109.507 Y16.527 Z-7.000 I-78.440 J141.527 K0.000 F2000.000
G2 X82.510 Y8.338 Z-7.000 I-80.339 J216.267 K0.000 F2000.000
G2 X48.900 Y2.238 Z-7.000 I-77.499 J331.367 K0.000 F2000.000
G2 X0.059 Y-1.584 Z-7.000 I-64.196 J506.380 K0.000 F2000.000
G2 X-39.219 Y0.644 Z-7.000 I7.974 J488.009 K0.000 F2000.000
G2 X-69.185 Y4.809 Z-7.000 I31.725 J338.128 K0.000 F2000.000
G2 X-98.104 Y11.862 Z-7.000 I42.558 J237.313 K0.000 F2000.000
G2 X-121.381 Y20.892 Z-7.000 I49.100 J161.077 K0.000 F2000.000
G2 X-142.112 Y33.261 Z-7.000 I51.365 J109.650 K0.000 F2000.000
G2 X-164.480 Y56.806 Z-7.000 I53.287 J73.018 K0.000 F2000.000
G2 X-174.967 Y74.962 Z-7.000 I141.117 J93.617 K0.000 F2000.000
G2 X-183.222 Y95.439 Z-7.000 I121.082 J60.718 K0.000 F2000.000
G2 X-188.500 Y140.892 Z-7.000 I117.624 J36.691 K0.000 F2000.000
G2 X-183.258 Y170.006 Z-7.000 I146.642 J-11.373 K0.000 F2000.000
G2 X-173.925 Y195.617 Z-7.000 I198.543 J-57.841 K0.000 F2000.000
G2 X-160.752 Y221.865 Z-7.000 I300.886 J-134.579 K0.000 F2000.000
G2 X-141.412 Y254.294 Z-7.000 I702.036 J-396.689 K0.000 F2000.000
G3 X-133.383 Y266.574 Z-7.000 I-96.515 J71.868 K0.000 F2000.000
G3 X-126.224 Y282.483 Z-7.000 I-72.804 J42.329 K0.000 F2000.000
G3 X-122.910 Y309.249 Z-7.000 I-64.025 J21.514 K0.000 F2000.000
G3 X-124.891 Y321.612 Z-7.000 I-84.117 J-7.137 K0.000 F2000.000
G3 X-128.790 Y334.838 Z-7.000 I-130.245 J-31.202 K0.000 F2000.000
G3 X-133.259 Y347.158 Z-7.000 I-645.157 J-227.111 K0.000 F2000.000
G2 X-139.919 Y366.292 Z-7.000 I286.719 J110.516 K0.000 F2000.000
G2 X-143.386 Y380.518 Z-7.000 I114.951 J35.550 K0.000 F2000.000
G2 X-144.621 Y404.133 Z-7.000 I89.277 J16.509 K0.000 F2000.000
G2 X-138.114 Y431.998 Z-7.000 I98.970 J-8.417 K0.000 F2000.000
G2 X-115.671 Y463.806 Z-7.000 I74.656 J-28.854 K0.000 F2000.000
G2 X-95.747 Y476.822 Z-7.000 I62.673 J-74.180 K0.000 F2000.000
G2 X-72.829 Y485.359 Z-7.000 I57.843 J-120.252 K0.000 F2000.000
G2 X-39.217 Y491.198 Z-7.000 I50.018 J-188.251 K0.000 F2000.000
G2 X-1.685 Y492.187 Z-7.000 I26.812 J-305.045 K0.000 F2000.000
G2 X22.614 Y492.335 Z-7.000 I14.132 J-323.585 K0.000 F2000.000
G2 X48.087 Y490.277 Z-7.000 I-6.445 J-238.412 K0.000 F2000.000
G2 X72.667 Y485.228 Z-7.000 I-21.720 J-168.102 K0.000 F2000.000
G2 X95.113 Y476.501 Z-7.000 I-31.960 J-115.431 K0.000 F2000.000
G2 X110.513 Y466.674 Z-7.000 I-40.337 J-80.194 K0.000 F2000.000
G2 X126.826 Y449.345 Z-7.000 I-49.318 J-62.765 K0.000 F2000.000
G0 Z5.000
G0 Z5.000
(Finish operation: Profile)
(Begin postamble)
M5
G17 G90
M2
