
(Exported by FreeCAD)
(Post Processor: grbl_post)
(Output Time:2022-12-17 11:32:04.866993)
(Begin preamble)
G17 G90
G21
(Begin operation: 3.175 Z1 UP Helicoidale004)
(Path: 3.175 Z1 UP Helicoidale004)
(3.175 Z1 UP Helicoidale004)
(Begin toolchange)
( M6 T2.0 )
M3 S24000.0
(Finish operation: 3.175 Z1 UP Helicoidale004)
(Begin operation: Fixture)
(Path: Fixture)
G54
G0 Z5.000
(Finish operation: Fixture)
(Begin operation: Profile)
(Path: Profile)
(Profile)
(Compensated Tool Path. Diameter: 3.17)
G0 Z5.000
G0 X75.629 Y167.349
G0 Z3.000
G1 X75.629 Y167.349 Z-3.170 F1000.000
G2 X77.620 Y165.535 Z-3.170 I-0.396 J-2.435 K0.000 F2500.000
G2 X77.481 Y163.086 Z-3.170 I-5.005 J-0.944 K0.000 F2500.000
G2 X74.516 Y156.523 Z-3.170 I-28.407 J8.883 K0.000 F2500.000
G2 X75.114 Y155.254 Z-3.170 I-0.957 J-1.227 K0.000 F2500.000
G1 X72.306 Y19.674 Z-3.170 F2500.000
G2 X72.027 Y18.808 Z-3.170 I-1.585 J0.033 K0.000 F2500.000
G3 X69.237 Y14.029 Z-3.170 I22.310 J-16.225 K0.000 F2500.000
G3 X67.050 Y6.060 Z-3.170 I24.432 J-10.991 K0.000 F2500.000
G3 X66.547 Y-0.044 Z-3.170 I191.652 J-18.843 K0.000 F2500.000
G2 X64.965 Y-1.514 Z-3.170 I-1.581 J0.115 K0.000 F2500.000
G3 X11.609 Y-1.585 Z-3.170 I-13.339 J-10045.050 K0.000 F2500.000
G2 X10.022 Y-0.102 Z-3.170 I-0.005 J1.585 K0.000 F2500.000
G3 X9.641 Y4.656 Z-3.170 I-100.070 J-5.629 K0.000 F2500.000
G3 X8.303 Y11.433 Z-3.170 I-28.698 J-2.145 K0.000 F2500.000
G3 X4.486 Y18.731 Z-3.170 I-25.389 J-8.633 K0.000 F2500.000
G2 X4.213 Y19.584 Z-3.170 I1.312 J0.890 K0.000 F2500.000
G1 X1.044 Y155.155 Z-3.170 F2500.000
G2 X1.640 Y156.424 Z-3.170 I1.556 J0.044 K0.000 F2500.000
G2 X-1.310 Y162.869 Z-3.170 I25.646 J15.639 K0.000 F2500.000
G2 X-1.549 Y164.021 Z-3.170 I6.181 J1.885 K0.000 F2500.000
G2 X-0.772 Y166.626 Z-3.170 I2.803 J0.582 K0.000 F2500.000
G2 X1.593 Y167.269 Z-3.170 I1.858 J-2.163 K0.000 F2500.000
G3 X5.630 Y166.780 Z-3.170 I5.604 J29.334 K0.000 F2500.000
G3 X8.010 Y167.403 Z-3.170 I0.079 J4.553 K0.000 F2500.000
G3 X10.077 Y169.552 Z-3.170 I-3.768 J5.691 K0.000 F2500.000
G2 X11.918 Y170.164 Z-3.170 I1.316 J-0.884 K0.000 F2500.000
G3 X16.156 Y169.737 Z-3.170 I2.805 J6.589 K0.000 F2500.000
G3 X21.319 Y172.287 Z-3.170 I-4.036 J14.674 K0.000 F2500.000
G3 X24.594 Y175.165 Z-3.170 I-41.290 J50.278 K0.000 F2500.000
G2 X28.178 Y178.069 Z-3.170 I15.629 J-15.629 K0.000 F2500.000
G2 X32.818 Y179.982 Z-3.170 I7.212 J-10.906 K0.000 F2500.000
G2 X38.047 Y179.067 Z-3.170 I1.443 J-7.153 K0.000 F2500.000
G2 X42.301 Y180.121 Z-3.170 I3.790 J-6.187 K0.000 F2500.000
G2 X47.826 Y178.171 Z-3.170 I-1.301 J-12.489 K0.000 F2500.000
G2 X51.852 Y174.922 Z-3.170 I-19.129 J-27.819 K0.000 F2500.000
G3 X54.305 Y172.708 Z-3.170 I24.876 J25.103 K0.000 F2500.000
G3 X59.224 Y170.010 Z-3.170 I9.886 J12.190 K0.000 F2500.000
G3 X62.447 Y169.731 Z-3.170 I2.146 J6.033 K0.000 F2500.000
G3 X64.252 Y170.250 Z-3.170 I-2.273 J11.292 K0.000 F2500.000
G2 X66.034 Y169.640 Z-3.170 I0.478 J-1.511 K0.000 F2500.000
G3 X66.856 Y168.554 Z-3.170 I6.279 J3.898 K0.000 F2500.000
G3 X70.581 Y166.851 Z-3.170 I3.656 J3.072 K0.000 F2500.000
G3 X73.533 Y167.210 Z-3.170 I-2.620 J33.869 K0.000 F2500.000
G2 X75.371 Y167.377 Z-3.170 I1.432 J-5.568 K0.000 F2500.000
G2 X75.629 Y167.349 Z-3.170 I-0.138 J-2.463 K0.000 F2500.000
G1 X75.629 Y167.349 Z-6.340 F1000.000
G2 X77.620 Y165.535 Z-6.340 I-0.396 J-2.435 K0.000 F2500.000
G2 X77.481 Y163.086 Z-6.340 I-5.005 J-0.944 K0.000 F2500.000
G2 X74.516 Y156.523 Z-6.340 I-28.407 J8.883 K0.000 F2500.000
G2 X75.114 Y155.254 Z-6.340 I-0.957 J-1.227 K0.000 F2500.000
G1 X72.306 Y19.674 Z-6.340 F2500.000
G2 X72.027 Y18.808 Z-6.340 I-1.585 J0.033 K0.000 F2500.000
G3 X69.237 Y14.029 Z-6.340 I22.310 J-16.225 K0.000 F2500.000
G3 X67.050 Y6.060 Z-6.340 I24.432 J-10.991 K0.000 F2500.000
G3 X66.547 Y-0.044 Z-6.340 I191.652 J-18.843 K0.000 F2500.000
G2 X64.965 Y-1.514 Z-6.340 I-1.581 J0.115 K0.000 F2500.000
G3 X11.609 Y-1.585 Z-6.340 I-13.339 J-10045.050 K0.000 F2500.000
G2 X10.022 Y-0.102 Z-6.340 I-0.005 J1.585 K0.000 F2500.000
G3 X9.641 Y4.656 Z-6.340 I-100.070 J-5.629 K0.000 F2500.000
G3 X8.303 Y11.433 Z-6.340 I-28.698 J-2.145 K0.000 F2500.000
G3 X4.486 Y18.731 Z-6.340 I-25.389 J-8.633 K0.000 F2500.000
G2 X4.213 Y19.584 Z-6.340 I1.312 J0.890 K0.000 F2500.000
G1 X1.044 Y155.155 Z-6.340 F2500.000
G2 X1.640 Y156.424 Z-6.340 I1.556 J0.044 K0.000 F2500.000
G2 X-1.310 Y162.869 Z-6.340 I25.646 J15.639 K0.000 F2500.000
G2 X-1.549 Y164.021 Z-6.340 I6.181 J1.885 K0.000 F2500.000
G2 X-0.772 Y166.626 Z-6.340 I2.803 J0.582 K0.000 F2500.000
G2 X1.593 Y167.269 Z-6.340 I1.858 J-2.163 K0.000 F2500.000
G3 X5.630 Y166.780 Z-6.340 I5.604 J29.334 K0.000 F2500.000
G3 X8.010 Y167.403 Z-6.340 I0.079 J4.553 K0.000 F2500.000
G3 X10.077 Y169.552 Z-6.340 I-3.768 J5.691 K0.000 F2500.000
G2 X11.918 Y170.164 Z-6.340 I1.316 J-0.884 K0.000 F2500.000
G3 X16.156 Y169.737 Z-6.340 I2.805 J6.589 K0.000 F2500.000
G3 X21.319 Y172.287 Z-6.340 I-4.036 J14.674 K0.000 F2500.000
G3 X24.594 Y175.165 Z-6.340 I-41.290 J50.278 K0.000 F2500.000
G2 X28.178 Y178.069 Z-6.340 I15.629 J-15.629 K0.000 F2500.000
G2 X32.818 Y179.982 Z-6.340 I7.212 J-10.906 K0.000 F2500.000
G2 X38.047 Y179.067 Z-6.340 I1.443 J-7.153 K0.000 F2500.000
G2 X42.301 Y180.121 Z-6.340 I3.790 J-6.187 K0.000 F2500.000
G2 X47.826 Y178.171 Z-6.340 I-1.301 J-12.489 K0.000 F2500.000
G2 X51.852 Y174.922 Z-6.340 I-19.129 J-27.819 K0.000 F2500.000
G3 X54.305 Y172.708 Z-6.340 I24.876 J25.103 K0.000 F2500.000
G3 X59.224 Y170.010 Z-6.340 I9.886 J12.190 K0.000 F2500.000
G3 X62.447 Y169.731 Z-6.340 I2.146 J6.033 K0.000 F2500.000
G3 X64.252 Y170.250 Z-6.340 I-2.273 J11.292 K0.000 F2500.000
G2 X66.034 Y169.640 Z-6.340 I0.478 J-1.511 K0.000 F2500.000
G3 X66.856 Y168.554 Z-6.340 I6.279 J3.898 K0.000 F2500.000
G3 X70.581 Y166.851 Z-6.340 I3.656 J3.072 K0.000 F2500.000
G3 X73.533 Y167.210 Z-6.340 I-2.620 J33.869 K0.000 F2500.000
G2 X75.371 Y167.377 Z-6.340 I1.432 J-5.568 K0.000 F2500.000
G2 X75.629 Y167.349 Z-6.340 I-0.138 J-2.463 K0.000 F2500.000
G1 X75.629 Y167.349 Z-9.510 F1000.000
G2 X77.620 Y165.535 Z-9.510 I-0.396 J-2.435 K0.000 F2500.000
G2 X77.481 Y163.086 Z-9.510 I-5.005 J-0.944 K0.000 F2500.000
G2 X74.516 Y156.523 Z-9.510 I-28.407 J8.883 K0.000 F2500.000
G2 X75.114 Y155.254 Z-9.510 I-0.957 J-1.227 K0.000 F2500.000
G1 X72.306 Y19.674 Z-9.510 F2500.000
G2 X72.027 Y18.808 Z-9.510 I-1.585 J0.033 K0.000 F2500.000
G3 X69.237 Y14.029 Z-9.510 I22.310 J-16.225 K0.000 F2500.000
G3 X67.050 Y6.060 Z-9.510 I24.432 J-10.991 K0.000 F2500.000
G3 X66.547 Y-0.044 Z-9.510 I191.652 J-18.843 K0.000 F2500.000
G2 X64.965 Y-1.514 Z-9.510 I-1.581 J0.115 K0.000 F2500.000
G3 X11.609 Y-1.585 Z-9.510 I-13.339 J-10045.050 K0.000 F2500.000
G2 X10.022 Y-0.102 Z-9.510 I-0.005 J1.585 K0.000 F2500.000
G3 X9.641 Y4.656 Z-9.510 I-100.070 J-5.629 K0.000 F2500.000
G3 X8.303 Y11.433 Z-9.510 I-28.698 J-2.145 K0.000 F2500.000
G3 X4.486 Y18.731 Z-9.510 I-25.389 J-8.633 K0.000 F2500.000
G2 X4.213 Y19.584 Z-9.510 I1.312 J0.890 K0.000 F2500.000
G1 X1.044 Y155.155 Z-9.510 F2500.000
G2 X1.640 Y156.424 Z-9.510 I1.556 J0.044 K0.000 F2500.000
G2 X-1.310 Y162.869 Z-9.510 I25.646 J15.639 K0.000 F2500.000
G2 X-1.549 Y164.021 Z-9.510 I6.181 J1.885 K0.000 F2500.000
G2 X-0.772 Y166.626 Z-9.510 I2.803 J0.582 K0.000 F2500.000
G2 X1.593 Y167.269 Z-9.510 I1.858 J-2.163 K0.000 F2500.000
G3 X5.630 Y166.780 Z-9.510 I5.604 J29.334 K0.000 F2500.000
G3 X8.010 Y167.403 Z-9.510 I0.079 J4.553 K0.000 F2500.000
G3 X10.077 Y169.552 Z-9.510 I-3.768 J5.691 K0.000 F2500.000
G2 X11.918 Y170.164 Z-9.510 I1.316 J-0.884 K0.000 F2500.000
G3 X16.156 Y169.737 Z-9.510 I2.805 J6.589 K0.000 F2500.000
G3 X21.319 Y172.287 Z-9.510 I-4.036 J14.674 K0.000 F2500.000
G3 X24.594 Y175.165 Z-9.510 I-41.290 J50.278 K0.000 F2500.000
G2 X28.178 Y178.069 Z-9.510 I15.629 J-15.629 K0.000 F2500.000
G2 X32.818 Y179.982 Z-9.510 I7.212 J-10.906 K0.000 F2500.000
G2 X38.047 Y179.067 Z-9.510 I1.443 J-7.153 K0.000 F2500.000
G2 X42.301 Y180.121 Z-9.510 I3.790 J-6.187 K0.000 F2500.000
G2 X47.826 Y178.171 Z-9.510 I-1.301 J-12.489 K0.000 F2500.000
G2 X51.852 Y174.922 Z-9.510 I-19.129 J-27.819 K0.000 F2500.000
G3 X54.305 Y172.708 Z-9.510 I24.876 J25.103 K0.000 F2500.000
G3 X59.224 Y170.010 Z-9.510 I9.886 J12.190 K0.000 F2500.000
G3 X62.447 Y169.731 Z-9.510 I2.146 J6.033 K0.000 F2500.000
G3 X64.252 Y170.250 Z-9.510 I-2.273 J11.292 K0.000 F2500.000
G2 X66.034 Y169.640 Z-9.510 I0.478 J-1.511 K0.000 F2500.000
G3 X66.856 Y168.554 Z-9.510 I6.279 J3.898 K0.000 F2500.000
G3 X70.581 Y166.851 Z-9.510 I3.656 J3.072 K0.000 F2500.000
G3 X73.533 Y167.210 Z-9.510 I-2.620 J33.869 K0.000 F2500.000
G2 X75.371 Y167.377 Z-9.510 I1.432 J-5.568 K0.000 F2500.000
G2 X75.629 Y167.349 Z-9.510 I-0.138 J-2.463 K0.000 F2500.000
G1 X75.629 Y167.349 Z-10.000 F1000.000
G2 X77.620 Y165.535 Z-10.000 I-0.396 J-2.435 K0.000 F2500.000
G2 X77.481 Y163.086 Z-10.000 I-5.005 J-0.944 K0.000 F2500.000
G2 X74.516 Y156.523 Z-10.000 I-28.407 J8.883 K0.000 F2500.000
G2 X75.114 Y155.254 Z-10.000 I-0.957 J-1.227 K0.000 F2500.000
G1 X72.306 Y19.674 Z-10.000 F2500.000
G2 X72.027 Y18.808 Z-10.000 I-1.585 J0.033 K0.000 F2500.000
G3 X69.237 Y14.029 Z-10.000 I22.310 J-16.225 K0.000 F2500.000
G3 X67.050 Y6.060 Z-10.000 I24.432 J-10.991 K0.000 F2500.000
G3 X66.547 Y-0.044 Z-10.000 I191.652 J-18.843 K0.000 F2500.000
G2 X64.965 Y-1.514 Z-10.000 I-1.581 J0.115 K0.000 F2500.000
G3 X11.609 Y-1.585 Z-10.000 I-13.339 J-10045.050 K0.000 F2500.000
G2 X10.022 Y-0.102 Z-10.000 I-0.005 J1.585 K0.000 F2500.000
G3 X9.641 Y4.656 Z-10.000 I-100.070 J-5.629 K0.000 F2500.000
G3 X8.303 Y11.433 Z-10.000 I-28.698 J-2.145 K0.000 F2500.000
G3 X4.486 Y18.731 Z-10.000 I-25.389 J-8.633 K0.000 F2500.000
G2 X4.213 Y19.584 Z-10.000 I1.312 J0.890 K0.000 F2500.000
G1 X1.044 Y155.155 Z-10.000 F2500.000
G2 X1.640 Y156.424 Z-10.000 I1.556 J0.044 K0.000 F2500.000
G2 X-1.310 Y162.869 Z-10.000 I25.646 J15.639 K0.000 F2500.000
G2 X-1.549 Y164.021 Z-10.000 I6.181 J1.885 K0.000 F2500.000
G2 X-0.772 Y166.626 Z-10.000 I2.803 J0.582 K0.000 F2500.000
G2 X1.593 Y167.269 Z-10.000 I1.858 J-2.163 K0.000 F2500.000
G3 X5.630 Y166.780 Z-10.000 I5.604 J29.334 K0.000 F2500.000
G3 X8.010 Y167.403 Z-10.000 I0.079 J4.553 K0.000 F2500.000
G3 X10.077 Y169.552 Z-10.000 I-3.768 J5.691 K0.000 F2500.000
G2 X11.918 Y170.164 Z-10.000 I1.316 J-0.884 K0.000 F2500.000
G3 X16.156 Y169.737 Z-10.000 I2.805 J6.589 K0.000 F2500.000
G3 X21.319 Y172.287 Z-10.000 I-4.036 J14.674 K0.000 F2500.000
G3 X24.594 Y175.165 Z-10.000 I-41.290 J50.278 K0.000 F2500.000
G2 X28.178 Y178.069 Z-10.000 I15.629 J-15.629 K0.000 F2500.000
G2 X32.818 Y179.982 Z-10.000 I7.212 J-10.906 K0.000 F2500.000
G2 X38.047 Y179.067 Z-10.000 I1.443 J-7.153 K0.000 F2500.000
G2 X42.301 Y180.121 Z-10.000 I3.790 J-6.187 K0.000 F2500.000
G2 X47.826 Y178.171 Z-10.000 I-1.301 J-12.489 K0.000 F2500.000
G2 X51.852 Y174.922 Z-10.000 I-19.129 J-27.819 K0.000 F2500.000
G3 X54.305 Y172.708 Z-10.000 I24.876 J25.103 K0.000 F2500.000
G3 X59.224 Y170.010 Z-10.000 I9.886 J12.190 K0.000 F2500.000
G3 X62.447 Y169.731 Z-10.000 I2.146 J6.033 K0.000 F2500.000
G3 X64.252 Y170.250 Z-10.000 I-2.273 J11.292 K0.000 F2500.000
G2 X66.034 Y169.640 Z-10.000 I0.478 J-1.511 K0.000 F2500.000
G3 X66.856 Y168.554 Z-10.000 I6.279 J3.898 K0.000 F2500.000
G3 X70.581 Y166.851 Z-10.000 I3.656 J3.072 K0.000 F2500.000
G3 X73.533 Y167.210 Z-10.000 I-2.620 J33.869 K0.000 F2500.000
G2 X75.371 Y167.377 Z-10.000 I1.432 J-5.568 K0.000 F2500.000
G2 X75.629 Y167.349 Z-10.000 I-0.138 J-2.463 K0.000 F2500.000
G0 Z5.000
G0 Z5.000
(Finish operation: Profile)
(Begin operation: Profile001)
(Path: Profile001)
(Profile001)
(Compensated Tool Path. Diameter: 3.17)
G0 Z5.000
G0 X25.041 Y142.567
G0 Z3.000
G1 X25.041 Y142.567 Z-3.170 F1000.000
G3 X13.356 Y139.047 Z-3.170 I-5.157 J-4.035 K0.000 F2500.000
G1 X13.336 Y138.365 Z-3.170 F2500.000
G1 X15.191 Y43.664 Z-3.170 F2500.000
G3 X23.119 Y37.375 Z-3.170 I6.531 J0.092 K0.000 F2500.000
G3 X28.251 Y43.918 Z-3.170 I-1.400 J6.382 K0.000 F2500.000
G1 X26.431 Y138.619 Z-3.170 F2500.000
G3 X25.041 Y142.567 Z-3.170 I-6.548 J-0.088 K0.000 F2500.000
G1 X25.041 Y142.567 Z-6.340 F1000.000
G3 X13.356 Y139.047 Z-6.340 I-5.157 J-4.035 K0.000 F2500.000
G1 X13.336 Y138.365 Z-6.340 F2500.000
G1 X15.191 Y43.664 Z-6.340 F2500.000
G3 X23.119 Y37.375 Z-6.340 I6.531 J0.092 K0.000 F2500.000
G3 X28.251 Y43.918 Z-6.340 I-1.400 J6.382 K0.000 F2500.000
G1 X26.431 Y138.619 Z-6.340 F2500.000
G3 X25.041 Y142.567 Z-6.340 I-6.548 J-0.088 K0.000 F2500.000
G1 X25.041 Y142.567 Z-9.510 F1000.000
G3 X13.356 Y139.047 Z-9.510 I-5.157 J-4.035 K0.000 F2500.000
G1 X13.336 Y138.365 Z-9.510 F2500.000
G1 X15.191 Y43.664 Z-9.510 F2500.000
G3 X23.119 Y37.375 Z-9.510 I6.531 J0.092 K0.000 F2500.000
G3 X28.251 Y43.918 Z-9.510 I-1.400 J6.382 K0.000 F2500.000
G1 X26.431 Y138.619 Z-9.510 F2500.000
G3 X25.041 Y142.567 Z-9.510 I-6.548 J-0.088 K0.000 F2500.000
G1 X25.041 Y142.567 Z-10.000 F1000.000
G3 X13.356 Y139.047 Z-10.000 I-5.157 J-4.035 K0.000 F2500.000
G1 X13.336 Y138.365 Z-10.000 F2500.000
G1 X15.191 Y43.664 Z-10.000 F2500.000
G3 X23.119 Y37.375 Z-10.000 I6.531 J0.092 K0.000 F2500.000
G3 X28.251 Y43.918 Z-10.000 I-1.400 J6.382 K0.000 F2500.000
G1 X26.431 Y138.619 Z-10.000 F2500.000
G3 X25.041 Y142.567 Z-10.000 I-6.548 J-0.088 K0.000 F2500.000
G0 Z5.000
G0 Z5.000
G0 X25.041 Y142.567
G0 X49.825 Y139.408
G0 X49.825 Y139.408 Z3.000
G1 X49.825 Y139.408 Z-3.170 F1000.000
G3 X49.816 Y139.330 Z-3.170 I6.496 J-0.828 K0.000 F2500.000
G1 X49.771 Y138.650 Z-3.170 F2500.000
G1 X48.203 Y43.944 Z-3.170 F2500.000
G3 X55.899 Y37.373 Z-3.170 I6.530 J-0.144 K0.000 F2500.000
G3 X61.263 Y43.725 Z-3.170 I-1.169 J6.428 K0.000 F2500.000
G1 X62.867 Y138.431 Z-3.170 F2500.000
G3 X49.825 Y139.408 Z-3.170 I-6.547 J0.149 K0.000 F2500.000
G1 X49.825 Y139.408 Z-6.340 F1000.000
G3 X49.816 Y139.330 Z-6.340 I6.496 J-0.828 K0.000 F2500.000
G1 X49.771 Y138.650 Z-6.340 F2500.000
G1 X48.203 Y43.944 Z-6.340 F2500.000
G3 X55.899 Y37.373 Z-6.340 I6.530 J-0.144 K0.000 F2500.000
G3 X61.263 Y43.725 Z-6.340 I-1.169 J6.428 K0.000 F2500.000
G1 X62.867 Y138.431 Z-6.340 F2500.000
G3 X49.825 Y139.408 Z-6.340 I-6.547 J0.149 K0.000 F2500.000
G1 X49.825 Y139.408 Z-9.510 F1000.000
G3 X49.816 Y139.330 Z-9.510 I6.496 J-0.828 K0.000 F2500.000
G1 X49.771 Y138.650 Z-9.510 F2500.000
G1 X48.203 Y43.944 Z-9.510 F2500.000
G3 X55.899 Y37.373 Z-9.510 I6.530 J-0.144 K0.000 F2500.000
G3 X61.263 Y43.725 Z-9.510 I-1.169 J6.428 K0.000 F2500.000
G1 X62.867 Y138.431 Z-9.510 F2500.000
G3 X49.825 Y139.408 Z-9.510 I-6.547 J0.149 K0.000 F2500.000
G1 X49.825 Y139.408 Z-10.000 F1000.000
G3 X49.816 Y139.330 Z-10.000 I6.496 J-0.828 K0.000 F2500.000
G1 X49.771 Y138.650 Z-10.000 F2500.000
G1 X48.203 Y43.944 Z-10.000 F2500.000
G3 X55.899 Y37.373 Z-10.000 I6.530 J-0.144 K0.000 F2500.000
G3 X61.263 Y43.725 Z-10.000 I-1.169 J6.428 K0.000 F2500.000
G1 X62.867 Y138.431 Z-10.000 F2500.000
G3 X49.825 Y139.408 Z-10.000 I-6.547 J0.149 K0.000 F2500.000
G0 Z5.000
G0 Z5.000
(Finish operation: Profile001)
(Begin postamble)
M5
G17 G90
M2
