(Exported by FreeCAD)
(Post Processor: grbl_post)
(Output Time:2022-06-05 11:13:53.854537)
(Begin preamble)
G17 G90
G21
(Begin operation: TC: 6 Z1 UP Alu Q013)
(Path: TC: 6 Z1 UP Alu Q013)
(TC: 6 Z1 UP Alu Q013)
(Begin toolchange)
( M6 T8.0 )
M3 S8000.0
(Finish operation: TC: 6 Z1 UP Alu Q013)
(Begin operation: Fixture)
(Path: Fixture)
G54
G0 Z25.000
(Finish operation: Fixture)
(Begin operation: Pocket_Shape)
(Path: Pocket_Shape)
(Pocket_Shape)
G0 Z25.000
G0 X46.751 Y46.751
G0 Z23.000
G1 X46.751 Y46.751 Z19.000 F100.000
G3 X38.506 Y49.430 Z19.000 I-6.751 J-6.751 K0.000 F250.000
G3 X41.494 Y30.570 Z19.000 I1.494 J-9.430 K0.000 F250.000
G3 X46.751 Y46.751 Z19.000 I-1.494 J9.430 K0.000 F250.000
G0 Z25.000
G0 X45.124 Y45.124 Z25.000
G0 X45.124 Y45.124 Z23.000
G1 X45.124 Y45.124 Z19.000 F100.000
G3 X40.699 Y47.212 Z19.000 I-5.124 J-5.124 K0.000 F250.000
G3 X32.788 Y40.699 Z19.000 I-0.699 J-7.212 K0.000 F250.000
G3 X39.301 Y32.788 Z19.000 I7.212 J-0.699 K0.000 F250.000
G3 X45.124 Y45.124 Z19.000 I0.699 J7.212 K0.000 F250.000
G1 X45.124 Y45.124 Z18.000 F100.000
G3 X40.699 Y47.212 Z18.000 I-5.124 J-5.124 K0.000 F250.000
G3 X32.788 Y40.699 Z18.000 I-0.699 J-7.212 K0.000 F250.000
G3 X39.301 Y32.788 Z18.000 I7.212 J-0.699 K0.000 F250.000
G3 X45.124 Y45.124 Z18.000 I0.699 J7.212 K0.000 F250.000
G0 Z25.000
G0 X46.751 Y46.751 Z25.000
G0 X46.751 Y46.751 Z23.000
G1 X46.751 Y46.751 Z18.000 F100.000
G3 X38.506 Y49.430 Z18.000 I-6.751 J-6.751 K0.000 F250.000
G3 X41.494 Y30.570 Z18.000 I1.494 J-9.430 K0.000 F250.000
G3 X46.751 Y46.751 Z18.000 I-1.494 J9.430 K0.000 F250.000
G1 X46.751 Y46.751 Z17.000 F100.000
G3 X38.506 Y49.430 Z17.000 I-6.751 J-6.751 K0.000 F250.000
G3 X41.494 Y30.570 Z17.000 I1.494 J-9.430 K0.000 F250.000
G3 X46.751 Y46.751 Z17.000 I-1.494 J9.430 K0.000 F250.000
G0 Z25.000
G0 X45.124 Y45.124 Z25.000
G0 X45.124 Y45.124 Z23.000
G1 X45.124 Y45.124 Z17.000 F100.000
G3 X40.699 Y47.212 Z17.000 I-5.124 J-5.124 K0.000 F250.000
G3 X32.788 Y40.699 Z17.000 I-0.699 J-7.212 K0.000 F250.000
G3 X39.301 Y32.788 Z17.000 I7.212 J-0.699 K0.000 F250.000
G3 X45.124 Y45.124 Z17.000 I0.699 J7.212 K0.000 F250.000
G1 X45.124 Y45.124 Z16.000 F100.000
G3 X40.699 Y47.212 Z16.000 I-5.124 J-5.124 K0.000 F250.000
G3 X32.788 Y40.699 Z16.000 I-0.699 J-7.212 K0.000 F250.000
G3 X39.301 Y32.788 Z16.000 I7.212 J-0.699 K0.000 F250.000
G3 X45.124 Y45.124 Z16.000 I0.699 J7.212 K0.000 F250.000
G0 Z25.000
G0 X46.751 Y46.751 Z25.000
G0 X46.751 Y46.751 Z23.000
G1 X46.751 Y46.751 Z16.000 F100.000
G3 X38.506 Y49.430 Z16.000 I-6.751 J-6.751 K0.000 F250.000
G3 X41.494 Y30.570 Z16.000 I1.494 J-9.430 K0.000 F250.000
G3 X46.751 Y46.751 Z16.000 I-1.494 J9.430 K0.000 F250.000
G1 X46.751 Y46.751 Z15.000 F100.000
G3 X38.506 Y49.430 Z15.000 I-6.751 J-6.751 K0.000 F250.000
G3 X41.494 Y30.570 Z15.000 I1.494 J-9.430 K0.000 F250.000
G3 X46.751 Y46.751 Z15.000 I-1.494 J9.430 K0.000 F250.000
G0 Z25.000
G0 X45.124 Y45.124 Z25.000
G0 X45.124 Y45.124 Z23.000
G1 X45.124 Y45.124 Z15.000 F100.000
G3 X40.699 Y47.212 Z15.000 I-5.124 J-5.124 K0.000 F250.000
G3 X32.788 Y40.699 Z15.000 I-0.699 J-7.212 K0.000 F250.000
G3 X39.301 Y32.788 Z15.000 I7.212 J-0.699 K0.000 F250.000
G3 X45.124 Y45.124 Z15.000 I0.699 J7.212 K0.000 F250.000
G1 X45.124 Y45.124 Z14.800 F100.000
G3 X40.699 Y47.212 Z14.800 I-5.124 J-5.124 K0.000 F250.000
G3 X32.788 Y40.699 Z14.800 I-0.699 J-7.212 K0.000 F250.000
G3 X39.301 Y32.788 Z14.800 I7.212 J-0.699 K0.000 F250.000
G3 X45.124 Y45.124 Z14.800 I0.699 J7.212 K0.000 F250.000
G0 Z25.000
G0 X46.751 Y46.751 Z25.000
G0 X46.751 Y46.751 Z23.000
G1 X46.751 Y46.751 Z14.800 F100.000
G3 X38.506 Y49.430 Z14.800 I-6.751 J-6.751 K0.000 F250.000
G3 X41.494 Y30.570 Z14.800 I1.494 J-9.430 K0.000 F250.000
G3 X46.751 Y46.751 Z14.800 I-1.494 J9.430 K0.000 F250.000
G0 Z25.000
G0 Z25.000
(Finish operation: Pocket_Shape)
(Begin postamble)
M5
G17 G90
M2
