(Project Base Meshed)
(Created by Estlcam version 11 build 11,241)
(Machining time about 02:15:49 hours)

(Required tools:)
(End mill 6mm)
G21
G90
G94
M03 S8000
G00 Z5.0000


(No. 1: )
G00 X46.3000 Y7.1000
G01 Z-2.0000 F162 S8000
G01 X54.3000
G01 Z1.0000
G01 X70.5000 Y11.9000
G01 Z-2.0000
G01 X30.1000
G01 X22.9000 Y16.7000
G01 X77.5000
G01 X82.5000 Y21.5000
G01 X17.9000
G01 X14.1000 Y26.3000
G01 X86.3000
G01 X89.1000 Y31.1000
G01 X11.3000
G01 X9.3000 Y35.9000
G01 X42.7000
G01 X42.9000 Z0.1000
G01 X43.9000 Z0.5000
G01 X56.7000 Z0.4711
G01 X57.5000 Z0.1285
G01 X57.7000 Z-2.0000
G01 X91.1000
G01 X92.3000 Y40.7000
G01 X63.3000
G01 X62.7000 Z0.5000
G01 X37.7000
G01 X37.3000 Z-2.0000
G01 X8.1000
G01 X7.3000 Y45.5000
G01 X34.7000
G01 Z-1.5000
G01 X7.1000 Y50.3000
G01 Z-2.0000
G01 X33.9000
G01 X34.5000 Z0.5000
G01 X47.9000
G01 X49.5000 Z-1.0311
G01 X51.3000 Z-0.8125
G01 X52.7000 Z0.5000
G01 X65.9000
G01 X66.5000 Z-2.0000
G01 X93.3000
G01 X93.1000 Y45.5000
G01 X65.7000
G01 Z1.0000
G01 X65.5000 Y55.1000
G01 Z-2.0000
G01 X93.1000
G01 X92.3000 Y59.9000
G01 X63.1000
G01 X62.5000 Z0.5000
G01 X37.9000
G01 X37.3000 Z-2.0000
G01 X8.1000
G01 X7.3000 Y55.1000
G01 X34.9000
G01 Z-1.5000
G01 X9.5000 Y64.7000
G01 Z-2.0000
G01 X43.1000
G01 X43.3000 Z0.1004
G01 X44.3000 Z0.5000
G01 X56.3000 Z0.4711
G01 X57.1000 Z0.1004
G01 X57.3000 Z-2.0000
G01 X90.9000
G01 X88.9000 Y69.5000
G01 X11.5000
G01 X14.3000 Y74.3000
G01 X86.1000
G01 X82.3000 Y79.1000
G01 X18.1000
G01 X23.3000 Y83.9000
G01 X77.1000
G01 X70.1000 Y88.7000
G01 X30.3000
G01 Z-1.5000
G01 X48.3000 Y93.5000
G01 Z-2.0000
G01 X52.3000
G00 Z5.0000
G00 X54.3000 Y7.1000
G01 Z-4.0000
G01 X46.3000
G01 Z1.0000
G01 X30.1000 Y11.9000
G01 Z-4.0000
G01 X70.5000
G01 X77.5000 Y16.7000
G01 X22.9000
G01 X17.9000 Y21.5000
G01 X82.5000
G01 X86.3000 Y26.3000
G01 X14.1000
G01 X11.3000 Y31.1000
G01 X89.1000
G01 X91.1000 Y35.9000
G01 X57.7000
G01 X57.5000 Z0.1285
G01 X56.7000 Z0.4711
G01 X43.9000 Z0.5000
G01 X42.9000 Z0.1000
G01 X42.7000 Z-4.0000
G01 X9.3000
G01 X8.1000 Y40.7000
G01 X37.3000
G01 X37.7000 Z0.5000
G01 X62.7000
G01 X63.3000 Z-4.0000
G01 X92.3000
G01 X93.1000 Y45.5000
G01 X65.7000
G01 X66.5000 Y50.3000
G01 X93.3000
G01 X93.1000 Y55.1000
G01 X65.5000
G01 Z-3.5000
G01 X92.3000 Y59.9000
G01 Z-4.0000
G01 X63.1000
G01 X62.5000 Z0.5000
G01 X37.9000
G01 X37.3000 Z-4.0000
G01 X8.1000
G01 X7.3000 Y55.1000
G01 X34.9000
G01 X33.9000 Y50.3000
G01 X7.1000
G01 X7.3000 Y45.5000
G01 X34.7000
G01 Z-3.5000
G01 X9.5000 Y64.7000
G01 Z-4.0000
G01 X43.1000
G01 X43.3000 Z0.1004
G01 X44.3000 Z0.5000
G01 X56.3000 Z0.4711
G01 X57.1000 Z0.1004
G01 X57.3000 Z-4.0000
G01 X90.9000
G01 X88.9000 Y69.5000
G01 X11.5000
G01 X14.3000 Y74.3000
G01 X86.1000
G01 X82.3000 Y79.1000
G01 X18.1000
G01 X23.3000 Y83.9000
G01 X77.1000
G01 X70.1000 Y88.7000
G01 X30.3000
G01 Z1.0000
G01 X48.3000 Y93.5000
G01 Z-4.0000
G01 X52.3000
G00 Z5.0000
G00 X54.3000 Y7.1000
G01 Z-6.0000
G01 X46.3000
G01 Z1.0000
G01 X30.1000 Y11.9000
G01 Z-6.0000
G01 X70.5000
G01 X77.5000 Y16.7000
G01 X22.9000
G01 X17.9000 Y21.5000
G01 X82.5000
G01 X86.3000 Y26.3000
G01 X14.1000
G01 X11.3000 Y31.1000
G01 X89.1000
G01 X91.1000 Y35.9000
G01 X57.7000
G01 X57.5000 Z0.1285
G01 X43.9000 Z0.5000
G01 X42.9000 Z0.1000
G01 X42.7000 Z-6.0000
G01 X9.3000
G01 X8.1000 Y40.7000
G01 X37.3000
G01 X37.7000 Z0.5000
G01 X62.7000
G01 X63.3000 Z-6.0000
G01 X92.3000
G01 X93.1000 Y45.5000
G01 X65.7000
G01 X66.5000 Y50.3000
G01 X93.3000
G01 X93.1000 Y55.1000
G01 X65.5000
G01 Z-5.5000
G01 X92.3000 Y59.9000
G01 Z-6.0000
G01 X63.1000
G01 X62.5000 Z0.5000
G01 X37.9000
G01 X37.3000 Z-6.0000
G01 X8.1000
G01 X7.3000 Y55.1000
G01 X34.9000
G01 X33.9000 Y50.3000
G01 X7.1000
G01 X7.3000 Y45.5000
G01 X34.7000
G01 Z-5.5000
G01 X9.5000 Y64.7000
G01 Z-6.0000
G01 X43.1000
G01 X43.3000 Z0.1004
G01 X44.3000 Z0.5000
G01 X57.1000 Z0.1004
G01 X57.3000 Z-6.0000
G01 X90.9000
G01 X88.9000 Y69.5000
G01 X11.5000
G01 X14.3000 Y74.3000
G01 X86.1000
G01 X82.3000 Y79.1000
G01 X18.1000
G01 X23.3000 Y83.9000
G01 X77.1000
G01 X70.1000 Y88.7000
G01 X30.3000
G01 Z1.0000
G01 X48.3000 Y93.5000
G01 Z-6.0000
G01 X52.3000
G00 Z5.0000
G00 X54.3000 Y7.1000
G01 Z-8.0000
G01 X46.3000
G01 Z1.0000
G01 X30.1000 Y11.9000
G01 Z-8.0000
G01 X70.5000
G01 X77.5000 Y16.7000
G01 X22.9000
G01 X17.9000 Y21.5000
G01 X82.5000
G01 X86.3000 Y26.3000
G01 X14.1000
G01 X11.3000 Y31.1000
G01 X89.1000
G01 X91.1000 Y35.9000
G01 X57.7000
G01 X57.5000 Z0.1285
G01 X43.9000 Z0.5000
G01 X42.9000 Z0.1000
G01 X42.7000 Z-8.0000
G01 X9.3000
G01 X8.1000 Y40.7000
G01 X37.3000
G01 X37.7000 Z0.5000
G01 X62.7000
G01 X63.3000 Z-8.0000
G01 X92.3000
G01 X93.1000 Y45.5000
G01 X65.7000
G01 X66.5000 Y50.3000
G01 X93.3000
G01 X93.1000 Y55.1000
G01 X65.5000
G01 Z-7.5000
G01 X92.3000 Y59.9000
G01 Z-8.0000
G01 X63.1000
G01 X62.5000 Z0.5000
G01 X37.9000
G01 X37.3000 Z-8.0000
G01 X8.1000
G01 X7.3000 Y55.1000
G01 X34.9000
G01 X33.9000 Y50.3000
G01 X7.1000
G01 X7.3000 Y45.5000
G01 X34.7000
G01 Z-7.5000
G01 X9.5000 Y64.7000
G01 Z-8.0000
G01 X43.1000
G01 X43.3000 Z0.1004
G01 X44.3000 Z0.5000
G01 X57.1000 Z0.1004
G01 X57.3000 Z-8.0000
G01 X90.9000
G01 X88.9000 Y69.5000
G01 X11.5000
G01 X14.3000 Y74.3000
G01 X86.1000
G01 X82.3000 Y79.1000
G01 X18.1000
G01 X23.3000 Y83.9000
G01 X77.1000
G01 X70.1000 Y88.7000
G01 X30.3000
G01 Z1.0000
G01 X48.3000 Y93.5000
G01 Z-8.0000
G01 X52.3000
G00 Z5.0000
G00 X54.3000 Y7.1000
G01 Z-10.0000
G01 X46.3000
G01 Z1.0000
G01 X30.1000 Y11.9000
G01 Z-10.0000
G01 X36.5000 Z-9.5000
G01 X63.9000
G01 X70.5000 Z-10.0000
G01 X77.5000 Y16.7000
G01 X74.1000
G01 X73.3000 Z-9.5000
G01 X27.1000
G01 X26.3000 Z-10.0000
G01 X22.9000
G01 X17.9000 Y21.5000
G01 X20.9000
G01 X21.5000 Z-9.5000
G01 X78.9000
G01 X79.5000 Z-10.0000
G01 X82.5000
G01 X86.3000 Y26.3000
G01 X83.7000
G01 X83.1000 Z-9.5000
G01 X17.3000
G01 X16.7000 Z-10.0000
G01 X14.1000
G01 X11.3000 Y31.1000
G01 X14.3000 Z-9.5000
G01 X86.1000
G01 X89.1000 Z-10.0000
G01 X91.1000 Y35.9000
G01 X88.1000 Z-9.5000
G01 X57.7000
G01 X57.5000 Z0.1285
G01 X43.9000 Z0.5000
G01 X42.9000 Z0.1000
G01 X42.7000 Z-9.5000
G01 X12.3000
G01 X9.3000 Z-10.0000
G01 X8.1000 Y40.7000
G01 X10.7000 Z-9.5000
G01 X37.3000
G01 X37.7000 Z0.5000
G01 X62.7000
G01 X63.3000 Z-9.5000
G01 X89.7000
G01 X92.3000 Z-10.0000
G01 X93.1000 Y45.5000
G01 X90.5000 Z-9.5000
G01 X65.7000
G01 X66.5000 Y50.3000
G01 X78.5000
G01 X78.7000 Z-10.0000
G01 X90.9000 Z-9.5000
G01 X93.3000 Z-10.0000
G01 X93.1000 Y55.1000
G01 X90.5000 Z-9.5000
G01 X65.5000
G01 Z-9.0000
G01 X92.3000 Y59.9000
G01 Z-10.0000
G01 X89.7000 Z-9.5000
G01 X63.1000
G01 X62.5000 Z0.5000
G01 X37.9000
G01 X37.3000 Z-9.5000
G01 X10.7000
G01 X8.1000 Z-10.0000
G01 X7.3000 Y55.1000
G01 X9.9000 Z-9.5000
G01 X34.9000
G01 X33.9000 Y50.3000
G01 X18.7000 Z-10.0000
G01 X18.5000 Z-9.5000
G01 X9.5000
G01 X7.1000 Z-10.0000
G01 X7.3000 Y45.5000
G01 X9.9000 Z-9.5000
G01 X34.7000
G01 Z-9.0000
G01 X9.5000 Y64.7000
G01 Z-10.0000
G01 X12.3000 Z-9.5000
G01 X43.1000
G01 X43.3000 Z0.1004
G01 X44.3000 Z0.5000
G01 X57.1000 Z0.1004
G01 X57.3000 Z-9.5000
G01 X88.1000
G01 X90.9000 Z-10.0000
G01 X88.9000 Y69.5000
G01 X85.9000 Z-9.5000
G01 X14.5000
G01 X11.5000 Z-10.0000
G01 X14.3000 Y74.3000
G01 X16.9000
G01 X17.5000 Z-9.5000
G01 X82.9000
G01 X83.5000 Z-10.0000
G01 X86.1000
G01 X82.3000 Y79.1000
G01 X79.3000
G01 X78.7000 Z-9.5000
G01 X21.7000
G01 X21.1000 Z-10.0000
G01 X18.1000
G01 X23.3000 Y83.9000
G01 X26.7000
G01 X27.5000 Z-9.5000
G01 X73.1000
G01 X77.1000 Z-10.0000
G01 X70.1000 Y88.7000
G01 X37.1000 Z-9.5000
G01 X30.3000 Z-10.0000
G01 Z1.0000
G01 X48.3000 Y93.5000
G01 Z-10.0000
G01 X52.3000
G00 Z5.0000
G00 X54.3000 Y7.1000
G01 Z-12.0000
G01 X46.3000
G01 Z1.0000
G01 X34.9000 Y11.9000
G01 Z-12.0000
G01 X30.1000
G01 X26.3000 Y16.7000
G01 X22.9000
G01 X20.9000 Y21.5000
G01 X17.9000
G01 X16.7000 Y26.3000
G01 X14.1000
G01 X13.7000 Y31.1000
G01 X11.3000
G01 X11.5000 Y35.9000
G01 X9.3000
G01 X10.1000 Y40.7000
G01 X8.1000
G01 X7.3000 Y45.5000
G01 X9.3000
G01 X7.1000 Y50.3000
G01 X8.9000
G01 X9.5000 Z-9.5000
G01 X18.5000
G01 X18.7000 Z-12.0000
G01 X21.7000
G01 Z-9.5000
G01 X9.3000 Y55.1000
G01 Z-12.0000
G01 X7.3000
G01 X8.1000 Y59.9000
G01 X10.1000
G01 X9.5000 Y64.7000
G01 X11.7000
G01 X11.5000 Y69.5000
G01 X13.7000
G01 X14.3000 Y74.3000
G01 X16.9000
G01 X18.1000 Y79.1000
G01 X21.1000
G01 X23.3000 Y83.9000
G01 X26.7000
G01 X30.3000 Y88.7000
G01 X35.5000
G01 X35.7000 Z-9.8919
G01 X37.1000 Z-9.5000
G01 X63.3000
G01 X64.7000 Z-9.9000
G01 X64.9000 Z-12.0000
G01 X70.1000
G01 X73.9000 Y83.9000
G01 X77.1000
G01 X79.3000 Y79.1000
G01 X82.3000
G01 X83.5000 Y74.3000
G01 X86.1000
G01 X86.7000 Y69.5000
G01 X88.9000
G01 X88.7000 Y64.7000
G01 X90.9000
G01 X90.3000 Y59.9000
G01 X92.3000
G01 X93.1000 Y55.1000
G01 X91.1000
G01 X93.3000 Y50.3000
G01 X91.5000
G01 X90.9000 Z-9.5000
G01 X81.9000
G01 X81.7000 Z-12.0000
G01 X78.7000
G01 Z-9.5000
G01 X91.1000 Y45.5000
G01 Z-12.0000
G01 X93.1000
G01 X92.3000 Y40.7000
G01 X90.3000
G01 X91.1000 Y35.9000
G01 X88.9000
G01 X89.1000 Y31.1000
G01 X86.7000
G01 X86.3000 Y26.3000
G01 X83.7000
G01 X82.5000 Y21.5000
G01 X79.5000
G01 X77.5000 Y16.7000
G01 X74.1000
G01 X70.5000 Y11.9000
G01 X65.5000
G00 Z5.0000
G00 X52.3000 Y93.5000
G01 Z-12.0000
G01 X48.3000
G00 Z5.0000
G00 X46.3000 Y7.1000
G01 Z-14.0000
G01 X54.3000
G01 Z1.0000
G01 X65.5000 Y11.9000
G01 Z-14.0000
G01 X70.5000
G01 X74.1000 Y16.7000
G01 X77.5000
G01 X79.5000 Y21.5000
G01 X82.5000
G01 X83.7000 Y26.3000
G01 X86.3000
G01 X86.7000 Y31.1000
G01 X89.1000
G01 X88.9000 Y35.9000
G01 X91.1000
G01 X90.3000 Y40.7000
G01 X92.3000
G01 X93.1000 Y45.5000
G01 X91.1000
G01 X93.3000 Y50.3000
G01 X91.5000
G01 X90.9000 Z-9.5000
G01 X81.9000
G01 X81.7000 Z-14.0000
G01 X78.7000
G01 Z-9.5000
G01 X91.1000 Y55.1000
G01 Z-14.0000
G01 X93.1000
G01 X92.3000 Y59.9000
G01 X90.3000
G01 X90.9000 Y64.7000
G01 X88.7000
G01 X88.9000 Y69.5000
G01 X86.7000
G01 X86.1000 Y74.3000
G01 X83.5000
G01 X82.3000 Y79.1000
G01 X79.3000
G01 X77.1000 Y83.9000
G01 X73.9000
G01 X70.1000 Y88.7000
G01 X64.9000
G01 X64.7000 Z-9.9000
G01 X63.3000 Z-9.5000
G01 X37.1000
G01 X35.7000 Z-9.8919
G01 X35.5000 Z-14.0000
G01 X30.3000
G01 X26.7000 Y83.9000
G01 X23.3000
G01 X21.1000 Y79.1000
G01 X18.1000
G01 X16.9000 Y74.3000
G01 X14.3000
G01 X13.7000 Y69.5000
G01 X11.5000
G01 X11.7000 Y64.7000
G01 X9.5000
G01 X10.1000 Y59.9000
G01 X8.1000
G01 X7.3000 Y55.1000
G01 X9.3000
G01 X7.1000 Y50.3000
G01 X8.9000
G01 X9.5000 Z-9.5000
G01 X18.5000
G01 X18.7000 Z-14.0000
G01 X21.7000
G01 Z-9.5000
G01 X9.3000 Y45.5000
G01 Z-14.0000
G01 X7.3000
G01 X8.1000 Y40.7000
G01 X10.1000
G01 X9.3000 Y35.9000
G01 X11.5000
G01 X11.3000 Y31.1000
G01 X13.7000
G01 X14.1000 Y26.3000
G01 X16.7000
G01 X17.9000 Y21.5000
G01 X20.9000
G01 X22.9000 Y16.7000
G01 X26.3000
G01 X30.1000 Y11.9000
G01 X34.9000
G00 Z5.0000
G00 X48.3000 Y93.5000
G01 Z-14.0000
G01 X52.3000
G00 Z5.0000
G00 X54.3000 Y7.1000
G01 Z-16.0000
G01 X46.3000
G01 Z1.0000
G01 X34.9000 Y11.9000
G01 Z-16.0000
G01 X30.1000
G01 X26.3000 Y16.7000
G01 X22.9000
G01 X20.9000 Y21.5000
G01 X17.9000
G01 X16.7000 Y26.3000
G01 X14.1000
G01 X13.7000 Y31.1000
G01 X11.3000
G01 X11.5000 Y35.9000
G01 X9.3000
G01 X10.1000 Y40.7000
G01 X8.1000
G01 X7.3000 Y45.5000
G01 X9.3000
G01 X7.1000 Y50.3000
G01 X8.9000
G01 X9.5000 Z-9.5000
G01 X18.5000
G01 X18.7000 Z-14.5000
G01 X21.7000
G01 Z-9.5000
G01 X9.3000 Y55.1000
G01 Z-16.0000
G01 X7.3000
G01 X8.1000 Y59.9000
G01 X10.1000
G01 X9.5000 Y64.7000
G01 X11.7000
G01 X11.5000 Y69.5000
G01 X13.7000
G01 X14.3000 Y74.3000
G01 X16.9000
G01 X18.1000 Y79.1000
G01 X21.1000
G01 X23.3000 Y83.9000
G01 X26.7000
G01 X30.3000 Y88.7000
G01 X35.5000
G01 X35.7000 Z-9.8919
G01 X37.1000 Z-9.5000
G01 X63.3000
G01 X64.7000 Z-9.9000
G01 X64.9000 Z-16.0000
G01 X70.1000
G01 X73.9000 Y83.9000
G01 X77.1000
G01 X79.3000 Y79.1000
G01 X82.3000
G01 X83.5000 Y74.3000
G01 X86.1000
G01 X86.7000 Y69.5000
G01 X88.9000
G01 X88.7000 Y64.7000
G01 X90.9000
G01 X90.3000 Y59.9000
G01 X92.3000
G01 X93.1000 Y55.1000
G01 X91.1000
G01 X93.3000 Y50.3000
G01 X91.5000
G01 X90.9000 Z-9.5000
G01 X81.9000
G01 X81.7000 Z-14.5000
G01 X78.7000
G01 Z-9.5000
G01 X91.1000 Y45.5000
G01 Z-16.0000
G01 X93.1000
G01 X92.3000 Y40.7000
G01 X90.3000
G01 X91.1000 Y35.9000
G01 X88.9000
G01 X89.1000 Y31.1000
G01 X86.7000
G01 X86.3000 Y26.3000
G01 X83.7000
G01 X82.5000 Y21.5000
G01 X79.5000
G01 X77.5000 Y16.7000
G01 X74.1000
G01 X70.5000 Y11.9000
G01 X65.5000
G00 Z5.0000
G00 X52.3000 Y93.5000
G01 Z-16.0000
G01 X48.3000
G00 Z5.0000
G00 X46.3000 Y7.1000
G01 Z-18.0000
G01 X54.3000
G01 Z1.0000
G01 X65.5000 Y11.9000
G01 Z-18.0000
G01 X70.5000
G01 X74.1000 Y16.7000
G01 X77.5000
G01 X79.5000 Y21.5000
G01 X82.5000
G01 X83.7000 Y26.3000
G01 X86.3000
G01 X86.7000 Y31.1000
G01 X89.1000
G01 X88.9000 Y35.9000
G01 X91.1000
G01 X90.3000 Y40.7000
G01 X92.3000
G01 X93.1000 Y45.5000
G01 X91.1000
G01 X91.5000 Y50.3000
G01 X93.3000
G01 X93.1000 Y55.1000
G01 X91.1000
G01 X90.3000 Y59.9000
G01 X92.3000
G01 X90.9000 Y64.7000
G01 X88.7000
G01 X88.9000 Y69.5000
G01 X86.7000
G01 X86.1000 Y74.3000
G01 X83.5000
G01 X82.3000 Y79.1000
G01 X79.3000
G01 X77.1000 Y83.9000
G01 X73.9000
G01 X70.1000 Y88.7000
G01 X64.9000
G01 X64.7000 Z-9.9000
G01 X64.1000 Z-9.6998
G01 X37.1000 Z-9.5000
G01 X35.7000 Z-9.8919
G01 X35.5000 Z-18.0000
G01 X30.3000
G01 X26.7000 Y83.9000
G01 X23.3000
G01 X21.1000 Y79.1000
G01 X18.1000
G01 X16.9000 Y74.3000
G01 X14.3000
G01 X13.7000 Y69.5000
G01 X11.5000
G01 X11.7000 Y64.7000
G01 X9.5000
G01 X10.1000 Y59.9000
G01 X8.1000
G01 X7.3000 Y55.1000
G01 X9.3000
G01 X8.9000 Y50.3000
G01 X7.1000
G01 X7.3000 Y45.5000
G01 X9.3000
G01 X10.1000 Y40.7000
G01 X8.1000
G01 X9.3000 Y35.9000
G01 X11.5000
G01 X11.3000 Y31.1000
G01 X13.7000
G01 X14.1000 Y26.3000
G01 X16.7000
G01 X17.9000 Y21.5000
G01 X20.9000
G01 X22.9000 Y16.7000
G01 X26.3000
G01 X30.1000 Y11.9000
G01 X34.9000
G00 Z5.0000
G00 X48.3000 Y93.5000
G01 Z-18.0000
G01 X52.3000
G00 Z5.0000
G00 X54.3000 Y7.1000
G01 Z-19.5000
G01 X46.3000
G01 Z1.0000
G01 X34.9000 Y11.9000
G01 Z-19.5000
G01 X30.1000
G01 X26.3000 Y16.7000
G01 X22.9000
G01 X20.9000 Y21.5000
G01 X17.9000
G01 X16.7000 Y26.3000
G01 X14.1000
G01 X13.7000 Y31.1000
G01 X11.3000
G01 X11.5000 Y35.9000
G01 X9.3000
G01 X10.1000 Y40.7000
G01 X8.1000
G01 X7.3000 Y45.5000
G01 X9.3000
G01 X8.9000 Y50.3000
G01 X7.1000
G01 X7.3000 Y55.1000
G01 X9.3000
G01 X10.1000 Y59.9000
G01 X8.1000
G01 X9.5000 Y64.7000
G01 X11.7000
G01 X11.5000 Y69.5000
G01 X13.7000
G01 X14.3000 Y74.3000
G01 X16.9000
G01 X18.1000 Y79.1000
G01 X21.1000
G01 X23.3000 Y83.9000
G01 X26.7000
G01 X30.3000 Y88.7000
G01 X35.5000
G01 X35.7000 Z-9.8919
G01 X37.1000 Z-9.5000
G01 X64.1000 Z-9.6998
G01 X64.7000 Z-9.9000
G01 X64.9000 Z-19.5000
G01 X70.1000
G01 X73.9000 Y83.9000
G01 X77.1000
G01 X79.3000 Y79.1000
G01 X82.3000
G01 X83.5000 Y74.3000
G01 X86.1000
G01 X86.7000 Y69.5000
G01 X88.9000
G01 X88.7000 Y64.7000
G01 X90.9000
G01 X90.3000 Y59.9000
G01 X92.3000
G01 X93.1000 Y55.1000
G01 X91.1000
G01 X91.5000 Y50.3000
G01 X93.3000
G01 X93.1000 Y45.5000
G01 X91.1000
G01 X90.3000 Y40.7000
G01 X92.3000
G01 X91.1000 Y35.9000
G01 X88.9000
G01 X89.1000 Y31.1000
G01 X86.7000
G01 X86.3000 Y26.3000
G01 X83.7000
G01 X82.5000 Y21.5000
G01 X79.5000
G01 X77.5000 Y16.7000
G01 X74.1000
G01 X70.5000 Y11.9000
G01 X65.5000
G00 Z5.0000
G00 X52.3000 Y93.5000
G01 Z-19.5000
G01 X48.3000
G00 Z5.0000
G00 X12.7000 Y12.7000


(No. 2: )
G00 X43.9000 Y9.5000 Z5.0000
G01 Z-20.0000 F162
G01 X56.5000
G01 Z0.5000
G01 X60.5000 Y10.3000
G01 Z-20.0000
G01 X57.7000
G01 X57.5000 Z-10.4000
G01 X45.3000 Z-10.0000
G01 X42.9000 Z-10.4000
G01 X42.7000 Z-20.0000
G01 X39.9000
G01 Z0.5000
G01 X37.3000 Y11.1000
G01 Z-20.0000
G01 X39.1000
G01 X39.3000 Z-10.4000
G01 X41.1000 Z-10.0000
G01 X61.1000 Z-10.4000
G01 X61.3000 Z-20.0000
G01 X63.1000
G01 Z0.5000
G01 X65.5000 Y11.9000
G01 Z-20.0000
G01 X63.9000
G01 X63.7000 Z-10.4000
G01 X38.1000 Z-10.0000
G01 X36.9000 Z-10.4000
G01 X36.7000 Z-20.0000
G01 X34.9000
G01 Z0.5000
G01 X33.1000 Y12.7000
G01 Z-20.0000
G01 X34.5000
G01 X34.7000 Z-10.4000
G01 X35.7000 Z-10.0000
G01 X64.7000
G01 X65.7000 Z-10.4000
G01 X65.9000 Z-20.0000
G01 X67.3000
G01 Z0.0000
G01 X68.9000 Y13.5000
G01 Z-20.0000
G01 X67.7000
G01 X67.5000 Z-10.4000
G01 X66.5000 Z-10.0000
G01 X33.9000
G01 X32.9000 Z-10.4000
G01 X32.7000 Z-20.0000
G01 X31.5000
G01 Z0.0000
G01 X30.1000 Y14.3000
G01 Z-20.0000
G01 X31.1000
G01 X31.3000 Z-10.4000
G01 X32.3000 Z-10.0000
G01 X68.1000
G01 X69.1000 Z-10.3996
G01 X69.3000 Z-20.0000
G01 X70.3000
G01 Z0.0000
G01 X71.7000 Y15.1000
G01 Z-20.0000
G01 X70.7000
G01 X70.5000 Z-10.4000
G01 X69.7000 Z-10.0000
G01 X30.9000
G01 X29.9000 Z-10.4000
G01 X29.7000 Z-20.0000
G01 X28.7000
G01 Z0.0000
G01 X27.5000 Y15.9000
G01 Z-20.0000
G01 X28.3000
G01 X28.5000 Z-10.4000
G01 X29.5000 Z-10.0000
G01 X70.9000
G01 X71.9000 Z-10.4000
G01 X72.1000 Z-20.0000
G01 X73.1000
G01 X74.1000 Y16.7000
G01 X73.3000
G01 X73.1000 Z-10.4000
G01 X72.3000 Z-10.0000
G01 X28.1000
G01 X27.3000 Z-10.4000
G01 X27.1000 Z-20.0000
G01 X26.3000
G01 X25.3000 Y17.5000
G01 X26.1000
G01 X26.7000 Z-10.0000
G01 X73.7000
G01 X74.3000 Z-20.0000
G01 X75.1000
G01 X76.1000 Y18.3000
G01 X75.3000
G01 X74.7000 Z-10.0000
G01 X25.7000
G01 X25.1000 Z-20.0000
G01 X24.5000
G01 Z0.0000
G01 X23.3000 Y19.1000
G01 Z-20.0000
G01 X24.1000
G01 X24.3000 Z-10.4000
G01 X24.9000 Z-10.0000
G01 X75.5000
G01 X76.1000 Z-10.3741
G01 X76.3000 Z-20.0000
G01 X77.1000
G01 X77.9000 Y19.9000
G01 X77.3000
G01 X77.1000 Z-10.3996
G01 X76.5000 Z-10.0000
G01 X23.9000
G01 X23.3000 Z-10.3556
G01 X23.1000 Z-20.0000
G01 X22.5000
G01 X21.7000 Y20.7000
G01 X22.3000
G01 X22.5000 Z-10.3330
G01 X23.1000 Z-10.0000
G01 X77.3000
G01 X77.9000 Z-10.4000
G01 X78.1000 Z-20.0000
G01 X78.7000
G01 X79.5000 Y21.5000
G01 X78.9000
G01 X78.3000 Z-10.0000
G01 X22.1000
G01 X21.5000 Z-20.0000
G01 X20.9000
G01 X20.1000 Y22.3000
G01 X20.7000
G01 X21.3000 Z-10.0000
G01 X34.1000
G01 X34.3000 Z-15.0000
G01 X36.1000
G01 X36.3000 Z-10.0000
G01 X64.1000
G01 X64.3000 Z-15.0000
G01 X66.1000
G01 X66.3000 Z-10.0000
G01 X79.1000
G01 X79.7000 Z-20.0000
G01 X80.3000
G01 X81.1000 Y23.1000
G01 X80.5000
G01 X80.3000 Z-10.3996
G01 X79.7000 Z-10.0000
G01 X67.1000
G01 X66.9000 Z-15.0000
G01 X63.5000
G01 X63.3000 Z-10.0000
G01 X37.1000
G01 X36.9000 Z-15.0000
G01 X33.5000
G01 X33.3000 Z-10.0000
G01 X20.7000
G01 X20.1000 Z-10.3501
G01 X19.9000 Z-20.0000
G01 X19.3000
G01 X18.7000 Y23.9000
G01 X19.3000
G01 X19.9000 Z-10.0000
G01 X33.1000
G01 X33.3000 Z-15.0000
G01 X37.1000
G01 X37.3000 Z-10.0000
G01 X63.1000
G01 X63.3000 Z-15.0000
G01 X67.1000
G01 X67.3000 Z-10.0000
G01 X80.5000
G01 X81.1000 Z-20.0000
G01 X81.7000
G01 X82.3000 Y24.7000
G01 X81.7000
G01 X81.1000 Z-10.0000
G01 X67.3000
G01 X67.1000 Z-15.0000
G01 X63.3000
G01 X63.1000 Z-10.0000
G01 X37.3000
G01 X37.1000 Z-15.0000
G01 X33.3000
G01 X33.1000 Z-10.0000
G01 X19.3000
G01 X18.7000 Z-20.0000
G01 X18.1000
G01 X17.5000 Y25.5000
G01 X18.1000
G01 X18.5000 Z-10.0000
G01 X33.3000
G01 X33.5000 Z-15.0000
G01 X36.9000
G01 X37.1000 Z-10.0000
G01 X63.3000
G01 X63.5000 Z-15.0000
G01 X66.9000
G01 X67.1000 Z-10.0000
G01 X81.9000
G01 X82.9000 Z-20.0000
G01 X83.7000 Y26.3000
G01 X83.1000
G01 X82.5000 Z-10.0000
G01 X17.9000
G01 X17.3000 Z-20.0000
G01 X16.7000
G01 Z0.0000
G01 X16.1000 Y27.1000
G01 Z-20.0000
G01 X16.7000
G01 X17.3000 Z-10.0000
G01 X83.1000
G01 X83.7000 Z-20.0000
G01 X84.3000
G01 X84.7000 Y27.9000
G01 X84.1000 Z-10.3996
G01 X83.5000 Z-10.0000
G01 X16.9000
G01 X16.3000 Z-10.4000
G01 X15.7000 Z-20.0000
G01 X15.1000 Y28.7000
G01 X15.7000
G01 X15.9000 Z-10.4000
G01 X16.5000 Z-10.0000
G01 X84.1000 Z-10.0261
G01 X84.7000 Z-20.0000
G01 X85.3000
G01 X85.7000 Y29.5000
G01 X85.1000
G01 X84.5000 Z-10.0000
G01 X15.9000
G01 X15.3000 Z-20.0000
G01 X14.7000
G01 X14.3000 Y30.3000
G01 X14.9000 Z-10.4000
G01 X15.5000 Z-10.0000
G01 X84.9000
G01 X85.5000 Z-10.4000
G01 X86.1000 Z-20.0000
G01 X86.7000 Y31.1000
G01 X86.1000
G01 X85.5000 Z-10.0000
G01 X14.9000
G01 X14.3000 Z-20.0000
G01 X13.7000
G01 X13.3000 Y31.9000
G01 X13.9000
G01 X14.5000 Z-10.0000
G01 X85.9000
G01 X86.5000 Z-20.0000
G01 X87.1000
G01 X87.5000 Y32.7000
G01 X86.9000
G01 X86.3000 Z-10.0000
G01 X14.1000
G01 X13.5000 Z-20.0000
G01 X12.9000
G01 X12.7000 Y33.5000
G01 X13.3000 Z-10.4000
G01 X13.9000 Z-10.0000
G01 X86.5000
G01 X87.1000 Z-10.3996
G01 X87.7000 Z-20.0000
G01 X88.1000 Y34.3000
G01 X87.5000 Z-10.4000
G01 X86.9000 Z-10.0000
G01 X13.5000
G01 X12.9000 Z-10.4000
G01 X12.3000 Z-20.0000
G01 X11.9000 Y35.1000
G01 X12.5000
G01 X13.1000 Z-10.0000
G01 X46.3000
G01 X46.5000 Z-0.4000
G01 X48.7000 Z0.0000
G01 X54.1000 Z-0.4000
G01 X54.3000 Z-10.0000
G01 X87.3000
G01 X87.9000 Z-20.0000
G01 X88.5000
G01 X88.9000 Y35.9000
G01 X88.3000
G01 X87.7000 Z-10.0000
G01 X56.5000
G01 X56.3000 Z-0.3715
G01 X45.3000 Z0.0000
G01 X44.1000 Z-0.4000
G01 X43.9000 Z-10.0000
G01 X12.7000
G01 X12.1000 Z-20.0000
G01 X11.5000
G01 X11.3000 Y36.7000
G01 X11.9000
G01 X12.3000 Z-10.1142
G01 X42.3000 Z-10.0000
G01 X42.5000 Z-0.4000
G01 X43.5000 Z0.0000
G01 X57.9000 Z-0.3715
G01 X58.1000 Z-10.0000
G01 X87.9000
G01 X88.5000 Z-20.0000
G01 X89.1000
G01 X89.3000 Y37.5000
G01 X88.7000
G01 X88.3000 Z-10.0666
G01 X59.3000 Z-10.0000
G01 X59.1000 Z-0.3996
G01 X42.1000 Z0.0000
G01 X41.3000 Z-0.4000
G01 X41.1000 Z-10.0000
G01 X12.1000 Z-10.0599
G01 X11.7000 Z-20.0000
G01 X11.1000
G01 X10.9000 Y38.3000
G01 X11.9000 Z-10.0000
G01 X40.1000
G01 X40.7000 Z0.0000
G01 X59.7000
G01 X60.3000 Z-10.0000
G01 X88.5000
G01 X89.5000 Z-20.0000
G01 X89.9000 Y39.1000
G01 X89.3000
G01 X88.7000 Z-10.0000
G01 X61.3000
G01 X61.1000 Z-0.3996
G01 X60.5000 Z0.0000
G01 X40.1000
G01 X39.3000 Z-0.4000
G01 X39.1000 Z-10.0000
G01 X11.7000
G01 X11.1000 Z-20.0000
G01 X10.5000
G01 X10.3000 Y39.9000
G01 X10.9000
G01 X11.5000 Z-10.0000
G01 X38.5000
G01 X39.1000 Z0.0000
G01 X61.3000
G01 X61.9000 Z-10.0000
G01 X88.9000
G01 X89.5000 Z-20.0000
G01 X90.1000
G01 X90.3000 Y40.7000
G01 X89.7000
G01 X89.1000 Z-10.0000
G01 X62.7000
G01 X62.1000 Z0.0000
G01 X38.3000
G01 X37.9000 Z-10.0000
G01 X11.3000
G01 X10.7000 Z-20.0000
G01 X10.1000
G01 Y41.5000
G01 X11.1000 Z-10.0000
G01 X37.1000
G01 X37.3000 Z-0.4000
G01 X37.9000 Z0.0000
G01 X62.5000
G01 X63.1000 Z-0.3996
G01 X63.3000 Z-10.0000
G01 X89.3000
G01 X90.3000 Z-20.0000
G01 X90.5000 Y42.3000
G01 X89.5000 Z-10.0000
G01 X63.7000
G01 X63.1000 Z0.0000
G01 X37.3000
G01 X36.7000 Z-10.0000
G01 X10.9000 Z-10.0400
G01 X10.5000 Z-20.0000
G01 X9.9000
G01 X9.7000 Y43.1000
G01 X10.3000
G01 X10.7000 Z-10.0444
G01 X36.3000 Z-10.0000
G01 X36.9000 Z0.0000
G01 X63.5000
G01 X64.1000 Z-10.0000
G01 X89.7000 Z-10.0444
G01 X90.1000 Z-20.0000
G01 X90.7000
G01 X90.9000 Y43.9000
G01 X90.3000
G01 X89.7000 Z-10.0000
G01 X64.5000
G01 X63.9000 Z0.0000
G01 X36.5000
G01 X35.9000 Z-10.0000
G01 X10.7000
G01 X10.1000 Z-20.0000
G01 X9.5000
G01 Y44.7000
G01 X10.5000 Z-10.0000
G01 X35.5000
G01 X35.7000 Z-0.4000
G01 X36.3000 Z0.0000
G01 X64.3000 Z-0.0571
G01 X64.9000 Z-10.0000
G01 X89.9000
G01 X90.9000 Z-20.0000
G01 X91.1000 Y45.5000
G01 X90.5000
G01 X89.9000 Z-10.0000
G01 X65.1000
G01 X64.5000 Z0.0000
G01 X35.9000
G01 X35.3000 Z-10.0000
G01 X10.5000
G01 X9.9000 Z-20.0000
G01 X9.3000
G01 Y46.3000
G01 X10.3000 Z-10.0000
G01 X35.1000
G01 X35.7000 Z0.0000
G01 X64.7000
G01 X65.3000 Z-10.0000
G01 X90.1000
G01 X91.1000 Z-20.0000
G01 Y47.1000
G01 X90.1000 Z-10.0000
G01 X65.5000
G01 X64.9000 Z0.0000
G01 X35.5000
G01 X34.9000 Z-10.0000
G01 X10.3000
G01 X9.3000 Z-20.0000
G01 X9.1000 Y47.9000
G01 X9.7000
G01 X10.1000 Z-10.0400
G01 X34.7000 Z-10.0000
G01 X35.3000 Z0.0000
G01 X48.3000
G01 X49.5000 Z-0.5345
G01 X52.1000 Z0.0000
G01 X65.1000
G01 X65.7000 Z-10.0000
G01 X90.3000 Z-10.0400
G01 X90.7000 Z-20.0000
G01 X91.3000
G01 Y48.7000
G01 X90.3000 Z-10.0000
G01 X81.9000
G01 X81.7000 Z-15.0000
G01 X78.7000
G01 X78.5000 Z-10.0000
G01 X65.7000
G01 X65.3000 Z-0.0666
G01 X52.9000 Z0.0000
G01 X50.9000 Z-1.3121
G01 X49.5000
G01 X47.5000 Z0.0000
G01 X35.3000
G01 X34.7000 Z-10.0000
G01 X21.9000
G01 X21.7000 Z-15.0000
G01 X18.7000
G01 X18.5000 Z-10.0000
G01 X10.1000
G01 X9.1000 Z-20.0000
G01 Y49.5000
G01 X10.1000 Z-10.0000
G01 X18.1000
G01 X18.3000 Z-15.0000
G01 X22.1000
G01 X22.3000 Z-10.0000
G01 X34.5000
G01 X35.1000 Z0.0000
G01 X47.3000
G01 X48.9000 Z-1.4582
G01 X49.3000 Z-20.0000
G01 X51.1000
G01 X51.3000 Z-1.7500
G01 X53.1000 Z0.0000
G01 X65.3000
G01 X65.9000 Z-10.0000
G01 X78.1000
G01 X78.3000 Z-15.0000
G01 X82.1000
G01 X82.3000 Z-10.0000
G01 X90.3000
G01 X91.3000 Z-20.0000
G01 Y50.3000
G01 X90.3000 Z-10.0000
G01 X82.5000
G01 X82.3000 Z-15.0000
G01 X78.1000
G01 X77.9000 Z-10.0000
G01 X65.9000
G01 X65.3000 Z0.0000
G01 X53.3000
G01 X51.5000 Z-1.7500
G01 X51.3000 Z-20.0000
G01 X50.7000
G01 Z0.0000
G01 X49.7000
G01 Z-20.0000
G01 X49.1000
G01 X48.9000 Z-1.7496
G01 X47.3000 Z0.0000
G01 X35.1000
G01 X34.5000 Z-10.0000
G01 X22.5000
G01 X22.3000 Z-15.0000
G01 X18.1000
G01 X17.9000 Z-10.0000
G01 X10.1000
G01 X9.1000 Z-20.0000
G01 Y51.1000
G01 X10.1000 Z-10.0000
G01 X18.1000
G01 X18.3000 Z-15.0000
G01 X22.1000
G01 X22.3000 Z-10.0000
G01 X34.5000
G01 X35.1000 Z0.0000
G01 X47.3000
G01 X49.3000 Z-1.7496
G01 X49.5000 Z-20.0000
G01 X50.9000
G01 X51.1000 Z-1.7496
G01 X53.1000 Z0.0000
G01 X65.3000
G01 X65.9000 Z-10.0000
G01 X78.1000
G01 X78.3000 Z-15.0000
G01 X82.1000
G01 X82.3000 Z-10.0000
G01 X90.3000
G01 X91.3000 Z-20.0000
G01 Y51.9000
G01 X90.3000 Z-10.0000
G01 X81.7000
G01 X81.5000 Z-15.0000
G01 X78.9000
G01 X78.7000 Z-10.0000
G01 X65.7000
G01 X65.1000 Z0.0000
G01 X52.7000
G01 X51.3000 Z-0.9845
G01 X49.3000 Z-1.0389
G01 X47.7000 Z0.0000
G01 X35.3000
G01 X34.7000 Z-10.0000
G01 X21.7000
G01 X21.5000 Z-15.0000
G01 X19.1000
G01 X18.9000 Z-10.0000
G01 X10.1000
G01 X9.1000 Z-20.0000
G01 Y52.7000
G01 X9.7000
G01 X10.1000 Z-10.0599
G01 X34.7000 Z-10.0000
G01 X35.3000 Z0.0000
G01 X48.7000
G01 X49.5000 Z-0.4371
G01 X65.1000 Z0.0000
G01 X65.7000 Z-10.0000
G01 X90.3000 Z-10.0599
G01 X90.7000 Z-20.0000
G01 X91.3000
G01 X91.1000 Y53.5000
G01 X90.1000 Z-10.0000
G01 X65.5000
G01 X64.9000 Z0.0000
G01 X35.5000
G01 X34.9000 Z-10.0000
G01 X10.3000
G01 X9.3000 Z-20.0000
G01 Y54.3000
G01 X9.9000
G01 X10.3000 Z-10.0200
G01 X35.1000 Z-10.0000
G01 X35.7000 Z0.0000
G01 X64.7000
G01 X65.3000 Z-10.0000
G01 X90.1000 Z-10.0200
G01 X90.5000 Z-20.0000
G01 X91.1000
G01 X90.9000 Y55.1000
G01 X89.9000 Z-10.0000
G01 X65.1000
G01 X64.5000 Z-0.0571
G01 X36.1000 Z0.0000
G01 X35.5000 Z-0.4000
G01 X35.3000 Z-10.0000
G01 X10.5000
G01 X9.5000 Z-20.0000
G01 Y55.9000
G01 X10.5000 Z-10.0000
G01 X35.7000
G01 X36.3000 Z0.0000
G01 X64.1000
G01 X64.7000 Z-10.0000
G01 X89.9000
G01 X90.9000 Z-20.0000
G01 Y56.7000
G01 X90.3000
G01 X89.7000 Z-10.0000
G01 X64.5000
G01 X64.3000 Z-0.3996
G01 X63.7000 Z0.0000
G01 X36.7000
G01 X36.1000 Z-0.4000
G01 X35.9000 Z-10.0000
G01 X10.7000
G01 X10.1000 Z-20.0000
G01 X9.5000
G01 X9.7000 Y57.5000
G01 X10.3000
G01 X10.9000 Z-10.0000
G01 X36.3000
G01 X36.5000 Z-0.4000
G01 X37.1000 Z0.0000
G01 X63.3000
G01 X63.9000 Z-0.3996
G01 X64.1000 Z-10.0000
G01 X89.5000
G01 X90.1000 Z-20.0000
G01 X90.7000
G01 X90.5000 Y58.3000
G01 X89.9000
G01 X89.5000 Z-10.0444
G01 X63.7000 Z-10.0000
G01 X63.5000 Z-0.3996
G01 X62.9000 Z0.0000
G01 X37.5000
G01 X36.9000 Z-0.4000
G01 X36.7000 Z-10.0000
G01 X11.1000
G01 X10.5000 Z-20.0000
G01 X9.9000
G01 X10.1000 Y59.1000
G01 X10.7000
G01 X11.1000 Z-10.0400
G01 X37.3000 Z-10.0000
G01 X37.5000 Z-0.3996
G01 X38.1000 Z0.0000
G01 X62.5000 Z-0.0799
G01 X63.1000 Z-10.0000
G01 X89.3000 Z-10.0400
G01 X89.7000 Z-20.0000
G01 X90.3000
G01 X90.1000 Y59.9000
G01 X89.1000 Z-10.0000
G01 X62.5000
G01 X61.9000 Z0.0000
G01 X38.5000
G01 X37.9000 Z-10.0000
G01 X11.3000
G01 X10.3000 Z-20.0000
G01 Y60.7000
G01 X10.9000
G01 X11.5000 Z-10.0000
G01 X38.7000
G01 X38.9000 Z-0.2997
G01 X39.5000 Z0.0000
G01 X61.1000 Z-0.0285
G01 X61.7000 Z-0.4000
G01 X61.9000 Z-10.0000
G01 X88.9000
G01 X89.5000 Z-20.0000
G01 X90.1000
G01 Z0.0000
G01 X89.7000 Y61.5000
G01 Z-20.0000
G01 X88.7000 Z-10.0000
G01 X61.1000
G01 X60.9000 Z-0.3996
G01 X60.3000 Z0.0000
G01 X40.1000
G01 X39.5000 Z-0.3996
G01 X39.3000 Z-10.0000
G01 X11.7000
G01 X10.7000 Z-20.0000
G01 X10.9000 Y62.3000
G01 X11.5000
G01 X11.9000 Z-10.0666
G01 X40.3000 Z-10.0000
G01 X40.5000 Z-0.3996
G01 X41.1000 Z0.0000
G01 X59.3000
G01 X59.9000 Z-0.3996
G01 X60.1000 Z-10.0000
G01 X88.5000 Z-10.0666
G01 X88.9000 Z-20.0000
G01 X89.5000
G01 X89.3000 Y63.1000
G01 X88.7000
G01 X88.1000 Z-10.0000
G01 X59.1000
G01 X58.9000 Z-0.3996
G01 X42.3000 Z0.0000
G01 X41.5000 Z-0.3996
G01 X41.3000 Z-10.0000
G01 X12.3000
G01 X11.7000 Z-20.0000
G01 X11.1000
G01 Z0.0000
G01 X11.3000 Y63.9000
G01 Z-20.0000
G01 X11.9000
G01 X12.5000 Z-10.0000
G01 X42.7000
G01 X42.9000 Z-0.3996
G01 X43.9000 Z0.0000
G01 X57.5000 Z-0.3715
G01 X57.7000 Z-10.0000
G01 X87.9000
G01 X88.5000 Z-20.0000
G01 X89.1000
G01 Z0.0000
G01 X88.7000 Y64.7000
G01 Z-20.0000
G01 X87.7000 Z-10.0727
G01 X56.1000 Z-10.0000
G01 X55.9000 Z-0.3715
G01 X45.9000 Z0.0000
G01 X44.5000 Z-0.4000
G01 X44.3000 Z-10.0000
G01 X12.7000 Z-10.0727
G01 X11.7000 Z-20.0000
G01 X12.1000 Y65.5000
G01 X13.1000 Z-10.0727
G01 X47.3000 Z-10.0000
G01 X47.5000 Z-0.4000
G01 X49.7000 Z-0.1332
G01 X53.1000 Z-0.4000
G01 X53.3000 Z-10.0000
G01 X87.3000
G01 X87.9000 Z-20.0000
G01 X88.5000
G01 Z0.0000
G01 X88.1000 Y66.3000
G01 Z-20.0000
G01 X87.5000
G01 X86.9000 Z-10.0000
G01 X13.5000
G01 X12.9000 Z-20.0000
G01 X12.3000
G01 Z0.0000
G01 X12.7000 Y67.1000
G01 Z-20.0000
G01 X13.3000
G01 X13.9000 Z-10.0000
G01 X86.5000
G01 X87.1000 Z-20.0000
G01 X87.7000
G01 X87.3000 Y67.9000
G01 X86.7000 Z-10.4000
G01 X86.1000 Z-10.0000
G01 X14.3000
G01 X13.7000 Z-10.4000
G01 X13.1000 Z-20.0000
G01 X13.5000 Y68.7000
G01 X14.1000 Z-10.3996
G01 X14.7000 Z-10.0000
G01 X85.7000
G01 X86.3000 Z-10.3996
G01 X86.9000 Z-20.0000
G01 X86.5000 Y69.5000
G01 X85.9000 Z-10.4000
G01 X85.3000 Z-10.0000
G01 X15.1000
G01 X14.5000 Z-10.4000
G01 X13.9000 Z-20.0000
G01 X14.3000 Y70.3000
G01 X14.9000
G01 X15.1000 Z-10.3615
G01 X15.7000 Z-10.0000
G01 X84.7000
G01 X85.3000 Z-10.3996
G01 X85.5000 Z-20.0000
G01 X86.1000
G01 Z0.0000
G01 X85.5000 Y71.1000
G01 Z-20.0000
G01 X84.9000 Z-10.4000
G01 X84.3000 Z-10.0000
G01 X16.1000
G01 X15.5000 Z-10.4000
G01 X14.9000 Z-20.0000
G01 X15.3000 Y71.9000
G01 X15.9000
G01 X16.5000 Z-10.0000
G01 X83.9000
G01 X84.5000 Z-20.0000
G01 X85.1000
G01 Z0.0000
G01 X84.7000 Y72.7000
G01 Z-20.0000
G01 X84.1000
G01 X83.5000 Z-10.0000
G01 X16.9000
G01 X16.3000 Z-20.0000
G01 X15.7000
G01 Z0.0000
G01 X16.3000 Y73.5000
G01 Z-20.0000
G01 X16.9000
G01 X17.5000 Z-10.0000
G01 X82.9000
G01 X83.5000 Z-20.0000
G01 X84.1000
G01 Z0.0000
G01 X83.5000 Y74.3000
G01 Z-20.0000
G01 X82.9000
G01 X82.3000 Z-10.0000
G01 X66.3000
G01 X66.1000 Z-15.0000
G01 X64.3000
G01 X64.1000 Z-10.0000
G01 X36.3000
G01 X36.1000 Z-15.0000
G01 X34.3000
G01 X34.1000 Z-10.0000
G01 X18.1000
G01 X17.5000 Z-20.0000
G01 X16.9000
G01 X17.7000 Y75.1000
G01 X18.7000 Z-10.0000
G01 X33.3000
G01 X33.5000 Z-15.0000
G01 X36.9000
G01 X37.1000 Z-10.0000
G01 X63.3000
G01 X63.5000 Z-15.0000
G01 X66.9000
G01 X67.1000 Z-10.0000
G01 X81.7000
G01 X82.3000 Z-20.0000
G01 X82.9000
G01 X82.1000 Y75.9000
G01 X81.5000
G01 X80.9000 Z-10.0000
G01 X67.3000
G01 X67.1000 Z-15.0000
G01 X63.3000
G01 X63.1000 Z-10.0000
G01 X37.3000
G01 X37.1000 Z-15.0000
G01 X33.3000
G01 X33.1000 Z-10.0000
G01 X19.5000
G01 X18.9000 Z-20.0000
G01 X18.3000
G01 Z0.0000
G01 X18.9000 Y76.7000
G01 Z-20.0000
G01 X19.5000
G01 X20.1000 Z-10.0000
G01 X33.1000
G01 X33.3000 Z-15.0000
G01 X37.1000
G01 X37.3000 Z-10.0000
G01 X63.1000
G01 X63.3000 Z-15.0000
G01 X67.1000
G01 X67.3000 Z-10.0000
G01 X80.3000
G01 X80.9000 Z-20.0000
G01 X81.5000
G01 Z0.0000
G01 X80.9000 Y77.5000
G01 Z-20.0000
G01 X80.3000
G01 X80.1000 Z-10.2997
G01 X79.5000 Z-10.0000
G01 X67.1000
G01 X66.9000 Z-15.0000
G01 X63.5000
G01 X63.3000 Z-10.0000
G01 X37.1000
G01 X36.9000 Z-15.0000
G01 X33.5000
G01 X33.3000 Z-10.0000
G01 X20.9000
G01 X20.3000 Z-10.3501
G01 X20.1000 Z-20.0000
G01 X19.5000
G01 X20.3000 Y78.3000
G01 X20.9000
G01 X21.5000 Z-10.0000
G01 X78.9000
G01 X79.5000 Z-20.0000
G01 X80.1000
G01 X79.3000 Y79.1000
G01 X78.7000
G01 X78.1000 Z-10.0000
G01 X22.3000
G01 X21.7000 Z-20.0000
G01 X21.1000
G01 X21.9000 Y79.9000
G01 X22.5000
G01 X22.7000 Z-10.3330
G01 X23.3000 Z-10.0000
G01 X77.1000
G01 X77.7000 Z-10.3996
G01 X77.9000 Z-20.0000
G01 X78.5000
G01 X77.7000 Y80.7000
G01 X77.1000
G01 X76.9000 Z-10.3552
G01 X76.3000 Z-10.0000
G01 X24.1000
G01 X23.5000 Z-10.4000
G01 X23.3000 Z-20.0000
G01 X22.7000
G01 X23.7000 Y81.5000
G01 X24.5000
G01 X25.1000 Z-10.0000
G01 X75.3000
G01 X75.9000 Z-10.4000
G01 X76.1000 Z-20.0000
G01 X76.9000
G01 Z0.0000
G01 X75.7000 Y82.3000
G01 Z-20.0000
G01 X75.1000
G01 X74.9000 Z-10.4000
G01 X74.3000 Z-10.0000
G01 X26.1000
G01 X25.5000 Z-10.4000
G01 X25.3000 Z-20.0000
G01 X24.7000
G01 X25.7000 Y83.1000
G01 X26.3000
G01 X26.5000 Z-10.4000
G01 X27.1000 Z-10.0000
G01 X73.3000
G01 X73.9000 Z-10.4000
G01 X74.1000 Z-20.0000
G01 X74.7000
G01 X73.9000 Y83.9000
G01 X73.1000
G01 X72.9000 Z-10.4000
G01 X72.1000 Z-10.0000
G01 X28.3000
G01 X27.7000 Z-10.4000
G01 X27.5000 Z-20.0000
G01 X26.7000
G01 X27.7000 Y84.7000
G01 X28.7000
G01 X28.9000 Z-10.4000
G01 X29.9000 Z-10.0000
G01 X70.7000 Z-10.0400
G01 X71.5000 Z-10.4000
G01 X71.7000 Z-20.0000
G01 X72.7000
G01 X71.3000 Y85.5000
G01 X70.3000
G01 X70.1000 Z-10.4000
G01 X69.3000 Z-10.0000
G01 X31.1000
G01 X30.3000 Z-10.4000
G01 X30.1000 Z-20.0000
G01 X29.1000
G01 Z0.0000
G01 X30.5000 Y86.3000
G01 Z-20.0000
G01 X31.5000
G01 X31.7000 Z-10.3769
G01 X32.7000 Z-10.0000
G01 X68.1000 Z-10.1003
G01 X68.7000 Z-10.3773
G01 X68.9000 Z-20.0000
G01 X70.1000
G01 Z0.0000
G01 X68.5000 Y87.1000
G01 Z-20.0000
G01 X67.3000
G01 X67.1000 Z-10.4000
G01 X66.3000 Z-10.1003
G01 X34.5000 Z-10.0000
G01 X33.3000 Z-10.4000
G01 X33.1000 Z-20.0000
G01 X31.9000
G01 Z0.0000
G01 X33.5000 Y87.9000
G01 Z-20.0000
G01 X34.9000
G01 X35.1000 Z-10.4000
G01 X36.3000 Z-10.0000
G01 X65.1000 Z-10.3001
G01 X65.5000 Z-20.0000
G01 X66.9000
G01 Z0.5000
G01 X65.1000 Y88.7000
G01 Z-20.0000
G01 X63.1000
G01 X62.9000 Z-10.4000
G01 X38.7000 Z-10.0000
G01 X37.5000 Z-10.4000
G01 X37.3000 Z-20.0000
G01 X35.3000
G01 Z0.5000
G01 X37.9000 Y89.5000
G01 Z-20.0000
G01 X39.9000
G01 X40.1000 Z-10.4000
G01 X42.1000 Z-10.0000
G01 X60.3000 Z-10.4000
G01 X60.5000 Z-20.0000
G01 X62.5000
G01 Z0.5000
G01 X59.5000 Y90.3000
G01 Z-20.0000
G01 X56.7000
G01 X56.5000 Z-10.4000
G01 X47.3000 Z-10.0000
G01 X43.9000 Z-10.4000
G01 X43.7000 Z-20.0000
G01 X40.9000
G01 Z0.5000
G01 X45.5000 Y91.1000
G01 Z-20.0000
G01 X55.1000
G00 Z5.0000
G00 X12.7000 Y12.7000
G00 X0.0000 Y0.0000

M05
M30
