(Project Base Meshed)
(Created by Estlcam version 11 build 11,244)
(Machining time about 00:16:54 hours)

(Required tools:)
(End mill 8mm)
(End mill 3mm)
G21
G90
G94
M03 S20000
G00 Z5.0000


(No. 1: )
G00 X57.8000 Y20.7000
G01 Z0.5000 F1800 S20000
G01 Z-4.0000 F900
G01 X67.2000 Y12.7000 F1800
G01 X75.0000 Y8.7000
G01 X79.4000 Y7.3000
G01 X89.6000 Y5.7000
G01 X97.8000 Y6.1000
G01 X103.6000 Y7.3000
G01 X108.0000 Y8.7000
G01 X115.8000 Y12.7000
G01 X121.6000 Y17.1000
G01 X125.2000 Y20.7000
G01 X132.4000 Y31.3000
G01 X135.4000 Y39.5000
G01 X136.4000 Y44.5000
G01 X136.8000 Y48.5000
G01 X136.4000 Y57.5000
G01 X133.2000 Y68.9000
G01 X130.0000 Y74.9000
G01 X125.2000 Y81.3000
G01 X117.0000 Y88.5000
G01 X108.0000 Y93.3000
G01 X99.2000 Y95.7000
G01 X93.6000 Y96.3000
G01 X83.8000 Y95.7000
G01 X75.0000 Y93.3000
G01 X66.6000 Y88.9000
G01 X57.8000 Y81.3000
G01 X51.2000 Y71.9000
G01 X47.6000 Y62.5000
G01 X46.2000 Y53.5000
G01 Y48.5000
G01 X47.2000 Y41.5000
G01 X49.0000 Y35.1000
G01 X51.2000 Y30.1000
G01 X57.8000 Y20.7000
G01 X61.2000 Y22.5000
G01 X69.2000 Y15.9000
G01 X77.4000 Y11.9000
G01 X84.2000 Y10.1000
G01 X89.6000 Y9.5000
G01 X100.8000 Y10.5000
G01 X106.8000 Y12.3000
G01 X111.4000 Y14.5000
G01 X116.6000 Y17.9000
G01 X121.8000 Y22.5000
G01 X128.8000 Y32.7000
G01 X132.4000 Y44.1000
G01 X133.0000 Y49.3000
G01 X132.6000 Y56.7000
G01 X129.6000 Y67.5000
G01 X126.6000 Y73.1000
G01 X121.8000 Y79.5000
G01 X115.0000 Y85.3000
G01 X106.8000 Y89.7000
G01 X100.8000 Y91.5000
G01 X93.6000 Y92.5000
G01 X85.4000 Y92.1000
G01 X76.2000 Y89.7000
G01 X68.6000 Y85.7000
G01 X61.2000 Y79.5000
G01 X56.4000 Y73.1000
G01 X52.4000 Y64.9000
G01 X50.4000 Y56.7000
G01 X50.0000 Y49.9000
G01 X50.4000 Y45.3000
G01 X51.4000 Y40.3000
G01 X54.4000 Y32.3000
G01 X61.2000 Y22.5000
G01 X65.0000 Y23.9000
G01 X74.0000 Y17.5000
G01 X81.8000 Y14.5000
G01 X89.6000 Y13.3000
G01 X95.8000 Y13.5000
G01 X101.2000 Y14.5000
G01 X109.4000 Y17.7000
G01 X118.4000 Y24.3000
G01 X125.0000 Y33.7000
G01 X128.4000 Y43.9000
G01 X129.2000 Y51.9000
G01 X128.6000 Y57.1000
G01 X126.8000 Y64.1000
G01 X125.0000 Y68.3000
G01 X120.8000 Y74.7000
G01 X117.6000 Y78.5000
G01 X113.0000 Y82.1000
G01 X105.6000 Y86.1000
G01 X99.6000 Y87.9000
G01 X93.6000 Y88.7000
G01 X85.4000 Y88.3000
G01 X77.4000 Y86.1000
G01 X71.2000 Y82.9000
G01 X64.6000 Y77.7000
G01 X58.0000 Y68.3000
G01 X55.2000 Y60.9000
G01 X53.8000 Y51.7000
G01 X55.2000 Y41.1000
G01 X58.0000 Y33.7000
G01 X65.0000 Y23.9000
G01 X67.4000 Y26.9000
G01 X73.2000 Y22.3000
G01 X79.8000 Y19.1000
G01 X84.6000 Y17.7000
G01 X89.6000 Y17.1000
G01 X98.4000 Y17.7000
G01 X107.4000 Y20.9000
G01 X115.6000 Y26.9000
G01 X121.6000 Y35.5000
G01 X124.8000 Y45.7000
G01 X125.0000 Y55.1000
G01 X122.8000 Y63.7000
G01 X117.4000 Y72.9000
G01 X114.8000 Y75.9000
G01 X111.0000 Y78.9000
G01 X104.4000 Y82.5000
G01 X98.4000 Y84.3000
G01 X93.6000 Y84.9000
G01 X85.6000 Y84.5000
G01 X78.6000 Y82.5000
G01 X73.2000 Y79.7000
G01 X67.4000 Y75.1000
G01 X61.4000 Y66.5000
G01 X59.0000 Y60.1000
G01 X57.8000 Y53.1000
G01 X58.4000 Y44.9000
G01 X61.0000 Y36.5000
G01 X67.4000 Y26.9000
G01 X74.4000 Y28.3000
G01 X66.4000 Y36.9000
G01 X63.2000 Y45.3000
G01 Y56.7000
G01 X64.8000 Y61.9000
G01 X66.8000 Y65.7000
G01 X76.4000 Y75.3000
G01 X82.8000 Y78.3000
G01 X89.2000 Y79.5000
G01 X98.8000 Y78.7000
G01 X106.6000 Y75.3000
G01 X116.4000 Y65.5000
G01 X118.2000 Y61.9000
G01 X120.0000 Y55.5000
G01 X119.8000 Y45.3000
G01 X116.4000 Y36.5000
G01 X106.6000 Y26.7000
G01 X98.8000 Y23.3000
G01 X89.2000 Y22.5000
G01 X81.6000 Y24.1000
G01 X74.4000 Y28.3000
G01 X78.4000 Y29.9000
G01 X71.8000 Y36.1000
G01 X69.8000 Y38.7000
G01 X68.0000 Y42.7000
G01 X66.8000 Y47.3000
G01 Y54.7000
G01 X69.8000 Y63.3000
G01 X78.4000 Y72.1000
G01 X82.8000 Y74.3000
G01 X89.2000 Y75.7000
G01 X97.6000 Y75.1000
G01 X104.6000 Y72.1000
G01 X113.0000 Y63.7000
G01 X114.6000 Y60.5000
G01 X116.2000 Y54.7000
G01 X116.0000 Y46.1000
G01 X113.0000 Y38.3000
G01 X104.6000 Y29.9000
G01 X97.6000 Y26.9000
G01 X89.2000 Y26.3000
G01 X83.4000 Y27.5000
G01 X78.4000 Y29.9000
G01 Y34.7000
G01 X73.6000 Y39.9000
G01 X71.2000 Y45.3000
G01 X70.6000 Y48.1000
G01 Y53.9000
G01 X72.0000 Y59.1000
G01 X73.6000 Y62.1000
G01 X80.4000 Y68.9000
G01 X84.0000 Y70.7000
G01 X89.2000 Y71.9000
G01 X93.8000
G01 X99.0000 Y70.7000
G01 X104.6000 Y67.3000
G01 X109.6000 Y61.9000
G01 X112.4000 Y53.9000
G01 X112.2000 Y46.9000
G01 X109.6000 Y40.1000
G01 X104.6000 Y34.7000
G01 X99.0000 Y31.3000
G01 X93.8000 Y30.1000
G01 X89.2000
G01 X84.0000 Y31.3000
G01 X78.4000 Y34.7000
G01 X82.4000 Y36.3000
G01 X78.6000 Y39.7000
G01 X75.6000 Y44.3000
G01 X74.4000 Y48.9000
G01 X74.6000 Y54.3000
G01 X77.0000 Y60.3000
G01 X82.4000 Y65.7000
G01 X89.2000 Y68.1000
G01 X93.8000
G01 X97.8000 Y67.1000
G01 X102.6000 Y64.1000
G01 X106.2000 Y60.1000
G01 X108.6000 Y53.1000
G01 X108.4000 Y47.7000
G01 X106.2000 Y41.9000
G01 X102.6000 Y37.9000
G01 X97.8000 Y34.9000
G01 X93.8000 Y33.9000
G01 X88.0000 Y34.1000
G01 X82.4000 Y36.3000
G01 Z-8.0000 F900
G01 X78.6000 Y39.7000 F1800
G01 X75.6000 Y44.3000
G01 X74.4000 Y48.9000
G01 X74.6000 Y54.3000
G01 X77.0000 Y60.3000
G01 X82.4000 Y65.7000
G01 X89.2000 Y68.1000
G01 X93.8000
G01 X97.8000 Y67.1000
G01 X102.6000 Y64.1000
G01 X106.2000 Y60.1000
G01 X108.6000 Y53.1000
G01 X108.4000 Y47.7000
G01 X106.2000 Y41.9000
G01 X102.6000 Y37.9000
G01 X97.8000 Y34.9000
G01 X93.8000 Y33.9000
G01 X88.0000 Y34.1000
G01 X82.4000 Y36.3000
G01 X78.4000 Y34.7000
G01 X73.6000 Y39.9000
G01 X71.2000 Y45.3000
G01 X70.6000 Y48.1000
G01 Y53.9000
G01 X72.0000 Y59.1000
G01 X73.6000 Y62.1000
G01 X80.4000 Y68.9000
G01 X84.0000 Y70.7000
G01 X89.2000 Y71.9000
G01 X93.8000
G01 X99.0000 Y70.7000
G01 X104.6000 Y67.3000
G01 X109.6000 Y61.9000
G01 X112.4000 Y53.9000
G01 X112.2000 Y46.9000
G01 X109.6000 Y40.1000
G01 X104.6000 Y34.7000
G01 X99.0000 Y31.3000
G01 X93.8000 Y30.1000
G01 X89.2000
G01 X84.0000 Y31.3000
G01 X78.4000 Y34.7000
G01 Y29.9000
G01 X71.8000 Y36.1000
G01 X69.8000 Y38.7000
G01 X68.0000 Y42.7000
G01 X66.8000 Y47.3000
G01 Y54.7000
G01 X69.8000 Y63.3000
G01 X78.4000 Y72.1000
G01 X82.8000 Y74.3000
G01 X89.2000 Y75.7000
G01 X97.6000 Y75.1000
G01 X104.6000 Y72.1000
G01 X113.0000 Y63.7000
G01 X114.6000 Y60.5000
G01 X116.2000 Y54.7000
G01 X116.0000 Y46.1000
G01 X113.0000 Y38.3000
G01 X104.6000 Y29.9000
G01 X97.6000 Y26.9000
G01 X89.2000 Y26.3000
G01 X83.4000 Y27.5000
G01 X78.4000 Y29.9000
G01 X74.4000 Y28.3000
G01 X66.4000 Y36.9000
G01 X63.2000 Y45.3000
G01 Y56.7000
G01 X64.8000 Y61.9000
G01 X66.8000 Y65.7000
G01 X76.4000 Y75.3000
G01 X82.8000 Y78.3000
G01 X89.2000 Y79.5000
G01 X98.8000 Y78.7000
G01 X106.6000 Y75.3000
G01 X116.4000 Y65.5000
G01 X118.2000 Y61.9000
G01 X120.0000 Y55.5000
G01 X119.8000 Y45.3000
G01 X116.4000 Y36.5000
G01 X106.6000 Y26.7000
G01 X98.8000 Y23.3000
G01 X89.2000 Y22.5000
G01 X81.6000 Y24.1000
G01 X74.4000 Y28.3000
G01 X73.2000 Y22.3000
G01 X79.8000 Y19.1000
G01 X84.6000 Y17.7000
G01 X89.6000 Y17.1000
G01 X98.4000 Y17.7000
G01 X107.4000 Y20.9000
G01 X115.6000 Y26.9000
G01 X121.6000 Y35.5000
G01 X124.8000 Y45.7000
G01 X125.0000 Y55.1000
G01 X122.8000 Y63.7000
G01 X117.4000 Y72.9000
G01 X114.8000 Y75.9000
G01 X111.0000 Y78.9000
G01 X104.4000 Y82.5000
G01 X98.4000 Y84.3000
G01 X93.6000 Y84.9000
G01 X85.6000 Y84.5000
G01 X78.6000 Y82.5000
G01 X73.2000 Y79.7000
G01 X67.4000 Y75.1000
G01 X61.4000 Y66.5000
G01 X59.0000 Y60.1000
G01 X57.8000 Y53.1000
G01 X58.4000 Y44.9000
G01 X61.0000 Y36.5000
G01 X67.4000 Y26.9000
G01 X73.2000 Y22.3000
G01 X74.0000 Y17.5000
G01 X81.8000 Y14.5000
G01 X89.6000 Y13.3000
G01 X95.8000 Y13.5000
G01 X101.2000 Y14.5000
G01 X109.4000 Y17.7000
G01 X118.4000 Y24.3000
G01 X125.0000 Y33.7000
G01 X128.4000 Y43.9000
G01 X129.2000 Y51.9000
G01 X128.6000 Y57.1000
G01 X126.8000 Y64.1000
G01 X125.0000 Y68.3000
G01 X120.8000 Y74.7000
G01 X117.6000 Y78.5000
G01 X113.0000 Y82.1000
G01 X105.6000 Y86.1000
G01 X99.6000 Y87.9000
G01 X93.6000 Y88.7000
G01 X85.4000 Y88.3000
G01 X77.4000 Y86.1000
G01 X71.2000 Y82.9000
G01 X64.6000 Y77.7000
G01 X58.0000 Y68.3000
G01 X55.2000 Y60.9000
G01 X53.8000 Y51.7000
G01 X55.2000 Y41.1000
G01 X58.0000 Y33.7000
G01 X65.0000 Y23.9000
G01 X74.0000 Y17.5000
G01 X69.2000 Y15.9000
G01 X77.4000 Y11.9000
G01 X84.2000 Y10.1000
G01 X89.6000 Y9.5000
G01 X100.8000 Y10.5000
G01 X106.8000 Y12.3000
G01 X111.4000 Y14.5000
G01 X116.6000 Y17.9000
G01 X121.8000 Y22.5000
G01 X128.8000 Y32.7000
G01 X132.4000 Y44.1000
G01 X133.0000 Y49.3000
G01 X132.6000 Y56.7000
G01 X129.6000 Y67.5000
G01 X126.6000 Y73.1000
G01 X121.8000 Y79.5000
G01 X115.0000 Y85.3000
G01 X106.8000 Y89.7000
G01 X100.8000 Y91.5000
G01 X93.6000 Y92.5000
G01 X85.4000 Y92.1000
G01 X76.2000 Y89.7000
G01 X68.6000 Y85.7000
G01 X61.2000 Y79.5000
G01 X56.4000 Y73.1000
G01 X52.4000 Y64.9000
G01 X50.4000 Y56.7000
G01 X50.0000 Y49.9000
G01 X50.4000 Y45.3000
G01 X51.4000 Y40.3000
G01 X54.4000 Y32.3000
G01 X61.2000 Y22.5000
G01 X69.2000 Y15.9000
G01 X67.2000 Y12.7000
G01 X75.0000 Y8.7000
G01 X79.4000 Y7.3000
G01 X89.6000 Y5.7000
G01 X97.8000 Y6.1000
G01 X103.6000 Y7.3000
G01 X108.0000 Y8.7000
G01 X115.8000 Y12.7000
G01 X121.6000 Y17.1000
G01 X125.2000 Y20.7000
G01 X132.4000 Y31.3000
G01 X135.4000 Y39.5000
G01 X136.4000 Y44.5000
G01 X136.8000 Y48.5000
G01 X136.4000 Y57.5000
G01 X133.2000 Y68.9000
G01 X130.0000 Y74.9000
G01 X125.2000 Y81.3000
G01 X117.0000 Y88.5000
G01 X108.0000 Y93.3000
G01 X99.2000 Y95.7000
G01 X93.6000 Y96.3000
G01 X83.8000 Y95.7000
G01 X75.0000 Y93.3000
G01 X66.6000 Y88.9000
G01 X57.8000 Y81.3000
G01 X51.2000 Y71.9000
G01 X47.6000 Y62.5000
G01 X46.2000 Y53.5000
G01 Y48.5000
G01 X47.2000 Y41.5000
G01 X49.0000 Y35.1000
G01 X51.2000 Y30.1000
G01 X57.8000 Y20.7000
G01 X67.2000 Y12.7000
G01 Z-12.0000 F900
G01 X75.0000 Y8.7000 F1800
G01 X79.4000 Y7.3000
G01 X89.6000 Y5.7000
G01 X97.8000 Y6.1000
G01 X103.6000 Y7.3000
G01 X108.0000 Y8.7000
G01 X115.8000 Y12.7000
G01 X121.6000 Y17.1000
G01 X125.2000 Y20.7000
G01 X132.4000 Y31.3000
G01 X135.4000 Y39.5000
G01 X136.4000 Y44.5000
G01 X136.8000 Y48.5000
G01 X136.4000 Y57.5000
G01 X133.2000 Y68.9000
G01 X130.0000 Y74.9000
G01 X125.2000 Y81.3000
G01 X117.0000 Y88.5000
G01 X108.0000 Y93.3000
G01 X99.2000 Y95.7000
G01 X93.6000 Y96.3000
G01 X83.8000 Y95.7000
G01 X75.0000 Y93.3000
G01 X66.6000 Y88.9000
G01 X57.8000 Y81.3000
G01 X51.2000 Y71.9000
G01 X47.6000 Y62.5000
G01 X46.2000 Y53.5000
G01 Y48.5000
G01 X47.2000 Y41.5000
G01 X49.0000 Y35.1000
G01 X51.2000 Y30.1000
G01 X57.8000 Y20.7000
G01 X67.2000 Y12.7000
G01 X68.8000 Y15.3000
G01 X64.2000 Y18.9000
G01 X56.0000 Y28.1000
G01 X52.0000 Y35.9000
G01 X50.4000 Y41.5000
G01 X49.4000 Y48.3000
G01 X49.8000 Y57.7000
G01 X52.0000 Y66.1000
G01 X56.4000 Y74.5000
G01 X64.2000 Y83.1000
G01 X68.8000 Y86.7000
G01 X76.8000 Y90.7000
G01 X88.0000 Y93.1000
G01 X98.6000 Y92.7000
G01 X106.8000 Y90.5000
G01 X111.8000 Y88.1000
G01 X118.6000 Y83.3000
G01 X123.6000 Y78.3000
G01 X128.8000 Y70.9000
G01 X131.0000 Y66.1000
G01 X133.0000 Y58.7000
G01 X133.6000 Y48.3000
G01 X133.0000 Y43.3000
G01 X131.0000 Y35.9000
G01 X126.6000 Y27.5000
G01 X118.6000 Y18.7000
G01 X114.2000 Y15.3000
G01 X106.8000 Y11.5000
G01 X95.2000 Y8.9000
G01 X84.4000 Y9.3000
G01 X74.4000 Y12.3000
G01 X68.8000 Y15.3000
G01 Z-16.0000 F900
G01 X64.2000 Y18.9000 F1800
G01 X56.0000 Y28.1000
G01 X52.0000 Y35.9000
G01 X50.4000 Y41.5000
G01 X49.4000 Y48.3000
G01 X49.8000 Y57.7000
G01 X52.0000 Y66.1000
G01 X56.4000 Y74.5000
G01 X64.2000 Y83.1000
G01 X68.8000 Y86.7000
G01 X76.8000 Y90.7000
G01 X88.0000 Y93.1000
G01 X98.6000 Y92.7000
G01 X106.8000 Y90.5000
G01 X111.8000 Y88.1000
G01 X118.6000 Y83.3000
G01 X123.6000 Y78.3000
G01 X128.8000 Y70.9000
G01 X131.0000 Y66.1000
G01 X133.0000 Y58.7000
G01 X133.6000 Y48.3000
G01 X133.0000 Y43.3000
G01 X131.0000 Y35.9000
G01 X126.6000 Y27.5000
G01 X118.6000 Y18.7000
G01 X114.2000 Y15.3000
G01 X106.8000 Y11.5000
G01 X95.2000 Y8.9000
G01 X84.4000 Y9.3000
G01 X74.4000 Y12.3000
G01 X68.8000 Y15.3000
G01 X67.2000 Y12.7000
G01 X75.0000 Y8.7000
G01 X79.4000 Y7.3000
G01 X89.6000 Y5.7000
G01 X97.8000 Y6.1000
G01 X103.6000 Y7.3000
G01 X108.0000 Y8.7000
G01 X115.8000 Y12.7000
G01 X121.6000 Y17.1000
G01 X125.2000 Y20.7000
G01 X132.4000 Y31.3000
G01 X135.4000 Y39.5000
G01 X136.4000 Y44.5000
G01 X136.8000 Y48.5000
G01 X136.4000 Y57.5000
G01 X133.2000 Y68.9000
G01 X130.0000 Y74.9000
G01 X125.2000 Y81.3000
G01 X117.0000 Y88.5000
G01 X108.0000 Y93.3000
G01 X99.2000 Y95.7000
G01 X93.6000 Y96.3000
G01 X83.8000 Y95.7000
G01 X75.0000 Y93.3000
G01 X66.6000 Y88.9000
G01 X57.8000 Y81.3000
G01 X51.2000 Y71.9000
G01 X47.6000 Y62.5000
G01 X46.2000 Y53.5000
G01 Y48.5000
G01 X47.2000 Y41.5000
G01 X49.0000 Y35.1000
G01 X51.2000 Y30.1000
G01 X57.8000 Y20.7000
G01 X67.2000 Y12.7000
G01 Z-20.0000 F900
G01 X75.0000 Y8.7000 F1800
G01 X79.4000 Y7.3000
G01 X89.6000 Y5.7000
G01 X97.8000 Y6.1000
G01 X103.6000 Y7.3000
G01 X108.0000 Y8.7000
G01 X115.8000 Y12.7000
G01 X121.6000 Y17.1000
G01 X125.2000 Y20.7000
G01 X132.4000 Y31.3000
G01 X135.4000 Y39.5000
G01 X136.4000 Y44.5000
G01 X136.8000 Y48.5000
G01 X136.4000 Y57.5000
G01 X133.2000 Y68.9000
G01 X130.0000 Y74.9000
G01 X125.2000 Y81.3000
G01 X117.0000 Y88.5000
G01 X108.0000 Y93.3000
G01 X99.2000 Y95.7000
G01 X93.6000 Y96.3000
G01 X83.8000 Y95.7000
G01 X75.0000 Y93.3000
G01 X66.6000 Y88.9000
G01 X57.8000 Y81.3000
G01 X51.2000 Y71.9000
G01 X47.6000 Y62.5000
G01 X46.2000 Y53.5000
G01 Y48.5000
G01 X47.2000 Y41.5000
G01 X49.0000 Y35.1000
G01 X51.2000 Y30.1000
G01 X57.8000 Y20.7000
G01 X67.2000 Y12.7000
G01 X68.8000 Y15.3000
G01 X64.2000 Y18.9000
G01 X56.0000 Y28.1000
G01 X52.0000 Y35.9000
G01 X50.4000 Y41.5000
G01 X49.4000 Y48.3000
G01 X49.8000 Y57.7000
G01 X52.0000 Y66.1000
G01 X56.4000 Y74.5000
G01 X64.2000 Y83.1000
G01 X68.8000 Y86.7000
G01 X76.8000 Y90.7000
G01 X88.0000 Y93.1000
G01 X98.6000 Y92.7000
G01 X106.8000 Y90.5000
G01 X111.8000 Y88.1000
G01 X118.6000 Y83.3000
G01 X123.6000 Y78.3000
G01 X128.8000 Y70.9000
G01 X131.0000 Y66.1000
G01 X133.0000 Y58.7000
G01 X133.6000 Y48.3000
G01 X133.0000 Y43.3000
G01 X131.0000 Y35.9000
G01 X126.6000 Y27.5000
G01 X118.6000 Y18.7000
G01 X114.2000 Y15.3000
G01 X106.8000 Y11.5000
G01 X95.2000 Y8.9000
G01 X84.4000 Y9.3000
G01 X74.4000 Y12.3000
G01 X68.8000 Y15.3000
G00 Z5.0000
G00 X54.0000 Y13.5000


(No. 2: )
M05
M00 (Change tool: End mill 3mm)
M03 S24000
G00 X80.7891 Y42.7894 Z5.0000
G01 Z0.4763 F2500 S24000
G01 Z-0.5000 F900
G01 X84.8372 Y39.2175 F2500
G01 X88.5281 Y37.7888
G01 X92.6953 Y37.5506
G01 X96.3863 Y38.3841
G01 X99.6009 Y40.1700
G01 X102.2203 Y42.7894
G01 X103.6491 Y45.0516
G01 X104.8397 Y48.9806
G01 Y53.0288
G01 X103.6491 Y56.9578
G01 X102.2203 Y59.2200
G01 X99.6009 Y61.8394
G01 X96.3863 Y63.6253
G01 X92.6953 Y64.4588
G01 X89.1234 Y64.3397
G01 X86.0278 Y63.3872
G01 X83.2894 Y61.7203
G01 X80.7891 Y59.2200
G01 X79.4794 Y57.1959
G01 X78.2888 Y53.7431
G01 X78.0506 Y50.1713
G01 X78.4078 Y47.9091
G01 X79.4794 Y44.8134
G01 X80.7891 Y42.7894
G01 X81.2653 Y43.1466
G01 X83.6466 Y40.7653
G01 X86.3850 Y39.0984
G01 X89.1234 Y38.2650
G01 X92.6953 Y38.1459
G01 X96.0291 Y38.8603
G01 X99.2438 Y40.6463
G01 X101.7441 Y43.1466
G01 X103.2919 Y45.7659
G01 X104.3634 Y50.2903
G01 X104.1253 Y53.6241
G01 X103.0538 Y56.8388
G01 X101.7441 Y58.8628
G01 X99.2438 Y61.3631
G01 X96.0291 Y63.1491
G01 X92.6953 Y63.8634
G01 X89.1234 Y63.7444
G01 X86.3850 Y62.9109
G01 X83.6466 Y61.2441
G01 X81.2653 Y58.8628
G01 X79.8366 Y56.4816
G01 X78.7650 Y52.9097
G01 X78.6459 Y50.2903
G01 X79.3603 Y46.8375
G01 X80.0747 Y44.9325
G01 X81.2653 Y43.1466
G01 X81.7416 Y43.5038
G01 X85.5516 Y40.1700
G01 X88.5281 Y38.9794
G01 X92.6953 Y38.7413
G01 X95.6719 Y39.3366
G01 X98.8866 Y41.1225
G01 X101.2678 Y43.5038
G01 X102.4584 Y45.2897
G01 X103.6491 Y49.2188
G01 Y52.7906
G01 X102.6966 Y56.1244
G01 X101.2678 Y58.5056
G01 X98.8866 Y60.8869
G01 X95.6719 Y62.6728
G01 X92.6953 Y63.2681
G01 X89.1234 Y63.1491
G01 X86.7422 Y62.4347
G01 X84.0038 Y60.7678
G01 X81.7416 Y58.5056
G01 X80.4319 Y56.3625
G01 X79.4794 Y53.5050
G01 X79.3603 Y49.2188
G01 X80.4319 Y45.6469
G01 X81.7416 Y43.5038
G01 X82.2178 Y43.8609
G01 X84.8372 Y41.3606
G01 X88.5281 Y39.5747
G01 X92.6953 Y39.3366
G01 X95.9100 Y40.0509
G01 X98.5294 Y41.5988
G01 X100.7916 Y43.8609
G01 X102.1013 Y46.0041
G01 X103.0538 Y49.3378
G01 Y52.6716
G01 X102.1013 Y56.0053
G01 X100.7916 Y58.1484
G01 X98.5294 Y60.4106
G01 X95.9100 Y61.9584
G01 X92.6953 Y62.6728
G01 X89.1234 Y62.5538
G01 X87.0994 Y61.9584
G01 X84.3609 Y60.2916
G01 X82.2178 Y58.1484
G01 X81.0272 Y56.2434
G01 X80.0747 Y53.3859
G01 X79.8366 Y50.5284
G01 X80.1938 Y48.2663
G01 X81.0272 Y45.7659
G01 X82.2178 Y43.8609
G01 X82.6941 Y44.2181
G01 X84.7181 Y42.1941
G01 X87.4566 Y40.5272
G01 X89.1234 Y40.0509
G01 X92.6953 Y39.9319
G01 X95.5528 Y40.5272
G01 X98.1722 Y42.0750
G01 X100.3153 Y44.2181
G01 X101.5059 Y46.1231
G01 X102.4584 Y49.4569
G01 Y52.5525
G01 X101.5059 Y55.8863
G01 X100.3153 Y57.7913
G01 X98.1722 Y59.9344
G01 X95.5528 Y61.4822
G01 X92.6953 Y62.0775
G01 X89.1234 Y61.9584
G01 X87.4566 Y61.4822
G01 X84.7181 Y59.8153
G01 X82.6941 Y57.7913
G01 X81.6225 Y56.1244
G01 X80.5509 Y52.5525
G01 Y49.4569
G01 X81.2653 Y46.8375
G01 X82.6941 Y44.2181
G01 X83.1703 Y44.5753
G01 X85.5516 Y42.3131
G01 X88.5281 Y40.7653
G01 X92.6953 Y40.5272
G01 X95.1956 Y41.0034
G01 X97.8150 Y42.5513
G01 X99.8391 Y44.5753
G01 X100.9106 Y46.2422
G01 X101.9822 Y50.7666
G01 X101.7441 Y53.1478
G01 X100.9106 Y55.7672
G01 X99.8391 Y57.4341
G01 X97.8150 Y59.4581
G01 X95.1956 Y61.0059
G01 X92.6953 Y61.4822
G01 X87.8138 Y61.0059
G01 X85.0753 Y59.3391
G01 X83.1703 Y57.4341
G01 X81.9797 Y55.4100
G01 X81.2653 Y53.1478
G01 X81.0272 Y51.0047
G01 X81.2653 Y48.8616
G01 X82.2178 Y46.0041
G01 X83.1703 Y44.5753
G01 X83.6466 Y44.9325
G01 X85.4325 Y43.1466
G01 X86.9803 Y42.0750
G01 X89.1234 Y41.2416
G01 X92.6953 Y41.1225
G01 X94.8384 Y41.4797
G01 X97.4578 Y43.0275
G01 X99.3628 Y44.9325
G01 X100.3153 Y46.3613
G01 X101.2678 Y49.6950
G01 Y52.3144
G01 X100.4344 Y55.2909
G01 X99.3628 Y57.0769
G01 X97.4578 Y58.9819
G01 X94.8384 Y60.5297
G01 X92.6953 Y60.8869
G01 X88.1709 Y60.5297
G01 X85.4325 Y58.8628
G01 X83.6466 Y57.0769
G01 X82.5750 Y55.2909
G01 X81.7416 Y52.3144
G01 Y49.6950
G01 X82.2178 Y47.7900
G01 X83.6466 Y44.9325
G01 X84.1228 Y45.2897
G01 X86.2659 Y43.2656
G01 X88.5281 Y41.9559
G01 X90.3141 Y41.7178
G01 X94.4813 Y41.9559
G01 X97.1006 Y43.5038
G01 X98.8866 Y45.2897
G01 X99.8391 Y46.8375
G01 X100.6725 Y49.8141
G01 Y52.1953
G01 X99.8391 Y55.1719
G01 X98.8866 Y56.7197
G01 X97.1006 Y58.5056
G01 X94.4813 Y60.0534
G01 X92.6953 Y60.2916
G01 X88.5281 Y60.0534
G01 X85.7897 Y58.3866
G01 X84.1228 Y56.7197
G01 X83.1703 Y55.1719
G01 X82.3369 Y52.1953
G01 Y49.8141
G01 X83.1703 Y46.8375
G01 X84.1228 Y45.2897
G01 X84.4800 Y45.6469
G01 X83.0513 Y48.3853
G01 X82.6941 Y49.3378
G01 Y52.6716
G01 X84.5991 Y56.4816
G01 X87.0994 Y58.5056
G01 X91.5047 Y59.8153
G01 X96.0291 Y58.5056
G01 X97.5769 Y57.3150
G01 X99.0056 Y55.5291
G01 X100.1963 Y52.9097
G01 X100.3153 Y49.8141
G01 X98.6484 Y45.7659
G01 X96.9816 Y44.0991
G01 X95.6719 Y43.3847
G01 X92.1000 Y42.1941
G01 X91.0284
G01 X86.1469 Y43.9800
G01 X84.4800 Y45.6469
G01 X84.9563 Y46.0041
G01 X84.0038 Y47.7900
G01 X83.2894 Y49.4569
G01 Y52.5525
G01 X84.8372 Y55.7672
G01 X86.5041 Y57.5531
G01 X91.5047 Y59.2200
G01 X95.6719 Y58.0294
G01 X96.7434 Y57.3150
G01 X98.5294 Y55.1719
G01 X99.6009 Y52.7906
G01 X99.7200 Y49.9331
G01 X98.1722 Y46.1231
G01 X96.6244 Y44.5753
G01 X95.3147 Y43.8609
G01 X92.1000 Y42.7894
G01 X91.0284
G01 X86.5041 Y44.4563
G01 X84.9563 Y46.0041
G01 X85.4325 Y46.3613
G01 X84.0038 Y49.3378
G01 X83.8847 Y52.4334
G01 X85.5516 Y55.7672
G01 X87.8138 Y57.5531
G01 X91.5047 Y58.6247
G01 X95.3147 Y57.5531
G01 X96.8625 Y56.3625
G01 X98.0531 Y54.8147
G01 X99.0056 Y52.6716
G01 X99.1247 Y50.0522
G01 X97.6959 Y46.4803
G01 X96.2672 Y45.0516
G01 X94.9575 Y44.3372
G01 X92.1000 Y43.3847
G01 X91.0284
G01 X86.8613 Y44.9325
G01 X85.4325 Y46.3613
G01 X85.9088 Y46.7184
G01 X85.0753 Y48.2663
G01 X84.4800 Y49.6950
G01 Y52.3144
G01 X85.7897 Y55.0528
G01 X87.2184 Y56.6006
G01 X91.5047 Y58.0294
G01 X94.9575 Y57.0769
G01 X96.5053 Y55.8863
G01 X97.5769 Y54.4575
G01 X98.4103 Y52.5525
G01 X98.5294 Y50.1713
G01 X97.2197 Y46.8375
G01 X94.6003 Y44.8134
G01 X92.1000 Y43.9800
G01 X91.0284
G01 X87.2184 Y45.4088
G01 X85.9088 Y46.7184
G01 X86.3850 Y47.0756
G01 X85.0753 Y49.8141
G01 Y52.1953
G01 X86.5041 Y55.0528
G01 X88.5281 Y56.6006
G01 X91.5047 Y57.4341
G01 X94.6003 Y56.6006
G01 X96.2672 Y55.2909
G01 X97.1006 Y54.1003
G01 X97.8150 Y52.4334
G01 X97.9341 Y50.2903
G01 X96.7434 Y47.1947
G01 X94.2431 Y45.2897
G01 X91.0284 Y44.5753
G01 X87.5756 Y45.8850
G01 X86.3850 Y47.0756
G01 X86.8613 Y47.4328
G01 X85.9088 Y49.3378
G01 X85.6706 Y52.0763
G01 X86.9803 Y54.6956
G01 X88.8853 Y56.1244
G01 X91.5047 Y56.8388
G01 X94.8384 Y55.7672
G01 X96.6244 Y53.7431
G01 X97.2197 Y52.3144
G01 X97.3388 Y50.4094
G01 X96.2672 Y47.5519
G01 X93.8859 Y45.7659
G01 X91.0284 Y45.1706
G01 X87.9328 Y46.3613
G01 X86.8613 Y47.4328
G01 Z0.0000
G01 X86.7422 Y48.8616
G01 Z-0.5000 F900
G01 X86.2659 Y50.0522 F2500
G01 Y51.9572
G01 X87.2184 Y53.9813
G01 X88.2900 Y55.1719
G01 X91.5047 Y56.2434
G01 X94.4813 Y55.2909
G01 X96.1481 Y53.3859
G01 X96.7434 Y50.5284
G01 X95.7909 Y47.9091
G01 X93.5288 Y46.2422
G01 X91.0284 Y45.7659
G01 X88.2900 Y46.8375
G01 X86.7422 Y48.8616
G01 Z0.0000
G01 X87.8138 Y48.1472
G01 Z-0.5000 F900
G01 X86.8613 Y50.1713 F2500
G01 Y51.8381
G01 X87.9328 Y53.9813
G01 X89.5997 Y55.1719
G01 X91.5047 Y55.6481
G01 X94.1241 Y54.8147
G01 X95.6719 Y53.0288
G01 X96.1481 Y50.6475
G01 X95.3147 Y48.2663
G01 X93.1716 Y46.7184
G01 X91.0284 Y46.3613
G01 X88.6472 Y47.3138
G01 X87.8138 Y48.1472
G01 Z0.0000
G01 Y49.3378
G01 Z-0.9515 F900
G01 X87.4566 Y51.7191 F2500
G01 X88.1709 Y53.2669
G01 X89.0044 Y54.2194
G01 X91.5047 Y55.0528
G01 X93.7669 Y54.3384
G01 X95.1956 Y52.6716
G01 X95.5528 Y50.7666
G01 X94.8384 Y48.6234
G01 X92.8144 Y47.1947
G01 X91.0284 Y46.9566
G01 X89.0044 Y47.7900
G01 X87.8138 Y49.3378
G01 Z0.0000
G01 X78.4078 Y45.8850
G01 Z-0.9515 F900
G01 X80.3128 Y42.4322 F2500
G01 X82.9322 Y39.8128
G01 X85.6706 Y38.1459
G01 X89.1234 Y37.0744
G01 X94.0050
G01 X97.3388 Y38.1459
G01 X99.9581 Y39.6938
G01 X102.6966 Y42.4322
G01 X104.4825 Y45.5278
G01 X105.4350 Y48.8616
G01 X105.3159 Y53.8622
G01 X104.0063 Y57.5531
G01 X102.6966 Y59.5772
G01 X99.9581 Y62.3156
G01 X96.7434 Y64.1016
G01 X92.6953 Y65.0541
G01 X88.5281 Y64.8159
G01 X85.6706 Y63.8634
G01 X82.9322 Y62.1966
G01 X80.3128 Y59.5772
G01 X78.8841 Y57.3150
G01 X77.6934 Y53.8622
G01 X77.4553 Y50.0522
G01 X78.4078 Y45.8850
G01 Z-1.4278 F900
G01 X80.3128 Y42.4322 F2500
G01 X82.9322 Y39.8128
G01 X85.6706 Y38.1459
G01 X89.1234 Y37.0744
G01 X94.0050
G01 X97.3388 Y38.1459
G01 X99.9581 Y39.6938
G01 X102.6966 Y42.4322
G01 X104.4825 Y45.5278
G01 X105.4350 Y48.8616
G01 X105.3159 Y53.8622
G01 X104.0063 Y57.5531
G01 X102.6966 Y59.5772
G01 X99.9581 Y62.3156
G01 X96.7434 Y64.1016
G01 X92.6953 Y65.0541
G01 X88.5281 Y64.8159
G01 X85.6706 Y63.8634
G01 X82.9322 Y62.1966
G01 X80.3128 Y59.5772
G01 X78.8841 Y57.3150
G01 X77.6934 Y53.8622
G01 X77.4553 Y50.0522
G01 X78.4078 Y45.8850
G01 Z0.0000
G01 X87.9328 Y50.4094
G01 Z-0.4515
G01 Z-1.4278 F900
G01 X88.0519 Y51.9572 F2500
G01 X88.7663 Y53.3859
G01 X91.1475 Y54.5766
G01 X93.5288 Y53.9813
G01 X94.4813 Y53.0288
G01 X95.0766 Y50.5284
G01 X94.2431 Y48.6234
G01 X91.9809 Y47.4328
G01 X90.5522 Y47.5519
G01 X88.7663 Y48.6234
G01 X87.9328 Y50.4094
G01 Z-1.3199
G01 X88.4091
G01 Z-1.9040 F900
G01 X88.6472 Y52.1953 F2500
G01 X89.9569 Y53.7431
G01 X90.7903 Y53.9813
G01 X93.0525 Y53.7431
G01 X94.2431 Y52.5525
G01 X94.6003 Y51.3619
G01 X94.2431 Y49.4569
G01 X93.0525 Y48.2663
G01 X91.0284 Y47.9091
G01 X89.9569 Y48.2663
G01 X88.8853 Y49.3378
G01 X88.4091 Y50.4094
G01 Z0.0000
G01 X77.4553 Y50.0522
G01 Z-0.9278
G01 Z-1.9040 F900
G01 X78.4078 Y45.8850 F2500
G01 X80.3128 Y42.4322
G01 X82.9322 Y39.8128
G01 X85.6706 Y38.1459
G01 X89.1234 Y37.0744
G01 X94.0050
G01 X97.3388 Y38.1459
G01 X99.9581 Y39.6938
G01 X102.6966 Y42.4322
G01 X104.4825 Y45.5278
G01 X105.4350 Y48.8616
G01 X105.3159 Y53.8622
G01 X104.0063 Y57.5531
G01 X102.6966 Y59.5772
G01 X99.9581 Y62.3156
G01 X96.7434 Y64.1016
G01 X92.6953 Y65.0541
G01 X88.5281 Y64.8159
G01 X85.6706 Y63.8634
G01 X82.9322 Y62.1966
G01 X80.3128 Y59.5772
G01 X78.8841 Y57.3150
G01 X77.6934 Y53.8622
G01 X77.4553 Y50.0522
G01 Z-2.3803 F900
G01 X78.4078 Y45.8850 F2500
G01 X80.3128 Y42.4322
G01 X82.9322 Y39.8128
G01 X85.6706 Y38.1459
G01 X89.1234 Y37.0744
G01 X94.0050
G01 X97.3388 Y38.1459
G01 X99.9581 Y39.6938
G01 X102.6966 Y42.4322
G01 X104.4825 Y45.5278
G01 X105.4350 Y48.8616
G01 X105.3159 Y53.8622
G01 X104.0063 Y57.5531
G01 X102.6966 Y59.5772
G01 X99.9581 Y62.3156
G01 X96.7434 Y64.1016
G01 X92.6953 Y65.0541
G01 X88.5281 Y64.8159
G01 X85.6706 Y63.8634
G01 X82.9322 Y62.1966
G01 X80.3128 Y59.5772
G01 X78.8841 Y57.3150
G01 X77.6934 Y53.8622
G01 X77.4553 Y50.0522
G01 Z0.0000
G01 X88.7663 Y51.3619
G01 Z-1.4040
G01 Z-2.3803 F900
G01 X89.2425 Y52.5525 F2500
G01 X90.1950 Y53.3859
G01 X91.5047 Y53.7431
G01 X93.0525 Y53.2669
G01 X94.0050 Y52.1953
G01 X94.2431 Y50.8856
G01 X93.7669 Y49.4569
G01 X92.5763 Y48.5044
G01 X91.2666 Y48.2663
G01 X89.8378 Y48.8616
G01 X88.8853 Y50.1713
G01 X88.7663 Y51.3619
G01 Z-2.8565 F900
G01 X89.2425 Y52.5525 F2500
G01 X90.1950 Y53.3859
G01 X91.5047 Y53.7431
G01 X93.0525 Y53.2669
G01 X94.0050 Y52.1953
G01 X94.2431 Y50.8856
G01 X93.7669 Y49.4569
G01 X92.5763 Y48.5044
G01 X91.2666 Y48.2663
G01 X89.8378 Y48.8616
G01 X88.8853 Y50.1713
G01 X88.7663 Y51.3619
G01 Z0.0000
G01 X77.6934 Y53.8622
G01 Z-1.8803
G01 Z-2.8565 F900
G01 X77.4553 Y50.0522 F2500
G01 X78.4078 Y45.8850
G01 X80.3128 Y42.4322
G01 X82.9322 Y39.8128
G01 X85.6706 Y38.1459
G01 X89.1234 Y37.0744
G01 X94.0050
G01 X97.3388 Y38.1459
G01 X99.9581 Y39.6938
G01 X102.6966 Y42.4322
G01 X104.4825 Y45.5278
G01 X105.4350 Y48.8616
G01 X105.3159 Y53.8622
G01 X104.0063 Y57.5531
G01 X102.6966 Y59.5772
G01 X99.9581 Y62.3156
G01 X96.7434 Y64.1016
G01 X92.6953 Y65.0541
G01 X88.5281 Y64.8159
G01 X85.6706 Y63.8634
G01 X82.9322 Y62.1966
G01 X80.3128 Y59.5772
G01 X78.8841 Y57.3150
G01 X77.6934 Y53.8622
G01 Z-3.3328 F900
G01 X77.4553 Y50.0522 F2500
G01 X78.4078 Y45.8850
G01 X80.3128 Y42.4322
G01 X82.9322 Y39.8128
G01 X85.6706 Y38.1459
G01 X89.1234 Y37.0744
G01 X94.0050
G01 X97.3388 Y38.1459
G01 X99.9581 Y39.6938
G01 X102.6966 Y42.4322
G01 X104.4825 Y45.5278
G01 X105.4350 Y48.8616
G01 X105.3159 Y53.8622
G01 X104.0063 Y57.5531
G01 X102.6966 Y59.5772
G01 X99.9581 Y62.3156
G01 X96.7434 Y64.1016
G01 X92.6953 Y65.0541
G01 X88.5281 Y64.8159
G01 X85.6706 Y63.8634
G01 X82.9322 Y62.1966
G01 X80.3128 Y59.5772
G01 X78.8841 Y57.3150
G01 X77.6934 Y53.8622
G01 Z0.0000
G01 X88.7663 Y51.3619
G01 Z-2.3565
G01 Z-3.3328 F900
G01 X89.2425 Y52.5525 F2500
G01 X90.1950 Y53.3859
G01 X91.5047 Y53.7431
G01 X93.0525 Y53.2669
G01 X94.0050 Y52.1953
G01 X94.2431 Y50.8856
G01 X93.7669 Y49.4569
G01 X92.5763 Y48.5044
G01 X91.2666 Y48.2663
G01 X89.8378 Y48.8616
G01 X88.8853 Y50.1713
G01 X88.7663 Y51.3619
G01 Z-3.8090 F900
G01 X89.2425 Y52.5525 F2500
G01 X90.1950 Y53.3859
G01 X91.5047 Y53.7431
G01 X93.0525 Y53.2669
G01 X94.0050 Y52.1953
G01 X94.2431 Y50.8856
G01 X93.7669 Y49.4569
G01 X92.5763 Y48.5044
G01 X91.2666 Y48.2663
G01 X89.8378 Y48.8616
G01 X88.8853 Y50.1713
G01 X88.7663 Y51.3619
G01 Z0.0000
G01 X77.6934 Y53.8622
G01 Z-2.8328
G01 Z-3.8090 F900
G01 X77.4553 Y50.0522 F2500
G01 X78.4078 Y45.8850
G01 X80.3128 Y42.4322
G01 X82.9322 Y39.8128
G01 X85.6706 Y38.1459
G01 X89.1234 Y37.0744
G01 X94.0050
G01 X97.3388 Y38.1459
G01 X99.9581 Y39.6938
G01 X102.6966 Y42.4322
G01 X104.4825 Y45.5278
G01 X105.4350 Y48.8616
G01 X105.3159 Y53.8622
G01 X104.0063 Y57.5531
G01 X102.6966 Y59.5772
G01 X99.9581 Y62.3156
G01 X96.7434 Y64.1016
G01 X92.6953 Y65.0541
G01 X88.5281 Y64.8159
G01 X85.6706 Y63.8634
G01 X82.9322 Y62.1966
G01 X80.3128 Y59.5772
G01 X78.8841 Y57.3150
G01 X77.6934 Y53.8622
G01 Z-4.2853 F900
G01 X77.4553 Y50.0522 F2500
G01 X78.4078 Y45.8850
G01 X80.3128 Y42.4322
G01 X82.9322 Y39.8128
G01 X85.6706 Y38.1459
G01 X89.1234 Y37.0744
G01 X94.0050
G01 X97.3388 Y38.1459
G01 X99.9581 Y39.6938
G01 X102.6966 Y42.4322
G01 X104.4825 Y45.5278
G01 X105.4350 Y48.8616
G01 X105.3159 Y53.8622
G01 X104.0063 Y57.5531
G01 X102.6966 Y59.5772
G01 X99.9581 Y62.3156
G01 X96.7434 Y64.1016
G01 X92.6953 Y65.0541
G01 X88.5281 Y64.8159
G01 X85.6706 Y63.8634
G01 X82.9322 Y62.1966
G01 X80.3128 Y59.5772
G01 X78.8841 Y57.3150
G01 X77.6934 Y53.8622
G01 Z0.0000
G01 X88.7663 Y51.3619
G01 Z-3.3090
G01 Z-4.2853 F900
G01 X89.2425 Y52.5525 F2500
G01 X90.1950 Y53.3859
G01 X91.5047 Y53.7431
G01 X93.0525 Y53.2669
G01 X94.0050 Y52.1953
G01 X94.2431 Y50.8856
G01 X93.7669 Y49.4569
G01 X92.5763 Y48.5044
G01 X91.2666 Y48.2663
G01 X89.8378 Y48.8616
G01 X88.8853 Y50.1713
G01 X88.7663 Y51.3619
G01 Z-4.7615 F900
G01 X89.2425 Y52.5525 F2500
G01 X90.1950 Y53.3859
G01 X91.5047 Y53.7431
G01 X93.0525 Y53.2669
G01 X94.0050 Y52.1953
G01 X94.2431 Y50.8856
G01 X93.7669 Y49.4569
G01 X92.5763 Y48.5044
G01 X91.2666 Y48.2663
G01 X89.8378 Y48.8616
G01 X88.8853 Y50.1713
G01 X88.7663 Y51.3619
G01 Z0.0000
G01 X77.6934 Y53.8622
G01 Z-3.7853
G01 Z-4.7615 F900
G01 X77.4553 Y50.0522 F2500
G01 X78.4078 Y45.8850
G01 X80.3128 Y42.4322
G01 X82.9322 Y39.8128
G01 X85.6706 Y38.1459
G01 X89.1234 Y37.0744
G01 X94.0050
G01 X97.3388 Y38.1459
G01 X99.9581 Y39.6938
G01 X102.6966 Y42.4322
G01 X104.4825 Y45.5278
G01 X105.4350 Y48.8616
G01 X105.3159 Y53.8622
G01 X104.0063 Y57.5531
G01 X102.6966 Y59.5772
G01 X99.9581 Y62.3156
G01 X96.7434 Y64.1016
G01 X92.6953 Y65.0541
G01 X88.5281 Y64.8159
G01 X85.6706 Y63.8634
G01 X82.9322 Y62.1966
G01 X80.3128 Y59.5772
G01 X78.8841 Y57.3150
G01 X77.6934 Y53.8622
G01 Z-5.2378 F900
G01 X77.4553 Y50.0522 F2500
G01 X78.4078 Y45.8850
G01 X80.3128 Y42.4322
G01 X82.9322 Y39.8128
G01 X85.6706 Y38.1459
G01 X89.1234 Y37.0744
G01 X94.0050
G01 X97.3388 Y38.1459
G01 X99.9581 Y39.6938
G01 X102.6966 Y42.4322
G01 X104.4825 Y45.5278
G01 X105.4350 Y48.8616
G01 X105.3159 Y53.8622
G01 X104.0063 Y57.5531
G01 X102.6966 Y59.5772
G01 X99.9581 Y62.3156
G01 X96.7434 Y64.1016
G01 X92.6953 Y65.0541
G01 X88.5281 Y64.8159
G01 X85.6706 Y63.8634
G01 X82.9322 Y62.1966
G01 X80.3128 Y59.5772
G01 X78.8841 Y57.3150
G01 X77.6934 Y53.8622
G01 Z0.0000
G01 X88.7663 Y51.3619
G01 Z-4.2615
G01 Z-5.2378 F900
G01 X89.2425 Y52.5525 F2500
G01 X90.1950 Y53.3859
G01 X91.5047 Y53.7431
G01 X93.0525 Y53.2669
G01 X94.0050 Y52.1953
G01 X94.2431 Y50.8856
G01 X93.7669 Y49.4569
G01 X92.5763 Y48.5044
G01 X91.2666 Y48.2663
G01 X89.8378 Y48.8616
G01 X88.8853 Y50.1713
G01 X88.7663 Y51.3619
G01 Z-5.7140 F900
G01 X89.2425 Y52.5525 F2500
G01 X90.1950 Y53.3859
G01 X91.5047 Y53.7431
G01 X93.0525 Y53.2669
G01 X94.0050 Y52.1953
G01 X94.2431 Y50.8856
G01 X93.7669 Y49.4569
G01 X92.5763 Y48.5044
G01 X91.2666 Y48.2663
G01 X89.8378 Y48.8616
G01 X88.8853 Y50.1713
G01 X88.7663 Y51.3619
G01 Z0.0000
G01 X77.6934 Y53.8622
G01 Z-4.7378
G01 Z-5.7140 F900
G01 X77.4553 Y50.0522 F2500
G01 X78.4078 Y45.8850
G01 X80.3128 Y42.4322
G01 X82.9322 Y39.8128
G01 X85.6706 Y38.1459
G01 X89.1234 Y37.0744
G01 X94.0050
G01 X97.3388 Y38.1459
G01 X99.9581 Y39.6938
G01 X102.6966 Y42.4322
G01 X104.4825 Y45.5278
G01 X105.4350 Y48.8616
G01 X105.3159 Y53.8622
G01 X104.0063 Y57.5531
G01 X102.6966 Y59.5772
G01 X99.9581 Y62.3156
G01 X96.7434 Y64.1016
G01 X92.6953 Y65.0541
G01 X88.5281 Y64.8159
G01 X85.6706 Y63.8634
G01 X82.9322 Y62.1966
G01 X80.3128 Y59.5772
G01 X78.8841 Y57.3150
G01 X77.6934 Y53.8622
G01 Z-6.1903 F900
G01 X77.4553 Y50.0522 F2500
G01 X78.4078 Y45.8850
G01 X80.3128 Y42.4322
G01 X82.9322 Y39.8128
G01 X85.6706 Y38.1459
G01 X89.1234 Y37.0744
G01 X94.0050
G01 X97.3388 Y38.1459
G01 X99.9581 Y39.6938
G01 X102.6966 Y42.4322
G01 X104.4825 Y45.5278
G01 X105.4350 Y48.8616
G01 X105.3159 Y53.8622
G01 X104.0063 Y57.5531
G01 X102.6966 Y59.5772
G01 X99.9581 Y62.3156
G01 X96.7434 Y64.1016
G01 X92.6953 Y65.0541
G01 X88.5281 Y64.8159
G01 X85.6706 Y63.8634
G01 X82.9322 Y62.1966
G01 X80.3128 Y59.5772
G01 X78.8841 Y57.3150
G01 X77.6934 Y53.8622
G01 Z0.0000
G01 X88.7663 Y51.3619
G01 Z-5.2140
G01 Z-6.1903 F900
G01 X89.2425 Y52.5525 F2500
G01 X90.1950 Y53.3859
G01 X91.5047 Y53.7431
G01 X93.0525 Y53.2669
G01 X94.0050 Y52.1953
G01 X94.2431 Y50.8856
G01 X93.7669 Y49.4569
G01 X92.5763 Y48.5044
G01 X91.2666 Y48.2663
G01 X89.8378 Y48.8616
G01 X88.8853 Y50.1713
G01 X88.7663 Y51.3619
G01 Z-6.6665 F900
G01 X89.2425 Y52.5525 F2500
G01 X90.1950 Y53.3859
G01 X91.5047 Y53.7431
G01 X93.0525 Y53.2669
G01 X94.0050 Y52.1953
G01 X94.2431 Y50.8856
G01 X93.7669 Y49.4569
G01 X92.5763 Y48.5044
G01 X91.2666 Y48.2663
G01 X89.8378 Y48.8616
G01 X88.8853 Y50.1713
G01 X88.7663 Y51.3619
G01 Z0.0000
G01 X77.6934 Y53.8622
G01 Z-5.6903
G01 Z-6.6665 F900
G01 X77.4553 Y50.0522 F2500
G01 X78.4078 Y45.8850
G01 X80.3128 Y42.4322
G01 X82.9322 Y39.8128
G01 X85.6706 Y38.1459
G01 X89.1234 Y37.0744
G01 X94.0050
G01 X97.3388 Y38.1459
G01 X99.9581 Y39.6938
G01 X102.6966 Y42.4322
G01 X104.4825 Y45.5278
G01 X105.4350 Y48.8616
G01 X105.3159 Y53.8622
G01 X104.0063 Y57.5531
G01 X102.6966 Y59.5772
G01 X99.9581 Y62.3156
G01 X96.7434 Y64.1016
G01 X92.6953 Y65.0541
G01 X88.5281 Y64.8159
G01 X85.6706 Y63.8634
G01 X82.9322 Y62.1966
G01 X80.3128 Y59.5772
G01 X78.8841 Y57.3150
G01 X77.6934 Y53.8622
G01 Z-7.1428 F900
G01 X77.4553 Y50.0522 F2500
G01 X78.4078 Y45.8850
G01 X80.3128 Y42.4322
G01 X82.9322 Y39.8128
G01 X85.6706 Y38.1459
G01 X89.1234 Y37.0744
G01 X94.0050
G01 X97.3388 Y38.1459
G01 X99.9581 Y39.6938
G01 X102.6966 Y42.4322
G01 X104.4825 Y45.5278
G01 X105.4350 Y48.8616
G01 X105.3159 Y53.8622
G01 X104.0063 Y57.5531
G01 X102.6966 Y59.5772
G01 X99.9581 Y62.3156
G01 X96.7434 Y64.1016
G01 X92.6953 Y65.0541
G01 X88.5281 Y64.8159
G01 X85.6706 Y63.8634
G01 X82.9322 Y62.1966
G01 X80.3128 Y59.5772
G01 X78.8841 Y57.3150
G01 X77.6934 Y53.8622
G01 Z0.0000
G01 X88.7663 Y51.3619
G01 Z-6.1665
G01 Z-7.1428 F900
G01 X89.2425 Y52.5525 F2500
G01 X90.1950 Y53.3859
G01 X91.5047 Y53.7431
G01 X93.0525 Y53.2669
G01 X94.0050 Y52.1953
G01 X94.2431 Y50.8856
G01 X93.7669 Y49.4569
G01 X92.5763 Y48.5044
G01 X91.2666 Y48.2663
G01 X89.8378 Y48.8616
G01 X88.8853 Y50.1713
G01 X88.7663 Y51.3619
G01 Z-7.6190 F900
G01 X89.2425 Y52.5525 F2500
G01 X90.1950 Y53.3859
G01 X91.5047 Y53.7431
G01 X93.0525 Y53.2669
G01 X94.0050 Y52.1953
G01 X94.2431 Y50.8856
G01 X93.7669 Y49.4569
G01 X92.5763 Y48.5044
G01 X91.2666 Y48.2663
G01 X89.8378 Y48.8616
G01 X88.8853 Y50.1713
G01 X88.7663 Y51.3619
G01 Z0.0000
G01 X77.6934 Y53.8622
G01 Z-6.6428
G01 Z-7.6190 F900
G01 X77.4553 Y50.0522 F2500
G01 X78.4078 Y45.8850
G01 X80.3128 Y42.4322
G01 X82.9322 Y39.8128
G01 X85.6706 Y38.1459
G01 X89.1234 Y37.0744
G01 X94.0050
G01 X97.3388 Y38.1459
G01 X99.9581 Y39.6938
G01 X102.6966 Y42.4322
G01 X104.4825 Y45.5278
G01 X105.4350 Y48.8616
G01 X105.3159 Y53.8622
G01 X104.0063 Y57.5531
G01 X102.6966 Y59.5772
G01 X99.9581 Y62.3156
G01 X96.7434 Y64.1016
G01 X92.6953 Y65.0541
G01 X88.5281 Y64.8159
G01 X85.6706 Y63.8634
G01 X82.9322 Y62.1966
G01 X80.3128 Y59.5772
G01 X78.8841 Y57.3150
G01 X77.6934 Y53.8622
G01 Z-8.0953 F900
G01 X77.4553 Y50.0522 F2500
G01 X78.4078 Y45.8850
G01 X80.3128 Y42.4322
G01 X82.9322 Y39.8128
G01 X85.6706 Y38.1459
G01 X89.1234 Y37.0744
G01 X94.0050
G01 X97.3388 Y38.1459
G01 X99.9581 Y39.6938
G01 X102.6966 Y42.4322
G01 X104.4825 Y45.5278
G01 X105.4350 Y48.8616
G01 X105.3159 Y53.8622
G01 X104.0063 Y57.5531
G01 X102.6966 Y59.5772
G01 X99.9581 Y62.3156
G01 X96.7434 Y64.1016
G01 X92.6953 Y65.0541
G01 X88.5281 Y64.8159
G01 X85.6706 Y63.8634
G01 X82.9322 Y62.1966
G01 X80.3128 Y59.5772
G01 X78.8841 Y57.3150
G01 X77.6934 Y53.8622
G01 Z0.0000
G01 X88.7663 Y51.3619
G01 Z-7.1190
G01 Z-8.0953 F900
G01 X89.2425 Y52.5525 F2500
G01 X90.1950 Y53.3859
G01 X91.5047 Y53.7431
G01 X93.0525 Y53.2669
G01 X94.0050 Y52.1953
G01 X94.2431 Y50.8856
G01 X93.7669 Y49.4569
G01 X92.5763 Y48.5044
G01 X91.2666 Y48.2663
G01 X89.8378 Y48.8616
G01 X88.8853 Y50.1713
G01 X88.7663 Y51.3619
G01 Z-8.5715 F900
G01 X89.2425 Y52.5525 F2500
G01 X90.1950 Y53.3859
G01 X91.5047 Y53.7431
G01 X93.0525 Y53.2669
G01 X94.0050 Y52.1953
G01 X94.2431 Y50.8856
G01 X93.7669 Y49.4569
G01 X92.5763 Y48.5044
G01 X91.2666 Y48.2663
G01 X89.8378 Y48.8616
G01 X88.8853 Y50.1713
G01 X88.7663 Y51.3619
G01 Z0.0000
G01 X77.6934 Y53.8622
G01 Z-7.5953
G01 Z-8.5715 F900
G01 X77.4553 Y50.0522 F2500
G01 X78.4078 Y45.8850
G01 X80.3128 Y42.4322
G01 X82.9322 Y39.8128
G01 X85.6706 Y38.1459
G01 X89.1234 Y37.0744
G01 X94.0050
G01 X97.3388 Y38.1459
G01 X99.9581 Y39.6938
G01 X102.6966 Y42.4322
G01 X104.4825 Y45.5278
G01 X105.4350 Y48.8616
G01 X105.3159 Y53.8622
G01 X104.0063 Y57.5531
G01 X102.6966 Y59.5772
G01 X99.9581 Y62.3156
G01 X96.7434 Y64.1016
G01 X92.6953 Y65.0541
G01 X88.5281 Y64.8159
G01 X85.6706 Y63.8634
G01 X82.9322 Y62.1966
G01 X80.3128 Y59.5772
G01 X78.8841 Y57.3150
G01 X77.6934 Y53.8622
G01 Z-9.0478 F900
G01 X77.4553 Y50.0522 F2500
G01 X78.4078 Y45.8850
G01 X80.3128 Y42.4322
G01 X82.9322 Y39.8128
G01 X85.6706 Y38.1459
G01 X89.1234 Y37.0744
G01 X94.0050
G01 X97.3388 Y38.1459
G01 X99.9581 Y39.6938
G01 X102.6966 Y42.4322
G01 X104.4825 Y45.5278
G01 X105.4350 Y48.8616
G01 X105.3159 Y53.8622
G01 X104.0063 Y57.5531
G01 X102.6966 Y59.5772
G01 X99.9581 Y62.3156
G01 X96.7434 Y64.1016
G01 X92.6953 Y65.0541
G01 X88.5281 Y64.8159
G01 X85.6706 Y63.8634
G01 X82.9322 Y62.1966
G01 X80.3128 Y59.5772
G01 X78.8841 Y57.3150
G01 X77.6934 Y53.8622
G01 Z0.0000
G01 X88.7663 Y51.3619
G01 Z-8.0715
G01 Z-9.0478 F900
G01 X89.2425 Y52.5525 F2500
G01 X90.1950 Y53.3859
G01 X91.5047 Y53.7431
G01 X93.0525 Y53.2669
G01 X94.0050 Y52.1953
G01 X94.2431 Y50.8856
G01 X93.7669 Y49.4569
G01 X92.5763 Y48.5044
G01 X91.2666 Y48.2663
G01 X89.8378 Y48.8616
G01 X88.8853 Y50.1713
G01 X88.7663 Y51.3619
G01 Z-9.5240 F900
G01 X89.2425 Y52.5525 F2500
G01 X90.1950 Y53.3859
G01 X91.5047 Y53.7431
G01 X93.0525 Y53.2669
G01 X94.0050 Y52.1953
G01 X94.2431 Y50.8856
G01 X93.7669 Y49.4569
G01 X92.5763 Y48.5044
G01 X91.2666 Y48.2663
G01 X89.8378 Y48.8616
G01 X88.8853 Y50.1713
G01 X88.7663 Y51.3619
G01 Z0.0000
G01 X77.6934 Y53.8622
G01 Z-8.5478
G01 Z-9.5240 F900
G01 X77.4553 Y50.0522 F2500
G01 X78.4078 Y45.8850
G01 X80.3128 Y42.4322
G01 X82.9322 Y39.8128
G01 X85.6706 Y38.1459
G01 X89.1234 Y37.0744
G01 X94.0050
G01 X97.3388 Y38.1459
G01 X99.9581 Y39.6938
G01 X102.6966 Y42.4322
G01 X104.4825 Y45.5278
G01 X105.4350 Y48.8616
G01 X105.3159 Y53.8622
G01 X104.0063 Y57.5531
G01 X102.6966 Y59.5772
G01 X99.9581 Y62.3156
G01 X96.7434 Y64.1016
G01 X92.6953 Y65.0541
G01 X88.5281 Y64.8159
G01 X85.6706 Y63.8634
G01 X82.9322 Y62.1966
G01 X80.3128 Y59.5772
G01 X78.8841 Y57.3150
G01 X77.6934 Y53.8622
G01 Z-10.0003 F900
G01 X77.4553 Y50.0522 F2500
G01 X78.4078 Y45.8850
G01 X80.3128 Y42.4322
G01 X82.9322 Y39.8128
G01 X85.6706 Y38.1459
G01 X89.1234 Y37.0744
G01 X94.0050
G01 X97.3388 Y38.1459
G01 X99.9581 Y39.6938
G01 X102.6966 Y42.4322
G01 X104.4825 Y45.5278
G01 X105.4350 Y48.8616
G01 X105.3159 Y53.8622
G01 X104.0063 Y57.5531
G01 X102.6966 Y59.5772
G01 X99.9581 Y62.3156
G01 X96.7434 Y64.1016
G01 X92.6953 Y65.0541
G01 X88.5281 Y64.8159
G01 X85.6706 Y63.8634
G01 X82.9322 Y62.1966
G01 X80.3128 Y59.5772
G01 X78.8841 Y57.3150
G01 X77.6934 Y53.8622
G01 Z0.0000
G01 X88.7663 Y51.3619
G01 Z-9.0240
G01 Z-10.0003 F900
G01 X89.2425 Y52.5525 F2500
G01 X90.1950 Y53.3859
G01 X91.5047 Y53.7431
G01 X93.0525 Y53.2669
G01 X94.0050 Y52.1953
G01 X94.2431 Y50.8856
G01 X93.7669 Y49.4569
G01 X92.5763 Y48.5044
G01 X91.2666 Y48.2663
G01 X89.8378 Y48.8616
G01 X88.8853 Y50.1713
G01 X88.7663 Y51.3619
G01 Z-10.4765 F900
G01 X89.2425 Y52.5525 F2500
G01 X90.1950 Y53.3859
G01 X91.5047 Y53.7431
G01 X93.0525 Y53.2669
G01 X94.0050 Y52.1953
G01 X94.2431 Y50.8856
G01 X93.7669 Y49.4569
G01 X92.5763 Y48.5044
G01 X91.2666 Y48.2663
G01 X89.8378 Y48.8616
G01 X88.8853 Y50.1713
G01 X88.7663 Y51.3619
G01 Z0.0000
G01 X77.6934 Y53.8622
G01 Z-9.5003
G01 Z-10.4765 F900
G01 X77.4553 Y50.0522 F2500
G01 X78.4078 Y45.8850
G01 X80.3128 Y42.4322
G01 X82.9322 Y39.8128
G01 X85.6706 Y38.1459
G01 X89.1234 Y37.0744
G01 X94.0050
G01 X97.3388 Y38.1459
G01 X99.9581 Y39.6938
G01 X102.6966 Y42.4322
G01 X104.4825 Y45.5278
G01 X105.4350 Y48.8616
G01 X105.3159 Y53.8622
G01 X104.0063 Y57.5531
G01 X102.6966 Y59.5772
G01 X99.9581 Y62.3156
G01 X96.7434 Y64.1016
G01 X92.6953 Y65.0541
G01 X88.5281 Y64.8159
G01 X85.6706 Y63.8634
G01 X82.9322 Y62.1966
G01 X80.3128 Y59.5772
G01 X78.8841 Y57.3150
G01 X77.6934 Y53.8622
G01 Z-9.9765
G01 X76.8600 Y53.2669
G01 Z-10.5000 F900
G01 X77.6934 Y56.2434 F2500
G01 X79.2413 Y59.2200
G01 X82.5750 Y62.7919
G01 X84.1228 Y63.8634
G01 X87.3375 Y65.1731
G01 X90.3141 Y65.7684
G01 X94.0050 Y65.6494
G01 X97.6959 Y64.4588
G01 X100.3153 Y62.9109
G01 X103.7681 Y59.2200
G01 X105.1969 Y56.6006
G01 X106.2684 Y51.9572
G01 X106.0303 Y48.0281
G01 X104.4825 Y43.8609
G01 X103.2919 Y42.0750
G01 X100.3153 Y39.0984
G01 X98.6484 Y38.0269
G01 X94.0050 Y36.3600
G01 X90.3141 Y36.2409
G01 X85.9088 Y37.3125
G01 X82.5750 Y39.2175
G01 X79.7175 Y42.0750
G01 X78.5269 Y43.8609
G01 X77.4553 Y46.4803
G01 X76.7409 Y49.9331
G01 X76.8600 Y53.2669
G01 Z-10.0000
G01 X76.3838 Y54.1003
G01 Z-10.5000 F900
G01 X77.5744 Y57.5531 F2500
G01 X79.2413 Y60.2916
G01 X83.7656 Y64.3397
G01 X87.3375 Y65.7684
G01 X90.3141 Y66.3638
G01 X94.0050 Y66.2447
G01 X99.0056 Y64.4588
G01 X100.6725 Y63.3872
G01 X103.7681 Y60.2916
G01 X105.0778 Y58.2675
G01 X106.6256 Y54.1003
G01 X106.8638 Y49.8141
G01 X105.7922 Y45.2897
G01 X103.7681 Y41.7178
G01 X100.6725 Y38.6222
G01 X97.4578 Y36.8363
G01 X94.0050 Y35.7647
G01 X88.5281 Y35.8838
G01 X84.9563 Y37.0744
G01 X82.2178 Y38.7413
G01 X79.2413 Y41.7178
G01 X78.0506 Y43.5038
G01 X76.3838 Y47.9091
G01 X76.1456 Y51.8381
G01 X76.3838 Y54.1003
G01 X75.7884 Y54.2194
G01 X76.9791 Y57.6722
G01 X78.7650 Y60.6488
G01 X83.4084 Y64.8159
G01 X87.3375 Y66.3638
G01 X90.3141 Y66.9591
G01 X94.0050 Y66.8400
G01 X99.3628 Y64.9350
G01 X101.0297 Y63.8634
G01 X104.2444 Y60.6488
G01 X105.5541 Y58.6247
G01 X107.2209 Y54.2194
G01 X107.4591 Y49.6950
G01 X106.3875 Y45.1706
G01 X104.2444 Y41.3606
G01 X101.0297 Y38.1459
G01 X97.8150 Y36.3600
G01 X94.0050 Y35.1694
G01 X88.5281 Y35.2884
G01 X83.4084 Y37.1934
G01 X78.7650 Y41.3606
G01 X76.5028 Y45.5278
G01 X75.5503 Y49.6950
G01 X75.7884 Y54.2194
G01 X75.1931 Y54.3384
G01 X76.3838 Y57.7913
G01 X78.2888 Y61.0059
G01 X81.5034 Y64.2206
G01 X83.0513 Y65.2922
G01 X87.3375 Y66.9591
G01 X90.3141 Y67.5544
G01 X94.0050 Y67.4353
G01 X99.7200 Y65.4113
G01 X101.3869 Y64.3397
G01 X104.7206 Y61.0059
G01 X106.0303 Y58.9819
G01 X107.8163 Y54.3384
G01 X108.0544 Y49.5759
G01 X106.9828 Y45.0516
G01 X104.7206 Y41.0034
G01 X101.3869 Y37.6697
G01 X98.7675 Y36.1219
G01 X94.0050 Y34.5741
G01 X89.1234
G01 X84.2419 Y36.1219
G01 X81.5034 Y37.7888
G01 X78.2888 Y41.0034
G01 X77.0981 Y42.7894
G01 X75.5503 Y46.4803
G01 X74.9550 Y49.5759
G01 X75.1931 Y54.3384
G01 X74.5978 Y54.4575
G01 X75.7884 Y57.9103
G01 X77.8125 Y61.3631
G01 X81.1463 Y64.6969
G01 X82.6941 Y65.7684
G01 X87.3375 Y67.5544
G01 X90.3141 Y68.1497
G01 X94.0050 Y68.0306
G01 X100.0772 Y65.8875
G01 X101.7441 Y64.8159
G01 X105.1969 Y61.3631
G01 X106.5066 Y59.3391
G01 X108.4116 Y54.4575
G01 X108.6497 Y49.4569
G01 X107.5781 Y44.9325
G01 X105.1969 Y40.6463
G01 X101.7441 Y37.1934
G01 X98.5294 Y35.4075
G01 X94.0050 Y33.9788
G01 X88.5281 Y34.0978
G01 X83.8847 Y35.6456
G01 X81.1463 Y37.3125
G01 X77.8125 Y40.6463
G01 X76.6219 Y42.4322
G01 X74.5978 Y47.5519
G01 X74.3597 Y52.3144
G01 X74.5978 Y54.4575
G01 X74.0025 Y54.5766
G01 X75.1931 Y58.0294
G01 X77.3363 Y61.7203
G01 X80.7891 Y65.1731
G01 X82.3369 Y66.2447
G01 X87.3375 Y68.1497
G01 X90.3141 Y68.7450
G01 X94.0050 Y68.6259
G01 X100.4344 Y66.3638
G01 X102.1013 Y65.2922
G01 X105.6731 Y61.7203
G01 X106.9828 Y59.6963
G01 X109.0069 Y54.5766
G01 X109.2450 Y49.3378
G01 X108.1734 Y44.8134
G01 X105.6731 Y40.2891
G01 X102.1013 Y36.7172
G01 X99.4819 Y35.1694
G01 X94.0050 Y33.3834
G01 X89.1234
G01 X83.5275 Y35.1694
G01 X80.7891 Y36.8363
G01 X77.3363 Y40.2891
G01 X74.5978 Y45.5278
G01 X73.7644 Y49.3378
G01 X74.0025 Y54.5766
G01 X73.4072 Y54.6956
G01 X74.5978 Y58.1484
G01 X76.8600 Y62.0775
G01 X80.4319 Y65.6494
G01 X81.9797 Y66.7209
G01 X87.3375 Y68.7450
G01 X90.3141 Y69.3403
G01 X94.0050 Y69.2213
G01 X100.7916 Y66.8400
G01 X102.4584 Y65.7684
G01 X106.1494 Y62.0775
G01 X107.4591 Y60.0534
G01 X109.6022 Y54.6956
G01 X109.8403 Y49.2188
G01 X108.7688 Y44.6944
G01 X106.1494 Y39.9319
G01 X102.4584 Y36.2409
G01 X99.2438 Y34.4550
G01 X94.0050 Y32.7881
G01 X88.5281 Y32.9072
G01 X83.1703 Y34.6931
G01 X80.4319 Y36.3600
G01 X76.8600 Y39.9319
G01 X75.6694 Y41.7178
G01 X73.5263 Y46.9566
G01 X73.1691 Y49.2188
G01 X73.4072 Y54.6956
G01 X72.8119 Y54.8147
G01 X74.0025 Y58.2675
G01 X76.3838 Y62.4347
G01 X80.0747 Y66.1256
G01 X81.6225 Y67.1972
G01 X87.3375 Y69.3403
G01 X90.3141 Y69.9356
G01 X94.0050 Y69.8166
G01 X101.1488 Y67.3163
G01 X102.8156 Y66.2447
G01 X106.6256 Y62.4347
G01 X107.9353 Y60.4106
G01 X110.1975 Y54.8147
G01 X110.4356 Y49.0997
G01 X109.3641 Y44.5753
G01 X106.6256 Y39.5747
G01 X102.8156 Y35.7647
G01 X100.1963 Y34.2169
G01 X94.0050 Y32.1928
G01 X88.5281 Y32.3119
G01 X82.8131 Y34.2169
G01 X80.0747 Y35.8838
G01 X76.3838 Y39.5747
G01 X75.1931 Y41.3606
G01 X73.5263 Y44.9325
G01 X72.6928 Y47.9091
G01 X72.8119 Y54.8147
G01 X72.2166 Y54.9338
G01 X73.4072 Y58.3866
G01 X75.9075 Y62.7919
G01 X79.7175 Y66.6019
G01 X81.2653 Y67.6734
G01 X87.3375 Y69.9356
G01 X90.3141 Y70.5309
G01 X94.0050 Y70.4119
G01 X101.5059 Y67.7925
G01 X103.1728 Y66.7209
G01 X107.1019 Y62.7919
G01 X108.4116 Y60.7678
G01 X110.7928 Y54.9338
G01 X111.0309 Y48.9806
G01 X110.7928 Y47.0756
G01 X109.7213 Y43.8609
G01 X107.1019 Y39.2175
G01 X103.1728 Y35.2884
G01 X100.5534 Y33.7406
G01 X94.0050 Y31.5975
G01 X89.1234
G01 X82.4559 Y33.7406
G01 X79.7175 Y35.4075
G01 X75.9075 Y39.2175
G01 X74.7169 Y41.0034
G01 X72.6928 Y45.5278
G01 X71.9784 Y48.9806
G01 X72.2166 Y54.9338
G01 X71.6213 Y55.0528
G01 X72.8119 Y58.5056
G01 X75.4313 Y63.1491
G01 X79.3603 Y67.0781
G01 X80.9081 Y68.1497
G01 X87.3375 Y70.5309
G01 X90.3141 Y71.1263
G01 X94.0050 Y71.0072
G01 X101.8631 Y68.2688
G01 X103.5300 Y67.1972
G01 X107.5781 Y63.1491
G01 X108.8878 Y61.1250
G01 X111.3881 Y55.0528
G01 X111.6263 Y48.8616
G01 X111.3881 Y46.9566
G01 X110.3166 Y43.7419
G01 X107.5781 Y38.8603
G01 X103.5300 Y34.8122
G01 X100.9106 Y33.2644
G01 X94.0050 Y31.0022
G01 X88.5281 Y31.1213
G01 X82.0988 Y33.2644
G01 X79.3603 Y34.9313
G01 X75.4313 Y38.8603
G01 X74.2406 Y40.6463
G01 X71.6213 Y46.9566
G01 X71.3831 Y52.6716
G01 X71.6213 Y55.0528
G01 X71.0259
G01 X72.2166 Y58.6247
G01 X73.6453 Y61.4822
G01 X74.9550 Y63.5063
G01 X78.4078 Y66.9591
G01 X78.2888 Y67.1972
G01 X75.6694 Y66.8400
G01 X73.4072 Y67.6734
G01 X72.9309
G01 X73.0500 Y64.6969
G01 X71.5022 Y61.4822
G01 X69.9544 Y59.9344
G01 X67.8113 Y59.2200
G01 X67.9303 Y58.8628
G01 X69.9544 Y56.8388
G01 X71.0259 Y55.0528
G01 Z-10.0000
G01 X69.4781 Y56.4816
G01 Z-10.5000 F900
G01 X71.1450 Y52.4334 F2500
G01 X70.9069 Y48.3853
G01 X69.4781 Y45.5278
G01 X66.6206 Y42.9084
G01 Y42.5513
G01 X69.5972 Y41.5988
G01 X71.0259 Y40.1700
G01 X72.4547 Y37.1934
G01 Y34.8122
G01 X71.8594 Y33.3834
G01 X75.3122 Y34.4550
G01 X77.2172 Y34.5741
G01 X81.7416 Y33.1453
G01 X84.5991 Y30.2878
G01 X85.9088 Y27.6684
G01 X86.1469 Y25.5253
G01 X87.6947 Y26.7159
G01 X91.2666 Y27.9066
G01 X95.3147 Y26.7159
G01 X96.8625 Y25.5253
G01 X97.1006 Y27.6684
G01 X98.4103 Y30.2878
G01 X101.1488 Y33.0263
G01 X105.9113 Y34.5741
G01 X107.2209
G01 X111.1500 Y33.3834
G01 X110.5547 Y34.6931
G01 Y37.3125
G01 X111.9834 Y40.1700
G01 X113.4122 Y41.5988
G01 X116.5078 Y42.6703
G01 X113.5313 Y45.5278
G01 X112.1025 Y48.3853
G01 X111.8644 Y52.6716
G01 X113.5313 Y56.4816
G01 X116.6269 Y59.3391
G01 X113.4122 Y60.4106
G01 X111.9834 Y61.8394
G01 X110.5547 Y64.6969
G01 Y67.3163
G01 X111.1500 Y68.6259
G01 X107.3400 Y67.4353
G01 X105.6731
G01 X101.1488 Y68.9831
G01 X98.4103 Y71.7216
G01 X97.1006 Y74.3409
G01 X96.8625 Y76.4841
G01 X95.3147 Y75.2934
G01 X91.3856 Y74.1028
G01 X87.6947 Y75.2934
G01 X86.1469 Y76.4841
G01 X85.9088 Y74.3409
G01 X84.5991 Y71.7216
G01 X81.7416 Y68.8641
G01 X77.3363 Y67.4353
G01 X75.6694
G01 X71.8594 Y68.6259
G01 X72.4547 Y67.1972
G01 Y64.8159
G01 X71.0259 Y61.8394
G01 X69.5972 Y60.4106
G01 X66.5016 Y59.3391
G01 X69.4781 Y56.4816
G01 X69.0019 Y56.1244
G01 X70.3116 Y53.5050
G01 X70.4306 Y48.9806
G01 X69.0019 Y45.8850
G01 X66.6206 Y43.5038
G01 X61.6200 Y41.9559
G01 X59.1197 Y42.5513
G01 X59.3578 Y41.2416
G01 X59.8341 Y39.5747
G01 X60.3103 Y39.3366
G01 X61.9772 Y41.2416
G01 X65.7872 Y42.3131
G01 X69.2400 Y41.1225
G01 X70.5497 Y39.8128
G01 X71.8594 Y37.0744
G01 Y34.9313
G01 X70.5497 Y32.1928
G01 X69.2400 Y30.8831
G01 X65.6681 Y29.6925
G01 X67.4541 Y27.3113
G01 X68.8828 Y29.9306
G01 X71.0259 Y32.1928
G01 X75.9075 Y33.9788
G01 X77.2172
G01 X81.3844 Y32.6691
G01 X83.6466 Y30.5259
G01 X85.4325 Y27.0731
G01 Y23.1441
G01 X87.8138 Y26.1206
G01 X91.2666 Y27.3113
G01 X95.1956 Y26.1206
G01 X97.5769 Y23.1441
G01 Y27.0731
G01 X98.8866 Y29.9306
G01 X101.5059 Y32.5500
G01 X105.9113 Y33.9788
G01 X107.2209
G01 X111.3881 Y32.6691
G01 X114.1266 Y29.9306
G01 X115.1981 Y27.4303
G01 X115.5553 Y27.3113
G01 X117.3413 Y29.6925
G01 X113.7694 Y30.8831
G01 X112.4597 Y32.1928
G01 X111.1500 Y34.8122
G01 Y37.1934
G01 X112.4597 Y39.8128
G01 X114.0075 Y41.2416
G01 X117.8175 Y42.3131
G01 X121.0322 Y41.2416
G01 X122.6991 Y39.3366
G01 X123.0563
G01 X123.8897 Y42.5513
G01 X121.3894 Y41.9559
G01 X116.2697 Y43.6228
G01 X114.0075 Y45.8850
G01 X112.6978 Y48.5044
G01 X112.4597 Y52.5525
G01 X114.0075 Y56.1244
G01 X116.2697 Y58.3866
G01 X121.3894 Y60.0534
G01 X123.8897 Y59.4581
G01 X123.1753 Y62.4347
G01 X122.6991 Y62.6728
G01 X121.0322 Y60.7678
G01 X117.8175 Y59.6963
G01 X113.7694 Y60.8869
G01 X112.4597 Y62.1966
G01 X111.1500 Y64.8159
G01 Y67.1972
G01 X112.4597 Y69.8166
G01 X113.7694 Y71.1263
G01 X117.3413 Y72.3169
G01 X115.6744 Y74.5791
G01 X115.1981
G01 X113.6503 Y71.4834
G01 X111.3881 Y69.3403
G01 X107.3400 Y68.0306
G01 X105.6731
G01 X101.5059 Y69.4594
G01 X98.8866 Y72.0788
G01 X97.5769 Y74.9363
G01 Y78.8653
G01 X95.1956 Y75.8888
G01 X91.7428 Y74.6981
G01 X87.8138 Y75.8888
G01 X85.4325 Y78.7463
G01 Y74.9363
G01 X84.1228 Y72.0788
G01 X81.3844 Y69.3403
G01 X77.3363 Y68.0306
G01 X75.6694
G01 X71.5022 Y69.4594
G01 X68.8828 Y72.0788
G01 X67.4541 Y74.6981
G01 X65.6681 Y72.3169
G01 X69.2400 Y71.1263
G01 X70.5497 Y69.8166
G01 X71.8594 Y67.0781
G01 Y64.9350
G01 X70.5497 Y62.1966
G01 X69.0019 Y60.7678
G01 X65.1919 Y59.6963
G01 X61.9772 Y60.7678
G01 X59.9531 Y62.6728
G01 X59.1197 Y59.4581
G01 X61.6200 Y60.0534
G01 X66.6206 Y58.5056
G01 X69.0019 Y56.1244
G01 X68.5256 Y55.7672
G01 X69.7163 Y53.3859
G01 X69.8353 Y49.0997
G01 X68.5256 Y46.2422
G01 X66.2634 Y43.9800
G01 X61.6200 Y42.5513
G01 X58.2863 Y43.3847
G01 X58.4053 Y42.4322
G01 X59.9531 Y37.7888
G01 X62.3344 Y40.7653
G01 X65.1919 Y41.7178
G01 X68.6447 Y40.7653
G01 X70.0734 Y39.4556
G01 X71.2641 Y36.9553
G01 Y35.0503
G01 X70.0734 Y32.5500
G01 X68.8828 Y31.3594
G01 X65.7872 Y30.2878
G01 X64.0013 Y30.6450
G01 X67.8113 Y26.2397
G01 X68.1684
G01 X68.2875 Y27.4303
G01 X69.3591 Y29.5734
G01 X72.0975 Y32.1928
G01 X75.3122 Y33.2644
G01 X77.2172 Y33.3834
G01 X81.5034 Y31.8356
G01 X83.6466 Y29.5734
G01 X84.8372 Y26.9541
G01 X84.7181 Y22.6678
G01 X83.5275 Y20.2866
G01 X81.5034 Y18.2625
G01 X83.7656 Y17.4291
G01 X87.3375 Y16.9528
G01 X85.7897 Y19.8103
G01 Y22.1916
G01 X86.8613 Y24.3347
G01 X88.1709 Y25.6444
G01 X91.2666 Y26.7159
G01 X94.8384 Y25.6444
G01 X96.1481 Y24.3347
G01 X97.1006 Y22.4297
G01 X97.2197 Y19.9294
G01 X95.6719 Y16.9528
G01 X101.5059 Y18.0244
G01 X99.4819 Y20.2866
G01 X98.2913 Y22.6678
G01 X98.1722 Y26.9541
G01 X99.3628 Y29.5734
G01 X101.3869 Y31.7166
G01 X105.3159 Y33.2644
G01 X107.2209 Y33.3834
G01 X111.0309 Y32.1928
G01 X113.6503 Y29.5734
G01 X114.6028 Y27.6684
G01 X114.8409 Y26.2397
G01 X115.3172
G01 X117.1031 Y28.1447
G01 X119.0081 Y30.6450
G01 X117.2222 Y30.2878
G01 X114.1266 Y31.3594
G01 X112.9359 Y32.5500
G01 X111.7453 Y34.9313
G01 Y37.0744
G01 X112.6978 Y38.9794
G01 X114.1266 Y40.6463
G01 X117.8175 Y41.7178
G01 X120.6750 Y40.7653
G01 X123.0563 Y37.7888
G01 X124.7231 Y43.3847
G01 X121.3894 Y42.5513
G01 X116.6269 Y44.0991
G01 X114.4838 Y46.2422
G01 X113.2931 Y48.6234
G01 X113.0550 Y52.4334
G01 X114.4838 Y55.7672
G01 X116.6269 Y57.9103
G01 X121.3894 Y59.4581
G01 X124.7231 Y58.6247
G01 X123.7706 Y62.5538
G01 X123.1753 Y64.1016
G01 X122.8181 Y64.2206
G01 X122.1038 Y62.6728
G01 X120.6750 Y61.2441
G01 X117.8175 Y60.2916
G01 X114.3647 Y61.2441
G01 X112.9359 Y62.5538
G01 X111.7453 Y64.9350
G01 Y67.0781
G01 X112.9359 Y69.4594
G01 X114.1266 Y70.6500
G01 X117.3413 Y71.7216
G01 X119.0081 Y71.2453
G01 X115.3172 Y75.7697
G01 X114.8409
G01 X114.6028 Y74.3409
G01 X113.6503 Y72.4359
G01 X111.0309 Y69.8166
G01 X107.3400 Y68.6259
G01 X105.6731
G01 X101.3869 Y70.2928
G01 X99.3628 Y72.4359
G01 X98.2913 Y74.5791
G01 X98.0531 Y78.1509
G01 X99.4819 Y81.7228
G01 X101.5059 Y83.9850
G01 X96.1481 Y85.0566
G01 X95.6719 Y84.8184
G01 X97.2197 Y82.0800
G01 X97.1006 Y79.5797
G01 X96.1481 Y77.6747
G01 X94.8384 Y76.3650
G01 X91.7428 Y75.2934
G01 X88.1709 Y76.3650
G01 X86.7422 Y77.7938
G01 X85.7897 Y79.6988
G01 Y82.1991
G01 X87.3375 Y85.0566
G01 X81.5034 Y83.9850
G01 X83.5275 Y81.7228
G01 X84.7181 Y79.3416
G01 X84.9563 Y75.8888
G01 X84.7181 Y74.5791
G01 X83.6466 Y72.4359
G01 X81.0272 Y69.8166
G01 X77.3363 Y68.6259
G01 X75.6694
G01 X71.3831 Y70.2928
G01 X69.3591 Y72.4359
G01 X68.2875 Y74.5791
G01 X68.1684 Y75.7697
G01 X67.5731 Y75.6506
G01 X65.9063 Y73.8647
G01 X64.1203 Y71.3644
G01 X65.6681 Y71.7216
G01 X68.8828 Y70.6500
G01 X70.0734 Y69.4594
G01 X71.1450 Y67.3163
G01 Y64.6969
G01 X70.0734 Y62.5538
G01 X68.8828 Y61.3631
G01 X65.7872 Y60.2916
G01 X62.3344 Y61.2441
G01 X60.7866 Y62.7919
G01 X60.1913 Y64.1016
G01 X59.8341
G01 X58.2863 Y58.6247
G01 X61.6200 Y59.4581
G01 X66.2634 Y58.0294
G01 X68.5256 Y55.7672
G01 X68.0494 Y55.4100
G01 X69.1209 Y53.2669
G01 X69.3591 Y52.0763
G01 X69.1209 Y48.7425
G01 X68.0494 Y46.5994
G01 X65.4300 Y44.2181
G01 X61.6200 Y43.1466
G01 X57.9291 Y44.2181
G01 X57.4528
G01 Y43.7419
G01 X58.6434 Y39.3366
G01 X60.1913 Y35.5266
G01 X60.4294 Y37.0744
G01 X61.3819 Y38.9794
G01 X62.6916 Y40.2891
G01 X65.7872 Y41.1225
G01 X68.5256 Y40.1700
G01 X69.5972 Y39.0984
G01 X70.6688 Y36.8363
G01 Y35.1694
G01 X69.5972 Y32.9072
G01 X68.5256 Y31.8356
G01 X65.7872 Y30.8831
G01 X62.5725 Y31.5975
G01 X65.4300 Y27.7875
G01 X68.4066 Y24.8109
G01 X68.8828 Y27.3113
G01 X69.8353 Y29.2163
G01 X72.4547 Y31.7166
G01 X75.3122 Y32.6691
G01 X77.2172 Y32.7881
G01 X80.6700 Y31.7166
G01 X82.6941 Y29.8116
G01 X84.2419 Y26.8350
G01 Y23.1441
G01 X83.0513 Y20.6438
G01 X80.9081 Y18.5006
G01 X79.8366 Y18.1434
G01 X80.9081 Y17.5481
G01 X85.1944 Y16.5956
G01 X90.0759 Y16.1194
G01 X88.5281 Y16.8338
G01 X87.3375 Y18.0244
G01 X86.3850 Y19.9294
G01 Y22.0725
G01 X87.3375 Y23.9775
G01 X88.5281 Y25.1681
G01 X91.2666 Y26.1206
G01 X94.4813 Y25.1681
G01 X95.6719 Y23.9775
G01 X96.6244 Y21.9534
G01 Y20.0484
G01 X95.6719 Y18.0244
G01 X94.4813 Y16.8338
G01 X92.9334 Y16.1194
G01 X98.5294 Y16.7147
G01 X103.1728 Y17.9053
G01 X100.3153 Y20.1675
G01 X98.8866 Y22.7869
G01 X98.7675 Y26.8350
G01 X99.8391 Y29.2163
G01 X101.7441 Y31.2403
G01 X105.3159 Y32.6691
G01 X107.2209 Y32.7881
G01 X111.1500 Y31.3594
G01 X113.1741 Y29.2163
G01 X114.0075 Y27.5494
G01 X114.3647 Y24.8109
G01 X117.5794 Y27.7875
G01 X120.6750 Y31.8356
G01 X117.4603 Y30.8831
G01 X114.4838 Y31.8356
G01 X113.4122 Y32.9072
G01 X112.3406 Y35.0503
G01 Y36.9553
G01 X113.4122 Y39.0984
G01 X114.4838 Y40.1700
G01 X117.8175 Y41.1225
G01 X120.3178 Y40.2891
G01 X121.6275 Y38.9794
G01 X122.5800 Y37.0744
G01 X122.8181 Y35.5266
G01 X124.6041 Y40.0509
G01 X125.5566 Y44.2181
G01 X121.3894 Y43.1466
G01 X116.9841 Y44.5753
G01 X114.9600 Y46.5994
G01 X113.8884 Y48.7425
G01 X113.6503 Y52.3144
G01 X114.9600 Y55.4100
G01 X117.4603 Y57.6722
G01 X121.3894 Y58.8628
G01 X125.5566 Y57.7913
G01 X123.6516 Y64.5778
G01 X122.5800 Y66.4828
G01 Y64.9350
G01 X121.6275 Y63.0300
G01 X120.3178 Y61.7203
G01 X117.8175 Y60.8869
G01 X114.7219 Y61.7203
G01 X113.4122 Y62.9109
G01 X112.3406 Y65.0541
G01 Y66.9591
G01 X113.4122 Y69.1022
G01 X114.4838 Y70.1738
G01 X117.3413 Y71.1263
G01 X120.4369 Y70.1738
G01 X118.2938 Y73.3884
G01 X114.6028 Y77.1984
G01 X114.0075 Y74.4600
G01 X113.1741 Y72.7931
G01 X110.6738 Y70.2928
G01 X107.3400 Y69.2213
G01 X105.6731
G01 X102.2203 Y70.4119
G01 X99.8391 Y72.7931
G01 X98.8866 Y74.6981
G01 X98.6484 Y78.0319
G01 X99.9581 Y81.3656
G01 X101.7441 Y83.2706
G01 X103.1728 Y84.1041
G01 X98.5294 Y85.2947
G01 X94.6003 Y85.7709
G01 X93.1716 Y85.5328
G01 X94.4813 Y85.1756
G01 X95.6719 Y83.9850
G01 X96.6244 Y81.9609
G01 Y80.0559
G01 X95.6719 Y78.0319
G01 X94.4813 Y76.8413
G01 X91.7428 Y75.8888
G01 X88.5281 Y76.8413
G01 X87.2184 Y78.1509
G01 X86.3850 Y79.8178
G01 Y82.0800
G01 X87.3375 Y83.9850
G01 X88.5281 Y85.1756
G01 X89.8378 Y85.7709
G01 X83.7656 Y85.1756
G01 X79.8366 Y84.1041
G01 X80.9081 Y83.5088
G01 X83.0513 Y81.3656
G01 X84.3609 Y78.0319
G01 X84.1228 Y74.6981
G01 X83.1703 Y72.7931
G01 X80.6700 Y70.2928
G01 X77.3363 Y69.2213
G01 X75.6694
G01 X72.2166 Y70.4119
G01 X69.8353 Y72.7931
G01 X68.8828 Y74.6981
G01 X68.6447 Y77.1984
G01 X65.4300 Y74.2219
G01 X62.5725 Y70.2928
G01 X65.6681 Y71.1263
G01 X68.5256 Y70.1738
G01 X69.5972 Y69.1022
G01 X70.5497 Y67.1972
G01 Y64.8159
G01 X69.5972 Y62.9109
G01 X68.5256 Y61.8394
G01 X65.1919 Y60.8869
G01 X62.6916 Y61.7203
G01 X61.2628 Y63.1491
G01 X60.4294 Y64.8159
G01 X60.1913 Y66.4828
G01 X58.4053 Y61.9584
G01 X57.4528 Y57.6722
G01 X61.6200 Y58.8628
G01 X65.9063 Y57.5531
G01 X68.0494 Y55.4100
G01 X67.5731 Y55.0528
G01 X68.5256 Y53.1478
G01 X68.7638 Y51.9572
G01 X68.5256 Y48.8616
G01 X67.5731 Y46.9566
G01 X65.5491 Y44.9325
G01 X62.9297 Y43.9800
G01 X61.3819 Y43.7419
G01 X60.1913 Y43.9800
G01 X56.5003 Y45.6469
G01 X58.0481 Y39.2175
G01 X60.6675 Y33.2644
G01 X64.9538 Y27.4303
G01 X69.1209 Y23.5013
G01 X69.4781 Y27.1922
G01 X70.7878 Y29.4544
G01 X72.8119 Y31.2403
G01 X75.3122 Y32.0738
G01 X77.2172 Y32.1928
G01 X80.3128 Y31.2403
G01 X82.2178 Y29.4544
G01 X83.6466 Y26.7159
G01 Y23.2631
G01 X82.5750 Y21.0009
G01 X80.5509 Y18.9769
G01 X78.2888 Y18.1434
G01 X80.4319 Y17.0719
G01 X88.8853 Y15.5241
G01 X94.1241
G01 X99.7200 Y16.3575
G01 X104.7206 Y17.9053
G01 Y18.2625
G01 X102.1013 Y19.2150
G01 X100.4344 Y21.0009
G01 X99.3628 Y23.2631
G01 X99.2438 Y25.8825
G01 X99.4819 Y27.1922
G01 X100.7916 Y29.4544
G01 X102.5775 Y31.1213
G01 X105.3159 Y32.0738
G01 X107.2209 Y32.1928
G01 X110.3166 Y31.2403
G01 X112.2216 Y29.4544
G01 X113.6503 Y26.5969
G01 Y23.5013
G01 X116.0316 Y25.2872
G01 X118.0556 Y27.4303
G01 X120.4369 Y30.4069
G01 X123.1753 Y34.8122
G01 X125.1994 Y39.9319
G01 X126.5091 Y45.6469
G01 X125.0803 Y44.6944
G01 X121.6275 Y43.7419
G01 X117.3413 Y45.0516
G01 X115.4363 Y46.9566
G01 X114.4838 Y48.8616
G01 X114.2456 Y52.1953
G01 X115.4363 Y55.0528
G01 X117.8175 Y57.1959
G01 X121.6275 Y58.2675
G01 X125.3184 Y57.1959
G01 X126.3900 Y56.3625
G01 X125.1994 Y62.0775
G01 X123.7706 Y65.8875
G01 X119.7225 Y72.5550
G01 X117.1031 Y75.6506
G01 X113.8884 Y78.5081
G01 X113.4122 Y74.5791
G01 X112.2216 Y72.5550
G01 X110.3166 Y70.7691
G01 X107.3400 Y69.8166
G01 X105.6731
G01 X102.5775 Y70.8881
G01 X100.3153 Y73.1503
G01 X99.4819 Y74.8172
G01 X99.2438 Y77.9128
G01 X99.4819 Y79.1034
G01 X100.7916 Y81.4847
G01 X102.1013 Y82.7944
G01 X104.7206 Y83.7469
G01 Y84.1041
G01 X98.5294 Y85.8900
G01 X92.6953 Y86.4853
G01 X85.1944 Y86.0091
G01 X78.2888 Y84.1041
G01 X78.4078 Y83.7469
G01 X80.5509 Y83.0325
G01 X82.5750 Y81.0084
G01 X83.7656 Y77.9128
G01 X83.5275 Y74.8172
G01 X82.6941 Y73.1503
G01 X80.3128 Y70.7691
G01 X77.3363 Y69.8166
G01 X75.6694
G01 X72.5738 Y70.8881
G01 X70.3116 Y73.1503
G01 X69.4781 Y74.8172
G01 X69.3591 Y78.5081
G01 X68.0494 Y77.6747
G01 X64.9538 Y74.5791
G01 X61.3819 Y69.8166
G01 X59.3578 Y66.1256
G01 X57.8100 Y62.0775
G01 X56.6194 Y56.4816
G01 X57.8100 Y57.1959
G01 X61.3819 Y58.2675
G01 X65.5491 Y57.0769
G01 X67.5731 Y55.0528
G01 X67.0969 Y54.6956
G01 X67.9303 Y53.0288
G01 X68.0494 Y49.4569
G01 X67.0969 Y47.3138
G01 X65.1919 Y45.4088
G01 X62.4534 Y44.4563
G01 X60.6675
G01 X58.4053 Y45.1706
G01 X55.7859 Y47.1947
G01 X56.5003 Y42.5513
G01 X59.2388 Y34.6931
G01 X62.0963 Y30.0497
G01 X65.5491 Y25.8825
G01 X70.5497 Y21.5963
G01 X69.8353 Y24.2156
G01 X69.9544 Y26.5969
G01 X70.7878 Y28.5019
G01 X72.4547 Y30.2878
G01 X75.9075 Y31.5975
G01 X78.1697 Y31.3594
G01 X80.4319 Y30.4069
G01 X82.2178 Y28.5019
G01 X82.9322 Y27.0731
G01 X83.0513 Y23.3822
G01 X82.0988 Y21.3581
G01 X80.1938 Y19.4531
G01 X76.3838 Y18.1434
G01 X80.0747 Y16.5956
G01 X83.7656 Y15.6431
G01 X88.8853 Y14.9288
G01 X94.1241
G01 X102.5775 Y16.4766
G01 X106.6256 Y18.1434
G01 X102.4584 Y19.6913
G01 X100.9106 Y21.3581
G01 X99.9581 Y23.3822
G01 X100.0772 Y27.0731
G01 X101.2678 Y29.0972
G01 X103.1728 Y30.7641
G01 X105.3159 Y31.4784
G01 X107.2209 Y31.5975
G01 X110.4356 Y30.4069
G01 X112.2216 Y28.5019
G01 X113.0550 Y26.4778
G01 X113.1741 Y24.2156
G01 X112.3406 Y21.7153
G01 X116.3888 Y24.8109
G01 X119.2463 Y27.9066
G01 X122.8181 Y32.9072
G01 X124.3659 Y36.0028
G01 X126.0328 Y40.6463
G01 X127.2234 Y47.1947
G01 X125.1994 Y45.4088
G01 X122.4609 Y44.4563
G01 X120.6750
G01 X118.4128 Y45.1706
G01 X115.9125 Y47.3138
G01 X114.8409 Y49.9331
G01 Y52.0763
G01 X115.9125 Y54.6956
G01 X117.6984 Y56.4816
G01 X120.6750 Y57.5531
G01 X122.3419
G01 X124.9613 Y56.7197
G01 X127.2234 Y54.8147
G01 X125.7947 Y62.1966
G01 X124.3659 Y66.0066
G01 X122.1038 Y70.1738
G01 X119.2463 Y74.1028
G01 X116.3888 Y77.1984
G01 X112.4597 Y80.4131
G01 X112.2216 Y80.2941
G01 X113.1741 Y77.7938
G01 X113.0550 Y75.5316
G01 X112.2216 Y73.5075
G01 X110.4356 Y71.6025
G01 X107.3400 Y70.4119
G01 X105.6731
G01 X102.9347 Y71.3644
G01 X100.7916 Y73.5075
G01 X100.0772 Y74.9363
G01 Y78.9844
G01 X100.9106 Y80.6513
G01 X102.4584 Y82.3181
G01 X106.6256 Y83.8659
G01 X103.2919 Y85.2947
G01 X99.7200 Y86.2472
G01 X92.6953 Y87.0806
G01 X83.7656 Y86.3663
G01 X80.0747 Y85.4138
G01 X76.3838 Y83.8659
G01 X80.1938 Y82.5563
G01 X82.0988 Y80.6513
G01 X82.9322 Y78.9844
G01 X83.1703 Y77.7938
G01 X82.9322 Y74.9363
G01 X81.7416 Y72.9122
G01 X79.9556 Y71.2453
G01 X77.3363 Y70.4119
G01 X75.6694
G01 X73.1691 Y71.2453
G01 X72.0975 Y72.0788
G01 X70.7878 Y73.5075
G01 X69.9544 Y75.4125
G01 Y78.5081
G01 X70.7878 Y80.4131
G01 X67.6922 Y78.1509
G01 X63.7631 Y74.1028
G01 X60.9056 Y70.1738
G01 X58.7625 Y66.2447
G01 X57.2147 Y62.1966
G01 X55.7859 Y54.8147
G01 X57.6909 Y56.4816
G01 X60.6675 Y57.5531
G01 X62.3344
G01 X64.9538 Y56.7197
G01 X67.0969 Y54.6956
G01 X66.6206 Y54.3384
G01 X67.5731 Y51.7191
G01 X67.4541 Y49.5759
G01 X66.6206 Y47.6709
G01 X64.3584 Y45.6469
G01 X62.4534 Y45.0516
G01 X60.6675
G01 X58.0481 Y46.0041
G01 X56.3813 Y47.6709
G01 X55.5478 Y49.5759
G01 Y52.4334
G01 X56.3813 Y54.3384
G01 X58.0481 Y56.0053
G01 X61.3819 Y57.0769
G01 X64.8347 Y56.1244
G01 X66.6206 Y54.3384
G01 X66.1444 Y53.9813
G01 X66.9778 Y51.6000
G01 X66.8588 Y49.6950
G01 X66.1444 Y48.0281
G01 X64.4775 Y46.3613
G01 X61.3819 Y45.5278
G01 X58.4053 Y46.4803
G01 X56.5003 Y48.7425
G01 X56.0241 Y51.6000
G01 X56.8575 Y53.9813
G01 X58.4053 Y55.5291
G01 X61.3819 Y56.4816
G01 X64.4775 Y55.6481
G01 X66.1444 Y53.9813
G01 X65.6681 Y53.6241
G01 X66.3825 Y51.4809
G01 X66.2634 Y49.8141
G01 X65.6681 Y48.3853
G01 X64.1203 Y46.8375
G01 X61.6200 Y46.1231
G01 X58.7625 Y46.9566
G01 X57.3338 Y48.3853
G01 X56.6194 Y51.1238
G01 X57.3338 Y53.6241
G01 X58.7625 Y55.0528
G01 X61.3819 Y55.8863
G01 X64.1203 Y55.1719
G01 X65.6681 Y53.6241
G01 X65.1919 Y53.2669
G01 X65.7872 Y51.3619
G01 X65.1919 Y48.7425
G01 X63.7631 Y47.3138
G01 X61.3819 Y46.7184
G01 X59.1197 Y47.4328
G01 X57.4528 Y49.4569
G01 X57.2147 Y51.3619
G01 X57.8100 Y53.2669
G01 X59.1197 Y54.5766
G01 X61.3819 Y55.2909
G01 X63.7631 Y54.6956
G01 X65.1919 Y53.2669
G01 Z-10.0000
G01 X68.8828 Y58.7438
G01 Z-10.5000 F900
G01 X70.9069 Y56.6006 F2500
G01 X73.1691 Y61.8394
G01 X74.4788 Y63.8634
G01 X76.6219 Y66.0066
G01 X74.1216 Y66.8400
G01 X73.6453
G01 Y64.5778
G01 X71.9784 Y61.1250
G01 X70.3116 Y59.4581
G01 X68.8828 Y58.7438
G01 Z-10.0000
G01 X69.9544
G01 Z-10.5000 F900
G01 X70.0734 Y58.3866 F2500
G01 X70.7878 Y58.0294
G01 X71.3831 Y59.4581
G01 X69.9544 Y58.7438
G01 Z-10.0000
G01 X67.9303 Y62.1966
G01 Z-10.5000 F900
G01 X65.1919 Y61.4822 F2500
G01 X63.0488 Y62.1966
G01 X61.2628 Y64.4588
G01 X61.0247 Y66.9591
G01 X61.8581 Y68.6259
G01 X62.9297 Y69.6975
G01 X65.3109 Y70.5309
G01 X68.1684 Y69.6975
G01 X69.1209 Y68.7450
G01 X70.0734 Y66.7209
G01 Y65.2922
G01 X69.1209 Y63.2681
G01 X67.9303 Y62.1966
G01 X67.5731 Y62.6728
G01 X65.1919 Y62.0775
G01 X63.4059 Y62.6728
G01 X62.0963 Y64.1016
G01 X61.6200 Y65.0541
G01 Y66.8400
G01 X62.3344 Y68.2688
G01 X63.2869 Y69.2213
G01 X65.3109 Y69.9356
G01 X67.8113 Y69.2213
G01 X68.6447 Y68.3878
G01 X69.4781 Y66.6019
G01 Y65.4113
G01 X68.6447 Y63.6253
G01 X67.5731 Y62.6728
G01 X67.2159 Y63.1491
G01 X65.1919 Y62.6728
G01 X63.7631 Y63.1491
G01 X62.2153 Y65.1731
G01 Y66.7209
G01 X62.8106 Y67.9116
G01 X63.6441 Y68.7450
G01 X65.3109 Y69.3403
G01 X67.4541 Y68.7450
G01 X68.1684 Y68.0306
G01 X68.8828 Y66.4828
G01 Y65.5303
G01 X68.1684 Y63.9825
G01 X67.2159 Y63.1491
G01 X66.8588 Y63.6253
G01 X65.1919 Y63.2681
G01 X64.1203 Y63.6253
G01 X63.1678 Y64.5778
G01 X62.8106 Y66.6019
G01 X63.2869 Y67.5544
G01 X64.0013 Y68.2688
G01 X65.3109 Y68.7450
G01 X67.0969 Y68.2688
G01 X67.6922 Y67.6734
G01 X68.2875 Y66.3638
G01 X67.6922 Y64.3397
G01 X66.8588 Y63.6253
G01 X66.7397 Y64.2206
G01 X65.7872 Y63.8634
G01 X64.4775 Y64.1016
G01 X64.0013 Y64.5778
G01 X63.4059 Y65.4113
G01 Y66.4828
G01 X64.3584 Y67.7925
G01 X65.3109 Y68.1497
G01 X66.7397 Y67.7925
G01 X67.2159 Y67.3163
G01 X67.6922 Y66.2447
G01 X67.5731 Y65.4113
G01 X66.7397 Y64.2206
G01 Y65.0541
G01 X65.1919 Y64.4588
G01 X64.0013 Y65.5303
G01 X64.2394 Y66.8400
G01 X65.3109 Y67.5544
G01 X66.7397 Y66.9591
G01 X67.0969 Y66.1256
G01 X66.7397 Y65.0541
G01 Z-10.0000
G01 X68.1684 Y72.0788
G01 Z-10.5000 F900
G01 X67.5731 Y73.5075 F2500
G01 X66.9778 Y73.2694
G01 X66.6206 Y72.5550
G01 X68.1684 Y72.0788
G01 Z-10.0000
G01 X70.6688 Y75.0553
G01 Z-10.5000 F900
G01 X70.4306 Y77.6747 F2500
G01 X71.3831 Y80.2941
G01 X72.8119 Y81.8419
G01 X76.1456 Y83.0325
G01 X79.8366 Y82.0800
G01 X81.6225 Y80.2941
G01 X82.5750 Y77.6747
G01 X82.4559 Y75.5316
G01 X81.7416 Y73.8647
G01 X79.5984 Y71.7216
G01 X77.3363 Y71.0072
G01 X75.6694
G01 X72.8119 Y72.1978
G01 X70.6688 Y75.0553
G01 X71.1450 Y75.6506
G01 X71.0259 Y77.5556
G01 X71.8594 Y79.9369
G01 X73.1691 Y81.3656
G01 X76.1456 Y82.4372
G01 X79.4794 Y81.6038
G01 X81.1463 Y79.9369
G01 X81.9797 Y77.5556
G01 X81.8606 Y75.6506
G01 X81.2653 Y74.2219
G01 X79.2413 Y72.1978
G01 X77.3363 Y71.6025
G01 X75.6694
G01 X73.6453 Y72.3169
G01 X71.6213 Y74.4600
G01 X71.1450 Y75.6506
G01 X71.7403 Y75.7697
G01 X71.6213 Y77.4366
G01 X72.3356 Y79.5797
G01 X73.5263 Y80.8894
G01 X76.1456 Y81.8419
G01 X79.1222 Y81.1275
G01 X80.6700 Y79.5797
G01 X81.3844 Y77.4366
G01 X80.7891 Y74.5791
G01 X78.8841 Y72.6741
G01 X77.3363 Y72.1978
G01 X75.6694
G01 X73.5263 Y73.1503
G01 X72.2166 Y74.5791
G01 X71.7403 Y75.7697
G01 Z-10.0000
G01 X72.6928 Y74.9363
G01 Z-10.5000 F900
G01 X72.2166 Y77.3175 F2500
G01 X72.8119 Y79.2225
G01 X73.8834 Y80.4131
G01 X76.1456 Y81.2466
G01 X78.7650 Y80.6513
G01 X80.1938 Y79.2225
G01 X80.7891 Y77.3175
G01 X80.3128 Y74.9363
G01 X78.5269 Y73.1503
G01 X77.3363 Y72.7931
G01 X74.5978 Y73.1503
G01 X72.6928 Y74.9363
G01 Z-10.0000
G01 X68.7638 Y79.8178
G01 Z-10.5000 F900
G01 X63.2869 Y74.4600 F2500
G01 X58.7625 Y67.6734
G01 X56.6194 Y62.3156
G01 X55.5478 Y57.9103
G01 X54.8334 Y52.6716
G01 Y49.2188
G01 X55.5478 Y44.0991
G01 X56.6194 Y39.6938
G01 X58.6434 Y34.5741
G01 X61.6200 Y29.6925
G01 X64.0013 Y26.7159
G01 X67.3350 Y23.3822
G01 X72.0975 Y19.8103
G01 X76.9791 Y17.1909
G01 X80.4319 Y15.8813
G01 X88.8853 Y14.3334
G01 X94.1241
G01 X102.5775 Y15.8813
G01 X106.0303 Y17.1909
G01 X111.9834 Y20.5247
G01 X116.7459 Y24.3347
G01 X119.7225 Y27.5494
G01 X123.2944 Y32.5500
G01 X124.9613 Y35.8838
G01 X126.3900 Y39.6938
G01 X127.6997 Y45.4088
G01 X128.0569 Y49.2188
G01 X127.6997 Y56.6006
G01 X126.3900 Y62.3156
G01 X124.9613 Y66.1256
G01 X122.5800 Y70.5309
G01 X119.7225 Y74.4600
G01 X116.7459 Y77.6747
G01 X111.9834 Y81.4847
G01 X106.0303 Y84.8184
G01 X102.5775 Y86.1281
G01 X97.1006 Y87.3188
G01 X92.6953 Y87.6759
G01 X83.7656 Y86.9616
G01 X76.9791 Y84.8184
G01 X73.4072 Y83.0325
G01 X68.7638 Y79.8178
G01 Z-10.0000
G01 X70.6688 Y81.9609
G01 Z-10.5000 F900
G01 X64.4775 Y76.7222 F2500
G01 X61.1438 Y72.6741
G01 X59.2388 Y69.6975
G01 X56.0241 Y62.4347
G01 X54.9525 Y58.0294
G01 X54.2381 Y52.7906
G01 X54.5953 Y46.2422
G01 X56.0241 Y39.5747
G01 X57.5719 Y35.5266
G01 X59.2388 Y32.1928
G01 X62.8106 Y27.1922
G01 X65.7872 Y23.9775
G01 X70.6688 Y20.0484
G01 X76.6219 Y16.7147
G01 X80.4319 Y15.2859
G01 X88.8853 Y13.7381
G01 X94.1241
G01 X103.0538 Y15.4050
G01 X106.3875 Y16.7147
G01 X111.6263 Y19.5722
G01 X114.6028 Y21.7153
G01 X118.5319 Y25.2872
G01 X121.8656 Y29.3353
G01 X124.4850 Y33.5025
G01 X126.7472 Y38.8603
G01 X128.1759 Y44.5753
G01 X128.6522 Y49.0997
G01 X128.5331 Y54.8147
G01 X126.9853 Y62.4347
G01 X125.5566 Y66.2447
G01 X123.0563 Y70.8881
G01 X120.1988 Y74.8172
G01 X117.1031 Y78.1509
G01 X112.3406 Y81.9609
G01 X106.8638 Y85.0566
G01 X103.0538 Y86.6044
G01 X97.1006 Y87.9141
G01 X92.6953 Y88.2713
G01 X83.7656 Y87.5569
G01 X76.6219 Y85.2947
G01 X70.6688 Y81.9609
G01 X70.3116 Y82.4372
G01 X64.0013 Y77.0794
G01 X59.4769 Y71.2453
G01 X57.4528 Y67.6734
G01 X55.6669 Y63.2681
G01 X54.1191 Y56.8388
G01 X53.6428 Y48.9806
G01 X54.4763 Y43.1466
G01 X55.6669 Y38.7413
G01 X58.0481 Y33.1453
G01 X61.0247 Y28.5019
G01 X65.4300 Y23.5013
G01 X69.4781 Y20.1675
G01 X72.6928 Y18.0244
G01 X79.9556 Y14.8097
G01 X88.8853 Y13.1428
G01 X94.1241
G01 X103.0538 Y14.8097
G01 X106.7447 Y16.2384
G01 X111.9834 Y19.0959
G01 X114.9600 Y21.2391
G01 X119.0081 Y24.9300
G01 X122.3419 Y28.9781
G01 X125.5566 Y34.3359
G01 X127.5806 Y39.4556
G01 X128.7713 Y44.4563
G01 X129.2475 Y48.9806
G01 X129.1284 Y54.9338
G01 X127.5806 Y62.5538
G01 X126.1519 Y66.3638
G01 X123.5325 Y71.2453
G01 X120.6750 Y75.1744
G01 X117.4603 Y78.6272
G01 X112.6978 Y82.4372
G01 X106.7447 Y85.7709
G01 X103.0538 Y87.1997
G01 X97.1006 Y88.5094
G01 X92.6953 Y88.8666
G01 X83.7656 Y88.1522
G01 X79.9556 Y87.1997
G01 X76.2647 Y85.7709
G01 X70.3116 Y82.4372
G01 Z-10.0000
G01 X69.1209 Y82.3181
G01 Z-10.5000 F900
G01 X65.0728 Y78.9844 F2500
G01 X62.5725 Y76.3650
G01 X60.1913 Y73.3884
G01 X57.3338 Y68.7450
G01 X54.8334 Y62.6728
G01 X53.7619 Y58.2675
G01 X53.0475 Y53.0288
G01 Y48.8616
G01 X53.6428 Y44.3372
G01 X54.8334 Y39.3366
G01 X56.8575 Y34.2169
G01 X58.7625 Y30.7641
G01 X62.5725 Y25.6444
G01 X66.2634 Y21.9534
G01 X71.0259 Y18.3816
G01 X75.9075 Y15.7622
G01 X79.9556 Y14.2144
G01 X88.8853 Y12.5475
G01 X96.1481 Y12.7856
G01 X103.0538 Y14.2144
G01 X107.1019 Y15.7622
G01 X112.3406 Y18.6197
G01 X116.7459 Y21.9534
G01 X120.4369 Y25.6444
G01 X123.5325 Y29.6925
G01 X126.1519 Y34.2169
G01 X128.1759 Y39.3366
G01 X129.4856 Y45.0516
G01 X129.9619 Y50.8856
G01 X129.4856 Y56.9578
G01 X128.1759 Y62.6728
G01 X126.7472 Y66.4828
G01 X124.0088 Y71.6025
G01 X121.1513 Y75.5316
G01 X117.8175 Y79.1034
G01 X113.0550 Y82.9134
G01 X107.1019 Y86.2472
G01 X103.0538 Y87.7950
G01 X97.1006 Y89.1047
G01 X92.6953 Y89.4619
G01 X83.7656 Y88.7475
G01 X79.9556 Y87.7950
G01 X75.9075 Y86.2472
G01 X72.3356 Y84.4613
G01 X69.1209 Y82.3181
G01 Z-10.0000
G01 X82.8131 Y83.7469
G01 Z-10.5000 F900
G01 X82.9322 Y83.1516 F2500
G01 X84.0038 Y82.0800
G01 X84.9563 Y80.0559
G01 X85.1944 Y82.3181
G01 X86.1469 Y84.3422
G01 X82.8131 Y83.7469
G01 Z-10.0000
G01 X83.7656 Y83.1516
G01 Z-10.5000 F900
G01 X84.3609 Y82.5563 F2500
G01 X84.7181
G01 X85.0753 Y83.5088
G01 X83.7656 Y83.1516
G01 Z-10.0000
G01 X86.9803 Y81.9609
G01 Z-10.5000 F900
G01 X87.8138 Y83.6278 F2500
G01 X88.8853 Y84.6994
G01 X91.3856 Y85.5328
G01 X94.1241 Y84.6994
G01 X95.1956 Y83.6278
G01 X96.0291 Y81.8419
G01 Y80.1750
G01 X95.1956 Y78.3891
G01 X93.8859 Y77.1984
G01 X91.2666 Y76.4841
G01 X88.8853 Y77.3175
G01 X87.6947 Y78.5081
G01 X86.9803 Y79.9369
G01 Y81.9609
G01 X87.5756 Y81.8419
G01 X88.2900 Y83.2706
G01 X89.2425 Y84.2231
G01 X91.3856 Y84.9375
G01 X93.7669 Y84.2231
G01 X94.7194 Y83.2706
G01 X95.4338 Y81.7228
G01 Y80.2941
G01 X94.7194 Y78.7463
G01 X93.5288 Y77.6747
G01 X91.2666 Y77.0794
G01 X89.2425 Y77.7938
G01 X87.9328 Y79.3416
G01 X87.5756 Y80.0559
G01 Y81.8419
G01 X88.1709 Y81.7228
G01 X88.7663 Y82.9134
G01 X89.5997 Y83.7469
G01 X91.3856 Y84.3422
G01 X93.4097 Y83.7469
G01 X94.2431 Y82.9134
G01 X94.8384 Y81.6038
G01 Y80.4131
G01 X94.2431 Y79.1034
G01 X93.1716 Y78.1509
G01 X91.2666 Y77.6747
G01 X89.5997 Y78.2700
G01 X88.6472 Y79.2225
G01 X88.1709 Y80.1750
G01 Y81.7228
G01 X88.7663 Y81.6038
G01 X89.2425 Y82.5563
G01 X89.9569 Y83.2706
G01 X91.3856 Y83.7469
G01 X93.0525 Y83.2706
G01 X93.7669 Y82.5563
G01 X94.2431 Y81.4847
G01 X93.7669 Y79.4606
G01 X92.8144 Y78.6272
G01 X91.2666 Y78.2700
G01 X89.9569 Y78.7463
G01 X88.7663 Y80.2941
G01 Y81.6038
G01 X89.5997 Y81.9609
G01 X90.3141 Y82.7944
G01 X91.3856 Y83.1516
G01 X92.6953 Y82.7944
G01 X93.2906 Y82.1991
G01 X93.6478 Y81.3656
G01 X93.2906 Y79.8178
G01 X91.7428 Y78.8653
G01 X90.5522 Y79.1034
G01 X89.7188 Y79.8178
G01 X89.3616 Y80.4131
G01 X89.5997 Y81.9609
G01 X89.9569 Y81.3656
G01 X90.6713 Y82.3181
G01 X91.3856 Y82.5563
G01 X92.8144 Y81.8419
G01 X93.0525 Y80.7703
G01 X92.1000 Y79.5797
G01 X91.2666 Y79.4606
G01 X90.5522 Y79.8178
G01 X89.9569 Y80.5322
G01 Y81.3656
G01 Z-10.0000
G01 X86.6231 Y75.1744
G01 Z-10.5000 F900
G01 X86.5041 Y74.2219 F2500
G01 X84.1228 Y70.0547
G01 X90.3141 Y71.7216
G01 X94.0050 Y71.6025
G01 X99.0056 Y70.0547
G01 X97.9341 Y71.3644
G01 X96.5053 Y74.2219
G01 X96.3863 Y75.1744
G01 X91.7428 Y73.5075
G01 X86.6231 Y75.1744
G01 Z-10.0000
G01 X87.0994 Y74.2219
G01 Z-10.5000 F900
G01 X85.7897 Y71.2453 F2500
G01 X89.1234 Y72.1978
G01 X92.6953 Y72.3169
G01 X97.3388 Y71.1263
G01 X95.9100 Y74.2219
G01 X91.2666 Y72.9122
G01 X87.0994 Y74.2219
G01 X87.3375 Y73.3884
G01 X86.8613 Y72.1978
G01 X89.3616 Y72.7931
G01 X87.9328 Y73.5075
G01 X87.3375 Y73.3884
G01 Z-10.0000
G01 X93.6478 Y72.7931
G01 Z-10.5000 F900
G01 X96.1481 Y72.1978 F2500
G01 X95.5528 Y73.5075
G01 X93.6478 Y72.7931
G01 Z-10.0000
G01 X100.5534 Y75.5316
G01 Z-10.5000 F900
G01 X100.4344 Y77.6747 F2500
G01 X101.3869 Y80.2941
G01 X102.8156 Y81.8419
G01 X106.1494 Y83.0325
G01 X109.8403 Y82.0800
G01 X111.6263 Y80.2941
G01 X112.5788 Y77.6747
G01 X112.4597 Y75.6506
G01 X111.7453 Y73.8647
G01 X109.6022 Y71.7216
G01 X107.3400 Y71.0072
G01 X105.6731
G01 X103.2919 Y71.8406
G01 X101.1488 Y74.1028
G01 X100.5534 Y75.5316
G01 X101.2678 Y75.1744
G01 X101.0297 Y77.5556
G01 X101.8631 Y79.9369
G01 X103.1728 Y81.3656
G01 X106.1494 Y82.4372
G01 X109.4831 Y81.6038
G01 X111.1500 Y79.9369
G01 X111.9834 Y77.5556
G01 X111.8644 Y75.7697
G01 X111.2691 Y74.2219
G01 X109.2450 Y72.1978
G01 X107.3400 Y71.6025
G01 X105.6731
G01 X103.1728 Y72.6741
G01 X101.2678 Y75.1744
G01 Z-10.0000
G01 X102.2203 Y74.5791
G01 Z-10.5000 F900
G01 X101.6250 Y77.4366 F2500
G01 X102.3394 Y79.5797
G01 X103.5300 Y80.8894
G01 X106.1494 Y81.8419
G01 X108.8878 Y81.2466
G01 X110.6738 Y79.5797
G01 X111.3881 Y77.4366
G01 X110.7928 Y74.5791
G01 X108.8878 Y72.6741
G01 X107.3400 Y72.1978
G01 X105.6731
G01 X104.2444 Y72.6741
G01 X102.2203 Y74.5791
G01 X102.4584 Y75.4125
G01 X102.2203 Y76.7222
G01 X102.4584 Y78.5081
G01 X103.1728 Y79.6988
G01 X103.8872 Y80.4131
G01 X106.1494 Y81.2466
G01 X108.7688 Y80.6513
G01 X110.1975 Y79.2225
G01 X110.7928 Y76.7222
G01 X110.4356 Y75.1744
G01 X109.8403 Y74.3409
G01 X108.5306 Y73.1503
G01 X105.6731 Y72.7931
G01 X104.3634 Y73.2694
G01 X103.1728 Y74.3409
G01 X102.4584 Y75.4125
G01 Z-10.0000
G01 X97.8150 Y80.0559
G01 Z-10.5000 F900
G01 X100.1963 Y83.7469 F2500
G01 X96.8625 Y84.3422
G01 X97.3388 Y83.1516
G01 X97.8150 Y82.1991
G01 Y80.0559
G01 Z-10.0000
G01 X98.2913 Y82.4372
G01 Z-10.5000 F900
G01 X99.1247 Y83.1516 F2500
G01 X98.5294 Y83.5088
G01 X97.9341
G01 X98.2913 Y82.4372
G00 Z5.0000
G00 X104.4825 Y67.1972
G01 Z-9.5238
G01 Z-10.5000 F900
G01 X105.0778 Y66.4828 F2500
G01 X108.0544 Y63.5063
G01 X109.3641 Y61.4822
G01 X110.9119 Y58.3866
G01 X111.9834 Y55.0528
G01 X113.0550 Y56.8388
G01 X115.1981 Y59.2200
G01 X113.0550 Y59.9344
G01 X111.5072 Y61.4822
G01 X109.9594 Y64.5778
G01 X110.0784 Y67.6734
G01 X107.3400 Y66.8400
G01 X104.4825 Y67.1972
G01 Z-10.0000
G01 X106.3875 Y66.2447
G01 Z-10.5000 F900
G01 X106.8638 Y65.5303 F2500
G01 X108.5306 Y63.8634
G01 X109.8403 Y61.8394
G01 X112.1025 Y56.6006
G01 X114.1266 Y58.9819
G01 X112.6978 Y59.4581
G01 X111.0309 Y61.1250
G01 X109.3641 Y64.4588
G01 Y66.8400
G01 X106.3875 Y66.2447
G01 Z-10.0000
G01 X107.8163 Y65.8875
G01 Z-10.5000 F900
G01 X107.6972 Y65.5303 F2500
G01 X108.5306 Y64.6969
G01 X108.7688 Y66.0066
G01 X107.8163 Y65.8875
G01 Z-10.0000
G01 X112.9359 Y65.1731
G01 Z-10.5000 F900
G01 Y66.8400 F2500
G01 X113.8884 Y68.7450
G01 X114.8409 Y69.6975
G01 X117.3413 Y70.5309
G01 X119.8416 Y69.8166
G01 X121.1513 Y68.6259
G01 X121.9847 Y66.9591
G01 Y65.0541
G01 X121.1513 Y63.3872
G01 X119.9606 Y62.1966
G01 X117.2222 Y61.4822
G01 X114.8409 Y62.3156
G01 X113.5313 Y63.9825
G01 X112.9359 Y65.1731
G01 X113.6503 Y65.0541
G01 X113.5313 Y66.7209
G01 X114.3647 Y68.3878
G01 X115.1981 Y69.2213
G01 X117.3413 Y69.9356
G01 X119.4844 Y69.3403
G01 X120.6750 Y68.2688
G01 X121.3894 Y66.8400
G01 Y65.1731
G01 X120.6750 Y63.7444
G01 X119.6034 Y62.6728
G01 X117.2222 Y62.0775
G01 X115.1981 Y62.7919
G01 X113.6503 Y65.0541
G01 X114.1266 Y65.4113
G01 Y66.6019
G01 X114.8409 Y68.0306
G01 X115.5553 Y68.7450
G01 X117.3413 Y69.3403
G01 X119.3653 Y68.7450
G01 X120.1988 Y67.9116
G01 X120.7941 Y66.7209
G01 Y65.2922
G01 X120.1988 Y64.1016
G01 X119.2463 Y63.1491
G01 X117.2222 Y62.6728
G01 X115.5553 Y63.2681
G01 X114.6028 Y64.4588
G01 X114.1266 Y65.4113
G01 X114.7219 Y65.5303
G01 Y66.4828
G01 X115.9125 Y68.2688
G01 X117.3413 Y68.7450
G01 X119.0081 Y68.2688
G01 X119.7225 Y67.5544
G01 X120.1988 Y66.6019
G01 Y65.4113
G01 X118.8891 Y63.6253
G01 X117.8175 Y63.2681
G01 X116.1506 Y63.6253
G01 X115.5553 Y64.1016
G01 X114.7219 Y65.5303
G01 X115.4363 Y65.4113
G01 X115.3172 Y66.3638
G01 X115.7934 Y67.3163
G01 X117.3413 Y68.1497
G01 X118.6509 Y67.7925
G01 X119.2463 Y67.1972
G01 X119.6034 Y66.4828
G01 X119.2463 Y64.8159
G01 X118.5319 Y64.1016
G01 X117.2222 Y63.8634
G01 X116.2697 Y64.2206
G01 X115.4363 Y65.4113
G01 X116.2697 Y65.0541
G01 X115.9125 Y66.2447
G01 X116.6269 Y67.3163
G01 X117.3413 Y67.5544
G01 X118.7700 Y66.8400
G01 X119.0081 Y65.6494
G01 X117.8175 Y64.4588
G01 X116.2697 Y65.0541
G01 Z-10.0000
G01 X113.0550 Y58.7438
G01 Z-10.5000 F900
G01 X111.8644 Y59.4581 F2500
G01 X111.7453 Y59.2200
G01 X112.3406 Y58.0294
G01 X113.0550 Y58.7438
G01 Z-10.0000
G01 X116.3888 Y54.3384
G01 Z-10.5000 F900
G01 X118.0556 Y56.0053 F2500
G01 X121.3894 Y57.0769
G01 X124.8422 Y56.1244
G01 X126.6281 Y54.3384
G01 X127.5806 Y51.7191
G01 X127.4616 Y49.5759
G01 X126.6281 Y47.6709
G01 X124.3659 Y45.6469
G01 X122.4609 Y45.0516
G01 X120.6750
G01 X118.0556 Y46.0041
G01 X116.3888 Y47.6709
G01 X115.5553 Y49.5759
G01 X115.4363 Y51.9572
G01 X116.3888 Y54.3384
G01 X116.8650 Y53.9813
G01 X118.4128 Y55.5291
G01 X121.3894 Y56.4816
G01 X124.4850 Y55.6481
G01 X126.1519 Y53.9813
G01 X126.9853 Y51.6000
G01 X126.8663 Y49.6950
G01 X126.1519 Y48.0281
G01 X124.4850 Y46.3613
G01 X121.3894 Y45.5278
G01 X118.4128 Y46.4803
G01 X116.5078 Y48.7425
G01 X116.0316 Y50.1713
G01 Y51.8381
G01 X116.8650 Y53.9813
G01 X117.3413 Y53.6241
G01 X118.7700 Y55.0528
G01 X121.3894 Y55.8863
G01 X124.1278 Y55.1719
G01 X125.6756 Y53.6241
G01 X126.3900 Y51.4809
G01 X126.2709 Y49.8141
G01 X125.6756 Y48.3853
G01 X124.1278 Y46.8375
G01 X121.6275 Y46.1231
G01 X118.7700 Y46.9566
G01 X117.3413 Y48.3853
G01 X116.6269 Y51.1238
G01 X117.3413 Y53.6241
G01 X117.8175 Y53.2669
G01 X119.1272 Y54.5766
G01 X121.3894 Y55.2909
G01 X123.7706 Y54.6956
G01 X125.1994 Y53.2669
G01 X125.7947 Y51.3619
G01 X125.1994 Y48.7425
G01 X123.7706 Y47.3138
G01 X121.3894 Y46.7184
G01 X119.1272 Y47.4328
G01 X117.4603 Y49.4569
G01 X117.2222 Y51.6000
G01 X117.8175 Y53.2669
G01 Z-10.0000
G01 X121.8656 Y60.5297
G01 Z-10.5000 F900
G01 X123.0563 Y60.2916 F2500
G01 X122.8181 Y61.4822
G01 X121.8656 Y60.5297
G01 Z-10.0000
G01 X116.3888 Y72.5550
G01 Z-10.5000 F900
G01 X115.7934 Y73.5075 F2500
G01 X115.4363
G01 X114.8409 Y72.0788
G01 X116.3888 Y72.5550
G00 Z5.0000
G00 X112.2216 Y46.9566
G01 Z-9.5238
G01 Z-10.5000 F900
G01 X109.2450 Y40.2891 F2500
G01 X108.0544 Y38.5031
G01 X104.6016 Y34.8122
G01 X107.2209 Y35.1694
G01 X109.9594 Y34.3359
G01 Y37.4316
G01 X111.5072 Y40.5272
G01 X113.0550 Y42.0750
G01 X115.1981 Y42.7894
G01 X113.0550 Y45.1706
G01 X112.2216 Y46.9566
G01 Z-10.0000
G01 X112.3406 Y45.4088
G01 Z-10.5000 F900
G01 X109.7213 Y39.9319 F2500
G01 X106.3875 Y35.7647
G01 X109.3641 Y35.1694
G01 Y37.5506
G01 X111.0309 Y40.8844
G01 X112.6978 Y42.5513
G01 X114.1266 Y43.0275
G01 X112.3406 Y45.4088
G01 Z-10.0000
G01 X112.5788 Y43.9800
G01 Z-10.5000 F900
G01 X112.2216 Y43.8609 F2500
G01 X111.8644 Y42.7894
G01 X113.0550 Y43.2656
G01 X112.5788 Y43.9800
G01 Z-10.0000
G01 X114.8409 Y39.6938
G01 Z-10.5000 F900
G01 X117.2222 Y40.5272 F2500
G01 X119.9606 Y39.8128
G01 X121.1513 Y38.6222
G01 X121.9847 Y36.9553
G01 Y35.0503
G01 X121.1513 Y33.3834
G01 X119.9606 Y32.1928
G01 X117.2222 Y31.4784
G01 X114.8409 Y32.3119
G01 X113.5313 Y33.9788
G01 X112.9359 Y35.1694
G01 Y36.8363
G01 X113.8884 Y38.7413
G01 X114.8409 Y39.6938
G01 X115.1981 Y39.2175
G01 X117.2222 Y39.9319
G01 X119.6034 Y39.3366
G01 X120.6750 Y38.2650
G01 X121.3894 Y36.8363
G01 Y35.1694
G01 X120.6750 Y33.7406
G01 X119.6034 Y32.6691
G01 X117.2222 Y32.0738
G01 X115.1981 Y32.7881
G01 X113.6503 Y35.0503
G01 X113.5313 Y36.7172
G01 X114.3647 Y38.3841
G01 X115.1981 Y39.2175
G01 X115.5553 Y38.7413
G01 X117.2222 Y39.3366
G01 X119.2463 Y38.8603
G01 X120.1988 Y37.9078
G01 X120.7941 Y36.7172
G01 Y35.2884
G01 X120.1988 Y34.0978
G01 X119.2463 Y33.1453
G01 X117.2222 Y32.6691
G01 X115.5553 Y33.2644
G01 X114.6028 Y34.4550
G01 X114.1266 Y35.4075
G01 Y36.5981
G01 X114.8409 Y38.0269
G01 X115.5553 Y38.7413
G01 X115.9125 Y38.2650
G01 X117.2222 Y38.7413
G01 X118.8891 Y38.3841
G01 X119.7225 Y37.5506
G01 X120.1988 Y36.5981
G01 Y35.4075
G01 X118.8891 Y33.6216
G01 X117.8175 Y33.2644
G01 X116.1506 Y33.6216
G01 X115.5553 Y34.0978
G01 X114.7219 Y35.5266
G01 Y36.4791
G01 X115.9125 Y38.2650
G01 Z-10.0000
G01 X115.7934 Y37.3125
G01 Z-10.5000 F900
G01 X117.2222 Y38.1459 F2500
G01 X118.5319 Y37.9078
G01 X119.2463 Y37.1934
G01 X119.6034 Y36.4791
G01 X119.2463 Y34.8122
G01 X118.5319 Y34.0978
G01 X117.2222 Y33.8597
G01 X116.2697 Y34.2169
G01 X115.4363 Y35.4075
G01 X115.3172 Y36.3600
G01 X115.7934 Y37.3125
G01 X116.6269
G01 X117.2222 Y37.5506
G01 X118.1747 Y37.4316
G01 X118.7700 Y36.8363
G01 X119.0081 Y35.6456
G01 X117.8175 Y34.4550
G01 X116.2697 Y35.0503
G01 X115.9125 Y36.2409
G01 X116.6269 Y37.3125
G01 Z-10.0000
G01 X121.8656 Y41.2416
G01 Z-10.5000 F900
G01 X122.5800 Y40.5272 F2500
G01 X123.0563 Y41.5988
G01 X121.8656 Y41.2416
G01 Z-10.0000
G01 X115.3172 Y29.8116
G01 Z-10.5000 F900
G01 X114.8409 F2500
G01 X115.3172 Y28.7400
G01 X115.7934 Y28.5019
G01 X116.3888 Y29.2163
G01 X115.3172 Y29.8116
G01 Z-10.0000
G01 X111.7453 Y28.1447
G01 Z-10.5000 F900
G01 X112.4597 Y26.3588 F2500
G01 X112.5788 Y24.3347
G01 X111.6263 Y21.7153
G01 X109.3641 Y19.6913
G01 X106.1494 Y18.9769
G01 X102.8156 Y20.1675
G01 X101.1488 Y22.1916
G01 X100.5534 Y23.5013
G01 X100.4344 Y25.6444
G01 X101.2678 Y28.1447
G01 X103.2919 Y30.1688
G01 X105.9113 Y31.0022
G01 X107.2209
G01 X109.6022 Y30.2878
G01 X111.7453 Y28.1447
G01 X111.2691 Y27.7875
G01 X111.8644 Y26.2397
G01 X111.9834 Y24.4538
G01 X111.1500 Y22.0725
G01 X109.2450 Y20.2866
G01 X106.1494 Y19.5722
G01 X103.1728 Y20.6438
G01 X101.8631 Y22.0725
G01 X101.1488 Y23.6203
G01 Y26.3588
G01 X101.7441 Y27.7875
G01 X103.6491 Y29.6925
G01 X105.9113 Y30.4069
G01 X109.2450 Y29.8116
G01 X111.2691 Y27.7875
G01 X110.7928 Y27.4303
G01 X111.3881 Y24.5728
G01 X110.6738 Y22.4297
G01 X108.8878 Y20.7628
G01 X106.1494 Y20.1675
G01 X103.5300 Y21.1200
G01 X102.2203 Y22.6678
G01 X101.6250 Y25.4063
G01 X102.2203 Y27.4303
G01 X104.0063 Y29.2163
G01 X105.9113 Y29.8116
G01 X108.8878 Y29.3353
G01 X110.7928 Y27.4303
G01 X110.3166 Y27.0731
G01 X110.7928 Y24.6919
G01 X110.1975 Y22.7869
G01 X108.2925 Y21.1200
G01 X106.1494 Y20.7628
G01 X103.8872 Y21.5963
G01 X103.1728 Y22.3106
G01 X102.2203 Y24.6919
G01 X102.4584 Y26.5969
G01 X103.1728 Y27.6684
G01 X104.3634 Y28.7400
G01 X105.9113 Y29.2163
G01 X108.5306 Y28.8591
G01 X110.3166 Y27.0731
G01 Z-10.0000
G01 X108.7688 Y36.0028
G01 Z-10.5000 F900
G01 Y37.3125 F2500
G01 X107.6972 Y36.2409
G01 X108.7688 Y36.0028
G01 Z-10.0000
G01 X99.0056 Y32.0738
G01 Z-10.5000 F900
G01 X94.4813 Y30.5259 F2500
G01 X92.6953 Y30.2878
G01 X89.1234 Y30.4069
G01 X84.3609 Y31.9547
G01 X84.0038
G01 X84.1228 Y31.7166
G01 X85.0753 Y30.6450
G01 X86.5041 Y27.7875
G01 X86.6231 Y26.8350
G01 X91.2666 Y28.5019
G01 X96.3863 Y26.8350
G01 X97.2197 Y29.2163
G01 X99.0056 Y32.0738
G01 Z-10.0000
G01 X97.3388 Y30.8831
G01 Z-10.5000 F900
G01 X92.6953 Y29.6925 F2500
G01 X89.1234 Y29.8116
G01 X86.1469 Y30.7641
G01 X85.6706
G01 X85.9088 Y30.1688
G01 X87.0994 Y27.7875
G01 X91.2666 Y29.0972
G01 X95.9100 Y27.7875
G01 X97.3388 Y30.8831
G01 Z-10.0000
G01 X96.1481 Y29.8116
G01 Z-10.5000 F900
G01 X93.6478 Y28.9781 F2500
G01 X95.5528 Y28.5019
G01 X96.1481 Y29.8116
G01 Z-10.0000
G01 X93.8859 Y24.8109
G01 Z-10.5000 F900
G01 X95.1956 Y23.6203 F2500
G01 X96.0291 Y21.8344
G01 Y20.1675
G01 X95.1956 Y18.3816
G01 X93.8859 Y17.1909
G01 X91.2666 Y16.4766
G01 X88.8853 Y17.3100
G01 X87.8138 Y18.3816
G01 X86.9803 Y20.0484
G01 Y21.9534
G01 X87.8138 Y23.6203
G01 X88.8853 Y24.6919
G01 X91.2666 Y25.5253
G01 X93.8859 Y24.8109
G01 X93.5288 Y24.3347
G01 X94.7194 Y23.2631
G01 X95.4338 Y21.7153
G01 Y20.2866
G01 X94.7194 Y18.7388
G01 X93.5288 Y17.6672
G01 X91.2666 Y17.0719
G01 X89.2425 Y17.7863
G01 X87.8138 Y19.6913
G01 X87.5756 Y21.8344
G01 X88.2900 Y23.2631
G01 X89.2425 Y24.2156
G01 X91.2666 Y24.9300
G01 X93.5288 Y24.3347
G01 X93.1716 Y23.8584
G01 X94.2431 Y22.9059
G01 X94.8384 Y21.5963
G01 Y20.4056
G01 X94.2431 Y19.0959
G01 X93.1716 Y18.1434
G01 X91.2666 Y17.6672
G01 X89.5997 Y18.2625
G01 X88.6472 Y19.3341
G01 X88.1709 Y20.2866
G01 Y21.7153
G01 X88.7663 Y22.9059
G01 X89.5997 Y23.7394
G01 X91.2666 Y24.3347
G01 X93.1716 Y23.8584
G01 X92.8144 Y23.3822
G01 X93.7669 Y22.5488
G01 X94.2431 Y21.4772
G01 X93.7669 Y19.4531
G01 X92.8144 Y18.6197
G01 X91.2666 Y18.2625
G01 X89.9569 Y18.7388
G01 X88.8853 Y20.1675
G01 X88.7663 Y21.5963
G01 X89.2425 Y22.5488
G01 X89.9569 Y23.2631
G01 X91.2666 Y23.7394
G01 X92.8144 Y23.3822
G01 X92.4572 Y22.9059
G01 X93.2906 Y22.1916
G01 X93.6478 Y21.3581
G01 X93.5288 Y20.2866
G01 X92.6953 Y19.2150
G01 X91.7428 Y18.8578
G01 X90.5522 Y19.0959
G01 X89.7188 Y19.8103
G01 X89.3616 Y21.4772
G01 X90.3141 Y22.7869
G01 X91.2666 Y23.1441
G01 X92.4572 Y22.9059
G01 X92.1000 Y22.4297
G01 X92.8144 Y21.8344
G01 X93.0525 Y20.7628
G01 X92.1000 Y19.5722
G01 X91.2666 Y19.4531
G01 X90.5522 Y19.8103
G01 X89.9569 Y20.6438
G01 Y21.3581
G01 X91.2666 Y22.5488
G01 X92.1000 Y22.4297
G01 Z-10.0000
G01 X98.0531 Y21.9534
G01 Z-10.5000 F900
G01 X97.8150 Y19.8103 F2500
G01 X96.8625 Y17.6672
G01 X100.1963 Y18.2625
G01 X98.0531 Y21.9534
G01 Z-10.0000
G01 X98.5294 Y19.5722
G01 Z-10.5000 F900
G01 X97.9341 Y18.5006 F2500
G01 X99.1247 Y18.6197
G01 X98.5294 Y19.5722
G01 Z-10.0000
G01 X86.1469 Y17.6672
G01 Z-10.5000 F900
G01 X85.1944 Y19.6913 F2500
G01 Y21.9534
G01 X82.6941 Y18.3816
G01 X86.1469 Y17.6672
G01 Z-10.0000
G01 X85.0753 Y18.5006
G01 Z-10.5000 F900
G01 X84.7181 Y19.4531 F2500
G01 X83.7656 Y18.6197
G01 X85.0753 Y18.5006
G01 Z-10.0000
G01 X81.6225 Y21.7153
G01 Z-10.5000 F900
G01 X79.3603 Y19.6913 F2500
G01 X76.1456 Y18.9769
G01 X72.8119 Y20.1675
G01 X71.3831 Y21.7153
G01 X70.6688 Y23.1441
G01 X70.4306 Y25.6444
G01 X71.2641 Y28.1447
G01 X73.2881 Y30.1688
G01 X75.9075 Y31.0022
G01 X77.2172
G01 X79.5984 Y30.2878
G01 X81.7416 Y28.1447
G01 X82.4559 Y26.4778
G01 X82.5750 Y24.3347
G01 X81.6225 Y21.7153
G01 X81.1463 Y22.0725
G01 X79.2413 Y20.2866
G01 X76.1456 Y19.5722
G01 X73.1691 Y20.6438
G01 X71.6213 Y22.5488
G01 X71.1450 Y23.6203
G01 X71.0259 Y25.5253
G01 X71.7403 Y27.7875
G01 X73.6453 Y29.6925
G01 X75.9075 Y30.4069
G01 X79.2413 Y29.8116
G01 X81.2653 Y27.7875
G01 X81.8606 Y26.3588
G01 X81.9797 Y24.4538
G01 X81.1463 Y22.0725
G01 X80.6700 Y22.4297
G01 X78.8841 Y20.7628
G01 X76.1456 Y20.1675
G01 X73.5263 Y21.1200
G01 X72.3356 Y22.4297
G01 X71.7403 Y23.7394
G01 X71.6213 Y25.4063
G01 X72.2166 Y27.4303
G01 X74.0025 Y29.2163
G01 X75.9075 Y29.8116
G01 X78.8841 Y29.3353
G01 X80.7891 Y27.4303
G01 X81.3844 Y24.5728
G01 X80.6700 Y22.4297
G01 X80.1938 Y22.7869
G01 X78.2888 Y21.1200
G01 X76.1456 Y20.7628
G01 X73.8834 Y21.5963
G01 X72.6928 Y23.0250
G01 X72.2166 Y24.6919
G01 X72.6928 Y27.0731
G01 X74.3597 Y28.7400
G01 X75.9075 Y29.2163
G01 X78.5269 Y28.8591
G01 X80.3128 Y27.0731
G01 X80.7891 Y24.6919
G01 X80.1938 Y22.7869
G01 Z-10.0000
G01 X87.4566 Y28.5019
G01 Z-10.5000 F900
G01 X89.3616 Y29.2163 F2500
G01 X87.2184 Y29.8116
G01 X86.8613
G01 X86.9803 Y29.3353
G01 X87.4566 Y28.5019
G01 Z-10.0000
G01 X78.2888 Y34.8122
G01 Z-10.5000 F900
G01 X78.4078 Y35.0503 F2500
G01 X74.9550 Y38.5031
G01 X73.7644 Y40.2891
G01 X72.2166 Y43.3847
G01 X71.0259 Y46.9566
G01 X69.9544 Y45.1706
G01 X67.8113 Y42.7894
G01 X69.9544 Y42.0750
G01 X71.5022 Y40.5272
G01 X73.0500 Y37.3125
G01 X72.9309 Y34.3359
G01 X75.9075 Y35.1694
G01 X78.2888 Y34.8122
G01 Z-10.0000
G01 X76.6219 Y36.0028
G01 Z-10.5000 F900
G01 X74.4788 Y38.1459 F2500
G01 X73.2881 Y39.9319
G01 X70.9069 Y45.4088
G01 X68.8828 Y43.0275
G01 X70.3116 Y42.5513
G01 X71.9784 Y40.8844
G01 X73.6453 Y37.4316
G01 Y35.1694
G01 X76.6219 Y36.0028
G01 Z-10.0000
G01 X75.3122 Y36.2409
G01 Z-10.5000 F900
G01 X74.4788 Y37.3125 F2500
G01 X74.2406 Y35.8838
G01 X75.3122 Y36.2409
G01 Z-10.0000
G01 X70.0734 Y36.7172
G01 Z-10.5000 F900
G01 Y35.2884 F2500
G01 X69.1209 Y33.2644
G01 X67.9303 Y32.1928
G01 X65.1919 Y31.4784
G01 X63.0488 Y32.1928
G01 X61.2628 Y34.4550
G01 X61.0247 Y36.9553
G01 X61.8581 Y38.6222
G01 X63.0488 Y39.8128
G01 X65.1919 Y40.5272
G01 X67.9303 Y39.8128
G01 X69.1209 Y38.7413
G01 X70.0734 Y36.7172
G01 X69.4781 Y36.5981
G01 Y35.4075
G01 X68.6447 Y33.6216
G01 X67.5731 Y32.6691
G01 X65.1919 Y32.0738
G01 X63.4059 Y32.6691
G01 X62.0963 Y34.0978
G01 X61.6200 Y35.0503
G01 Y36.8363
G01 X62.3344 Y38.2650
G01 X63.4059 Y39.3366
G01 X65.1919 Y39.9319
G01 X67.5731 Y39.3366
G01 X68.6447 Y38.3841
G01 X69.4781 Y36.5981
G01 X68.8828 Y36.4791
G01 Y35.5266
G01 X68.1684 Y33.9788
G01 X67.2159 Y33.1453
G01 X65.1919 Y32.6691
G01 X63.7631 Y33.1453
G01 X62.2153 Y35.1694
G01 Y36.7172
G01 X62.8106 Y37.9078
G01 X63.7631 Y38.8603
G01 X65.1919 Y39.3366
G01 X67.2159 Y38.8603
G01 X68.1684 Y38.0269
G01 X68.8828 Y36.4791
G01 X68.2875 Y36.3600
G01 X68.1684 Y35.2884
G01 X67.0969 Y33.7406
G01 X65.7872 Y33.2644
G01 X64.1203 Y33.6216
G01 X63.1678 Y34.5741
G01 X62.8106 Y36.5981
G01 X64.1203 Y38.3841
G01 X65.1919 Y38.7413
G01 X66.8588 Y38.3841
G01 X67.6922 Y37.6697
G01 X68.2875 Y36.3600
G01 X67.5731 Y36.5981
G01 X67.6922 Y35.7647
G01 X67.0969 Y34.5741
G01 X65.7872 Y33.8597
G01 X64.4775 Y34.0978
G01 X64.0013 Y34.5741
G01 X63.4059 Y35.4075
G01 Y36.4791
G01 X64.4775 Y37.9078
G01 X65.1919 Y38.1459
G01 X66.7397 Y37.7888
G01 X67.5731 Y36.5981
G01 X67.0969 Y36.1219
G01 X66.7397 Y35.0503
G01 X65.1919 Y34.4550
G01 X64.0013 Y35.5266
G01 X64.2394 Y36.8363
G01 X65.1919 Y37.5506
G01 X66.7397 Y36.9553
G01 X67.0969 Y36.1219
G01 Z-10.0000
G01 X68.1684 Y29.9306
G01 Z-10.5000 F900
G01 X66.6206 Y29.4544 F2500
G01 X66.8588 Y28.8591
G01 X67.5731 Y28.5019
G01 X68.1684 Y29.9306
G01 Z-10.0000
G01 X71.2641 Y42.5513
G01 Z-10.5000 F900
G01 X70.7878 Y43.9800 F2500
G01 X69.9544 Y43.5038
G01 X70.1925 Y43.1466
G01 X71.2641 Y42.5513
G01 Z-10.0000
G01 X61.1438 Y41.2416
G01 Z-10.5000 F900
G01 X60.5484 Y41.5988 F2500
G01 X59.9531
G01 X60.1913 Y40.5272
G01 X61.1438 Y41.2416
G00 Z5.0000
G00 X59.9531 Y60.2916
G01 Z-9.5238
G01 Z-10.5000 F900
G01 X61.1438 Y60.5297 F2500
G01 X60.4294 Y61.4822
G01 X59.9531 Y60.2916
G01 Z-10.0000
G01 X74.2406 Y64.6969
G01 Z-10.5000 F900
G01 X75.3122 Y65.5303 F2500
G01 X74.4788 Y66.1256
G01 X74.2406 Y64.6969
G01 Z-10.0000
G01 X66.3825 Y65.6494
G01 Z-10.9528 F900
G01 X65.7872 Y65.0541 F2500
G01 X65.1919
G01 X64.7156 Y65.5303
G01 X64.5966 Y66.2447
G01 X65.3109 Y66.9591
G01 X66.2634 Y66.6019
G01 X66.3825 Y65.6494
G01 Z0.5000
G01 X57.8100 Y70.7691
G01 Z-9.9765
G01 Z-10.9528 F900
G01 X54.4763 Y63.5063 F2500
G01 X53.1666 Y58.3866
G01 X52.4522 Y53.1478
G01 X52.6903 Y46.8375
G01 X53.8809 Y40.5272
G01 X55.7859 Y35.1694
G01 X57.8100 Y31.1213
G01 X61.3819 Y26.1206
G01 X64.7156 Y22.5488
G01 X69.5972 Y18.6197
G01 X75.5503 Y15.2859
G01 X79.2413 Y13.8572
G01 X83.7656 Y12.6666
G01 X88.8853 Y11.9522
G01 X96.1481 Y12.1903
G01 X103.0538 Y13.6191
G01 X107.4591 Y15.2859
G01 X112.6978 Y18.1434
G01 X117.1031 Y21.4772
G01 X119.9606 Y24.2156
G01 X123.2944 Y28.2638
G01 X126.5091 Y33.6216
G01 X128.7713 Y39.2175
G01 X129.9619 Y44.2181
G01 X130.5572 Y50.7666
G01 X130.3191 Y55.1719
G01 X128.7713 Y62.7919
G01 X127.3425 Y66.6019
G01 X124.4850 Y71.9597
G01 X121.6275 Y75.8888
G01 X118.1747 Y79.5797
G01 X113.4122 Y83.3897
G01 X107.4591 Y86.7234
G01 X103.0538 Y88.3903
G01 X97.1006 Y89.7000
G01 X92.6953 Y90.0572
G01 X83.7656 Y89.3428
G01 X79.9556 Y88.3903
G01 X75.5503 Y86.7234
G01 X69.5972 Y83.3897
G01 X63.0488 Y77.7938
G01 X59.7150 Y73.7456
G01 X57.8100 Y70.7691
G00 Z5.0000
G00 X73.4072 Y75.0553
G01 Z-9.9765
G01 Z-10.9528 F900
G01 X72.8119 Y76.8413 F2500
G01 X73.0500 Y78.3891
G01 X74.2406 Y79.9369
G01 X76.1456 Y80.6513
G01 X78.4078 Y80.1750
G01 X79.7175 Y78.8653
G01 X80.1938 Y77.1984
G01 X79.9556 Y75.5316
G01 X78.6459 Y73.9838
G01 X77.3363 Y73.3884
G01 X74.9550 Y73.6266
G01 X73.4072 Y75.0553
G00 Z5.0000
G00 X90.5522 Y80.6513
G01 Z-9.9765
G01 Z-10.9528 F900
G01 X90.6713 Y81.4847 F2500
G01 X91.3856 Y81.9609
G01 X92.3381 Y81.4847
G01 Y80.5322
G01 X91.2666 Y80.0559
G01 X90.5522 Y80.6513
G01 Z-10.0000
G01 X102.8156 Y77.1984
G01 Z-10.9528 F900
G01 X103.2919 Y78.8653 F2500
G01 X104.2444 Y79.9369
G01 X106.1494 Y80.6513
G01 X108.4116 Y80.1750
G01 X109.7213 Y78.8653
G01 X110.1975 Y77.1984
G01 X109.8403 Y75.2934
G01 X108.1734 Y73.6266
G01 X105.6731 Y73.3884
G01 X104.2444 Y74.1028
G01 X103.0538 Y75.5316
G01 X102.8156 Y77.1984
G00 Z5.0000
G00 X116.7459 Y66.6019
G01 Z-9.9765
G01 Z-10.9528 F900
G01 X117.3413 Y66.9591 F2500
G01 X118.2938 Y66.4828
G01 Y65.5303
G01 X117.8175 Y65.0541
G01 X117.2222
G01 X116.5078 Y65.8875
G01 X116.7459 Y66.6019
G01 Z0.5000
G01 X121.3894 Y54.6956
G01 Z-9.9765
G01 Z-10.9528 F900
G01 X123.4134 Y54.2194 F2500
G01 X124.7231 Y52.9097
G01 X125.1994 Y51.2428
G01 X124.7231 Y49.0997
G01 X123.4134 Y47.7900
G01 X121.3894 Y47.3138
G01 X119.4844 Y47.9091
G01 X118.1747 Y49.3378
G01 X117.8175 Y51.4809
G01 X118.2938 Y52.9097
G01 X119.4844 Y54.1003
G01 X121.3894 Y54.6956
G00 Z5.0000
G00 X117.8175 Y36.9553
G01 Z-9.9765
G01 Z-10.9528 F900
G01 X118.2938 Y36.4791 F2500
G01 Y35.5266
G01 X117.8175 Y35.0503
G01 X117.2222
G01 X116.5078 Y35.8838
G01 X117.2222 Y36.9553
G01 X117.8175
G01 Z0.5000
G01 X108.1734 Y28.3828
G01 Z-9.9765
G01 Z-10.9528 F900
G01 X109.8403 Y26.7159 F2500
G01 X110.1975 Y24.8109
G01 X109.7213 Y23.1441
G01 X107.9353 Y21.5963
G01 X106.1494 Y21.3581
G01 X104.2444 Y22.0725
G01 X103.0538 Y23.6203
G01 X102.8156 Y25.1681
G01 X103.1728 Y26.7159
G01 X104.7206 Y28.2638
G01 X105.9113 Y28.6209
G01 X108.1734 Y28.3828
G00 Z5.0000
G00 X92.3381 Y21.4772
G01 Z-9.9765
G01 Z-10.9528 F900
G01 Y20.5247 F2500
G01 X91.2666 Y20.0484
G01 X90.5522 Y20.7628
G01 X90.6713 Y21.4772
G01 X91.2666 Y21.9534
G01 X92.3381 Y21.4772
G01 Z-10.0000
G01 X79.9556 Y23.6203
G01 Z-10.9528 F900
G01 X78.4078 Y21.8344 F2500
G01 X76.9791 Y21.3581
G01 X75.1931 Y21.5963
G01 X73.2881 Y23.1441
G01 X72.8119 Y24.8109
G01 X73.0500 Y26.4778
G01 X74.7169 Y28.2638
G01 X75.9075 Y28.6209
G01 X78.1697 Y28.3828
G01 X79.3603 Y27.3113
G01 X80.0747 Y26.0016
G01 X79.9556 Y23.6203
G00 Z5.0000
G00 X65.7872 Y35.0503
G01 Z-9.9765
G01 Z-10.9528 F900
G01 X65.1919 F2500
G01 X64.7156 Y35.5266
G01 X64.5966 Y36.2409
G01 X65.1919 Y36.9553
G01 X66.0253 Y36.8363
G01 X66.5016 Y36.0028
G01 X65.7872 Y35.0503
G01 Z0.5000
G01 X63.4059 Y47.7900
G01 Z-9.9765
G01 Z-10.9528 F900
G01 X61.3819 Y47.3138 F2500
G01 X59.4769 Y47.9091
G01 X58.1672 Y49.3378
G01 X57.8100 Y51.2428
G01 X58.2863 Y52.9097
G01 X59.4769 Y54.1003
G01 X61.3819 Y54.6956
G01 X63.4059 Y54.2194
G01 X64.7156 Y52.9097
G01 X65.1919 Y51.2428
G01 X64.7156 Y49.0997
G01 X63.4059 Y47.7900
G00 Z5.0000
G00 X88.8853 Y50.1713
G01 Z-9.9765
G01 Z-10.9528 F900
G01 X88.7663 Y51.3619 F2500
G01 X89.2425 Y52.5525
G01 X90.1950 Y53.3859
G01 X91.5047 Y53.7431
G01 X93.0525 Y53.2669
G01 X94.0050 Y52.1953
G01 X94.2431 Y50.8856
G01 X93.7669 Y49.4569
G01 X92.5763 Y48.5044
G01 X91.2666 Y48.2663
G01 X89.8378 Y48.8616
G01 X88.8853 Y50.1713
G01 Z-11.4290 F900
G01 X88.7663 Y51.3619 F2500
G01 X89.2425 Y52.5525
G01 X90.1950 Y53.3859
G01 X91.5047 Y53.7431
G01 X93.0525 Y53.2669
G01 X94.0050 Y52.1953
G01 X94.2431 Y50.8856
G01 X93.7669 Y49.4569
G01 X92.5763 Y48.5044
G01 X91.2666 Y48.2663
G01 X89.8378 Y48.8616
G01 X88.8853 Y50.1713
G00 Z5.0000
G00 X65.1919 Y51.2428
G01 Z-10.4528
G01 Z-11.4290 F900
G01 X64.7156 Y49.0997 F2500
G01 X63.4059 Y47.7900
G01 X61.3819 Y47.3138
G01 X59.4769 Y47.9091
G01 X58.1672 Y49.3378
G01 X57.8100 Y51.2428
G01 X58.2863 Y52.9097
G01 X59.4769 Y54.1003
G01 X61.3819 Y54.6956
G01 X63.4059 Y54.2194
G01 X64.7156 Y52.9097
G01 X65.1919 Y51.2428
G01 Z0.5000
G01 X52.4522 Y53.1478
G01 Z-10.4528
G01 Z-11.4290 F900
G01 X52.6903 Y46.8375 F2500
G01 X53.8809 Y40.5272
G01 X55.7859 Y35.1694
G01 X57.8100 Y31.1213
G01 X61.3819 Y26.1206
G01 X64.7156 Y22.5488
G01 X69.5972 Y18.6197
G01 X75.5503 Y15.2859
G01 X79.2413 Y13.8572
G01 X83.7656 Y12.6666
G01 X88.8853 Y11.9522
G01 X96.1481 Y12.1903
G01 X103.0538 Y13.6191
G01 X107.4591 Y15.2859
G01 X112.6978 Y18.1434
G01 X117.1031 Y21.4772
G01 X119.9606 Y24.2156
G01 X123.2944 Y28.2638
G01 X126.5091 Y33.6216
G01 X128.7713 Y39.2175
G01 X129.9619 Y44.2181
G01 X130.5572 Y50.7666
G01 X130.3191 Y55.1719
G01 X128.7713 Y62.7919
G01 X127.3425 Y66.6019
G01 X124.4850 Y71.9597
G01 X121.6275 Y75.8888
G01 X118.1747 Y79.5797
G01 X113.4122 Y83.3897
G01 X107.4591 Y86.7234
G01 X103.0538 Y88.3903
G01 X97.1006 Y89.7000
G01 X92.6953 Y90.0572
G01 X83.7656 Y89.3428
G01 X79.9556 Y88.3903
G01 X75.5503 Y86.7234
G01 X69.5972 Y83.3897
G01 X63.0488 Y77.7938
G01 X59.7150 Y73.7456
G01 X57.8100 Y70.7691
G01 X54.4763 Y63.5063
G01 X53.1666 Y58.3866
G01 X52.4522 Y53.1478
G00 Z5.0000
G00 X64.7156 Y65.5303
G01 Z-10.4528
G01 Z-11.4290 F900
G01 X64.5966 Y66.2447 F2500
G01 X65.3109 Y66.9591
G01 X66.2634 Y66.6019
G01 X66.3825 Y65.6494
G01 X65.7872 Y65.0541
G01 X65.1919
G01 X64.7156 Y65.5303
G01 Z0.5000
G01 X73.4072 Y75.0553
G01 Z-10.4528
G01 Z-11.4290 F900
G01 X72.8119 Y76.8413 F2500
G01 X73.0500 Y78.3891
G01 X74.2406 Y79.9369
G01 X76.1456 Y80.6513
G01 X78.4078 Y80.1750
G01 X79.7175 Y78.8653
G01 X80.1938 Y77.1984
G01 X79.9556 Y75.5316
G01 X78.6459 Y73.9838
G01 X77.3363 Y73.3884
G01 X74.9550 Y73.6266
G01 X73.4072 Y75.0553
G00 Z5.0000
G00 X90.5522 Y80.6513
G01 Z-10.4528
G01 Z-11.4290 F900
G01 X90.6713 Y81.4847 F2500
G01 X91.3856 Y81.9609
G01 X92.3381 Y81.4847
G01 Y80.5322
G01 X91.2666 Y80.0559
G01 X90.5522 Y80.6513
G01 Z-10.0000
G01 X102.8156 Y77.1984
G01 Z-10.4528
G01 Z-11.4290 F900
G01 X103.2919 Y78.8653 F2500
G01 X104.2444 Y79.9369
G01 X106.1494 Y80.6513
G01 X108.4116 Y80.1750
G01 X109.7213 Y78.8653
G01 X110.1975 Y77.1984
G01 X109.8403 Y75.2934
G01 X108.1734 Y73.6266
G01 X105.6731 Y73.3884
G01 X104.2444 Y74.1028
G01 X103.0538 Y75.5316
G01 X102.8156 Y77.1984
G00 Z5.0000
G00 X116.7459 Y66.6019
G01 Z-10.4528
G01 Z-11.4290 F900
G01 X117.3413 Y66.9591 F2500
G01 X118.2938 Y66.4828
G01 Y65.5303
G01 X117.8175 Y65.0541
G01 X117.2222
G01 X116.5078 Y65.8875
G01 X116.7459 Y66.6019
G01 Z0.5000
G01 X121.3894 Y54.6956
G01 Z-10.4528
G01 Z-11.4290 F900
G01 X123.4134 Y54.2194 F2500
G01 X124.7231 Y52.9097
G01 X125.1994 Y51.2428
G01 X124.7231 Y49.0997
G01 X123.4134 Y47.7900
G01 X121.3894 Y47.3138
G01 X119.4844 Y47.9091
G01 X118.1747 Y49.3378
G01 X117.8175 Y51.4809
G01 X118.2938 Y52.9097
G01 X119.4844 Y54.1003
G01 X121.3894 Y54.6956
G00 Z5.0000
G00 X117.8175 Y36.9553
G01 Z-10.4528
G01 Z-11.4290 F900
G01 X118.2938 Y36.4791 F2500
G01 Y35.5266
G01 X117.8175 Y35.0503
G01 X117.2222
G01 X116.5078 Y35.8838
G01 X117.2222 Y36.9553
G01 X117.8175
G01 Z0.5000
G01 X108.1734 Y28.3828
G01 Z-10.4528
G01 Z-11.4290 F900
G01 X109.8403 Y26.7159 F2500
G01 X110.1975 Y24.8109
G01 X109.7213 Y23.1441
G01 X107.9353 Y21.5963
G01 X106.1494 Y21.3581
G01 X104.2444 Y22.0725
G01 X103.0538 Y23.6203
G01 X102.8156 Y25.1681
G01 X103.1728 Y26.7159
G01 X104.7206 Y28.2638
G01 X105.9113 Y28.6209
G01 X108.1734 Y28.3828
G00 Z5.0000
G00 X92.3381 Y21.4772
G01 Z-10.4528
G01 Z-11.4290 F900
G01 Y20.5247 F2500
G01 X91.2666 Y20.0484
G01 X90.5522 Y20.7628
G01 X90.6713 Y21.4772
G01 X91.2666 Y21.9534
G01 X92.3381 Y21.4772
