(Exported by FreeCAD)
(Post Processor: grbl_post)
(Output Time:2022-05-30 12:45:20.337225)
(Begin preamble)
G17 G90
G21
(Begin operation: TC: 3.175 Z1 UP Helicoidale003)
(Path: TC: 3.175 Z1 UP Helicoidale003)
(TC: 3.175 Z1 UP Helicoidale003)
(Begin toolchange)
( M6 T5.0 )
M3 S10000.0
(Finish operation: TC: 3.175 Z1 UP Helicoidale003)
(Begin operation: Fixture)
(Path: Fixture)
G54
G0 Z25.000
(Finish operation: Fixture)
(Begin operation: Helix014)
(Path: Helix014)
(Helix014)
(helix cut operation)
G0 Z25.000
G0 X-13.702 Y-25.000
G0 Z23.000
G1 Z10.000 F100.000
G2 X-14.336 Y-25.000 Z9.896 I-0.317 J0.000 F199.998
G2 X-13.702 Y-25.000 Z9.792 I0.317 J0.000 F199.998
G2 X-14.336 Y-25.000 Z9.688 I-0.317 J0.000 F199.998
G2 X-13.702 Y-25.000 Z9.583 I0.317 J0.000 F199.998
G2 X-14.336 Y-25.000 Z9.479 I-0.317 J0.000 F199.998
G2 X-13.702 Y-25.000 Z9.375 I0.317 J0.000 F199.998
G2 X-14.336 Y-25.000 Z9.271 I-0.317 J0.000 F199.998
G2 X-13.702 Y-25.000 Z9.167 I0.317 J0.000 F199.998
G2 X-14.336 Y-25.000 Z9.062 I-0.317 J0.000 F199.998
G2 X-13.702 Y-25.000 Z8.958 I0.317 J0.000 F199.998
G2 X-14.336 Y-25.000 Z8.854 I-0.317 J0.000 F199.998
G2 X-13.702 Y-25.000 Z8.750 I0.317 J0.000 F199.998
G2 X-14.336 Y-25.000 Z8.646 I-0.317 J0.000 F199.998
G2 X-13.702 Y-25.000 Z8.542 I0.317 J0.000 F199.998
G2 X-14.336 Y-25.000 Z8.438 I-0.317 J0.000 F199.998
G2 X-13.702 Y-25.000 Z8.333 I0.317 J0.000 F199.998
G2 X-14.336 Y-25.000 Z8.229 I-0.317 J0.000 F199.998
G2 X-13.702 Y-25.000 Z8.125 I0.317 J0.000 F199.998
G2 X-14.336 Y-25.000 Z8.021 I-0.317 J0.000 F199.998
G2 X-13.702 Y-25.000 Z7.917 I0.317 J0.000 F199.998
G2 X-14.336 Y-25.000 Z7.813 I-0.317 J0.000 F199.998
G2 X-13.702 Y-25.000 Z7.708 I0.317 J0.000 F199.998
G2 X-14.336 Y-25.000 Z7.604 I-0.317 J0.000 F199.998
G2 X-13.702 Y-25.000 Z7.500 I0.317 J0.000 F199.998
G2 X-14.336 Y-25.000 Z7.396 I-0.317 J0.000 F199.998
G2 X-13.702 Y-25.000 Z7.292 I0.317 J0.000 F199.998
G2 X-14.336 Y-25.000 Z7.188 I-0.317 J0.000 F199.998
G2 X-13.702 Y-25.000 Z7.083 I0.317 J0.000 F199.998
G2 X-14.336 Y-25.000 Z6.979 I-0.317 J0.000 F199.998
G2 X-13.702 Y-25.000 Z6.875 I0.317 J0.000 F199.998
G2 X-14.336 Y-25.000 Z6.771 I-0.317 J0.000 F199.998
G2 X-13.702 Y-25.000 Z6.667 I0.317 J0.000 F199.998
G2 X-14.336 Y-25.000 Z6.563 I-0.317 J0.000 F199.998
G2 X-13.702 Y-25.000 Z6.458 I0.317 J0.000 F199.998
G2 X-14.336 Y-25.000 Z6.354 I-0.317 J0.000 F199.998
G2 X-13.702 Y-25.000 Z6.250 I0.317 J0.000 F199.998
G2 X-14.336 Y-25.000 Z6.146 I-0.317 J0.000 F199.998
G2 X-13.702 Y-25.000 Z6.042 I0.317 J0.000 F199.998
G2 X-14.336 Y-25.000 Z5.938 I-0.317 J0.000 F199.998
G2 X-13.702 Y-25.000 Z5.833 I0.317 J0.000 F199.998
G2 X-14.336 Y-25.000 Z5.729 I-0.317 J0.000 F199.998
G2 X-13.702 Y-25.000 Z5.625 I0.317 J0.000 F199.998
G2 X-14.336 Y-25.000 Z5.521 I-0.317 J0.000 F199.998
G2 X-13.702 Y-25.000 Z5.417 I0.317 J0.000 F199.998
G2 X-14.336 Y-25.000 Z5.313 I-0.317 J0.000 F199.998
G2 X-13.702 Y-25.000 Z5.208 I0.317 J0.000 F199.998
G2 X-14.336 Y-25.000 Z5.104 I-0.317 J0.000 F199.998
G2 X-13.702 Y-25.000 Z5.000 I0.317 J0.000 F199.998
G2 X-14.336 Y-25.000 Z4.896 I-0.317 J0.000 F199.998
G2 X-13.702 Y-25.000 Z4.792 I0.317 J0.000 F199.998
G2 X-14.336 Y-25.000 Z4.688 I-0.317 J0.000 F199.998
G2 X-13.702 Y-25.000 Z4.583 I0.317 J0.000 F199.998
G2 X-14.336 Y-25.000 Z4.479 I-0.317 J0.000 F199.998
G2 X-13.702 Y-25.000 Z4.375 I0.317 J0.000 F199.998
G2 X-14.336 Y-25.000 Z4.271 I-0.317 J0.000 F199.998
G2 X-13.702 Y-25.000 Z4.167 I0.317 J0.000 F199.998
G2 X-14.336 Y-25.000 Z4.063 I-0.317 J0.000 F199.998
G2 X-13.702 Y-25.000 Z3.958 I0.317 J0.000 F199.998
G2 X-14.336 Y-25.000 Z3.854 I-0.317 J0.000 F199.998
G2 X-13.702 Y-25.000 Z3.750 I0.317 J0.000 F199.998
G2 X-14.336 Y-25.000 Z3.646 I-0.317 J0.000 F199.998
G2 X-13.702 Y-25.000 Z3.542 I0.317 J0.000 F199.998
G2 X-14.336 Y-25.000 Z3.438 I-0.317 J0.000 F199.998
G2 X-13.702 Y-25.000 Z3.333 I0.317 J0.000 F199.998
G2 X-14.336 Y-25.000 Z3.229 I-0.317 J0.000 F199.998
G2 X-13.702 Y-25.000 Z3.125 I0.317 J0.000 F199.998
G2 X-14.336 Y-25.000 Z3.021 I-0.317 J0.000 F199.998
G2 X-13.702 Y-25.000 Z2.917 I0.317 J0.000 F199.998
G2 X-14.336 Y-25.000 Z2.813 I-0.317 J0.000 F199.998
G2 X-13.702 Y-25.000 Z2.708 I0.317 J0.000 F199.998
G2 X-14.336 Y-25.000 Z2.604 I-0.317 J0.000 F199.998
G2 X-13.702 Y-25.000 Z2.500 I0.317 J0.000 F199.998
G2 X-14.336 Y-25.000 Z2.396 I-0.317 J0.000 F199.998
G2 X-13.702 Y-25.000 Z2.292 I0.317 J0.000 F199.998
G2 X-14.336 Y-25.000 Z2.188 I-0.317 J0.000 F199.998
G2 X-13.702 Y-25.000 Z2.083 I0.317 J0.000 F199.998
G2 X-14.336 Y-25.000 Z1.979 I-0.317 J0.000 F199.998
G2 X-13.702 Y-25.000 Z1.875 I0.317 J0.000 F199.998
G2 X-14.336 Y-25.000 Z1.771 I-0.317 J0.000 F199.998
G2 X-13.702 Y-25.000 Z1.667 I0.317 J0.000 F199.998
G2 X-14.336 Y-25.000 Z1.563 I-0.317 J0.000 F199.998
G2 X-13.702 Y-25.000 Z1.458 I0.317 J0.000 F199.998
G2 X-14.336 Y-25.000 Z1.354 I-0.317 J0.000 F199.998
G2 X-13.702 Y-25.000 Z1.250 I0.317 J0.000 F199.998
G2 X-14.336 Y-25.000 Z1.146 I-0.317 J0.000 F199.998
G2 X-13.702 Y-25.000 Z1.042 I0.317 J0.000 F199.998
G2 X-14.336 Y-25.000 Z0.938 I-0.317 J0.000 F199.998
G2 X-13.702 Y-25.000 Z0.833 I0.317 J0.000 F199.998
G2 X-14.336 Y-25.000 Z0.729 I-0.317 J0.000 F199.998
G2 X-13.702 Y-25.000 Z0.625 I0.317 J0.000 F199.998
G2 X-14.336 Y-25.000 Z0.521 I-0.317 J0.000 F199.998
G2 X-13.702 Y-25.000 Z0.417 I0.317 J0.000 F199.998
G2 X-14.336 Y-25.000 Z0.313 I-0.317 J0.000 F199.998
G2 X-13.702 Y-25.000 Z0.208 I0.317 J0.000 F199.998
G2 X-14.336 Y-25.000 Z0.104 I-0.317 J0.000 F199.998
G2 X-13.702 Y-25.000 Z0.000 I0.317 J0.000 F199.998
G2 X-14.336 Y-25.000 Z0.000 I-0.317 J0.000 F199.998
G2 X-13.702 Y-25.000 Z0.000 I0.317 J0.000 F199.998
G0 Z23.000
G0 X-13.104 Y-25.000
G0 Z23.000
G1 Z10.000 F100.000
G2 X-14.934 Y-25.000 Z9.896 I-0.915 J0.000 F199.998
G2 X-13.104 Y-25.000 Z9.792 I0.915 J0.000 F199.998
G2 X-14.934 Y-25.000 Z9.688 I-0.915 J0.000 F199.998
G2 X-13.104 Y-25.000 Z9.583 I0.915 J0.000 F199.998
G2 X-14.934 Y-25.000 Z9.479 I-0.915 J0.000 F199.998
G2 X-13.104 Y-25.000 Z9.375 I0.915 J0.000 F199.998
G2 X-14.934 Y-25.000 Z9.271 I-0.915 J0.000 F199.998
G2 X-13.104 Y-25.000 Z9.167 I0.915 J0.000 F199.998
G2 X-14.934 Y-25.000 Z9.062 I-0.915 J0.000 F199.998
G2 X-13.104 Y-25.000 Z8.958 I0.915 J0.000 F199.998
G2 X-14.934 Y-25.000 Z8.854 I-0.915 J0.000 F199.998
G2 X-13.104 Y-25.000 Z8.750 I0.915 J0.000 F199.998
G2 X-14.934 Y-25.000 Z8.646 I-0.915 J0.000 F199.998
G2 X-13.104 Y-25.000 Z8.542 I0.915 J0.000 F199.998
G2 X-14.934 Y-25.000 Z8.438 I-0.915 J0.000 F199.998
G2 X-13.104 Y-25.000 Z8.333 I0.915 J0.000 F199.998
G2 X-14.934 Y-25.000 Z8.229 I-0.915 J0.000 F199.998
G2 X-13.104 Y-25.000 Z8.125 I0.915 J0.000 F199.998
G2 X-14.934 Y-25.000 Z8.021 I-0.915 J0.000 F199.998
G2 X-13.104 Y-25.000 Z7.917 I0.915 J0.000 F199.998
G2 X-14.934 Y-25.000 Z7.813 I-0.915 J0.000 F199.998
G2 X-13.104 Y-25.000 Z7.708 I0.915 J0.000 F199.998
G2 X-14.934 Y-25.000 Z7.604 I-0.915 J0.000 F199.998
G2 X-13.104 Y-25.000 Z7.500 I0.915 J0.000 F199.998
G2 X-14.934 Y-25.000 Z7.396 I-0.915 J0.000 F199.998
G2 X-13.104 Y-25.000 Z7.292 I0.915 J0.000 F199.998
G2 X-14.934 Y-25.000 Z7.188 I-0.915 J0.000 F199.998
G2 X-13.104 Y-25.000 Z7.083 I0.915 J0.000 F199.998
G2 X-14.934 Y-25.000 Z6.979 I-0.915 J0.000 F199.998
G2 X-13.104 Y-25.000 Z6.875 I0.915 J0.000 F199.998
G2 X-14.934 Y-25.000 Z6.771 I-0.915 J0.000 F199.998
G2 X-13.104 Y-25.000 Z6.667 I0.915 J0.000 F199.998
G2 X-14.934 Y-25.000 Z6.563 I-0.915 J0.000 F199.998
G2 X-13.104 Y-25.000 Z6.458 I0.915 J0.000 F199.998
G2 X-14.934 Y-25.000 Z6.354 I-0.915 J0.000 F199.998
G2 X-13.104 Y-25.000 Z6.250 I0.915 J0.000 F199.998
G2 X-14.934 Y-25.000 Z6.146 I-0.915 J0.000 F199.998
G2 X-13.104 Y-25.000 Z6.042 I0.915 J0.000 F199.998
G2 X-14.934 Y-25.000 Z5.938 I-0.915 J0.000 F199.998
G2 X-13.104 Y-25.000 Z5.833 I0.915 J0.000 F199.998
G2 X-14.934 Y-25.000 Z5.729 I-0.915 J0.000 F199.998
G2 X-13.104 Y-25.000 Z5.625 I0.915 J0.000 F199.998
G2 X-14.934 Y-25.000 Z5.521 I-0.915 J0.000 F199.998
G2 X-13.104 Y-25.000 Z5.417 I0.915 J0.000 F199.998
G2 X-14.934 Y-25.000 Z5.313 I-0.915 J0.000 F199.998
G2 X-13.104 Y-25.000 Z5.208 I0.915 J0.000 F199.998
G2 X-14.934 Y-25.000 Z5.104 I-0.915 J0.000 F199.998
G2 X-13.104 Y-25.000 Z5.000 I0.915 J0.000 F199.998
G2 X-14.934 Y-25.000 Z4.896 I-0.915 J0.000 F199.998
G2 X-13.104 Y-25.000 Z4.792 I0.915 J0.000 F199.998
G2 X-14.934 Y-25.000 Z4.688 I-0.915 J0.000 F199.998
G2 X-13.104 Y-25.000 Z4.583 I0.915 J0.000 F199.998
G2 X-14.934 Y-25.000 Z4.479 I-0.915 J0.000 F199.998
G2 X-13.104 Y-25.000 Z4.375 I0.915 J0.000 F199.998
G2 X-14.934 Y-25.000 Z4.271 I-0.915 J0.000 F199.998
G2 X-13.104 Y-25.000 Z4.167 I0.915 J0.000 F199.998
G2 X-14.934 Y-25.000 Z4.063 I-0.915 J0.000 F199.998
G2 X-13.104 Y-25.000 Z3.958 I0.915 J0.000 F199.998
G2 X-14.934 Y-25.000 Z3.854 I-0.915 J0.000 F199.998
G2 X-13.104 Y-25.000 Z3.750 I0.915 J0.000 F199.998
G2 X-14.934 Y-25.000 Z3.646 I-0.915 J0.000 F199.998
G2 X-13.104 Y-25.000 Z3.542 I0.915 J0.000 F199.998
G2 X-14.934 Y-25.000 Z3.438 I-0.915 J0.000 F199.998
G2 X-13.104 Y-25.000 Z3.333 I0.915 J0.000 F199.998
G2 X-14.934 Y-25.000 Z3.229 I-0.915 J0.000 F199.998
G2 X-13.104 Y-25.000 Z3.125 I0.915 J0.000 F199.998
G2 X-14.934 Y-25.000 Z3.021 I-0.915 J0.000 F199.998
G2 X-13.104 Y-25.000 Z2.917 I0.915 J0.000 F199.998
G2 X-14.934 Y-25.000 Z2.813 I-0.915 J0.000 F199.998
G2 X-13.104 Y-25.000 Z2.708 I0.915 J0.000 F199.998
G2 X-14.934 Y-25.000 Z2.604 I-0.915 J0.000 F199.998
G2 X-13.104 Y-25.000 Z2.500 I0.915 J0.000 F199.998
G2 X-14.934 Y-25.000 Z2.396 I-0.915 J0.000 F199.998
G2 X-13.104 Y-25.000 Z2.292 I0.915 J0.000 F199.998
G2 X-14.934 Y-25.000 Z2.188 I-0.915 J0.000 F199.998
G2 X-13.104 Y-25.000 Z2.083 I0.915 J0.000 F199.998
G2 X-14.934 Y-25.000 Z1.979 I-0.915 J0.000 F199.998
G2 X-13.104 Y-25.000 Z1.875 I0.915 J0.000 F199.998
G2 X-14.934 Y-25.000 Z1.771 I-0.915 J0.000 F199.998
G2 X-13.104 Y-25.000 Z1.667 I0.915 J0.000 F199.998
G2 X-14.934 Y-25.000 Z1.563 I-0.915 J0.000 F199.998
G2 X-13.104 Y-25.000 Z1.458 I0.915 J0.000 F199.998
G2 X-14.934 Y-25.000 Z1.354 I-0.915 J0.000 F199.998
G2 X-13.104 Y-25.000 Z1.250 I0.915 J0.000 F199.998
G2 X-14.934 Y-25.000 Z1.146 I-0.915 J0.000 F199.998
G2 X-13.104 Y-25.000 Z1.042 I0.915 J0.000 F199.998
G2 X-14.934 Y-25.000 Z0.938 I-0.915 J0.000 F199.998
G2 X-13.104 Y-25.000 Z0.833 I0.915 J0.000 F199.998
G2 X-14.934 Y-25.000 Z0.729 I-0.915 J0.000 F199.998
G2 X-13.104 Y-25.000 Z0.625 I0.915 J0.000 F199.998
G2 X-14.934 Y-25.000 Z0.521 I-0.915 J0.000 F199.998
G2 X-13.104 Y-25.000 Z0.417 I0.915 J0.000 F199.998
G2 X-14.934 Y-25.000 Z0.313 I-0.915 J0.000 F199.998
G2 X-13.104 Y-25.000 Z0.208 I0.915 J0.000 F199.998
G2 X-14.934 Y-25.000 Z0.104 I-0.915 J0.000 F199.998
G2 X-13.104 Y-25.000 Z0.000 I0.915 J0.000 F199.998
G2 X-14.934 Y-25.000 Z0.000 I-0.915 J0.000 F199.998
G2 X-13.104 Y-25.000 Z0.000 I0.915 J0.000 F199.998
G0 Z23.000
G0 X-9.683 Y-40.000
G0 Z23.000
G1 Z10.000 F100.000
G2 X-10.317 Y-40.000 Z9.896 I-0.317 J0.000 F199.998
G2 X-9.683 Y-40.000 Z9.792 I0.317 J0.000 F199.998
G2 X-10.317 Y-40.000 Z9.688 I-0.317 J0.000 F199.998
G2 X-9.683 Y-40.000 Z9.583 I0.317 J0.000 F199.998
G2 X-10.317 Y-40.000 Z9.479 I-0.317 J0.000 F199.998
G2 X-9.683 Y-40.000 Z9.375 I0.317 J0.000 F199.998
G2 X-10.317 Y-40.000 Z9.271 I-0.317 J0.000 F199.998
G2 X-9.683 Y-40.000 Z9.167 I0.317 J0.000 F199.998
G2 X-10.317 Y-40.000 Z9.062 I-0.317 J0.000 F199.998
G2 X-9.683 Y-40.000 Z8.958 I0.317 J0.000 F199.998
G2 X-10.317 Y-40.000 Z8.854 I-0.317 J0.000 F199.998
G2 X-9.683 Y-40.000 Z8.750 I0.317 J0.000 F199.998
G2 X-10.317 Y-40.000 Z8.646 I-0.317 J0.000 F199.998
G2 X-9.683 Y-40.000 Z8.542 I0.317 J0.000 F199.998
G2 X-10.317 Y-40.000 Z8.438 I-0.317 J0.000 F199.998
G2 X-9.683 Y-40.000 Z8.333 I0.317 J0.000 F199.998
G2 X-10.317 Y-40.000 Z8.229 I-0.317 J0.000 F199.998
G2 X-9.683 Y-40.000 Z8.125 I0.317 J0.000 F199.998
G2 X-10.317 Y-40.000 Z8.021 I-0.317 J0.000 F199.998
G2 X-9.683 Y-40.000 Z7.917 I0.317 J0.000 F199.998
G2 X-10.317 Y-40.000 Z7.813 I-0.317 J0.000 F199.998
G2 X-9.683 Y-40.000 Z7.708 I0.317 J0.000 F199.998
G2 X-10.317 Y-40.000 Z7.604 I-0.317 J0.000 F199.998
G2 X-9.683 Y-40.000 Z7.500 I0.317 J0.000 F199.998
G2 X-10.317 Y-40.000 Z7.396 I-0.317 J0.000 F199.998
G2 X-9.683 Y-40.000 Z7.292 I0.317 J0.000 F199.998
G2 X-10.317 Y-40.000 Z7.188 I-0.317 J0.000 F199.998
G2 X-9.683 Y-40.000 Z7.083 I0.317 J0.000 F199.998
G2 X-10.317 Y-40.000 Z6.979 I-0.317 J0.000 F199.998
G2 X-9.683 Y-40.000 Z6.875 I0.317 J0.000 F199.998
G2 X-10.317 Y-40.000 Z6.771 I-0.317 J0.000 F199.998
G2 X-9.683 Y-40.000 Z6.667 I0.317 J0.000 F199.998
G2 X-10.317 Y-40.000 Z6.563 I-0.317 J0.000 F199.998
G2 X-9.683 Y-40.000 Z6.458 I0.317 J0.000 F199.998
G2 X-10.317 Y-40.000 Z6.354 I-0.317 J0.000 F199.998
G2 X-9.683 Y-40.000 Z6.250 I0.317 J0.000 F199.998
G2 X-10.317 Y-40.000 Z6.146 I-0.317 J0.000 F199.998
G2 X-9.683 Y-40.000 Z6.042 I0.317 J0.000 F199.998
G2 X-10.317 Y-40.000 Z5.938 I-0.317 J0.000 F199.998
G2 X-9.683 Y-40.000 Z5.833 I0.317 J0.000 F199.998
G2 X-10.317 Y-40.000 Z5.729 I-0.317 J0.000 F199.998
G2 X-9.683 Y-40.000 Z5.625 I0.317 J0.000 F199.998
G2 X-10.317 Y-40.000 Z5.521 I-0.317 J0.000 F199.998
G2 X-9.683 Y-40.000 Z5.417 I0.317 J0.000 F199.998
G2 X-10.317 Y-40.000 Z5.313 I-0.317 J0.000 F199.998
G2 X-9.683 Y-40.000 Z5.208 I0.317 J0.000 F199.998
G2 X-10.317 Y-40.000 Z5.104 I-0.317 J0.000 F199.998
G2 X-9.683 Y-40.000 Z5.000 I0.317 J0.000 F199.998
G2 X-10.317 Y-40.000 Z4.896 I-0.317 J0.000 F199.998
G2 X-9.683 Y-40.000 Z4.792 I0.317 J0.000 F199.998
G2 X-10.317 Y-40.000 Z4.688 I-0.317 J0.000 F199.998
G2 X-9.683 Y-40.000 Z4.583 I0.317 J0.000 F199.998
G2 X-10.317 Y-40.000 Z4.479 I-0.317 J0.000 F199.998
G2 X-9.683 Y-40.000 Z4.375 I0.317 J0.000 F199.998
G2 X-10.317 Y-40.000 Z4.271 I-0.317 J0.000 F199.998
G2 X-9.683 Y-40.000 Z4.167 I0.317 J0.000 F199.998
G2 X-10.317 Y-40.000 Z4.063 I-0.317 J0.000 F199.998
G2 X-9.683 Y-40.000 Z3.958 I0.317 J0.000 F199.998
G2 X-10.317 Y-40.000 Z3.854 I-0.317 J0.000 F199.998
G2 X-9.683 Y-40.000 Z3.750 I0.317 J0.000 F199.998
G2 X-10.317 Y-40.000 Z3.646 I-0.317 J0.000 F199.998
G2 X-9.683 Y-40.000 Z3.542 I0.317 J0.000 F199.998
G2 X-10.317 Y-40.000 Z3.438 I-0.317 J0.000 F199.998
G2 X-9.683 Y-40.000 Z3.333 I0.317 J0.000 F199.998
G2 X-10.317 Y-40.000 Z3.229 I-0.317 J0.000 F199.998
G2 X-9.683 Y-40.000 Z3.125 I0.317 J0.000 F199.998
G2 X-10.317 Y-40.000 Z3.021 I-0.317 J0.000 F199.998
G2 X-9.683 Y-40.000 Z2.917 I0.317 J0.000 F199.998
G2 X-10.317 Y-40.000 Z2.813 I-0.317 J0.000 F199.998
G2 X-9.683 Y-40.000 Z2.708 I0.317 J0.000 F199.998
G2 X-10.317 Y-40.000 Z2.604 I-0.317 J0.000 F199.998
G2 X-9.683 Y-40.000 Z2.500 I0.317 J0.000 F199.998
G2 X-10.317 Y-40.000 Z2.396 I-0.317 J0.000 F199.998
G2 X-9.683 Y-40.000 Z2.292 I0.317 J0.000 F199.998
G2 X-10.317 Y-40.000 Z2.188 I-0.317 J0.000 F199.998
G2 X-9.683 Y-40.000 Z2.083 I0.317 J0.000 F199.998
G2 X-10.317 Y-40.000 Z1.979 I-0.317 J0.000 F199.998
G2 X-9.683 Y-40.000 Z1.875 I0.317 J0.000 F199.998
G2 X-10.317 Y-40.000 Z1.771 I-0.317 J0.000 F199.998
G2 X-9.683 Y-40.000 Z1.667 I0.317 J0.000 F199.998
G2 X-10.317 Y-40.000 Z1.563 I-0.317 J0.000 F199.998
G2 X-9.683 Y-40.000 Z1.458 I0.317 J0.000 F199.998
G2 X-10.317 Y-40.000 Z1.354 I-0.317 J0.000 F199.998
G2 X-9.683 Y-40.000 Z1.250 I0.317 J0.000 F199.998
G2 X-10.317 Y-40.000 Z1.146 I-0.317 J0.000 F199.998
G2 X-9.683 Y-40.000 Z1.042 I0.317 J0.000 F199.998
G2 X-10.317 Y-40.000 Z0.938 I-0.317 J0.000 F199.998
G2 X-9.683 Y-40.000 Z0.833 I0.317 J0.000 F199.998
G2 X-10.317 Y-40.000 Z0.729 I-0.317 J0.000 F199.998
G2 X-9.683 Y-40.000 Z0.625 I0.317 J0.000 F199.998
G2 X-10.317 Y-40.000 Z0.521 I-0.317 J0.000 F199.998
G2 X-9.683 Y-40.000 Z0.417 I0.317 J0.000 F199.998
G2 X-10.317 Y-40.000 Z0.313 I-0.317 J0.000 F199.998
G2 X-9.683 Y-40.000 Z0.208 I0.317 J0.000 F199.998
G2 X-10.317 Y-40.000 Z0.104 I-0.317 J0.000 F199.998
G2 X-9.683 Y-40.000 Z0.000 I0.317 J0.000 F199.998
G2 X-10.317 Y-40.000 Z0.000 I-0.317 J0.000 F199.998
G2 X-9.683 Y-40.000 Z0.000 I0.317 J0.000 F199.998
G0 Z23.000
G0 X-9.217 Y-40.000
G0 Z23.000
G1 Z10.000 F100.000
G2 X-10.783 Y-40.000 Z9.896 I-0.783 J0.000 F199.998
G2 X-9.217 Y-40.000 Z9.792 I0.783 J0.000 F199.998
G2 X-10.783 Y-40.000 Z9.688 I-0.783 J0.000 F199.998
G2 X-9.217 Y-40.000 Z9.583 I0.783 J0.000 F199.998
G2 X-10.783 Y-40.000 Z9.479 I-0.783 J0.000 F199.998
G2 X-9.217 Y-40.000 Z9.375 I0.783 J0.000 F199.998
G2 X-10.783 Y-40.000 Z9.271 I-0.783 J0.000 F199.998
G2 X-9.217 Y-40.000 Z9.167 I0.783 J0.000 F199.998
G2 X-10.783 Y-40.000 Z9.062 I-0.783 J0.000 F199.998
G2 X-9.217 Y-40.000 Z8.958 I0.783 J0.000 F199.998
G2 X-10.783 Y-40.000 Z8.854 I-0.783 J0.000 F199.998
G2 X-9.217 Y-40.000 Z8.750 I0.783 J0.000 F199.998
G2 X-10.783 Y-40.000 Z8.646 I-0.783 J0.000 F199.998
G2 X-9.217 Y-40.000 Z8.542 I0.783 J0.000 F199.998
G2 X-10.783 Y-40.000 Z8.438 I-0.783 J0.000 F199.998
G2 X-9.217 Y-40.000 Z8.333 I0.783 J0.000 F199.998
G2 X-10.783 Y-40.000 Z8.229 I-0.783 J0.000 F199.998
G2 X-9.217 Y-40.000 Z8.125 I0.783 J0.000 F199.998
G2 X-10.783 Y-40.000 Z8.021 I-0.783 J0.000 F199.998
G2 X-9.217 Y-40.000 Z7.917 I0.783 J0.000 F199.998
G2 X-10.783 Y-40.000 Z7.813 I-0.783 J0.000 F199.998
G2 X-9.217 Y-40.000 Z7.708 I0.783 J0.000 F199.998
G2 X-10.783 Y-40.000 Z7.604 I-0.783 J0.000 F199.998
G2 X-9.217 Y-40.000 Z7.500 I0.783 J0.000 F199.998
G2 X-10.783 Y-40.000 Z7.396 I-0.783 J0.000 F199.998
G2 X-9.217 Y-40.000 Z7.292 I0.783 J0.000 F199.998
G2 X-10.783 Y-40.000 Z7.188 I-0.783 J0.000 F199.998
G2 X-9.217 Y-40.000 Z7.083 I0.783 J0.000 F199.998
G2 X-10.783 Y-40.000 Z6.979 I-0.783 J0.000 F199.998
G2 X-9.217 Y-40.000 Z6.875 I0.783 J0.000 F199.998
G2 X-10.783 Y-40.000 Z6.771 I-0.783 J0.000 F199.998
G2 X-9.217 Y-40.000 Z6.667 I0.783 J0.000 F199.998
G2 X-10.783 Y-40.000 Z6.563 I-0.783 J0.000 F199.998
G2 X-9.217 Y-40.000 Z6.458 I0.783 J0.000 F199.998
G2 X-10.783 Y-40.000 Z6.354 I-0.783 J0.000 F199.998
G2 X-9.217 Y-40.000 Z6.250 I0.783 J0.000 F199.998
G2 X-10.783 Y-40.000 Z6.146 I-0.783 J0.000 F199.998
G2 X-9.217 Y-40.000 Z6.042 I0.783 J0.000 F199.998
G2 X-10.783 Y-40.000 Z5.938 I-0.783 J0.000 F199.998
G2 X-9.217 Y-40.000 Z5.833 I0.783 J0.000 F199.998
G2 X-10.783 Y-40.000 Z5.729 I-0.783 J0.000 F199.998
G2 X-9.217 Y-40.000 Z5.625 I0.783 J0.000 F199.998
G2 X-10.783 Y-40.000 Z5.521 I-0.783 J0.000 F199.998
G2 X-9.217 Y-40.000 Z5.417 I0.783 J0.000 F199.998
G2 X-10.783 Y-40.000 Z5.313 I-0.783 J0.000 F199.998
G2 X-9.217 Y-40.000 Z5.208 I0.783 J0.000 F199.998
G2 X-10.783 Y-40.000 Z5.104 I-0.783 J0.000 F199.998
G2 X-9.217 Y-40.000 Z5.000 I0.783 J0.000 F199.998
G2 X-10.783 Y-40.000 Z4.896 I-0.783 J0.000 F199.998
G2 X-9.217 Y-40.000 Z4.792 I0.783 J0.000 F199.998
G2 X-10.783 Y-40.000 Z4.688 I-0.783 J0.000 F199.998
G2 X-9.217 Y-40.000 Z4.583 I0.783 J0.000 F199.998
G2 X-10.783 Y-40.000 Z4.479 I-0.783 J0.000 F199.998
G2 X-9.217 Y-40.000 Z4.375 I0.783 J0.000 F199.998
G2 X-10.783 Y-40.000 Z4.271 I-0.783 J0.000 F199.998
G2 X-9.217 Y-40.000 Z4.167 I0.783 J0.000 F199.998
G2 X-10.783 Y-40.000 Z4.063 I-0.783 J0.000 F199.998
G2 X-9.217 Y-40.000 Z3.958 I0.783 J0.000 F199.998
G2 X-10.783 Y-40.000 Z3.854 I-0.783 J0.000 F199.998
G2 X-9.217 Y-40.000 Z3.750 I0.783 J0.000 F199.998
G2 X-10.783 Y-40.000 Z3.646 I-0.783 J0.000 F199.998
G2 X-9.217 Y-40.000 Z3.542 I0.783 J0.000 F199.998
G2 X-10.783 Y-40.000 Z3.438 I-0.783 J0.000 F199.998
G2 X-9.217 Y-40.000 Z3.333 I0.783 J0.000 F199.998
G2 X-10.783 Y-40.000 Z3.229 I-0.783 J0.000 F199.998
G2 X-9.217 Y-40.000 Z3.125 I0.783 J0.000 F199.998
G2 X-10.783 Y-40.000 Z3.021 I-0.783 J0.000 F199.998
G2 X-9.217 Y-40.000 Z2.917 I0.783 J0.000 F199.998
G2 X-10.783 Y-40.000 Z2.813 I-0.783 J0.000 F199.998
G2 X-9.217 Y-40.000 Z2.708 I0.783 J0.000 F199.998
G2 X-10.783 Y-40.000 Z2.604 I-0.783 J0.000 F199.998
G2 X-9.217 Y-40.000 Z2.500 I0.783 J0.000 F199.998
G2 X-10.783 Y-40.000 Z2.396 I-0.783 J0.000 F199.998
G2 X-9.217 Y-40.000 Z2.292 I0.783 J0.000 F199.998
G2 X-10.783 Y-40.000 Z2.188 I-0.783 J0.000 F199.998
G2 X-9.217 Y-40.000 Z2.083 I0.783 J0.000 F199.998
G2 X-10.783 Y-40.000 Z1.979 I-0.783 J0.000 F199.998
G2 X-9.217 Y-40.000 Z1.875 I0.783 J0.000 F199.998
G2 X-10.783 Y-40.000 Z1.771 I-0.783 J0.000 F199.998
G2 X-9.217 Y-40.000 Z1.667 I0.783 J0.000 F199.998
G2 X-10.783 Y-40.000 Z1.563 I-0.783 J0.000 F199.998
G2 X-9.217 Y-40.000 Z1.458 I0.783 J0.000 F199.998
G2 X-10.783 Y-40.000 Z1.354 I-0.783 J0.000 F199.998
G2 X-9.217 Y-40.000 Z1.250 I0.783 J0.000 F199.998
G2 X-10.783 Y-40.000 Z1.146 I-0.783 J0.000 F199.998
G2 X-9.217 Y-40.000 Z1.042 I0.783 J0.000 F199.998
G2 X-10.783 Y-40.000 Z0.938 I-0.783 J0.000 F199.998
G2 X-9.217 Y-40.000 Z0.833 I0.783 J0.000 F199.998
G2 X-10.783 Y-40.000 Z0.729 I-0.783 J0.000 F199.998
G2 X-9.217 Y-40.000 Z0.625 I0.783 J0.000 F199.998
G2 X-10.783 Y-40.000 Z0.521 I-0.783 J0.000 F199.998
G2 X-9.217 Y-40.000 Z0.417 I0.783 J0.000 F199.998
G2 X-10.783 Y-40.000 Z0.313 I-0.783 J0.000 F199.998
G2 X-9.217 Y-40.000 Z0.208 I0.783 J0.000 F199.998
G2 X-10.783 Y-40.000 Z0.104 I-0.783 J0.000 F199.998
G2 X-9.217 Y-40.000 Z0.000 I0.783 J0.000 F199.998
G2 X-10.783 Y-40.000 Z0.000 I-0.783 J0.000 F199.998
G2 X-9.217 Y-40.000 Z0.000 I0.783 J0.000 F199.998
G0 Z23.000
G0 X-8.751 Y-40.000
G0 Z23.000
G1 Z10.000 F100.000
G2 X-11.249 Y-40.000 Z9.896 I-1.249 J0.000 F199.998
G2 X-8.751 Y-40.000 Z9.792 I1.249 J0.000 F199.998
G2 X-11.249 Y-40.000 Z9.688 I-1.249 J0.000 F199.998
G2 X-8.751 Y-40.000 Z9.583 I1.249 J0.000 F199.998
G2 X-11.249 Y-40.000 Z9.479 I-1.249 J0.000 F199.998
G2 X-8.751 Y-40.000 Z9.375 I1.249 J0.000 F199.998
G2 X-11.249 Y-40.000 Z9.271 I-1.249 J0.000 F199.998
G2 X-8.751 Y-40.000 Z9.167 I1.249 J0.000 F199.998
G2 X-11.249 Y-40.000 Z9.062 I-1.249 J0.000 F199.998
G2 X-8.751 Y-40.000 Z8.958 I1.249 J0.000 F199.998
G2 X-11.249 Y-40.000 Z8.854 I-1.249 J0.000 F199.998
G2 X-8.751 Y-40.000 Z8.750 I1.249 J0.000 F199.998
G2 X-11.249 Y-40.000 Z8.646 I-1.249 J0.000 F199.998
G2 X-8.751 Y-40.000 Z8.542 I1.249 J0.000 F199.998
G2 X-11.249 Y-40.000 Z8.438 I-1.249 J0.000 F199.998
G2 X-8.751 Y-40.000 Z8.333 I1.249 J0.000 F199.998
G2 X-11.249 Y-40.000 Z8.229 I-1.249 J0.000 F199.998
G2 X-8.751 Y-40.000 Z8.125 I1.249 J0.000 F199.998
G2 X-11.249 Y-40.000 Z8.021 I-1.249 J0.000 F199.998
G2 X-8.751 Y-40.000 Z7.917 I1.249 J0.000 F199.998
G2 X-11.249 Y-40.000 Z7.813 I-1.249 J0.000 F199.998
G2 X-8.751 Y-40.000 Z7.708 I1.249 J0.000 F199.998
G2 X-11.249 Y-40.000 Z7.604 I-1.249 J0.000 F199.998
G2 X-8.751 Y-40.000 Z7.500 I1.249 J0.000 F199.998
G2 X-11.249 Y-40.000 Z7.396 I-1.249 J0.000 F199.998
G2 X-8.751 Y-40.000 Z7.292 I1.249 J0.000 F199.998
G2 X-11.249 Y-40.000 Z7.188 I-1.249 J0.000 F199.998
G2 X-8.751 Y-40.000 Z7.083 I1.249 J0.000 F199.998
G2 X-11.249 Y-40.000 Z6.979 I-1.249 J0.000 F199.998
G2 X-8.751 Y-40.000 Z6.875 I1.249 J0.000 F199.998
G2 X-11.249 Y-40.000 Z6.771 I-1.249 J0.000 F199.998
G2 X-8.751 Y-40.000 Z6.667 I1.249 J0.000 F199.998
G2 X-11.249 Y-40.000 Z6.563 I-1.249 J0.000 F199.998
G2 X-8.751 Y-40.000 Z6.458 I1.249 J0.000 F199.998
G2 X-11.249 Y-40.000 Z6.354 I-1.249 J0.000 F199.998
G2 X-8.751 Y-40.000 Z6.250 I1.249 J0.000 F199.998
G2 X-11.249 Y-40.000 Z6.146 I-1.249 J0.000 F199.998
G2 X-8.751 Y-40.000 Z6.042 I1.249 J0.000 F199.998
G2 X-11.249 Y-40.000 Z5.938 I-1.249 J0.000 F199.998
G2 X-8.751 Y-40.000 Z5.833 I1.249 J0.000 F199.998
G2 X-11.249 Y-40.000 Z5.729 I-1.249 J0.000 F199.998
G2 X-8.751 Y-40.000 Z5.625 I1.249 J0.000 F199.998
G2 X-11.249 Y-40.000 Z5.521 I-1.249 J0.000 F199.998
G2 X-8.751 Y-40.000 Z5.417 I1.249 J0.000 F199.998
G2 X-11.249 Y-40.000 Z5.313 I-1.249 J0.000 F199.998
G2 X-8.751 Y-40.000 Z5.208 I1.249 J0.000 F199.998
G2 X-11.249 Y-40.000 Z5.104 I-1.249 J0.000 F199.998
G2 X-8.751 Y-40.000 Z5.000 I1.249 J0.000 F199.998
G2 X-11.249 Y-40.000 Z4.896 I-1.249 J0.000 F199.998
G2 X-8.751 Y-40.000 Z4.792 I1.249 J0.000 F199.998
G2 X-11.249 Y-40.000 Z4.688 I-1.249 J0.000 F199.998
G2 X-8.751 Y-40.000 Z4.583 I1.249 J0.000 F199.998
G2 X-11.249 Y-40.000 Z4.479 I-1.249 J0.000 F199.998
G2 X-8.751 Y-40.000 Z4.375 I1.249 J0.000 F199.998
G2 X-11.249 Y-40.000 Z4.271 I-1.249 J0.000 F199.998
G2 X-8.751 Y-40.000 Z4.167 I1.249 J0.000 F199.998
G2 X-11.249 Y-40.000 Z4.063 I-1.249 J0.000 F199.998
G2 X-8.751 Y-40.000 Z3.958 I1.249 J0.000 F199.998
G2 X-11.249 Y-40.000 Z3.854 I-1.249 J0.000 F199.998
G2 X-8.751 Y-40.000 Z3.750 I1.249 J0.000 F199.998
G2 X-11.249 Y-40.000 Z3.646 I-1.249 J0.000 F199.998
G2 X-8.751 Y-40.000 Z3.542 I1.249 J0.000 F199.998
G2 X-11.249 Y-40.000 Z3.438 I-1.249 J0.000 F199.998
G2 X-8.751 Y-40.000 Z3.333 I1.249 J0.000 F199.998
G2 X-11.249 Y-40.000 Z3.229 I-1.249 J0.000 F199.998
G2 X-8.751 Y-40.000 Z3.125 I1.249 J0.000 F199.998
G2 X-11.249 Y-40.000 Z3.021 I-1.249 J0.000 F199.998
G2 X-8.751 Y-40.000 Z2.917 I1.249 J0.000 F199.998
G2 X-11.249 Y-40.000 Z2.813 I-1.249 J0.000 F199.998
G2 X-8.751 Y-40.000 Z2.708 I1.249 J0.000 F199.998
G2 X-11.249 Y-40.000 Z2.604 I-1.249 J0.000 F199.998
G2 X-8.751 Y-40.000 Z2.500 I1.249 J0.000 F199.998
G2 X-11.249 Y-40.000 Z2.396 I-1.249 J0.000 F199.998
G2 X-8.751 Y-40.000 Z2.292 I1.249 J0.000 F199.998
G2 X-11.249 Y-40.000 Z2.188 I-1.249 J0.000 F199.998
G2 X-8.751 Y-40.000 Z2.083 I1.249 J0.000 F199.998
G2 X-11.249 Y-40.000 Z1.979 I-1.249 J0.000 F199.998
G2 X-8.751 Y-40.000 Z1.875 I1.249 J0.000 F199.998
G2 X-11.249 Y-40.000 Z1.771 I-1.249 J0.000 F199.998
G2 X-8.751 Y-40.000 Z1.667 I1.249 J0.000 F199.998
G2 X-11.249 Y-40.000 Z1.563 I-1.249 J0.000 F199.998
G2 X-8.751 Y-40.000 Z1.458 I1.249 J0.000 F199.998
G2 X-11.249 Y-40.000 Z1.354 I-1.249 J0.000 F199.998
G2 X-8.751 Y-40.000 Z1.250 I1.249 J0.000 F199.998
G2 X-11.249 Y-40.000 Z1.146 I-1.249 J0.000 F199.998
G2 X-8.751 Y-40.000 Z1.042 I1.249 J0.000 F199.998
G2 X-11.249 Y-40.000 Z0.938 I-1.249 J0.000 F199.998
G2 X-8.751 Y-40.000 Z0.833 I1.249 J0.000 F199.998
G2 X-11.249 Y-40.000 Z0.729 I-1.249 J0.000 F199.998
G2 X-8.751 Y-40.000 Z0.625 I1.249 J0.000 F199.998
G2 X-11.249 Y-40.000 Z0.521 I-1.249 J0.000 F199.998
G2 X-8.751 Y-40.000 Z0.417 I1.249 J0.000 F199.998
G2 X-11.249 Y-40.000 Z0.313 I-1.249 J0.000 F199.998
G2 X-8.751 Y-40.000 Z0.208 I1.249 J0.000 F199.998
G2 X-11.249 Y-40.000 Z0.104 I-1.249 J0.000 F199.998
G2 X-8.751 Y-40.000 Z0.000 I1.249 J0.000 F199.998
G2 X-11.249 Y-40.000 Z0.000 I-1.249 J0.000 F199.998
G2 X-8.751 Y-40.000 Z0.000 I1.249 J0.000 F199.998
G0 Z23.000
G0 X-8.285 Y-40.000
G0 Z23.000
G1 Z10.000 F100.000
G2 X-11.715 Y-40.000 Z9.896 I-1.715 J0.000 F199.998
G2 X-8.285 Y-40.000 Z9.792 I1.715 J0.000 F199.998
G2 X-11.715 Y-40.000 Z9.688 I-1.715 J0.000 F199.998
G2 X-8.285 Y-40.000 Z9.583 I1.715 J0.000 F199.998
G2 X-11.715 Y-40.000 Z9.479 I-1.715 J0.000 F199.998
G2 X-8.285 Y-40.000 Z9.375 I1.715 J0.000 F199.998
G2 X-11.715 Y-40.000 Z9.271 I-1.715 J0.000 F199.998
G2 X-8.285 Y-40.000 Z9.167 I1.715 J0.000 F199.998
G2 X-11.715 Y-40.000 Z9.062 I-1.715 J0.000 F199.998
G2 X-8.285 Y-40.000 Z8.958 I1.715 J0.000 F199.998
G2 X-11.715 Y-40.000 Z8.854 I-1.715 J0.000 F199.998
G2 X-8.285 Y-40.000 Z8.750 I1.715 J0.000 F199.998
G2 X-11.715 Y-40.000 Z8.646 I-1.715 J0.000 F199.998
G2 X-8.285 Y-40.000 Z8.542 I1.715 J0.000 F199.998
G2 X-11.715 Y-40.000 Z8.438 I-1.715 J0.000 F199.998
G2 X-8.285 Y-40.000 Z8.333 I1.715 J0.000 F199.998
G2 X-11.715 Y-40.000 Z8.229 I-1.715 J0.000 F199.998
G2 X-8.285 Y-40.000 Z8.125 I1.715 J0.000 F199.998
G2 X-11.715 Y-40.000 Z8.021 I-1.715 J0.000 F199.998
G2 X-8.285 Y-40.000 Z7.917 I1.715 J0.000 F199.998
G2 X-11.715 Y-40.000 Z7.813 I-1.715 J0.000 F199.998
G2 X-8.285 Y-40.000 Z7.708 I1.715 J0.000 F199.998
G2 X-11.715 Y-40.000 Z7.604 I-1.715 J0.000 F199.998
G2 X-8.285 Y-40.000 Z7.500 I1.715 J0.000 F199.998
G2 X-11.715 Y-40.000 Z7.396 I-1.715 J0.000 F199.998
G2 X-8.285 Y-40.000 Z7.292 I1.715 J0.000 F199.998
G2 X-11.715 Y-40.000 Z7.188 I-1.715 J0.000 F199.998
G2 X-8.285 Y-40.000 Z7.083 I1.715 J0.000 F199.998
G2 X-11.715 Y-40.000 Z6.979 I-1.715 J0.000 F199.998
G2 X-8.285 Y-40.000 Z6.875 I1.715 J0.000 F199.998
G2 X-11.715 Y-40.000 Z6.771 I-1.715 J0.000 F199.998
G2 X-8.285 Y-40.000 Z6.667 I1.715 J0.000 F199.998
G2 X-11.715 Y-40.000 Z6.563 I-1.715 J0.000 F199.998
G2 X-8.285 Y-40.000 Z6.458 I1.715 J0.000 F199.998
G2 X-11.715 Y-40.000 Z6.354 I-1.715 J0.000 F199.998
G2 X-8.285 Y-40.000 Z6.250 I1.715 J0.000 F199.998
G2 X-11.715 Y-40.000 Z6.146 I-1.715 J0.000 F199.998
G2 X-8.285 Y-40.000 Z6.042 I1.715 J0.000 F199.998
G2 X-11.715 Y-40.000 Z5.938 I-1.715 J0.000 F199.998
G2 X-8.285 Y-40.000 Z5.833 I1.715 J0.000 F199.998
G2 X-11.715 Y-40.000 Z5.729 I-1.715 J0.000 F199.998
G2 X-8.285 Y-40.000 Z5.625 I1.715 J0.000 F199.998
G2 X-11.715 Y-40.000 Z5.521 I-1.715 J0.000 F199.998
G2 X-8.285 Y-40.000 Z5.417 I1.715 J0.000 F199.998
G2 X-11.715 Y-40.000 Z5.313 I-1.715 J0.000 F199.998
G2 X-8.285 Y-40.000 Z5.208 I1.715 J0.000 F199.998
G2 X-11.715 Y-40.000 Z5.104 I-1.715 J0.000 F199.998
G2 X-8.285 Y-40.000 Z5.000 I1.715 J0.000 F199.998
G2 X-11.715 Y-40.000 Z4.896 I-1.715 J0.000 F199.998
G2 X-8.285 Y-40.000 Z4.792 I1.715 J0.000 F199.998
G2 X-11.715 Y-40.000 Z4.688 I-1.715 J0.000 F199.998
G2 X-8.285 Y-40.000 Z4.583 I1.715 J0.000 F199.998
G2 X-11.715 Y-40.000 Z4.479 I-1.715 J0.000 F199.998
G2 X-8.285 Y-40.000 Z4.375 I1.715 J0.000 F199.998
G2 X-11.715 Y-40.000 Z4.271 I-1.715 J0.000 F199.998
G2 X-8.285 Y-40.000 Z4.167 I1.715 J0.000 F199.998
G2 X-11.715 Y-40.000 Z4.063 I-1.715 J0.000 F199.998
G2 X-8.285 Y-40.000 Z3.958 I1.715 J0.000 F199.998
G2 X-11.715 Y-40.000 Z3.854 I-1.715 J0.000 F199.998
G2 X-8.285 Y-40.000 Z3.750 I1.715 J0.000 F199.998
G2 X-11.715 Y-40.000 Z3.646 I-1.715 J0.000 F199.998
G2 X-8.285 Y-40.000 Z3.542 I1.715 J0.000 F199.998
G2 X-11.715 Y-40.000 Z3.438 I-1.715 J0.000 F199.998
G2 X-8.285 Y-40.000 Z3.333 I1.715 J0.000 F199.998
G2 X-11.715 Y-40.000 Z3.229 I-1.715 J0.000 F199.998
G2 X-8.285 Y-40.000 Z3.125 I1.715 J0.000 F199.998
G2 X-11.715 Y-40.000 Z3.021 I-1.715 J0.000 F199.998
G2 X-8.285 Y-40.000 Z2.917 I1.715 J0.000 F199.998
G2 X-11.715 Y-40.000 Z2.813 I-1.715 J0.000 F199.998
G2 X-8.285 Y-40.000 Z2.708 I1.715 J0.000 F199.998
G2 X-11.715 Y-40.000 Z2.604 I-1.715 J0.000 F199.998
G2 X-8.285 Y-40.000 Z2.500 I1.715 J0.000 F199.998
G2 X-11.715 Y-40.000 Z2.396 I-1.715 J0.000 F199.998
G2 X-8.285 Y-40.000 Z2.292 I1.715 J0.000 F199.998
G2 X-11.715 Y-40.000 Z2.188 I-1.715 J0.000 F199.998
G2 X-8.285 Y-40.000 Z2.083 I1.715 J0.000 F199.998
G2 X-11.715 Y-40.000 Z1.979 I-1.715 J0.000 F199.998
G2 X-8.285 Y-40.000 Z1.875 I1.715 J0.000 F199.998
G2 X-11.715 Y-40.000 Z1.771 I-1.715 J0.000 F199.998
G2 X-8.285 Y-40.000 Z1.667 I1.715 J0.000 F199.998
G2 X-11.715 Y-40.000 Z1.563 I-1.715 J0.000 F199.998
G2 X-8.285 Y-40.000 Z1.458 I1.715 J0.000 F199.998
G2 X-11.715 Y-40.000 Z1.354 I-1.715 J0.000 F199.998
G2 X-8.285 Y-40.000 Z1.250 I1.715 J0.000 F199.998
G2 X-11.715 Y-40.000 Z1.146 I-1.715 J0.000 F199.998
G2 X-8.285 Y-40.000 Z1.042 I1.715 J0.000 F199.998
G2 X-11.715 Y-40.000 Z0.938 I-1.715 J0.000 F199.998
G2 X-8.285 Y-40.000 Z0.833 I1.715 J0.000 F199.998
G2 X-11.715 Y-40.000 Z0.729 I-1.715 J0.000 F199.998
G2 X-8.285 Y-40.000 Z0.625 I1.715 J0.000 F199.998
G2 X-11.715 Y-40.000 Z0.521 I-1.715 J0.000 F199.998
G2 X-8.285 Y-40.000 Z0.417 I1.715 J0.000 F199.998
G2 X-11.715 Y-40.000 Z0.313 I-1.715 J0.000 F199.998
G2 X-8.285 Y-40.000 Z0.208 I1.715 J0.000 F199.998
G2 X-11.715 Y-40.000 Z0.104 I-1.715 J0.000 F199.998
G2 X-8.285 Y-40.000 Z0.000 I1.715 J0.000 F199.998
G2 X-11.715 Y-40.000 Z0.000 I-1.715 J0.000 F199.998
G2 X-8.285 Y-40.000 Z0.000 I1.715 J0.000 F199.998
G0 Z23.000
G0 X-13.702 Y-55.000
G0 Z23.000
G1 Z10.000 F100.000
G2 X-14.336 Y-55.000 Z9.896 I-0.317 J0.000 F199.998
G2 X-13.702 Y-55.000 Z9.792 I0.317 J0.000 F199.998
G2 X-14.336 Y-55.000 Z9.688 I-0.317 J0.000 F199.998
G2 X-13.702 Y-55.000 Z9.583 I0.317 J0.000 F199.998
G2 X-14.336 Y-55.000 Z9.479 I-0.317 J0.000 F199.998
G2 X-13.702 Y-55.000 Z9.375 I0.317 J0.000 F199.998
G2 X-14.336 Y-55.000 Z9.271 I-0.317 J0.000 F199.998
G2 X-13.702 Y-55.000 Z9.167 I0.317 J0.000 F199.998
G2 X-14.336 Y-55.000 Z9.062 I-0.317 J0.000 F199.998
G2 X-13.702 Y-55.000 Z8.958 I0.317 J0.000 F199.998
G2 X-14.336 Y-55.000 Z8.854 I-0.317 J0.000 F199.998
G2 X-13.702 Y-55.000 Z8.750 I0.317 J0.000 F199.998
G2 X-14.336 Y-55.000 Z8.646 I-0.317 J0.000 F199.998
G2 X-13.702 Y-55.000 Z8.542 I0.317 J0.000 F199.998
G2 X-14.336 Y-55.000 Z8.438 I-0.317 J0.000 F199.998
G2 X-13.702 Y-55.000 Z8.333 I0.317 J0.000 F199.998
G2 X-14.336 Y-55.000 Z8.229 I-0.317 J0.000 F199.998
G2 X-13.702 Y-55.000 Z8.125 I0.317 J0.000 F199.998
G2 X-14.336 Y-55.000 Z8.021 I-0.317 J0.000 F199.998
G2 X-13.702 Y-55.000 Z7.917 I0.317 J0.000 F199.998
G2 X-14.336 Y-55.000 Z7.813 I-0.317 J0.000 F199.998
G2 X-13.702 Y-55.000 Z7.708 I0.317 J0.000 F199.998
G2 X-14.336 Y-55.000 Z7.604 I-0.317 J0.000 F199.998
G2 X-13.702 Y-55.000 Z7.500 I0.317 J0.000 F199.998
G2 X-14.336 Y-55.000 Z7.396 I-0.317 J0.000 F199.998
G2 X-13.702 Y-55.000 Z7.292 I0.317 J0.000 F199.998
G2 X-14.336 Y-55.000 Z7.188 I-0.317 J0.000 F199.998
G2 X-13.702 Y-55.000 Z7.083 I0.317 J0.000 F199.998
G2 X-14.336 Y-55.000 Z6.979 I-0.317 J0.000 F199.998
G2 X-13.702 Y-55.000 Z6.875 I0.317 J0.000 F199.998
G2 X-14.336 Y-55.000 Z6.771 I-0.317 J0.000 F199.998
G2 X-13.702 Y-55.000 Z6.667 I0.317 J0.000 F199.998
G2 X-14.336 Y-55.000 Z6.563 I-0.317 J0.000 F199.998
G2 X-13.702 Y-55.000 Z6.458 I0.317 J0.000 F199.998
G2 X-14.336 Y-55.000 Z6.354 I-0.317 J0.000 F199.998
G2 X-13.702 Y-55.000 Z6.250 I0.317 J0.000 F199.998
G2 X-14.336 Y-55.000 Z6.146 I-0.317 J0.000 F199.998
G2 X-13.702 Y-55.000 Z6.042 I0.317 J0.000 F199.998
G2 X-14.336 Y-55.000 Z5.938 I-0.317 J0.000 F199.998
G2 X-13.702 Y-55.000 Z5.833 I0.317 J0.000 F199.998
G2 X-14.336 Y-55.000 Z5.729 I-0.317 J0.000 F199.998
G2 X-13.702 Y-55.000 Z5.625 I0.317 J0.000 F199.998
G2 X-14.336 Y-55.000 Z5.521 I-0.317 J0.000 F199.998
G2 X-13.702 Y-55.000 Z5.417 I0.317 J0.000 F199.998
G2 X-14.336 Y-55.000 Z5.313 I-0.317 J0.000 F199.998
G2 X-13.702 Y-55.000 Z5.208 I0.317 J0.000 F199.998
G2 X-14.336 Y-55.000 Z5.104 I-0.317 J0.000 F199.998
G2 X-13.702 Y-55.000 Z5.000 I0.317 J0.000 F199.998
G2 X-14.336 Y-55.000 Z4.896 I-0.317 J0.000 F199.998
G2 X-13.702 Y-55.000 Z4.792 I0.317 J0.000 F199.998
G2 X-14.336 Y-55.000 Z4.688 I-0.317 J0.000 F199.998
G2 X-13.702 Y-55.000 Z4.583 I0.317 J0.000 F199.998
G2 X-14.336 Y-55.000 Z4.479 I-0.317 J0.000 F199.998
G2 X-13.702 Y-55.000 Z4.375 I0.317 J0.000 F199.998
G2 X-14.336 Y-55.000 Z4.271 I-0.317 J0.000 F199.998
G2 X-13.702 Y-55.000 Z4.167 I0.317 J0.000 F199.998
G2 X-14.336 Y-55.000 Z4.063 I-0.317 J0.000 F199.998
G2 X-13.702 Y-55.000 Z3.958 I0.317 J0.000 F199.998
G2 X-14.336 Y-55.000 Z3.854 I-0.317 J0.000 F199.998
G2 X-13.702 Y-55.000 Z3.750 I0.317 J0.000 F199.998
G2 X-14.336 Y-55.000 Z3.646 I-0.317 J0.000 F199.998
G2 X-13.702 Y-55.000 Z3.542 I0.317 J0.000 F199.998
G2 X-14.336 Y-55.000 Z3.438 I-0.317 J0.000 F199.998
G2 X-13.702 Y-55.000 Z3.333 I0.317 J0.000 F199.998
G2 X-14.336 Y-55.000 Z3.229 I-0.317 J0.000 F199.998
G2 X-13.702 Y-55.000 Z3.125 I0.317 J0.000 F199.998
G2 X-14.336 Y-55.000 Z3.021 I-0.317 J0.000 F199.998
G2 X-13.702 Y-55.000 Z2.917 I0.317 J0.000 F199.998
G2 X-14.336 Y-55.000 Z2.813 I-0.317 J0.000 F199.998
G2 X-13.702 Y-55.000 Z2.708 I0.317 J0.000 F199.998
G2 X-14.336 Y-55.000 Z2.604 I-0.317 J0.000 F199.998
G2 X-13.702 Y-55.000 Z2.500 I0.317 J0.000 F199.998
G2 X-14.336 Y-55.000 Z2.396 I-0.317 J0.000 F199.998
G2 X-13.702 Y-55.000 Z2.292 I0.317 J0.000 F199.998
G2 X-14.336 Y-55.000 Z2.188 I-0.317 J0.000 F199.998
G2 X-13.702 Y-55.000 Z2.083 I0.317 J0.000 F199.998
G2 X-14.336 Y-55.000 Z1.979 I-0.317 J0.000 F199.998
G2 X-13.702 Y-55.000 Z1.875 I0.317 J0.000 F199.998
G2 X-14.336 Y-55.000 Z1.771 I-0.317 J0.000 F199.998
G2 X-13.702 Y-55.000 Z1.667 I0.317 J0.000 F199.998
G2 X-14.336 Y-55.000 Z1.563 I-0.317 J0.000 F199.998
G2 X-13.702 Y-55.000 Z1.458 I0.317 J0.000 F199.998
G2 X-14.336 Y-55.000 Z1.354 I-0.317 J0.000 F199.998
G2 X-13.702 Y-55.000 Z1.250 I0.317 J0.000 F199.998
G2 X-14.336 Y-55.000 Z1.146 I-0.317 J0.000 F199.998
G2 X-13.702 Y-55.000 Z1.042 I0.317 J0.000 F199.998
G2 X-14.336 Y-55.000 Z0.938 I-0.317 J0.000 F199.998
G2 X-13.702 Y-55.000 Z0.833 I0.317 J0.000 F199.998
G2 X-14.336 Y-55.000 Z0.729 I-0.317 J0.000 F199.998
G2 X-13.702 Y-55.000 Z0.625 I0.317 J0.000 F199.998
G2 X-14.336 Y-55.000 Z0.521 I-0.317 J0.000 F199.998
G2 X-13.702 Y-55.000 Z0.417 I0.317 J0.000 F199.998
G2 X-14.336 Y-55.000 Z0.313 I-0.317 J0.000 F199.998
G2 X-13.702 Y-55.000 Z0.208 I0.317 J0.000 F199.998
G2 X-14.336 Y-55.000 Z0.104 I-0.317 J0.000 F199.998
G2 X-13.702 Y-55.000 Z0.000 I0.317 J0.000 F199.998
G2 X-14.336 Y-55.000 Z0.000 I-0.317 J0.000 F199.998
G2 X-13.702 Y-55.000 Z0.000 I0.317 J0.000 F199.998
G0 Z23.000
G0 X-13.104 Y-55.000
G0 Z23.000
G1 Z10.000 F100.000
G2 X-14.934 Y-55.000 Z9.896 I-0.915 J0.000 F199.998
G2 X-13.104 Y-55.000 Z9.792 I0.915 J0.000 F199.998
G2 X-14.934 Y-55.000 Z9.688 I-0.915 J0.000 F199.998
G2 X-13.104 Y-55.000 Z9.583 I0.915 J0.000 F199.998
G2 X-14.934 Y-55.000 Z9.479 I-0.915 J0.000 F199.998
G2 X-13.104 Y-55.000 Z9.375 I0.915 J0.000 F199.998
G2 X-14.934 Y-55.000 Z9.271 I-0.915 J0.000 F199.998
G2 X-13.104 Y-55.000 Z9.167 I0.915 J0.000 F199.998
G2 X-14.934 Y-55.000 Z9.062 I-0.915 J0.000 F199.998
G2 X-13.104 Y-55.000 Z8.958 I0.915 J0.000 F199.998
G2 X-14.934 Y-55.000 Z8.854 I-0.915 J0.000 F199.998
G2 X-13.104 Y-55.000 Z8.750 I0.915 J0.000 F199.998
G2 X-14.934 Y-55.000 Z8.646 I-0.915 J0.000 F199.998
G2 X-13.104 Y-55.000 Z8.542 I0.915 J0.000 F199.998
G2 X-14.934 Y-55.000 Z8.438 I-0.915 J0.000 F199.998
G2 X-13.104 Y-55.000 Z8.333 I0.915 J0.000 F199.998
G2 X-14.934 Y-55.000 Z8.229 I-0.915 J0.000 F199.998
G2 X-13.104 Y-55.000 Z8.125 I0.915 J0.000 F199.998
G2 X-14.934 Y-55.000 Z8.021 I-0.915 J0.000 F199.998
G2 X-13.104 Y-55.000 Z7.917 I0.915 J0.000 F199.998
G2 X-14.934 Y-55.000 Z7.813 I-0.915 J0.000 F199.998
G2 X-13.104 Y-55.000 Z7.708 I0.915 J0.000 F199.998
G2 X-14.934 Y-55.000 Z7.604 I-0.915 J0.000 F199.998
G2 X-13.104 Y-55.000 Z7.500 I0.915 J0.000 F199.998
G2 X-14.934 Y-55.000 Z7.396 I-0.915 J0.000 F199.998
G2 X-13.104 Y-55.000 Z7.292 I0.915 J0.000 F199.998
G2 X-14.934 Y-55.000 Z7.188 I-0.915 J0.000 F199.998
G2 X-13.104 Y-55.000 Z7.083 I0.915 J0.000 F199.998
G2 X-14.934 Y-55.000 Z6.979 I-0.915 J0.000 F199.998
G2 X-13.104 Y-55.000 Z6.875 I0.915 J0.000 F199.998
G2 X-14.934 Y-55.000 Z6.771 I-0.915 J0.000 F199.998
G2 X-13.104 Y-55.000 Z6.667 I0.915 J0.000 F199.998
G2 X-14.934 Y-55.000 Z6.563 I-0.915 J0.000 F199.998
G2 X-13.104 Y-55.000 Z6.458 I0.915 J0.000 F199.998
G2 X-14.934 Y-55.000 Z6.354 I-0.915 J0.000 F199.998
G2 X-13.104 Y-55.000 Z6.250 I0.915 J0.000 F199.998
G2 X-14.934 Y-55.000 Z6.146 I-0.915 J0.000 F199.998
G2 X-13.104 Y-55.000 Z6.042 I0.915 J0.000 F199.998
G2 X-14.934 Y-55.000 Z5.938 I-0.915 J0.000 F199.998
G2 X-13.104 Y-55.000 Z5.833 I0.915 J0.000 F199.998
G2 X-14.934 Y-55.000 Z5.729 I-0.915 J0.000 F199.998
G2 X-13.104 Y-55.000 Z5.625 I0.915 J0.000 F199.998
G2 X-14.934 Y-55.000 Z5.521 I-0.915 J0.000 F199.998
G2 X-13.104 Y-55.000 Z5.417 I0.915 J0.000 F199.998
G2 X-14.934 Y-55.000 Z5.313 I-0.915 J0.000 F199.998
G2 X-13.104 Y-55.000 Z5.208 I0.915 J0.000 F199.998
G2 X-14.934 Y-55.000 Z5.104 I-0.915 J0.000 F199.998
G2 X-13.104 Y-55.000 Z5.000 I0.915 J0.000 F199.998
G2 X-14.934 Y-55.000 Z4.896 I-0.915 J0.000 F199.998
G2 X-13.104 Y-55.000 Z4.792 I0.915 J0.000 F199.998
G2 X-14.934 Y-55.000 Z4.688 I-0.915 J0.000 F199.998
G2 X-13.104 Y-55.000 Z4.583 I0.915 J0.000 F199.998
G2 X-14.934 Y-55.000 Z4.479 I-0.915 J0.000 F199.998
G2 X-13.104 Y-55.000 Z4.375 I0.915 J0.000 F199.998
G2 X-14.934 Y-55.000 Z4.271 I-0.915 J0.000 F199.998
G2 X-13.104 Y-55.000 Z4.167 I0.915 J0.000 F199.998
G2 X-14.934 Y-55.000 Z4.063 I-0.915 J0.000 F199.998
G2 X-13.104 Y-55.000 Z3.958 I0.915 J0.000 F199.998
G2 X-14.934 Y-55.000 Z3.854 I-0.915 J0.000 F199.998
G2 X-13.104 Y-55.000 Z3.750 I0.915 J0.000 F199.998
G2 X-14.934 Y-55.000 Z3.646 I-0.915 J0.000 F199.998
G2 X-13.104 Y-55.000 Z3.542 I0.915 J0.000 F199.998
G2 X-14.934 Y-55.000 Z3.438 I-0.915 J0.000 F199.998
G2 X-13.104 Y-55.000 Z3.333 I0.915 J0.000 F199.998
G2 X-14.934 Y-55.000 Z3.229 I-0.915 J0.000 F199.998
G2 X-13.104 Y-55.000 Z3.125 I0.915 J0.000 F199.998
G2 X-14.934 Y-55.000 Z3.021 I-0.915 J0.000 F199.998
G2 X-13.104 Y-55.000 Z2.917 I0.915 J0.000 F199.998
G2 X-14.934 Y-55.000 Z2.813 I-0.915 J0.000 F199.998
G2 X-13.104 Y-55.000 Z2.708 I0.915 J0.000 F199.998
G2 X-14.934 Y-55.000 Z2.604 I-0.915 J0.000 F199.998
G2 X-13.104 Y-55.000 Z2.500 I0.915 J0.000 F199.998
G2 X-14.934 Y-55.000 Z2.396 I-0.915 J0.000 F199.998
G2 X-13.104 Y-55.000 Z2.292 I0.915 J0.000 F199.998
G2 X-14.934 Y-55.000 Z2.188 I-0.915 J0.000 F199.998
G2 X-13.104 Y-55.000 Z2.083 I0.915 J0.000 F199.998
G2 X-14.934 Y-55.000 Z1.979 I-0.915 J0.000 F199.998
G2 X-13.104 Y-55.000 Z1.875 I0.915 J0.000 F199.998
G2 X-14.934 Y-55.000 Z1.771 I-0.915 J0.000 F199.998
G2 X-13.104 Y-55.000 Z1.667 I0.915 J0.000 F199.998
G2 X-14.934 Y-55.000 Z1.563 I-0.915 J0.000 F199.998
G2 X-13.104 Y-55.000 Z1.458 I0.915 J0.000 F199.998
G2 X-14.934 Y-55.000 Z1.354 I-0.915 J0.000 F199.998
G2 X-13.104 Y-55.000 Z1.250 I0.915 J0.000 F199.998
G2 X-14.934 Y-55.000 Z1.146 I-0.915 J0.000 F199.998
G2 X-13.104 Y-55.000 Z1.042 I0.915 J0.000 F199.998
G2 X-14.934 Y-55.000 Z0.938 I-0.915 J0.000 F199.998
G2 X-13.104 Y-55.000 Z0.833 I0.915 J0.000 F199.998
G2 X-14.934 Y-55.000 Z0.729 I-0.915 J0.000 F199.998
G2 X-13.104 Y-55.000 Z0.625 I0.915 J0.000 F199.998
G2 X-14.934 Y-55.000 Z0.521 I-0.915 J0.000 F199.998
G2 X-13.104 Y-55.000 Z0.417 I0.915 J0.000 F199.998
G2 X-14.934 Y-55.000 Z0.313 I-0.915 J0.000 F199.998
G2 X-13.104 Y-55.000 Z0.208 I0.915 J0.000 F199.998
G2 X-14.934 Y-55.000 Z0.104 I-0.915 J0.000 F199.998
G2 X-13.104 Y-55.000 Z0.000 I0.915 J0.000 F199.998
G2 X-14.934 Y-55.000 Z0.000 I-0.915 J0.000 F199.998
G2 X-13.104 Y-55.000 Z0.000 I0.915 J0.000 F199.998
G0 Z23.000
G0 X-24.683 Y-65.981
G0 Z23.000
G1 Z10.000 F100.000
G2 X-25.317 Y-65.981 Z9.896 I-0.317 J0.000 F199.998
G2 X-24.683 Y-65.981 Z9.792 I0.317 J0.000 F199.998
G2 X-25.317 Y-65.981 Z9.688 I-0.317 J0.000 F199.998
G2 X-24.683 Y-65.981 Z9.583 I0.317 J0.000 F199.998
G2 X-25.317 Y-65.981 Z9.479 I-0.317 J0.000 F199.998
G2 X-24.683 Y-65.981 Z9.375 I0.317 J0.000 F199.998
G2 X-25.317 Y-65.981 Z9.271 I-0.317 J0.000 F199.998
G2 X-24.683 Y-65.981 Z9.167 I0.317 J0.000 F199.998
G2 X-25.317 Y-65.981 Z9.062 I-0.317 J0.000 F199.998
G2 X-24.683 Y-65.981 Z8.958 I0.317 J0.000 F199.998
G2 X-25.317 Y-65.981 Z8.854 I-0.317 J0.000 F199.998
G2 X-24.683 Y-65.981 Z8.750 I0.317 J0.000 F199.998
G2 X-25.317 Y-65.981 Z8.646 I-0.317 J0.000 F199.998
G2 X-24.683 Y-65.981 Z8.542 I0.317 J0.000 F199.998
G2 X-25.317 Y-65.981 Z8.438 I-0.317 J0.000 F199.998
G2 X-24.683 Y-65.981 Z8.333 I0.317 J0.000 F199.998
G2 X-25.317 Y-65.981 Z8.229 I-0.317 J0.000 F199.998
G2 X-24.683 Y-65.981 Z8.125 I0.317 J0.000 F199.998
G2 X-25.317 Y-65.981 Z8.021 I-0.317 J0.000 F199.998
G2 X-24.683 Y-65.981 Z7.917 I0.317 J0.000 F199.998
G2 X-25.317 Y-65.981 Z7.813 I-0.317 J0.000 F199.998
G2 X-24.683 Y-65.981 Z7.708 I0.317 J0.000 F199.998
G2 X-25.317 Y-65.981 Z7.604 I-0.317 J0.000 F199.998
G2 X-24.683 Y-65.981 Z7.500 I0.317 J0.000 F199.998
G2 X-25.317 Y-65.981 Z7.396 I-0.317 J0.000 F199.998
G2 X-24.683 Y-65.981 Z7.292 I0.317 J0.000 F199.998
G2 X-25.317 Y-65.981 Z7.188 I-0.317 J0.000 F199.998
G2 X-24.683 Y-65.981 Z7.083 I0.317 J0.000 F199.998
G2 X-25.317 Y-65.981 Z6.979 I-0.317 J0.000 F199.998
G2 X-24.683 Y-65.981 Z6.875 I0.317 J0.000 F199.998
G2 X-25.317 Y-65.981 Z6.771 I-0.317 J0.000 F199.998
G2 X-24.683 Y-65.981 Z6.667 I0.317 J0.000 F199.998
G2 X-25.317 Y-65.981 Z6.563 I-0.317 J0.000 F199.998
G2 X-24.683 Y-65.981 Z6.458 I0.317 J0.000 F199.998
G2 X-25.317 Y-65.981 Z6.354 I-0.317 J0.000 F199.998
G2 X-24.683 Y-65.981 Z6.250 I0.317 J0.000 F199.998
G2 X-25.317 Y-65.981 Z6.146 I-0.317 J0.000 F199.998
G2 X-24.683 Y-65.981 Z6.042 I0.317 J0.000 F199.998
G2 X-25.317 Y-65.981 Z5.938 I-0.317 J0.000 F199.998
G2 X-24.683 Y-65.981 Z5.833 I0.317 J0.000 F199.998
G2 X-25.317 Y-65.981 Z5.729 I-0.317 J0.000 F199.998
G2 X-24.683 Y-65.981 Z5.625 I0.317 J0.000 F199.998
G2 X-25.317 Y-65.981 Z5.521 I-0.317 J0.000 F199.998
G2 X-24.683 Y-65.981 Z5.417 I0.317 J0.000 F199.998
G2 X-25.317 Y-65.981 Z5.313 I-0.317 J0.000 F199.998
G2 X-24.683 Y-65.981 Z5.208 I0.317 J0.000 F199.998
G2 X-25.317 Y-65.981 Z5.104 I-0.317 J0.000 F199.998
G2 X-24.683 Y-65.981 Z5.000 I0.317 J0.000 F199.998
G2 X-25.317 Y-65.981 Z4.896 I-0.317 J0.000 F199.998
G2 X-24.683 Y-65.981 Z4.792 I0.317 J0.000 F199.998
G2 X-25.317 Y-65.981 Z4.688 I-0.317 J0.000 F199.998
G2 X-24.683 Y-65.981 Z4.583 I0.317 J0.000 F199.998
G2 X-25.317 Y-65.981 Z4.479 I-0.317 J0.000 F199.998
G2 X-24.683 Y-65.981 Z4.375 I0.317 J0.000 F199.998
G2 X-25.317 Y-65.981 Z4.271 I-0.317 J0.000 F199.998
G2 X-24.683 Y-65.981 Z4.167 I0.317 J0.000 F199.998
G2 X-25.317 Y-65.981 Z4.063 I-0.317 J0.000 F199.998
G2 X-24.683 Y-65.981 Z3.958 I0.317 J0.000 F199.998
G2 X-25.317 Y-65.981 Z3.854 I-0.317 J0.000 F199.998
G2 X-24.683 Y-65.981 Z3.750 I0.317 J0.000 F199.998
G2 X-25.317 Y-65.981 Z3.646 I-0.317 J0.000 F199.998
G2 X-24.683 Y-65.981 Z3.542 I0.317 J0.000 F199.998
G2 X-25.317 Y-65.981 Z3.438 I-0.317 J0.000 F199.998
G2 X-24.683 Y-65.981 Z3.333 I0.317 J0.000 F199.998
G2 X-25.317 Y-65.981 Z3.229 I-0.317 J0.000 F199.998
G2 X-24.683 Y-65.981 Z3.125 I0.317 J0.000 F199.998
G2 X-25.317 Y-65.981 Z3.021 I-0.317 J0.000 F199.998
G2 X-24.683 Y-65.981 Z2.917 I0.317 J0.000 F199.998
G2 X-25.317 Y-65.981 Z2.813 I-0.317 J0.000 F199.998
G2 X-24.683 Y-65.981 Z2.708 I0.317 J0.000 F199.998
G2 X-25.317 Y-65.981 Z2.604 I-0.317 J0.000 F199.998
G2 X-24.683 Y-65.981 Z2.500 I0.317 J0.000 F199.998
G2 X-25.317 Y-65.981 Z2.396 I-0.317 J0.000 F199.998
G2 X-24.683 Y-65.981 Z2.292 I0.317 J0.000 F199.998
G2 X-25.317 Y-65.981 Z2.188 I-0.317 J0.000 F199.998
G2 X-24.683 Y-65.981 Z2.083 I0.317 J0.000 F199.998
G2 X-25.317 Y-65.981 Z1.979 I-0.317 J0.000 F199.998
G2 X-24.683 Y-65.981 Z1.875 I0.317 J0.000 F199.998
G2 X-25.317 Y-65.981 Z1.771 I-0.317 J0.000 F199.998
G2 X-24.683 Y-65.981 Z1.667 I0.317 J0.000 F199.998
G2 X-25.317 Y-65.981 Z1.563 I-0.317 J0.000 F199.998
G2 X-24.683 Y-65.981 Z1.458 I0.317 J0.000 F199.998
G2 X-25.317 Y-65.981 Z1.354 I-0.317 J0.000 F199.998
G2 X-24.683 Y-65.981 Z1.250 I0.317 J0.000 F199.998
G2 X-25.317 Y-65.981 Z1.146 I-0.317 J0.000 F199.998
G2 X-24.683 Y-65.981 Z1.042 I0.317 J0.000 F199.998
G2 X-25.317 Y-65.981 Z0.938 I-0.317 J0.000 F199.998
G2 X-24.683 Y-65.981 Z0.833 I0.317 J0.000 F199.998
G2 X-25.317 Y-65.981 Z0.729 I-0.317 J0.000 F199.998
G2 X-24.683 Y-65.981 Z0.625 I0.317 J0.000 F199.998
G2 X-25.317 Y-65.981 Z0.521 I-0.317 J0.000 F199.998
G2 X-24.683 Y-65.981 Z0.417 I0.317 J0.000 F199.998
G2 X-25.317 Y-65.981 Z0.313 I-0.317 J0.000 F199.998
G2 X-24.683 Y-65.981 Z0.208 I0.317 J0.000 F199.998
G2 X-25.317 Y-65.981 Z0.104 I-0.317 J0.000 F199.998
G2 X-24.683 Y-65.981 Z0.000 I0.317 J0.000 F199.998
G2 X-25.317 Y-65.981 Z0.000 I-0.317 J0.000 F199.998
G2 X-24.683 Y-65.981 Z0.000 I0.317 J0.000 F199.998
G0 Z23.000
G0 X-24.217 Y-65.981
G0 Z23.000
G1 Z10.000 F100.000
G2 X-25.783 Y-65.981 Z9.896 I-0.783 J0.000 F199.998
G2 X-24.217 Y-65.981 Z9.792 I0.783 J0.000 F199.998
G2 X-25.783 Y-65.981 Z9.688 I-0.783 J0.000 F199.998
G2 X-24.217 Y-65.981 Z9.583 I0.783 J0.000 F199.998
G2 X-25.783 Y-65.981 Z9.479 I-0.783 J0.000 F199.998
G2 X-24.217 Y-65.981 Z9.375 I0.783 J0.000 F199.998
G2 X-25.783 Y-65.981 Z9.271 I-0.783 J0.000 F199.998
G2 X-24.217 Y-65.981 Z9.167 I0.783 J0.000 F199.998
G2 X-25.783 Y-65.981 Z9.062 I-0.783 J0.000 F199.998
G2 X-24.217 Y-65.981 Z8.958 I0.783 J0.000 F199.998
G2 X-25.783 Y-65.981 Z8.854 I-0.783 J0.000 F199.998
G2 X-24.217 Y-65.981 Z8.750 I0.783 J0.000 F199.998
G2 X-25.783 Y-65.981 Z8.646 I-0.783 J0.000 F199.998
G2 X-24.217 Y-65.981 Z8.542 I0.783 J0.000 F199.998
G2 X-25.783 Y-65.981 Z8.438 I-0.783 J0.000 F199.998
G2 X-24.217 Y-65.981 Z8.333 I0.783 J0.000 F199.998
G2 X-25.783 Y-65.981 Z8.229 I-0.783 J0.000 F199.998
G2 X-24.217 Y-65.981 Z8.125 I0.783 J0.000 F199.998
G2 X-25.783 Y-65.981 Z8.021 I-0.783 J0.000 F199.998
G2 X-24.217 Y-65.981 Z7.917 I0.783 J0.000 F199.998
G2 X-25.783 Y-65.981 Z7.813 I-0.783 J0.000 F199.998
G2 X-24.217 Y-65.981 Z7.708 I0.783 J0.000 F199.998
G2 X-25.783 Y-65.981 Z7.604 I-0.783 J0.000 F199.998
G2 X-24.217 Y-65.981 Z7.500 I0.783 J0.000 F199.998
G2 X-25.783 Y-65.981 Z7.396 I-0.783 J0.000 F199.998
G2 X-24.217 Y-65.981 Z7.292 I0.783 J0.000 F199.998
G2 X-25.783 Y-65.981 Z7.188 I-0.783 J0.000 F199.998
G2 X-24.217 Y-65.981 Z7.083 I0.783 J0.000 F199.998
G2 X-25.783 Y-65.981 Z6.979 I-0.783 J0.000 F199.998
G2 X-24.217 Y-65.981 Z6.875 I0.783 J0.000 F199.998
G2 X-25.783 Y-65.981 Z6.771 I-0.783 J0.000 F199.998
G2 X-24.217 Y-65.981 Z6.667 I0.783 J0.000 F199.998
G2 X-25.783 Y-65.981 Z6.563 I-0.783 J0.000 F199.998
G2 X-24.217 Y-65.981 Z6.458 I0.783 J0.000 F199.998
G2 X-25.783 Y-65.981 Z6.354 I-0.783 J0.000 F199.998
G2 X-24.217 Y-65.981 Z6.250 I0.783 J0.000 F199.998
G2 X-25.783 Y-65.981 Z6.146 I-0.783 J0.000 F199.998
G2 X-24.217 Y-65.981 Z6.042 I0.783 J0.000 F199.998
G2 X-25.783 Y-65.981 Z5.938 I-0.783 J0.000 F199.998
G2 X-24.217 Y-65.981 Z5.833 I0.783 J0.000 F199.998
G2 X-25.783 Y-65.981 Z5.729 I-0.783 J0.000 F199.998
G2 X-24.217 Y-65.981 Z5.625 I0.783 J0.000 F199.998
G2 X-25.783 Y-65.981 Z5.521 I-0.783 J0.000 F199.998
G2 X-24.217 Y-65.981 Z5.417 I0.783 J0.000 F199.998
G2 X-25.783 Y-65.981 Z5.313 I-0.783 J0.000 F199.998
G2 X-24.217 Y-65.981 Z5.208 I0.783 J0.000 F199.998
G2 X-25.783 Y-65.981 Z5.104 I-0.783 J0.000 F199.998
G2 X-24.217 Y-65.981 Z5.000 I0.783 J0.000 F199.998
G2 X-25.783 Y-65.981 Z4.896 I-0.783 J0.000 F199.998
G2 X-24.217 Y-65.981 Z4.792 I0.783 J0.000 F199.998
G2 X-25.783 Y-65.981 Z4.688 I-0.783 J0.000 F199.998
G2 X-24.217 Y-65.981 Z4.583 I0.783 J0.000 F199.998
G2 X-25.783 Y-65.981 Z4.479 I-0.783 J0.000 F199.998
G2 X-24.217 Y-65.981 Z4.375 I0.783 J0.000 F199.998
G2 X-25.783 Y-65.981 Z4.271 I-0.783 J0.000 F199.998
G2 X-24.217 Y-65.981 Z4.167 I0.783 J0.000 F199.998
G2 X-25.783 Y-65.981 Z4.063 I-0.783 J0.000 F199.998
G2 X-24.217 Y-65.981 Z3.958 I0.783 J0.000 F199.998
G2 X-25.783 Y-65.981 Z3.854 I-0.783 J0.000 F199.998
G2 X-24.217 Y-65.981 Z3.750 I0.783 J0.000 F199.998
G2 X-25.783 Y-65.981 Z3.646 I-0.783 J0.000 F199.998
G2 X-24.217 Y-65.981 Z3.542 I0.783 J0.000 F199.998
G2 X-25.783 Y-65.981 Z3.438 I-0.783 J0.000 F199.998
G2 X-24.217 Y-65.981 Z3.333 I0.783 J0.000 F199.998
G2 X-25.783 Y-65.981 Z3.229 I-0.783 J0.000 F199.998
G2 X-24.217 Y-65.981 Z3.125 I0.783 J0.000 F199.998
G2 X-25.783 Y-65.981 Z3.021 I-0.783 J0.000 F199.998
G2 X-24.217 Y-65.981 Z2.917 I0.783 J0.000 F199.998
G2 X-25.783 Y-65.981 Z2.813 I-0.783 J0.000 F199.998
G2 X-24.217 Y-65.981 Z2.708 I0.783 J0.000 F199.998
G2 X-25.783 Y-65.981 Z2.604 I-0.783 J0.000 F199.998
G2 X-24.217 Y-65.981 Z2.500 I0.783 J0.000 F199.998
G2 X-25.783 Y-65.981 Z2.396 I-0.783 J0.000 F199.998
G2 X-24.217 Y-65.981 Z2.292 I0.783 J0.000 F199.998
G2 X-25.783 Y-65.981 Z2.188 I-0.783 J0.000 F199.998
G2 X-24.217 Y-65.981 Z2.083 I0.783 J0.000 F199.998
G2 X-25.783 Y-65.981 Z1.979 I-0.783 J0.000 F199.998
G2 X-24.217 Y-65.981 Z1.875 I0.783 J0.000 F199.998
G2 X-25.783 Y-65.981 Z1.771 I-0.783 J0.000 F199.998
G2 X-24.217 Y-65.981 Z1.667 I0.783 J0.000 F199.998
G2 X-25.783 Y-65.981 Z1.563 I-0.783 J0.000 F199.998
G2 X-24.217 Y-65.981 Z1.458 I0.783 J0.000 F199.998
G2 X-25.783 Y-65.981 Z1.354 I-0.783 J0.000 F199.998
G2 X-24.217 Y-65.981 Z1.250 I0.783 J0.000 F199.998
G2 X-25.783 Y-65.981 Z1.146 I-0.783 J0.000 F199.998
G2 X-24.217 Y-65.981 Z1.042 I0.783 J0.000 F199.998
G2 X-25.783 Y-65.981 Z0.938 I-0.783 J0.000 F199.998
G2 X-24.217 Y-65.981 Z0.833 I0.783 J0.000 F199.998
G2 X-25.783 Y-65.981 Z0.729 I-0.783 J0.000 F199.998
G2 X-24.217 Y-65.981 Z0.625 I0.783 J0.000 F199.998
G2 X-25.783 Y-65.981 Z0.521 I-0.783 J0.000 F199.998
G2 X-24.217 Y-65.981 Z0.417 I0.783 J0.000 F199.998
G2 X-25.783 Y-65.981 Z0.313 I-0.783 J0.000 F199.998
G2 X-24.217 Y-65.981 Z0.208 I0.783 J0.000 F199.998
G2 X-25.783 Y-65.981 Z0.104 I-0.783 J0.000 F199.998
G2 X-24.217 Y-65.981 Z0.000 I0.783 J0.000 F199.998
G2 X-25.783 Y-65.981 Z0.000 I-0.783 J0.000 F199.998
G2 X-24.217 Y-65.981 Z0.000 I0.783 J0.000 F199.998
G0 Z23.000
G0 X-23.751 Y-65.981
G0 Z23.000
G1 Z10.000 F100.000
G2 X-26.249 Y-65.981 Z9.896 I-1.249 J0.000 F199.998
G2 X-23.751 Y-65.981 Z9.792 I1.249 J0.000 F199.998
G2 X-26.249 Y-65.981 Z9.688 I-1.249 J0.000 F199.998
G2 X-23.751 Y-65.981 Z9.583 I1.249 J0.000 F199.998
G2 X-26.249 Y-65.981 Z9.479 I-1.249 J0.000 F199.998
G2 X-23.751 Y-65.981 Z9.375 I1.249 J0.000 F199.998
G2 X-26.249 Y-65.981 Z9.271 I-1.249 J0.000 F199.998
G2 X-23.751 Y-65.981 Z9.167 I1.249 J0.000 F199.998
G2 X-26.249 Y-65.981 Z9.062 I-1.249 J0.000 F199.998
G2 X-23.751 Y-65.981 Z8.958 I1.249 J0.000 F199.998
G2 X-26.249 Y-65.981 Z8.854 I-1.249 J0.000 F199.998
G2 X-23.751 Y-65.981 Z8.750 I1.249 J0.000 F199.998
G2 X-26.249 Y-65.981 Z8.646 I-1.249 J0.000 F199.998
G2 X-23.751 Y-65.981 Z8.542 I1.249 J0.000 F199.998
G2 X-26.249 Y-65.981 Z8.438 I-1.249 J0.000 F199.998
G2 X-23.751 Y-65.981 Z8.333 I1.249 J0.000 F199.998
G2 X-26.249 Y-65.981 Z8.229 I-1.249 J0.000 F199.998
G2 X-23.751 Y-65.981 Z8.125 I1.249 J0.000 F199.998
G2 X-26.249 Y-65.981 Z8.021 I-1.249 J0.000 F199.998
G2 X-23.751 Y-65.981 Z7.917 I1.249 J0.000 F199.998
G2 X-26.249 Y-65.981 Z7.813 I-1.249 J0.000 F199.998
G2 X-23.751 Y-65.981 Z7.708 I1.249 J0.000 F199.998
G2 X-26.249 Y-65.981 Z7.604 I-1.249 J0.000 F199.998
G2 X-23.751 Y-65.981 Z7.500 I1.249 J0.000 F199.998
G2 X-26.249 Y-65.981 Z7.396 I-1.249 J0.000 F199.998
G2 X-23.751 Y-65.981 Z7.292 I1.249 J0.000 F199.998
G2 X-26.249 Y-65.981 Z7.188 I-1.249 J0.000 F199.998
G2 X-23.751 Y-65.981 Z7.083 I1.249 J0.000 F199.998
G2 X-26.249 Y-65.981 Z6.979 I-1.249 J0.000 F199.998
G2 X-23.751 Y-65.981 Z6.875 I1.249 J0.000 F199.998
G2 X-26.249 Y-65.981 Z6.771 I-1.249 J0.000 F199.998
G2 X-23.751 Y-65.981 Z6.667 I1.249 J0.000 F199.998
G2 X-26.249 Y-65.981 Z6.563 I-1.249 J0.000 F199.998
G2 X-23.751 Y-65.981 Z6.458 I1.249 J0.000 F199.998
G2 X-26.249 Y-65.981 Z6.354 I-1.249 J0.000 F199.998
G2 X-23.751 Y-65.981 Z6.250 I1.249 J0.000 F199.998
G2 X-26.249 Y-65.981 Z6.146 I-1.249 J0.000 F199.998
G2 X-23.751 Y-65.981 Z6.042 I1.249 J0.000 F199.998
G2 X-26.249 Y-65.981 Z5.938 I-1.249 J0.000 F199.998
G2 X-23.751 Y-65.981 Z5.833 I1.249 J0.000 F199.998
G2 X-26.249 Y-65.981 Z5.729 I-1.249 J0.000 F199.998
G2 X-23.751 Y-65.981 Z5.625 I1.249 J0.000 F199.998
G2 X-26.249 Y-65.981 Z5.521 I-1.249 J0.000 F199.998
G2 X-23.751 Y-65.981 Z5.417 I1.249 J0.000 F199.998
G2 X-26.249 Y-65.981 Z5.313 I-1.249 J0.000 F199.998
G2 X-23.751 Y-65.981 Z5.208 I1.249 J0.000 F199.998
G2 X-26.249 Y-65.981 Z5.104 I-1.249 J0.000 F199.998
G2 X-23.751 Y-65.981 Z5.000 I1.249 J0.000 F199.998
G2 X-26.249 Y-65.981 Z4.896 I-1.249 J0.000 F199.998
G2 X-23.751 Y-65.981 Z4.792 I1.249 J0.000 F199.998
G2 X-26.249 Y-65.981 Z4.688 I-1.249 J0.000 F199.998
G2 X-23.751 Y-65.981 Z4.583 I1.249 J0.000 F199.998
G2 X-26.249 Y-65.981 Z4.479 I-1.249 J0.000 F199.998
G2 X-23.751 Y-65.981 Z4.375 I1.249 J0.000 F199.998
G2 X-26.249 Y-65.981 Z4.271 I-1.249 J0.000 F199.998
G2 X-23.751 Y-65.981 Z4.167 I1.249 J0.000 F199.998
G2 X-26.249 Y-65.981 Z4.063 I-1.249 J0.000 F199.998
G2 X-23.751 Y-65.981 Z3.958 I1.249 J0.000 F199.998
G2 X-26.249 Y-65.981 Z3.854 I-1.249 J0.000 F199.998
G2 X-23.751 Y-65.981 Z3.750 I1.249 J0.000 F199.998
G2 X-26.249 Y-65.981 Z3.646 I-1.249 J0.000 F199.998
G2 X-23.751 Y-65.981 Z3.542 I1.249 J0.000 F199.998
G2 X-26.249 Y-65.981 Z3.438 I-1.249 J0.000 F199.998
G2 X-23.751 Y-65.981 Z3.333 I1.249 J0.000 F199.998
G2 X-26.249 Y-65.981 Z3.229 I-1.249 J0.000 F199.998
G2 X-23.751 Y-65.981 Z3.125 I1.249 J0.000 F199.998
G2 X-26.249 Y-65.981 Z3.021 I-1.249 J0.000 F199.998
G2 X-23.751 Y-65.981 Z2.917 I1.249 J0.000 F199.998
G2 X-26.249 Y-65.981 Z2.813 I-1.249 J0.000 F199.998
G2 X-23.751 Y-65.981 Z2.708 I1.249 J0.000 F199.998
G2 X-26.249 Y-65.981 Z2.604 I-1.249 J0.000 F199.998
G2 X-23.751 Y-65.981 Z2.500 I1.249 J0.000 F199.998
G2 X-26.249 Y-65.981 Z2.396 I-1.249 J0.000 F199.998
G2 X-23.751 Y-65.981 Z2.292 I1.249 J0.000 F199.998
G2 X-26.249 Y-65.981 Z2.188 I-1.249 J0.000 F199.998
G2 X-23.751 Y-65.981 Z2.083 I1.249 J0.000 F199.998
G2 X-26.249 Y-65.981 Z1.979 I-1.249 J0.000 F199.998
G2 X-23.751 Y-65.981 Z1.875 I1.249 J0.000 F199.998
G2 X-26.249 Y-65.981 Z1.771 I-1.249 J0.000 F199.998
G2 X-23.751 Y-65.981 Z1.667 I1.249 J0.000 F199.998
G2 X-26.249 Y-65.981 Z1.563 I-1.249 J0.000 F199.998
G2 X-23.751 Y-65.981 Z1.458 I1.249 J0.000 F199.998
G2 X-26.249 Y-65.981 Z1.354 I-1.249 J0.000 F199.998
G2 X-23.751 Y-65.981 Z1.250 I1.249 J0.000 F199.998
G2 X-26.249 Y-65.981 Z1.146 I-1.249 J0.000 F199.998
G2 X-23.751 Y-65.981 Z1.042 I1.249 J0.000 F199.998
G2 X-26.249 Y-65.981 Z0.938 I-1.249 J0.000 F199.998
G2 X-23.751 Y-65.981 Z0.833 I1.249 J0.000 F199.998
G2 X-26.249 Y-65.981 Z0.729 I-1.249 J0.000 F199.998
G2 X-23.751 Y-65.981 Z0.625 I1.249 J0.000 F199.998
G2 X-26.249 Y-65.981 Z0.521 I-1.249 J0.000 F199.998
G2 X-23.751 Y-65.981 Z0.417 I1.249 J0.000 F199.998
G2 X-26.249 Y-65.981 Z0.313 I-1.249 J0.000 F199.998
G2 X-23.751 Y-65.981 Z0.208 I1.249 J0.000 F199.998
G2 X-26.249 Y-65.981 Z0.104 I-1.249 J0.000 F199.998
G2 X-23.751 Y-65.981 Z0.000 I1.249 J0.000 F199.998
G2 X-26.249 Y-65.981 Z0.000 I-1.249 J0.000 F199.998
G2 X-23.751 Y-65.981 Z0.000 I1.249 J0.000 F199.998
G0 Z23.000
G0 X-23.285 Y-65.981
G0 Z23.000
G1 Z10.000 F100.000
G2 X-26.715 Y-65.981 Z9.896 I-1.715 J0.000 F199.998
G2 X-23.285 Y-65.981 Z9.792 I1.715 J0.000 F199.998
G2 X-26.715 Y-65.981 Z9.688 I-1.715 J0.000 F199.998
G2 X-23.285 Y-65.981 Z9.583 I1.715 J0.000 F199.998
G2 X-26.715 Y-65.981 Z9.479 I-1.715 J0.000 F199.998
G2 X-23.285 Y-65.981 Z9.375 I1.715 J0.000 F199.998
G2 X-26.715 Y-65.981 Z9.271 I-1.715 J0.000 F199.998
G2 X-23.285 Y-65.981 Z9.167 I1.715 J0.000 F199.998
G2 X-26.715 Y-65.981 Z9.062 I-1.715 J0.000 F199.998
G2 X-23.285 Y-65.981 Z8.958 I1.715 J0.000 F199.998
G2 X-26.715 Y-65.981 Z8.854 I-1.715 J0.000 F199.998
G2 X-23.285 Y-65.981 Z8.750 I1.715 J0.000 F199.998
G2 X-26.715 Y-65.981 Z8.646 I-1.715 J0.000 F199.998
G2 X-23.285 Y-65.981 Z8.542 I1.715 J0.000 F199.998
G2 X-26.715 Y-65.981 Z8.438 I-1.715 J0.000 F199.998
G2 X-23.285 Y-65.981 Z8.333 I1.715 J0.000 F199.998
G2 X-26.715 Y-65.981 Z8.229 I-1.715 J0.000 F199.998
G2 X-23.285 Y-65.981 Z8.125 I1.715 J0.000 F199.998
G2 X-26.715 Y-65.981 Z8.021 I-1.715 J0.000 F199.998
G2 X-23.285 Y-65.981 Z7.917 I1.715 J0.000 F199.998
G2 X-26.715 Y-65.981 Z7.813 I-1.715 J0.000 F199.998
G2 X-23.285 Y-65.981 Z7.708 I1.715 J0.000 F199.998
G2 X-26.715 Y-65.981 Z7.604 I-1.715 J0.000 F199.998
G2 X-23.285 Y-65.981 Z7.500 I1.715 J0.000 F199.998
G2 X-26.715 Y-65.981 Z7.396 I-1.715 J0.000 F199.998
G2 X-23.285 Y-65.981 Z7.292 I1.715 J0.000 F199.998
G2 X-26.715 Y-65.981 Z7.188 I-1.715 J0.000 F199.998
G2 X-23.285 Y-65.981 Z7.083 I1.715 J0.000 F199.998
G2 X-26.715 Y-65.981 Z6.979 I-1.715 J0.000 F199.998
G2 X-23.285 Y-65.981 Z6.875 I1.715 J0.000 F199.998
G2 X-26.715 Y-65.981 Z6.771 I-1.715 J0.000 F199.998
G2 X-23.285 Y-65.981 Z6.667 I1.715 J0.000 F199.998
G2 X-26.715 Y-65.981 Z6.563 I-1.715 J0.000 F199.998
G2 X-23.285 Y-65.981 Z6.458 I1.715 J0.000 F199.998
G2 X-26.715 Y-65.981 Z6.354 I-1.715 J0.000 F199.998
G2 X-23.285 Y-65.981 Z6.250 I1.715 J0.000 F199.998
G2 X-26.715 Y-65.981 Z6.146 I-1.715 J0.000 F199.998
G2 X-23.285 Y-65.981 Z6.042 I1.715 J0.000 F199.998
G2 X-26.715 Y-65.981 Z5.938 I-1.715 J0.000 F199.998
G2 X-23.285 Y-65.981 Z5.833 I1.715 J0.000 F199.998
G2 X-26.715 Y-65.981 Z5.729 I-1.715 J0.000 F199.998
G2 X-23.285 Y-65.981 Z5.625 I1.715 J0.000 F199.998
G2 X-26.715 Y-65.981 Z5.521 I-1.715 J0.000 F199.998
G2 X-23.285 Y-65.981 Z5.417 I1.715 J0.000 F199.998
G2 X-26.715 Y-65.981 Z5.313 I-1.715 J0.000 F199.998
G2 X-23.285 Y-65.981 Z5.208 I1.715 J0.000 F199.998
G2 X-26.715 Y-65.981 Z5.104 I-1.715 J0.000 F199.998
G2 X-23.285 Y-65.981 Z5.000 I1.715 J0.000 F199.998
G2 X-26.715 Y-65.981 Z4.896 I-1.715 J0.000 F199.998
G2 X-23.285 Y-65.981 Z4.792 I1.715 J0.000 F199.998
G2 X-26.715 Y-65.981 Z4.688 I-1.715 J0.000 F199.998
G2 X-23.285 Y-65.981 Z4.583 I1.715 J0.000 F199.998
G2 X-26.715 Y-65.981 Z4.479 I-1.715 J0.000 F199.998
G2 X-23.285 Y-65.981 Z4.375 I1.715 J0.000 F199.998
G2 X-26.715 Y-65.981 Z4.271 I-1.715 J0.000 F199.998
G2 X-23.285 Y-65.981 Z4.167 I1.715 J0.000 F199.998
G2 X-26.715 Y-65.981 Z4.063 I-1.715 J0.000 F199.998
G2 X-23.285 Y-65.981 Z3.958 I1.715 J0.000 F199.998
G2 X-26.715 Y-65.981 Z3.854 I-1.715 J0.000 F199.998
G2 X-23.285 Y-65.981 Z3.750 I1.715 J0.000 F199.998
G2 X-26.715 Y-65.981 Z3.646 I-1.715 J0.000 F199.998
G2 X-23.285 Y-65.981 Z3.542 I1.715 J0.000 F199.998
G2 X-26.715 Y-65.981 Z3.438 I-1.715 J0.000 F199.998
G2 X-23.285 Y-65.981 Z3.333 I1.715 J0.000 F199.998
G2 X-26.715 Y-65.981 Z3.229 I-1.715 J0.000 F199.998
G2 X-23.285 Y-65.981 Z3.125 I1.715 J0.000 F199.998
G2 X-26.715 Y-65.981 Z3.021 I-1.715 J0.000 F199.998
G2 X-23.285 Y-65.981 Z2.917 I1.715 J0.000 F199.998
G2 X-26.715 Y-65.981 Z2.813 I-1.715 J0.000 F199.998
G2 X-23.285 Y-65.981 Z2.708 I1.715 J0.000 F199.998
G2 X-26.715 Y-65.981 Z2.604 I-1.715 J0.000 F199.998
G2 X-23.285 Y-65.981 Z2.500 I1.715 J0.000 F199.998
G2 X-26.715 Y-65.981 Z2.396 I-1.715 J0.000 F199.998
G2 X-23.285 Y-65.981 Z2.292 I1.715 J0.000 F199.998
G2 X-26.715 Y-65.981 Z2.188 I-1.715 J0.000 F199.998
G2 X-23.285 Y-65.981 Z2.083 I1.715 J0.000 F199.998
G2 X-26.715 Y-65.981 Z1.979 I-1.715 J0.000 F199.998
G2 X-23.285 Y-65.981 Z1.875 I1.715 J0.000 F199.998
G2 X-26.715 Y-65.981 Z1.771 I-1.715 J0.000 F199.998
G2 X-23.285 Y-65.981 Z1.667 I1.715 J0.000 F199.998
G2 X-26.715 Y-65.981 Z1.563 I-1.715 J0.000 F199.998
G2 X-23.285 Y-65.981 Z1.458 I1.715 J0.000 F199.998
G2 X-26.715 Y-65.981 Z1.354 I-1.715 J0.000 F199.998
G2 X-23.285 Y-65.981 Z1.250 I1.715 J0.000 F199.998
G2 X-26.715 Y-65.981 Z1.146 I-1.715 J0.000 F199.998
G2 X-23.285 Y-65.981 Z1.042 I1.715 J0.000 F199.998
G2 X-26.715 Y-65.981 Z0.938 I-1.715 J0.000 F199.998
G2 X-23.285 Y-65.981 Z0.833 I1.715 J0.000 F199.998
G2 X-26.715 Y-65.981 Z0.729 I-1.715 J0.000 F199.998
G2 X-23.285 Y-65.981 Z0.625 I1.715 J0.000 F199.998
G2 X-26.715 Y-65.981 Z0.521 I-1.715 J0.000 F199.998
G2 X-23.285 Y-65.981 Z0.417 I1.715 J0.000 F199.998
G2 X-26.715 Y-65.981 Z0.313 I-1.715 J0.000 F199.998
G2 X-23.285 Y-65.981 Z0.208 I1.715 J0.000 F199.998
G2 X-26.715 Y-65.981 Z0.104 I-1.715 J0.000 F199.998
G2 X-23.285 Y-65.981 Z0.000 I1.715 J0.000 F199.998
G2 X-26.715 Y-65.981 Z0.000 I-1.715 J0.000 F199.998
G2 X-23.285 Y-65.981 Z0.000 I1.715 J0.000 F199.998
G0 Z23.000
G0 X-39.683 Y-70.000
G0 Z23.000
G1 Z10.000 F100.000
G2 X-40.317 Y-70.000 Z9.896 I-0.317 J0.000 F199.998
G2 X-39.683 Y-70.000 Z9.792 I0.317 J0.000 F199.998
G2 X-40.317 Y-70.000 Z9.688 I-0.317 J0.000 F199.998
G2 X-39.683 Y-70.000 Z9.583 I0.317 J0.000 F199.998
G2 X-40.317 Y-70.000 Z9.479 I-0.317 J0.000 F199.998
G2 X-39.683 Y-70.000 Z9.375 I0.317 J0.000 F199.998
G2 X-40.317 Y-70.000 Z9.271 I-0.317 J0.000 F199.998
G2 X-39.683 Y-70.000 Z9.167 I0.317 J0.000 F199.998
G2 X-40.317 Y-70.000 Z9.062 I-0.317 J0.000 F199.998
G2 X-39.683 Y-70.000 Z8.958 I0.317 J0.000 F199.998
G2 X-40.317 Y-70.000 Z8.854 I-0.317 J0.000 F199.998
G2 X-39.683 Y-70.000 Z8.750 I0.317 J0.000 F199.998
G2 X-40.317 Y-70.000 Z8.646 I-0.317 J0.000 F199.998
G2 X-39.683 Y-70.000 Z8.542 I0.317 J0.000 F199.998
G2 X-40.317 Y-70.000 Z8.438 I-0.317 J0.000 F199.998
G2 X-39.683 Y-70.000 Z8.333 I0.317 J0.000 F199.998
G2 X-40.317 Y-70.000 Z8.229 I-0.317 J0.000 F199.998
G2 X-39.683 Y-70.000 Z8.125 I0.317 J0.000 F199.998
G2 X-40.317 Y-70.000 Z8.021 I-0.317 J0.000 F199.998
G2 X-39.683 Y-70.000 Z7.917 I0.317 J0.000 F199.998
G2 X-40.317 Y-70.000 Z7.813 I-0.317 J0.000 F199.998
G2 X-39.683 Y-70.000 Z7.708 I0.317 J0.000 F199.998
G2 X-40.317 Y-70.000 Z7.604 I-0.317 J0.000 F199.998
G2 X-39.683 Y-70.000 Z7.500 I0.317 J0.000 F199.998
G2 X-40.317 Y-70.000 Z7.396 I-0.317 J0.000 F199.998
G2 X-39.683 Y-70.000 Z7.292 I0.317 J0.000 F199.998
G2 X-40.317 Y-70.000 Z7.188 I-0.317 J0.000 F199.998
G2 X-39.683 Y-70.000 Z7.083 I0.317 J0.000 F199.998
G2 X-40.317 Y-70.000 Z6.979 I-0.317 J0.000 F199.998
G2 X-39.683 Y-70.000 Z6.875 I0.317 J0.000 F199.998
G2 X-40.317 Y-70.000 Z6.771 I-0.317 J0.000 F199.998
G2 X-39.683 Y-70.000 Z6.667 I0.317 J0.000 F199.998
G2 X-40.317 Y-70.000 Z6.563 I-0.317 J0.000 F199.998
G2 X-39.683 Y-70.000 Z6.458 I0.317 J0.000 F199.998
G2 X-40.317 Y-70.000 Z6.354 I-0.317 J0.000 F199.998
G2 X-39.683 Y-70.000 Z6.250 I0.317 J0.000 F199.998
G2 X-40.317 Y-70.000 Z6.146 I-0.317 J0.000 F199.998
G2 X-39.683 Y-70.000 Z6.042 I0.317 J0.000 F199.998
G2 X-40.317 Y-70.000 Z5.938 I-0.317 J0.000 F199.998
G2 X-39.683 Y-70.000 Z5.833 I0.317 J0.000 F199.998
G2 X-40.317 Y-70.000 Z5.729 I-0.317 J0.000 F199.998
G2 X-39.683 Y-70.000 Z5.625 I0.317 J0.000 F199.998
G2 X-40.317 Y-70.000 Z5.521 I-0.317 J0.000 F199.998
G2 X-39.683 Y-70.000 Z5.417 I0.317 J0.000 F199.998
G2 X-40.317 Y-70.000 Z5.313 I-0.317 J0.000 F199.998
G2 X-39.683 Y-70.000 Z5.208 I0.317 J0.000 F199.998
G2 X-40.317 Y-70.000 Z5.104 I-0.317 J0.000 F199.998
G2 X-39.683 Y-70.000 Z5.000 I0.317 J0.000 F199.998
G2 X-40.317 Y-70.000 Z4.896 I-0.317 J0.000 F199.998
G2 X-39.683 Y-70.000 Z4.792 I0.317 J0.000 F199.998
G2 X-40.317 Y-70.000 Z4.688 I-0.317 J0.000 F199.998
G2 X-39.683 Y-70.000 Z4.583 I0.317 J0.000 F199.998
G2 X-40.317 Y-70.000 Z4.479 I-0.317 J0.000 F199.998
G2 X-39.683 Y-70.000 Z4.375 I0.317 J0.000 F199.998
G2 X-40.317 Y-70.000 Z4.271 I-0.317 J0.000 F199.998
G2 X-39.683 Y-70.000 Z4.167 I0.317 J0.000 F199.998
G2 X-40.317 Y-70.000 Z4.063 I-0.317 J0.000 F199.998
G2 X-39.683 Y-70.000 Z3.958 I0.317 J0.000 F199.998
G2 X-40.317 Y-70.000 Z3.854 I-0.317 J0.000 F199.998
G2 X-39.683 Y-70.000 Z3.750 I0.317 J0.000 F199.998
G2 X-40.317 Y-70.000 Z3.646 I-0.317 J0.000 F199.998
G2 X-39.683 Y-70.000 Z3.542 I0.317 J0.000 F199.998
G2 X-40.317 Y-70.000 Z3.438 I-0.317 J0.000 F199.998
G2 X-39.683 Y-70.000 Z3.333 I0.317 J0.000 F199.998
G2 X-40.317 Y-70.000 Z3.229 I-0.317 J0.000 F199.998
G2 X-39.683 Y-70.000 Z3.125 I0.317 J0.000 F199.998
G2 X-40.317 Y-70.000 Z3.021 I-0.317 J0.000 F199.998
G2 X-39.683 Y-70.000 Z2.917 I0.317 J0.000 F199.998
G2 X-40.317 Y-70.000 Z2.813 I-0.317 J0.000 F199.998
G2 X-39.683 Y-70.000 Z2.708 I0.317 J0.000 F199.998
G2 X-40.317 Y-70.000 Z2.604 I-0.317 J0.000 F199.998
G2 X-39.683 Y-70.000 Z2.500 I0.317 J0.000 F199.998
G2 X-40.317 Y-70.000 Z2.396 I-0.317 J0.000 F199.998
G2 X-39.683 Y-70.000 Z2.292 I0.317 J0.000 F199.998
G2 X-40.317 Y-70.000 Z2.188 I-0.317 J0.000 F199.998
G2 X-39.683 Y-70.000 Z2.083 I0.317 J0.000 F199.998
G2 X-40.317 Y-70.000 Z1.979 I-0.317 J0.000 F199.998
G2 X-39.683 Y-70.000 Z1.875 I0.317 J0.000 F199.998
G2 X-40.317 Y-70.000 Z1.771 I-0.317 J0.000 F199.998
G2 X-39.683 Y-70.000 Z1.667 I0.317 J0.000 F199.998
G2 X-40.317 Y-70.000 Z1.563 I-0.317 J0.000 F199.998
G2 X-39.683 Y-70.000 Z1.458 I0.317 J0.000 F199.998
G2 X-40.317 Y-70.000 Z1.354 I-0.317 J0.000 F199.998
G2 X-39.683 Y-70.000 Z1.250 I0.317 J0.000 F199.998
G2 X-40.317 Y-70.000 Z1.146 I-0.317 J0.000 F199.998
G2 X-39.683 Y-70.000 Z1.042 I0.317 J0.000 F199.998
G2 X-40.317 Y-70.000 Z0.938 I-0.317 J0.000 F199.998
G2 X-39.683 Y-70.000 Z0.833 I0.317 J0.000 F199.998
G2 X-40.317 Y-70.000 Z0.729 I-0.317 J0.000 F199.998
G2 X-39.683 Y-70.000 Z0.625 I0.317 J0.000 F199.998
G2 X-40.317 Y-70.000 Z0.521 I-0.317 J0.000 F199.998
G2 X-39.683 Y-70.000 Z0.417 I0.317 J0.000 F199.998
G2 X-40.317 Y-70.000 Z0.313 I-0.317 J0.000 F199.998
G2 X-39.683 Y-70.000 Z0.208 I0.317 J0.000 F199.998
G2 X-40.317 Y-70.000 Z0.104 I-0.317 J0.000 F199.998
G2 X-39.683 Y-70.000 Z0.000 I0.317 J0.000 F199.998
G2 X-40.317 Y-70.000 Z0.000 I-0.317 J0.000 F199.998
G2 X-39.683 Y-70.000 Z0.000 I0.317 J0.000 F199.998
G0 Z23.000
G0 X-39.085 Y-70.000
G0 Z23.000
G1 Z10.000 F100.000
G2 X-40.915 Y-70.000 Z9.896 I-0.915 J0.000 F199.998
G2 X-39.085 Y-70.000 Z9.792 I0.915 J0.000 F199.998
G2 X-40.915 Y-70.000 Z9.688 I-0.915 J0.000 F199.998
G2 X-39.085 Y-70.000 Z9.583 I0.915 J0.000 F199.998
G2 X-40.915 Y-70.000 Z9.479 I-0.915 J0.000 F199.998
G2 X-39.085 Y-70.000 Z9.375 I0.915 J0.000 F199.998
G2 X-40.915 Y-70.000 Z9.271 I-0.915 J0.000 F199.998
G2 X-39.085 Y-70.000 Z9.167 I0.915 J0.000 F199.998
G2 X-40.915 Y-70.000 Z9.062 I-0.915 J0.000 F199.998
G2 X-39.085 Y-70.000 Z8.958 I0.915 J0.000 F199.998
G2 X-40.915 Y-70.000 Z8.854 I-0.915 J0.000 F199.998
G2 X-39.085 Y-70.000 Z8.750 I0.915 J0.000 F199.998
G2 X-40.915 Y-70.000 Z8.646 I-0.915 J0.000 F199.998
G2 X-39.085 Y-70.000 Z8.542 I0.915 J0.000 F199.998
G2 X-40.915 Y-70.000 Z8.438 I-0.915 J0.000 F199.998
G2 X-39.085 Y-70.000 Z8.333 I0.915 J0.000 F199.998
G2 X-40.915 Y-70.000 Z8.229 I-0.915 J0.000 F199.998
G2 X-39.085 Y-70.000 Z8.125 I0.915 J0.000 F199.998
G2 X-40.915 Y-70.000 Z8.021 I-0.915 J0.000 F199.998
G2 X-39.085 Y-70.000 Z7.917 I0.915 J0.000 F199.998
G2 X-40.915 Y-70.000 Z7.813 I-0.915 J0.000 F199.998
G2 X-39.085 Y-70.000 Z7.708 I0.915 J0.000 F199.998
G2 X-40.915 Y-70.000 Z7.604 I-0.915 J0.000 F199.998
G2 X-39.085 Y-70.000 Z7.500 I0.915 J0.000 F199.998
G2 X-40.915 Y-70.000 Z7.396 I-0.915 J0.000 F199.998
G2 X-39.085 Y-70.000 Z7.292 I0.915 J0.000 F199.998
G2 X-40.915 Y-70.000 Z7.188 I-0.915 J0.000 F199.998
G2 X-39.085 Y-70.000 Z7.083 I0.915 J0.000 F199.998
G2 X-40.915 Y-70.000 Z6.979 I-0.915 J0.000 F199.998
G2 X-39.085 Y-70.000 Z6.875 I0.915 J0.000 F199.998
G2 X-40.915 Y-70.000 Z6.771 I-0.915 J0.000 F199.998
G2 X-39.085 Y-70.000 Z6.667 I0.915 J0.000 F199.998
G2 X-40.915 Y-70.000 Z6.563 I-0.915 J0.000 F199.998
G2 X-39.085 Y-70.000 Z6.458 I0.915 J0.000 F199.998
G2 X-40.915 Y-70.000 Z6.354 I-0.915 J0.000 F199.998
G2 X-39.085 Y-70.000 Z6.250 I0.915 J0.000 F199.998
G2 X-40.915 Y-70.000 Z6.146 I-0.915 J0.000 F199.998
G2 X-39.085 Y-70.000 Z6.042 I0.915 J0.000 F199.998
G2 X-40.915 Y-70.000 Z5.938 I-0.915 J0.000 F199.998
G2 X-39.085 Y-70.000 Z5.833 I0.915 J0.000 F199.998
G2 X-40.915 Y-70.000 Z5.729 I-0.915 J0.000 F199.998
G2 X-39.085 Y-70.000 Z5.625 I0.915 J0.000 F199.998
G2 X-40.915 Y-70.000 Z5.521 I-0.915 J0.000 F199.998
G2 X-39.085 Y-70.000 Z5.417 I0.915 J0.000 F199.998
G2 X-40.915 Y-70.000 Z5.313 I-0.915 J0.000 F199.998
G2 X-39.085 Y-70.000 Z5.208 I0.915 J0.000 F199.998
G2 X-40.915 Y-70.000 Z5.104 I-0.915 J0.000 F199.998
G2 X-39.085 Y-70.000 Z5.000 I0.915 J0.000 F199.998
G2 X-40.915 Y-70.000 Z4.896 I-0.915 J0.000 F199.998
G2 X-39.085 Y-70.000 Z4.792 I0.915 J0.000 F199.998
G2 X-40.915 Y-70.000 Z4.688 I-0.915 J0.000 F199.998
G2 X-39.085 Y-70.000 Z4.583 I0.915 J0.000 F199.998
G2 X-40.915 Y-70.000 Z4.479 I-0.915 J0.000 F199.998
G2 X-39.085 Y-70.000 Z4.375 I0.915 J0.000 F199.998
G2 X-40.915 Y-70.000 Z4.271 I-0.915 J0.000 F199.998
G2 X-39.085 Y-70.000 Z4.167 I0.915 J0.000 F199.998
G2 X-40.915 Y-70.000 Z4.063 I-0.915 J0.000 F199.998
G2 X-39.085 Y-70.000 Z3.958 I0.915 J0.000 F199.998
G2 X-40.915 Y-70.000 Z3.854 I-0.915 J0.000 F199.998
G2 X-39.085 Y-70.000 Z3.750 I0.915 J0.000 F199.998
G2 X-40.915 Y-70.000 Z3.646 I-0.915 J0.000 F199.998
G2 X-39.085 Y-70.000 Z3.542 I0.915 J0.000 F199.998
G2 X-40.915 Y-70.000 Z3.438 I-0.915 J0.000 F199.998
G2 X-39.085 Y-70.000 Z3.333 I0.915 J0.000 F199.998
G2 X-40.915 Y-70.000 Z3.229 I-0.915 J0.000 F199.998
G2 X-39.085 Y-70.000 Z3.125 I0.915 J0.000 F199.998
G2 X-40.915 Y-70.000 Z3.021 I-0.915 J0.000 F199.998
G2 X-39.085 Y-70.000 Z2.917 I0.915 J0.000 F199.998
G2 X-40.915 Y-70.000 Z2.813 I-0.915 J0.000 F199.998
G2 X-39.085 Y-70.000 Z2.708 I0.915 J0.000 F199.998
G2 X-40.915 Y-70.000 Z2.604 I-0.915 J0.000 F199.998
G2 X-39.085 Y-70.000 Z2.500 I0.915 J0.000 F199.998
G2 X-40.915 Y-70.000 Z2.396 I-0.915 J0.000 F199.998
G2 X-39.085 Y-70.000 Z2.292 I0.915 J0.000 F199.998
G2 X-40.915 Y-70.000 Z2.188 I-0.915 J0.000 F199.998
G2 X-39.085 Y-70.000 Z2.083 I0.915 J0.000 F199.998
G2 X-40.915 Y-70.000 Z1.979 I-0.915 J0.000 F199.998
G2 X-39.085 Y-70.000 Z1.875 I0.915 J0.000 F199.998
G2 X-40.915 Y-70.000 Z1.771 I-0.915 J0.000 F199.998
G2 X-39.085 Y-70.000 Z1.667 I0.915 J0.000 F199.998
G2 X-40.915 Y-70.000 Z1.563 I-0.915 J0.000 F199.998
G2 X-39.085 Y-70.000 Z1.458 I0.915 J0.000 F199.998
G2 X-40.915 Y-70.000 Z1.354 I-0.915 J0.000 F199.998
G2 X-39.085 Y-70.000 Z1.250 I0.915 J0.000 F199.998
G2 X-40.915 Y-70.000 Z1.146 I-0.915 J0.000 F199.998
G2 X-39.085 Y-70.000 Z1.042 I0.915 J0.000 F199.998
G2 X-40.915 Y-70.000 Z0.938 I-0.915 J0.000 F199.998
G2 X-39.085 Y-70.000 Z0.833 I0.915 J0.000 F199.998
G2 X-40.915 Y-70.000 Z0.729 I-0.915 J0.000 F199.998
G2 X-39.085 Y-70.000 Z0.625 I0.915 J0.000 F199.998
G2 X-40.915 Y-70.000 Z0.521 I-0.915 J0.000 F199.998
G2 X-39.085 Y-70.000 Z0.417 I0.915 J0.000 F199.998
G2 X-40.915 Y-70.000 Z0.313 I-0.915 J0.000 F199.998
G2 X-39.085 Y-70.000 Z0.208 I0.915 J0.000 F199.998
G2 X-40.915 Y-70.000 Z0.104 I-0.915 J0.000 F199.998
G2 X-39.085 Y-70.000 Z0.000 I0.915 J0.000 F199.998
G2 X-40.915 Y-70.000 Z0.000 I-0.915 J0.000 F199.998
G2 X-39.085 Y-70.000 Z0.000 I0.915 J0.000 F199.998
G0 Z23.000
G0 X-54.683 Y-65.981
G0 Z23.000
G1 Z10.000 F100.000
G2 X-55.317 Y-65.981 Z9.896 I-0.317 J0.000 F199.998
G2 X-54.683 Y-65.981 Z9.792 I0.317 J0.000 F199.998
G2 X-55.317 Y-65.981 Z9.688 I-0.317 J0.000 F199.998
G2 X-54.683 Y-65.981 Z9.583 I0.317 J0.000 F199.998
G2 X-55.317 Y-65.981 Z9.479 I-0.317 J0.000 F199.998
G2 X-54.683 Y-65.981 Z9.375 I0.317 J0.000 F199.998
G2 X-55.317 Y-65.981 Z9.271 I-0.317 J0.000 F199.998
G2 X-54.683 Y-65.981 Z9.167 I0.317 J0.000 F199.998
G2 X-55.317 Y-65.981 Z9.062 I-0.317 J0.000 F199.998
G2 X-54.683 Y-65.981 Z8.958 I0.317 J0.000 F199.998
G2 X-55.317 Y-65.981 Z8.854 I-0.317 J0.000 F199.998
G2 X-54.683 Y-65.981 Z8.750 I0.317 J0.000 F199.998
G2 X-55.317 Y-65.981 Z8.646 I-0.317 J0.000 F199.998
G2 X-54.683 Y-65.981 Z8.542 I0.317 J0.000 F199.998
G2 X-55.317 Y-65.981 Z8.438 I-0.317 J0.000 F199.998
G2 X-54.683 Y-65.981 Z8.333 I0.317 J0.000 F199.998
G2 X-55.317 Y-65.981 Z8.229 I-0.317 J0.000 F199.998
G2 X-54.683 Y-65.981 Z8.125 I0.317 J0.000 F199.998
G2 X-55.317 Y-65.981 Z8.021 I-0.317 J0.000 F199.998
G2 X-54.683 Y-65.981 Z7.917 I0.317 J0.000 F199.998
G2 X-55.317 Y-65.981 Z7.813 I-0.317 J0.000 F199.998
G2 X-54.683 Y-65.981 Z7.708 I0.317 J0.000 F199.998
G2 X-55.317 Y-65.981 Z7.604 I-0.317 J0.000 F199.998
G2 X-54.683 Y-65.981 Z7.500 I0.317 J0.000 F199.998
G2 X-55.317 Y-65.981 Z7.396 I-0.317 J0.000 F199.998
G2 X-54.683 Y-65.981 Z7.292 I0.317 J0.000 F199.998
G2 X-55.317 Y-65.981 Z7.188 I-0.317 J0.000 F199.998
G2 X-54.683 Y-65.981 Z7.083 I0.317 J0.000 F199.998
G2 X-55.317 Y-65.981 Z6.979 I-0.317 J0.000 F199.998
G2 X-54.683 Y-65.981 Z6.875 I0.317 J0.000 F199.998
G2 X-55.317 Y-65.981 Z6.771 I-0.317 J0.000 F199.998
G2 X-54.683 Y-65.981 Z6.667 I0.317 J0.000 F199.998
G2 X-55.317 Y-65.981 Z6.563 I-0.317 J0.000 F199.998
G2 X-54.683 Y-65.981 Z6.458 I0.317 J0.000 F199.998
G2 X-55.317 Y-65.981 Z6.354 I-0.317 J0.000 F199.998
G2 X-54.683 Y-65.981 Z6.250 I0.317 J0.000 F199.998
G2 X-55.317 Y-65.981 Z6.146 I-0.317 J0.000 F199.998
G2 X-54.683 Y-65.981 Z6.042 I0.317 J0.000 F199.998
G2 X-55.317 Y-65.981 Z5.938 I-0.317 J0.000 F199.998
G2 X-54.683 Y-65.981 Z5.833 I0.317 J0.000 F199.998
G2 X-55.317 Y-65.981 Z5.729 I-0.317 J0.000 F199.998
G2 X-54.683 Y-65.981 Z5.625 I0.317 J0.000 F199.998
G2 X-55.317 Y-65.981 Z5.521 I-0.317 J0.000 F199.998
G2 X-54.683 Y-65.981 Z5.417 I0.317 J0.000 F199.998
G2 X-55.317 Y-65.981 Z5.313 I-0.317 J0.000 F199.998
G2 X-54.683 Y-65.981 Z5.208 I0.317 J0.000 F199.998
G2 X-55.317 Y-65.981 Z5.104 I-0.317 J0.000 F199.998
G2 X-54.683 Y-65.981 Z5.000 I0.317 J0.000 F199.998
G2 X-55.317 Y-65.981 Z4.896 I-0.317 J0.000 F199.998
G2 X-54.683 Y-65.981 Z4.792 I0.317 J0.000 F199.998
G2 X-55.317 Y-65.981 Z4.688 I-0.317 J0.000 F199.998
G2 X-54.683 Y-65.981 Z4.583 I0.317 J0.000 F199.998
G2 X-55.317 Y-65.981 Z4.479 I-0.317 J0.000 F199.998
G2 X-54.683 Y-65.981 Z4.375 I0.317 J0.000 F199.998
G2 X-55.317 Y-65.981 Z4.271 I-0.317 J0.000 F199.998
G2 X-54.683 Y-65.981 Z4.167 I0.317 J0.000 F199.998
G2 X-55.317 Y-65.981 Z4.063 I-0.317 J0.000 F199.998
G2 X-54.683 Y-65.981 Z3.958 I0.317 J0.000 F199.998
G2 X-55.317 Y-65.981 Z3.854 I-0.317 J0.000 F199.998
G2 X-54.683 Y-65.981 Z3.750 I0.317 J0.000 F199.998
G2 X-55.317 Y-65.981 Z3.646 I-0.317 J0.000 F199.998
G2 X-54.683 Y-65.981 Z3.542 I0.317 J0.000 F199.998
G2 X-55.317 Y-65.981 Z3.438 I-0.317 J0.000 F199.998
G2 X-54.683 Y-65.981 Z3.333 I0.317 J0.000 F199.998
G2 X-55.317 Y-65.981 Z3.229 I-0.317 J0.000 F199.998
G2 X-54.683 Y-65.981 Z3.125 I0.317 J0.000 F199.998
G2 X-55.317 Y-65.981 Z3.021 I-0.317 J0.000 F199.998
G2 X-54.683 Y-65.981 Z2.917 I0.317 J0.000 F199.998
G2 X-55.317 Y-65.981 Z2.813 I-0.317 J0.000 F199.998
G2 X-54.683 Y-65.981 Z2.708 I0.317 J0.000 F199.998
G2 X-55.317 Y-65.981 Z2.604 I-0.317 J0.000 F199.998
G2 X-54.683 Y-65.981 Z2.500 I0.317 J0.000 F199.998
G2 X-55.317 Y-65.981 Z2.396 I-0.317 J0.000 F199.998
G2 X-54.683 Y-65.981 Z2.292 I0.317 J0.000 F199.998
G2 X-55.317 Y-65.981 Z2.188 I-0.317 J0.000 F199.998
G2 X-54.683 Y-65.981 Z2.083 I0.317 J0.000 F199.998
G2 X-55.317 Y-65.981 Z1.979 I-0.317 J0.000 F199.998
G2 X-54.683 Y-65.981 Z1.875 I0.317 J0.000 F199.998
G2 X-55.317 Y-65.981 Z1.771 I-0.317 J0.000 F199.998
G2 X-54.683 Y-65.981 Z1.667 I0.317 J0.000 F199.998
G2 X-55.317 Y-65.981 Z1.563 I-0.317 J0.000 F199.998
G2 X-54.683 Y-65.981 Z1.458 I0.317 J0.000 F199.998
G2 X-55.317 Y-65.981 Z1.354 I-0.317 J0.000 F199.998
G2 X-54.683 Y-65.981 Z1.250 I0.317 J0.000 F199.998
G2 X-55.317 Y-65.981 Z1.146 I-0.317 J0.000 F199.998
G2 X-54.683 Y-65.981 Z1.042 I0.317 J0.000 F199.998
G2 X-55.317 Y-65.981 Z0.938 I-0.317 J0.000 F199.998
G2 X-54.683 Y-65.981 Z0.833 I0.317 J0.000 F199.998
G2 X-55.317 Y-65.981 Z0.729 I-0.317 J0.000 F199.998
G2 X-54.683 Y-65.981 Z0.625 I0.317 J0.000 F199.998
G2 X-55.317 Y-65.981 Z0.521 I-0.317 J0.000 F199.998
G2 X-54.683 Y-65.981 Z0.417 I0.317 J0.000 F199.998
G2 X-55.317 Y-65.981 Z0.313 I-0.317 J0.000 F199.998
G2 X-54.683 Y-65.981 Z0.208 I0.317 J0.000 F199.998
G2 X-55.317 Y-65.981 Z0.104 I-0.317 J0.000 F199.998
G2 X-54.683 Y-65.981 Z0.000 I0.317 J0.000 F199.998
G2 X-55.317 Y-65.981 Z0.000 I-0.317 J0.000 F199.998
G2 X-54.683 Y-65.981 Z0.000 I0.317 J0.000 F199.998
G0 Z23.000
G0 X-54.217 Y-65.981
G0 Z23.000
G1 Z10.000 F100.000
G2 X-55.783 Y-65.981 Z9.896 I-0.783 J0.000 F199.998
G2 X-54.217 Y-65.981 Z9.792 I0.783 J0.000 F199.998
G2 X-55.783 Y-65.981 Z9.688 I-0.783 J0.000 F199.998
G2 X-54.217 Y-65.981 Z9.583 I0.783 J0.000 F199.998
G2 X-55.783 Y-65.981 Z9.479 I-0.783 J0.000 F199.998
G2 X-54.217 Y-65.981 Z9.375 I0.783 J0.000 F199.998
G2 X-55.783 Y-65.981 Z9.271 I-0.783 J0.000 F199.998
G2 X-54.217 Y-65.981 Z9.167 I0.783 J0.000 F199.998
G2 X-55.783 Y-65.981 Z9.062 I-0.783 J0.000 F199.998
G2 X-54.217 Y-65.981 Z8.958 I0.783 J0.000 F199.998
G2 X-55.783 Y-65.981 Z8.854 I-0.783 J0.000 F199.998
G2 X-54.217 Y-65.981 Z8.750 I0.783 J0.000 F199.998
G2 X-55.783 Y-65.981 Z8.646 I-0.783 J0.000 F199.998
G2 X-54.217 Y-65.981 Z8.542 I0.783 J0.000 F199.998
G2 X-55.783 Y-65.981 Z8.438 I-0.783 J0.000 F199.998
G2 X-54.217 Y-65.981 Z8.333 I0.783 J0.000 F199.998
G2 X-55.783 Y-65.981 Z8.229 I-0.783 J0.000 F199.998
G2 X-54.217 Y-65.981 Z8.125 I0.783 J0.000 F199.998
G2 X-55.783 Y-65.981 Z8.021 I-0.783 J0.000 F199.998
G2 X-54.217 Y-65.981 Z7.917 I0.783 J0.000 F199.998
G2 X-55.783 Y-65.981 Z7.813 I-0.783 J0.000 F199.998
G2 X-54.217 Y-65.981 Z7.708 I0.783 J0.000 F199.998
G2 X-55.783 Y-65.981 Z7.604 I-0.783 J0.000 F199.998
G2 X-54.217 Y-65.981 Z7.500 I0.783 J0.000 F199.998
G2 X-55.783 Y-65.981 Z7.396 I-0.783 J0.000 F199.998
G2 X-54.217 Y-65.981 Z7.292 I0.783 J0.000 F199.998
G2 X-55.783 Y-65.981 Z7.188 I-0.783 J0.000 F199.998
G2 X-54.217 Y-65.981 Z7.083 I0.783 J0.000 F199.998
G2 X-55.783 Y-65.981 Z6.979 I-0.783 J0.000 F199.998
G2 X-54.217 Y-65.981 Z6.875 I0.783 J0.000 F199.998
G2 X-55.783 Y-65.981 Z6.771 I-0.783 J0.000 F199.998
G2 X-54.217 Y-65.981 Z6.667 I0.783 J0.000 F199.998
G2 X-55.783 Y-65.981 Z6.563 I-0.783 J0.000 F199.998
G2 X-54.217 Y-65.981 Z6.458 I0.783 J0.000 F199.998
G2 X-55.783 Y-65.981 Z6.354 I-0.783 J0.000 F199.998
G2 X-54.217 Y-65.981 Z6.250 I0.783 J0.000 F199.998
G2 X-55.783 Y-65.981 Z6.146 I-0.783 J0.000 F199.998
G2 X-54.217 Y-65.981 Z6.042 I0.783 J0.000 F199.998
G2 X-55.783 Y-65.981 Z5.938 I-0.783 J0.000 F199.998
G2 X-54.217 Y-65.981 Z5.833 I0.783 J0.000 F199.998
G2 X-55.783 Y-65.981 Z5.729 I-0.783 J0.000 F199.998
G2 X-54.217 Y-65.981 Z5.625 I0.783 J0.000 F199.998
G2 X-55.783 Y-65.981 Z5.521 I-0.783 J0.000 F199.998
G2 X-54.217 Y-65.981 Z5.417 I0.783 J0.000 F199.998
G2 X-55.783 Y-65.981 Z5.313 I-0.783 J0.000 F199.998
G2 X-54.217 Y-65.981 Z5.208 I0.783 J0.000 F199.998
G2 X-55.783 Y-65.981 Z5.104 I-0.783 J0.000 F199.998
G2 X-54.217 Y-65.981 Z5.000 I0.783 J0.000 F199.998
G2 X-55.783 Y-65.981 Z4.896 I-0.783 J0.000 F199.998
G2 X-54.217 Y-65.981 Z4.792 I0.783 J0.000 F199.998
G2 X-55.783 Y-65.981 Z4.688 I-0.783 J0.000 F199.998
G2 X-54.217 Y-65.981 Z4.583 I0.783 J0.000 F199.998
G2 X-55.783 Y-65.981 Z4.479 I-0.783 J0.000 F199.998
G2 X-54.217 Y-65.981 Z4.375 I0.783 J0.000 F199.998
G2 X-55.783 Y-65.981 Z4.271 I-0.783 J0.000 F199.998
G2 X-54.217 Y-65.981 Z4.167 I0.783 J0.000 F199.998
G2 X-55.783 Y-65.981 Z4.063 I-0.783 J0.000 F199.998
G2 X-54.217 Y-65.981 Z3.958 I0.783 J0.000 F199.998
G2 X-55.783 Y-65.981 Z3.854 I-0.783 J0.000 F199.998
G2 X-54.217 Y-65.981 Z3.750 I0.783 J0.000 F199.998
G2 X-55.783 Y-65.981 Z3.646 I-0.783 J0.000 F199.998
G2 X-54.217 Y-65.981 Z3.542 I0.783 J0.000 F199.998
G2 X-55.783 Y-65.981 Z3.438 I-0.783 J0.000 F199.998
G2 X-54.217 Y-65.981 Z3.333 I0.783 J0.000 F199.998
G2 X-55.783 Y-65.981 Z3.229 I-0.783 J0.000 F199.998
G2 X-54.217 Y-65.981 Z3.125 I0.783 J0.000 F199.998
G2 X-55.783 Y-65.981 Z3.021 I-0.783 J0.000 F199.998
G2 X-54.217 Y-65.981 Z2.917 I0.783 J0.000 F199.998
G2 X-55.783 Y-65.981 Z2.813 I-0.783 J0.000 F199.998
G2 X-54.217 Y-65.981 Z2.708 I0.783 J0.000 F199.998
G2 X-55.783 Y-65.981 Z2.604 I-0.783 J0.000 F199.998
G2 X-54.217 Y-65.981 Z2.500 I0.783 J0.000 F199.998
G2 X-55.783 Y-65.981 Z2.396 I-0.783 J0.000 F199.998
G2 X-54.217 Y-65.981 Z2.292 I0.783 J0.000 F199.998
G2 X-55.783 Y-65.981 Z2.188 I-0.783 J0.000 F199.998
G2 X-54.217 Y-65.981 Z2.083 I0.783 J0.000 F199.998
G2 X-55.783 Y-65.981 Z1.979 I-0.783 J0.000 F199.998
G2 X-54.217 Y-65.981 Z1.875 I0.783 J0.000 F199.998
G2 X-55.783 Y-65.981 Z1.771 I-0.783 J0.000 F199.998
G2 X-54.217 Y-65.981 Z1.667 I0.783 J0.000 F199.998
G2 X-55.783 Y-65.981 Z1.563 I-0.783 J0.000 F199.998
G2 X-54.217 Y-65.981 Z1.458 I0.783 J0.000 F199.998
G2 X-55.783 Y-65.981 Z1.354 I-0.783 J0.000 F199.998
G2 X-54.217 Y-65.981 Z1.250 I0.783 J0.000 F199.998
G2 X-55.783 Y-65.981 Z1.146 I-0.783 J0.000 F199.998
G2 X-54.217 Y-65.981 Z1.042 I0.783 J0.000 F199.998
G2 X-55.783 Y-65.981 Z0.938 I-0.783 J0.000 F199.998
G2 X-54.217 Y-65.981 Z0.833 I0.783 J0.000 F199.998
G2 X-55.783 Y-65.981 Z0.729 I-0.783 J0.000 F199.998
G2 X-54.217 Y-65.981 Z0.625 I0.783 J0.000 F199.998
G2 X-55.783 Y-65.981 Z0.521 I-0.783 J0.000 F199.998
G2 X-54.217 Y-65.981 Z0.417 I0.783 J0.000 F199.998
G2 X-55.783 Y-65.981 Z0.313 I-0.783 J0.000 F199.998
G2 X-54.217 Y-65.981 Z0.208 I0.783 J0.000 F199.998
G2 X-55.783 Y-65.981 Z0.104 I-0.783 J0.000 F199.998
G2 X-54.217 Y-65.981 Z0.000 I0.783 J0.000 F199.998
G2 X-55.783 Y-65.981 Z0.000 I-0.783 J0.000 F199.998
G2 X-54.217 Y-65.981 Z0.000 I0.783 J0.000 F199.998
G0 Z23.000
G0 X-53.751 Y-65.981
G0 Z23.000
G1 Z10.000 F100.000
G2 X-56.249 Y-65.981 Z9.896 I-1.249 J0.000 F199.998
G2 X-53.751 Y-65.981 Z9.792 I1.249 J0.000 F199.998
G2 X-56.249 Y-65.981 Z9.688 I-1.249 J0.000 F199.998
G2 X-53.751 Y-65.981 Z9.583 I1.249 J0.000 F199.998
G2 X-56.249 Y-65.981 Z9.479 I-1.249 J0.000 F199.998
G2 X-53.751 Y-65.981 Z9.375 I1.249 J0.000 F199.998
G2 X-56.249 Y-65.981 Z9.271 I-1.249 J0.000 F199.998
G2 X-53.751 Y-65.981 Z9.167 I1.249 J0.000 F199.998
G2 X-56.249 Y-65.981 Z9.062 I-1.249 J0.000 F199.998
G2 X-53.751 Y-65.981 Z8.958 I1.249 J0.000 F199.998
G2 X-56.249 Y-65.981 Z8.854 I-1.249 J0.000 F199.998
G2 X-53.751 Y-65.981 Z8.750 I1.249 J0.000 F199.998
G2 X-56.249 Y-65.981 Z8.646 I-1.249 J0.000 F199.998
G2 X-53.751 Y-65.981 Z8.542 I1.249 J0.000 F199.998
G2 X-56.249 Y-65.981 Z8.438 I-1.249 J0.000 F199.998
G2 X-53.751 Y-65.981 Z8.333 I1.249 J0.000 F199.998
G2 X-56.249 Y-65.981 Z8.229 I-1.249 J0.000 F199.998
G2 X-53.751 Y-65.981 Z8.125 I1.249 J0.000 F199.998
G2 X-56.249 Y-65.981 Z8.021 I-1.249 J0.000 F199.998
G2 X-53.751 Y-65.981 Z7.917 I1.249 J0.000 F199.998
G2 X-56.249 Y-65.981 Z7.813 I-1.249 J0.000 F199.998
G2 X-53.751 Y-65.981 Z7.708 I1.249 J0.000 F199.998
G2 X-56.249 Y-65.981 Z7.604 I-1.249 J0.000 F199.998
G2 X-53.751 Y-65.981 Z7.500 I1.249 J0.000 F199.998
G2 X-56.249 Y-65.981 Z7.396 I-1.249 J0.000 F199.998
G2 X-53.751 Y-65.981 Z7.292 I1.249 J0.000 F199.998
G2 X-56.249 Y-65.981 Z7.188 I-1.249 J0.000 F199.998
G2 X-53.751 Y-65.981 Z7.083 I1.249 J0.000 F199.998
G2 X-56.249 Y-65.981 Z6.979 I-1.249 J0.000 F199.998
G2 X-53.751 Y-65.981 Z6.875 I1.249 J0.000 F199.998
G2 X-56.249 Y-65.981 Z6.771 I-1.249 J0.000 F199.998
G2 X-53.751 Y-65.981 Z6.667 I1.249 J0.000 F199.998
G2 X-56.249 Y-65.981 Z6.563 I-1.249 J0.000 F199.998
G2 X-53.751 Y-65.981 Z6.458 I1.249 J0.000 F199.998
G2 X-56.249 Y-65.981 Z6.354 I-1.249 J0.000 F199.998
G2 X-53.751 Y-65.981 Z6.250 I1.249 J0.000 F199.998
G2 X-56.249 Y-65.981 Z6.146 I-1.249 J0.000 F199.998
G2 X-53.751 Y-65.981 Z6.042 I1.249 J0.000 F199.998
G2 X-56.249 Y-65.981 Z5.938 I-1.249 J0.000 F199.998
G2 X-53.751 Y-65.981 Z5.833 I1.249 J0.000 F199.998
G2 X-56.249 Y-65.981 Z5.729 I-1.249 J0.000 F199.998
G2 X-53.751 Y-65.981 Z5.625 I1.249 J0.000 F199.998
G2 X-56.249 Y-65.981 Z5.521 I-1.249 J0.000 F199.998
G2 X-53.751 Y-65.981 Z5.417 I1.249 J0.000 F199.998
G2 X-56.249 Y-65.981 Z5.313 I-1.249 J0.000 F199.998
G2 X-53.751 Y-65.981 Z5.208 I1.249 J0.000 F199.998
G2 X-56.249 Y-65.981 Z5.104 I-1.249 J0.000 F199.998
G2 X-53.751 Y-65.981 Z5.000 I1.249 J0.000 F199.998
G2 X-56.249 Y-65.981 Z4.896 I-1.249 J0.000 F199.998
G2 X-53.751 Y-65.981 Z4.792 I1.249 J0.000 F199.998
G2 X-56.249 Y-65.981 Z4.688 I-1.249 J0.000 F199.998
G2 X-53.751 Y-65.981 Z4.583 I1.249 J0.000 F199.998
G2 X-56.249 Y-65.981 Z4.479 I-1.249 J0.000 F199.998
G2 X-53.751 Y-65.981 Z4.375 I1.249 J0.000 F199.998
G2 X-56.249 Y-65.981 Z4.271 I-1.249 J0.000 F199.998
G2 X-53.751 Y-65.981 Z4.167 I1.249 J0.000 F199.998
G2 X-56.249 Y-65.981 Z4.063 I-1.249 J0.000 F199.998
G2 X-53.751 Y-65.981 Z3.958 I1.249 J0.000 F199.998
G2 X-56.249 Y-65.981 Z3.854 I-1.249 J0.000 F199.998
G2 X-53.751 Y-65.981 Z3.750 I1.249 J0.000 F199.998
G2 X-56.249 Y-65.981 Z3.646 I-1.249 J0.000 F199.998
G2 X-53.751 Y-65.981 Z3.542 I1.249 J0.000 F199.998
G2 X-56.249 Y-65.981 Z3.438 I-1.249 J0.000 F199.998
G2 X-53.751 Y-65.981 Z3.333 I1.249 J0.000 F199.998
G2 X-56.249 Y-65.981 Z3.229 I-1.249 J0.000 F199.998
G2 X-53.751 Y-65.981 Z3.125 I1.249 J0.000 F199.998
G2 X-56.249 Y-65.981 Z3.021 I-1.249 J0.000 F199.998
G2 X-53.751 Y-65.981 Z2.917 I1.249 J0.000 F199.998
G2 X-56.249 Y-65.981 Z2.813 I-1.249 J0.000 F199.998
G2 X-53.751 Y-65.981 Z2.708 I1.249 J0.000 F199.998
G2 X-56.249 Y-65.981 Z2.604 I-1.249 J0.000 F199.998
G2 X-53.751 Y-65.981 Z2.500 I1.249 J0.000 F199.998
G2 X-56.249 Y-65.981 Z2.396 I-1.249 J0.000 F199.998
G2 X-53.751 Y-65.981 Z2.292 I1.249 J0.000 F199.998
G2 X-56.249 Y-65.981 Z2.188 I-1.249 J0.000 F199.998
G2 X-53.751 Y-65.981 Z2.083 I1.249 J0.000 F199.998
G2 X-56.249 Y-65.981 Z1.979 I-1.249 J0.000 F199.998
G2 X-53.751 Y-65.981 Z1.875 I1.249 J0.000 F199.998
G2 X-56.249 Y-65.981 Z1.771 I-1.249 J0.000 F199.998
G2 X-53.751 Y-65.981 Z1.667 I1.249 J0.000 F199.998
G2 X-56.249 Y-65.981 Z1.563 I-1.249 J0.000 F199.998
G2 X-53.751 Y-65.981 Z1.458 I1.249 J0.000 F199.998
G2 X-56.249 Y-65.981 Z1.354 I-1.249 J0.000 F199.998
G2 X-53.751 Y-65.981 Z1.250 I1.249 J0.000 F199.998
G2 X-56.249 Y-65.981 Z1.146 I-1.249 J0.000 F199.998
G2 X-53.751 Y-65.981 Z1.042 I1.249 J0.000 F199.998
G2 X-56.249 Y-65.981 Z0.938 I-1.249 J0.000 F199.998
G2 X-53.751 Y-65.981 Z0.833 I1.249 J0.000 F199.998
G2 X-56.249 Y-65.981 Z0.729 I-1.249 J0.000 F199.998
G2 X-53.751 Y-65.981 Z0.625 I1.249 J0.000 F199.998
G2 X-56.249 Y-65.981 Z0.521 I-1.249 J0.000 F199.998
G2 X-53.751 Y-65.981 Z0.417 I1.249 J0.000 F199.998
G2 X-56.249 Y-65.981 Z0.313 I-1.249 J0.000 F199.998
G2 X-53.751 Y-65.981 Z0.208 I1.249 J0.000 F199.998
G2 X-56.249 Y-65.981 Z0.104 I-1.249 J0.000 F199.998
G2 X-53.751 Y-65.981 Z0.000 I1.249 J0.000 F199.998
G2 X-56.249 Y-65.981 Z0.000 I-1.249 J0.000 F199.998
G2 X-53.751 Y-65.981 Z0.000 I1.249 J0.000 F199.998
G0 Z23.000
G0 X-53.285 Y-65.981
G0 Z23.000
G1 Z10.000 F100.000
G2 X-56.715 Y-65.981 Z9.896 I-1.715 J0.000 F199.998
G2 X-53.285 Y-65.981 Z9.792 I1.715 J0.000 F199.998
G2 X-56.715 Y-65.981 Z9.688 I-1.715 J0.000 F199.998
G2 X-53.285 Y-65.981 Z9.583 I1.715 J0.000 F199.998
G2 X-56.715 Y-65.981 Z9.479 I-1.715 J0.000 F199.998
G2 X-53.285 Y-65.981 Z9.375 I1.715 J0.000 F199.998
G2 X-56.715 Y-65.981 Z9.271 I-1.715 J0.000 F199.998
G2 X-53.285 Y-65.981 Z9.167 I1.715 J0.000 F199.998
G2 X-56.715 Y-65.981 Z9.062 I-1.715 J0.000 F199.998
G2 X-53.285 Y-65.981 Z8.958 I1.715 J0.000 F199.998
G2 X-56.715 Y-65.981 Z8.854 I-1.715 J0.000 F199.998
G2 X-53.285 Y-65.981 Z8.750 I1.715 J0.000 F199.998
G2 X-56.715 Y-65.981 Z8.646 I-1.715 J0.000 F199.998
G2 X-53.285 Y-65.981 Z8.542 I1.715 J0.000 F199.998
G2 X-56.715 Y-65.981 Z8.438 I-1.715 J0.000 F199.998
G2 X-53.285 Y-65.981 Z8.333 I1.715 J0.000 F199.998
G2 X-56.715 Y-65.981 Z8.229 I-1.715 J0.000 F199.998
G2 X-53.285 Y-65.981 Z8.125 I1.715 J0.000 F199.998
G2 X-56.715 Y-65.981 Z8.021 I-1.715 J0.000 F199.998
G2 X-53.285 Y-65.981 Z7.917 I1.715 J0.000 F199.998
G2 X-56.715 Y-65.981 Z7.813 I-1.715 J0.000 F199.998
G2 X-53.285 Y-65.981 Z7.708 I1.715 J0.000 F199.998
G2 X-56.715 Y-65.981 Z7.604 I-1.715 J0.000 F199.998
G2 X-53.285 Y-65.981 Z7.500 I1.715 J0.000 F199.998
G2 X-56.715 Y-65.981 Z7.396 I-1.715 J0.000 F199.998
G2 X-53.285 Y-65.981 Z7.292 I1.715 J0.000 F199.998
G2 X-56.715 Y-65.981 Z7.188 I-1.715 J0.000 F199.998
G2 X-53.285 Y-65.981 Z7.083 I1.715 J0.000 F199.998
G2 X-56.715 Y-65.981 Z6.979 I-1.715 J0.000 F199.998
G2 X-53.285 Y-65.981 Z6.875 I1.715 J0.000 F199.998
G2 X-56.715 Y-65.981 Z6.771 I-1.715 J0.000 F199.998
G2 X-53.285 Y-65.981 Z6.667 I1.715 J0.000 F199.998
G2 X-56.715 Y-65.981 Z6.563 I-1.715 J0.000 F199.998
G2 X-53.285 Y-65.981 Z6.458 I1.715 J0.000 F199.998
G2 X-56.715 Y-65.981 Z6.354 I-1.715 J0.000 F199.998
G2 X-53.285 Y-65.981 Z6.250 I1.715 J0.000 F199.998
G2 X-56.715 Y-65.981 Z6.146 I-1.715 J0.000 F199.998
G2 X-53.285 Y-65.981 Z6.042 I1.715 J0.000 F199.998
G2 X-56.715 Y-65.981 Z5.938 I-1.715 J0.000 F199.998
G2 X-53.285 Y-65.981 Z5.833 I1.715 J0.000 F199.998
G2 X-56.715 Y-65.981 Z5.729 I-1.715 J0.000 F199.998
G2 X-53.285 Y-65.981 Z5.625 I1.715 J0.000 F199.998
G2 X-56.715 Y-65.981 Z5.521 I-1.715 J0.000 F199.998
G2 X-53.285 Y-65.981 Z5.417 I1.715 J0.000 F199.998
G2 X-56.715 Y-65.981 Z5.313 I-1.715 J0.000 F199.998
G2 X-53.285 Y-65.981 Z5.208 I1.715 J0.000 F199.998
G2 X-56.715 Y-65.981 Z5.104 I-1.715 J0.000 F199.998
G2 X-53.285 Y-65.981 Z5.000 I1.715 J0.000 F199.998
G2 X-56.715 Y-65.981 Z4.896 I-1.715 J0.000 F199.998
G2 X-53.285 Y-65.981 Z4.792 I1.715 J0.000 F199.998
G2 X-56.715 Y-65.981 Z4.688 I-1.715 J0.000 F199.998
G2 X-53.285 Y-65.981 Z4.583 I1.715 J0.000 F199.998
G2 X-56.715 Y-65.981 Z4.479 I-1.715 J0.000 F199.998
G2 X-53.285 Y-65.981 Z4.375 I1.715 J0.000 F199.998
G2 X-56.715 Y-65.981 Z4.271 I-1.715 J0.000 F199.998
G2 X-53.285 Y-65.981 Z4.167 I1.715 J0.000 F199.998
G2 X-56.715 Y-65.981 Z4.063 I-1.715 J0.000 F199.998
G2 X-53.285 Y-65.981 Z3.958 I1.715 J0.000 F199.998
G2 X-56.715 Y-65.981 Z3.854 I-1.715 J0.000 F199.998
G2 X-53.285 Y-65.981 Z3.750 I1.715 J0.000 F199.998
G2 X-56.715 Y-65.981 Z3.646 I-1.715 J0.000 F199.998
G2 X-53.285 Y-65.981 Z3.542 I1.715 J0.000 F199.998
G2 X-56.715 Y-65.981 Z3.438 I-1.715 J0.000 F199.998
G2 X-53.285 Y-65.981 Z3.333 I1.715 J0.000 F199.998
G2 X-56.715 Y-65.981 Z3.229 I-1.715 J0.000 F199.998
G2 X-53.285 Y-65.981 Z3.125 I1.715 J0.000 F199.998
G2 X-56.715 Y-65.981 Z3.021 I-1.715 J0.000 F199.998
G2 X-53.285 Y-65.981 Z2.917 I1.715 J0.000 F199.998
G2 X-56.715 Y-65.981 Z2.813 I-1.715 J0.000 F199.998
G2 X-53.285 Y-65.981 Z2.708 I1.715 J0.000 F199.998
G2 X-56.715 Y-65.981 Z2.604 I-1.715 J0.000 F199.998
G2 X-53.285 Y-65.981 Z2.500 I1.715 J0.000 F199.998
G2 X-56.715 Y-65.981 Z2.396 I-1.715 J0.000 F199.998
G2 X-53.285 Y-65.981 Z2.292 I1.715 J0.000 F199.998
G2 X-56.715 Y-65.981 Z2.188 I-1.715 J0.000 F199.998
G2 X-53.285 Y-65.981 Z2.083 I1.715 J0.000 F199.998
G2 X-56.715 Y-65.981 Z1.979 I-1.715 J0.000 F199.998
G2 X-53.285 Y-65.981 Z1.875 I1.715 J0.000 F199.998
G2 X-56.715 Y-65.981 Z1.771 I-1.715 J0.000 F199.998
G2 X-53.285 Y-65.981 Z1.667 I1.715 J0.000 F199.998
G2 X-56.715 Y-65.981 Z1.563 I-1.715 J0.000 F199.998
G2 X-53.285 Y-65.981 Z1.458 I1.715 J0.000 F199.998
G2 X-56.715 Y-65.981 Z1.354 I-1.715 J0.000 F199.998
G2 X-53.285 Y-65.981 Z1.250 I1.715 J0.000 F199.998
G2 X-56.715 Y-65.981 Z1.146 I-1.715 J0.000 F199.998
G2 X-53.285 Y-65.981 Z1.042 I1.715 J0.000 F199.998
G2 X-56.715 Y-65.981 Z0.938 I-1.715 J0.000 F199.998
G2 X-53.285 Y-65.981 Z0.833 I1.715 J0.000 F199.998
G2 X-56.715 Y-65.981 Z0.729 I-1.715 J0.000 F199.998
G2 X-53.285 Y-65.981 Z0.625 I1.715 J0.000 F199.998
G2 X-56.715 Y-65.981 Z0.521 I-1.715 J0.000 F199.998
G2 X-53.285 Y-65.981 Z0.417 I1.715 J0.000 F199.998
G2 X-56.715 Y-65.981 Z0.313 I-1.715 J0.000 F199.998
G2 X-53.285 Y-65.981 Z0.208 I1.715 J0.000 F199.998
G2 X-56.715 Y-65.981 Z0.104 I-1.715 J0.000 F199.998
G2 X-53.285 Y-65.981 Z0.000 I1.715 J0.000 F199.998
G2 X-56.715 Y-65.981 Z0.000 I-1.715 J0.000 F199.998
G2 X-53.285 Y-65.981 Z0.000 I1.715 J0.000 F199.998
G0 Z23.000
G0 X-65.664 Y-55.000
G0 Z23.000
G1 Z10.000 F100.000
G2 X-66.298 Y-55.000 Z9.896 I-0.317 J0.000 F199.998
G2 X-65.664 Y-55.000 Z9.792 I0.317 J0.000 F199.998
G2 X-66.298 Y-55.000 Z9.688 I-0.317 J0.000 F199.998
G2 X-65.664 Y-55.000 Z9.583 I0.317 J0.000 F199.998
G2 X-66.298 Y-55.000 Z9.479 I-0.317 J0.000 F199.998
G2 X-65.664 Y-55.000 Z9.375 I0.317 J0.000 F199.998
G2 X-66.298 Y-55.000 Z9.271 I-0.317 J0.000 F199.998
G2 X-65.664 Y-55.000 Z9.167 I0.317 J0.000 F199.998
G2 X-66.298 Y-55.000 Z9.062 I-0.317 J0.000 F199.998
G2 X-65.664 Y-55.000 Z8.958 I0.317 J0.000 F199.998
G2 X-66.298 Y-55.000 Z8.854 I-0.317 J0.000 F199.998
G2 X-65.664 Y-55.000 Z8.750 I0.317 J0.000 F199.998
G2 X-66.298 Y-55.000 Z8.646 I-0.317 J0.000 F199.998
G2 X-65.664 Y-55.000 Z8.542 I0.317 J0.000 F199.998
G2 X-66.298 Y-55.000 Z8.438 I-0.317 J0.000 F199.998
G2 X-65.664 Y-55.000 Z8.333 I0.317 J0.000 F199.998
G2 X-66.298 Y-55.000 Z8.229 I-0.317 J0.000 F199.998
G2 X-65.664 Y-55.000 Z8.125 I0.317 J0.000 F199.998
G2 X-66.298 Y-55.000 Z8.021 I-0.317 J0.000 F199.998
G2 X-65.664 Y-55.000 Z7.917 I0.317 J0.000 F199.998
G2 X-66.298 Y-55.000 Z7.813 I-0.317 J0.000 F199.998
G2 X-65.664 Y-55.000 Z7.708 I0.317 J0.000 F199.998
G2 X-66.298 Y-55.000 Z7.604 I-0.317 J0.000 F199.998
G2 X-65.664 Y-55.000 Z7.500 I0.317 J0.000 F199.998
G2 X-66.298 Y-55.000 Z7.396 I-0.317 J0.000 F199.998
G2 X-65.664 Y-55.000 Z7.292 I0.317 J0.000 F199.998
G2 X-66.298 Y-55.000 Z7.188 I-0.317 J0.000 F199.998
G2 X-65.664 Y-55.000 Z7.083 I0.317 J0.000 F199.998
G2 X-66.298 Y-55.000 Z6.979 I-0.317 J0.000 F199.998
G2 X-65.664 Y-55.000 Z6.875 I0.317 J0.000 F199.998
G2 X-66.298 Y-55.000 Z6.771 I-0.317 J0.000 F199.998
G2 X-65.664 Y-55.000 Z6.667 I0.317 J0.000 F199.998
G2 X-66.298 Y-55.000 Z6.563 I-0.317 J0.000 F199.998
G2 X-65.664 Y-55.000 Z6.458 I0.317 J0.000 F199.998
G2 X-66.298 Y-55.000 Z6.354 I-0.317 J0.000 F199.998
G2 X-65.664 Y-55.000 Z6.250 I0.317 J0.000 F199.998
G2 X-66.298 Y-55.000 Z6.146 I-0.317 J0.000 F199.998
G2 X-65.664 Y-55.000 Z6.042 I0.317 J0.000 F199.998
G2 X-66.298 Y-55.000 Z5.938 I-0.317 J0.000 F199.998
G2 X-65.664 Y-55.000 Z5.833 I0.317 J0.000 F199.998
G2 X-66.298 Y-55.000 Z5.729 I-0.317 J0.000 F199.998
G2 X-65.664 Y-55.000 Z5.625 I0.317 J0.000 F199.998
G2 X-66.298 Y-55.000 Z5.521 I-0.317 J0.000 F199.998
G2 X-65.664 Y-55.000 Z5.417 I0.317 J0.000 F199.998
G2 X-66.298 Y-55.000 Z5.313 I-0.317 J0.000 F199.998
G2 X-65.664 Y-55.000 Z5.208 I0.317 J0.000 F199.998
G2 X-66.298 Y-55.000 Z5.104 I-0.317 J0.000 F199.998
G2 X-65.664 Y-55.000 Z5.000 I0.317 J0.000 F199.998
G2 X-66.298 Y-55.000 Z4.896 I-0.317 J0.000 F199.998
G2 X-65.664 Y-55.000 Z4.792 I0.317 J0.000 F199.998
G2 X-66.298 Y-55.000 Z4.688 I-0.317 J0.000 F199.998
G2 X-65.664 Y-55.000 Z4.583 I0.317 J0.000 F199.998
G2 X-66.298 Y-55.000 Z4.479 I-0.317 J0.000 F199.998
G2 X-65.664 Y-55.000 Z4.375 I0.317 J0.000 F199.998
G2 X-66.298 Y-55.000 Z4.271 I-0.317 J0.000 F199.998
G2 X-65.664 Y-55.000 Z4.167 I0.317 J0.000 F199.998
G2 X-66.298 Y-55.000 Z4.063 I-0.317 J0.000 F199.998
G2 X-65.664 Y-55.000 Z3.958 I0.317 J0.000 F199.998
G2 X-66.298 Y-55.000 Z3.854 I-0.317 J0.000 F199.998
G2 X-65.664 Y-55.000 Z3.750 I0.317 J0.000 F199.998
G2 X-66.298 Y-55.000 Z3.646 I-0.317 J0.000 F199.998
G2 X-65.664 Y-55.000 Z3.542 I0.317 J0.000 F199.998
G2 X-66.298 Y-55.000 Z3.438 I-0.317 J0.000 F199.998
G2 X-65.664 Y-55.000 Z3.333 I0.317 J0.000 F199.998
G2 X-66.298 Y-55.000 Z3.229 I-0.317 J0.000 F199.998
G2 X-65.664 Y-55.000 Z3.125 I0.317 J0.000 F199.998
G2 X-66.298 Y-55.000 Z3.021 I-0.317 J0.000 F199.998
G2 X-65.664 Y-55.000 Z2.917 I0.317 J0.000 F199.998
G2 X-66.298 Y-55.000 Z2.813 I-0.317 J0.000 F199.998
G2 X-65.664 Y-55.000 Z2.708 I0.317 J0.000 F199.998
G2 X-66.298 Y-55.000 Z2.604 I-0.317 J0.000 F199.998
G2 X-65.664 Y-55.000 Z2.500 I0.317 J0.000 F199.998
G2 X-66.298 Y-55.000 Z2.396 I-0.317 J0.000 F199.998
G2 X-65.664 Y-55.000 Z2.292 I0.317 J0.000 F199.998
G2 X-66.298 Y-55.000 Z2.188 I-0.317 J0.000 F199.998
G2 X-65.664 Y-55.000 Z2.083 I0.317 J0.000 F199.998
G2 X-66.298 Y-55.000 Z1.979 I-0.317 J0.000 F199.998
G2 X-65.664 Y-55.000 Z1.875 I0.317 J0.000 F199.998
G2 X-66.298 Y-55.000 Z1.771 I-0.317 J0.000 F199.998
G2 X-65.664 Y-55.000 Z1.667 I0.317 J0.000 F199.998
G2 X-66.298 Y-55.000 Z1.563 I-0.317 J0.000 F199.998
G2 X-65.664 Y-55.000 Z1.458 I0.317 J0.000 F199.998
G2 X-66.298 Y-55.000 Z1.354 I-0.317 J0.000 F199.998
G2 X-65.664 Y-55.000 Z1.250 I0.317 J0.000 F199.998
G2 X-66.298 Y-55.000 Z1.146 I-0.317 J0.000 F199.998
G2 X-65.664 Y-55.000 Z1.042 I0.317 J0.000 F199.998
G2 X-66.298 Y-55.000 Z0.938 I-0.317 J0.000 F199.998
G2 X-65.664 Y-55.000 Z0.833 I0.317 J0.000 F199.998
G2 X-66.298 Y-55.000 Z0.729 I-0.317 J0.000 F199.998
G2 X-65.664 Y-55.000 Z0.625 I0.317 J0.000 F199.998
G2 X-66.298 Y-55.000 Z0.521 I-0.317 J0.000 F199.998
G2 X-65.664 Y-55.000 Z0.417 I0.317 J0.000 F199.998
G2 X-66.298 Y-55.000 Z0.313 I-0.317 J0.000 F199.998
G2 X-65.664 Y-55.000 Z0.208 I0.317 J0.000 F199.998
G2 X-66.298 Y-55.000 Z0.104 I-0.317 J0.000 F199.998
G2 X-65.664 Y-55.000 Z0.000 I0.317 J0.000 F199.998
G2 X-66.298 Y-55.000 Z0.000 I-0.317 J0.000 F199.998
G2 X-65.664 Y-55.000 Z0.000 I0.317 J0.000 F199.998
G0 Z23.000
G0 X-65.066 Y-55.000
G0 Z23.000
G1 Z10.000 F100.000
G2 X-66.896 Y-55.000 Z9.896 I-0.915 J0.000 F199.998
G2 X-65.066 Y-55.000 Z9.792 I0.915 J0.000 F199.998
G2 X-66.896 Y-55.000 Z9.688 I-0.915 J0.000 F199.998
G2 X-65.066 Y-55.000 Z9.583 I0.915 J0.000 F199.998
G2 X-66.896 Y-55.000 Z9.479 I-0.915 J0.000 F199.998
G2 X-65.066 Y-55.000 Z9.375 I0.915 J0.000 F199.998
G2 X-66.896 Y-55.000 Z9.271 I-0.915 J0.000 F199.998
G2 X-65.066 Y-55.000 Z9.167 I0.915 J0.000 F199.998
G2 X-66.896 Y-55.000 Z9.062 I-0.915 J0.000 F199.998
G2 X-65.066 Y-55.000 Z8.958 I0.915 J0.000 F199.998
G2 X-66.896 Y-55.000 Z8.854 I-0.915 J0.000 F199.998
G2 X-65.066 Y-55.000 Z8.750 I0.915 J0.000 F199.998
G2 X-66.896 Y-55.000 Z8.646 I-0.915 J0.000 F199.998
G2 X-65.066 Y-55.000 Z8.542 I0.915 J0.000 F199.998
G2 X-66.896 Y-55.000 Z8.438 I-0.915 J0.000 F199.998
G2 X-65.066 Y-55.000 Z8.333 I0.915 J0.000 F199.998
G2 X-66.896 Y-55.000 Z8.229 I-0.915 J0.000 F199.998
G2 X-65.066 Y-55.000 Z8.125 I0.915 J0.000 F199.998
G2 X-66.896 Y-55.000 Z8.021 I-0.915 J0.000 F199.998
G2 X-65.066 Y-55.000 Z7.917 I0.915 J0.000 F199.998
G2 X-66.896 Y-55.000 Z7.813 I-0.915 J0.000 F199.998
G2 X-65.066 Y-55.000 Z7.708 I0.915 J0.000 F199.998
G2 X-66.896 Y-55.000 Z7.604 I-0.915 J0.000 F199.998
G2 X-65.066 Y-55.000 Z7.500 I0.915 J0.000 F199.998
G2 X-66.896 Y-55.000 Z7.396 I-0.915 J0.000 F199.998
G2 X-65.066 Y-55.000 Z7.292 I0.915 J0.000 F199.998
G2 X-66.896 Y-55.000 Z7.188 I-0.915 J0.000 F199.998
G2 X-65.066 Y-55.000 Z7.083 I0.915 J0.000 F199.998
G2 X-66.896 Y-55.000 Z6.979 I-0.915 J0.000 F199.998
G2 X-65.066 Y-55.000 Z6.875 I0.915 J0.000 F199.998
G2 X-66.896 Y-55.000 Z6.771 I-0.915 J0.000 F199.998
G2 X-65.066 Y-55.000 Z6.667 I0.915 J0.000 F199.998
G2 X-66.896 Y-55.000 Z6.563 I-0.915 J0.000 F199.998
G2 X-65.066 Y-55.000 Z6.458 I0.915 J0.000 F199.998
G2 X-66.896 Y-55.000 Z6.354 I-0.915 J0.000 F199.998
G2 X-65.066 Y-55.000 Z6.250 I0.915 J0.000 F199.998
G2 X-66.896 Y-55.000 Z6.146 I-0.915 J0.000 F199.998
G2 X-65.066 Y-55.000 Z6.042 I0.915 J0.000 F199.998
G2 X-66.896 Y-55.000 Z5.938 I-0.915 J0.000 F199.998
G2 X-65.066 Y-55.000 Z5.833 I0.915 J0.000 F199.998
G2 X-66.896 Y-55.000 Z5.729 I-0.915 J0.000 F199.998
G2 X-65.066 Y-55.000 Z5.625 I0.915 J0.000 F199.998
G2 X-66.896 Y-55.000 Z5.521 I-0.915 J0.000 F199.998
G2 X-65.066 Y-55.000 Z5.417 I0.915 J0.000 F199.998
G2 X-66.896 Y-55.000 Z5.313 I-0.915 J0.000 F199.998
G2 X-65.066 Y-55.000 Z5.208 I0.915 J0.000 F199.998
G2 X-66.896 Y-55.000 Z5.104 I-0.915 J0.000 F199.998
G2 X-65.066 Y-55.000 Z5.000 I0.915 J0.000 F199.998
G2 X-66.896 Y-55.000 Z4.896 I-0.915 J0.000 F199.998
