(Exported by FreeCAD)
(Post Processor: grbl_post)
(Output Time:2022-05-30 12:45:36.304295)
(Begin preamble)
G17 G90
G21
(Begin operation: TC: 6 ball L24 Q008)
(Path: TC: 6 ball L24 Q008)
(TC: 6 ball L24 Q008)
(Begin toolchange)
( M6 T7.0 )
M3 S8000.0
(Finish operation: TC: 6 ball L24 Q008)
(Begin operation: Fixture)
(Path: Fixture)
G54
G0 Z25.000
(Finish operation: Fixture)
(Begin operation: Surface009)
(Path: Surface009)
(Surface009)
(Surface009)
(Tool type: ballend)
(Compensated Tool Path. Diameter: 6.0)
(Sample interval: 1.0)
(Step over %: 20.0)
()
G0 Z25.000
(Beginning of Multi-pass layers.)
(Layer 0 begins)
(Begin step 0.)
G0 X-39.501 Y-80.499
(part 1)
G1 X-39.501 Y-80.499 Z9.500 F250.000
G1 X-39.101 Y-80.490 Z9.500 F250.000
G1 X-38.502 Y-80.474 Z9.500 F250.000
G1 X-37.703 Y-80.437 Z9.500 F250.000
G1 X-36.904 Y-80.383 Z9.500 F250.000
G1 X-36.705 Y-80.368 Z9.500 F250.000
G1 X-35.908 Y-80.294 Z9.500 F250.000
G1 X-34.915 Y-80.182 Z9.500 F250.000
G1 X-33.924 Y-80.043 Z9.500 F250.000
G1 X-33.135 Y-79.916 Z9.500 F250.000
G1 X-32.151 Y-79.734 Z9.500 F250.000
G1 X-31.173 Y-79.528 Z9.500 F250.000
G1 X-30.394 Y-79.346 Z9.500 F250.000
G1 X-29.425 Y-79.097 Z9.500 F250.000
G1 X-28.463 Y-78.824 Z9.500 F250.000
G1 X-27.699 Y-78.589 Z9.500 F250.000
G1 X-27.509 Y-78.526 Z9.500 F250.000
G1 X-26.750 Y-78.273 Z9.500 F250.000
G1 X-25.997 Y-78.003 Z9.500 F250.000
G1 X-25.062 Y-77.647 Z9.500 F250.000
G1 X-24.138 Y-77.266 Z9.500 F250.000
G1 X-23.405 Y-76.945 Z9.500 F250.000
G1 X-22.497 Y-76.525 Z9.500 F250.000
G1 X-21.601 Y-76.081 Z9.500 F250.000
G1 X-20.892 Y-75.711 Z9.500 F250.000
G1 X-20.016 Y-75.229 Z9.500 F250.000
G1 X-19.153 Y-74.724 Z9.500 F250.000
G1 X-18.471 Y-74.306 Z9.500 F250.000
G1 X-17.630 Y-73.764 Z9.500 F250.000
G1 X-16.804 Y-73.201 Z9.500 F250.000
G1 X-16.152 Y-72.737 Z9.500 F250.000
G1 X-15.351 Y-72.138 Z9.500 F250.000
G1 X-14.566 Y-71.519 Z9.500 F250.000
G1 X-13.948 Y-71.011 Z9.500 F250.000
G1 X-13.341 Y-70.490 Z9.500 F250.000
G1 X-13.190 Y-70.359 Z9.500 F250.000
G1 X-12.596 Y-69.823 Z9.500 F250.000
G1 X-11.868 Y-69.138 Z9.500 F250.000
G1 X-11.157 Y-68.434 Z9.500 F250.000
G1 X-10.601 Y-67.859 Z9.500 F250.000
G1 X-9.922 Y-67.125 Z9.500 F250.000
G1 X-9.262 Y-66.374 Z9.500 F250.000
G1 X-8.747 Y-65.761 Z9.500 F250.000
G1 X-8.121 Y-64.982 Z9.500 F250.000
G1 X-7.514 Y-64.187 Z9.500 F250.000
G1 X-7.042 Y-63.541 Z9.500 F250.000
G1 X-6.471 Y-62.720 Z9.500 F250.000
G1 X-5.921 Y-61.885 Z9.500 F250.000
G1 X-5.495 Y-61.208 Z9.500 F250.000
G1 X-4.982 Y-60.350 Z9.500 F250.000
G1 X-4.490 Y-59.479 Z9.500 F250.000
G1 X-4.112 Y-58.774 Z9.500 F250.000
G1 X-3.749 Y-58.061 Z9.500 F250.000
G1 X-3.660 Y-57.882 Z9.500 F250.000
G1 X-3.314 Y-57.161 Z9.500 F250.000
G1 X-2.901 Y-56.250 Z9.500 F250.000
G1 X-2.511 Y-55.329 Z9.500 F250.000
G1 X-2.216 Y-54.586 Z9.500 F250.000
G1 X-1.867 Y-53.648 Z9.500 F250.000
G1 X-1.542 Y-52.703 Z9.500 F250.000
G1 X-1.298 Y-51.941 Z9.500 F250.000
G1 X-1.015 Y-50.982 Z9.500 F250.000
G1 X-0.757 Y-50.016 Z9.500 F250.000
G1 X-0.566 Y-49.239 Z9.500 F250.000
G1 X-0.350 Y-48.262 Z9.500 F250.000
G1 X-0.159 Y-47.281 Z9.500 F250.000
G1 X-0.022 Y-46.493 Z9.500 F250.000
G1 X0.126 Y-45.504 Z9.500 F250.000
G1 X0.249 Y-44.511 Z9.500 F250.000
G1 X0.331 Y-43.715 Z9.500 F250.000
G1 X0.396 Y-42.918 Z9.500 F250.000
G1 X0.456 Y-41.920 Z9.500 F250.000
G1 X0.491 Y-40.921 Z9.500 F250.000
G1 X0.501 Y-39.921 Z9.500 F250.000
G1 X0.492 Y-39.121 Z9.500 F250.000
G1 X0.458 Y-38.121 Z9.500 F250.000
G1 X0.399 Y-37.123 Z9.500 F250.000
G1 X0.335 Y-36.326 Z9.500 F250.000
G1 X0.232 Y-35.331 Z9.500 F250.000
G1 X0.131 Y-34.537 Z9.500 F250.000
G1 X-0.015 Y-33.548 Z9.500 F250.000
G1 X-0.187 Y-32.563 Z9.500 F250.000
G1 X-0.383 Y-31.582 Z9.500 F250.000
G1 X-0.557 Y-30.801 Z9.500 F250.000
G1 X-0.796 Y-29.830 Z9.500 F250.000
G1 X-1.060 Y-28.866 Z9.500 F250.000
G1 X-1.286 Y-28.099 Z9.500 F250.000
G1 X-1.530 Y-27.337 Z9.500 F250.000
G1 X-1.853 Y-26.390 Z9.500 F250.000
G1 X-2.201 Y-25.453 Z9.500 F250.000
G1 X-2.572 Y-24.524 Z9.500 F250.000
G1 X-2.884 Y-23.788 Z9.500 F250.000
G1 X-3.296 Y-22.876 Z9.500 F250.000
G1 X-3.642 Y-22.155 Z9.500 F250.000
G1 X-4.093 Y-21.263 Z9.500 F250.000
G1 X-4.567 Y-20.382 Z9.500 F250.000
G1 X-4.961 Y-19.686 Z9.500 F250.000
G1 X-5.473 Y-18.827 Z9.500 F250.000
G1 X-6.007 Y-17.981 Z9.500 F250.000
G1 X-6.561 Y-17.149 Z9.500 F250.000
G1 X-7.018 Y-16.492 Z9.500 F250.000
G1 X-7.490 Y-15.846 Z9.500 F250.000
G1 X-8.095 Y-15.050 Z9.500 F250.000
G1 X-8.721 Y-14.270 Z9.500 F250.000
G1 X-9.236 Y-13.658 Z9.500 F250.000
G1 X-9.895 Y-12.906 Z9.500 F250.000
G1 X-10.573 Y-12.171 Z9.500 F250.000
G1 X-11.129 Y-11.596 Z9.500 F250.000
G1 X-11.838 Y-10.891 Z9.500 F250.000
G1 X-12.566 Y-10.205 Z9.500 F250.000
G1 X-13.160 Y-9.669 Z9.500 F250.000
G1 X-13.916 Y-9.015 Z9.500 F250.000
G1 X-14.689 Y-8.381 Z9.500 F250.000
G1 X-15.319 Y-7.887 Z9.500 F250.000
G1 X-16.119 Y-7.287 Z9.500 F250.000
G1 X-16.934 Y-6.708 Z9.500 F250.000
G1 X-17.596 Y-6.259 Z9.500 F250.000
G1 X-17.763 Y-6.149 Z9.500 F250.000
G1 X-18.436 Y-5.716 Z9.500 F250.000
G1 X-19.118 Y-5.297 Z9.500 F250.000
G1 X-19.980 Y-4.792 Z9.500 F250.000
G1 X-20.856 Y-4.308 Z9.500 F250.000
G1 X-21.565 Y-3.938 Z9.500 F250.000
G1 X-22.460 Y-3.493 Z9.500 F250.000
G1 X-23.367 Y-3.071 Z9.500 F250.000
G1 X-24.100 Y-2.750 Z9.500 F250.000
G1 X-25.024 Y-2.368 Z9.500 F250.000
G1 X-25.958 Y-2.010 Z9.500 F250.000
G1 X-26.711 Y-1.741 Z9.500 F250.000
G1 X-27.659 Y-1.424 Z9.500 F250.000
G1 X-28.616 Y-1.131 Z9.500 F250.000
G1 X-29.386 Y-0.914 Z9.500 F250.000
G1 X-30.354 Y-0.663 Z9.500 F250.000
G1 X-31.328 Y-0.438 Z9.500 F250.000
G1 X-32.111 Y-0.274 Z9.500 F250.000
G1 X-32.307 Y-0.236 Z9.500 F250.000
G1 X-33.094 Y-0.091 Z9.500 F250.000
G1 X-33.884 Y0.037 Z9.500 F250.000
G1 X-34.874 Y0.176 Z9.500 F250.000
G1 X-35.867 Y0.291 Z9.500 F250.000
G1 X-36.664 Y0.364 Z9.500 F250.000
G1 X-37.661 Y0.434 Z9.500 F250.000
G1 X-38.660 Y0.480 Z9.500 F250.000
G1 X-39.460 Y0.498 Z9.500 F250.000
G1 X-40.460 Y0.499 Z9.500 F250.000
G1 X-41.460 Y0.475 Z9.500 F250.000
G1 X-42.259 Y0.439 Z9.500 F250.000
G1 X-43.257 Y0.371 Z9.500 F250.000
G1 X-44.252 Y0.278 Z9.500 F250.000
G1 X-45.047 Y0.186 Z9.500 F250.000
G1 X-46.038 Y0.050 Z9.500 F250.000
G1 X-47.025 Y-0.112 Z9.500 F250.000
G1 X-47.811 Y-0.258 Z9.500 F250.000
G1 X-48.594 Y-0.421 Z9.500 F250.000
G1 X-48.790 Y-0.463 Z9.500 F250.000
G1 X-49.569 Y-0.645 Z9.500 F250.000
G1 X-50.538 Y-0.893 Z9.500 F250.000
G1 X-51.500 Y-1.165 Z9.500 F250.000
G1 X-52.265 Y-1.400 Z9.500 F250.000
G1 X-53.214 Y-1.714 Z9.500 F250.000
G1 X-54.155 Y-2.052 Z9.500 F250.000
G1 X-54.902 Y-2.339 Z9.500 F250.000
G1 X-55.827 Y-2.718 Z9.500 F250.000
G1 X-56.743 Y-3.121 Z9.500 F250.000
G1 X-57.468 Y-3.458 Z9.500 F250.000
G1 X-58.365 Y-3.901 Z9.500 F250.000
G1 X-59.250 Y-4.366 Z9.500 F250.000
G1 X-59.950 Y-4.752 Z9.500 F250.000
G1 X-60.815 Y-5.256 Z9.500 F250.000
G1 X-61.666 Y-5.781 Z9.500 F250.000
G1 X-62.338 Y-6.215 Z9.500 F250.000
G1 X-63.000 Y-6.663 Z9.500 F250.000
G1 X-63.165 Y-6.776 Z9.500 F250.000
G1 X-63.816 Y-7.241 Z9.500 F250.000
G1 X-64.618 Y-7.838 Z9.500 F250.000
G1 X-65.404 Y-8.456 Z9.500 F250.000
G1 X-66.022 Y-8.964 Z9.500 F250.000
G1 X-66.781 Y-9.616 Z9.500 F250.000
G1 X-67.523 Y-10.286 Z9.500 F250.000
G1 X-68.104 Y-10.836 Z9.500 F250.000
G1 X-68.816 Y-11.538 Z9.500 F250.000
G1 X-69.509 Y-12.259 Z9.500 F250.000
G1 X-70.052 Y-12.847 Z9.500 F250.000
G1 X-70.713 Y-13.597 Z9.500 F250.000
G1 X-71.355 Y-14.364 Z9.500 F250.000
G1 X-71.856 Y-14.987 Z9.500 F250.000
G1 X-72.464 Y-15.782 Z9.500 F250.000
G1 X-73.051 Y-16.591 Z9.500 F250.000
G1 X-73.508 Y-17.248 Z9.500 F250.000
G1 X-73.950 Y-17.914 Z9.500 F250.000
G1 X-74.059 Y-18.082 Z9.500 F250.000
G1 X-74.485 Y-18.759 Z9.500 F250.000
G1 X-74.999 Y-19.617 Z9.500 F250.000
G1 X-75.492 Y-20.487 Z9.500 F250.000
G1 X-75.870 Y-21.192 Z9.500 F250.000
G1 X-76.324 Y-22.083 Z9.500 F250.000
G1 X-76.755 Y-22.985 Z9.500 F250.000
G1 X-77.084 Y-23.715 Z9.500 F250.000
G1 X-77.475 Y-24.635 Z9.500 F250.000
G1 X-77.842 Y-25.565 Z9.500 F250.000
G1 X-78.120 Y-26.315 Z9.500 F250.000
G1 X-78.382 Y-27.071 Z9.500 F250.000
G1 X-78.446 Y-27.260 Z9.500 F250.000
G1 X-78.690 Y-28.022 Z9.500 F250.000
G1 X-78.975 Y-28.981 Z9.500 F250.000
G1 X-79.234 Y-29.947 Z9.500 F250.000
G1 X-79.425 Y-30.724 Z9.500 F250.000
G1 X-79.643 Y-31.700 Z9.500 F250.000
G1 X-79.835 Y-32.681 Z9.500 F250.000
G1 X-79.972 Y-33.469 Z9.500 F250.000
G1 X-80.121 Y-34.458 Z9.500 F250.000
G1 X-80.245 Y-35.450 Z9.500 F250.000
G1 X-80.328 Y-36.246 Z9.500 F250.000
G1 X-80.345 Y-36.445 Z9.500 F250.000
G1 X-80.408 Y-37.243 Z9.500 F250.000
G1 X-80.454 Y-38.041 Z9.500 F250.000
G1 X-80.491 Y-39.041 Z9.500 F250.000
G1 X-80.502 Y-40.041 Z9.500 F250.000
G1 X-80.493 Y-40.841 Z9.500 F250.000
G1 X-80.460 Y-41.840 Z9.500 F250.000
G1 X-80.402 Y-42.838 Z9.500 F250.000
G1 X-80.338 Y-43.636 Z9.500 F250.000
G1 X-80.237 Y-44.631 Z9.500 F250.000
G1 X-80.110 Y-45.622 Z9.500 F250.000
G1 X-79.991 Y-46.414 Z9.500 F250.000
G1 X-79.821 Y-47.399 Z9.500 F250.000
G1 X-79.625 Y-48.380 Z9.500 F250.000
G1 X-79.453 Y-49.161 Z9.500 F250.000
G1 X-79.214 Y-50.132 Z9.500 F250.000
G1 X-78.952 Y-51.097 Z9.500 F250.000
G1 X-78.726 Y-51.864 Z9.500 F250.000
G1 X-78.483 Y-52.626 Z9.500 F250.000
G1 X-78.421 Y-52.817 Z9.500 F250.000
G1 X-78.160 Y-53.573 Z9.500 F250.000
G1 X-77.814 Y-54.511 Z9.500 F250.000
G1 X-77.444 Y-55.440 Z9.500 F250.000
G1 X-77.131 Y-56.176 Z9.500 F250.000
G1 X-76.721 Y-57.088 Z9.500 F250.000
G1 X-76.287 Y-57.990 Z9.500 F250.000
G1 X-75.925 Y-58.703 Z9.500 F250.000
G1 X-75.453 Y-59.584 Z9.500 F250.000
G1 X-74.958 Y-60.453 Z9.500 F250.000
G1 X-74.547 Y-61.140 Z9.500 F250.000
G1 X-74.015 Y-61.986 Z9.500 F250.000
G1 X-73.461 Y-62.819 Z9.500 F250.000
G1 X-73.005 Y-63.476 Z9.500 F250.000
G1 X-72.415 Y-64.284 Z9.500 F250.000
G1 X-71.805 Y-65.076 Z9.500 F250.000
G1 X-71.304 Y-65.700 Z9.500 F250.000
G1 X-70.790 Y-66.312 Z9.500 F250.000
G1 X-70.660 Y-66.465 Z9.500 F250.000
G1 X-70.131 Y-67.065 Z9.500 F250.000
G1 X-69.454 Y-67.801 Z9.500 F250.000
G1 X-68.759 Y-68.519 Z9.500 F250.000
G1 X-68.190 Y-69.082 Z9.500 F250.000
G1 X-67.463 Y-69.769 Z9.500 F250.000
G1 X-66.720 Y-70.438 Z9.500 F250.000
G1 X-66.113 Y-70.960 Z9.500 F250.000
G1 X-65.341 Y-71.595 Z9.500 F250.000
G1 X-64.553 Y-72.211 Z9.500 F250.000
G1 X-63.913 Y-72.690 Z9.500 F250.000
G1 X-63.098 Y-73.270 Z9.500 F250.000
G1 X-62.269 Y-73.830 Z9.500 F250.000
G1 X-61.597 Y-74.263 Z9.500 F250.000
G1 X-60.745 Y-74.786 Z9.500 F250.000
G1 X-59.879 Y-75.287 Z9.500 F250.000
G1 X-59.179 Y-75.673 Z9.500 F250.000
G1 X-58.470 Y-76.044 Z9.500 F250.000
G1 X-58.292 Y-76.136 Z9.500 F250.000
G1 X-57.575 Y-76.490 Z9.500 F250.000
G1 X-56.669 Y-76.913 Z9.500 F250.000
G1 X-55.752 Y-77.313 Z9.500 F250.000
G1 X-55.012 Y-77.617 Z9.500 F250.000
G1 X-54.079 Y-77.976 Z9.500 F250.000
G1 X-53.137 Y-78.312 Z9.500 F250.000
G1 X-52.378 Y-78.564 Z9.500 F250.000
G1 X-51.422 Y-78.858 Z9.500 F250.000
G1 X-50.652 Y-79.076 Z9.500 F250.000
G1 X-49.684 Y-79.327 Z9.500 F250.000
G1 X-48.710 Y-79.554 Z9.500 F250.000
G1 X-47.731 Y-79.757 Z9.500 F250.000
G1 X-46.945 Y-79.902 Z9.500 F250.000
G1 X-45.957 Y-80.061 Z9.500 F250.000
G1 X-44.966 Y-80.196 Z9.500 F250.000
G1 X-44.172 Y-80.287 Z9.500 F250.000
G1 X-43.375 Y-80.360 Z9.500 F250.000
G1 X-42.378 Y-80.432 Z9.500 F250.000
G1 X-41.379 Y-80.479 Z9.500 F250.000
G1 X-40.379 Y-80.500 Z9.500 F250.000
G1 X-39.501 Y-80.499 Z9.500 F250.000
(End of step 0.)
(End of layer 0)
(Layer 1 begins)
(Layer transition)
G0 Z23.000
G0 X-39.501 Y-80.499
(Begin step 0.)
G0 X-39.501 Y-80.499
(part 1)
G1 X-39.501 Y-80.499 Z9.000 F250.000
G1 X-39.101 Y-80.490 Z9.000 F250.000
G1 X-38.502 Y-80.474 Z9.000 F250.000
G1 X-37.703 Y-80.437 Z9.000 F250.000
G1 X-36.904 Y-80.383 Z9.000 F250.000
G1 X-36.705 Y-80.368 Z9.000 F250.000
G1 X-35.908 Y-80.294 Z9.000 F250.000
G1 X-34.915 Y-80.182 Z9.000 F250.000
G1 X-33.924 Y-80.043 Z9.000 F250.000
G1 X-33.135 Y-79.916 Z9.000 F250.000
G1 X-32.151 Y-79.734 Z9.000 F250.000
G1 X-31.173 Y-79.528 Z9.000 F250.000
G1 X-30.394 Y-79.346 Z9.000 F250.000
G1 X-29.425 Y-79.097 Z9.000 F250.000
G1 X-28.463 Y-78.824 Z9.000 F250.000
G1 X-27.699 Y-78.589 Z9.000 F250.000
G1 X-27.509 Y-78.526 Z9.000 F250.000
G1 X-26.750 Y-78.273 Z9.000 F250.000
G1 X-25.997 Y-78.003 Z9.000 F250.000
G1 X-25.062 Y-77.647 Z9.000 F250.000
G1 X-24.138 Y-77.266 Z9.000 F250.000
G1 X-23.405 Y-76.945 Z9.000 F250.000
G1 X-22.497 Y-76.525 Z9.000 F250.000
G1 X-21.601 Y-76.081 Z9.000 F250.000
G1 X-20.892 Y-75.711 Z9.000 F250.000
G1 X-20.016 Y-75.229 Z9.000 F250.000
G1 X-19.153 Y-74.724 Z9.000 F250.000
G1 X-18.471 Y-74.306 Z9.000 F250.000
G1 X-17.630 Y-73.764 Z9.000 F250.000
G1 X-16.804 Y-73.201 Z9.000 F250.000
G1 X-16.152 Y-72.737 Z9.000 F250.000
G1 X-15.351 Y-72.138 Z9.000 F250.000
G1 X-14.566 Y-71.519 Z9.000 F250.000
G1 X-13.948 Y-71.011 Z9.000 F250.000
G1 X-13.341 Y-70.490 Z9.000 F250.000
G1 X-13.190 Y-70.359 Z9.000 F250.000
G1 X-12.596 Y-69.823 Z9.000 F250.000
G1 X-11.868 Y-69.138 Z9.000 F250.000
G1 X-11.157 Y-68.434 Z9.000 F250.000
G1 X-10.601 Y-67.859 Z9.000 F250.000
G1 X-9.922 Y-67.125 Z9.000 F250.000
G1 X-9.262 Y-66.374 Z9.000 F250.000
G1 X-8.747 Y-65.761 Z9.000 F250.000
G1 X-8.121 Y-64.982 Z9.000 F250.000
G1 X-7.514 Y-64.187 Z9.000 F250.000
G1 X-7.042 Y-63.541 Z9.000 F250.000
G1 X-6.471 Y-62.720 Z9.000 F250.000
G1 X-5.921 Y-61.885 Z9.000 F250.000
G1 X-5.495 Y-61.208 Z9.000 F250.000
G1 X-4.982 Y-60.350 Z9.000 F250.000
G1 X-4.490 Y-59.479 Z9.000 F250.000
G1 X-4.112 Y-58.774 Z9.000 F250.000
G1 X-3.749 Y-58.061 Z9.000 F250.000
G1 X-3.660 Y-57.882 Z9.000 F250.000
G1 X-3.314 Y-57.161 Z9.000 F250.000
G1 X-2.901 Y-56.250 Z9.000 F250.000
G1 X-2.511 Y-55.329 Z9.000 F250.000
G1 X-2.216 Y-54.586 Z9.000 F250.000
G1 X-1.867 Y-53.648 Z9.000 F250.000
G1 X-1.542 Y-52.703 Z9.000 F250.000
G1 X-1.298 Y-51.941 Z9.000 F250.000
G1 X-1.015 Y-50.982 Z9.000 F250.000
G1 X-0.757 Y-50.016 Z9.000 F250.000
G1 X-0.566 Y-49.239 Z9.000 F250.000
G1 X-0.350 Y-48.262 Z9.000 F250.000
G1 X-0.159 Y-47.281 Z9.000 F250.000
G1 X-0.022 Y-46.493 Z9.000 F250.000
G1 X0.126 Y-45.504 Z9.000 F250.000
G1 X0.249 Y-44.511 Z9.000 F250.000
G1 X0.331 Y-43.715 Z9.000 F250.000
G1 X0.396 Y-42.918 Z9.000 F250.000
G1 X0.456 Y-41.920 Z9.000 F250.000
G1 X0.491 Y-40.921 Z9.000 F250.000
G1 X0.501 Y-39.921 Z9.000 F250.000
G1 X0.492 Y-39.121 Z9.000 F250.000
G1 X0.458 Y-38.121 Z9.000 F250.000
G1 X0.399 Y-37.123 Z9.000 F250.000
G1 X0.335 Y-36.326 Z9.000 F250.000
G1 X0.232 Y-35.331 Z9.000 F250.000
G1 X0.131 Y-34.537 Z9.000 F250.000
G1 X-0.015 Y-33.548 Z9.000 F250.000
G1 X-0.187 Y-32.563 Z9.000 F250.000
G1 X-0.383 Y-31.582 Z9.000 F250.000
G1 X-0.557 Y-30.801 Z9.000 F250.000
G1 X-0.796 Y-29.830 Z9.000 F250.000
G1 X-1.060 Y-28.866 Z9.000 F250.000
G1 X-1.286 Y-28.099 Z9.000 F250.000
G1 X-1.530 Y-27.337 Z9.000 F250.000
G1 X-1.853 Y-26.390 Z9.000 F250.000
G1 X-2.201 Y-25.453 Z9.000 F250.000
G1 X-2.572 Y-24.524 Z9.000 F250.000
G1 X-2.884 Y-23.788 Z9.000 F250.000
G1 X-3.296 Y-22.876 Z9.000 F250.000
G1 X-3.642 Y-22.155 Z9.000 F250.000
G1 X-4.093 Y-21.263 Z9.000 F250.000
G1 X-4.567 Y-20.382 Z9.000 F250.000
G1 X-4.961 Y-19.686 Z9.000 F250.000
G1 X-5.473 Y-18.827 Z9.000 F250.000
G1 X-6.007 Y-17.981 Z9.000 F250.000
G1 X-6.561 Y-17.149 Z9.000 F250.000
G1 X-7.018 Y-16.492 Z9.000 F250.000
G1 X-7.490 Y-15.846 Z9.000 F250.000
G1 X-8.095 Y-15.050 Z9.000 F250.000
G1 X-8.721 Y-14.270 Z9.000 F250.000
G1 X-9.236 Y-13.658 Z9.000 F250.000
G1 X-9.895 Y-12.906 Z9.000 F250.000
G1 X-10.573 Y-12.171 Z9.000 F250.000
G1 X-11.129 Y-11.596 Z9.000 F250.000
G1 X-11.838 Y-10.891 Z9.000 F250.000
G1 X-12.566 Y-10.205 Z9.000 F250.000
G1 X-13.160 Y-9.669 Z9.000 F250.000
G1 X-13.916 Y-9.015 Z9.000 F250.000
G1 X-14.689 Y-8.381 Z9.000 F250.000
G1 X-15.319 Y-7.887 Z9.000 F250.000
G1 X-16.119 Y-7.287 Z9.000 F250.000
G1 X-16.934 Y-6.708 Z9.000 F250.000
G1 X-17.596 Y-6.259 Z9.000 F250.000
G1 X-17.763 Y-6.149 Z9.000 F250.000
G1 X-18.436 Y-5.716 Z9.000 F250.000
G1 X-19.118 Y-5.297 Z9.000 F250.000
G1 X-19.980 Y-4.792 Z9.000 F250.000
G1 X-20.856 Y-4.308 Z9.000 F250.000
G1 X-21.565 Y-3.938 Z9.000 F250.000
G1 X-22.460 Y-3.493 Z9.000 F250.000
G1 X-23.367 Y-3.071 Z9.000 F250.000
G1 X-24.100 Y-2.750 Z9.000 F250.000
G1 X-25.024 Y-2.368 Z9.000 F250.000
G1 X-25.958 Y-2.010 Z9.000 F250.000
G1 X-26.711 Y-1.741 Z9.000 F250.000
G1 X-27.659 Y-1.424 Z9.000 F250.000
G1 X-28.616 Y-1.131 Z9.000 F250.000
G1 X-29.386 Y-0.914 Z9.000 F250.000
G1 X-30.354 Y-0.663 Z9.000 F250.000
G1 X-31.328 Y-0.438 Z9.000 F250.000
G1 X-32.111 Y-0.274 Z9.000 F250.000
G1 X-32.307 Y-0.236 Z9.000 F250.000
G1 X-33.094 Y-0.091 Z9.000 F250.000
G1 X-33.884 Y0.037 Z9.000 F250.000
G1 X-34.874 Y0.176 Z9.000 F250.000
G1 X-35.867 Y0.291 Z9.000 F250.000
G1 X-36.664 Y0.364 Z9.000 F250.000
G1 X-37.661 Y0.434 Z9.000 F250.000
G1 X-38.660 Y0.480 Z9.000 F250.000
G1 X-39.460 Y0.498 Z9.000 F250.000
G1 X-40.460 Y0.499 Z9.000 F250.000
G1 X-41.460 Y0.475 Z9.000 F250.000
G1 X-42.259 Y0.439 Z9.000 F250.000
G1 X-43.257 Y0.371 Z9.000 F250.000
G1 X-44.252 Y0.278 Z9.000 F250.000
G1 X-45.047 Y0.186 Z9.000 F250.000
G1 X-46.038 Y0.050 Z9.000 F250.000
G1 X-47.025 Y-0.112 Z9.000 F250.000
G1 X-47.811 Y-0.258 Z9.000 F250.000
G1 X-48.594 Y-0.421 Z9.000 F250.000
G1 X-48.790 Y-0.463 Z9.000 F250.000
G1 X-49.569 Y-0.645 Z9.000 F250.000
G1 X-50.538 Y-0.893 Z9.000 F250.000
G1 X-51.500 Y-1.165 Z9.000 F250.000
G1 X-52.265 Y-1.400 Z9.000 F250.000
G1 X-53.214 Y-1.714 Z9.000 F250.000
G1 X-54.155 Y-2.052 Z9.000 F250.000
G1 X-54.902 Y-2.339 Z9.000 F250.000
G1 X-55.827 Y-2.718 Z9.000 F250.000
G1 X-56.743 Y-3.121 Z9.000 F250.000
G1 X-57.468 Y-3.458 Z9.000 F250.000
G1 X-58.365 Y-3.901 Z9.000 F250.000
G1 X-59.250 Y-4.366 Z9.000 F250.000
G1 X-59.950 Y-4.752 Z9.000 F250.000
G1 X-60.815 Y-5.256 Z9.000 F250.000
G1 X-61.666 Y-5.781 Z9.000 F250.000
G1 X-62.338 Y-6.215 Z9.000 F250.000
G1 X-63.000 Y-6.663 Z9.000 F250.000
G1 X-63.165 Y-6.776 Z9.000 F250.000
G1 X-63.816 Y-7.241 Z9.000 F250.000
G1 X-64.618 Y-7.838 Z9.000 F250.000
G1 X-65.404 Y-8.456 Z9.000 F250.000
G1 X-66.022 Y-8.964 Z9.000 F250.000
G1 X-66.781 Y-9.616 Z9.000 F250.000
G1 X-67.523 Y-10.286 Z9.000 F250.000
G1 X-68.104 Y-10.836 Z9.000 F250.000
G1 X-68.816 Y-11.538 Z9.000 F250.000
G1 X-69.509 Y-12.259 Z9.000 F250.000
G1 X-70.052 Y-12.847 Z9.000 F250.000
G1 X-70.713 Y-13.597 Z9.000 F250.000
G1 X-71.355 Y-14.364 Z9.000 F250.000
G1 X-71.856 Y-14.987 Z9.000 F250.000
G1 X-72.464 Y-15.782 Z9.000 F250.000
G1 X-73.051 Y-16.591 Z9.000 F250.000
G1 X-73.508 Y-17.248 Z9.000 F250.000
G1 X-73.950 Y-17.914 Z9.000 F250.000
G1 X-74.059 Y-18.082 Z9.000 F250.000
G1 X-74.485 Y-18.759 Z9.000 F250.000
G1 X-74.999 Y-19.617 Z9.000 F250.000
G1 X-75.492 Y-20.487 Z9.000 F250.000
G1 X-75.870 Y-21.192 Z9.000 F250.000
G1 X-76.324 Y-22.083 Z9.000 F250.000
G1 X-76.755 Y-22.985 Z9.000 F250.000
G1 X-77.084 Y-23.715 Z9.000 F250.000
G1 X-77.475 Y-24.635 Z9.000 F250.000
G1 X-77.842 Y-25.565 Z9.000 F250.000
G1 X-78.120 Y-26.315 Z9.000 F250.000
G1 X-78.382 Y-27.071 Z9.000 F250.000
G1 X-78.446 Y-27.260 Z9.000 F250.000
G1 X-78.690 Y-28.022 Z9.000 F250.000
G1 X-78.975 Y-28.981 Z9.000 F250.000
G1 X-79.234 Y-29.947 Z9.000 F250.000
G1 X-79.425 Y-30.724 Z9.000 F250.000
G1 X-79.643 Y-31.700 Z9.000 F250.000
G1 X-79.835 Y-32.681 Z9.000 F250.000
G1 X-79.972 Y-33.469 Z9.000 F250.000
G1 X-80.121 Y-34.458 Z9.000 F250.000
G1 X-80.245 Y-35.450 Z9.000 F250.000
G1 X-80.328 Y-36.246 Z9.000 F250.000
G1 X-80.345 Y-36.445 Z9.000 F250.000
G1 X-80.408 Y-37.243 Z9.000 F250.000
G1 X-80.454 Y-38.041 Z9.000 F250.000
G1 X-80.491 Y-39.041 Z9.000 F250.000
G1 X-80.502 Y-40.041 Z9.000 F250.000
G1 X-80.493 Y-40.841 Z9.000 F250.000
G1 X-80.460 Y-41.840 Z9.000 F250.000
G1 X-80.402 Y-42.838 Z9.000 F250.000
G1 X-80.338 Y-43.636 Z9.000 F250.000
G1 X-80.237 Y-44.631 Z9.000 F250.000
G1 X-80.110 Y-45.622 Z9.000 F250.000
G1 X-79.991 Y-46.414 Z9.000 F250.000
G1 X-79.821 Y-47.399 Z9.000 F250.000
G1 X-79.625 Y-48.380 Z9.000 F250.000
G1 X-79.453 Y-49.161 Z9.000 F250.000
G1 X-79.214 Y-50.132 Z9.000 F250.000
G1 X-78.952 Y-51.097 Z9.000 F250.000
G1 X-78.726 Y-51.864 Z9.000 F250.000
G1 X-78.483 Y-52.626 Z9.000 F250.000
G1 X-78.421 Y-52.817 Z9.000 F250.000
G1 X-78.160 Y-53.573 Z9.000 F250.000
G1 X-77.814 Y-54.511 Z9.000 F250.000
G1 X-77.444 Y-55.440 Z9.000 F250.000
G1 X-77.131 Y-56.176 Z9.000 F250.000
G1 X-76.721 Y-57.088 Z9.000 F250.000
G1 X-76.287 Y-57.990 Z9.000 F250.000
G1 X-75.925 Y-58.703 Z9.000 F250.000
G1 X-75.453 Y-59.584 Z9.000 F250.000
G1 X-74.958 Y-60.453 Z9.000 F250.000
G1 X-74.547 Y-61.140 Z9.000 F250.000
G1 X-74.015 Y-61.986 Z9.000 F250.000
G1 X-73.461 Y-62.819 Z9.000 F250.000
G1 X-73.005 Y-63.476 Z9.000 F250.000
G1 X-72.415 Y-64.284 Z9.000 F250.000
G1 X-71.805 Y-65.076 Z9.000 F250.000
G1 X-71.304 Y-65.700 Z9.000 F250.000
G1 X-70.790 Y-66.312 Z9.000 F250.000
G1 X-70.660 Y-66.465 Z9.000 F250.000
G1 X-70.131 Y-67.065 Z9.000 F250.000
G1 X-69.454 Y-67.801 Z9.000 F250.000
G1 X-68.759 Y-68.519 Z9.000 F250.000
G1 X-68.190 Y-69.082 Z9.000 F250.000
G1 X-67.463 Y-69.769 Z9.000 F250.000
G1 X-66.720 Y-70.438 Z9.000 F250.000
G1 X-66.113 Y-70.960 Z9.000 F250.000
G1 X-65.341 Y-71.595 Z9.000 F250.000
G1 X-64.553 Y-72.211 Z9.000 F250.000
G1 X-63.913 Y-72.690 Z9.000 F250.000
G1 X-63.098 Y-73.270 Z9.000 F250.000
G1 X-62.269 Y-73.830 Z9.000 F250.000
G1 X-61.597 Y-74.263 Z9.000 F250.000
G1 X-60.745 Y-74.786 Z9.000 F250.000
G1 X-59.879 Y-75.287 Z9.000 F250.000
G1 X-59.179 Y-75.673 Z9.000 F250.000
G1 X-58.470 Y-76.044 Z9.000 F250.000
G1 X-58.292 Y-76.136 Z9.000 F250.000
G1 X-57.575 Y-76.490 Z9.000 F250.000
G1 X-56.669 Y-76.913 Z9.000 F250.000
G1 X-55.752 Y-77.313 Z9.000 F250.000
G1 X-55.012 Y-77.617 Z9.000 F250.000
G1 X-54.079 Y-77.976 Z9.000 F250.000
G1 X-53.137 Y-78.312 Z9.000 F250.000
G1 X-52.378 Y-78.564 Z9.000 F250.000
G1 X-51.422 Y-78.858 Z9.000 F250.000
G1 X-50.652 Y-79.076 Z9.000 F250.000
G1 X-49.684 Y-79.327 Z9.000 F250.000
G1 X-48.710 Y-79.554 Z9.000 F250.000
G1 X-47.731 Y-79.757 Z9.000 F250.000
G1 X-46.945 Y-79.902 Z9.000 F250.000
G1 X-45.957 Y-80.061 Z9.000 F250.000
G1 X-44.966 Y-80.196 Z9.000 F250.000
G1 X-44.172 Y-80.287 Z9.000 F250.000
G1 X-43.375 Y-80.360 Z9.000 F250.000
G1 X-42.378 Y-80.432 Z9.000 F250.000
G1 X-41.379 Y-80.479 Z9.000 F250.000
G1 X-40.379 Y-80.500 Z9.000 F250.000
G1 X-39.501 Y-80.499 Z9.000 F250.000
(End of step 0.)
(End of layer 1)
(Layer 2 begins)
(Layer transition)
G0 Z23.000
G0 X-39.501 Y-80.499
(Begin step 0.)
G0 X-39.501 Y-80.499
(part 1)
G1 X-39.501 Y-80.499 Z9.000 F250.000
G1 X-39.101 Y-80.490 Z9.000 F250.000
G1 X-38.502 Y-80.474 Z9.000 F250.000
G1 X-37.703 Y-80.437 Z9.000 F250.000
G1 X-36.904 Y-80.383 Z9.000 F250.000
G1 X-36.705 Y-80.368 Z9.000 F250.000
G1 X-35.908 Y-80.294 Z9.000 F250.000
G1 X-34.915 Y-80.182 Z9.000 F250.000
G1 X-33.924 Y-80.043 Z9.000 F250.000
G1 X-33.135 Y-79.916 Z9.000 F250.000
G1 X-32.151 Y-79.734 Z9.000 F250.000
G1 X-31.173 Y-79.528 Z9.000 F250.000
G1 X-30.394 Y-79.346 Z9.000 F250.000
G1 X-29.425 Y-79.097 Z9.000 F250.000
G1 X-28.463 Y-78.824 Z9.000 F250.000
G1 X-27.699 Y-78.589 Z9.000 F250.000
G1 X-27.509 Y-78.526 Z9.000 F250.000
G1 X-26.750 Y-78.273 Z9.000 F250.000
G1 X-25.997 Y-78.003 Z9.000 F250.000
G1 X-25.062 Y-77.647 Z9.000 F250.000
G1 X-24.138 Y-77.266 Z9.000 F250.000
G1 X-23.405 Y-76.945 Z9.000 F250.000
G1 X-22.497 Y-76.525 Z9.000 F250.000
G1 X-21.601 Y-76.081 Z9.000 F250.000
G1 X-20.892 Y-75.711 Z9.000 F250.000
G1 X-20.016 Y-75.229 Z9.000 F250.000
G1 X-19.153 Y-74.724 Z9.000 F250.000
G1 X-18.471 Y-74.306 Z9.000 F250.000
G1 X-17.630 Y-73.764 Z9.000 F250.000
G1 X-16.804 Y-73.201 Z9.000 F250.000
G1 X-16.152 Y-72.737 Z9.000 F250.000
G1 X-15.351 Y-72.138 Z9.000 F250.000
G1 X-14.566 Y-71.519 Z9.000 F250.000
G1 X-13.948 Y-71.011 Z9.000 F250.000
G1 X-13.341 Y-70.490 Z9.000 F250.000
G1 X-13.190 Y-70.359 Z9.000 F250.000
G1 X-12.596 Y-69.823 Z9.000 F250.000
G1 X-11.868 Y-69.138 Z9.000 F250.000
G1 X-11.157 Y-68.434 Z9.000 F250.000
G1 X-10.601 Y-67.859 Z9.000 F250.000
G1 X-9.922 Y-67.125 Z9.000 F250.000
G1 X-9.262 Y-66.374 Z9.000 F250.000
G1 X-8.747 Y-65.761 Z9.000 F250.000
G1 X-8.121 Y-64.982 Z9.000 F250.000
G1 X-7.514 Y-64.187 Z9.000 F250.000
G1 X-7.042 Y-63.541 Z9.000 F250.000
G1 X-6.471 Y-62.720 Z9.000 F250.000
G1 X-5.921 Y-61.885 Z9.000 F250.000
G1 X-5.495 Y-61.208 Z9.000 F250.000
G1 X-4.982 Y-60.350 Z9.000 F250.000
G1 X-4.490 Y-59.479 Z9.000 F250.000
G1 X-4.112 Y-58.774 Z9.000 F250.000
G1 X-3.749 Y-58.061 Z9.000 F250.000
G1 X-3.660 Y-57.882 Z9.000 F250.000
G1 X-3.314 Y-57.161 Z9.000 F250.000
G1 X-2.901 Y-56.250 Z9.000 F250.000
G1 X-2.511 Y-55.329 Z9.000 F250.000
G1 X-2.216 Y-54.586 Z9.000 F250.000
G1 X-1.867 Y-53.648 Z9.000 F250.000
G1 X-1.542 Y-52.703 Z9.000 F250.000
G1 X-1.298 Y-51.941 Z9.000 F250.000
G1 X-1.015 Y-50.982 Z9.000 F250.000
G1 X-0.757 Y-50.016 Z9.000 F250.000
G1 X-0.566 Y-49.239 Z9.000 F250.000
G1 X-0.350 Y-48.262 Z9.000 F250.000
G1 X-0.159 Y-47.281 Z9.000 F250.000
G1 X-0.022 Y-46.493 Z9.000 F250.000
G1 X0.126 Y-45.504 Z9.000 F250.000
G1 X0.249 Y-44.511 Z9.000 F250.000
G1 X0.331 Y-43.715 Z9.000 F250.000
G1 X0.396 Y-42.918 Z9.000 F250.000
G1 X0.456 Y-41.920 Z9.000 F250.000
G1 X0.491 Y-40.921 Z9.000 F250.000
G1 X0.501 Y-39.921 Z9.000 F250.000
G1 X0.492 Y-39.121 Z9.000 F250.000
G1 X0.458 Y-38.121 Z9.000 F250.000
G1 X0.399 Y-37.123 Z9.000 F250.000
G1 X0.335 Y-36.326 Z9.000 F250.000
G1 X0.232 Y-35.331 Z9.000 F250.000
G1 X0.131 Y-34.537 Z9.000 F250.000
G1 X-0.015 Y-33.548 Z9.000 F250.000
G1 X-0.187 Y-32.563 Z9.000 F250.000
G1 X-0.383 Y-31.582 Z9.000 F250.000
G1 X-0.557 Y-30.801 Z9.000 F250.000
G1 X-0.796 Y-29.830 Z9.000 F250.000
G1 X-1.060 Y-28.866 Z9.000 F250.000
G1 X-1.286 Y-28.099 Z9.000 F250.000
G1 X-1.530 Y-27.337 Z9.000 F250.000
G1 X-1.853 Y-26.390 Z9.000 F250.000
G1 X-2.201 Y-25.453 Z9.000 F250.000
G1 X-2.572 Y-24.524 Z9.000 F250.000
G1 X-2.884 Y-23.788 Z9.000 F250.000
G1 X-3.296 Y-22.876 Z9.000 F250.000
G1 X-3.642 Y-22.155 Z9.000 F250.000
G1 X-4.093 Y-21.263 Z9.000 F250.000
G1 X-4.567 Y-20.382 Z9.000 F250.000
G1 X-4.961 Y-19.686 Z9.000 F250.000
G1 X-5.473 Y-18.827 Z9.000 F250.000
G1 X-6.007 Y-17.981 Z9.000 F250.000
G1 X-6.561 Y-17.149 Z9.000 F250.000
G1 X-7.018 Y-16.492 Z9.000 F250.000
G1 X-7.490 Y-15.846 Z9.000 F250.000
G1 X-8.095 Y-15.050 Z9.000 F250.000
G1 X-8.721 Y-14.270 Z9.000 F250.000
G1 X-9.236 Y-13.658 Z9.000 F250.000
G1 X-9.895 Y-12.906 Z9.000 F250.000
G1 X-10.573 Y-12.171 Z9.000 F250.000
G1 X-11.129 Y-11.596 Z9.000 F250.000
G1 X-11.838 Y-10.891 Z9.000 F250.000
G1 X-12.566 Y-10.205 Z9.000 F250.000
G1 X-13.160 Y-9.669 Z9.000 F250.000
G1 X-13.916 Y-9.015 Z9.000 F250.000
G1 X-14.689 Y-8.381 Z9.000 F250.000
G1 X-15.319 Y-7.887 Z9.000 F250.000
G1 X-16.119 Y-7.287 Z9.000 F250.000
G1 X-16.934 Y-6.708 Z9.000 F250.000
G1 X-17.596 Y-6.259 Z9.000 F250.000
G1 X-17.763 Y-6.149 Z9.000 F250.000
G1 X-18.436 Y-5.716 Z9.000 F250.000
G1 X-19.118 Y-5.297 Z9.000 F250.000
G1 X-19.980 Y-4.792 Z9.000 F250.000
G1 X-20.856 Y-4.308 Z9.000 F250.000
G1 X-21.565 Y-3.938 Z9.000 F250.000
G1 X-22.460 Y-3.493 Z9.000 F250.000
G1 X-23.367 Y-3.071 Z9.000 F250.000
G1 X-24.100 Y-2.750 Z9.000 F250.000
G1 X-25.024 Y-2.368 Z9.000 F250.000
G1 X-25.958 Y-2.010 Z9.000 F250.000
G1 X-26.711 Y-1.741 Z9.000 F250.000
G1 X-27.659 Y-1.424 Z9.000 F250.000
G1 X-28.616 Y-1.131 Z9.000 F250.000
G1 X-29.386 Y-0.914 Z9.000 F250.000
G1 X-30.354 Y-0.663 Z9.000 F250.000
G1 X-31.328 Y-0.438 Z9.000 F250.000
G1 X-32.111 Y-0.274 Z9.000 F250.000
G1 X-32.307 Y-0.236 Z9.000 F250.000
G1 X-33.094 Y-0.091 Z9.000 F250.000
G1 X-33.884 Y0.037 Z9.000 F250.000
G1 X-34.874 Y0.176 Z9.000 F250.000
G1 X-35.867 Y0.291 Z9.000 F250.000
G1 X-36.664 Y0.364 Z9.000 F250.000
G1 X-37.661 Y0.434 Z9.000 F250.000
G1 X-38.660 Y0.480 Z9.000 F250.000
G1 X-39.460 Y0.498 Z9.000 F250.000
G1 X-40.460 Y0.499 Z9.000 F250.000
G1 X-41.460 Y0.475 Z9.000 F250.000
G1 X-42.259 Y0.439 Z9.000 F250.000
G1 X-43.257 Y0.371 Z9.000 F250.000
G1 X-44.252 Y0.278 Z9.000 F250.000
G1 X-45.047 Y0.186 Z9.000 F250.000
G1 X-46.038 Y0.050 Z9.000 F250.000
G1 X-47.025 Y-0.112 Z9.000 F250.000
G1 X-47.811 Y-0.258 Z9.000 F250.000
G1 X-48.594 Y-0.421 Z9.000 F250.000
G1 X-48.790 Y-0.463 Z9.000 F250.000
G1 X-49.569 Y-0.645 Z9.000 F250.000
G1 X-50.538 Y-0.893 Z9.000 F250.000
G1 X-51.500 Y-1.165 Z9.000 F250.000
G1 X-52.265 Y-1.400 Z9.000 F250.000
G1 X-53.214 Y-1.714 Z9.000 F250.000
G1 X-54.155 Y-2.052 Z9.000 F250.000
G1 X-54.902 Y-2.339 Z9.000 F250.000
G1 X-55.827 Y-2.718 Z9.000 F250.000
G1 X-56.743 Y-3.121 Z9.000 F250.000
G1 X-57.468 Y-3.458 Z9.000 F250.000
G1 X-58.365 Y-3.901 Z9.000 F250.000
G1 X-59.250 Y-4.366 Z9.000 F250.000
G1 X-59.950 Y-4.752 Z9.000 F250.000
G1 X-60.815 Y-5.256 Z9.000 F250.000
G1 X-61.666 Y-5.781 Z9.000 F250.000
G1 X-62.338 Y-6.215 Z9.000 F250.000
G1 X-63.000 Y-6.663 Z9.000 F250.000
G1 X-63.165 Y-6.776 Z9.000 F250.000
G1 X-63.816 Y-7.241 Z9.000 F250.000
G1 X-64.618 Y-7.838 Z9.000 F250.000
G1 X-65.404 Y-8.456 Z9.000 F250.000
G1 X-66.022 Y-8.964 Z9.000 F250.000
G1 X-66.781 Y-9.616 Z9.000 F250.000
G1 X-67.523 Y-10.286 Z9.000 F250.000
G1 X-68.104 Y-10.836 Z9.000 F250.000
G1 X-68.816 Y-11.538 Z9.000 F250.000
G1 X-69.509 Y-12.259 Z9.000 F250.000
G1 X-70.052 Y-12.847 Z9.000 F250.000
G1 X-70.713 Y-13.597 Z9.000 F250.000
G1 X-71.355 Y-14.364 Z9.000 F250.000
G1 X-71.856 Y-14.987 Z9.000 F250.000
G1 X-72.464 Y-15.782 Z9.000 F250.000
G1 X-73.051 Y-16.591 Z9.000 F250.000
G1 X-73.508 Y-17.248 Z9.000 F250.000
G1 X-73.950 Y-17.914 Z9.000 F250.000
G1 X-74.059 Y-18.082 Z9.000 F250.000
G1 X-74.485 Y-18.759 Z9.000 F250.000
G1 X-74.999 Y-19.617 Z9.000 F250.000
G1 X-75.492 Y-20.487 Z9.000 F250.000
G1 X-75.870 Y-21.192 Z9.000 F250.000
G1 X-76.324 Y-22.083 Z9.000 F250.000
G1 X-76.755 Y-22.985 Z9.000 F250.000
G1 X-77.084 Y-23.715 Z9.000 F250.000
G1 X-77.475 Y-24.635 Z9.000 F250.000
G1 X-77.842 Y-25.565 Z9.000 F250.000
G1 X-78.120 Y-26.315 Z9.000 F250.000
G1 X-78.382 Y-27.071 Z9.000 F250.000
G1 X-78.446 Y-27.260 Z9.000 F250.000
G1 X-78.690 Y-28.022 Z9.000 F250.000
G1 X-78.975 Y-28.981 Z9.000 F250.000
G1 X-79.234 Y-29.947 Z9.000 F250.000
G1 X-79.425 Y-30.724 Z9.000 F250.000
G1 X-79.643 Y-31.700 Z9.000 F250.000
G1 X-79.835 Y-32.681 Z9.000 F250.000
G1 X-79.972 Y-33.469 Z9.000 F250.000
G1 X-80.121 Y-34.458 Z9.000 F250.000
G1 X-80.245 Y-35.450 Z9.000 F250.000
G1 X-80.328 Y-36.246 Z9.000 F250.000
G1 X-80.345 Y-36.445 Z9.000 F250.000
G1 X-80.408 Y-37.243 Z9.000 F250.000
G1 X-80.454 Y-38.041 Z9.000 F250.000
G1 X-80.491 Y-39.041 Z9.000 F250.000
G1 X-80.502 Y-40.041 Z9.000 F250.000
G1 X-80.493 Y-40.841 Z9.000 F250.000
G1 X-80.460 Y-41.840 Z9.000 F250.000
G1 X-80.402 Y-42.838 Z9.000 F250.000
G1 X-80.338 Y-43.636 Z9.000 F250.000
G1 X-80.237 Y-44.631 Z9.000 F250.000
G1 X-80.110 Y-45.622 Z9.000 F250.000
G1 X-79.991 Y-46.414 Z9.000 F250.000
G1 X-79.821 Y-47.399 Z9.000 F250.000
G1 X-79.625 Y-48.380 Z9.000 F250.000
G1 X-79.453 Y-49.161 Z9.000 F250.000
G1 X-79.214 Y-50.132 Z9.000 F250.000
G1 X-78.952 Y-51.097 Z9.000 F250.000
G1 X-78.726 Y-51.864 Z9.000 F250.000
G1 X-78.483 Y-52.626 Z9.000 F250.000
G1 X-78.421 Y-52.817 Z9.000 F250.000
G1 X-78.160 Y-53.573 Z9.000 F250.000
G1 X-77.814 Y-54.511 Z9.000 F250.000
G1 X-77.444 Y-55.440 Z9.000 F250.000
G1 X-77.131 Y-56.176 Z9.000 F250.000
G1 X-76.721 Y-57.088 Z9.000 F250.000
G1 X-76.287 Y-57.990 Z9.000 F250.000
G1 X-75.925 Y-58.703 Z9.000 F250.000
G1 X-75.453 Y-59.584 Z9.000 F250.000
G1 X-74.958 Y-60.453 Z9.000 F250.000
G1 X-74.547 Y-61.140 Z9.000 F250.000
G1 X-74.015 Y-61.986 Z9.000 F250.000
G1 X-73.461 Y-62.819 Z9.000 F250.000
G1 X-73.005 Y-63.476 Z9.000 F250.000
G1 X-72.415 Y-64.284 Z9.000 F250.000
G1 X-71.805 Y-65.076 Z9.000 F250.000
G1 X-71.304 Y-65.700 Z9.000 F250.000
G1 X-70.790 Y-66.312 Z9.000 F250.000
G1 X-70.660 Y-66.465 Z9.000 F250.000
G1 X-70.131 Y-67.065 Z9.000 F250.000
G1 X-69.454 Y-67.801 Z9.000 F250.000
G1 X-68.759 Y-68.519 Z9.000 F250.000
G1 X-68.190 Y-69.082 Z9.000 F250.000
G1 X-67.463 Y-69.769 Z9.000 F250.000
G1 X-66.720 Y-70.438 Z9.000 F250.000
G1 X-66.113 Y-70.960 Z9.000 F250.000
G1 X-65.341 Y-71.595 Z9.000 F250.000
G1 X-64.553 Y-72.211 Z9.000 F250.000
G1 X-63.913 Y-72.690 Z9.000 F250.000
G1 X-63.098 Y-73.270 Z9.000 F250.000
G1 X-62.269 Y-73.830 Z9.000 F250.000
G1 X-61.597 Y-74.263 Z9.000 F250.000
G1 X-60.745 Y-74.786 Z9.000 F250.000
G1 X-59.879 Y-75.287 Z9.000 F250.000
G1 X-59.179 Y-75.673 Z9.000 F250.000
G1 X-58.470 Y-76.044 Z9.000 F250.000
G1 X-58.292 Y-76.136 Z9.000 F250.000
G1 X-57.575 Y-76.490 Z9.000 F250.000
G1 X-56.669 Y-76.913 Z9.000 F250.000
G1 X-55.752 Y-77.313 Z9.000 F250.000
G1 X-55.012 Y-77.617 Z9.000 F250.000
G1 X-54.079 Y-77.976 Z9.000 F250.000
G1 X-53.137 Y-78.312 Z9.000 F250.000
G1 X-52.378 Y-78.564 Z9.000 F250.000
G1 X-51.422 Y-78.858 Z9.000 F250.000
G1 X-50.652 Y-79.076 Z9.000 F250.000
G1 X-49.684 Y-79.327 Z9.000 F250.000
G1 X-48.710 Y-79.554 Z9.000 F250.000
G1 X-47.731 Y-79.757 Z9.000 F250.000
G1 X-46.945 Y-79.902 Z9.000 F250.000
G1 X-45.957 Y-80.061 Z9.000 F250.000
G1 X-44.966 Y-80.196 Z9.000 F250.000
G1 X-44.172 Y-80.287 Z9.000 F250.000
G1 X-43.375 Y-80.360 Z9.000 F250.000
G1 X-42.378 Y-80.432 Z9.000 F250.000
G1 X-41.379 Y-80.479 Z9.000 F250.000
G1 X-40.379 Y-80.500 Z9.000 F250.000
G1 X-39.501 Y-80.499 Z9.000 F250.000
(End of step 0.)
(End of layer 2)
G0 Z25.000
(Finish operation: Surface009)
(Begin operation: MillFace001)
(Path: MillFace001)
(MillFace001)
G0 Z25.000
G0 X-38.236 Y-38.235
G0 Z23.000
G1 X-38.236 Y-38.235 Z19.500 F100.000
G3 X-39.855 Y-37.509 Z19.500 I-1.763 J-1.763 K0.000 F250.000
G3 X-40.145 Y-42.491 Z19.500 I-0.145 J-2.491 K0.000 F250.000
G1 X-40.075 Y-42.491 Z19.500 F250.000
G1 X-40.075 Y-41.291 Z19.500 F250.000
G1 X-40.075 Y-42.491 Z19.500 F250.000
G3 X-38.236 Y-38.235 Z19.500 I0.077 J2.492 K0.000 F250.000
G0 Z25.000
G0 X-39.086 Y-39.086 Z25.000
G0 X-39.086 Y-39.086 Z23.000
G1 X-39.086 Y-39.086 Z19.500 F100.000
G2 X-40.075 Y-41.291 Z19.500 I-0.914 J-0.914 K0.000 F250.000
G2 X-39.925 Y-38.709 Z19.500 I0.075 J1.291 K0.000 F250.000
G2 X-38.709 Y-40.075 Z19.500 I-0.075 J-1.291 K0.000 F250.000
G2 X-40.075 Y-41.291 Z19.500 I-1.291 J0.075 K0.000 F250.000
G2 X-39.925 Y-38.709 Z19.500 I0.075 J1.291 K0.000 F250.000
G2 X-39.086 Y-39.086 Z19.500 I-0.075 J-1.291 K0.000 F250.000
G0 Z25.000
G0 X-39.440 Y-39.440 Z25.000
G0 X-39.440 Y-39.440 Z23.000
G1 X-39.440 Y-39.440 Z19.000 F100.000
G2 X-40.050 Y-40.790 Z19.000 I-0.560 J-0.560 K0.000 F250.000
G2 X-39.950 Y-39.210 Z19.000 I0.050 J0.790 K0.000 F250.000
G2 X-39.210 Y-40.050 Z19.000 I-0.050 J-0.790 K0.000 F250.000
G2 X-40.050 Y-40.790 Z19.000 I-0.790 J0.050 K0.000 F250.000
G2 X-39.950 Y-39.210 Z19.000 I0.050 J0.790 K0.000 F250.000
G2 X-39.440 Y-39.440 Z19.000 I-0.050 J-0.790 K0.000 F250.000
G0 Z25.000
G0 X-38.590 Y-38.589 Z25.000
G0 X-38.590 Y-38.589 Z23.000
G1 X-38.590 Y-38.589 Z19.000 F100.000
G3 X-39.875 Y-38.010 Z19.000 I-1.409 J-1.409 K0.000 F250.000
G3 X-40.125 Y-41.990 Z19.000 I-0.125 J-1.990 K0.000 F250.000
G1 X-40.050 Y-41.990 Z19.000 F250.000
G1 X-40.050 Y-40.790 Z19.000 F250.000
G1 X-40.050 Y-41.990 Z19.000 F250.000
G3 X-38.590 Y-38.589 Z19.000 I0.051 J1.992 K0.000 F250.000
G0 Z25.000
G0 X-38.944 Y-38.943 Z25.000
G0 X-38.944 Y-38.943 Z23.000
G1 X-38.944 Y-38.943 Z18.500 F100.000
G2 X-40.117 Y-41.486 Z18.500 I-1.055 J-1.055 K0.000 F250.000
G1 X-40.038 Y-40.288 Z18.500 F250.000
G1 X-40.117 Y-41.486 Z18.500 F250.000
G1 X-40.195 Y-41.481 Z18.500 F250.000
G2 X-39.805 Y-38.519 Z18.500 I0.195 J1.481 K0.000 F250.000
G2 X-38.944 Y-38.943 Z18.500 I-0.193 J-1.479 K0.000 F250.000
G0 Z25.000
G0 X-39.794 Y-39.794 Z25.000
G0 X-39.794 Y-39.794 Z23.000
G1 X-39.794 Y-39.794 Z18.500 F100.000
G2 X-40.038 Y-40.288 Z18.500 I-0.206 J-0.206 K0.000 F250.000
G2 X-39.962 Y-39.712 Z18.500 I0.038 J0.288 K0.000 F250.000
G2 X-40.038 Y-40.288 Z18.500 I-0.038 J-0.288 K0.000 F250.000
G2 X-39.962 Y-39.712 Z18.500 I0.038 J0.288 K0.000 F250.000
G2 X-39.794 Y-39.794 Z18.500 I-0.038 J-0.288 K0.000 F250.000
G0 Z25.000
G0 X-39.972 Y-39.972 Z25.000
G0 X-39.972 Y-39.972 Z23.000
G1 X-39.972 Y-39.972 Z18.250 F100.000
G2 X-40.003 Y-40.040 Z18.250 I-0.028 J-0.028 K0.000 F250.000
G2 X-39.997 Y-39.960 Z18.250 I0.003 J0.040 K0.000 F250.000
G2 X-39.960 Y-40.003 Z18.250 I-0.003 J-0.040 K0.000 F250.000
G2 X-40.003 Y-40.040 Z18.250 I-0.040 J0.003 K0.000 F250.000
G2 X-39.997 Y-39.960 Z18.250 I0.003 J0.040 K0.000 F250.000
G2 X-39.972 Y-39.972 Z18.250 I-0.003 J-0.040 K0.000 F250.000
G0 Z25.000
G0 X-40.003 Y-40.040 Z25.000
G0 X-40.003 Y-40.040 Z23.000
G1 X-40.003 Y-40.040 Z18.250 F100.000
G1 X-40.003 Y-41.240 Z18.250 F250.000
G3 X-39.915 Y-38.760 Z18.250 I0.004 J1.241 K0.000 F250.000
G3 X-40.085 Y-41.240 Z18.250 I-0.085 J-1.240 K0.000 F250.000
G1 X-40.003 Y-41.240 Z18.250 F250.000
G1 X-40.003 Y-40.040 Z18.250 F250.000
G0 Z25.000
G0 Z25.000
(Finish operation: MillFace001)
(Begin operation: MillFace002)
(Path: MillFace002)
(MillFace002)
G0 Z25.000
G0 X-28.616 Y-28.616
G0 Z23.000
G1 X-28.616 Y-28.616 Z19.500 F100.000
G2 X-40.575 Y-56.081 Z19.500 I-11.380 J-11.381 K0.000 F250.000
G1 X-40.544 Y-54.990 Z19.500 F250.000
G2 X-54.986 Y-39.396 Z19.500 I0.545 J14.990 K0.000 F250.000
G2 X-39.336 Y-25.015 Z19.500 I14.987 J-0.604 K0.000 F250.000
G2 X-40.544 Y-54.990 Z19.500 I-0.666 J-14.985 K0.000 F250.000
G1 X-40.575 Y-56.081 Z19.500 F250.000
G2 X-41.981 Y-55.976 Z19.500 I0.125 J11.197 K0.000 F250.000
G2 X-38.885 Y-23.940 Z19.500 I1.981 J15.976 K0.000 F250.000
G2 X-28.616 Y-28.616 Z19.500 I-1.111 J-16.056 K0.000 F250.000
G0 Z25.000
G0 X-38.236 Y-38.235 Z25.000
G0 X-38.236 Y-38.235 Z23.000
G1 X-38.236 Y-38.235 Z19.500 F100.000
G3 X-39.855 Y-37.509 Z19.500 I-1.763 J-1.763 K0.000 F250.000
G3 X-40.145 Y-42.491 Z19.500 I-0.145 J-2.491 K0.000 F250.000
G1 X-40.075 Y-42.491 Z19.500 F250.000
G1 X-40.075 Y-41.291 Z19.500 F250.000
G1 X-40.075 Y-42.491 Z19.500 F250.000
G3 X-38.236 Y-38.235 Z19.500 I0.077 J2.492 K0.000 F250.000
G0 Z25.000
G0 X-39.086 Y-39.086 Z25.000
G0 X-39.086 Y-39.086 Z23.000
G1 X-39.086 Y-39.086 Z19.500 F100.000
G2 X-40.075 Y-41.291 Z19.500 I-0.914 J-0.914 K0.000 F250.000
G2 X-39.925 Y-38.709 Z19.500 I0.075 J1.291 K0.000 F250.000
G2 X-38.709 Y-40.075 Z19.500 I-0.075 J-1.291 K0.000 F250.000
G2 X-40.075 Y-41.291 Z19.500 I-1.291 J0.075 K0.000 F250.000
G2 X-39.925 Y-38.709 Z19.500 I0.075 J1.291 K0.000 F250.000
G2 X-39.086 Y-39.086 Z19.500 I-0.075 J-1.291 K0.000 F250.000
G0 Z25.000
G0 X-39.440 Y-39.440 Z25.000
G0 X-39.440 Y-39.440 Z23.000
G1 X-39.440 Y-39.440 Z19.000 F100.000
G2 X-40.050 Y-40.790 Z19.000 I-0.560 J-0.560 K0.000 F250.000
G2 X-40.790 Y-39.950 Z19.000 I0.050 J0.790 K0.000 F250.000
G2 X-39.950 Y-39.210 Z19.000 I0.790 J-0.050 K0.000 F250.000
G2 X-40.050 Y-40.790 Z19.000 I-0.050 J-0.790 K0.000 F250.000
G2 X-40.790 Y-39.950 Z19.000 I0.050 J0.790 K0.000 F250.000
G2 X-39.950 Y-39.210 Z19.000 I0.790 J-0.050 K0.000 F250.000
G2 X-39.440 Y-39.440 Z19.000 I-0.050 J-0.790 K0.000 F250.000
G0 Z25.000
G0 X-38.590 Y-38.589 Z25.000
G0 X-38.590 Y-38.589 Z23.000
G1 X-38.590 Y-38.589 Z19.000 F100.000
G3 X-39.875 Y-38.010 Z19.000 I-1.409 J-1.409 K0.000 F250.000
G3 X-41.990 Y-39.875 Z19.000 I-0.125 J-1.990 K0.000 F250.000
G3 X-40.125 Y-41.990 Z19.000 I1.990 J-0.125 K0.000 F250.000
G1 X-40.050 Y-41.990 Z19.000 F250.000
G1 X-40.050 Y-40.790 Z19.000 F250.000
G1 X-40.050 Y-41.990 Z19.000 F250.000
G3 X-38.590 Y-38.589 Z19.000 I0.051 J1.992 K0.000 F250.000
G0 Z25.000
G0 X-29.042 Y-29.041 Z25.000
G0 X-29.042 Y-29.041 Z23.000
G1 X-29.042 Y-29.041 Z19.000 F100.000
G3 X-39.882 Y-24.502 Z19.000 I-10.959 J-10.960 K0.000 F250.000
G3 X-55.498 Y-39.912 Z19.000 I-0.117 J-15.498 K0.000 F250.000
G3 X-40.059 Y-55.499 Z19.000 I15.499 J-0.088 K0.000 F250.000
G3 X-29.042 Y-29.041 Z19.000 I0.058 J15.499 K0.000 F250.000
G0 Z25.000
G0 X-28.617 Y-28.616 Z25.000
G0 X-28.617 Y-28.616 Z23.000
G1 X-28.617 Y-28.616 Z19.000 F100.000
G2 X-40.076 Y-56.095 Z19.000 I-11.382 J-11.382 K0.000 F250.000
G1 X-40.059 Y-55.499 Z19.000 F250.000
G1 X-40.076 Y-56.095 Z19.000 F250.000
G2 X-56.098 Y-39.917 Z19.000 I0.074 J16.097 K0.000 F250.000
G2 X-39.914 Y-23.902 Z19.000 I16.097 J-0.081 K0.000 F250.000
G2 X-28.617 Y-28.616 Z19.000 I-0.084 J-16.097 K0.000 F250.000
G0 Z25.000
G0 Z25.000
(Finish operation: MillFace002)
(Begin postamble)
M5
G17 G90
M2
