(Exported by FreeCAD)
(Post Processor: grbl_post)
(Output Time:2022-06-05 10:54:27.988493)
(Begin preamble)
G17 G90
G21
(Begin operation: TC: 3.175 Z1 UP Helicoidale003)
(Path: TC: 3.175 Z1 UP Helicoidale003)
(TC: 3.175 Z1 UP Helicoidale003)
(Begin toolchange)
( M6 T5.0 )
M3 S10000.0
(Finish operation: TC: 3.175 Z1 UP Helicoidale003)
(Begin operation: Fixture)
(Path: Fixture)
G54
G0 Z25.000
(Finish operation: Fixture)
(Begin operation: Helix)
(Path: Helix)
(Helix)
(helix cut operation)
G0 Z25.000
G0 X25.634 Y14.019
G0 Z23.000
G1 Z10.000 F100.000
G2 X24.366 Y14.019 Z9.808 I-0.634 J0.000 F199.998
G2 X25.634 Y14.019 Z9.615 I0.634 J0.000 F199.998
G2 X24.366 Y14.019 Z9.423 I-0.634 J0.000 F199.998
G2 X25.634 Y14.019 Z9.231 I0.634 J0.000 F199.998
G2 X24.366 Y14.019 Z9.038 I-0.634 J0.000 F199.998
G2 X25.634 Y14.019 Z8.846 I0.634 J0.000 F199.998
G2 X24.366 Y14.019 Z8.654 I-0.634 J0.000 F199.998
G2 X25.634 Y14.019 Z8.462 I0.634 J0.000 F199.998
G2 X24.366 Y14.019 Z8.269 I-0.634 J0.000 F199.998
G2 X25.634 Y14.019 Z8.077 I0.634 J0.000 F199.998
G2 X24.366 Y14.019 Z7.885 I-0.634 J0.000 F199.998
G2 X25.634 Y14.019 Z7.692 I0.634 J0.000 F199.998
G2 X24.366 Y14.019 Z7.500 I-0.634 J0.000 F199.998
G2 X25.634 Y14.019 Z7.308 I0.634 J0.000 F199.998
G2 X24.366 Y14.019 Z7.115 I-0.634 J0.000 F199.998
G2 X25.634 Y14.019 Z6.923 I0.634 J0.000 F199.998
G2 X24.366 Y14.019 Z6.731 I-0.634 J0.000 F199.998
G2 X25.634 Y14.019 Z6.538 I0.634 J0.000 F199.998
G2 X24.366 Y14.019 Z6.346 I-0.634 J0.000 F199.998
G2 X25.634 Y14.019 Z6.154 I0.634 J0.000 F199.998
G2 X24.366 Y14.019 Z5.962 I-0.634 J0.000 F199.998
G2 X25.634 Y14.019 Z5.769 I0.634 J0.000 F199.998
G2 X24.366 Y14.019 Z5.577 I-0.634 J0.000 F199.998
G2 X25.634 Y14.019 Z5.385 I0.634 J0.000 F199.998
G2 X24.366 Y14.019 Z5.192 I-0.634 J0.000 F199.998
G2 X25.634 Y14.019 Z5.000 I0.634 J0.000 F199.998
G2 X24.366 Y14.019 Z5.000 I-0.634 J0.000 F199.998
G2 X25.634 Y14.019 Z5.000 I0.634 J0.000 F199.998
G0 Z23.000
G0 X26.627 Y14.019
G0 Z23.000
G1 Z10.000 F100.000
G2 X23.372 Y14.019 Z9.808 I-1.628 J0.000 F199.998
G2 X26.627 Y14.019 Z9.615 I1.628 J0.000 F199.998
G2 X23.372 Y14.019 Z9.423 I-1.628 J0.000 F199.998
G2 X26.627 Y14.019 Z9.231 I1.628 J0.000 F199.998
G2 X23.372 Y14.019 Z9.038 I-1.628 J0.000 F199.998
G2 X26.627 Y14.019 Z8.846 I1.628 J0.000 F199.998
G2 X23.372 Y14.019 Z8.654 I-1.628 J0.000 F199.998
G2 X26.627 Y14.019 Z8.462 I1.628 J0.000 F199.998
G2 X23.372 Y14.019 Z8.269 I-1.628 J0.000 F199.998
G2 X26.627 Y14.019 Z8.077 I1.628 J0.000 F199.998
G2 X23.372 Y14.019 Z7.885 I-1.628 J0.000 F199.998
G2 X26.627 Y14.019 Z7.692 I1.628 J0.000 F199.998
G2 X23.372 Y14.019 Z7.500 I-1.628 J0.000 F199.998
G2 X26.627 Y14.019 Z7.308 I1.628 J0.000 F199.998
G2 X23.372 Y14.019 Z7.115 I-1.628 J0.000 F199.998
G2 X26.627 Y14.019 Z6.923 I1.628 J0.000 F199.998
G2 X23.372 Y14.019 Z6.731 I-1.628 J0.000 F199.998
G2 X26.627 Y14.019 Z6.538 I1.628 J0.000 F199.998
G2 X23.372 Y14.019 Z6.346 I-1.628 J0.000 F199.998
G2 X26.627 Y14.019 Z6.154 I1.628 J0.000 F199.998
G2 X23.372 Y14.019 Z5.962 I-1.628 J0.000 F199.998
G2 X26.627 Y14.019 Z5.769 I1.628 J0.000 F199.998
G2 X23.372 Y14.019 Z5.577 I-1.628 J0.000 F199.998
G2 X26.627 Y14.019 Z5.385 I1.628 J0.000 F199.998
G2 X23.372 Y14.019 Z5.192 I-1.628 J0.000 F199.998
G2 X26.627 Y14.019 Z5.000 I1.628 J0.000 F199.998
G2 X23.372 Y14.019 Z5.000 I-1.628 J0.000 F199.998
G2 X26.627 Y14.019 Z5.000 I1.628 J0.000 F199.998
G0 Z23.000
G0 X27.621 Y14.019
G0 Z23.000
G1 Z10.000 F100.000
G2 X22.378 Y14.019 Z9.808 I-2.621 J0.000 F199.998
G2 X27.621 Y14.019 Z9.615 I2.621 J0.000 F199.998
G2 X22.378 Y14.019 Z9.423 I-2.621 J0.000 F199.998
G2 X27.621 Y14.019 Z9.231 I2.621 J0.000 F199.998
G2 X22.378 Y14.019 Z9.038 I-2.621 J0.000 F199.998
G2 X27.621 Y14.019 Z8.846 I2.621 J0.000 F199.998
G2 X22.378 Y14.019 Z8.654 I-2.621 J0.000 F199.998
G2 X27.621 Y14.019 Z8.462 I2.621 J0.000 F199.998
G2 X22.378 Y14.019 Z8.269 I-2.621 J0.000 F199.998
G2 X27.621 Y14.019 Z8.077 I2.621 J0.000 F199.998
G2 X22.378 Y14.019 Z7.885 I-2.621 J0.000 F199.998
G2 X27.621 Y14.019 Z7.692 I2.621 J0.000 F199.998
G2 X22.378 Y14.019 Z7.500 I-2.621 J0.000 F199.998
G2 X27.621 Y14.019 Z7.308 I2.621 J0.000 F199.998
G2 X22.378 Y14.019 Z7.115 I-2.621 J0.000 F199.998
G2 X27.621 Y14.019 Z6.923 I2.621 J0.000 F199.998
G2 X22.378 Y14.019 Z6.731 I-2.621 J0.000 F199.998
G2 X27.621 Y14.019 Z6.538 I2.621 J0.000 F199.998
G2 X22.378 Y14.019 Z6.346 I-2.621 J0.000 F199.998
G2 X27.621 Y14.019 Z6.154 I2.621 J0.000 F199.998
G2 X22.378 Y14.019 Z5.962 I-2.621 J0.000 F199.998
G2 X27.621 Y14.019 Z5.769 I2.621 J0.000 F199.998
G2 X22.378 Y14.019 Z5.577 I-2.621 J0.000 F199.998
G2 X27.621 Y14.019 Z5.385 I2.621 J0.000 F199.998
G2 X22.378 Y14.019 Z5.192 I-2.621 J0.000 F199.998
G2 X27.621 Y14.019 Z5.000 I2.621 J0.000 F199.998
G2 X22.378 Y14.019 Z5.000 I-2.621 J0.000 F199.998
G2 X27.621 Y14.019 Z5.000 I2.621 J0.000 F199.998
G0 Z23.000
G0 X28.615 Y14.019
G0 Z23.000
G1 Z10.000 F100.000
G2 X21.385 Y14.019 Z9.808 I-3.615 J0.000 F199.998
G2 X28.615 Y14.019 Z9.615 I3.615 J0.000 F199.998
G2 X21.385 Y14.019 Z9.423 I-3.615 J0.000 F199.998
G2 X28.615 Y14.019 Z9.231 I3.615 J0.000 F199.998
G2 X21.385 Y14.019 Z9.038 I-3.615 J0.000 F199.998
G2 X28.615 Y14.019 Z8.846 I3.615 J0.000 F199.998
G2 X21.385 Y14.019 Z8.654 I-3.615 J0.000 F199.998
G2 X28.615 Y14.019 Z8.462 I3.615 J0.000 F199.998
G2 X21.385 Y14.019 Z8.269 I-3.615 J0.000 F199.998
G2 X28.615 Y14.019 Z8.077 I3.615 J0.000 F199.998
G2 X21.385 Y14.019 Z7.885 I-3.615 J0.000 F199.998
G2 X28.615 Y14.019 Z7.692 I3.615 J0.000 F199.998
G2 X21.385 Y14.019 Z7.500 I-3.615 J0.000 F199.998
G2 X28.615 Y14.019 Z7.308 I3.615 J0.000 F199.998
G2 X21.385 Y14.019 Z7.115 I-3.615 J0.000 F199.998
G2 X28.615 Y14.019 Z6.923 I3.615 J0.000 F199.998
G2 X21.385 Y14.019 Z6.731 I-3.615 J0.000 F199.998
G2 X28.615 Y14.019 Z6.538 I3.615 J0.000 F199.998
G2 X21.385 Y14.019 Z6.346 I-3.615 J0.000 F199.998
G2 X28.615 Y14.019 Z6.154 I3.615 J0.000 F199.998
G2 X21.385 Y14.019 Z5.962 I-3.615 J0.000 F199.998
G2 X28.615 Y14.019 Z5.769 I3.615 J0.000 F199.998
G2 X21.385 Y14.019 Z5.577 I-3.615 J0.000 F199.998
G2 X28.615 Y14.019 Z5.385 I3.615 J0.000 F199.998
G2 X21.385 Y14.019 Z5.192 I-3.615 J0.000 F199.998
G2 X28.615 Y14.019 Z5.000 I3.615 J0.000 F199.998
G2 X21.385 Y14.019 Z5.000 I-3.615 J0.000 F199.998
G2 X28.615 Y14.019 Z5.000 I3.615 J0.000 F199.998
G0 Z23.000
G0 X10.634 Y40.000
G0 Z23.000
G1 Z10.000 F100.000
G2 X9.366 Y40.000 Z9.808 I-0.634 J0.000 F199.998
G2 X10.634 Y40.000 Z9.615 I0.634 J0.000 F199.998
G2 X9.366 Y40.000 Z9.423 I-0.634 J0.000 F199.998
G2 X10.634 Y40.000 Z9.231 I0.634 J0.000 F199.998
G2 X9.366 Y40.000 Z9.038 I-0.634 J0.000 F199.998
G2 X10.634 Y40.000 Z8.846 I0.634 J0.000 F199.998
G2 X9.366 Y40.000 Z8.654 I-0.634 J0.000 F199.998
G2 X10.634 Y40.000 Z8.462 I0.634 J0.000 F199.998
G2 X9.366 Y40.000 Z8.269 I-0.634 J0.000 F199.998
G2 X10.634 Y40.000 Z8.077 I0.634 J0.000 F199.998
G2 X9.366 Y40.000 Z7.885 I-0.634 J0.000 F199.998
G2 X10.634 Y40.000 Z7.692 I0.634 J0.000 F199.998
G2 X9.366 Y40.000 Z7.500 I-0.634 J0.000 F199.998
G2 X10.634 Y40.000 Z7.308 I0.634 J0.000 F199.998
G2 X9.366 Y40.000 Z7.115 I-0.634 J0.000 F199.998
G2 X10.634 Y40.000 Z6.923 I0.634 J0.000 F199.998
G2 X9.366 Y40.000 Z6.731 I-0.634 J0.000 F199.998
G2 X10.634 Y40.000 Z6.538 I0.634 J0.000 F199.998
G2 X9.366 Y40.000 Z6.346 I-0.634 J0.000 F199.998
G2 X10.634 Y40.000 Z6.154 I0.634 J0.000 F199.998
G2 X9.366 Y40.000 Z5.962 I-0.634 J0.000 F199.998
G2 X10.634 Y40.000 Z5.769 I0.634 J0.000 F199.998
G2 X9.366 Y40.000 Z5.577 I-0.634 J0.000 F199.998
G2 X10.634 Y40.000 Z5.385 I0.634 J0.000 F199.998
G2 X9.366 Y40.000 Z5.192 I-0.634 J0.000 F199.998
G2 X10.634 Y40.000 Z5.000 I0.634 J0.000 F199.998
G2 X9.366 Y40.000 Z5.000 I-0.634 J0.000 F199.998
G2 X10.634 Y40.000 Z5.000 I0.634 J0.000 F199.998
G0 Z23.000
G0 X11.627 Y40.000
G0 Z23.000
G1 Z10.000 F100.000
G2 X8.372 Y40.000 Z9.808 I-1.628 J0.000 F199.998
G2 X11.627 Y40.000 Z9.615 I1.628 J0.000 F199.998
G2 X8.372 Y40.000 Z9.423 I-1.628 J0.000 F199.998
G2 X11.627 Y40.000 Z9.231 I1.628 J0.000 F199.998
G2 X8.372 Y40.000 Z9.038 I-1.628 J0.000 F199.998
G2 X11.627 Y40.000 Z8.846 I1.628 J0.000 F199.998
G2 X8.372 Y40.000 Z8.654 I-1.628 J0.000 F199.998
G2 X11.627 Y40.000 Z8.462 I1.628 J0.000 F199.998
G2 X8.372 Y40.000 Z8.269 I-1.628 J0.000 F199.998
G2 X11.627 Y40.000 Z8.077 I1.628 J0.000 F199.998
G2 X8.372 Y40.000 Z7.885 I-1.628 J0.000 F199.998
G2 X11.627 Y40.000 Z7.692 I1.628 J0.000 F199.998
G2 X8.372 Y40.000 Z7.500 I-1.628 J0.000 F199.998
G2 X11.627 Y40.000 Z7.308 I1.628 J0.000 F199.998
G2 X8.372 Y40.000 Z7.115 I-1.628 J0.000 F199.998
G2 X11.627 Y40.000 Z6.923 I1.628 J0.000 F199.998
G2 X8.372 Y40.000 Z6.731 I-1.628 J0.000 F199.998
G2 X11.627 Y40.000 Z6.538 I1.628 J0.000 F199.998
G2 X8.372 Y40.000 Z6.346 I-1.628 J0.000 F199.998
G2 X11.627 Y40.000 Z6.154 I1.628 J0.000 F199.998
G2 X8.372 Y40.000 Z5.962 I-1.628 J0.000 F199.998
G2 X11.627 Y40.000 Z5.769 I1.628 J0.000 F199.998
G2 X8.372 Y40.000 Z5.577 I-1.628 J0.000 F199.998
G2 X11.627 Y40.000 Z5.385 I1.628 J0.000 F199.998
G2 X8.372 Y40.000 Z5.192 I-1.628 J0.000 F199.998
G2 X11.627 Y40.000 Z5.000 I1.628 J0.000 F199.998
G2 X8.372 Y40.000 Z5.000 I-1.628 J0.000 F199.998
G2 X11.627 Y40.000 Z5.000 I1.628 J0.000 F199.998
G0 Z23.000
G0 X12.621 Y40.000
G0 Z23.000
G1 Z10.000 F100.000
G2 X7.378 Y40.000 Z9.808 I-2.621 J0.000 F199.998
G2 X12.621 Y40.000 Z9.615 I2.621 J0.000 F199.998
G2 X7.378 Y40.000 Z9.423 I-2.621 J0.000 F199.998
G2 X12.621 Y40.000 Z9.231 I2.621 J0.000 F199.998
G2 X7.378 Y40.000 Z9.038 I-2.621 J0.000 F199.998
G2 X12.621 Y40.000 Z8.846 I2.621 J0.000 F199.998
G2 X7.378 Y40.000 Z8.654 I-2.621 J0.000 F199.998
G2 X12.621 Y40.000 Z8.462 I2.621 J0.000 F199.998
G2 X7.378 Y40.000 Z8.269 I-2.621 J0.000 F199.998
G2 X12.621 Y40.000 Z8.077 I2.621 J0.000 F199.998
G2 X7.378 Y40.000 Z7.885 I-2.621 J0.000 F199.998
G2 X12.621 Y40.000 Z7.692 I2.621 J0.000 F199.998
G2 X7.378 Y40.000 Z7.500 I-2.621 J0.000 F199.998
G2 X12.621 Y40.000 Z7.308 I2.621 J0.000 F199.998
G2 X7.378 Y40.000 Z7.115 I-2.621 J0.000 F199.998
G2 X12.621 Y40.000 Z6.923 I2.621 J0.000 F199.998
G2 X7.378 Y40.000 Z6.731 I-2.621 J0.000 F199.998
G2 X12.621 Y40.000 Z6.538 I2.621 J0.000 F199.998
G2 X7.378 Y40.000 Z6.346 I-2.621 J0.000 F199.998
G2 X12.621 Y40.000 Z6.154 I2.621 J0.000 F199.998
G2 X7.378 Y40.000 Z5.962 I-2.621 J0.000 F199.998
G2 X12.621 Y40.000 Z5.769 I2.621 J0.000 F199.998
G2 X7.378 Y40.000 Z5.577 I-2.621 J0.000 F199.998
G2 X12.621 Y40.000 Z5.385 I2.621 J0.000 F199.998
G2 X7.378 Y40.000 Z5.192 I-2.621 J0.000 F199.998
G2 X12.621 Y40.000 Z5.000 I2.621 J0.000 F199.998
G2 X7.378 Y40.000 Z5.000 I-2.621 J0.000 F199.998
G2 X12.621 Y40.000 Z5.000 I2.621 J0.000 F199.998
G0 Z23.000
G0 X13.615 Y40.000
G0 Z23.000
G1 Z10.000 F100.000
G2 X6.385 Y40.000 Z9.808 I-3.615 J0.000 F199.998
G2 X13.615 Y40.000 Z9.615 I3.615 J0.000 F199.998
G2 X6.385 Y40.000 Z9.423 I-3.615 J0.000 F199.998
G2 X13.615 Y40.000 Z9.231 I3.615 J0.000 F199.998
G2 X6.385 Y40.000 Z9.038 I-3.615 J0.000 F199.998
G2 X13.615 Y40.000 Z8.846 I3.615 J0.000 F199.998
G2 X6.385 Y40.000 Z8.654 I-3.615 J0.000 F199.998
G2 X13.615 Y40.000 Z8.462 I3.615 J0.000 F199.998
G2 X6.385 Y40.000 Z8.269 I-3.615 J0.000 F199.998
G2 X13.615 Y40.000 Z8.077 I3.615 J0.000 F199.998
G2 X6.385 Y40.000 Z7.885 I-3.615 J0.000 F199.998
G2 X13.615 Y40.000 Z7.692 I3.615 J0.000 F199.998
G2 X6.385 Y40.000 Z7.500 I-3.615 J0.000 F199.998
G2 X13.615 Y40.000 Z7.308 I3.615 J0.000 F199.998
G2 X6.385 Y40.000 Z7.115 I-3.615 J0.000 F199.998
G2 X13.615 Y40.000 Z6.923 I3.615 J0.000 F199.998
G2 X6.385 Y40.000 Z6.731 I-3.615 J0.000 F199.998
G2 X13.615 Y40.000 Z6.538 I3.615 J0.000 F199.998
G2 X6.385 Y40.000 Z6.346 I-3.615 J0.000 F199.998
G2 X13.615 Y40.000 Z6.154 I3.615 J0.000 F199.998
G2 X6.385 Y40.000 Z5.962 I-3.615 J0.000 F199.998
G2 X13.615 Y40.000 Z5.769 I3.615 J0.000 F199.998
G2 X6.385 Y40.000 Z5.577 I-3.615 J0.000 F199.998
G2 X13.615 Y40.000 Z5.385 I3.615 J0.000 F199.998
G2 X6.385 Y40.000 Z5.192 I-3.615 J0.000 F199.998
G2 X13.615 Y40.000 Z5.000 I3.615 J0.000 F199.998
G2 X6.385 Y40.000 Z5.000 I-3.615 J0.000 F199.998
G2 X13.615 Y40.000 Z5.000 I3.615 J0.000 F199.998
G0 Z23.000
G0 X25.634 Y65.981
G0 Z23.000
G1 Z10.000 F100.000
G2 X24.366 Y65.981 Z9.808 I-0.634 J0.000 F199.998
G2 X25.634 Y65.981 Z9.615 I0.634 J0.000 F199.998
G2 X24.366 Y65.981 Z9.423 I-0.634 J0.000 F199.998
G2 X25.634 Y65.981 Z9.231 I0.634 J0.000 F199.998
G2 X24.366 Y65.981 Z9.038 I-0.634 J0.000 F199.998
G2 X25.634 Y65.981 Z8.846 I0.634 J0.000 F199.998
G2 X24.366 Y65.981 Z8.654 I-0.634 J0.000 F199.998
G2 X25.634 Y65.981 Z8.462 I0.634 J0.000 F199.998
G2 X24.366 Y65.981 Z8.269 I-0.634 J0.000 F199.998
G2 X25.634 Y65.981 Z8.077 I0.634 J0.000 F199.998
G2 X24.366 Y65.981 Z7.885 I-0.634 J0.000 F199.998
G2 X25.634 Y65.981 Z7.692 I0.634 J0.000 F199.998
G2 X24.366 Y65.981 Z7.500 I-0.634 J0.000 F199.998
G2 X25.634 Y65.981 Z7.308 I0.634 J0.000 F199.998
G2 X24.366 Y65.981 Z7.115 I-0.634 J0.000 F199.998
G2 X25.634 Y65.981 Z6.923 I0.634 J0.000 F199.998
G2 X24.366 Y65.981 Z6.731 I-0.634 J0.000 F199.998
G2 X25.634 Y65.981 Z6.538 I0.634 J0.000 F199.998
G2 X24.366 Y65.981 Z6.346 I-0.634 J0.000 F199.998
G2 X25.634 Y65.981 Z6.154 I0.634 J0.000 F199.998
G2 X24.366 Y65.981 Z5.962 I-0.634 J0.000 F199.998
G2 X25.634 Y65.981 Z5.769 I0.634 J0.000 F199.998
G2 X24.366 Y65.981 Z5.577 I-0.634 J0.000 F199.998
G2 X25.634 Y65.981 Z5.385 I0.634 J0.000 F199.998
G2 X24.366 Y65.981 Z5.192 I-0.634 J0.000 F199.998
G2 X25.634 Y65.981 Z5.000 I0.634 J0.000 F199.998
G2 X24.366 Y65.981 Z5.000 I-0.634 J0.000 F199.998
G2 X25.634 Y65.981 Z5.000 I0.634 J0.000 F199.998
G0 Z23.000
G0 X26.627 Y65.981
G0 Z23.000
G1 Z10.000 F100.000
G2 X23.372 Y65.981 Z9.808 I-1.628 J0.000 F199.998
G2 X26.627 Y65.981 Z9.615 I1.628 J0.000 F199.998
G2 X23.372 Y65.981 Z9.423 I-1.628 J0.000 F199.998
G2 X26.627 Y65.981 Z9.231 I1.628 J0.000 F199.998
G2 X23.372 Y65.981 Z9.038 I-1.628 J0.000 F199.998
G2 X26.627 Y65.981 Z8.846 I1.628 J0.000 F199.998
G2 X23.372 Y65.981 Z8.654 I-1.628 J0.000 F199.998
G2 X26.627 Y65.981 Z8.462 I1.628 J0.000 F199.998
G2 X23.372 Y65.981 Z8.269 I-1.628 J0.000 F199.998
G2 X26.627 Y65.981 Z8.077 I1.628 J0.000 F199.998
G2 X23.372 Y65.981 Z7.885 I-1.628 J0.000 F199.998
G2 X26.627 Y65.981 Z7.692 I1.628 J0.000 F199.998
G2 X23.372 Y65.981 Z7.500 I-1.628 J0.000 F199.998
G2 X26.627 Y65.981 Z7.308 I1.628 J0.000 F199.998
G2 X23.372 Y65.981 Z7.115 I-1.628 J0.000 F199.998
G2 X26.627 Y65.981 Z6.923 I1.628 J0.000 F199.998
G2 X23.372 Y65.981 Z6.731 I-1.628 J0.000 F199.998
G2 X26.627 Y65.981 Z6.538 I1.628 J0.000 F199.998
G2 X23.372 Y65.981 Z6.346 I-1.628 J0.000 F199.998
G2 X26.627 Y65.981 Z6.154 I1.628 J0.000 F199.998
G2 X23.372 Y65.981 Z5.962 I-1.628 J0.000 F199.998
G2 X26.627 Y65.981 Z5.769 I1.628 J0.000 F199.998
G2 X23.372 Y65.981 Z5.577 I-1.628 J0.000 F199.998
G2 X26.627 Y65.981 Z5.385 I1.628 J0.000 F199.998
G2 X23.372 Y65.981 Z5.192 I-1.628 J0.000 F199.998
G2 X26.627 Y65.981 Z5.000 I1.628 J0.000 F199.998
G2 X23.372 Y65.981 Z5.000 I-1.628 J0.000 F199.998
G2 X26.627 Y65.981 Z5.000 I1.628 J0.000 F199.998
G0 Z23.000
G0 X27.621 Y65.981
G0 Z23.000
G1 Z10.000 F100.000
G2 X22.378 Y65.981 Z9.808 I-2.621 J0.000 F199.998
G2 X27.621 Y65.981 Z9.615 I2.621 J0.000 F199.998
G2 X22.378 Y65.981 Z9.423 I-2.621 J0.000 F199.998
G2 X27.621 Y65.981 Z9.231 I2.621 J0.000 F199.998
G2 X22.378 Y65.981 Z9.038 I-2.621 J0.000 F199.998
G2 X27.621 Y65.981 Z8.846 I2.621 J0.000 F199.998
G2 X22.378 Y65.981 Z8.654 I-2.621 J0.000 F199.998
G2 X27.621 Y65.981 Z8.462 I2.621 J0.000 F199.998
G2 X22.378 Y65.981 Z8.269 I-2.621 J0.000 F199.998
G2 X27.621 Y65.981 Z8.077 I2.621 J0.000 F199.998
G2 X22.378 Y65.981 Z7.885 I-2.621 J0.000 F199.998
G2 X27.621 Y65.981 Z7.692 I2.621 J0.000 F199.998
G2 X22.378 Y65.981 Z7.500 I-2.621 J0.000 F199.998
G2 X27.621 Y65.981 Z7.308 I2.621 J0.000 F199.998
G2 X22.378 Y65.981 Z7.115 I-2.621 J0.000 F199.998
G2 X27.621 Y65.981 Z6.923 I2.621 J0.000 F199.998
G2 X22.378 Y65.981 Z6.731 I-2.621 J0.000 F199.998
G2 X27.621 Y65.981 Z6.538 I2.621 J0.000 F199.998
G2 X22.378 Y65.981 Z6.346 I-2.621 J0.000 F199.998
G2 X27.621 Y65.981 Z6.154 I2.621 J0.000 F199.998
G2 X22.378 Y65.981 Z5.962 I-2.621 J0.000 F199.998
G2 X27.621 Y65.981 Z5.769 I2.621 J0.000 F199.998
G2 X22.378 Y65.981 Z5.577 I-2.621 J0.000 F199.998
G2 X27.621 Y65.981 Z5.385 I2.621 J0.000 F199.998
G2 X22.378 Y65.981 Z5.192 I-2.621 J0.000 F199.998
G2 X27.621 Y65.981 Z5.000 I2.621 J0.000 F199.998
G2 X22.378 Y65.981 Z5.000 I-2.621 J0.000 F199.998
G2 X27.621 Y65.981 Z5.000 I2.621 J0.000 F199.998
G0 Z23.000
G0 X28.615 Y65.981
G0 Z23.000
G1 Z10.000 F100.000
G2 X21.385 Y65.981 Z9.808 I-3.615 J0.000 F199.998
G2 X28.615 Y65.981 Z9.615 I3.615 J0.000 F199.998
G2 X21.385 Y65.981 Z9.423 I-3.615 J0.000 F199.998
G2 X28.615 Y65.981 Z9.231 I3.615 J0.000 F199.998
G2 X21.385 Y65.981 Z9.038 I-3.615 J0.000 F199.998
G2 X28.615 Y65.981 Z8.846 I3.615 J0.000 F199.998
G2 X21.385 Y65.981 Z8.654 I-3.615 J0.000 F199.998
G2 X28.615 Y65.981 Z8.462 I3.615 J0.000 F199.998
G2 X21.385 Y65.981 Z8.269 I-3.615 J0.000 F199.998
G2 X28.615 Y65.981 Z8.077 I3.615 J0.000 F199.998
G2 X21.385 Y65.981 Z7.885 I-3.615 J0.000 F199.998
G2 X28.615 Y65.981 Z7.692 I3.615 J0.000 F199.998
G2 X21.385 Y65.981 Z7.500 I-3.615 J0.000 F199.998
G2 X28.615 Y65.981 Z7.308 I3.615 J0.000 F199.998
G2 X21.385 Y65.981 Z7.115 I-3.615 J0.000 F199.998
G2 X28.615 Y65.981 Z6.923 I3.615 J0.000 F199.998
G2 X21.385 Y65.981 Z6.731 I-3.615 J0.000 F199.998
G2 X28.615 Y65.981 Z6.538 I3.615 J0.000 F199.998
G2 X21.385 Y65.981 Z6.346 I-3.615 J0.000 F199.998
G2 X28.615 Y65.981 Z6.154 I3.615 J0.000 F199.998
G2 X21.385 Y65.981 Z5.962 I-3.615 J0.000 F199.998
G2 X28.615 Y65.981 Z5.769 I3.615 J0.000 F199.998
G2 X21.385 Y65.981 Z5.577 I-3.615 J0.000 F199.998
G2 X28.615 Y65.981 Z5.385 I3.615 J0.000 F199.998
G2 X21.385 Y65.981 Z5.192 I-3.615 J0.000 F199.998
G2 X28.615 Y65.981 Z5.000 I3.615 J0.000 F199.998
G2 X21.385 Y65.981 Z5.000 I-3.615 J0.000 F199.998
G2 X28.615 Y65.981 Z5.000 I3.615 J0.000 F199.998
G0 Z23.000
G0 X55.634 Y65.981
G0 Z23.000
G1 Z10.000 F100.000
G2 X54.366 Y65.981 Z9.808 I-0.634 J0.000 F199.998
G2 X55.634 Y65.981 Z9.615 I0.634 J0.000 F199.998
G2 X54.366 Y65.981 Z9.423 I-0.634 J0.000 F199.998
G2 X55.634 Y65.981 Z9.231 I0.634 J0.000 F199.998
G2 X54.366 Y65.981 Z9.038 I-0.634 J0.000 F199.998
G2 X55.634 Y65.981 Z8.846 I0.634 J0.000 F199.998
G2 X54.366 Y65.981 Z8.654 I-0.634 J0.000 F199.998
G2 X55.634 Y65.981 Z8.462 I0.634 J0.000 F199.998
G2 X54.366 Y65.981 Z8.269 I-0.634 J0.000 F199.998
G2 X55.634 Y65.981 Z8.077 I0.634 J0.000 F199.998
G2 X54.366 Y65.981 Z7.885 I-0.634 J0.000 F199.998
G2 X55.634 Y65.981 Z7.692 I0.634 J0.000 F199.998
G2 X54.366 Y65.981 Z7.500 I-0.634 J0.000 F199.998
G2 X55.634 Y65.981 Z7.308 I0.634 J0.000 F199.998
G2 X54.366 Y65.981 Z7.115 I-0.634 J0.000 F199.998
G2 X55.634 Y65.981 Z6.923 I0.634 J0.000 F199.998
G2 X54.366 Y65.981 Z6.731 I-0.634 J0.000 F199.998
G2 X55.634 Y65.981 Z6.538 I0.634 J0.000 F199.998
G2 X54.366 Y65.981 Z6.346 I-0.634 J0.000 F199.998
G2 X55.634 Y65.981 Z6.154 I0.634 J0.000 F199.998
G2 X54.366 Y65.981 Z5.962 I-0.634 J0.000 F199.998
G2 X55.634 Y65.981 Z5.769 I0.634 J0.000 F199.998
G2 X54.366 Y65.981 Z5.577 I-0.634 J0.000 F199.998
G2 X55.634 Y65.981 Z5.385 I0.634 J0.000 F199.998
G2 X54.366 Y65.981 Z5.192 I-0.634 J0.000 F199.998
G2 X55.634 Y65.981 Z5.000 I0.634 J0.000 F199.998
G2 X54.366 Y65.981 Z5.000 I-0.634 J0.000 F199.998
G2 X55.634 Y65.981 Z5.000 I0.634 J0.000 F199.998
G0 Z23.000
G0 X56.627 Y65.981
G0 Z23.000
G1 Z10.000 F100.000
G2 X53.372 Y65.981 Z9.808 I-1.628 J0.000 F199.998
G2 X56.627 Y65.981 Z9.615 I1.628 J0.000 F199.998
G2 X53.372 Y65.981 Z9.423 I-1.628 J0.000 F199.998
G2 X56.627 Y65.981 Z9.231 I1.628 J0.000 F199.998
G2 X53.372 Y65.981 Z9.038 I-1.628 J0.000 F199.998
G2 X56.627 Y65.981 Z8.846 I1.628 J0.000 F199.998
G2 X53.372 Y65.981 Z8.654 I-1.628 J0.000 F199.998
G2 X56.627 Y65.981 Z8.462 I1.628 J0.000 F199.998
G2 X53.372 Y65.981 Z8.269 I-1.628 J0.000 F199.998
G2 X56.627 Y65.981 Z8.077 I1.628 J0.000 F199.998
G2 X53.372 Y65.981 Z7.885 I-1.628 J0.000 F199.998
G2 X56.627 Y65.981 Z7.692 I1.628 J0.000 F199.998
G2 X53.372 Y65.981 Z7.500 I-1.628 J0.000 F199.998
G2 X56.627 Y65.981 Z7.308 I1.628 J0.000 F199.998
G2 X53.372 Y65.981 Z7.115 I-1.628 J0.000 F199.998
G2 X56.627 Y65.981 Z6.923 I1.628 J0.000 F199.998
G2 X53.372 Y65.981 Z6.731 I-1.628 J0.000 F199.998
G2 X56.627 Y65.981 Z6.538 I1.628 J0.000 F199.998
G2 X53.372 Y65.981 Z6.346 I-1.628 J0.000 F199.998
G2 X56.627 Y65.981 Z6.154 I1.628 J0.000 F199.998
G2 X53.372 Y65.981 Z5.962 I-1.628 J0.000 F199.998
G2 X56.627 Y65.981 Z5.769 I1.628 J0.000 F199.998
G2 X53.372 Y65.981 Z5.577 I-1.628 J0.000 F199.998
G2 X56.627 Y65.981 Z5.385 I1.628 J0.000 F199.998
G2 X53.372 Y65.981 Z5.192 I-1.628 J0.000 F199.998
G2 X56.627 Y65.981 Z5.000 I1.628 J0.000 F199.998
G2 X53.372 Y65.981 Z5.000 I-1.628 J0.000 F199.998
G2 X56.627 Y65.981 Z5.000 I1.628 J0.000 F199.998
G0 Z23.000
G0 X57.621 Y65.981
G0 Z23.000
G1 Z10.000 F100.000
G2 X52.378 Y65.981 Z9.808 I-2.621 J0.000 F199.998
G2 X57.621 Y65.981 Z9.615 I2.621 J0.000 F199.998
G2 X52.378 Y65.981 Z9.423 I-2.621 J0.000 F199.998
G2 X57.621 Y65.981 Z9.231 I2.621 J0.000 F199.998
G2 X52.378 Y65.981 Z9.038 I-2.621 J0.000 F199.998
G2 X57.621 Y65.981 Z8.846 I2.621 J0.000 F199.998
G2 X52.378 Y65.981 Z8.654 I-2.621 J0.000 F199.998
G2 X57.621 Y65.981 Z8.462 I2.621 J0.000 F199.998
G2 X52.378 Y65.981 Z8.269 I-2.621 J0.000 F199.998
G2 X57.621 Y65.981 Z8.077 I2.621 J0.000 F199.998
G2 X52.378 Y65.981 Z7.885 I-2.621 J0.000 F199.998
G2 X57.621 Y65.981 Z7.692 I2.621 J0.000 F199.998
G2 X52.378 Y65.981 Z7.500 I-2.621 J0.000 F199.998
G2 X57.621 Y65.981 Z7.308 I2.621 J0.000 F199.998
G2 X52.378 Y65.981 Z7.115 I-2.621 J0.000 F199.998
G2 X57.621 Y65.981 Z6.923 I2.621 J0.000 F199.998
G2 X52.378 Y65.981 Z6.731 I-2.621 J0.000 F199.998
G2 X57.621 Y65.981 Z6.538 I2.621 J0.000 F199.998
G2 X52.378 Y65.981 Z6.346 I-2.621 J0.000 F199.998
G2 X57.621 Y65.981 Z6.154 I2.621 J0.000 F199.998
G2 X52.378 Y65.981 Z5.962 I-2.621 J0.000 F199.998
G2 X57.621 Y65.981 Z5.769 I2.621 J0.000 F199.998
G2 X52.378 Y65.981 Z5.577 I-2.621 J0.000 F199.998
G2 X57.621 Y65.981 Z5.385 I2.621 J0.000 F199.998
G2 X52.378 Y65.981 Z5.192 I-2.621 J0.000 F199.998
G2 X57.621 Y65.981 Z5.000 I2.621 J0.000 F199.998
G2 X52.378 Y65.981 Z5.000 I-2.621 J0.000 F199.998
G2 X57.621 Y65.981 Z5.000 I2.621 J0.000 F199.998
G0 Z23.000
G0 X58.615 Y65.981
G0 Z23.000
G1 Z10.000 F100.000
G2 X51.385 Y65.981 Z9.808 I-3.615 J0.000 F199.998
G2 X58.615 Y65.981 Z9.615 I3.615 J0.000 F199.998
G2 X51.385 Y65.981 Z9.423 I-3.615 J0.000 F199.998
G2 X58.615 Y65.981 Z9.231 I3.615 J0.000 F199.998
G2 X51.385 Y65.981 Z9.038 I-3.615 J0.000 F199.998
G2 X58.615 Y65.981 Z8.846 I3.615 J0.000 F199.998
G2 X51.385 Y65.981 Z8.654 I-3.615 J0.000 F199.998
G2 X58.615 Y65.981 Z8.462 I3.615 J0.000 F199.998
G2 X51.385 Y65.981 Z8.269 I-3.615 J0.000 F199.998
G2 X58.615 Y65.981 Z8.077 I3.615 J0.000 F199.998
G2 X51.385 Y65.981 Z7.885 I-3.615 J0.000 F199.998
G2 X58.615 Y65.981 Z7.692 I3.615 J0.000 F199.998
G2 X51.385 Y65.981 Z7.500 I-3.615 J0.000 F199.998
G2 X58.615 Y65.981 Z7.308 I3.615 J0.000 F199.998
G2 X51.385 Y65.981 Z7.115 I-3.615 J0.000 F199.998
G2 X58.615 Y65.981 Z6.923 I3.615 J0.000 F199.998
G2 X51.385 Y65.981 Z6.731 I-3.615 J0.000 F199.998
G2 X58.615 Y65.981 Z6.538 I3.615 J0.000 F199.998
G2 X51.385 Y65.981 Z6.346 I-3.615 J0.000 F199.998
G2 X58.615 Y65.981 Z6.154 I3.615 J0.000 F199.998
G2 X51.385 Y65.981 Z5.962 I-3.615 J0.000 F199.998
G2 X58.615 Y65.981 Z5.769 I3.615 J0.000 F199.998
G2 X51.385 Y65.981 Z5.577 I-3.615 J0.000 F199.998
G2 X58.615 Y65.981 Z5.385 I3.615 J0.000 F199.998
G2 X51.385 Y65.981 Z5.192 I-3.615 J0.000 F199.998
G2 X58.615 Y65.981 Z5.000 I3.615 J0.000 F199.998
G2 X51.385 Y65.981 Z5.000 I-3.615 J0.000 F199.998
G2 X58.615 Y65.981 Z5.000 I3.615 J0.000 F199.998
G0 Z23.000
G0 X70.634 Y40.000
G0 Z23.000
G1 Z10.000 F100.000
G2 X69.366 Y40.000 Z9.808 I-0.634 J0.000 F199.998
G2 X70.634 Y40.000 Z9.615 I0.634 J0.000 F199.998
G2 X69.366 Y40.000 Z9.423 I-0.634 J0.000 F199.998
G2 X70.634 Y40.000 Z9.231 I0.634 J0.000 F199.998
G2 X69.366 Y40.000 Z9.038 I-0.634 J0.000 F199.998
G2 X70.634 Y40.000 Z8.846 I0.634 J0.000 F199.998
G2 X69.366 Y40.000 Z8.654 I-0.634 J0.000 F199.998
G2 X70.634 Y40.000 Z8.462 I0.634 J0.000 F199.998
G2 X69.366 Y40.000 Z8.269 I-0.634 J0.000 F199.998
G2 X70.634 Y40.000 Z8.077 I0.634 J0.000 F199.998
G2 X69.366 Y40.000 Z7.885 I-0.634 J0.000 F199.998
G2 X70.634 Y40.000 Z7.692 I0.634 J0.000 F199.998
G2 X69.366 Y40.000 Z7.500 I-0.634 J0.000 F199.998
G2 X70.634 Y40.000 Z7.308 I0.634 J0.000 F199.998
G2 X69.366 Y40.000 Z7.115 I-0.634 J0.000 F199.998
G2 X70.634 Y40.000 Z6.923 I0.634 J0.000 F199.998
G2 X69.366 Y40.000 Z6.731 I-0.634 J0.000 F199.998
G2 X70.634 Y40.000 Z6.538 I0.634 J0.000 F199.998
G2 X69.366 Y40.000 Z6.346 I-0.634 J0.000 F199.998
G2 X70.634 Y40.000 Z6.154 I0.634 J0.000 F199.998
G2 X69.366 Y40.000 Z5.962 I-0.634 J0.000 F199.998
G2 X70.634 Y40.000 Z5.769 I0.634 J0.000 F199.998
G2 X69.366 Y40.000 Z5.577 I-0.634 J0.000 F199.998
G2 X70.634 Y40.000 Z5.385 I0.634 J0.000 F199.998
G2 X69.366 Y40.000 Z5.192 I-0.634 J0.000 F199.998
G2 X70.634 Y40.000 Z5.000 I0.634 J0.000 F199.998
G2 X69.366 Y40.000 Z5.000 I-0.634 J0.000 F199.998
G2 X70.634 Y40.000 Z5.000 I0.634 J0.000 F199.998
G0 Z23.000
G0 X71.627 Y40.000
G0 Z23.000
G1 Z10.000 F100.000
G2 X68.372 Y40.000 Z9.808 I-1.628 J0.000 F199.998
G2 X71.627 Y40.000 Z9.615 I1.628 J0.000 F199.998
G2 X68.372 Y40.000 Z9.423 I-1.628 J0.000 F199.998
G2 X71.627 Y40.000 Z9.231 I1.628 J0.000 F199.998
G2 X68.372 Y40.000 Z9.038 I-1.628 J0.000 F199.998
G2 X71.627 Y40.000 Z8.846 I1.628 J0.000 F199.998
G2 X68.372 Y40.000 Z8.654 I-1.628 J0.000 F199.998
G2 X71.627 Y40.000 Z8.462 I1.628 J0.000 F199.998
G2 X68.372 Y40.000 Z8.269 I-1.628 J0.000 F199.998
G2 X71.627 Y40.000 Z8.077 I1.628 J0.000 F199.998
G2 X68.372 Y40.000 Z7.885 I-1.628 J0.000 F199.998
G2 X71.627 Y40.000 Z7.692 I1.628 J0.000 F199.998
G2 X68.372 Y40.000 Z7.500 I-1.628 J0.000 F199.998
G2 X71.627 Y40.000 Z7.308 I1.628 J0.000 F199.998
G2 X68.372 Y40.000 Z7.115 I-1.628 J0.000 F199.998
G2 X71.627 Y40.000 Z6.923 I1.628 J0.000 F199.998
G2 X68.372 Y40.000 Z6.731 I-1.628 J0.000 F199.998
G2 X71.627 Y40.000 Z6.538 I1.628 J0.000 F199.998
G2 X68.372 Y40.000 Z6.346 I-1.628 J0.000 F199.998
G2 X71.627 Y40.000 Z6.154 I1.628 J0.000 F199.998
G2 X68.372 Y40.000 Z5.962 I-1.628 J0.000 F199.998
G2 X71.627 Y40.000 Z5.769 I1.628 J0.000 F199.998
G2 X68.372 Y40.000 Z5.577 I-1.628 J0.000 F199.998
G2 X71.627 Y40.000 Z5.385 I1.628 J0.000 F199.998
G2 X68.372 Y40.000 Z5.192 I-1.628 J0.000 F199.998
G2 X71.627 Y40.000 Z5.000 I1.628 J0.000 F199.998
G2 X68.372 Y40.000 Z5.000 I-1.628 J0.000 F199.998
G2 X71.627 Y40.000 Z5.000 I1.628 J0.000 F199.998
G0 Z23.000
G0 X72.621 Y40.000
G0 Z23.000
G1 Z10.000 F100.000
G2 X67.378 Y40.000 Z9.808 I-2.621 J0.000 F199.998
G2 X72.621 Y40.000 Z9.615 I2.621 J0.000 F199.998
G2 X67.378 Y40.000 Z9.423 I-2.621 J0.000 F199.998
G2 X72.621 Y40.000 Z9.231 I2.621 J0.000 F199.998
G2 X67.378 Y40.000 Z9.038 I-2.621 J0.000 F199.998
G2 X72.621 Y40.000 Z8.846 I2.621 J0.000 F199.998
G2 X67.378 Y40.000 Z8.654 I-2.621 J0.000 F199.998
G2 X72.621 Y40.000 Z8.462 I2.621 J0.000 F199.998
G2 X67.378 Y40.000 Z8.269 I-2.621 J0.000 F199.998
G2 X72.621 Y40.000 Z8.077 I2.621 J0.000 F199.998
G2 X67.378 Y40.000 Z7.885 I-2.621 J0.000 F199.998
G2 X72.621 Y40.000 Z7.692 I2.621 J0.000 F199.998
G2 X67.378 Y40.000 Z7.500 I-2.621 J0.000 F199.998
G2 X72.621 Y40.000 Z7.308 I2.621 J0.000 F199.998
G2 X67.378 Y40.000 Z7.115 I-2.621 J0.000 F199.998
G2 X72.621 Y40.000 Z6.923 I2.621 J0.000 F199.998
G2 X67.378 Y40.000 Z6.731 I-2.621 J0.000 F199.998
G2 X72.621 Y40.000 Z6.538 I2.621 J0.000 F199.998
G2 X67.378 Y40.000 Z6.346 I-2.621 J0.000 F199.998
G2 X72.621 Y40.000 Z6.154 I2.621 J0.000 F199.998
G2 X67.378 Y40.000 Z5.962 I-2.621 J0.000 F199.998
G2 X72.621 Y40.000 Z5.769 I2.621 J0.000 F199.998
G2 X67.378 Y40.000 Z5.577 I-2.621 J0.000 F199.998
G2 X72.621 Y40.000 Z5.385 I2.621 J0.000 F199.998
G2 X67.378 Y40.000 Z5.192 I-2.621 J0.000 F199.998
G2 X72.621 Y40.000 Z5.000 I2.621 J0.000 F199.998
G2 X67.378 Y40.000 Z5.000 I-2.621 J0.000 F199.998
G2 X72.621 Y40.000 Z5.000 I2.621 J0.000 F199.998
G0 Z23.000
G0 X73.615 Y40.000
G0 Z23.000
G1 Z10.000 F100.000
G2 X66.385 Y40.000 Z9.808 I-3.615 J0.000 F199.998
G2 X73.615 Y40.000 Z9.615 I3.615 J0.000 F199.998
G2 X66.385 Y40.000 Z9.423 I-3.615 J0.000 F199.998
G2 X73.615 Y40.000 Z9.231 I3.615 J0.000 F199.998
G2 X66.385 Y40.000 Z9.038 I-3.615 J0.000 F199.998
G2 X73.615 Y40.000 Z8.846 I3.615 J0.000 F199.998
G2 X66.385 Y40.000 Z8.654 I-3.615 J0.000 F199.998
G2 X73.615 Y40.000 Z8.462 I3.615 J0.000 F199.998
G2 X66.385 Y40.000 Z8.269 I-3.615 J0.000 F199.998
G2 X73.615 Y40.000 Z8.077 I3.615 J0.000 F199.998
G2 X66.385 Y40.000 Z7.885 I-3.615 J0.000 F199.998
G2 X73.615 Y40.000 Z7.692 I3.615 J0.000 F199.998
G2 X66.385 Y40.000 Z7.500 I-3.615 J0.000 F199.998
G2 X73.615 Y40.000 Z7.308 I3.615 J0.000 F199.998
G2 X66.385 Y40.000 Z7.115 I-3.615 J0.000 F199.998
G2 X73.615 Y40.000 Z6.923 I3.615 J0.000 F199.998
G2 X66.385 Y40.000 Z6.731 I-3.615 J0.000 F199.998
G2 X73.615 Y40.000 Z6.538 I3.615 J0.000 F199.998
G2 X66.385 Y40.000 Z6.346 I-3.615 J0.000 F199.998
G2 X73.615 Y40.000 Z6.154 I3.615 J0.000 F199.998
G2 X66.385 Y40.000 Z5.962 I-3.615 J0.000 F199.998
G2 X73.615 Y40.000 Z5.769 I3.615 J0.000 F199.998
G2 X66.385 Y40.000 Z5.577 I-3.615 J0.000 F199.998
G2 X73.615 Y40.000 Z5.385 I3.615 J0.000 F199.998
G2 X66.385 Y40.000 Z5.192 I-3.615 J0.000 F199.998
G2 X73.615 Y40.000 Z5.000 I3.615 J0.000 F199.998
G2 X66.385 Y40.000 Z5.000 I-3.615 J0.000 F199.998
G2 X73.615 Y40.000 Z5.000 I3.615 J0.000 F199.998
G0 Z23.000
G0 X55.634 Y14.019
G0 Z23.000
G1 Z10.000 F100.000
G2 X54.366 Y14.019 Z9.808 I-0.634 J0.000 F199.998
G2 X55.634 Y14.019 Z9.615 I0.634 J0.000 F199.998
G2 X54.366 Y14.019 Z9.423 I-0.634 J0.000 F199.998
G2 X55.634 Y14.019 Z9.231 I0.634 J0.000 F199.998
G2 X54.366 Y14.019 Z9.038 I-0.634 J0.000 F199.998
G2 X55.634 Y14.019 Z8.846 I0.634 J0.000 F199.998
G2 X54.366 Y14.019 Z8.654 I-0.634 J0.000 F199.998
G2 X55.634 Y14.019 Z8.462 I0.634 J0.000 F199.998
G2 X54.366 Y14.019 Z8.269 I-0.634 J0.000 F199.998
G2 X55.634 Y14.019 Z8.077 I0.634 J0.000 F199.998
G2 X54.366 Y14.019 Z7.885 I-0.634 J0.000 F199.998
G2 X55.634 Y14.019 Z7.692 I0.634 J0.000 F199.998
G2 X54.366 Y14.019 Z7.500 I-0.634 J0.000 F199.998
G2 X55.634 Y14.019 Z7.308 I0.634 J0.000 F199.998
G2 X54.366 Y14.019 Z7.115 I-0.634 J0.000 F199.998
G2 X55.634 Y14.019 Z6.923 I0.634 J0.000 F199.998
G2 X54.366 Y14.019 Z6.731 I-0.634 J0.000 F199.998
G2 X55.634 Y14.019 Z6.538 I0.634 J0.000 F199.998
G2 X54.366 Y14.019 Z6.346 I-0.634 J0.000 F199.998
G2 X55.634 Y14.019 Z6.154 I0.634 J0.000 F199.998
G2 X54.366 Y14.019 Z5.962 I-0.634 J0.000 F199.998
G2 X55.634 Y14.019 Z5.769 I0.634 J0.000 F199.998
G2 X54.366 Y14.019 Z5.577 I-0.634 J0.000 F199.998
G2 X55.634 Y14.019 Z5.385 I0.634 J0.000 F199.998
G2 X54.366 Y14.019 Z5.192 I-0.634 J0.000 F199.998
G2 X55.634 Y14.019 Z5.000 I0.634 J0.000 F199.998
G2 X54.366 Y14.019 Z5.000 I-0.634 J0.000 F199.998
G2 X55.634 Y14.019 Z5.000 I0.634 J0.000 F199.998
G0 Z23.000
G0 X56.627 Y14.019
G0 Z23.000
G1 Z10.000 F100.000
G2 X53.372 Y14.019 Z9.808 I-1.628 J0.000 F199.998
G2 X56.627 Y14.019 Z9.615 I1.628 J0.000 F199.998
G2 X53.372 Y14.019 Z9.423 I-1.628 J0.000 F199.998
G2 X56.627 Y14.019 Z9.231 I1.628 J0.000 F199.998
G2 X53.372 Y14.019 Z9.038 I-1.628 J0.000 F199.998
G2 X56.627 Y14.019 Z8.846 I1.628 J0.000 F199.998
G2 X53.372 Y14.019 Z8.654 I-1.628 J0.000 F199.998
G2 X56.627 Y14.019 Z8.462 I1.628 J0.000 F199.998
G2 X53.372 Y14.019 Z8.269 I-1.628 J0.000 F199.998
G2 X56.627 Y14.019 Z8.077 I1.628 J0.000 F199.998
G2 X53.372 Y14.019 Z7.885 I-1.628 J0.000 F199.998
G2 X56.627 Y14.019 Z7.692 I1.628 J0.000 F199.998
G2 X53.372 Y14.019 Z7.500 I-1.628 J0.000 F199.998
G2 X56.627 Y14.019 Z7.308 I1.628 J0.000 F199.998
G2 X53.372 Y14.019 Z7.115 I-1.628 J0.000 F199.998
G2 X56.627 Y14.019 Z6.923 I1.628 J0.000 F199.998
G2 X53.372 Y14.019 Z6.731 I-1.628 J0.000 F199.998
G2 X56.627 Y14.019 Z6.538 I1.628 J0.000 F199.998
G2 X53.372 Y14.019 Z6.346 I-1.628 J0.000 F199.998
G2 X56.627 Y14.019 Z6.154 I1.628 J0.000 F199.998
G2 X53.372 Y14.019 Z5.962 I-1.628 J0.000 F199.998
G2 X56.627 Y14.019 Z5.769 I1.628 J0.000 F199.998
G2 X53.372 Y14.019 Z5.577 I-1.628 J0.000 F199.998
G2 X56.627 Y14.019 Z5.385 I1.628 J0.000 F199.998
G2 X53.372 Y14.019 Z5.192 I-1.628 J0.000 F199.998
G2 X56.627 Y14.019 Z5.000 I1.628 J0.000 F199.998
G2 X53.372 Y14.019 Z5.000 I-1.628 J0.000 F199.998
G2 X56.627 Y14.019 Z5.000 I1.628 J0.000 F199.998
G0 Z23.000
G0 X57.621 Y14.019
G0 Z23.000
G1 Z10.000 F100.000
G2 X52.378 Y14.019 Z9.808 I-2.621 J0.000 F199.998
G2 X57.621 Y14.019 Z9.615 I2.621 J0.000 F199.998
G2 X52.378 Y14.019 Z9.423 I-2.621 J0.000 F199.998
G2 X57.621 Y14.019 Z9.231 I2.621 J0.000 F199.998
G2 X52.378 Y14.019 Z9.038 I-2.621 J0.000 F199.998
G2 X57.621 Y14.019 Z8.846 I2.621 J0.000 F199.998
G2 X52.378 Y14.019 Z8.654 I-2.621 J0.000 F199.998
G2 X57.621 Y14.019 Z8.462 I2.621 J0.000 F199.998
G2 X52.378 Y14.019 Z8.269 I-2.621 J0.000 F199.998
G2 X57.621 Y14.019 Z8.077 I2.621 J0.000 F199.998
G2 X52.378 Y14.019 Z7.885 I-2.621 J0.000 F199.998
G2 X57.621 Y14.019 Z7.692 I2.621 J0.000 F199.998
G2 X52.378 Y14.019 Z7.500 I-2.621 J0.000 F199.998
G2 X57.621 Y14.019 Z7.308 I2.621 J0.000 F199.998
G2 X52.378 Y14.019 Z7.115 I-2.621 J0.000 F199.998
G2 X57.621 Y14.019 Z6.923 I2.621 J0.000 F199.998
G2 X52.378 Y14.019 Z6.731 I-2.621 J0.000 F199.998
G2 X57.621 Y14.019 Z6.538 I2.621 J0.000 F199.998
G2 X52.378 Y14.019 Z6.346 I-2.621 J0.000 F199.998
G2 X57.621 Y14.019 Z6.154 I2.621 J0.000 F199.998
G2 X52.378 Y14.019 Z5.962 I-2.621 J0.000 F199.998
G2 X57.621 Y14.019 Z5.769 I2.621 J0.000 F199.998
G2 X52.378 Y14.019 Z5.577 I-2.621 J0.000 F199.998
G2 X57.621 Y14.019 Z5.385 I2.621 J0.000 F199.998
G2 X52.378 Y14.019 Z5.192 I-2.621 J0.000 F199.998
G2 X57.621 Y14.019 Z5.000 I2.621 J0.000 F199.998
G2 X52.378 Y14.019 Z5.000 I-2.621 J0.000 F199.998
G2 X57.621 Y14.019 Z5.000 I2.621 J0.000 F199.998
G0 Z23.000
G0 X58.615 Y14.019
G0 Z23.000
G1 Z10.000 F100.000
G2 X51.385 Y14.019 Z9.808 I-3.615 J0.000 F199.998
G2 X58.615 Y14.019 Z9.615 I3.615 J0.000 F199.998
G2 X51.385 Y14.019 Z9.423 I-3.615 J0.000 F199.998
G2 X58.615 Y14.019 Z9.231 I3.615 J0.000 F199.998
G2 X51.385 Y14.019 Z9.038 I-3.615 J0.000 F199.998
G2 X58.615 Y14.019 Z8.846 I3.615 J0.000 F199.998
G2 X51.385 Y14.019 Z8.654 I-3.615 J0.000 F199.998
G2 X58.615 Y14.019 Z8.462 I3.615 J0.000 F199.998
G2 X51.385 Y14.019 Z8.269 I-3.615 J0.000 F199.998
G2 X58.615 Y14.019 Z8.077 I3.615 J0.000 F199.998
G2 X51.385 Y14.019 Z7.885 I-3.615 J0.000 F199.998
G2 X58.615 Y14.019 Z7.692 I3.615 J0.000 F199.998
G2 X51.385 Y14.019 Z7.500 I-3.615 J0.000 F199.998
G2 X58.615 Y14.019 Z7.308 I3.615 J0.000 F199.998
G2 X51.385 Y14.019 Z7.115 I-3.615 J0.000 F199.998
G2 X58.615 Y14.019 Z6.923 I3.615 J0.000 F199.998
G2 X51.385 Y14.019 Z6.731 I-3.615 J0.000 F199.998
G2 X58.615 Y14.019 Z6.538 I3.615 J0.000 F199.998
G2 X51.385 Y14.019 Z6.346 I-3.615 J0.000 F199.998
G2 X58.615 Y14.019 Z6.154 I3.615 J0.000 F199.998
G2 X51.385 Y14.019 Z5.962 I-3.615 J0.000 F199.998
G2 X58.615 Y14.019 Z5.769 I3.615 J0.000 F199.998
G2 X51.385 Y14.019 Z5.577 I-3.615 J0.000 F199.998
G2 X58.615 Y14.019 Z5.385 I3.615 J0.000 F199.998
G2 X51.385 Y14.019 Z5.192 I-3.615 J0.000 F199.998
G2 X58.615 Y14.019 Z5.000 I3.615 J0.000 F199.998
G2 X51.385 Y14.019 Z5.000 I-3.615 J0.000 F199.998
G2 X58.615 Y14.019 Z5.000 I3.615 J0.000 F199.998
G0 Z23.000
G0 Z25.000
(Finish operation: Helix)
(Begin operation: Helix014)
(Path: Helix014)
(Helix014)
(helix cut operation)
G0 Z25.000
G0 X14.934 Y25.000
G0 Z23.000
G1 Z10.000 F100.000
G2 X13.104 Y25.000 Z9.808 I-0.915 J0.000 F199.998
G2 X14.934 Y25.000 Z9.615 I0.915 J0.000 F199.998
G2 X13.104 Y25.000 Z9.423 I-0.915 J0.000 F199.998
G2 X14.934 Y25.000 Z9.231 I0.915 J0.000 F199.998
G2 X13.104 Y25.000 Z9.038 I-0.915 J0.000 F199.998
G2 X14.934 Y25.000 Z8.846 I0.915 J0.000 F199.998
G2 X13.104 Y25.000 Z8.654 I-0.915 J0.000 F199.998
G2 X14.934 Y25.000 Z8.462 I0.915 J0.000 F199.998
G2 X13.104 Y25.000 Z8.269 I-0.915 J0.000 F199.998
G2 X14.934 Y25.000 Z8.077 I0.915 J0.000 F199.998
G2 X13.104 Y25.000 Z7.885 I-0.915 J0.000 F199.998
G2 X14.934 Y25.000 Z7.692 I0.915 J0.000 F199.998
G2 X13.104 Y25.000 Z7.500 I-0.915 J0.000 F199.998
G2 X14.934 Y25.000 Z7.308 I0.915 J0.000 F199.998
G2 X13.104 Y25.000 Z7.115 I-0.915 J0.000 F199.998
G2 X14.934 Y25.000 Z6.923 I0.915 J0.000 F199.998
G2 X13.104 Y25.000 Z6.731 I-0.915 J0.000 F199.998
G2 X14.934 Y25.000 Z6.538 I0.915 J0.000 F199.998
G2 X13.104 Y25.000 Z6.346 I-0.915 J0.000 F199.998
G2 X14.934 Y25.000 Z6.154 I0.915 J0.000 F199.998
G2 X13.104 Y25.000 Z5.962 I-0.915 J0.000 F199.998
G2 X14.934 Y25.000 Z5.769 I0.915 J0.000 F199.998
G2 X13.104 Y25.000 Z5.577 I-0.915 J0.000 F199.998
G2 X14.934 Y25.000 Z5.385 I0.915 J0.000 F199.998
G2 X13.104 Y25.000 Z5.192 I-0.915 J0.000 F199.998
G2 X14.934 Y25.000 Z5.000 I0.915 J0.000 F199.998
G2 X13.104 Y25.000 Z4.808 I-0.915 J0.000 F199.998
G2 X14.934 Y25.000 Z4.615 I0.915 J0.000 F199.998
G2 X13.104 Y25.000 Z4.423 I-0.915 J0.000 F199.998
G2 X14.934 Y25.000 Z4.231 I0.915 J0.000 F199.998
G2 X13.104 Y25.000 Z4.038 I-0.915 J0.000 F199.998
G2 X14.934 Y25.000 Z3.846 I0.915 J0.000 F199.998
G2 X13.104 Y25.000 Z3.654 I-0.915 J0.000 F199.998
G2 X14.934 Y25.000 Z3.462 I0.915 J0.000 F199.998
G2 X13.104 Y25.000 Z3.269 I-0.915 J0.000 F199.998
G2 X14.934 Y25.000 Z3.077 I0.915 J0.000 F199.998
G2 X13.104 Y25.000 Z2.885 I-0.915 J0.000 F199.998
G2 X14.934 Y25.000 Z2.692 I0.915 J0.000 F199.998
G2 X13.104 Y25.000 Z2.500 I-0.915 J0.000 F199.998
G2 X14.934 Y25.000 Z2.308 I0.915 J0.000 F199.998
G2 X13.104 Y25.000 Z2.115 I-0.915 J0.000 F199.998
G2 X14.934 Y25.000 Z1.923 I0.915 J0.000 F199.998
G2 X13.104 Y25.000 Z1.731 I-0.915 J0.000 F199.998
G2 X14.934 Y25.000 Z1.538 I0.915 J0.000 F199.998
G2 X13.104 Y25.000 Z1.346 I-0.915 J0.000 F199.998
G2 X14.934 Y25.000 Z1.154 I0.915 J0.000 F199.998
G2 X13.104 Y25.000 Z0.962 I-0.915 J0.000 F199.998
G2 X14.934 Y25.000 Z0.769 I0.915 J0.000 F199.998
G2 X13.104 Y25.000 Z0.577 I-0.915 J0.000 F199.998
G2 X14.934 Y25.000 Z0.385 I0.915 J0.000 F199.998
G2 X13.104 Y25.000 Z0.192 I-0.915 J0.000 F199.998
G2 X14.934 Y25.000 Z0.000 I0.915 J0.000 F199.998
G2 X13.104 Y25.000 Z0.000 I-0.915 J0.000 F199.998
G2 X14.934 Y25.000 Z0.000 I0.915 J0.000 F199.998
G0 Z23.000
G0 X10.634 Y40.000
G0 Z23.000
G1 Z10.000 F100.000
G2 X9.366 Y40.000 Z9.808 I-0.634 J0.000 F199.998
G2 X10.634 Y40.000 Z9.615 I0.634 J0.000 F199.998
G2 X9.366 Y40.000 Z9.423 I-0.634 J0.000 F199.998
G2 X10.634 Y40.000 Z9.231 I0.634 J0.000 F199.998
G2 X9.366 Y40.000 Z9.038 I-0.634 J0.000 F199.998
G2 X10.634 Y40.000 Z8.846 I0.634 J0.000 F199.998
G2 X9.366 Y40.000 Z8.654 I-0.634 J0.000 F199.998
G2 X10.634 Y40.000 Z8.462 I0.634 J0.000 F199.998
G2 X9.366 Y40.000 Z8.269 I-0.634 J0.000 F199.998
G2 X10.634 Y40.000 Z8.077 I0.634 J0.000 F199.998
G2 X9.366 Y40.000 Z7.885 I-0.634 J0.000 F199.998
G2 X10.634 Y40.000 Z7.692 I0.634 J0.000 F199.998
G2 X9.366 Y40.000 Z7.500 I-0.634 J0.000 F199.998
G2 X10.634 Y40.000 Z7.308 I0.634 J0.000 F199.998
G2 X9.366 Y40.000 Z7.115 I-0.634 J0.000 F199.998
G2 X10.634 Y40.000 Z6.923 I0.634 J0.000 F199.998
G2 X9.366 Y40.000 Z6.731 I-0.634 J0.000 F199.998
G2 X10.634 Y40.000 Z6.538 I0.634 J0.000 F199.998
G2 X9.366 Y40.000 Z6.346 I-0.634 J0.000 F199.998
G2 X10.634 Y40.000 Z6.154 I0.634 J0.000 F199.998
G2 X9.366 Y40.000 Z5.962 I-0.634 J0.000 F199.998
G2 X10.634 Y40.000 Z5.769 I0.634 J0.000 F199.998
G2 X9.366 Y40.000 Z5.577 I-0.634 J0.000 F199.998
G2 X10.634 Y40.000 Z5.385 I0.634 J0.000 F199.998
G2 X9.366 Y40.000 Z5.192 I-0.634 J0.000 F199.998
G2 X10.634 Y40.000 Z5.000 I0.634 J0.000 F199.998
G2 X9.366 Y40.000 Z4.808 I-0.634 J0.000 F199.998
G2 X10.634 Y40.000 Z4.615 I0.634 J0.000 F199.998
G2 X9.366 Y40.000 Z4.423 I-0.634 J0.000 F199.998
G2 X10.634 Y40.000 Z4.231 I0.634 J0.000 F199.998
G2 X9.366 Y40.000 Z4.038 I-0.634 J0.000 F199.998
G2 X10.634 Y40.000 Z3.846 I0.634 J0.000 F199.998
G2 X9.366 Y40.000 Z3.654 I-0.634 J0.000 F199.998
G2 X10.634 Y40.000 Z3.462 I0.634 J0.000 F199.998
G2 X9.366 Y40.000 Z3.269 I-0.634 J0.000 F199.998
G2 X10.634 Y40.000 Z3.077 I0.634 J0.000 F199.998
G2 X9.366 Y40.000 Z2.885 I-0.634 J0.000 F199.998
G2 X10.634 Y40.000 Z2.692 I0.634 J0.000 F199.998
G2 X9.366 Y40.000 Z2.500 I-0.634 J0.000 F199.998
G2 X10.634 Y40.000 Z2.308 I0.634 J0.000 F199.998
G2 X9.366 Y40.000 Z2.115 I-0.634 J0.000 F199.998
G2 X10.634 Y40.000 Z1.923 I0.634 J0.000 F199.998
G2 X9.366 Y40.000 Z1.731 I-0.634 J0.000 F199.998
G2 X10.634 Y40.000 Z1.538 I0.634 J0.000 F199.998
G2 X9.366 Y40.000 Z1.346 I-0.634 J0.000 F199.998
G2 X10.634 Y40.000 Z1.154 I0.634 J0.000 F199.998
G2 X9.366 Y40.000 Z0.962 I-0.634 J0.000 F199.998
G2 X10.634 Y40.000 Z0.769 I0.634 J0.000 F199.998
G2 X9.366 Y40.000 Z0.577 I-0.634 J0.000 F199.998
G2 X10.634 Y40.000 Z0.385 I0.634 J0.000 F199.998
G2 X9.366 Y40.000 Z0.192 I-0.634 J0.000 F199.998
G2 X10.634 Y40.000 Z0.000 I0.634 J0.000 F199.998
G2 X9.366 Y40.000 Z0.000 I-0.634 J0.000 F199.998
G2 X10.634 Y40.000 Z0.000 I0.634 J0.000 F199.998
G0 Z23.000
G0 X11.715 Y40.000
G0 Z23.000
G1 Z10.000 F100.000
G2 X8.285 Y40.000 Z9.808 I-1.715 J0.000 F199.998
G2 X11.715 Y40.000 Z9.615 I1.715 J0.000 F199.998
G2 X8.285 Y40.000 Z9.423 I-1.715 J0.000 F199.998
G2 X11.715 Y40.000 Z9.231 I1.715 J0.000 F199.998
G2 X8.285 Y40.000 Z9.038 I-1.715 J0.000 F199.998
G2 X11.715 Y40.000 Z8.846 I1.715 J0.000 F199.998
G2 X8.285 Y40.000 Z8.654 I-1.715 J0.000 F199.998
G2 X11.715 Y40.000 Z8.462 I1.715 J0.000 F199.998
G2 X8.285 Y40.000 Z8.269 I-1.715 J0.000 F199.998
G2 X11.715 Y40.000 Z8.077 I1.715 J0.000 F199.998
G2 X8.285 Y40.000 Z7.885 I-1.715 J0.000 F199.998
G2 X11.715 Y40.000 Z7.692 I1.715 J0.000 F199.998
G2 X8.285 Y40.000 Z7.500 I-1.715 J0.000 F199.998
G2 X11.715 Y40.000 Z7.308 I1.715 J0.000 F199.998
G2 X8.285 Y40.000 Z7.115 I-1.715 J0.000 F199.998
G2 X11.715 Y40.000 Z6.923 I1.715 J0.000 F199.998
G2 X8.285 Y40.000 Z6.731 I-1.715 J0.000 F199.998
G2 X11.715 Y40.000 Z6.538 I1.715 J0.000 F199.998
G2 X8.285 Y40.000 Z6.346 I-1.715 J0.000 F199.998
G2 X11.715 Y40.000 Z6.154 I1.715 J0.000 F199.998
G2 X8.285 Y40.000 Z5.962 I-1.715 J0.000 F199.998
G2 X11.715 Y40.000 Z5.769 I1.715 J0.000 F199.998
G2 X8.285 Y40.000 Z5.577 I-1.715 J0.000 F199.998
G2 X11.715 Y40.000 Z5.385 I1.715 J0.000 F199.998
G2 X8.285 Y40.000 Z5.192 I-1.715 J0.000 F199.998
G2 X11.715 Y40.000 Z5.000 I1.715 J0.000 F199.998
G2 X8.285 Y40.000 Z4.808 I-1.715 J0.000 F199.998
G2 X11.715 Y40.000 Z4.615 I1.715 J0.000 F199.998
G2 X8.285 Y40.000 Z4.423 I-1.715 J0.000 F199.998
G2 X11.715 Y40.000 Z4.231 I1.715 J0.000 F199.998
G2 X8.285 Y40.000 Z4.038 I-1.715 J0.000 F199.998
G2 X11.715 Y40.000 Z3.846 I1.715 J0.000 F199.998
G2 X8.285 Y40.000 Z3.654 I-1.715 J0.000 F199.998
G2 X11.715 Y40.000 Z3.462 I1.715 J0.000 F199.998
G2 X8.285 Y40.000 Z3.269 I-1.715 J0.000 F199.998
G2 X11.715 Y40.000 Z3.077 I1.715 J0.000 F199.998
G2 X8.285 Y40.000 Z2.885 I-1.715 J0.000 F199.998
G2 X11.715 Y40.000 Z2.692 I1.715 J0.000 F199.998
G2 X8.285 Y40.000 Z2.500 I-1.715 J0.000 F199.998
G2 X11.715 Y40.000 Z2.308 I1.715 J0.000 F199.998
G2 X8.285 Y40.000 Z2.115 I-1.715 J0.000 F199.998
G2 X11.715 Y40.000 Z1.923 I1.715 J0.000 F199.998
G2 X8.285 Y40.000 Z1.731 I-1.715 J0.000 F199.998
G2 X11.715 Y40.000 Z1.538 I1.715 J0.000 F199.998
G2 X8.285 Y40.000 Z1.346 I-1.715 J0.000 F199.998
G2 X11.715 Y40.000 Z1.154 I1.715 J0.000 F199.998
G2 X8.285 Y40.000 Z0.962 I-1.715 J0.000 F199.998
G2 X11.715 Y40.000 Z0.769 I1.715 J0.000 F199.998
G2 X8.285 Y40.000 Z0.577 I-1.715 J0.000 F199.998
G2 X11.715 Y40.000 Z0.385 I1.715 J0.000 F199.998
G2 X8.285 Y40.000 Z0.192 I-1.715 J0.000 F199.998
G2 X11.715 Y40.000 Z0.000 I1.715 J0.000 F199.998
G2 X8.285 Y40.000 Z0.000 I-1.715 J0.000 F199.998
G2 X11.715 Y40.000 Z0.000 I1.715 J0.000 F199.998
G0 Z23.000
G0 X14.934 Y55.000
G0 Z23.000
G1 Z10.000 F100.000
G2 X13.104 Y55.000 Z9.808 I-0.915 J0.000 F199.998
G2 X14.934 Y55.000 Z9.615 I0.915 J0.000 F199.998
G2 X13.104 Y55.000 Z9.423 I-0.915 J0.000 F199.998
G2 X14.934 Y55.000 Z9.231 I0.915 J0.000 F199.998
G2 X13.104 Y55.000 Z9.038 I-0.915 J0.000 F199.998
G2 X14.934 Y55.000 Z8.846 I0.915 J0.000 F199.998
G2 X13.104 Y55.000 Z8.654 I-0.915 J0.000 F199.998
G2 X14.934 Y55.000 Z8.462 I0.915 J0.000 F199.998
G2 X13.104 Y55.000 Z8.269 I-0.915 J0.000 F199.998
G2 X14.934 Y55.000 Z8.077 I0.915 J0.000 F199.998
G2 X13.104 Y55.000 Z7.885 I-0.915 J0.000 F199.998
G2 X14.934 Y55.000 Z7.692 I0.915 J0.000 F199.998
G2 X13.104 Y55.000 Z7.500 I-0.915 J0.000 F199.998
G2 X14.934 Y55.000 Z7.308 I0.915 J0.000 F199.998
G2 X13.104 Y55.000 Z7.115 I-0.915 J0.000 F199.998
G2 X14.934 Y55.000 Z6.923 I0.915 J0.000 F199.998
G2 X13.104 Y55.000 Z6.731 I-0.915 J0.000 F199.998
G2 X14.934 Y55.000 Z6.538 I0.915 J0.000 F199.998
G2 X13.104 Y55.000 Z6.346 I-0.915 J0.000 F199.998
G2 X14.934 Y55.000 Z6.154 I0.915 J0.000 F199.998
G2 X13.104 Y55.000 Z5.962 I-0.915 J0.000 F199.998
G2 X14.934 Y55.000 Z5.769 I0.915 J0.000 F199.998
G2 X13.104 Y55.000 Z5.577 I-0.915 J0.000 F199.998
G2 X14.934 Y55.000 Z5.385 I0.915 J0.000 F199.998
G2 X13.104 Y55.000 Z5.192 I-0.915 J0.000 F199.998
G2 X14.934 Y55.000 Z5.000 I0.915 J0.000 F199.998
G2 X13.104 Y55.000 Z4.808 I-0.915 J0.000 F199.998
G2 X14.934 Y55.000 Z4.615 I0.915 J0.000 F199.998
G2 X13.104 Y55.000 Z4.423 I-0.915 J0.000 F199.998
G2 X14.934 Y55.000 Z4.231 I0.915 J0.000 F199.998
G2 X13.104 Y55.000 Z4.038 I-0.915 J0.000 F199.998
G2 X14.934 Y55.000 Z3.846 I0.915 J0.000 F199.998
G2 X13.104 Y55.000 Z3.654 I-0.915 J0.000 F199.998
G2 X14.934 Y55.000 Z3.462 I0.915 J0.000 F199.998
G2 X13.104 Y55.000 Z3.269 I-0.915 J0.000 F199.998
G2 X14.934 Y55.000 Z3.077 I0.915 J0.000 F199.998
G2 X13.104 Y55.000 Z2.885 I-0.915 J0.000 F199.998
G2 X14.934 Y55.000 Z2.692 I0.915 J0.000 F199.998
G2 X13.104 Y55.000 Z2.500 I-0.915 J0.000 F199.998
G2 X14.934 Y55.000 Z2.308 I0.915 J0.000 F199.998
G2 X13.104 Y55.000 Z2.115 I-0.915 J0.000 F199.998
G2 X14.934 Y55.000 Z1.923 I0.915 J0.000 F199.998
G2 X13.104 Y55.000 Z1.731 I-0.915 J0.000 F199.998
G2 X14.934 Y55.000 Z1.538 I0.915 J0.000 F199.998
G2 X13.104 Y55.000 Z1.346 I-0.915 J0.000 F199.998
G2 X14.934 Y55.000 Z1.154 I0.915 J0.000 F199.998
G2 X13.104 Y55.000 Z0.962 I-0.915 J0.000 F199.998
G2 X14.934 Y55.000 Z0.769 I0.915 J0.000 F199.998
G2 X13.104 Y55.000 Z0.577 I-0.915 J0.000 F199.998
G2 X14.934 Y55.000 Z0.385 I0.915 J0.000 F199.998
G2 X13.104 Y55.000 Z0.192 I-0.915 J0.000 F199.998
G2 X14.934 Y55.000 Z0.000 I0.915 J0.000 F199.998
G2 X13.104 Y55.000 Z0.000 I-0.915 J0.000 F199.998
G2 X14.934 Y55.000 Z0.000 I0.915 J0.000 F199.998
G0 Z23.000
G0 X25.634 Y65.981
G0 Z23.000
G1 Z10.000 F100.000
G2 X24.366 Y65.981 Z9.808 I-0.634 J0.000 F199.998
G2 X25.634 Y65.981 Z9.615 I0.634 J0.000 F199.998
G2 X24.366 Y65.981 Z9.423 I-0.634 J0.000 F199.998
G2 X25.634 Y65.981 Z9.231 I0.634 J0.000 F199.998
G2 X24.366 Y65.981 Z9.038 I-0.634 J0.000 F199.998
G2 X25.634 Y65.981 Z8.846 I0.634 J0.000 F199.998
G2 X24.366 Y65.981 Z8.654 I-0.634 J0.000 F199.998
G2 X25.634 Y65.981 Z8.462 I0.634 J0.000 F199.998
G2 X24.366 Y65.981 Z8.269 I-0.634 J0.000 F199.998
G2 X25.634 Y65.981 Z8.077 I0.634 J0.000 F199.998
G2 X24.366 Y65.981 Z7.885 I-0.634 J0.000 F199.998
G2 X25.634 Y65.981 Z7.692 I0.634 J0.000 F199.998
G2 X24.366 Y65.981 Z7.500 I-0.634 J0.000 F199.998
G2 X25.634 Y65.981 Z7.308 I0.634 J0.000 F199.998
G2 X24.366 Y65.981 Z7.115 I-0.634 J0.000 F199.998
G2 X25.634 Y65.981 Z6.923 I0.634 J0.000 F199.998
G2 X24.366 Y65.981 Z6.731 I-0.634 J0.000 F199.998
G2 X25.634 Y65.981 Z6.538 I0.634 J0.000 F199.998
G2 X24.366 Y65.981 Z6.346 I-0.634 J0.000 F199.998
G2 X25.634 Y65.981 Z6.154 I0.634 J0.000 F199.998
G2 X24.366 Y65.981 Z5.962 I-0.634 J0.000 F199.998
G2 X25.634 Y65.981 Z5.769 I0.634 J0.000 F199.998
G2 X24.366 Y65.981 Z5.577 I-0.634 J0.000 F199.998
G2 X25.634 Y65.981 Z5.385 I0.634 J0.000 F199.998
G2 X24.366 Y65.981 Z5.192 I-0.634 J0.000 F199.998
G2 X25.634 Y65.981 Z5.000 I0.634 J0.000 F199.998
G2 X24.366 Y65.981 Z4.808 I-0.634 J0.000 F199.998
G2 X25.634 Y65.981 Z4.615 I0.634 J0.000 F199.998
G2 X24.366 Y65.981 Z4.423 I-0.634 J0.000 F199.998
G2 X25.634 Y65.981 Z4.231 I0.634 J0.000 F199.998
G2 X24.366 Y65.981 Z4.038 I-0.634 J0.000 F199.998
G2 X25.634 Y65.981 Z3.846 I0.634 J0.000 F199.998
G2 X24.366 Y65.981 Z3.654 I-0.634 J0.000 F199.998
G2 X25.634 Y65.981 Z3.462 I0.634 J0.000 F199.998
G2 X24.366 Y65.981 Z3.269 I-0.634 J0.000 F199.998
G2 X25.634 Y65.981 Z3.077 I0.634 J0.000 F199.998
G2 X24.366 Y65.981 Z2.885 I-0.634 J0.000 F199.998
G2 X25.634 Y65.981 Z2.692 I0.634 J0.000 F199.998
G2 X24.366 Y65.981 Z2.500 I-0.634 J0.000 F199.998
G2 X25.634 Y65.981 Z2.308 I0.634 J0.000 F199.998
G2 X24.366 Y65.981 Z2.115 I-0.634 J0.000 F199.998
G2 X25.634 Y65.981 Z1.923 I0.634 J0.000 F199.998
G2 X24.366 Y65.981 Z1.731 I-0.634 J0.000 F199.998
G2 X25.634 Y65.981 Z1.538 I0.634 J0.000 F199.998
G2 X24.366 Y65.981 Z1.346 I-0.634 J0.000 F199.998
G2 X25.634 Y65.981 Z1.154 I0.634 J0.000 F199.998
G2 X24.366 Y65.981 Z0.962 I-0.634 J0.000 F199.998
G2 X25.634 Y65.981 Z0.769 I0.634 J0.000 F199.998
G2 X24.366 Y65.981 Z0.577 I-0.634 J0.000 F199.998
G2 X25.634 Y65.981 Z0.385 I0.634 J0.000 F199.998
G2 X24.366 Y65.981 Z0.192 I-0.634 J0.000 F199.998
G2 X25.634 Y65.981 Z0.000 I0.634 J0.000 F199.998
G2 X24.366 Y65.981 Z0.000 I-0.634 J0.000 F199.998
G2 X25.634 Y65.981 Z0.000 I0.634 J0.000 F199.998
G0 Z23.000
G0 X26.715 Y65.981
G0 Z23.000
G1 Z10.000 F100.000
G2 X23.285 Y65.981 Z9.808 I-1.715 J0.000 F199.998
G2 X26.715 Y65.981 Z9.615 I1.715 J0.000 F199.998
G2 X23.285 Y65.981 Z9.423 I-1.715 J0.000 F199.998
G2 X26.715 Y65.981 Z9.231 I1.715 J0.000 F199.998
G2 X23.285 Y65.981 Z9.038 I-1.715 J0.000 F199.998
G2 X26.715 Y65.981 Z8.846 I1.715 J0.000 F199.998
G2 X23.285 Y65.981 Z8.654 I-1.715 J0.000 F199.998
G2 X26.715 Y65.981 Z8.462 I1.715 J0.000 F199.998
G2 X23.285 Y65.981 Z8.269 I-1.715 J0.000 F199.998
G2 X26.715 Y65.981 Z8.077 I1.715 J0.000 F199.998
G2 X23.285 Y65.981 Z7.885 I-1.715 J0.000 F199.998
G2 X26.715 Y65.981 Z7.692 I1.715 J0.000 F199.998
G2 X23.285 Y65.981 Z7.500 I-1.715 J0.000 F199.998
G2 X26.715 Y65.981 Z7.308 I1.715 J0.000 F199.998
G2 X23.285 Y65.981 Z7.115 I-1.715 J0.000 F199.998
G2 X26.715 Y65.981 Z6.923 I1.715 J0.000 F199.998
G2 X23.285 Y65.981 Z6.731 I-1.715 J0.000 F199.998
G2 X26.715 Y65.981 Z6.538 I1.715 J0.000 F199.998
G2 X23.285 Y65.981 Z6.346 I-1.715 J0.000 F199.998
G2 X26.715 Y65.981 Z6.154 I1.715 J0.000 F199.998
G2 X23.285 Y65.981 Z5.962 I-1.715 J0.000 F199.998
G2 X26.715 Y65.981 Z5.769 I1.715 J0.000 F199.998
G2 X23.285 Y65.981 Z5.577 I-1.715 J0.000 F199.998
G2 X26.715 Y65.981 Z5.385 I1.715 J0.000 F199.998
G2 X23.285 Y65.981 Z5.192 I-1.715 J0.000 F199.998
G2 X26.715 Y65.981 Z5.000 I1.715 J0.000 F199.998
G2 X23.285 Y65.981 Z4.808 I-1.715 J0.000 F199.998
G2 X26.715 Y65.981 Z4.615 I1.715 J0.000 F199.998
G2 X23.285 Y65.981 Z4.423 I-1.715 J0.000 F199.998
G2 X26.715 Y65.981 Z4.231 I1.715 J0.000 F199.998
G2 X23.285 Y65.981 Z4.038 I-1.715 J0.000 F199.998
G2 X26.715 Y65.981 Z3.846 I1.715 J0.000 F199.998
G2 X23.285 Y65.981 Z3.654 I-1.715 J0.000 F199.998
G2 X26.715 Y65.981 Z3.462 I1.715 J0.000 F199.998
G2 X23.285 Y65.981 Z3.269 I-1.715 J0.000 F199.998
G2 X26.715 Y65.981 Z3.077 I1.715 J0.000 F199.998
G2 X23.285 Y65.981 Z2.885 I-1.715 J0.000 F199.998
G2 X26.715 Y65.981 Z2.692 I1.715 J0.000 F199.998
G2 X23.285 Y65.981 Z2.500 I-1.715 J0.000 F199.998
G2 X26.715 Y65.981 Z2.308 I1.715 J0.000 F199.998
G2 X23.285 Y65.981 Z2.115 I-1.715 J0.000 F199.998
G2 X26.715 Y65.981 Z1.923 I1.715 J0.000 F199.998
G2 X23.285 Y65.981 Z1.731 I-1.715 J0.000 F199.998
G2 X26.715 Y65.981 Z1.538 I1.715 J0.000 F199.998
G2 X23.285 Y65.981 Z1.346 I-1.715 J0.000 F199.998
G2 X26.715 Y65.981 Z1.154 I1.715 J0.000 F199.998
G2 X23.285 Y65.981 Z0.962 I-1.715 J0.000 F199.998
G2 X26.715 Y65.981 Z0.769 I1.715 J0.000 F199.998
G2 X23.285 Y65.981 Z0.577 I-1.715 J0.000 F199.998
G2 X26.715 Y65.981 Z0.385 I1.715 J0.000 F199.998
G2 X23.285 Y65.981 Z0.192 I-1.715 J0.000 F199.998
G2 X26.715 Y65.981 Z0.000 I1.715 J0.000 F199.998
G2 X23.285 Y65.981 Z0.000 I-1.715 J0.000 F199.998
G2 X26.715 Y65.981 Z0.000 I1.715 J0.000 F199.998
G0 Z23.000
G0 X40.915 Y70.000
G0 Z23.000
G1 Z10.000 F100.000
G2 X39.085 Y70.000 Z9.808 I-0.915 J0.000 F199.998
G2 X40.915 Y70.000 Z9.615 I0.915 J0.000 F199.998
G2 X39.085 Y70.000 Z9.423 I-0.915 J0.000 F199.998
G2 X40.915 Y70.000 Z9.231 I0.915 J0.000 F199.998
G2 X39.085 Y70.000 Z9.038 I-0.915 J0.000 F199.998
G2 X40.915 Y70.000 Z8.846 I0.915 J0.000 F199.998
G2 X39.085 Y70.000 Z8.654 I-0.915 J0.000 F199.998
G2 X40.915 Y70.000 Z8.462 I0.915 J0.000 F199.998
G2 X39.085 Y70.000 Z8.269 I-0.915 J0.000 F199.998
G2 X40.915 Y70.000 Z8.077 I0.915 J0.000 F199.998
G2 X39.085 Y70.000 Z7.885 I-0.915 J0.000 F199.998
G2 X40.915 Y70.000 Z7.692 I0.915 J0.000 F199.998
G2 X39.085 Y70.000 Z7.500 I-0.915 J0.000 F199.998
G2 X40.915 Y70.000 Z7.308 I0.915 J0.000 F199.998
G2 X39.085 Y70.000 Z7.115 I-0.915 J0.000 F199.998
G2 X40.915 Y70.000 Z6.923 I0.915 J0.000 F199.998
G2 X39.085 Y70.000 Z6.731 I-0.915 J0.000 F199.998
G2 X40.915 Y70.000 Z6.538 I0.915 J0.000 F199.998
G2 X39.085 Y70.000 Z6.346 I-0.915 J0.000 F199.998
G2 X40.915 Y70.000 Z6.154 I0.915 J0.000 F199.998
G2 X39.085 Y70.000 Z5.962 I-0.915 J0.000 F199.998
G2 X40.915 Y70.000 Z5.769 I0.915 J0.000 F199.998
G2 X39.085 Y70.000 Z5.577 I-0.915 J0.000 F199.998
G2 X40.915 Y70.000 Z5.385 I0.915 J0.000 F199.998
G2 X39.085 Y70.000 Z5.192 I-0.915 J0.000 F199.998
G2 X40.915 Y70.000 Z5.000 I0.915 J0.000 F199.998
G2 X39.085 Y70.000 Z4.808 I-0.915 J0.000 F199.998
G2 X40.915 Y70.000 Z4.615 I0.915 J0.000 F199.998
G2 X39.085 Y70.000 Z4.423 I-0.915 J0.000 F199.998
G2 X40.915 Y70.000 Z4.231 I0.915 J0.000 F199.998
G2 X39.085 Y70.000 Z4.038 I-0.915 J0.000 F199.998
G2 X40.915 Y70.000 Z3.846 I0.915 J0.000 F199.998
G2 X39.085 Y70.000 Z3.654 I-0.915 J0.000 F199.998
G2 X40.915 Y70.000 Z3.462 I0.915 J0.000 F199.998
G2 X39.085 Y70.000 Z3.269 I-0.915 J0.000 F199.998
G2 X40.915 Y70.000 Z3.077 I0.915 J0.000 F199.998
G2 X39.085 Y70.000 Z2.885 I-0.915 J0.000 F199.998
G2 X40.915 Y70.000 Z2.692 I0.915 J0.000 F199.998
G2 X39.085 Y70.000 Z2.500 I-0.915 J0.000 F199.998
G2 X40.915 Y70.000 Z2.308 I0.915 J0.000 F199.998
G2 X39.085 Y70.000 Z2.115 I-0.915 J0.000 F199.998
G2 X40.915 Y70.000 Z1.923 I0.915 J0.000 F199.998
G2 X39.085 Y70.000 Z1.731 I-0.915 J0.000 F199.998
G2 X40.915 Y70.000 Z1.538 I0.915 J0.000 F199.998
G2 X39.085 Y70.000 Z1.346 I-0.915 J0.000 F199.998
G2 X40.915 Y70.000 Z1.154 I0.915 J0.000 F199.998
G2 X39.085 Y70.000 Z0.962 I-0.915 J0.000 F199.998
G2 X40.915 Y70.000 Z0.769 I0.915 J0.000 F199.998
G2 X39.085 Y70.000 Z0.577 I-0.915 J0.000 F199.998
G2 X40.915 Y70.000 Z0.385 I0.915 J0.000 F199.998
G2 X39.085 Y70.000 Z0.192 I-0.915 J0.000 F199.998
G2 X40.915 Y70.000 Z0.000 I0.915 J0.000 F199.998
G2 X39.085 Y70.000 Z0.000 I-0.915 J0.000 F199.998
G2 X40.915 Y70.000 Z0.000 I0.915 J0.000 F199.998
G0 Z23.000
G0 X55.634 Y65.981
G0 Z23.000
G1 Z10.000 F100.000
G2 X54.366 Y65.981 Z9.808 I-0.634 J0.000 F199.998
G2 X55.634 Y65.981 Z9.615 I0.634 J0.000 F199.998
G2 X54.366 Y65.981 Z9.423 I-0.634 J0.000 F199.998
G2 X55.634 Y65.981 Z9.231 I0.634 J0.000 F199.998
G2 X54.366 Y65.981 Z9.038 I-0.634 J0.000 F199.998
G2 X55.634 Y65.981 Z8.846 I0.634 J0.000 F199.998
G2 X54.366 Y65.981 Z8.654 I-0.634 J0.000 F199.998
G2 X55.634 Y65.981 Z8.462 I0.634 J0.000 F199.998
G2 X54.366 Y65.981 Z8.269 I-0.634 J0.000 F199.998
G2 X55.634 Y65.981 Z8.077 I0.634 J0.000 F199.998
G2 X54.366 Y65.981 Z7.885 I-0.634 J0.000 F199.998
G2 X55.634 Y65.981 Z7.692 I0.634 J0.000 F199.998
G2 X54.366 Y65.981 Z7.500 I-0.634 J0.000 F199.998
G2 X55.634 Y65.981 Z7.308 I0.634 J0.000 F199.998
G2 X54.366 Y65.981 Z7.115 I-0.634 J0.000 F199.998
G2 X55.634 Y65.981 Z6.923 I0.634 J0.000 F199.998
G2 X54.366 Y65.981 Z6.731 I-0.634 J0.000 F199.998
G2 X55.634 Y65.981 Z6.538 I0.634 J0.000 F199.998
G2 X54.366 Y65.981 Z6.346 I-0.634 J0.000 F199.998
G2 X55.634 Y65.981 Z6.154 I0.634 J0.000 F199.998
G2 X54.366 Y65.981 Z5.962 I-0.634 J0.000 F199.998
G2 X55.634 Y65.981 Z5.769 I0.634 J0.000 F199.998
G2 X54.366 Y65.981 Z5.577 I-0.634 J0.000 F199.998
G2 X55.634 Y65.981 Z5.385 I0.634 J0.000 F199.998
G2 X54.366 Y65.981 Z5.192 I-0.634 J0.000 F199.998
G2 X55.634 Y65.981 Z5.000 I0.634 J0.000 F199.998
G2 X54.366 Y65.981 Z4.808 I-0.634 J0.000 F199.998
G2 X55.634 Y65.981 Z4.615 I0.634 J0.000 F199.998
G2 X54.366 Y65.981 Z4.423 I-0.634 J0.000 F199.998
G2 X55.634 Y65.981 Z4.231 I0.634 J0.000 F199.998
G2 X54.366 Y65.981 Z4.038 I-0.634 J0.000 F199.998
G2 X55.634 Y65.981 Z3.846 I0.634 J0.000 F199.998
G2 X54.366 Y65.981 Z3.654 I-0.634 J0.000 F199.998
G2 X55.634 Y65.981 Z3.462 I0.634 J0.000 F199.998
G2 X54.366 Y65.981 Z3.269 I-0.634 J0.000 F199.998
G2 X55.634 Y65.981 Z3.077 I0.634 J0.000 F199.998
G2 X54.366 Y65.981 Z2.885 I-0.634 J0.000 F199.998
G2 X55.634 Y65.981 Z2.692 I0.634 J0.000 F199.998
G2 X54.366 Y65.981 Z2.500 I-0.634 J0.000 F199.998
G2 X55.634 Y65.981 Z2.308 I0.634 J0.000 F199.998
G2 X54.366 Y65.981 Z2.115 I-0.634 J0.000 F199.998
G2 X55.634 Y65.981 Z1.923 I0.634 J0.000 F199.998
G2 X54.366 Y65.981 Z1.731 I-0.634 J0.000 F199.998
G2 X55.634 Y65.981 Z1.538 I0.634 J0.000 F199.998
G2 X54.366 Y65.981 Z1.346 I-0.634 J0.000 F199.998
G2 X55.634 Y65.981 Z1.154 I0.634 J0.000 F199.998
G2 X54.366 Y65.981 Z0.962 I-0.634 J0.000 F199.998
G2 X55.634 Y65.981 Z0.769 I0.634 J0.000 F199.998
G2 X54.366 Y65.981 Z0.577 I-0.634 J0.000 F199.998
G2 X55.634 Y65.981 Z0.385 I0.634 J0.000 F199.998
G2 X54.366 Y65.981 Z0.192 I-0.634 J0.000 F199.998
G2 X55.634 Y65.981 Z0.000 I0.634 J0.000 F199.998
G2 X54.366 Y65.981 Z0.000 I-0.634 J0.000 F199.998
G2 X55.634 Y65.981 Z0.000 I0.634 J0.000 F199.998
G0 Z23.000
G0 X56.715 Y65.981
G0 Z23.000
G1 Z10.000 F100.000
G2 X53.285 Y65.981 Z9.808 I-1.715 J0.000 F199.998
G2 X56.715 Y65.981 Z9.615 I1.715 J0.000 F199.998
G2 X53.285 Y65.981 Z9.423 I-1.715 J0.000 F199.998
G2 X56.715 Y65.981 Z9.231 I1.715 J0.000 F199.998
G2 X53.285 Y65.981 Z9.038 I-1.715 J0.000 F199.998
G2 X56.715 Y65.981 Z8.846 I1.715 J0.000 F199.998
G2 X53.285 Y65.981 Z8.654 I-1.715 J0.000 F199.998
G2 X56.715 Y65.981 Z8.462 I1.715 J0.000 F199.998
G2 X53.285 Y65.981 Z8.269 I-1.715 J0.000 F199.998
G2 X56.715 Y65.981 Z8.077 I1.715 J0.000 F199.998
G2 X53.285 Y65.981 Z7.885 I-1.715 J0.000 F199.998
G2 X56.715 Y65.981 Z7.692 I1.715 J0.000 F199.998
G2 X53.285 Y65.981 Z7.500 I-1.715 J0.000 F199.998
G2 X56.715 Y65.981 Z7.308 I1.715 J0.000 F199.998
G2 X53.285 Y65.981 Z7.115 I-1.715 J0.000 F199.998
G2 X56.715 Y65.981 Z6.923 I1.715 J0.000 F199.998
G2 X53.285 Y65.981 Z6.731 I-1.715 J0.000 F199.998
G2 X56.715 Y65.981 Z6.538 I1.715 J0.000 F199.998
G2 X53.285 Y65.981 Z6.346 I-1.715 J0.000 F199.998
G2 X56.715 Y65.981 Z6.154 I1.715 J0.000 F199.998
G2 X53.285 Y65.981 Z5.962 I-1.715 J0.000 F199.998
G2 X56.715 Y65.981 Z5.769 I1.715 J0.000 F199.998
G2 X53.285 Y65.981 Z5.577 I-1.715 J0.000 F199.998
G2 X56.715 Y65.981 Z5.385 I1.715 J0.000 F199.998
G2 X53.285 Y65.981 Z5.192 I-1.715 J0.000 F199.998
G2 X56.715 Y65.981 Z5.000 I1.715 J0.000 F199.998
G2 X53.285 Y65.981 Z4.808 I-1.715 J0.000 F199.998
G2 X56.715 Y65.981 Z4.615 I1.715 J0.000 F199.998
G2 X53.285 Y65.981 Z4.423 I-1.715 J0.000 F199.998
G2 X56.715 Y65.981 Z4.231 I1.715 J0.000 F199.998
G2 X53.285 Y65.981 Z4.038 I-1.715 J0.000 F199.998
G2 X56.715 Y65.981 Z3.846 I1.715 J0.000 F199.998
G2 X53.285 Y65.981 Z3.654 I-1.715 J0.000 F199.998
G2 X56.715 Y65.981 Z3.462 I1.715 J0.000 F199.998
G2 X53.285 Y65.981 Z3.269 I-1.715 J0.000 F199.998
G2 X56.715 Y65.981 Z3.077 I1.715 J0.000 F199.998
G2 X53.285 Y65.981 Z2.885 I-1.715 J0.000 F199.998
G2 X56.715 Y65.981 Z2.692 I1.715 J0.000 F199.998
G2 X53.285 Y65.981 Z2.500 I-1.715 J0.000 F199.998
G2 X56.715 Y65.981 Z2.308 I1.715 J0.000 F199.998
G2 X53.285 Y65.981 Z2.115 I-1.715 J0.000 F199.998
G2 X56.715 Y65.981 Z1.923 I1.715 J0.000 F199.998
G2 X53.285 Y65.981 Z1.731 I-1.715 J0.000 F199.998
G2 X56.715 Y65.981 Z1.538 I1.715 J0.000 F199.998
G2 X53.285 Y65.981 Z1.346 I-1.715 J0.000 F199.998
G2 X56.715 Y65.981 Z1.154 I1.715 J0.000 F199.998
G2 X53.285 Y65.981 Z0.962 I-1.715 J0.000 F199.998
G2 X56.715 Y65.981 Z0.769 I1.715 J0.000 F199.998
G2 X53.285 Y65.981 Z0.577 I-1.715 J0.000 F199.998
G2 X56.715 Y65.981 Z0.385 I1.715 J0.000 F199.998
G2 X53.285 Y65.981 Z0.192 I-1.715 J0.000 F199.998
G2 X56.715 Y65.981 Z0.000 I1.715 J0.000 F199.998
G2 X53.285 Y65.981 Z0.000 I-1.715 J0.000 F199.998
G2 X56.715 Y65.981 Z0.000 I1.715 J0.000 F199.998
G0 Z23.000
G0 X66.896 Y55.000
G0 Z23.000
G1 Z10.000 F100.000
G2 X65.066 Y55.000 Z9.808 I-0.915 J0.000 F199.998
G2 X66.896 Y55.000 Z9.615 I0.915 J0.000 F199.998
G2 X65.066 Y55.000 Z9.423 I-0.915 J0.000 F199.998
G2 X66.896 Y55.000 Z9.231 I0.915 J0.000 F199.998
G2 X65.066 Y55.000 Z9.038 I-0.915 J0.000 F199.998
G2 X66.896 Y55.000 Z8.846 I0.915 J0.000 F199.998
G2 X65.066 Y55.000 Z8.654 I-0.915 J0.000 F199.998
G2 X66.896 Y55.000 Z8.462 I0.915 J0.000 F199.998
G2 X65.066 Y55.000 Z8.269 I-0.915 J0.000 F199.998
G2 X66.896 Y55.000 Z8.077 I0.915 J0.000 F199.998
G2 X65.066 Y55.000 Z7.885 I-0.915 J0.000 F199.998
G2 X66.896 Y55.000 Z7.692 I0.915 J0.000 F199.998
G2 X65.066 Y55.000 Z7.500 I-0.915 J0.000 F199.998
G2 X66.896 Y55.000 Z7.308 I0.915 J0.000 F199.998
G2 X65.066 Y55.000 Z7.115 I-0.915 J0.000 F199.998
G2 X66.896 Y55.000 Z6.923 I0.915 J0.000 F199.998
G2 X65.066 Y55.000 Z6.731 I-0.915 J0.000 F199.998
G2 X66.896 Y55.000 Z6.538 I0.915 J0.000 F199.998
G2 X65.066 Y55.000 Z6.346 I-0.915 J0.000 F199.998
G2 X66.896 Y55.000 Z6.154 I0.915 J0.000 F199.998
G2 X65.066 Y55.000 Z5.962 I-0.915 J0.000 F199.998
G2 X66.896 Y55.000 Z5.769 I0.915 J0.000 F199.998
G2 X65.066 Y55.000 Z5.577 I-0.915 J0.000 F199.998
G2 X66.896 Y55.000 Z5.385 I0.915 J0.000 F199.998
G2 X65.066 Y55.000 Z5.192 I-0.915 J0.000 F199.998
G2 X66.896 Y55.000 Z5.000 I0.915 J0.000 F199.998
G2 X65.066 Y55.000 Z4.808 I-0.915 J0.000 F199.998
G2 X66.896 Y55.000 Z4.615 I0.915 J0.000 F199.998
G2 X65.066 Y55.000 Z4.423 I-0.915 J0.000 F199.998
G2 X66.896 Y55.000 Z4.231 I0.915 J0.000 F199.998
G2 X65.066 Y55.000 Z4.038 I-0.915 J0.000 F199.998
G2 X66.896 Y55.000 Z3.846 I0.915 J0.000 F199.998
G2 X65.066 Y55.000 Z3.654 I-0.915 J0.000 F199.998
G2 X66.896 Y55.000 Z3.462 I0.915 J0.000 F199.998
G2 X65.066 Y55.000 Z3.269 I-0.915 J0.000 F199.998
G2 X66.896 Y55.000 Z3.077 I0.915 J0.000 F199.998
G2 X65.066 Y55.000 Z2.885 I-0.915 J0.000 F199.998
G2 X66.896 Y55.000 Z2.692 I0.915 J0.000 F199.998
G2 X65.066 Y55.000 Z2.500 I-0.915 J0.000 F199.998
G2 X66.896 Y55.000 Z2.308 I0.915 J0.000 F199.998
G2 X65.066 Y55.000 Z2.115 I-0.915 J0.000 F199.998
G2 X66.896 Y55.000 Z1.923 I0.915 J0.000 F199.998
G2 X65.066 Y55.000 Z1.731 I-0.915 J0.000 F199.998
G2 X66.896 Y55.000 Z1.538 I0.915 J0.000 F199.998
G2 X65.066 Y55.000 Z1.346 I-0.915 J0.000 F199.998
G2 X66.896 Y55.000 Z1.154 I0.915 J0.000 F199.998
G2 X65.066 Y55.000 Z0.962 I-0.915 J0.000 F199.998
G2 X66.896 Y55.000 Z0.769 I0.915 J0.000 F199.998
G2 X65.066 Y55.000 Z0.577 I-0.915 J0.000 F199.998
G2 X66.896 Y55.000 Z0.385 I0.915 J0.000 F199.998
G2 X65.066 Y55.000 Z0.192 I-0.915 J0.000 F199.998
G2 X66.896 Y55.000 Z0.000 I0.915 J0.000 F199.998
G2 X65.066 Y55.000 Z0.000 I-0.915 J0.000 F199.998
G2 X66.896 Y55.000 Z0.000 I0.915 J0.000 F199.998
G0 Z23.000
G0 X70.634 Y40.000
G0 Z23.000
G1 Z10.000 F100.000
G2 X69.366 Y40.000 Z9.808 I-0.634 J0.000 F199.998
G2 X70.634 Y40.000 Z9.615 I0.634 J0.000 F199.998
G2 X69.366 Y40.000 Z9.423 I-0.634 J0.000 F199.998
G2 X70.634 Y40.000 Z9.231 I0.634 J0.000 F199.998
G2 X69.366 Y40.000 Z9.038 I-0.634 J0.000 F199.998
G2 X70.634 Y40.000 Z8.846 I0.634 J0.000 F199.998
G2 X69.366 Y40.000 Z8.654 I-0.634 J0.000 F199.998
G2 X70.634 Y40.000 Z8.462 I0.634 J0.000 F199.998
G2 X69.366 Y40.000 Z8.269 I-0.634 J0.000 F199.998
G2 X70.634 Y40.000 Z8.077 I0.634 J0.000 F199.998
G2 X69.366 Y40.000 Z7.885 I-0.634 J0.000 F199.998
G2 X70.634 Y40.000 Z7.692 I0.634 J0.000 F199.998
G2 X69.366 Y40.000 Z7.500 I-0.634 J0.000 F199.998
G2 X70.634 Y40.000 Z7.308 I0.634 J0.000 F199.998
G2 X69.366 Y40.000 Z7.115 I-0.634 J0.000 F199.998
G2 X70.634 Y40.000 Z6.923 I0.634 J0.000 F199.998
G2 X69.366 Y40.000 Z6.731 I-0.634 J0.000 F199.998
G2 X70.634 Y40.000 Z6.538 I0.634 J0.000 F199.998
G2 X69.366 Y40.000 Z6.346 I-0.634 J0.000 F199.998
G2 X70.634 Y40.000 Z6.154 I0.634 J0.000 F199.998
G2 X69.366 Y40.000 Z5.962 I-0.634 J0.000 F199.998
G2 X70.634 Y40.000 Z5.769 I0.634 J0.000 F199.998
G2 X69.366 Y40.000 Z5.577 I-0.634 J0.000 F199.998
G2 X70.634 Y40.000 Z5.385 I0.634 J0.000 F199.998
G2 X69.366 Y40.000 Z5.192 I-0.634 J0.000 F199.998
G2 X70.634 Y40.000 Z5.000 I0.634 J0.000 F199.998
G2 X69.366 Y40.000 Z4.808 I-0.634 J0.000 F199.998
G2 X70.634 Y40.000 Z4.615 I0.634 J0.000 F199.998
G2 X69.366 Y40.000 Z4.423 I-0.634 J0.000 F199.998
G2 X70.634 Y40.000 Z4.231 I0.634 J0.000 F199.998
G2 X69.366 Y40.000 Z4.038 I-0.634 J0.000 F199.998
G2 X70.634 Y40.000 Z3.846 I0.634 J0.000 F199.998
G2 X69.366 Y40.000 Z3.654 I-0.634 J0.000 F199.998
G2 X70.634 Y40.000 Z3.462 I0.634 J0.000 F199.998
G2 X69.366 Y40.000 Z3.269 I-0.634 J0.000 F199.998
G2 X70.634 Y40.000 Z3.077 I0.634 J0.000 F199.998
G2 X69.366 Y40.000 Z2.885 I-0.634 J0.000 F199.998
G2 X70.634 Y40.000 Z2.692 I0.634 J0.000 F199.998
G2 X69.366 Y40.000 Z2.500 I-0.634 J0.000 F199.998
G2 X70.634 Y40.000 Z2.308 I0.634 J0.000 F199.998
G2 X69.366 Y40.000 Z2.115 I-0.634 J0.000 F199.998
G2 X70.634 Y40.000 Z1.923 I0.634 J0.000 F199.998
G2 X69.366 Y40.000 Z1.731 I-0.634 J0.000 F199.998
G2 X70.634 Y40.000 Z1.538 I0.634 J0.000 F199.998
G2 X69.366 Y40.000 Z1.346 I-0.634 J0.000 F199.998
G2 X70.634 Y40.000 Z1.154 I0.634 J0.000 F199.998
G2 X69.366 Y40.000 Z0.962 I-0.634 J0.000 F199.998
G2 X70.634 Y40.000 Z0.769 I0.634 J0.000 F199.998
G2 X69.366 Y40.000 Z0.577 I-0.634 J0.000 F199.998
G2 X70.634 Y40.000 Z0.385 I0.634 J0.000 F199.998
G2 X69.366 Y40.000 Z0.192 I-0.634 J0.000 F199.998
G2 X70.634 Y40.000 Z0.000 I0.634 J0.000 F199.998
G2 X69.366 Y40.000 Z0.000 I-0.634 J0.000 F199.998
G2 X70.634 Y40.000 Z0.000 I0.634 J0.000 F199.998
G0 Z23.000
G0 X71.715 Y40.000
G0 Z23.000
G1 Z10.000 F100.000
G2 X68.285 Y40.000 Z9.808 I-1.715 J0.000 F199.998
G2 X71.715 Y40.000 Z9.615 I1.715 J0.000 F199.998
G2 X68.285 Y40.000 Z9.423 I-1.715 J0.000 F199.998
G2 X71.715 Y40.000 Z9.231 I1.715 J0.000 F199.998
G2 X68.285 Y40.000 Z9.038 I-1.715 J0.000 F199.998
G2 X71.715 Y40.000 Z8.846 I1.715 J0.000 F199.998
G2 X68.285 Y40.000 Z8.654 I-1.715 J0.000 F199.998
G2 X71.715 Y40.000 Z8.462 I1.715 J0.000 F199.998
G2 X68.285 Y40.000 Z8.269 I-1.715 J0.000 F199.998
G2 X71.715 Y40.000 Z8.077 I1.715 J0.000 F199.998
G2 X68.285 Y40.000 Z7.885 I-1.715 J0.000 F199.998
G2 X71.715 Y40.000 Z7.692 I1.715 J0.000 F199.998
G2 X68.285 Y40.000 Z7.500 I-1.715 J0.000 F199.998
G2 X71.715 Y40.000 Z7.308 I1.715 J0.000 F199.998
G2 X68.285 Y40.000 Z7.115 I-1.715 J0.000 F199.998
G2 X71.715 Y40.000 Z6.923 I1.715 J0.000 F199.998
G2 X68.285 Y40.000 Z6.731 I-1.715 J0.000 F199.998
G2 X71.715 Y40.000 Z6.538 I1.715 J0.000 F199.998
G2 X68.285 Y40.000 Z6.346 I-1.715 J0.000 F199.998
G2 X71.715 Y40.000 Z6.154 I1.715 J0.000 F199.998
G2 X68.285 Y40.000 Z5.962 I-1.715 J0.000 F199.998
G2 X71.715 Y40.000 Z5.769 I1.715 J0.000 F199.998
G2 X68.285 Y40.000 Z5.577 I-1.715 J0.000 F199.998
G2 X71.715 Y40.000 Z5.385 I1.715 J0.000 F199.998
G2 X68.285 Y40.000 Z5.192 I-1.715 J0.000 F199.998
G2 X71.715 Y40.000 Z5.000 I1.715 J0.000 F199.998
G2 X68.285 Y40.000 Z4.808 I-1.715 J0.000 F199.998
G2 X71.715 Y40.000 Z4.615 I1.715 J0.000 F199.998
G2 X68.285 Y40.000 Z4.423 I-1.715 J0.000 F199.998
G2 X71.715 Y40.000 Z4.231 I1.715 J0.000 F199.998
G2 X68.285 Y40.000 Z4.038 I-1.715 J0.000 F199.998
G2 X71.715 Y40.000 Z3.846 I1.715 J0.000 F199.998
G2 X68.285 Y40.000 Z3.654 I-1.715 J0.000 F199.998
G2 X71.715 Y40.000 Z3.462 I1.715 J0.000 F199.998
G2 X68.285 Y40.000 Z3.269 I-1.715 J0.000 F199.998
G2 X71.715 Y40.000 Z3.077 I1.715 J0.000 F199.998
G2 X68.285 Y40.000 Z2.885 I-1.715 J0.000 F199.998
G2 X71.715 Y40.000 Z2.692 I1.715 J0.000 F199.998
G2 X68.285 Y40.000 Z2.500 I-1.715 J0.000 F199.998
G2 X71.715 Y40.000 Z2.308 I1.715 J0.000 F199.998
G2 X68.285 Y40.000 Z2.115 I-1.715 J0.000 F199.998
G2 X71.715 Y40.000 Z1.923 I1.715 J0.000 F199.998
G2 X68.285 Y40.000 Z1.731 I-1.715 J0.000 F199.998
G2 X71.715 Y40.000 Z1.538 I1.715 J0.000 F199.998
G2 X68.285 Y40.000 Z1.346 I-1.715 J0.000 F199.998
G2 X71.715 Y40.000 Z1.154 I1.715 J0.000 F199.998
G2 X68.285 Y40.000 Z0.962 I-1.715 J0.000 F199.998
G2 X71.715 Y40.000 Z0.769 I1.715 J0.000 F199.998
G2 X68.285 Y40.000 Z0.577 I-1.715 J0.000 F199.998
G2 X71.715 Y40.000 Z0.385 I1.715 J0.000 F199.998
G2 X68.285 Y40.000 Z0.192 I-1.715 J0.000 F199.998
G2 X71.715 Y40.000 Z0.000 I1.715 J0.000 F199.998
G2 X68.285 Y40.000 Z0.000 I-1.715 J0.000 F199.998
G2 X71.715 Y40.000 Z0.000 I1.715 J0.000 F199.998
G0 Z23.000
G0 X66.896 Y25.000
G0 Z23.000
G1 Z10.000 F100.000
G2 X65.066 Y25.000 Z9.808 I-0.915 J0.000 F199.998
G2 X66.896 Y25.000 Z9.615 I0.915 J0.000 F199.998
G2 X65.066 Y25.000 Z9.423 I-0.915 J0.000 F199.998
G2 X66.896 Y25.000 Z9.231 I0.915 J0.000 F199.998
G2 X65.066 Y25.000 Z9.038 I-0.915 J0.000 F199.998
G2 X66.896 Y25.000 Z8.846 I0.915 J0.000 F199.998
G2 X65.066 Y25.000 Z8.654 I-0.915 J0.000 F199.998
G2 X66.896 Y25.000 Z8.462 I0.915 J0.000 F199.998
G2 X65.066 Y25.000 Z8.269 I-0.915 J0.000 F199.998
G2 X66.896 Y25.000 Z8.077 I0.915 J0.000 F199.998
G2 X65.066 Y25.000 Z7.885 I-0.915 J0.000 F199.998
G2 X66.896 Y25.000 Z7.692 I0.915 J0.000 F199.998
G2 X65.066 Y25.000 Z7.500 I-0.915 J0.000 F199.998
G2 X66.896 Y25.000 Z7.308 I0.915 J0.000 F199.998
G2 X65.066 Y25.000 Z7.115 I-0.915 J0.000 F199.998
G2 X66.896 Y25.000 Z6.923 I0.915 J0.000 F199.998
G2 X65.066 Y25.000 Z6.731 I-0.915 J0.000 F199.998
G2 X66.896 Y25.000 Z6.538 I0.915 J0.000 F199.998
G2 X65.066 Y25.000 Z6.346 I-0.915 J0.000 F199.998
G2 X66.896 Y25.000 Z6.154 I0.915 J0.000 F199.998
G2 X65.066 Y25.000 Z5.962 I-0.915 J0.000 F199.998
G2 X66.896 Y25.000 Z5.769 I0.915 J0.000 F199.998
G2 X65.066 Y25.000 Z5.577 I-0.915 J0.000 F199.998
G2 X66.896 Y25.000 Z5.385 I0.915 J0.000 F199.998
G2 X65.066 Y25.000 Z5.192 I-0.915 J0.000 F199.998
G2 X66.896 Y25.000 Z5.000 I0.915 J0.000 F199.998
G2 X65.066 Y25.000 Z4.808 I-0.915 J0.000 F199.998
G2 X66.896 Y25.000 Z4.615 I0.915 J0.000 F199.998
G2 X65.066 Y25.000 Z4.423 I-0.915 J0.000 F199.998
G2 X66.896 Y25.000 Z4.231 I0.915 J0.000 F199.998
G2 X65.066 Y25.000 Z4.038 I-0.915 J0.000 F199.998
G2 X66.896 Y25.000 Z3.846 I0.915 J0.000 F199.998
G2 X65.066 Y25.000 Z3.654 I-0.915 J0.000 F199.998
G2 X66.896 Y25.000 Z3.462 I0.915 J0.000 F199.998
G2 X65.066 Y25.000 Z3.269 I-0.915 J0.000 F199.998
G2 X66.896 Y25.000 Z3.077 I0.915 J0.000 F199.998
G2 X65.066 Y25.000 Z2.885 I-0.915 J0.000 F199.998
G2 X66.896 Y25.000 Z2.692 I0.915 J0.000 F199.998
G2 X65.066 Y25.000 Z2.500 I-0.915 J0.000 F199.998
G2 X66.896 Y25.000 Z2.308 I0.915 J0.000 F199.998
G2 X65.066 Y25.000 Z2.115 I-0.915 J0.000 F199.998
G2 X66.896 Y25.000 Z1.923 I0.915 J0.000 F199.998
G2 X65.066 Y25.000 Z1.731 I-0.915 J0.000 F199.998
G2 X66.896 Y25.000 Z1.538 I0.915 J0.000 F199.998
G2 X65.066 Y25.000 Z1.346 I-0.915 J0.000 F199.998
G2 X66.896 Y25.000 Z1.154 I0.915 J0.000 F199.998
G2 X65.066 Y25.000 Z0.962 I-0.915 J0.000 F199.998
G2 X66.896 Y25.000 Z0.769 I0.915 J0.000 F199.998
G2 X65.066 Y25.000 Z0.577 I-0.915 J0.000 F199.998
G2 X66.896 Y25.000 Z0.385 I0.915 J0.000 F199.998
G2 X65.066 Y25.000 Z0.192 I-0.915 J0.000 F199.998
G2 X66.896 Y25.000 Z0.000 I0.915 J0.000 F199.998
G2 X65.066 Y25.000 Z0.000 I-0.915 J0.000 F199.998
G2 X66.896 Y25.000 Z0.000 I0.915 J0.000 F199.998
G0 Z23.000
G0 X55.634 Y14.019
G0 Z23.000
G1 Z10.000 F100.000
G2 X54.366 Y14.019 Z9.808 I-0.634 J0.000 F199.998
G2 X55.634 Y14.019 Z9.615 I0.634 J0.000 F199.998
G2 X54.366 Y14.019 Z9.423 I-0.634 J0.000 F199.998
G2 X55.634 Y14.019 Z9.231 I0.634 J0.000 F199.998
G2 X54.366 Y14.019 Z9.038 I-0.634 J0.000 F199.998
G2 X55.634 Y14.019 Z8.846 I0.634 J0.000 F199.998
G2 X54.366 Y14.019 Z8.654 I-0.634 J0.000 F199.998
G2 X55.634 Y14.019 Z8.462 I0.634 J0.000 F199.998
G2 X54.366 Y14.019 Z8.269 I-0.634 J0.000 F199.998
G2 X55.634 Y14.019 Z8.077 I0.634 J0.000 F199.998
G2 X54.366 Y14.019 Z7.885 I-0.634 J0.000 F199.998
G2 X55.634 Y14.019 Z7.692 I0.634 J0.000 F199.998
G2 X54.366 Y14.019 Z7.500 I-0.634 J0.000 F199.998
G2 X55.634 Y14.019 Z7.308 I0.634 J0.000 F199.998
G2 X54.366 Y14.019 Z7.115 I-0.634 J0.000 F199.998
G2 X55.634 Y14.019 Z6.923 I0.634 J0.000 F199.998
G2 X54.366 Y14.019 Z6.731 I-0.634 J0.000 F199.998
G2 X55.634 Y14.019 Z6.538 I0.634 J0.000 F199.998
G2 X54.366 Y14.019 Z6.346 I-0.634 J0.000 F199.998
G2 X55.634 Y14.019 Z6.154 I0.634 J0.000 F199.998
G2 X54.366 Y14.019 Z5.962 I-0.634 J0.000 F199.998
G2 X55.634 Y14.019 Z5.769 I0.634 J0.000 F199.998
G2 X54.366 Y14.019 Z5.577 I-0.634 J0.000 F199.998
G2 X55.634 Y14.019 Z5.385 I0.634 J0.000 F199.998
G2 X54.366 Y14.019 Z5.192 I-0.634 J0.000 F199.998
G2 X55.634 Y14.019 Z5.000 I0.634 J0.000 F199.998
G2 X54.366 Y14.019 Z4.808 I-0.634 J0.000 F199.998
G2 X55.634 Y14.019 Z4.615 I0.634 J0.000 F199.998
G2 X54.366 Y14.019 Z4.423 I-0.634 J0.000 F199.998
G2 X55.634 Y14.019 Z4.231 I0.634 J0.000 F199.998
G2 X54.366 Y14.019 Z4.038 I-0.634 J0.000 F199.998
G2 X55.634 Y14.019 Z3.846 I0.634 J0.000 F199.998
G2 X54.366 Y14.019 Z3.654 I-0.634 J0.000 F199.998
G2 X55.634 Y14.019 Z3.462 I0.634 J0.000 F199.998
G2 X54.366 Y14.019 Z3.269 I-0.634 J0.000 F199.998
G2 X55.634 Y14.019 Z3.077 I0.634 J0.000 F199.998
G2 X54.366 Y14.019 Z2.885 I-0.634 J0.000 F199.998
G2 X55.634 Y14.019 Z2.692 I0.634 J0.000 F199.998
G2 X54.366 Y14.019 Z2.500 I-0.634 J0.000 F199.998
G2 X55.634 Y14.019 Z2.308 I0.634 J0.000 F199.998
G2 X54.366 Y14.019 Z2.115 I-0.634 J0.000 F199.998
G2 X55.634 Y14.019 Z1.923 I0.634 J0.000 F199.998
G2 X54.366 Y14.019 Z1.731 I-0.634 J0.000 F199.998
G2 X55.634 Y14.019 Z1.538 I0.634 J0.000 F199.998
G2 X54.366 Y14.019 Z1.346 I-0.634 J0.000 F199.998
G2 X55.634 Y14.019 Z1.154 I0.634 J0.000 F199.998
G2 X54.366 Y14.019 Z0.962 I-0.634 J0.000 F199.998
G2 X55.634 Y14.019 Z0.769 I0.634 J0.000 F199.998
G2 X54.366 Y14.019 Z0.577 I-0.634 J0.000 F199.998
G2 X55.634 Y14.019 Z0.385 I0.634 J0.000 F199.998
G2 X54.366 Y14.019 Z0.192 I-0.634 J0.000 F199.998
G2 X55.634 Y14.019 Z0.000 I0.634 J0.000 F199.998
G2 X54.366 Y14.019 Z0.000 I-0.634 J0.000 F199.998
G2 X55.634 Y14.019 Z0.000 I0.634 J0.000 F199.998
G0 Z23.000
G0 X56.715 Y14.019
G0 Z23.000
G1 Z10.000 F100.000
G2 X53.285 Y14.019 Z9.808 I-1.715 J0.000 F199.998
G2 X56.715 Y14.019 Z9.615 I1.715 J0.000 F199.998
G2 X53.285 Y14.019 Z9.423 I-1.715 J0.000 F199.998
G2 X56.715 Y14.019 Z9.231 I1.715 J0.000 F199.998
G2 X53.285 Y14.019 Z9.038 I-1.715 J0.000 F199.998
G2 X56.715 Y14.019 Z8.846 I1.715 J0.000 F199.998
G2 X53.285 Y14.019 Z8.654 I-1.715 J0.000 F199.998
G2 X56.715 Y14.019 Z8.462 I1.715 J0.000 F199.998
G2 X53.285 Y14.019 Z8.269 I-1.715 J0.000 F199.998
G2 X56.715 Y14.019 Z8.077 I1.715 J0.000 F199.998
G2 X53.285 Y14.019 Z7.885 I-1.715 J0.000 F199.998
G2 X56.715 Y14.019 Z7.692 I1.715 J0.000 F199.998
G2 X53.285 Y14.019 Z7.500 I-1.715 J0.000 F199.998
G2 X56.715 Y14.019 Z7.308 I1.715 J0.000 F199.998
G2 X53.285 Y14.019 Z7.115 I-1.715 J0.000 F199.998
G2 X56.715 Y14.019 Z6.923 I1.715 J0.000 F199.998
G2 X53.285 Y14.019 Z6.731 I-1.715 J0.000 F199.998
G2 X56.715 Y14.019 Z6.538 I1.715 J0.000 F199.998
G2 X53.285 Y14.019 Z6.346 I-1.715 J0.000 F199.998
G2 X56.715 Y14.019 Z6.154 I1.715 J0.000 F199.998
G2 X53.285 Y14.019 Z5.962 I-1.715 J0.000 F199.998
G2 X56.715 Y14.019 Z5.769 I1.715 J0.000 F199.998
G2 X53.285 Y14.019 Z5.577 I-1.715 J0.000 F199.998
G2 X56.715 Y14.019 Z5.385 I1.715 J0.000 F199.998
G2 X53.285 Y14.019 Z5.192 I-1.715 J0.000 F199.998
G2 X56.715 Y14.019 Z5.000 I1.715 J0.000 F199.998
G2 X53.285 Y14.019 Z4.808 I-1.715 J0.000 F199.998
G2 X56.715 Y14.019 Z4.615 I1.715 J0.000 F199.998
G2 X53.285 Y14.019 Z4.423 I-1.715 J0.000 F199.998
G2 X56.715 Y14.019 Z4.231 I1.715 J0.000 F199.998
G2 X53.285 Y14.019 Z4.038 I-1.715 J0.000 F199.998
G2 X56.715 Y14.019 Z3.846 I1.715 J0.000 F199.998
G2 X53.285 Y14.019 Z3.654 I-1.715 J0.000 F199.998
G2 X56.715 Y14.019 Z3.462 I1.715 J0.000 F199.998
G2 X53.285 Y14.019 Z3.269 I-1.715 J0.000 F199.998
G2 X56.715 Y14.019 Z3.077 I1.715 J0.000 F199.998
G2 X53.285 Y14.019 Z2.885 I-1.715 J0.000 F199.998
G2 X56.715 Y14.019 Z2.692 I1.715 J0.000 F199.998
G2 X53.285 Y14.019 Z2.500 I-1.715 J0.000 F199.998
G2 X56.715 Y14.019 Z2.308 I1.715 J0.000 F199.998
G2 X53.285 Y14.019 Z2.115 I-1.715 J0.000 F199.998
G2 X56.715 Y14.019 Z1.923 I1.715 J0.000 F199.998
G2 X53.285 Y14.019 Z1.731 I-1.715 J0.000 F199.998
G2 X56.715 Y14.019 Z1.538 I1.715 J0.000 F199.998
G2 X53.285 Y14.019 Z1.346 I-1.715 J0.000 F199.998
G2 X56.715 Y14.019 Z1.154 I1.715 J0.000 F199.998
G2 X53.285 Y14.019 Z0.962 I-1.715 J0.000 F199.998
G2 X56.715 Y14.019 Z0.769 I1.715 J0.000 F199.998
G2 X53.285 Y14.019 Z0.577 I-1.715 J0.000 F199.998
G2 X56.715 Y14.019 Z0.385 I1.715 J0.000 F199.998
G2 X53.285 Y14.019 Z0.192 I-1.715 J0.000 F199.998
G2 X56.715 Y14.019 Z0.000 I1.715 J0.000 F199.998
G2 X53.285 Y14.019 Z0.000 I-1.715 J0.000 F199.998
G2 X56.715 Y14.019 Z0.000 I1.715 J0.000 F199.998
G0 Z23.000
G0 X40.915 Y10.000
G0 Z23.000
G1 Z10.000 F100.000
G2 X39.085 Y10.000 Z9.808 I-0.915 J0.000 F199.998
G2 X40.915 Y10.000 Z9.615 I0.915 J0.000 F199.998
G2 X39.085 Y10.000 Z9.423 I-0.915 J0.000 F199.998
G2 X40.915 Y10.000 Z9.231 I0.915 J0.000 F199.998
G2 X39.085 Y10.000 Z9.038 I-0.915 J0.000 F199.998
G2 X40.915 Y10.000 Z8.846 I0.915 J0.000 F199.998
G2 X39.085 Y10.000 Z8.654 I-0.915 J0.000 F199.998
G2 X40.915 Y10.000 Z8.462 I0.915 J0.000 F199.998
G2 X39.085 Y10.000 Z8.269 I-0.915 J0.000 F199.998
G2 X40.915 Y10.000 Z8.077 I0.915 J0.000 F199.998
G2 X39.085 Y10.000 Z7.885 I-0.915 J0.000 F199.998
G2 X40.915 Y10.000 Z7.692 I0.915 J0.000 F199.998
G2 X39.085 Y10.000 Z7.500 I-0.915 J0.000 F199.998
G2 X40.915 Y10.000 Z7.308 I0.915 J0.000 F199.998
G2 X39.085 Y10.000 Z7.115 I-0.915 J0.000 F199.998
G2 X40.915 Y10.000 Z6.923 I0.915 J0.000 F199.998
G2 X39.085 Y10.000 Z6.731 I-0.915 J0.000 F199.998
G2 X40.915 Y10.000 Z6.538 I0.915 J0.000 F199.998
G2 X39.085 Y10.000 Z6.346 I-0.915 J0.000 F199.998
G2 X40.915 Y10.000 Z6.154 I0.915 J0.000 F199.998
G2 X39.085 Y10.000 Z5.962 I-0.915 J0.000 F199.998
G2 X40.915 Y10.000 Z5.769 I0.915 J0.000 F199.998
G2 X39.085 Y10.000 Z5.577 I-0.915 J0.000 F199.998
G2 X40.915 Y10.000 Z5.385 I0.915 J0.000 F199.998
G2 X39.085 Y10.000 Z5.192 I-0.915 J0.000 F199.998
G2 X40.915 Y10.000 Z5.000 I0.915 J0.000 F199.998
G2 X39.085 Y10.000 Z4.808 I-0.915 J0.000 F199.998
G2 X40.915 Y10.000 Z4.615 I0.915 J0.000 F199.998
G2 X39.085 Y10.000 Z4.423 I-0.915 J0.000 F199.998
G2 X40.915 Y10.000 Z4.231 I0.915 J0.000 F199.998
G2 X39.085 Y10.000 Z4.038 I-0.915 J0.000 F199.998
G2 X40.915 Y10.000 Z3.846 I0.915 J0.000 F199.998
G2 X39.085 Y10.000 Z3.654 I-0.915 J0.000 F199.998
G2 X40.915 Y10.000 Z3.462 I0.915 J0.000 F199.998
G2 X39.085 Y10.000 Z3.269 I-0.915 J0.000 F199.998
G2 X40.915 Y10.000 Z3.077 I0.915 J0.000 F199.998
G2 X39.085 Y10.000 Z2.885 I-0.915 J0.000 F199.998
G2 X40.915 Y10.000 Z2.692 I0.915 J0.000 F199.998
G2 X39.085 Y10.000 Z2.500 I-0.915 J0.000 F199.998
G2 X40.915 Y10.000 Z2.308 I0.915 J0.000 F199.998
G2 X39.085 Y10.000 Z2.115 I-0.915 J0.000 F199.998
G2 X40.915 Y10.000 Z1.923 I0.915 J0.000 F199.998
G2 X39.085 Y10.000 Z1.731 I-0.915 J0.000 F199.998
G2 X40.915 Y10.000 Z1.538 I0.915 J0.000 F199.998
G2 X39.085 Y10.000 Z1.346 I-0.915 J0.000 F199.998
G2 X40.915 Y10.000 Z1.154 I0.915 J0.000 F199.998
G2 X39.085 Y10.000 Z0.962 I-0.915 J0.000 F199.998
G2 X40.915 Y10.000 Z0.769 I0.915 J0.000 F199.998
G2 X39.085 Y10.000 Z0.577 I-0.915 J0.000 F199.998
G2 X40.915 Y10.000 Z0.385 I0.915 J0.000 F199.998
G2 X39.085 Y10.000 Z0.192 I-0.915 J0.000 F199.998
G2 X40.915 Y10.000 Z0.000 I0.915 J0.000 F199.998
G2 X39.085 Y10.000 Z0.000 I-0.915 J0.000 F199.998
G2 X40.915 Y10.000 Z0.000 I0.915 J0.000 F199.998
G0 Z23.000
G0 X25.634 Y14.019
G0 Z23.000
G1 Z10.000 F100.000
G2 X24.366 Y14.019 Z9.808 I-0.634 J0.000 F199.998
G2 X25.634 Y14.019 Z9.615 I0.634 J0.000 F199.998
G2 X24.366 Y14.019 Z9.423 I-0.634 J0.000 F199.998
G2 X25.634 Y14.019 Z9.231 I0.634 J0.000 F199.998
G2 X24.366 Y14.019 Z9.038 I-0.634 J0.000 F199.998
G2 X25.634 Y14.019 Z8.846 I0.634 J0.000 F199.998
G2 X24.366 Y14.019 Z8.654 I-0.634 J0.000 F199.998
G2 X25.634 Y14.019 Z8.462 I0.634 J0.000 F199.998
G2 X24.366 Y14.019 Z8.269 I-0.634 J0.000 F199.998
G2 X25.634 Y14.019 Z8.077 I0.634 J0.000 F199.998
G2 X24.366 Y14.019 Z7.885 I-0.634 J0.000 F199.998
G2 X25.634 Y14.019 Z7.692 I0.634 J0.000 F199.998
G2 X24.366 Y14.019 Z7.500 I-0.634 J0.000 F199.998
G2 X25.634 Y14.019 Z7.308 I0.634 J0.000 F199.998
G2 X24.366 Y14.019 Z7.115 I-0.634 J0.000 F199.998
G2 X25.634 Y14.019 Z6.923 I0.634 J0.000 F199.998
G2 X24.366 Y14.019 Z6.731 I-0.634 J0.000 F199.998
G2 X25.634 Y14.019 Z6.538 I0.634 J0.000 F199.998
G2 X24.366 Y14.019 Z6.346 I-0.634 J0.000 F199.998
G2 X25.634 Y14.019 Z6.154 I0.634 J0.000 F199.998
G2 X24.366 Y14.019 Z5.962 I-0.634 J0.000 F199.998
G2 X25.634 Y14.019 Z5.769 I0.634 J0.000 F199.998
G2 X24.366 Y14.019 Z5.577 I-0.634 J0.000 F199.998
G2 X25.634 Y14.019 Z5.385 I0.634 J0.000 F199.998
G2 X24.366 Y14.019 Z5.192 I-0.634 J0.000 F199.998
G2 X25.634 Y14.019 Z5.000 I0.634 J0.000 F199.998
G2 X24.366 Y14.019 Z4.808 I-0.634 J0.000 F199.998
G2 X25.634 Y14.019 Z4.615 I0.634 J0.000 F199.998
G2 X24.366 Y14.019 Z4.423 I-0.634 J0.000 F199.998
G2 X25.634 Y14.019 Z4.231 I0.634 J0.000 F199.998
G2 X24.366 Y14.019 Z4.038 I-0.634 J0.000 F199.998
G2 X25.634 Y14.019 Z3.846 I0.634 J0.000 F199.998
G2 X24.366 Y14.019 Z3.654 I-0.634 J0.000 F199.998
G2 X25.634 Y14.019 Z3.462 I0.634 J0.000 F199.998
G2 X24.366 Y14.019 Z3.269 I-0.634 J0.000 F199.998
G2 X25.634 Y14.019 Z3.077 I0.634 J0.000 F199.998
G2 X24.366 Y14.019 Z2.885 I-0.634 J0.000 F199.998
G2 X25.634 Y14.019 Z2.692 I0.634 J0.000 F199.998
G2 X24.366 Y14.019 Z2.500 I-0.634 J0.000 F199.998
G2 X25.634 Y14.019 Z2.308 I0.634 J0.000 F199.998
G2 X24.366 Y14.019 Z2.115 I-0.634 J0.000 F199.998
G2 X25.634 Y14.019 Z1.923 I0.634 J0.000 F199.998
G2 X24.366 Y14.019 Z1.731 I-0.634 J0.000 F199.998
G2 X25.634 Y14.019 Z1.538 I0.634 J0.000 F199.998
G2 X24.366 Y14.019 Z1.346 I-0.634 J0.000 F199.998
G2 X25.634 Y14.019 Z1.154 I0.634 J0.000 F199.998
G2 X24.366 Y14.019 Z0.962 I-0.634 J0.000 F199.998
G2 X25.634 Y14.019 Z0.769 I0.634 J0.000 F199.998
G2 X24.366 Y14.019 Z0.577 I-0.634 J0.000 F199.998
G2 X25.634 Y14.019 Z0.385 I0.634 J0.000 F199.998
G2 X24.366 Y14.019 Z0.192 I-0.634 J0.000 F199.998
G2 X25.634 Y14.019 Z0.000 I0.634 J0.000 F199.998
G2 X24.366 Y14.019 Z0.000 I-0.634 J0.000 F199.998
G2 X25.634 Y14.019 Z0.000 I0.634 J0.000 F199.998
G0 Z23.000
G0 X26.715 Y14.019
G0 Z23.000
G1 Z10.000 F100.000
G2 X23.285 Y14.019 Z9.808 I-1.715 J0.000 F199.998
G2 X26.715 Y14.019 Z9.615 I1.715 J0.000 F199.998
G2 X23.285 Y14.019 Z9.423 I-1.715 J0.000 F199.998
G2 X26.715 Y14.019 Z9.231 I1.715 J0.000 F199.998
G2 X23.285 Y14.019 Z9.038 I-1.715 J0.000 F199.998
G2 X26.715 Y14.019 Z8.846 I1.715 J0.000 F199.998
G2 X23.285 Y14.019 Z8.654 I-1.715 J0.000 F199.998
G2 X26.715 Y14.019 Z8.462 I1.715 J0.000 F199.998
G2 X23.285 Y14.019 Z8.269 I-1.715 J0.000 F199.998
G2 X26.715 Y14.019 Z8.077 I1.715 J0.000 F199.998
G2 X23.285 Y14.019 Z7.885 I-1.715 J0.000 F199.998
G2 X26.715 Y14.019 Z7.692 I1.715 J0.000 F199.998
G2 X23.285 Y14.019 Z7.500 I-1.715 J0.000 F199.998
G2 X26.715 Y14.019 Z7.308 I1.715 J0.000 F199.998
G2 X23.285 Y14.019 Z7.115 I-1.715 J0.000 F199.998
G2 X26.715 Y14.019 Z6.923 I1.715 J0.000 F199.998
G2 X23.285 Y14.019 Z6.731 I-1.715 J0.000 F199.998
G2 X26.715 Y14.019 Z6.538 I1.715 J0.000 F199.998
G2 X23.285 Y14.019 Z6.346 I-1.715 J0.000 F199.998
G2 X26.715 Y14.019 Z6.154 I1.715 J0.000 F199.998
G2 X23.285 Y14.019 Z5.962 I-1.715 J0.000 F199.998
G2 X26.715 Y14.019 Z5.769 I1.715 J0.000 F199.998
G2 X23.285 Y14.019 Z5.577 I-1.715 J0.000 F199.998
G2 X26.715 Y14.019 Z5.385 I1.715 J0.000 F199.998
G2 X23.285 Y14.019 Z5.192 I-1.715 J0.000 F199.998
G2 X26.715 Y14.019 Z5.000 I1.715 J0.000 F199.998
G2 X23.285 Y14.019 Z4.808 I-1.715 J0.000 F199.998
G2 X26.715 Y14.019 Z4.615 I1.715 J0.000 F199.998
G2 X23.285 Y14.019 Z4.423 I-1.715 J0.000 F199.998
G2 X26.715 Y14.019 Z4.231 I1.715 J0.000 F199.998
G2 X23.285 Y14.019 Z4.038 I-1.715 J0.000 F199.998
G2 X26.715 Y14.019 Z3.846 I1.715 J0.000 F199.998
G2 X23.285 Y14.019 Z3.654 I-1.715 J0.000 F199.998
G2 X26.715 Y14.019 Z3.462 I1.715 J0.000 F199.998
G2 X23.285 Y14.019 Z3.269 I-1.715 J0.000 F199.998
G2 X26.715 Y14.019 Z3.077 I1.715 J0.000 F199.998
G2 X23.285 Y14.019 Z2.885 I-1.715 J0.000 F199.998
G2 X26.715 Y14.019 Z2.692 I1.715 J0.000 F199.998
G2 X23.285 Y14.019 Z2.500 I-1.715 J0.000 F199.998
G2 X26.715 Y14.019 Z2.308 I1.715 J0.000 F199.998
G2 X23.285 Y14.019 Z2.115 I-1.715 J0.000 F199.998
G2 X26.715 Y14.019 Z1.923 I1.715 J0.000 F199.998
G2 X23.285 Y14.019 Z1.731 I-1.715 J0.000 F199.998
G2 X26.715 Y14.019 Z1.538 I1.715 J0.000 F199.998
G2 X23.285 Y14.019 Z1.346 I-1.715 J0.000 F199.998
G2 X26.715 Y14.019 Z1.154 I1.715 J0.000 F199.998
G2 X23.285 Y14.019 Z0.962 I-1.715 J0.000 F199.998
G2 X26.715 Y14.019 Z0.769 I1.715 J0.000 F199.998
G2 X23.285 Y14.019 Z0.577 I-1.715 J0.000 F199.998
G2 X26.715 Y14.019 Z0.385 I1.715 J0.000 F199.998
G2 X23.285 Y14.019 Z0.192 I-1.715 J0.000 F199.998
G2 X26.715 Y14.019 Z0.000 I1.715 J0.000 F199.998
G2 X23.285 Y14.019 Z0.000 I-1.715 J0.000 F199.998
G2 X26.715 Y14.019 Z0.000 I1.715 J0.000 F199.998
G0 Z23.000
G0 Z25.000
(Finish operation: Helix014)
(Begin postamble)
M5
G17 G90
M2
