
;Exported by FreeCAD
;Post Processor: centroid_post
;CAM file: C:/Users/Eric/freecadModels/mesDesigns/Paramoteur/Plaque hélice/PlaqueHélice.FCStd
;Output Time: 2022-05-30 15:57:35.086447
G90 G80 G40 G49
;T7=TC__6_ball_L24_Q007
;begin preamble
G53 G00 G17
G21
;begin operation
;TC: 6 ball L24 Q007
M6 T7
M3 S8000
;end operation: TC: 6 ball L24 Q007
;begin operation
G54
G0 Z25.0000
;end operation: Fixture
;begin operation
;MillFace003
G0 Z25.0000
G0 X69.0617 Y69.0616
G0 Z23.0000
G1 X69.0617 Y69.0616 Z19.5000 F100.0
G2 X38.1964 Y-1.0592 Z19.5000 I-29.0615 J-29.0614 F250.0
G1 X38.2219 Y0.0403 Z19.5000 F250.0
G1 X38.1964 Y-1.0592 Z19.5000 F250.0
G2 X-1.0550 Y41.9079 Z19.5000 I1.8034 J41.0595 F250.0
G2 X42.0117 Y81.0500 Z19.5000 I41.0548 J-1.9077 F250.0
G2 X69.0617 Y69.0616 Z19.5000 I-2.0114 J-41.0498 F250.0
G0 Z25.0000
G0 X68.2842 Y68.2840 Z25.0000
G0 X68.2842 Y68.2840 Z23.0000
G1 X68.2842 Y68.2840 Z19.5000 F100.0
G3 X41.9165 Y79.9533 Z19.5000 I-28.2834 J-28.2841 F250.0
G3 X0.0427 Y41.8473 Z19.5000 I-1.9173 J-39.9533 F250.0
G3 X38.2219 Y0.0403 Z19.5000 I39.9566 J-1.8473 F250.0
G3 X68.2842 Y68.2840 Z19.5000 I1.7788 J39.9597 F250.0
G0 Z25.0000
G0 X55.2873 Y66.0306 Z25.0000
G0 X55.2873 Y66.0306 Z23.0000
G1 X55.2873 Y66.0306 Z19.5000 F100.0
G2 X55.0218 Y65.6900 Z19.5000 I-0.2873 J-0.0498 F250.0
G2 X54.7092 Y65.9590 Z19.5000 I-0.0218 J0.2908 F250.0
G2 X54.9782 Y66.2715 Z19.5000 I0.2908 J0.0218 F250.0
G2 X55.2873 Y66.0306 Z19.5000 I0.0218 J-0.2908 F250.0
G0 Z25.0000
G0 X45.0890 Y48.6645 Z25.0000
G0 X45.0890 Y48.6645 Z23.0000
G1 X45.0890 Y48.6645 Z19.5000 F100.0
G3 X40.3849 Y50.0404 Z19.5000 I-5.0871 J-8.6626 F250.0
G3 X39.6151 Y29.9596 Z19.5000 I-0.3849 J-10.0404 F250.0
G1 X39.7301 Y29.9596 Z19.5000 F250.0
G1 X39.7301 Y32.9596 Z19.5000 F250.0
G1 X39.7301 Y29.9596 Z19.5000 F250.0
G3 X45.0890 Y48.6645 Z19.5000 I0.2717 J10.0422 F250.0
G0 Z25.0000
G0 X43.5682 Y46.0752 Z25.0000
G0 X43.5682 Y46.0752 Z23.0000
G1 X43.5682 Y46.0752 Z19.5000 F100.0
G2 X39.7301 Y32.9596 Z19.5000 I-3.5682 J-6.0752 F250.0
G2 X40.2699 Y47.0404 Z19.5000 I0.2699 J7.0404 F250.0
G2 X47.0404 Y39.7301 Z19.5000 I-0.2699 J-7.0404 F250.0
G2 X39.7301 Y32.9596 Z19.5000 I-7.0404 J0.2699 F250.0
G2 X40.2699 Y47.0404 Z19.5000 I0.2699 J7.0404 F250.0
G2 X43.5682 Y46.0752 Z19.5000 I-0.2699 J-7.0404 F250.0
G0 Z25.0000
G0 X69.7158 Y40.0653 Z25.0000
G0 X69.7158 Y40.0653 Z23.0000
G1 X69.7158 Y40.0653 Z19.5000 F100.0
G2 X69.9782 Y40.2908 Z19.5000 I0.2842 J-0.0653 F250.0
G2 X70.0218 Y39.7092 Z19.5000 I0.0218 J-0.2908 F250.0
G2 X69.7158 Y40.0653 Z19.5000 I-0.0218 J0.2908 F250.0
G0 Z25.0000
G0 X55.1434 Y14.2731 Z25.0000
G0 X55.1434 Y14.2731 Z23.0000
G1 X55.1434 Y14.2731 Z19.5000 F100.0
G2 X55.0218 Y13.7285 Z19.5000 I-0.1434 J-0.2539 F250.0
G2 X54.7092 Y13.9974 Z19.5000 I-0.0218 J0.2908 F250.0
G2 X54.9782 Y14.3100 Z19.5000 I0.2908 J0.0218 F250.0
G2 X55.1434 Y14.2731 Z19.5000 I0.0218 J-0.2908 F250.0
G0 Z25.0000
G0 X25.2916 Y14.0217 Z25.0000
G0 X25.2916 Y14.0217 Z23.0000
G1 X25.2916 Y14.0217 Z19.5000 F100.0
G2 X25.0218 Y13.7285 Z19.5000 I-0.2916 J-0.0025 F250.0
G2 X24.7092 Y13.9974 Z19.5000 I-0.0218 J0.2908 F250.0
G2 X24.9782 Y14.3100 Z19.5000 I0.2908 J0.0218 F250.0
G2 X25.2916 Y14.0217 Z19.5000 I0.0218 J-0.2908 F250.0
G0 Z25.0000
G0 X10.1479 Y39.7487 Z25.0000
G0 X10.1479 Y39.7487 Z23.0000
G1 X10.1479 Y39.7487 Z19.5000 F100.0
G2 X10.0218 Y39.7092 Z19.5000 I-0.1479 J0.2513 F250.0
G2 X9.7092 Y39.9782 Z19.5000 I-0.0218 J0.2908 F250.0
G2 X9.9782 Y40.2908 Z19.5000 I0.2908 J0.0218 F250.0
G2 X10.1479 Y39.7487 Z19.5000 I0.0218 J-0.2908 F250.0
G0 Z25.0000
G0 X24.8563 Y65.7270 Z25.0000
G0 X24.8563 Y65.7270 Z23.0000
G1 X24.8563 Y65.7270 Z19.5000 F100.0
G2 X24.9782 Y66.2715 Z19.5000 I0.1437 J0.2537 F250.0
G2 X25.0218 Y65.6900 Z19.5000 I0.0218 J-0.2908 F250.0
G2 X24.8563 Y65.7270 Z19.5000 I-0.0218 J0.2908 F250.0
G1 X24.8563 Y65.7270 Z19.0000 F100.0
G2 X24.9782 Y66.2715 Z19.0000 I0.1437 J0.2537 F250.0
G2 X25.0218 Y65.6900 Z19.0000 I0.0218 J-0.2908 F250.0
G2 X24.8563 Y65.7270 Z19.0000 I-0.0218 J0.2908 F250.0
G1 X24.8563 Y65.7270 Z19.0000 F100.0
G2 X24.9782 Y66.2715 Z19.0000 I0.1437 J0.2537 F250.0
G2 X25.0218 Y65.6900 Z19.0000 I0.0218 J-0.2908 F250.0
G2 X24.8563 Y65.7270 Z19.0000 I-0.0218 J0.2908 F250.0
G0 Z25.0000
G0 X19.4559 Y74.9019 Z25.0000
G0 X19.4559 Y74.9019 Z23.0000
G1 X19.4559 Y74.9019 Z19.0000 F100.0
G3 X39.0781 Y-0.4895 Z19.0000 I20.5439 J-34.9023 F250.0
G3 X40.9902 Y80.4872 Z19.0000 I0.9221 J40.4891 F250.0
G3 X19.4559 Y74.9019 Z19.0000 I-0.9904 J-40.4875 F250.0
G1 X19.4559 Y74.9019 Z19.0000 F100.0
G3 X39.0781 Y-0.4895 Z19.0000 I20.5439 J-34.9023 F250.0
G3 X40.9902 Y80.4872 Z19.0000 I0.9221 J40.4891 F250.0
G3 X19.4559 Y74.9019 Z19.0000 I-0.9904 J-40.4875 F250.0
G0 Z25.0000
G0 X19.1516 Y75.4189 Z25.0000
G0 X19.1516 Y75.4189 Z23.0000
G1 X19.1516 Y75.4189 Z19.0000 F100.0
G2 X42.0117 Y81.0500 Z19.0000 I20.8484 J-35.4189 F250.0
G2 X39.0644 Y-1.0794 Z19.0000 I-2.0068 J-41.0456 F250.0
G1 X39.0781 Y-0.4895 Z19.0000 F250.0
G1 X39.0644 Y-1.0794 Z19.0000 F250.0
G1 X38.1726 Y-1.0587 Z19.0000 F250.0
G2 X19.1516 Y75.4189 Z19.0000 I1.8274 J41.0587 F250.0
G1 X19.1516 Y75.4189 Z19.0000 F100.0
G2 X42.0117 Y81.0500 Z19.0000 I20.8484 J-35.4189 F250.0
G2 X39.0644 Y-1.0794 Z19.0000 I-2.0068 J-41.0456 F250.0
G1 X39.0781 Y-0.4895 Z19.0000 F250.0
G1 X39.0644 Y-1.0794 Z19.0000 F250.0
G1 X38.1726 Y-1.0587 Z19.0000 F250.0
G2 X19.1516 Y75.4189 Z19.0000 I1.8274 J41.0587 F250.0
G0 Z25.0000
G0 X35.1568 Y48.2281 Z25.0000
G0 X35.1568 Y48.2281 Z23.0000
G1 X35.1568 Y48.2281 Z19.0000 F100.0
G3 X39.2509 Y30.4817 Z19.0000 I4.8432 J-8.2281 F250.0
G1 X39.8822 Y30.4569 Z19.0000 F250.0
G1 X40.0000 Y33.4546 Z19.0000 F250.0
G1 X39.8822 Y30.4569 Z19.0000 F250.0
G3 X40.7491 Y49.5183 Z19.0000 I0.1200 J9.5449 F250.0
G3 X35.1568 Y48.2281 Z19.0000 I-0.7491 J-9.5183 F250.0
G1 X35.1568 Y48.2281 Z19.0000 F100.0
G3 X39.2509 Y30.4817 Z19.0000 I4.8432 J-8.2281 F250.0
G1 X39.8822 Y30.4569 Z19.0000 F250.0
G1 X40.0000 Y33.4546 Z19.0000 F250.0
G1 X39.8822 Y30.4569 Z19.0000 F250.0
G3 X40.7491 Y49.5183 Z19.0000 I0.1200 J9.5449 F250.0
G3 X35.1568 Y48.2281 Z19.0000 I-0.7491 J-9.5183 F250.0
G0 Z25.0000
G0 X36.6797 Y45.6407 Z25.0000
G0 X36.6797 Y45.6407 Z23.0000
G1 X36.6797 Y45.6407 Z19.0000 F100.0
G2 X40.0000 Y46.5454 Z19.0000 I3.3203 J-5.6407 F250.0
G2 X40.3958 Y33.4702 Z19.0000 I0.0018 J-6.5435 F250.0
G1 X40.2780 Y36.4679 Z19.0000 F250.0
G1 X40.3950 Y36.4817 Z19.0000 F250.0
G1 X40.0424 Y39.4609 Z19.0000 F250.0
G2 X39.9576 Y40.5391 Z19.0000 I-0.0424 J0.5391 F250.0
G2 X40.5391 Y40.0424 Z19.0000 I0.0424 J-0.5391 F250.0
G2 X40.0424 Y39.4609 Z19.0000 I-0.5391 J-0.0424 F250.0
G1 X40.3950 Y36.4817 Z19.0000 F250.0
G3 X39.7220 Y43.5321 Z19.0000 I-0.3938 J3.5197 F250.0
G3 X40.2780 Y36.4679 Z19.0000 I0.2780 J-3.5321 F250.0
G1 X40.3958 Y33.4702 Z19.0000 F250.0
G1 X40.0000 Y33.4546 Z19.0000 F250.0
G2 X36.6797 Y45.6407 Z19.0000 I0.0000 J6.5454 F250.0
G1 X36.6797 Y45.6407 Z19.0000 F100.0
G2 X40.0000 Y46.5454 Z19.0000 I3.3203 J-5.6407 F250.0
G2 X40.3958 Y33.4702 Z19.0000 I0.0018 J-6.5435 F250.0
G1 X40.2780 Y36.4679 Z19.0000 F250.0
G1 X40.3950 Y36.4817 Z19.0000 F250.0
G1 X40.0424 Y39.4609 Z19.0000 F250.0
G2 X39.9576 Y40.5391 Z19.0000 I-0.0424 J0.5391 F250.0
G2 X40.5391 Y40.0424 Z19.0000 I0.0424 J-0.5391 F250.0
G2 X40.0424 Y39.4609 Z19.0000 I-0.5391 J-0.0424 F250.0
G1 X40.3950 Y36.4817 Z19.0000 F250.0
G3 X39.7220 Y43.5321 Z19.0000 I-0.3938 J3.5197 F250.0
G3 X40.2780 Y36.4679 Z19.0000 I0.2780 J-3.5321 F250.0
G1 X40.3958 Y33.4702 Z19.0000 F250.0
G1 X40.0000 Y33.4546 Z19.0000 F250.0
G2 X36.6797 Y45.6407 Z19.0000 I0.0000 J6.5454 F250.0
G0 Z25.0000
G0 X10.2853 Y40.0603 Z25.0000
G0 X10.2853 Y40.0603 Z23.0000
G1 X10.2853 Y40.0603 Z19.0000 F100.0
G2 X10.0218 Y39.7092 Z19.0000 I-0.2853 J-0.0603 F250.0
G2 X9.7092 Y39.9782 Z19.0000 I-0.0218 J0.2908 F250.0
G2 X9.9782 Y40.2908 Z19.0000 I0.2908 J0.0218 F250.0
G2 X10.2853 Y40.0603 Z19.0000 I0.0218 J-0.2908 F250.0
G1 X10.2853 Y40.0603 Z19.0000 F100.0
G2 X10.0218 Y39.7092 Z19.0000 I-0.2853 J-0.0603 F250.0
G2 X9.7092 Y39.9782 Z19.0000 I-0.0218 J0.2908 F250.0
G2 X9.9782 Y40.2908 Z19.0000 I0.2908 J0.0218 F250.0
G2 X10.2853 Y40.0603 Z19.0000 I0.0218 J-0.2908 F250.0
G0 Z25.0000
G0 X24.8566 Y14.2731 Z25.0000
G0 X24.8566 Y14.2731 Z23.0000
G1 X24.8566 Y14.2731 Z19.0000 F100.0
G2 X24.9782 Y14.3100 Z19.0000 I0.1434 J-0.2539 F250.0
G2 X25.0218 Y13.7285 Z19.0000 I0.0218 J-0.2908 F250.0
G2 X24.8566 Y14.2731 Z19.0000 I-0.0218 J0.2908 F250.0
G1 X24.8566 Y14.2731 Z19.0000 F100.0
G2 X24.9782 Y14.3100 Z19.0000 I0.1434 J-0.2539 F250.0
G2 X25.0218 Y13.7285 Z19.0000 I0.0218 J-0.2908 F250.0
G2 X24.8566 Y14.2731 Z19.0000 I-0.0218 J0.2908 F250.0
G0 Z25.0000
G0 X54.7084 Y14.0217 Z25.0000
G0 X54.7084 Y14.0217 Z23.0000
G1 X54.7084 Y14.0217 Z19.0000 F100.0
G2 X54.9782 Y14.3100 Z19.0000 I0.2916 J-0.0025 F250.0
G2 X55.0218 Y13.7285 Z19.0000 I0.0218 J-0.2908 F250.0
G2 X54.7084 Y14.0217 Z19.0000 I-0.0218 J0.2908 F250.0
G1 X54.7084 Y14.0217 Z19.0000 F100.0
G2 X54.9782 Y14.3100 Z19.0000 I0.2916 J-0.0025 F250.0
G2 X55.0218 Y13.7285 Z19.0000 I0.0218 J-0.2908 F250.0
G2 X54.7084 Y14.0217 Z19.0000 I-0.0218 J0.2908 F250.0
G0 Z25.0000
G0 X69.8521 Y39.7487 Z25.0000
G0 X69.8521 Y39.7487 Z23.0000
G1 X69.8521 Y39.7487 Z19.0000 F100.0
G2 X69.9782 Y40.2908 Z19.0000 I0.1479 J0.2513 F250.0
G2 X70.0218 Y39.7092 Z19.0000 I0.0218 J-0.2908 F250.0
G2 X69.8521 Y39.7487 Z19.0000 I-0.0218 J0.2908 F250.0
G1 X69.8521 Y39.7487 Z19.0000 F100.0
G2 X69.9782 Y40.2908 Z19.0000 I0.1479 J0.2513 F250.0
G2 X70.0218 Y39.7092 Z19.0000 I0.0218 J-0.2908 F250.0
G2 X69.8521 Y39.7487 Z19.0000 I-0.0218 J0.2908 F250.0
G0 Z25.0000
G0 X55.1437 Y65.7270 Z25.0000
G0 X55.1437 Y65.7270 Z23.0000
G1 X55.1437 Y65.7270 Z19.0000 F100.0
G2 X55.0218 Y65.6900 Z19.0000 I-0.1437 J0.2537 F250.0
G2 X54.7092 Y65.9590 Z19.0000 I-0.0218 J0.2908 F250.0
G2 X54.9782 Y66.2715 Z19.0000 I0.2908 J0.0218 F250.0
G2 X55.1437 Y65.7270 Z19.0000 I0.0218 J-0.2908 F250.0
G1 X55.1437 Y65.7270 Z19.0000 F100.0
G2 X55.0218 Y65.6900 Z19.0000 I-0.1437 J0.2537 F250.0
G2 X54.7092 Y65.9590 Z19.0000 I-0.0218 J0.2908 F250.0
G2 X54.9782 Y66.2715 Z19.0000 I0.2908 J0.0218 F250.0
G2 X55.1437 Y65.7270 Z19.0000 I0.0218 J-0.2908 F250.0
G0 Z25.0000
G0 Z25.0000
;end operation: MillFace003
;begin postamble
M5
M25
G49 H0
G90 G80 G40 G49
M99
