(Exported by FreeCAD)
(Post Processor: grbl_post)
(Output Time:2022-05-22 18:04:03.922297)
(Begin preamble)
G17 G90
G21
(Begin operation: Fixture)
(Path: Fixture)
G54
G0 Z5.000
(Finish operation: Fixture)
(Begin operation: 6 Z1 UP Alu Q012)
(Path: 6 Z1 UP Alu Q012)
(6 Z1 UP Alu Q012)
(Begin toolchange)
( M6 T4.0 )
M3 S0.0
(Finish operation: 6 Z1 UP Alu Q012)
(Begin operation: Surface001)
(Path: Surface001)
(Surface001)
(Surface001)
(Tool type: endmill)
(Compensated Tool Path. Diameter: 6.0)
(Sample interval: 1.0)
(Step over %: 81.0)
()
G0 Z5.000
(Beginning of Multi-pass layers.)
(Layer 0 begins)
(Begin step 0.)
G0 X-48.845 Y-1.414
(part 1)
G1 X-48.845 Y-1.414 Z-3.000
G1 X-26.155 Y-1.414 Z-3.000
(End of step 0.)
G0 Z3.000
G0 X-59.474 Y3.446
(Begin step 1.)
G0 X-59.474 Y3.446
(part 1)
G1 X-59.474 Y3.446 Z-3.000
G1 X-15.526 Y3.446 Z-3.000
(End of step 1.)
G0 Z3.000
G0 X-65.609 Y8.306
(Begin step 2.)
G0 X-65.609 Y8.306
(part 1)
G1 X-65.609 Y8.306 Z-3.000
G1 X-9.391 Y8.306 Z-3.000
(End of step 2.)
G0 Z3.000
G0 X-69.902 Y13.166
(Begin step 3.)
G0 X-69.902 Y13.166
(part 1)
G1 X-69.902 Y13.166 Z-3.000
G1 X-5.098 Y13.166 Z-3.000
(End of step 3.)
G0 Z3.000
G0 X-73.030 Y18.026
(Begin step 4.)
G0 X-73.030 Y18.026
(part 1)
G1 X-73.030 Y18.026 Z-3.000
G1 X-1.970 Y18.026 Z-3.000
(End of step 4.)
G0 Z3.000
G0 X-75.287 Y22.886
(Begin step 5.)
G0 X-75.287 Y22.886
(part 1)
G1 X-75.287 Y22.886 Z-3.000
G1 X-40.483 Y22.886 Z-3.000
G1 X-39.489 Y22.886 Z-2.978
G1 X-38.494 Y22.886 Z-3.000
G1 X-36.506 Y22.886 Z-3.000
G1 X-35.511 Y22.886 Z-2.978
G1 X-34.517 Y22.886 Z-3.000
G1 X0.287 Y22.886 Z-3.000
(End of step 5.)
G0 Z3.000
G0 X-76.816 Y27.746
(Begin step 6.)
G0 X-76.816 Y27.746
(part 1)
G1 X-76.816 Y27.746 Z-3.000
G1 X-48.946 Y27.746 Z-3.000
G1 X-47.951 Y27.746 Z-2.362
G1 X-46.956 Y27.746 Z-1.256
G1 X-45.960 Y27.746 Z-0.019
G1 X-44.965 Y27.746 Z0.000
G1 X-30.035 Y27.746 Z0.000
G1 X-29.040 Y27.746 Z-0.019
G1 X-28.044 Y27.746 Z-1.256
G1 X-27.049 Y27.746 Z-2.362
G1 X-26.054 Y27.746 Z-3.000
G1 X1.816 Y27.746 Z-3.000
(End of step 6.)
G0 Z3.000
G0 X-77.708 Y32.606
(Begin step 7.)
G0 X-77.708 Y32.606
(part 1)
G1 X-77.708 Y32.606 Z-3.000
G1 X-51.895 Y32.606 Z-3.000
G1 X-50.903 Y32.606 Z-2.339
G1 X-49.910 Y32.606 Z-0.867
G1 X-48.917 Y32.606 Z0.000
G1 X-39.982 Y32.606 Z0.000
G1 X-38.989 Y32.606 Z-3.000
G1 X-36.011 Y32.606 Z-3.000
G1 X-35.018 Y32.606 Z0.000
G1 X-26.083 Y32.606 Z0.000
G1 X-25.090 Y32.606 Z-0.867
G1 X-24.097 Y32.606 Z-2.339
G1 X-23.105 Y32.606 Z-3.000
G1 X2.708 Y32.606 Z-3.000
(End of step 7.)
G0 Z3.000
G0 X-78.002 Y37.466
(Begin step 8.)
G0 X-78.002 Y37.466
(part 1)
G1 X-78.002 Y37.466 Z-3.000
G1 X-52.318 Y37.466 Z-3.000
G1 X-51.330 Y37.466 Z-1.695
G1 X-50.342 Y37.466 Z-0.009
G1 X-49.354 Y37.466 Z0.000
G1 X-43.427 Y37.466 Z0.000
G1 X-42.439 Y37.466 Z-3.000
G1 X-32.561 Y37.466 Z-3.000
G1 X-31.573 Y37.466 Z0.000
G1 X-25.646 Y37.466 Z0.000
G1 X-24.658 Y37.466 Z-0.009
G1 X-23.670 Y37.466 Z-1.695
G1 X-22.682 Y37.466 Z-3.000
G1 X3.002 Y37.466 Z-3.000
(End of step 8.)
G0 Z3.000
G0 X-77.708 Y42.326
(Begin step 9.)
G0 X-77.708 Y42.326
(part 1)
G1 X-77.708 Y42.326 Z-3.000
G1 X-51.895 Y42.326 Z-3.000
G1 X-50.903 Y42.326 Z-2.339
G1 X-49.910 Y42.326 Z-0.867
G1 X-48.917 Y42.326 Z0.000
G1 X-39.982 Y42.326 Z0.000
G1 X-38.989 Y42.326 Z-3.000
G1 X-36.011 Y42.326 Z-3.000
G1 X-35.018 Y42.326 Z0.000
G1 X-26.083 Y42.326 Z0.000
G1 X-25.090 Y42.326 Z-0.867
G1 X-24.097 Y42.326 Z-2.340
G1 X-23.105 Y42.326 Z-3.000
G1 X2.708 Y42.326 Z-3.000
(End of step 9.)
G0 Z3.000
G0 X-76.816 Y47.186
(Begin step 10.)
G0 X-76.816 Y47.186
(part 1)
G1 X-76.816 Y47.186 Z-3.000
G1 X-48.946 Y47.186 Z-3.000
G1 X-47.951 Y47.186 Z-2.362
G1 X-46.956 Y47.186 Z-1.256
G1 X-45.960 Y47.186 Z-0.019
G1 X-44.965 Y47.186 Z0.000
G1 X-30.035 Y47.186 Z0.000
G1 X-29.040 Y47.186 Z-0.019
G1 X-28.044 Y47.186 Z-1.256
G1 X-27.049 Y47.186 Z-2.362
G1 X-26.054 Y47.186 Z-3.000
G1 X1.816 Y47.186 Z-3.000
(End of step 10.)
G0 Z3.000
G0 X-75.287 Y52.046
(Begin step 11.)
G0 X-75.287 Y52.046
(part 1)
G1 X-75.287 Y52.046 Z-3.000
G1 X-40.483 Y52.046 Z-3.000
G1 X-39.489 Y52.046 Z-2.978
G1 X-38.494 Y52.046 Z-3.000
G1 X-36.506 Y52.046 Z-3.000
G1 X-35.511 Y52.046 Z-2.978
G1 X-34.517 Y52.046 Z-3.000
G1 X0.287 Y52.046 Z-3.000
(End of step 11.)
G0 Z3.000
G0 X-73.030 Y56.906
(Begin step 12.)
G0 X-73.030 Y56.906
(part 1)
G1 X-73.030 Y56.906 Z-3.000
G1 X-1.970 Y56.906 Z-3.000
(End of step 12.)
G0 Z3.000
G0 X-69.902 Y61.766
(Begin step 13.)
G0 X-69.902 Y61.766
(part 1)
G1 X-69.902 Y61.766 Z-3.000
G1 X-5.098 Y61.766 Z-3.000
(End of step 13.)
G0 Z3.000
G0 X-65.609 Y66.626
(Begin step 14.)
G0 X-65.609 Y66.626
(part 1)
G1 X-65.609 Y66.626 Z-3.000
G1 X-9.391 Y66.626 Z-3.000
(End of step 14.)
G0 Z3.000
G0 X-59.474 Y71.486
(Begin step 15.)
G0 X-59.474 Y71.486
(part 1)
G1 X-59.474 Y71.486 Z-3.000
G1 X-15.526 Y71.486 Z-3.000
(End of step 15.)
G0 Z3.000
G0 X-48.845 Y76.346
(Begin step 16.)
G0 X-48.845 Y76.346
(part 1)
G1 X-48.845 Y76.346 Z-3.000
G1 X-26.155 Y76.346 Z-3.000
(End of step 16.)
(End of layer 0)
(Layer 1 begins)
(Layer transition)
G0 Z3.000
G0 X-48.845 Y-1.414
(Begin step 0.)
G0 X-48.845 Y-1.414
(part 1)
G1 X-48.845 Y-1.414 Z-6.000
G1 X-26.155 Y-1.414 Z-6.000
(End of step 0.)
G0 Z3.000
G0 X-59.474 Y3.446
(Begin step 1.)
G0 X-59.474 Y3.446
(part 1)
G1 X-59.474 Y3.446 Z-6.000
G1 X-15.526 Y3.446 Z-6.000
(End of step 1.)
G0 Z3.000
G0 X-65.609 Y8.306
(Begin step 2.)
G0 X-65.609 Y8.306
(part 1)
G1 X-65.609 Y8.306 Z-6.000
G1 X-9.391 Y8.306 Z-6.000
(End of step 2.)
G0 Z3.000
G0 X-69.902 Y13.166
(Begin step 3.)
G0 X-69.902 Y13.166
(part 1)
G1 X-69.902 Y13.166 Z-6.000
G1 X-5.098 Y13.166 Z-6.000
(End of step 3.)
G0 Z3.000
G0 X-73.030 Y18.026
(Begin step 4.)
G0 X-73.030 Y18.026
(part 1)
G1 X-73.030 Y18.026 Z-6.000
G1 X-1.970 Y18.026 Z-6.000
(End of step 4.)
G0 Z3.000
G0 X-75.287 Y22.886
(Begin step 5.)
G0 X-75.287 Y22.886
(part 1)
G1 X-75.287 Y22.886 Z-6.000
G1 X-47.444 Y22.886 Z-6.000
G1 X-45.455 Y22.886 Z-5.087
G1 X-44.461 Y22.886 Z-4.640
G1 X-43.466 Y22.886 Z-4.214
G1 X-42.472 Y22.886 Z-3.821
G1 X-41.478 Y22.886 Z-3.474
G1 X-40.483 Y22.886 Z-3.186
G1 X-39.489 Y22.886 Z-2.978
G1 X-38.494 Y22.886 Z-3.090
G1 X-37.500 Y22.886 Z-3.662
G1 X-36.506 Y22.886 Z-3.090
G1 X-35.511 Y22.886 Z-2.978
G1 X-34.517 Y22.886 Z-3.185
G1 X-33.522 Y22.886 Z-3.474
G1 X-32.528 Y22.886 Z-3.821
G1 X-31.534 Y22.886 Z-4.214
G1 X-30.539 Y22.886 Z-4.640
G1 X-29.545 Y22.886 Z-5.087
G1 X-27.556 Y22.886 Z-6.000
G1 X0.287 Y22.886 Z-6.000
(End of step 5.)
G0 Z3.000
G0 X-76.816 Y27.746
(Begin step 6.)
G0 X-76.816 Y27.746
(part 1)
G1 X-76.816 Y27.746 Z-6.000
G1 X-52.928 Y27.746 Z-6.000
G1 X-51.933 Y27.746 Z-5.894
G1 X-50.937 Y27.746 Z-5.088
G1 X-49.942 Y27.746 Z-4.252
G1 X-48.946 Y27.746 Z-3.355
G1 X-47.951 Y27.746 Z-2.362
G1 X-46.956 Y27.746 Z-1.256
G1 X-45.960 Y27.746 Z-0.019
G1 X-44.965 Y27.746 Z0.000
G1 X-30.035 Y27.746 Z0.000
G1 X-29.040 Y27.746 Z-0.019
G1 X-28.044 Y27.746 Z-1.256
G1 X-27.049 Y27.746 Z-2.362
G1 X-26.054 Y27.746 Z-3.355
G1 X-25.058 Y27.746 Z-4.252
G1 X-24.063 Y27.746 Z-5.088
G1 X-23.067 Y27.746 Z-5.894
G1 X-22.072 Y27.746 Z-6.000
G1 X1.816 Y27.746 Z-6.000
(End of step 6.)
G0 Z3.000
G0 X-77.708 Y32.606
(Begin step 7.)
G0 X-77.708 Y32.606
(part 1)
G1 X-77.708 Y32.606 Z-6.000
G1 X-54.874 Y32.606 Z-6.000
G1 X-53.881 Y32.606 Z-5.526
G1 X-52.888 Y32.606 Z-4.621
G1 X-51.895 Y32.606 Z-3.571
G1 X-50.903 Y32.606 Z-2.339
G1 X-49.910 Y32.606 Z-0.867
G1 X-48.917 Y32.606 Z0.000
G1 X-39.982 Y32.606 Z0.000
G1 X-38.989 Y32.606 Z-6.000
G1 X-36.011 Y32.606 Z-6.000
G1 X-35.018 Y32.606 Z0.000
G1 X-26.083 Y32.606 Z0.000
G1 X-25.090 Y32.606 Z-0.867
G1 X-24.097 Y32.606 Z-2.339
G1 X-23.105 Y32.606 Z-3.572
G1 X-22.112 Y32.606 Z-4.620
G1 X-21.119 Y32.606 Z-5.526
G1 X-20.126 Y32.606 Z-6.000
G1 X2.708 Y32.606 Z-6.000
(End of step 7.)
G0 Z3.000
G0 X-78.002 Y37.466
(Begin step 8.)
G0 X-78.002 Y37.466
(part 1)
G1 X-78.002 Y37.466 Z-6.000
G1 X-55.281 Y37.466 Z-6.000
G1 X-54.294 Y37.466 Z-5.260
G1 X-53.306 Y37.466 Z-4.270
G1 X-52.318 Y37.466 Z-3.103
G1 X-51.330 Y37.466 Z-1.695
G1 X-50.342 Y37.466 Z-0.009
G1 X-49.354 Y37.466 Z0.000
G1 X-43.427 Y37.466 Z0.000
G1 X-42.439 Y37.466 Z-6.000
G1 X-32.561 Y37.466 Z-6.000
G1 X-31.573 Y37.466 Z0.000
G1 X-25.646 Y37.466 Z0.000
G1 X-24.658 Y37.466 Z-0.009
G1 X-23.670 Y37.466 Z-1.695
G1 X-22.682 Y37.466 Z-3.103
G1 X-21.694 Y37.466 Z-4.270
G1 X-20.706 Y37.466 Z-5.260
G1 X-19.719 Y37.466 Z-6.000
G1 X3.002 Y37.466 Z-6.000
(End of step 8.)
G0 Z3.000
G0 X-77.708 Y42.326
(Begin step 9.)
G0 X-77.708 Y42.326
(part 1)
G1 X-77.708 Y42.326 Z-6.000
G1 X-54.874 Y42.326 Z-6.000
G1 X-53.881 Y42.326 Z-5.526
G1 X-52.888 Y42.326 Z-4.620
G1 X-51.895 Y42.326 Z-3.572
G1 X-50.903 Y42.326 Z-2.339
G1 X-49.910 Y42.326 Z-0.867
G1 X-48.917 Y42.326 Z0.000
G1 X-39.982 Y42.326 Z0.000
G1 X-38.989 Y42.326 Z-6.000
G1 X-36.011 Y42.326 Z-6.000
G1 X-35.018 Y42.326 Z0.000
G1 X-26.083 Y42.326 Z0.000
G1 X-25.090 Y42.326 Z-0.867
G1 X-24.097 Y42.326 Z-2.340
G1 X-23.105 Y42.326 Z-3.572
G1 X-22.112 Y42.326 Z-4.620
G1 X-21.119 Y42.326 Z-5.526
G1 X-20.126 Y42.326 Z-6.000
G1 X2.708 Y42.326 Z-6.000
(End of step 9.)
G0 Z3.000
G0 X-76.816 Y47.186
(Begin step 10.)
G0 X-76.816 Y47.186
(part 1)
G1 X-76.816 Y47.186 Z-6.000
G1 X-52.928 Y47.186 Z-6.000
G1 X-51.933 Y47.186 Z-5.894
G1 X-50.937 Y47.186 Z-5.088
G1 X-49.942 Y47.186 Z-4.252
G1 X-48.946 Y47.186 Z-3.355
G1 X-47.951 Y47.186 Z-2.362
G1 X-46.956 Y47.186 Z-1.256
G1 X-45.960 Y47.186 Z-0.019
G1 X-44.965 Y47.186 Z0.000
G1 X-30.035 Y47.186 Z0.000
G1 X-29.040 Y47.186 Z-0.019
G1 X-28.044 Y47.186 Z-1.256
G1 X-27.049 Y47.186 Z-2.362
G1 X-26.054 Y47.186 Z-3.355
G1 X-25.058 Y47.186 Z-4.252
G1 X-24.063 Y47.186 Z-5.088
G1 X-23.067 Y47.186 Z-5.894
G1 X-22.072 Y47.186 Z-6.000
G1 X1.816 Y47.186 Z-6.000
(End of step 10.)
G0 Z3.000
G0 X-75.287 Y52.046
(Begin step 11.)
G0 X-75.287 Y52.046
(part 1)
G1 X-75.287 Y52.046 Z-6.000
G1 X-47.444 Y52.046 Z-6.000
G1 X-45.455 Y52.046 Z-5.087
G1 X-44.461 Y52.046 Z-4.640
G1 X-43.466 Y52.046 Z-4.214
G1 X-42.472 Y52.046 Z-3.821
G1 X-41.478 Y52.046 Z-3.474
G1 X-40.483 Y52.046 Z-3.186
G1 X-39.489 Y52.046 Z-2.978
G1 X-38.494 Y52.046 Z-3.090
G1 X-37.500 Y52.046 Z-3.662
G1 X-36.506 Y52.046 Z-3.090
G1 X-35.511 Y52.046 Z-2.978
G1 X-34.517 Y52.046 Z-3.186
G1 X-33.522 Y52.046 Z-3.474
G1 X-32.528 Y52.046 Z-3.821
G1 X-31.534 Y52.046 Z-4.214
G1 X-30.539 Y52.046 Z-4.640
G1 X-29.545 Y52.046 Z-5.087
G1 X-27.556 Y52.046 Z-6.000
G1 X0.287 Y52.046 Z-6.000
(End of step 11.)
G0 Z3.000
G0 X-73.030 Y56.906
(Begin step 12.)
G0 X-73.030 Y56.906
(part 1)
G1 X-73.030 Y56.906 Z-6.000
G1 X-1.970 Y56.906 Z-6.000
(End of step 12.)
G0 Z3.000
G0 X-69.902 Y61.766
(Begin step 13.)
G0 X-69.902 Y61.766
(part 1)
G1 X-69.902 Y61.766 Z-6.000
G1 X-5.098 Y61.766 Z-6.000
(End of step 13.)
G0 Z3.000
G0 X-65.609 Y66.626
(Begin step 14.)
G0 X-65.609 Y66.626
(part 1)
G1 X-65.609 Y66.626 Z-6.000
G1 X-9.391 Y66.626 Z-6.000
(End of step 14.)
G0 Z3.000
G0 X-59.474 Y71.486
(Begin step 15.)
G0 X-59.474 Y71.486
(part 1)
G1 X-59.474 Y71.486 Z-6.000
G1 X-15.526 Y71.486 Z-6.000
(End of step 15.)
G0 Z3.000
G0 X-48.845 Y76.346
(Begin step 16.)
G0 X-48.845 Y76.346
(part 1)
G1 X-48.845 Y76.346 Z-6.000
G1 X-26.155 Y76.346 Z-6.000
(End of step 16.)
(End of layer 1)
(Layer 2 begins)
(Layer transition)
G0 Z3.000
G0 X-48.845 Y-1.414
(Begin step 0.)
G0 X-48.845 Y-1.414
(part 1)
G1 X-48.845 Y-1.414 Z-9.000
G1 X-26.155 Y-1.414 Z-9.000
(End of step 0.)
G0 Z3.000
G0 X-59.474 Y3.446
(Begin step 1.)
G0 X-59.474 Y3.446
(part 1)
G1 X-59.474 Y3.446 Z-9.000
G1 X-15.526 Y3.446 Z-9.000
(End of step 1.)
G0 Z3.000
G0 X-65.609 Y8.306
(Begin step 2.)
G0 X-65.609 Y8.306
(part 1)
G1 X-65.609 Y8.306 Z-9.000
G1 X-9.391 Y8.306 Z-9.000
(End of step 2.)
G0 Z3.000
G0 X-69.902 Y13.166
(Begin step 3.)
G0 X-69.902 Y13.166
(part 1)
G1 X-69.902 Y13.166 Z-9.000
G1 X-5.098 Y13.166 Z-9.000
(End of step 3.)
G0 Z3.000
G0 X-73.030 Y18.026
(Begin step 4.)
G0 X-73.030 Y18.026
(part 1)
G1 X-73.030 Y18.026 Z-9.000
G1 X-50.330 Y18.026 Z-9.000
G1 X-49.343 Y18.026 Z-8.920
G1 X-46.383 Y18.026 Z-8.341
G1 X-45.396 Y18.026 Z-8.152
G1 X-44.409 Y18.026 Z-7.973
G1 X-43.422 Y18.026 Z-7.807
G1 X-42.435 Y18.026 Z-7.658
G1 X-41.448 Y18.026 Z-7.530
G1 X-40.461 Y18.026 Z-7.426
G1 X-39.474 Y18.026 Z-7.351
G1 X-38.487 Y18.026 Z-7.406
G1 X-37.500 Y18.026 Z-7.678
G1 X-36.513 Y18.026 Z-7.406
G1 X-35.526 Y18.026 Z-7.351
G1 X-34.539 Y18.026 Z-7.426
G1 X-33.552 Y18.026 Z-7.529
G1 X-32.565 Y18.026 Z-7.658
G1 X-31.578 Y18.026 Z-7.807
G1 X-30.591 Y18.026 Z-7.973
G1 X-29.604 Y18.026 Z-8.152
G1 X-28.617 Y18.026 Z-8.341
G1 X-25.657 Y18.026 Z-8.920
G1 X-24.670 Y18.026 Z-9.000
G1 X-1.970 Y18.026 Z-9.000
(End of step 4.)
G0 Z3.000
G0 X-75.287 Y22.886
(Begin step 5.)
G0 X-75.287 Y22.886
(part 1)
G1 X-75.287 Y22.886 Z-9.000
G1 X-55.399 Y22.886 Z-9.000
G1 X-54.405 Y22.886 Z-8.752
G1 X-53.410 Y22.886 Z-8.436
G1 X-52.416 Y22.886 Z-8.090
G1 X-51.421 Y22.886 Z-7.715
G1 X-50.427 Y22.886 Z-7.316
G1 X-49.433 Y22.886 Z-6.894
G1 X-48.438 Y22.886 Z-6.455
G1 X-47.444 Y22.886 Z-6.002
G1 X-45.455 Y22.886 Z-5.087
G1 X-44.461 Y22.886 Z-4.640
G1 X-43.466 Y22.886 Z-4.214
G1 X-42.472 Y22.886 Z-3.821
G1 X-41.478 Y22.886 Z-3.474
G1 X-40.483 Y22.886 Z-3.186
G1 X-39.489 Y22.886 Z-2.978
G1 X-38.494 Y22.886 Z-3.090
G1 X-37.500 Y22.886 Z-3.662
G1 X-36.506 Y22.886 Z-3.090
G1 X-35.511 Y22.886 Z-2.978
G1 X-34.517 Y22.886 Z-3.185
G1 X-33.522 Y22.886 Z-3.474
G1 X-32.528 Y22.886 Z-3.821
G1 X-31.534 Y22.886 Z-4.214
G1 X-30.539 Y22.886 Z-4.640
G1 X-29.545 Y22.886 Z-5.087
G1 X-27.556 Y22.886 Z-6.002
G1 X-26.562 Y22.886 Z-6.455
G1 X-25.567 Y22.886 Z-6.894
G1 X-24.573 Y22.886 Z-7.316
G1 X-23.579 Y22.886 Z-7.715
G1 X-22.584 Y22.886 Z-8.090
G1 X-21.590 Y22.886 Z-8.436
G1 X-20.595 Y22.886 Z-8.752
G1 X-19.601 Y22.886 Z-9.000
G1 X0.287 Y22.886 Z-9.000
(End of step 5.)
G0 Z3.000
G0 X-76.816 Y27.746
(Begin step 6.)
G0 X-76.816 Y27.746
(part 1)
G1 X-76.816 Y27.746 Z-9.000
G1 X-58.900 Y27.746 Z-9.000
G1 X-57.905 Y27.746 Z-8.863
G1 X-56.909 Y27.746 Z-8.528
G1 X-55.914 Y27.746 Z-8.186
G1 X-54.919 Y27.746 Z-7.856
G1 X-53.923 Y27.746 Z-7.389
G1 X-52.928 Y27.746 Z-6.662
G1 X-51.933 Y27.746 Z-5.894
G1 X-50.937 Y27.746 Z-5.088
G1 X-49.942 Y27.746 Z-4.252
G1 X-48.946 Y27.746 Z-3.355
G1 X-47.951 Y27.746 Z-2.362
G1 X-46.956 Y27.746 Z-1.256
G1 X-45.960 Y27.746 Z-0.019
G1 X-44.965 Y27.746 Z0.000
G1 X-30.035 Y27.746 Z0.000
G1 X-29.040 Y27.746 Z-0.019
G1 X-28.044 Y27.746 Z-1.256
G1 X-27.049 Y27.746 Z-2.362
G1 X-26.054 Y27.746 Z-3.355
G1 X-25.058 Y27.746 Z-4.252
G1 X-24.063 Y27.746 Z-5.088
G1 X-23.067 Y27.746 Z-5.894
G1 X-22.072 Y27.746 Z-6.662
G1 X-21.077 Y27.746 Z-7.389
G1 X-20.081 Y27.746 Z-7.856
G1 X-19.086 Y27.746 Z-8.186
G1 X-18.091 Y27.746 Z-8.528
G1 X-17.095 Y27.746 Z-8.863
G1 X-16.100 Y27.746 Z-9.000
G1 X1.816 Y27.746 Z-9.000
(End of step 6.)
G0 Z3.000
G0 X-77.708 Y32.606
(Begin step 7.)
G0 X-77.708 Y32.606
(part 1)
G1 X-77.708 Y32.606 Z-9.000
G1 X-60.830 Y32.606 Z-9.000
G1 X-59.838 Y32.606 Z-8.956
G1 X-58.845 Y32.606 Z-8.573
G1 X-57.852 Y32.606 Z-8.123
G1 X-56.859 Y32.606 Z-7.602
G1 X-55.867 Y32.606 Z-7.002
G1 X-54.874 Y32.606 Z-6.314
G1 X-53.881 Y32.606 Z-5.526
G1 X-52.888 Y32.606 Z-4.621
G1 X-51.895 Y32.606 Z-3.571
G1 X-50.903 Y32.606 Z-2.339
G1 X-49.910 Y32.606 Z-0.867
G1 X-48.917 Y32.606 Z0.000
G1 X-39.982 Y32.606 Z0.000
G1 X-38.989 Y32.606 Z-9.000
G1 X-36.011 Y32.606 Z-9.000
G1 X-35.018 Y32.606 Z0.000
G1 X-26.083 Y32.606 Z0.000
G1 X-25.090 Y32.606 Z-0.867
G1 X-24.097 Y32.606 Z-2.339
G1 X-23.105 Y32.606 Z-3.572
G1 X-22.112 Y32.606 Z-4.620
G1 X-21.119 Y32.606 Z-5.526
G1 X-20.126 Y32.606 Z-6.314
G1 X-19.133 Y32.606 Z-7.002
G1 X-18.141 Y32.606 Z-7.601
G1 X-17.148 Y32.606 Z-8.123
G1 X-16.155 Y32.606 Z-8.573
G1 X-15.162 Y32.606 Z-8.956
G1 X-14.170 Y32.606 Z-9.000
G1 X2.708 Y32.606 Z-9.000
(End of step 7.)
G0 Z3.000
G0 X-78.002 Y37.466
(Begin step 8.)
G0 X-78.002 Y37.466
(part 1)
G1 X-78.002 Y37.466 Z-9.000
G1 X-61.209 Y37.466 Z-9.000
G1 X-60.221 Y37.466 Z-8.904
G1 X-59.233 Y37.466 Z-8.504
G1 X-58.245 Y37.466 Z-8.032
G1 X-57.257 Y37.466 Z-7.482
G1 X-56.269 Y37.466 Z-6.846
G1 X-55.281 Y37.466 Z-6.110
G1 X-54.294 Y37.466 Z-5.260
G1 X-53.306 Y37.466 Z-4.270
G1 X-52.318 Y37.466 Z-3.103
G1 X-51.330 Y37.466 Z-1.695
G1 X-50.342 Y37.466 Z-0.009
G1 X-49.354 Y37.466 Z0.000
G1 X-43.427 Y37.466 Z0.000
G1 X-42.439 Y37.466 Z-9.000
G1 X-32.561 Y37.466 Z-9.000
G1 X-31.573 Y37.466 Z0.000
G1 X-25.646 Y37.466 Z0.000
G1 X-24.658 Y37.466 Z-0.009
G1 X-23.670 Y37.466 Z-1.695
G1 X-22.682 Y37.466 Z-3.103
G1 X-21.694 Y37.466 Z-4.270
G1 X-20.706 Y37.466 Z-5.260
G1 X-19.719 Y37.466 Z-6.110
G1 X-18.731 Y37.466 Z-6.846
G1 X-17.743 Y37.466 Z-7.482
G1 X-16.755 Y37.466 Z-8.032
G1 X-15.767 Y37.466 Z-8.504
G1 X-14.779 Y37.466 Z-8.904
G1 X-13.791 Y37.466 Z-9.000
G1 X3.002 Y37.466 Z-9.000
(End of step 8.)
G0 Z3.000
G0 X-77.708 Y42.326
(Begin step 9.)
G0 X-77.708 Y42.326
(part 1)
G1 X-77.708 Y42.326 Z-9.000
G1 X-60.830 Y42.326 Z-9.000
G1 X-59.838 Y42.326 Z-8.956
G1 X-58.845 Y42.326 Z-8.573
G1 X-57.852 Y42.326 Z-8.123
G1 X-56.859 Y42.326 Z-7.602
G1 X-55.867 Y42.326 Z-7.002
G1 X-54.874 Y42.326 Z-6.314
G1 X-53.881 Y42.326 Z-5.526
G1 X-52.888 Y42.326 Z-4.620
G1 X-51.895 Y42.326 Z-3.572
G1 X-50.903 Y42.326 Z-2.339
G1 X-49.910 Y42.326 Z-0.867
G1 X-48.917 Y42.326 Z0.000
G1 X-39.982 Y42.326 Z0.000
G1 X-38.989 Y42.326 Z-9.000
G1 X-36.011 Y42.326 Z-9.000
G1 X-35.018 Y42.326 Z0.000
G1 X-26.083 Y42.326 Z0.000
G1 X-25.090 Y42.326 Z-0.867
G1 X-24.097 Y42.326 Z-2.340
G1 X-23.105 Y42.326 Z-3.572
G1 X-22.112 Y42.326 Z-4.620
G1 X-21.119 Y42.326 Z-5.526
G1 X-20.126 Y42.326 Z-6.314
G1 X-19.133 Y42.326 Z-7.002
G1 X-18.141 Y42.326 Z-7.602
G1 X-17.148 Y42.326 Z-8.123
G1 X-16.155 Y42.326 Z-8.573
G1 X-15.162 Y42.326 Z-8.956
G1 X-14.170 Y42.326 Z-9.000
G1 X2.708 Y42.326 Z-9.000
(End of step 9.)
G0 Z3.000
G0 X-76.816 Y47.186
(Begin step 10.)
G0 X-76.816 Y47.186
(part 1)
G1 X-76.816 Y47.186 Z-9.000
G1 X-58.900 Y47.186 Z-9.000
G1 X-57.905 Y47.186 Z-8.863
G1 X-56.909 Y47.186 Z-8.528
G1 X-55.914 Y47.186 Z-8.186
G1 X-54.919 Y47.186 Z-7.856
G1 X-53.923 Y47.186 Z-7.389
G1 X-52.928 Y47.186 Z-6.662
G1 X-51.933 Y47.186 Z-5.894
G1 X-50.937 Y47.186 Z-5.088
G1 X-49.942 Y47.186 Z-4.252
G1 X-48.946 Y47.186 Z-3.355
G1 X-47.951 Y47.186 Z-2.362
G1 X-46.956 Y47.186 Z-1.256
G1 X-45.960 Y47.186 Z-0.019
G1 X-44.965 Y47.186 Z0.000
G1 X-30.035 Y47.186 Z0.000
G1 X-29.040 Y47.186 Z-0.019
G1 X-28.044 Y47.186 Z-1.256
G1 X-27.049 Y47.186 Z-2.362
G1 X-26.054 Y47.186 Z-3.355
G1 X-25.058 Y47.186 Z-4.252
G1 X-24.063 Y47.186 Z-5.088
G1 X-23.067 Y47.186 Z-5.894
G1 X-22.072 Y47.186 Z-6.662
G1 X-21.077 Y47.186 Z-7.389
G1 X-20.081 Y47.186 Z-7.856
G1 X-19.086 Y47.186 Z-8.186
G1 X-18.091 Y47.186 Z-8.528
G1 X-17.095 Y47.186 Z-8.863
G1 X-16.100 Y47.186 Z-9.000
G1 X1.816 Y47.186 Z-9.000
(End of step 10.)
G0 Z3.000
G0 X-75.287 Y52.046
(Begin step 11.)
G0 X-75.287 Y52.046
(part 1)
G1 X-75.287 Y52.046 Z-9.000
G1 X-55.399 Y52.046 Z-9.000
G1 X-54.405 Y52.046 Z-8.752
G1 X-53.410 Y52.046 Z-8.436
G1 X-52.416 Y52.046 Z-8.090
G1 X-51.421 Y52.046 Z-7.715
G1 X-50.427 Y52.046 Z-7.316
G1 X-49.433 Y52.046 Z-6.894
G1 X-48.438 Y52.046 Z-6.455
G1 X-47.444 Y52.046 Z-6.002
G1 X-45.455 Y52.046 Z-5.087
G1 X-44.461 Y52.046 Z-4.640
G1 X-43.466 Y52.046 Z-4.214
G1 X-42.472 Y52.046 Z-3.821
G1 X-41.478 Y52.046 Z-3.474
G1 X-40.483 Y52.046 Z-3.186
G1 X-39.489 Y52.046 Z-2.978
G1 X-38.494 Y52.046 Z-3.090
G1 X-37.500 Y52.046 Z-3.662
G1 X-36.506 Y52.046 Z-3.090
G1 X-35.511 Y52.046 Z-2.978
G1 X-34.517 Y52.046 Z-3.186
G1 X-33.522 Y52.046 Z-3.474
G1 X-32.528 Y52.046 Z-3.821
G1 X-31.534 Y52.046 Z-4.214
G1 X-30.539 Y52.046 Z-4.640
G1 X-29.545 Y52.046 Z-5.087
G1 X-27.556 Y52.046 Z-6.002
G1 X-26.562 Y52.046 Z-6.455
G1 X-25.567 Y52.046 Z-6.894
G1 X-24.573 Y52.046 Z-7.316
G1 X-23.579 Y52.046 Z-7.715
G1 X-22.584 Y52.046 Z-8.090
G1 X-21.590 Y52.046 Z-8.436
G1 X-20.595 Y52.046 Z-8.752
G1 X-19.601 Y52.046 Z-9.000
G1 X0.287 Y52.046 Z-9.000
(End of step 11.)
G0 Z3.000
G0 X-73.030 Y56.906
(Begin step 12.)
G0 X-73.030 Y56.906
(part 1)
G1 X-73.030 Y56.906 Z-9.000
G1 X-50.330 Y56.906 Z-9.000
G1 X-49.343 Y56.906 Z-8.920
G1 X-46.383 Y56.906 Z-8.341
G1 X-45.396 Y56.906 Z-8.152
G1 X-44.409 Y56.906 Z-7.973
G1 X-43.422 Y56.906 Z-7.807
G1 X-42.435 Y56.906 Z-7.658
G1 X-41.448 Y56.906 Z-7.530
G1 X-40.461 Y56.906 Z-7.426
G1 X-39.474 Y56.906 Z-7.351
G1 X-38.487 Y56.906 Z-7.406
G1 X-37.500 Y56.906 Z-7.678
G1 X-36.513 Y56.906 Z-7.406
G1 X-35.526 Y56.906 Z-7.351
G1 X-34.539 Y56.906 Z-7.426
G1 X-33.552 Y56.906 Z-7.530
G1 X-32.565 Y56.906 Z-7.658
G1 X-31.578 Y56.906 Z-7.807
G1 X-30.591 Y56.906 Z-7.973
G1 X-29.604 Y56.906 Z-8.152
G1 X-28.617 Y56.906 Z-8.341
G1 X-25.657 Y56.906 Z-8.920
G1 X-24.670 Y56.906 Z-9.000
G1 X-1.970 Y56.906 Z-9.000
(End of step 12.)
G0 Z3.000
G0 X-69.902 Y61.766
(Begin step 13.)
G0 X-69.902 Y61.766
(part 1)
G1 X-69.902 Y61.766 Z-9.000
G1 X-5.098 Y61.766 Z-9.000
(End of step 13.)
G0 Z3.000
G0 X-65.609 Y66.626
(Begin step 14.)
G0 X-65.609 Y66.626
(part 1)
G1 X-65.609 Y66.626 Z-9.000
G1 X-9.391 Y66.626 Z-9.000
(End of step 14.)
G0 Z3.000
G0 X-59.474 Y71.486
(Begin step 15.)
G0 X-59.474 Y71.486
(part 1)
G1 X-59.474 Y71.486 Z-9.000
G1 X-15.526 Y71.486 Z-9.000
(End of step 15.)
G0 Z3.000
G0 X-48.845 Y76.346
(Begin step 16.)
G0 X-48.845 Y76.346
(part 1)
G1 X-48.845 Y76.346 Z-9.000
G1 X-26.155 Y76.346 Z-9.000
(End of step 16.)
(End of layer 2)
(Layer 3 begins)
(Layer transition)
G0 Z3.000
G0 X-48.845 Y-1.414
(Begin step 0.)
G0 X-48.845 Y-1.414
(part 1)
G1 X-48.845 Y-1.414 Z-10.000
G1 X-26.155 Y-1.414 Z-10.000
(End of step 0.)
G0 Z3.000
G0 X-59.474 Y3.446
(Begin step 1.)
G0 X-59.474 Y3.446
(part 1)
G1 X-59.474 Y3.446 Z-10.000
G1 X-15.526 Y3.446 Z-10.000
(End of step 1.)
G0 Z3.000
G0 X-65.609 Y8.306
(Begin step 2.)
G0 X-65.609 Y8.306
(part 1)
G1 X-65.609 Y8.306 Z-10.000
G1 X-9.391 Y8.306 Z-10.000
(End of step 2.)
G0 Z3.000
G0 X-69.902 Y13.166
(Begin step 3.)
G0 X-69.902 Y13.166
(part 1)
G1 X-69.902 Y13.166 Z-10.000
G1 X-51.956 Y13.166 Z-10.000
G1 X-50.959 Y13.166 Z-9.984
G1 X-49.962 Y13.166 Z-9.947
G1 X-48.965 Y13.166 Z-9.902
G1 X-47.968 Y13.166 Z-9.849
G1 X-43.980 Y13.166 Z-9.615
G1 X-42.983 Y13.166 Z-9.562
G1 X-41.986 Y13.166 Z-9.514
G1 X-40.989 Y13.166 Z-9.474
G1 X-39.992 Y13.166 Z-9.443
G1 X-38.995 Y13.166 Z-9.422
G1 X-37.998 Y13.166 Z-9.410
G1 X-37.002 Y13.166 Z-9.410
G1 X-36.005 Y13.166 Z-9.422
G1 X-35.008 Y13.166 Z-9.443
G1 X-34.011 Y13.166 Z-9.474
G1 X-33.014 Y13.166 Z-9.514
G1 X-32.017 Y13.166 Z-9.562
G1 X-31.020 Y13.166 Z-9.615
G1 X-27.032 Y13.166 Z-9.849
G1 X-26.035 Y13.166 Z-9.902
G1 X-25.038 Y13.166 Z-9.947
G1 X-24.041 Y13.166 Z-9.984
G1 X-23.044 Y13.166 Z-10.000
G1 X-5.098 Y13.166 Z-10.000
(End of step 3.)
G0 Z3.000
G0 X-73.030 Y18.026
(Begin step 4.)
G0 X-73.030 Y18.026
(part 1)
G1 X-73.030 Y18.026 Z-10.000
G1 X-58.226 Y18.026 Z-10.000
G1 X-57.239 Y18.026 Z-9.980
G1 X-56.252 Y18.026 Z-9.917
G1 X-55.265 Y18.026 Z-9.831
G1 X-54.278 Y18.026 Z-9.722
G1 X-53.291 Y18.026 Z-9.592
G1 X-52.304 Y18.026 Z-9.445
G1 X-51.317 Y18.026 Z-9.281
G1 X-50.330 Y18.026 Z-9.106
G1 X-49.343 Y18.026 Z-8.920
G1 X-46.383 Y18.026 Z-8.341
G1 X-45.396 Y18.026 Z-8.152
G1 X-44.409 Y18.026 Z-7.973
G1 X-43.422 Y18.026 Z-7.807
G1 X-42.435 Y18.026 Z-7.658
G1 X-41.448 Y18.026 Z-7.530
G1 X-40.461 Y18.026 Z-7.426
G1 X-39.474 Y18.026 Z-7.351
G1 X-38.487 Y18.026 Z-7.406
G1 X-37.500 Y18.026 Z-7.678
G1 X-36.513 Y18.026 Z-7.406
G1 X-35.526 Y18.026 Z-7.351
G1 X-34.539 Y18.026 Z-7.426
G1 X-33.552 Y18.026 Z-7.529
G1 X-32.565 Y18.026 Z-7.658
G1 X-31.578 Y18.026 Z-7.807
G1 X-30.591 Y18.026 Z-7.973
G1 X-29.604 Y18.026 Z-8.152
G1 X-28.617 Y18.026 Z-8.341
G1 X-25.657 Y18.026 Z-8.920
G1 X-24.670 Y18.026 Z-9.106
G1 X-23.683 Y18.026 Z-9.281
G1 X-22.696 Y18.026 Z-9.445
G1 X-21.709 Y18.026 Z-9.592
G1 X-20.722 Y18.026 Z-9.722
G1 X-19.735 Y18.026 Z-9.831
G1 X-18.748 Y18.026 Z-9.917
G1 X-17.761 Y18.026 Z-9.980
G1 X-16.774 Y18.026 Z-10.000
G1 X-1.970 Y18.026 Z-10.000
(End of step 4.)
G0 Z3.000
G0 X-75.287 Y22.886
(Begin step 5.)
G0 X-75.287 Y22.886
(part 1)
G1 X-75.287 Y22.886 Z-10.000
G1 X-62.360 Y22.886 Z-10.000
G1 X-61.365 Y22.886 Z-9.996
G1 X-60.371 Y22.886 Z-9.930
G1 X-59.376 Y22.886 Z-9.824
G1 X-58.382 Y22.886 Z-9.681
G1 X-57.388 Y22.886 Z-9.502
G1 X-56.393 Y22.886 Z-9.286
G1 X-55.399 Y22.886 Z-9.036
G1 X-54.405 Y22.886 Z-8.752
G1 X-53.410 Y22.886 Z-8.436
G1 X-52.416 Y22.886 Z-8.090
G1 X-51.421 Y22.886 Z-7.715
G1 X-50.427 Y22.886 Z-7.316
G1 X-49.433 Y22.886 Z-6.894
G1 X-48.438 Y22.886 Z-6.455
G1 X-47.444 Y22.886 Z-6.002
G1 X-45.455 Y22.886 Z-5.087
G1 X-44.461 Y22.886 Z-4.640
G1 X-43.466 Y22.886 Z-4.214
G1 X-42.472 Y22.886 Z-3.821
G1 X-41.478 Y22.886 Z-3.474
G1 X-40.483 Y22.886 Z-3.186
G1 X-39.489 Y22.886 Z-2.978
G1 X-38.494 Y22.886 Z-3.090
G1 X-37.500 Y22.886 Z-3.662
G1 X-36.506 Y22.886 Z-3.090
G1 X-35.511 Y22.886 Z-2.978
G1 X-34.517 Y22.886 Z-3.185
G1 X-33.522 Y22.886 Z-3.474
G1 X-32.528 Y22.886 Z-3.821
G1 X-31.534 Y22.886 Z-4.214
G1 X-30.539 Y22.886 Z-4.640
G1 X-29.545 Y22.886 Z-5.087
G1 X-27.556 Y22.886 Z-6.002
G1 X-26.562 Y22.886 Z-6.455
G1 X-25.567 Y22.886 Z-6.894
G1 X-24.573 Y22.886 Z-7.316
G1 X-23.579 Y22.886 Z-7.715
G1 X-22.584 Y22.886 Z-8.090
G1 X-21.590 Y22.886 Z-8.436
G1 X-20.595 Y22.886 Z-8.752
G1 X-19.601 Y22.886 Z-9.036
G1 X-18.607 Y22.886 Z-9.286
G1 X-17.612 Y22.886 Z-9.502
G1 X-16.618 Y22.886 Z-9.681
G1 X-15.624 Y22.886 Z-9.824
G1 X-14.629 Y22.886 Z-9.930
G1 X-13.635 Y22.886 Z-9.996
G1 X-12.640 Y22.886 Z-10.000
G1 X0.287 Y22.886 Z-10.000
(End of step 5.)
G0 Z3.000
G0 X-76.816 Y27.746
(Begin step 6.)
G0 X-76.816 Y27.746
(part 1)
G1 X-76.816 Y27.746 Z-10.000
G1 X-63.877 Y27.746 Z-10.000
G1 X-62.881 Y27.746 Z-9.935
G1 X-61.886 Y27.746 Z-9.819
G1 X-60.891 Y27.746 Z-9.653
G1 X-59.895 Y27.746 Z-9.439
G1 X-58.900 Y27.746 Z-9.175
G1 X-57.905 Y27.746 Z-8.863
G1 X-56.909 Y27.746 Z-8.528
G1 X-55.914 Y27.746 Z-8.186
G1 X-54.919 Y27.746 Z-7.856
G1 X-53.923 Y27.746 Z-7.389
G1 X-52.928 Y27.746 Z-6.662
G1 X-51.933 Y27.746 Z-5.894
G1 X-50.937 Y27.746 Z-5.088
G1 X-49.942 Y27.746 Z-4.252
G1 X-48.946 Y27.746 Z-3.355
G1 X-47.951 Y27.746 Z-2.362
G1 X-46.956 Y27.746 Z-1.256
G1 X-45.960 Y27.746 Z-0.019
G1 X-44.965 Y27.746 Z0.000
G1 X-30.035 Y27.746 Z0.000
G1 X-29.040 Y27.746 Z-0.019
G1 X-28.044 Y27.746 Z-1.256
G1 X-27.049 Y27.746 Z-2.362
G1 X-26.054 Y27.746 Z-3.355
G1 X-25.058 Y27.746 Z-4.252
G1 X-24.063 Y27.746 Z-5.088
G1 X-23.067 Y27.746 Z-5.894
G1 X-22.072 Y27.746 Z-6.662
G1 X-21.077 Y27.746 Z-7.389
G1 X-20.081 Y27.746 Z-7.856
G1 X-19.086 Y27.746 Z-8.186
G1 X-18.091 Y27.746 Z-8.528
G1 X-17.095 Y27.746 Z-8.863
G1 X-16.100 Y27.746 Z-9.175
G1 X-15.105 Y27.746 Z-9.439
G1 X-14.109 Y27.746 Z-9.653
G1 X-13.114 Y27.746 Z-9.819
G1 X-12.119 Y27.746 Z-9.935
G1 X-11.123 Y27.746 Z-10.000
G1 X1.816 Y27.746 Z-10.000
(End of step 6.)
G0 Z3.000
G0 X-77.708 Y32.606
(Begin step 7.)
G0 X-77.708 Y32.606
(part 1)
G1 X-77.708 Y32.606 Z-10.000
G1 X-65.794 Y32.606 Z-10.000
G1 X-64.802 Y32.606 Z-9.982
G1 X-63.809 Y32.606 Z-9.888
G1 X-62.816 Y32.606 Z-9.740
G1 X-61.823 Y32.606 Z-9.536
G1 X-60.830 Y32.606 Z-9.276
G1 X-59.838 Y32.606 Z-8.956
G1 X-58.845 Y32.606 Z-8.573
G1 X-57.852 Y32.606 Z-8.123
G1 X-56.859 Y32.606 Z-7.602
G1 X-55.867 Y32.606 Z-7.002
G1 X-54.874 Y32.606 Z-6.314
G1 X-53.881 Y32.606 Z-5.526
G1 X-52.888 Y32.606 Z-4.621
G1 X-51.895 Y32.606 Z-3.571
G1 X-50.903 Y32.606 Z-2.339
G1 X-49.910 Y32.606 Z-0.867
G1 X-48.917 Y32.606 Z0.000
G1 X-39.982 Y32.606 Z0.000
G1 X-38.989 Y32.606 Z-10.000
G1 X-36.011 Y32.606 Z-10.000
G1 X-35.018 Y32.606 Z0.000
G1 X-26.083 Y32.606 Z0.000
G1 X-25.090 Y32.606 Z-0.867
G1 X-24.097 Y32.606 Z-2.339
G1 X-23.105 Y32.606 Z-3.572
G1 X-22.112 Y32.606 Z-4.620
G1 X-21.119 Y32.606 Z-5.526
G1 X-20.126 Y32.606 Z-6.314
G1 X-19.133 Y32.606 Z-7.002
G1 X-18.141 Y32.606 Z-7.601
G1 X-17.148 Y32.606 Z-8.123
G1 X-16.155 Y32.606 Z-8.573
G1 X-15.162 Y32.606 Z-8.956
G1 X-14.170 Y32.606 Z-9.276
G1 X-13.177 Y32.606 Z-9.536
G1 X-12.184 Y32.606 Z-9.740
G1 X-11.191 Y32.606 Z-9.888
G1 X-10.198 Y32.606 Z-9.982
G1 X-9.206 Y32.606 Z-10.000
G1 X2.708 Y32.606 Z-10.000
(End of step 7.)
G0 Z3.000
G0 X-78.002 Y37.466
(Begin step 8.)
G0 X-78.002 Y37.466
(part 1)
G1 X-78.002 Y37.466 Z-10.000
G1 X-66.148 Y37.466 Z-10.000
G1 X-65.160 Y37.466 Z-9.976
G1 X-64.172 Y37.466 Z-9.877
G1 X-63.184 Y37.466 Z-9.723
G1 X-62.196 Y37.466 Z-9.511
G1 X-61.209 Y37.466 Z-9.239
G1 X-60.221 Y37.466 Z-8.904
G1 X-59.233 Y37.466 Z-8.504
G1 X-58.245 Y37.466 Z-8.032
G1 X-57.257 Y37.466 Z-7.482
G1 X-56.269 Y37.466 Z-6.846
G1 X-55.281 Y37.466 Z-6.110
G1 X-54.294 Y37.466 Z-5.260
G1 X-53.306 Y37.466 Z-4.270
G1 X-52.318 Y37.466 Z-3.103
G1 X-51.330 Y37.466 Z-1.695
G1 X-50.342 Y37.466 Z-0.009
G1 X-49.354 Y37.466 Z0.000
G1 X-43.427 Y37.466 Z0.000
G1 X-42.439 Y37.466 Z-10.000
G1 X-32.561 Y37.466 Z-10.000
G1 X-31.573 Y37.466 Z0.000
G1 X-25.646 Y37.466 Z0.000
G1 X-24.658 Y37.466 Z-0.009
G1 X-23.670 Y37.466 Z-1.695
G1 X-22.682 Y37.466 Z-3.103
G1 X-21.694 Y37.466 Z-4.270
G1 X-20.706 Y37.466 Z-5.260
G1 X-19.719 Y37.466 Z-6.110
G1 X-18.731 Y37.466 Z-6.846
G1 X-17.743 Y37.466 Z-7.482
G1 X-16.755 Y37.466 Z-8.032
G1 X-15.767 Y37.466 Z-8.504
G1 X-14.779 Y37.466 Z-8.904
G1 X-13.791 Y37.466 Z-9.239
G1 X-12.804 Y37.466 Z-9.511
G1 X-11.816 Y37.466 Z-9.723
G1 X-10.828 Y37.466 Z-9.877
G1 X-9.840 Y37.466 Z-9.976
G1 X-8.852 Y37.466 Z-10.000
G1 X3.002 Y37.466 Z-10.000
(End of step 8.)
G0 Z3.000
G0 X-77.708 Y42.326
(Begin step 9.)
G0 X-77.708 Y42.326
(part 1)
G1 X-77.708 Y42.326 Z-10.000
G1 X-65.794 Y42.326 Z-10.000
G1 X-64.802 Y42.326 Z-9.982
G1 X-63.809 Y42.326 Z-9.888
G1 X-62.816 Y42.326 Z-9.740
G1 X-61.823 Y42.326 Z-9.536
G1 X-60.830 Y42.326 Z-9.276
G1 X-59.838 Y42.326 Z-8.956
G1 X-58.845 Y42.326 Z-8.573
G1 X-57.852 Y42.326 Z-8.123
G1 X-56.859 Y42.326 Z-7.602
G1 X-55.867 Y42.326 Z-7.002
G1 X-54.874 Y42.326 Z-6.314
G1 X-53.881 Y42.326 Z-5.526
G1 X-52.888 Y42.326 Z-4.620
G1 X-51.895 Y42.326 Z-3.572
G1 X-50.903 Y42.326 Z-2.339
G1 X-49.910 Y42.326 Z-0.867
G1 X-48.917 Y42.326 Z0.000
G1 X-39.982 Y42.326 Z0.000
G1 X-38.989 Y42.326 Z-10.000
G1 X-36.011 Y42.326 Z-10.000
G1 X-35.018 Y42.326 Z0.000
G1 X-26.083 Y42.326 Z0.000
G1 X-25.090 Y42.326 Z-0.867
G1 X-24.097 Y42.326 Z-2.340
G1 X-23.105 Y42.326 Z-3.572
G1 X-22.112 Y42.326 Z-4.620
G1 X-21.119 Y42.326 Z-5.526
G1 X-20.126 Y42.326 Z-6.314
G1 X-19.133 Y42.326 Z-7.002
G1 X-18.141 Y42.326 Z-7.602
G1 X-17.148 Y42.326 Z-8.123
G1 X-16.155 Y42.326 Z-8.573
G1 X-15.162 Y42.326 Z-8.956
G1 X-14.170 Y42.326 Z-9.276
G1 X-13.177 Y42.326 Z-9.536
G1 X-12.184 Y42.326 Z-9.740
G1 X-11.191 Y42.326 Z-9.888
G1 X-10.198 Y42.326 Z-9.982
G1 X-9.206 Y42.326 Z-10.000
G1 X2.708 Y42.326 Z-10.000
(End of step 9.)
G0 Z3.000
G0 X-76.816 Y47.186
(Begin step 10.)
G0 X-76.816 Y47.186
(part 1)
G1 X-76.816 Y47.186 Z-10.000
G1 X-63.877 Y47.186 Z-10.000
G1 X-62.881 Y47.186 Z-9.935
G1 X-61.886 Y47.186 Z-9.819
G1 X-60.891 Y47.186 Z-9.653
G1 X-59.895 Y47.186 Z-9.439
G1 X-58.900 Y47.186 Z-9.175
G1 X-57.905 Y47.186 Z-8.863
G1 X-56.909 Y47.186 Z-8.528
G1 X-55.914 Y47.186 Z-8.186
G1 X-54.919 Y47.186 Z-7.856
G1 X-53.923 Y47.186 Z-7.389
G1 X-52.928 Y47.186 Z-6.662
G1 X-51.933 Y47.186 Z-5.894
G1 X-50.937 Y47.186 Z-5.088
G1 X-49.942 Y47.186 Z-4.252
G1 X-48.946 Y47.186 Z-3.355
G1 X-47.951 Y47.186 Z-2.362
G1 X-46.956 Y47.186 Z-1.256
G1 X-45.960 Y47.186 Z-0.019
G1 X-44.965 Y47.186 Z0.000
G1 X-30.035 Y47.186 Z0.000
G1 X-29.040 Y47.186 Z-0.019
G1 X-28.044 Y47.186 Z-1.256
G1 X-27.049 Y47.186 Z-2.362
G1 X-26.054 Y47.186 Z-3.355
G1 X-25.058 Y47.186 Z-4.252
G1 X-24.063 Y47.186 Z-5.088
G1 X-23.067 Y47.186 Z-5.894
G1 X-22.072 Y47.186 Z-6.662
G1 X-21.077 Y47.186 Z-7.389
G1 X-20.081 Y47.186 Z-7.856
G1 X-19.086 Y47.186 Z-8.186
G1 X-18.091 Y47.186 Z-8.528
G1 X-17.095 Y47.186 Z-8.863
G1 X-16.100 Y47.186 Z-9.175
G1 X-15.105 Y47.186 Z-9.439
G1 X-14.109 Y47.186 Z-9.653
G1 X-13.114 Y47.186 Z-9.819
G1 X-12.119 Y47.186 Z-9.935
G1 X-11.123 Y47.186 Z-10.000
G1 X1.816 Y47.186 Z-10.000
(End of step 10.)
G0 Z3.000
G0 X-75.287 Y52.046
(Begin step 11.)
G0 X-75.287 Y52.046
(part 1)
G1 X-75.287 Y52.046 Z-10.000
G1 X-62.360 Y52.046 Z-10.000
G1 X-61.365 Y52.046 Z-9.996
G1 X-60.371 Y52.046 Z-9.930
G1 X-59.376 Y52.046 Z-9.824
G1 X-58.382 Y52.046 Z-9.681
G1 X-57.388 Y52.046 Z-9.502
G1 X-56.393 Y52.046 Z-9.286
G1 X-55.399 Y52.046 Z-9.036
G1 X-54.405 Y52.046 Z-8.752
G1 X-53.410 Y52.046 Z-8.436
G1 X-52.416 Y52.046 Z-8.090
G1 X-51.421 Y52.046 Z-7.715
G1 X-50.427 Y52.046 Z-7.316
G1 X-49.433 Y52.046 Z-6.894
G1 X-48.438 Y52.046 Z-6.455
G1 X-47.444 Y52.046 Z-6.002
G1 X-45.455 Y52.046 Z-5.087
G1 X-44.461 Y52.046 Z-4.640
G1 X-43.466 Y52.046 Z-4.214
G1 X-42.472 Y52.046 Z-3.821
G1 X-41.478 Y52.046 Z-3.474
G1 X-40.483 Y52.046 Z-3.186
G1 X-39.489 Y52.046 Z-2.978
G1 X-38.494 Y52.046 Z-3.090
G1 X-37.500 Y52.046 Z-3.662
G1 X-36.506 Y52.046 Z-3.090
G1 X-35.511 Y52.046 Z-2.978
G1 X-34.517 Y52.046 Z-3.186
G1 X-33.522 Y52.046 Z-3.474
G1 X-32.528 Y52.046 Z-3.821
G1 X-31.534 Y52.046 Z-4.214
G1 X-30.539 Y52.046 Z-4.640
G1 X-29.545 Y52.046 Z-5.087
G1 X-27.556 Y52.046 Z-6.002
G1 X-26.562 Y52.046 Z-6.455
G1 X-25.567 Y52.046 Z-6.894
G1 X-24.573 Y52.046 Z-7.316
G1 X-23.579 Y52.046 Z-7.715
G1 X-22.584 Y52.046 Z-8.090
G1 X-21.590 Y52.046 Z-8.436
G1 X-20.595 Y52.046 Z-8.752
G1 X-19.601 Y52.046 Z-9.036
G1 X-18.607 Y52.046 Z-9.286
G1 X-17.612 Y52.046 Z-9.502
G1 X-16.618 Y52.046 Z-9.681
G1 X-15.624 Y52.046 Z-9.825
G1 X-14.629 Y52.046 Z-9.930
G1 X-13.635 Y52.046 Z-9.996
G1 X-12.640 Y52.046 Z-10.000
G1 X0.287 Y52.046 Z-10.000
(End of step 11.)
G0 Z3.000
G0 X-73.030 Y56.906
(Begin step 12.)
G0 X-73.030 Y56.906
(part 1)
G1 X-73.030 Y56.906 Z-10.000
G1 X-58.226 Y56.906 Z-10.000
G1 X-57.239 Y56.906 Z-9.980
G1 X-56.252 Y56.906 Z-9.917
G1 X-55.265 Y56.906 Z-9.831
G1 X-54.278 Y56.906 Z-9.722
G1 X-53.291 Y56.906 Z-9.592
G1 X-52.304 Y56.906 Z-9.445
G1 X-51.317 Y56.906 Z-9.281
G1 X-50.330 Y56.906 Z-9.106
G1 X-49.343 Y56.906 Z-8.920
G1 X-46.383 Y56.906 Z-8.341
G1 X-45.396 Y56.906 Z-8.152
G1 X-44.409 Y56.906 Z-7.973
G1 X-43.422 Y56.906 Z-7.807
G1 X-42.435 Y56.906 Z-7.658
G1 X-41.448 Y56.906 Z-7.530
G1 X-40.461 Y56.906 Z-7.426
G1 X-39.474 Y56.906 Z-7.351
G1 X-38.487 Y56.906 Z-7.406
G1 X-37.500 Y56.906 Z-7.678
G1 X-36.513 Y56.906 Z-7.406
G1 X-35.526 Y56.906 Z-7.351
G1 X-34.539 Y56.906 Z-7.426
G1 X-33.552 Y56.906 Z-7.530
G1 X-32.565 Y56.906 Z-7.658
G1 X-31.578 Y56.906 Z-7.807
G1 X-30.591 Y56.906 Z-7.973
G1 X-29.604 Y56.906 Z-8.152
G1 X-28.617 Y56.906 Z-8.341
G1 X-25.657 Y56.906 Z-8.920
G1 X-24.670 Y56.906 Z-9.106
G1 X-23.683 Y56.906 Z-9.281
G1 X-22.696 Y56.906 Z-9.445
G1 X-21.709 Y56.906 Z-9.592
G1 X-20.722 Y56.906 Z-9.722
G1 X-19.735 Y56.906 Z-9.831
G1 X-18.748 Y56.906 Z-9.917
G1 X-17.761 Y56.906 Z-9.980
G1 X-16.774 Y56.906 Z-10.000
G1 X-1.970 Y56.906 Z-10.000
(End of step 12.)
G0 Z3.000
G0 X-69.902 Y61.766
(Begin step 13.)
G0 X-69.902 Y61.766
(part 1)
G1 X-69.902 Y61.766 Z-10.000
G1 X-51.956 Y61.766 Z-10.000
G1 X-50.959 Y61.766 Z-9.984
G1 X-49.962 Y61.766 Z-9.947
G1 X-48.965 Y61.766 Z-9.902
G1 X-47.968 Y61.766 Z-9.849
G1 X-43.980 Y61.766 Z-9.615
G1 X-42.983 Y61.766 Z-9.562
G1 X-41.986 Y61.766 Z-9.514
G1 X-40.989 Y61.766 Z-9.474
G1 X-39.992 Y61.766 Z-9.442
G1 X-38.995 Y61.766 Z-9.422
G1 X-37.998 Y61.766 Z-9.410
G1 X-37.002 Y61.766 Z-9.411
G1 X-36.005 Y61.766 Z-9.422
G1 X-35.008 Y61.766 Z-9.443
G1 X-34.011 Y61.766 Z-9.474
G1 X-33.014 Y61.766 Z-9.514
G1 X-32.017 Y61.766 Z-9.562
G1 X-31.020 Y61.766 Z-9.615
G1 X-27.032 Y61.766 Z-9.849
G1 X-26.035 Y61.766 Z-9.902
G1 X-25.038 Y61.766 Z-9.947
G1 X-24.041 Y61.766 Z-9.984
G1 X-23.044 Y61.766 Z-10.000
G1 X-5.098 Y61.766 Z-10.000
(End of step 13.)
G0 Z3.000
G0 X-65.609 Y66.626
(Begin step 14.)
G0 X-65.609 Y66.626
(part 1)
G1 X-65.609 Y66.626 Z-10.000
G1 X-9.391 Y66.626 Z-10.000
(End of step 14.)
G0 Z3.000
G0 X-59.474 Y71.486
(Begin step 15.)
G0 X-59.474 Y71.486
(part 1)
G1 X-59.474 Y71.486 Z-10.000
G1 X-15.526 Y71.486 Z-10.000
(End of step 15.)
G0 Z3.000
G0 X-48.845 Y76.346
(Begin step 16.)
G0 X-48.845 Y76.346
(part 1)
G1 X-48.845 Y76.346 Z-10.000
G1 X-26.155 Y76.346 Z-10.000
(End of step 16.)
(End of layer 3)
G0 Z5.000
(Finish operation: Surface001)
(Begin postamble)
M5
G17 G90
M2
