(Exported by FreeCAD)
(Post Processor: grbl_post)
(Output Time:2022-05-23 23:25:43.001769)
(Begin preamble)
G17 G90
G21
(Begin operation: 3.175 Z1 UP Helicoidale002)
(Path: 3.175 Z1 UP Helicoidale002)
(3.175 Z1 UP Helicoidale002)
(Begin toolchange)
( M6 T3.0 )
M3 S10000.0
(Finish operation: 3.175 Z1 UP Helicoidale002)
(Begin operation: Fixture)
(Path: Fixture)
G54
G0 Z20.000
(Finish operation: Fixture)
(Begin operation: Pocket_Shape001)
(Path: Pocket_Shape001)
(Pocket_Shape001)
G0 Z20.000
G0 X67.076 Y66.530
G0 Z18.000
G1 X67.076 Y66.530 Z14.472 F500.000
G1 X59.093 Y58.547 Z14.472 F200.000
G0 Z20.000
G0 X57.954 Y59.650 Z20.000
G0 X57.954 Y59.650 Z18.000
G1 X57.954 Y59.650 Z14.472 F500.000
G1 X65.944 Y67.639 Z14.472 F200.000
G0 Z20.000
G0 X64.765 Y68.702 Z20.000
G0 X64.765 Y68.702 Z18.000
G1 X64.765 Y68.702 Z14.472 F500.000
G1 X56.749 Y60.685 Z14.472 F200.000
G0 Z20.000
G0 X55.475 Y61.654 Z20.000
G0 X55.475 Y61.654 Z18.000
G1 X55.475 Y61.654 Z14.472 F500.000
G1 X63.540 Y69.718 Z14.472 F200.000
G0 Z20.000
G0 X62.267 Y70.686 Z20.000
G0 X62.267 Y70.686 Z18.000
G1 X62.267 Y70.686 Z14.472 F500.000
G1 X54.134 Y62.554 Z14.472 F200.000
G0 Z20.000
G0 X52.717 Y63.378 Z20.000
G0 X52.717 Y63.378 Z18.000
G1 X52.717 Y63.378 Z14.472 F500.000
G1 X60.942 Y71.604 Z14.472 F200.000
G0 Z20.000
G0 X59.568 Y72.471 Z20.000
G0 X59.568 Y72.471 Z18.000
G1 X59.568 Y72.471 Z14.472 F500.000
G1 X51.234 Y64.137 Z14.472 F200.000
G0 Z20.000
G0 X49.664 Y64.808 Z20.000
G0 X49.664 Y64.808 Z18.000
G1 X49.664 Y64.808 Z14.472 F500.000
G1 X58.143 Y73.287 Z14.472 F200.000
G0 Z20.000
G0 X56.665 Y74.051 Z20.000
G0 X56.665 Y74.051 Z18.000
G1 X56.665 Y74.051 Z14.472 F500.000
G1 X48.001 Y65.387 Z14.472 F200.000
G0 Z20.000
G0 X46.246 Y65.873 Z20.000
G0 X46.246 Y65.873 Z18.000
G1 X46.246 Y65.873 Z14.472 F500.000
G1 X55.131 Y74.759 Z14.472 F200.000
G0 Z20.000
G0 X53.540 Y75.409 Z20.000
G0 X53.540 Y75.409 Z18.000
G1 X53.540 Y75.409 Z14.472 F500.000
G1 X44.388 Y66.257 Z14.472 F200.000
G0 Z20.000
G0 X45.003 Y69.114 Z20.000
G0 X45.003 Y69.114 Z18.000
G1 X45.003 Y69.114 Z14.472 F500.000
G1 X51.888 Y75.999 Z14.472 F200.000
G0 Z20.000
G0 X50.171 Y76.523 Z20.000
G0 X50.171 Y76.523 Z18.000
G1 X50.171 Y76.523 Z14.472 F500.000
G1 X44.916 Y71.268 Z14.472 F200.000
G0 Z20.000
G0 X44.226 Y72.820 Z20.000
G0 X44.226 Y72.820 Z18.000
G1 X44.226 Y72.820 Z14.472 F500.000
G1 X48.381 Y76.975 Z14.472 F200.000
G0 Z20.000
G0 X46.511 Y77.346 Z20.000
G0 X46.511 Y77.346 Z18.000
G1 X46.511 Y77.346 Z14.472 F500.000
G1 X43.150 Y73.986 Z14.472 F200.000
G0 Z20.000
G0 X41.708 Y74.784 Z20.000
G0 X41.708 Y74.784 Z18.000
G1 X41.708 Y74.784 Z14.472 F500.000
G1 X44.555 Y77.632 Z14.472 F200.000
G0 Z20.000
G0 X42.504 Y77.822 Z20.000
G0 X42.504 Y77.822 Z18.000
G1 X42.504 Y77.822 Z14.472 F500.000
G1 X39.757 Y75.075 Z14.472 F200.000
G0 Z20.000
G0 X40.347 Y77.907 Z20.000
G0 X40.347 Y77.907 Z18.000
G1 X40.347 Y77.907 Z14.472 F500.000
G1 X22.464 Y60.024 Z14.472 F200.000
G0 Z20.000
G0 X19.913 Y57.473 Z20.000
G0 X19.913 Y57.473 Z18.000
G1 X19.913 Y57.473 Z14.472 F500.000
G1 X18.889 Y56.449 Z14.472 F200.000
G0 Z20.000
G0 X18.153 Y57.955 Z20.000
G0 X18.153 Y57.955 Z18.000
G1 X18.153 Y57.955 Z14.472 F500.000
G1 X38.059 Y77.860 Z14.472 F200.000
G0 Z20.000
G0 X35.607 Y77.650 Z20.000
G0 X35.607 Y77.650 Z18.000
G1 X35.607 Y77.650 Z14.472 F500.000
G1 X17.040 Y59.083 Z14.472 F200.000
G0 Z20.000
G0 X15.553 Y59.838 Z20.000
G0 X15.553 Y59.838 Z18.000
G1 X15.553 Y59.838 Z14.472 F500.000
G1 X32.967 Y77.251 Z14.472 F200.000
G0 Z20.000
G0 X30.059 Y76.585 Z20.000
G0 X30.059 Y76.585 Z18.000
G1 X30.059 Y76.585 Z14.472 F500.000
G1 X13.532 Y60.058 Z14.472 F200.000
G0 Z20.000
G0 X10.255 Y63.505 Z20.000
G0 X10.255 Y63.505 Z18.000
G1 X10.255 Y63.505 Z14.472 F500.000
G1 X16.494 Y69.745 Z14.472 F200.000
G0 Z20.000
G0 X22.737 Y73.746 Z20.000
G0 X22.737 Y73.746 Z18.000
G1 X22.737 Y73.746 Z14.472 F500.000
G1 X6.253 Y57.262 Z14.472 F200.000
G0 Z20.000
G0 X8.966 Y55.492 Z20.000
G0 X8.966 Y55.492 Z18.000
G1 X8.966 Y55.492 Z14.472 F500.000
G1 X3.415 Y49.940 Z14.472 F200.000
G0 Z20.000
G0 X2.748 Y47.032 Z20.000
G0 X2.748 Y47.032 Z18.000
G1 X2.748 Y47.032 Z14.472 F500.000
G1 X9.177 Y53.461 Z14.472 F200.000
G0 Z20.000
G0 X9.936 Y51.979 Z20.000
G0 X9.936 Y51.979 Z18.000
G1 X9.936 Y51.979 Z14.472 F500.000
G1 X2.350 Y44.392 Z14.472 F200.000
G0 Z20.000
G0 X2.139 Y41.941 Z20.000
G0 X2.139 Y41.941 Z18.000
G1 X2.139 Y41.941 Z14.472 F500.000
G1 X11.068 Y50.869 Z14.472 F200.000
G0 Z20.000
G0 X12.574 Y50.134 Z20.000
G0 X12.574 Y50.134 Z18.000
G1 X12.574 Y50.134 Z14.472 F500.000
G1 X2.093 Y39.653 Z14.472 F200.000
G0 Z20.000
G0 X2.177 Y37.496 Z20.000
G0 X2.177 Y37.496 Z18.000
G1 X2.177 Y37.496 Z14.472 F500.000
G1 X14.643 Y49.961 Z14.472 F200.000
G0 Z20.000
G0 X14.478 Y47.555 Z20.000
G0 X14.478 Y47.555 Z18.000
G1 X14.478 Y47.555 Z14.472 F500.000
G1 X2.368 Y35.445 Z14.472 F200.000
G0 Z20.000
G0 X2.653 Y33.489 Z20.000
G0 X2.653 Y33.489 Z18.000
G1 X2.653 Y33.489 Z14.472 F500.000
G1 X13.785 Y44.620 Z14.472 F200.000
G0 Z20.000
G0 X13.457 Y42.051 Z20.000
G0 X13.457 Y42.051 Z18.000
G1 X13.457 Y42.051 Z14.472 F500.000
G1 X3.024 Y31.618 Z14.472 F200.000
G0 Z20.000
G0 X3.477 Y29.829 Z20.000
G0 X3.477 Y29.829 Z18.000
G1 X3.477 Y29.829 Z14.472 F500.000
G1 X13.384 Y39.736 Z14.472 F200.000
G0 Z20.000
G0 X13.490 Y37.601 Z20.000
G0 X13.490 Y37.601 Z18.000
G1 X13.490 Y37.601 Z14.472 F500.000
G1 X4.001 Y28.112 Z14.472 F200.000
G0 Z20.000
G0 X4.590 Y26.459 Z20.000
G0 X4.590 Y26.459 Z18.000
G1 X4.590 Y26.459 Z14.472 F500.000
G1 X13.744 Y35.613 Z14.472 F200.000
G0 Z20.000
G0 X14.119 Y33.746 Z20.000
G0 X14.119 Y33.746 Z18.000
G1 X14.119 Y33.746 Z14.472 F500.000
G1 X5.241 Y24.868 Z14.472 F200.000
G0 Z20.000
G0 X5.949 Y23.335 Z20.000
G0 X5.949 Y23.335 Z18.000
G1 X5.949 Y23.335 Z14.472 F500.000
G1 X9.187 Y26.573 Z14.472 F200.000
G0 Z20.000
G0 X9.009 Y24.153 Z20.000
G0 X9.009 Y24.153 Z18.000
G1 X9.009 Y24.153 Z14.472 F500.000
G1 X6.712 Y21.857 Z14.472 F200.000
G0 Z20.000
G0 X7.529 Y20.432 Z20.000
G0 X7.529 Y20.432 Z18.000
G1 X7.529 Y20.432 Z14.472 F500.000
G1 X9.600 Y22.503 Z14.472 F200.000
G0 Z20.000
G0 X10.593 Y21.255 Z20.000
G0 X10.593 Y21.255 Z18.000
G1 X10.593 Y21.255 Z14.472 F500.000
G1 X8.396 Y19.057 Z14.472 F200.000
G0 Z20.000
G0 X9.313 Y17.733 Z20.000
G0 X9.313 Y17.733 Z18.000
G1 X9.313 Y17.733 Z14.472 F500.000
G1 X11.945 Y20.365 Z14.472 F200.000
G0 Z20.000
G0 X13.747 Y19.925 Z20.000
G0 X13.747 Y19.925 Z18.000
G1 X13.747 Y19.925 Z14.472 F500.000
G1 X10.281 Y16.460 Z14.472 F200.000
G0 Z20.000
G0 X11.297 Y15.234 Z20.000
G0 X11.297 Y15.234 Z18.000
G1 X11.297 Y15.234 Z14.472 F500.000
G1 X16.852 Y20.789 Z14.472 F200.000
G0 Z20.000
G0 X18.250 Y22.187 Z20.000
G0 X18.250 Y22.187 Z18.000
G1 X18.250 Y22.187 Z14.472 F500.000
G1 X19.312 Y23.249 Z14.472 F200.000
G0 Z20.000
G0 X20.350 Y22.045 Z20.000
G0 X20.350 Y22.045 Z18.000
G1 X20.350 Y22.045 Z14.472 F500.000
G1 X12.360 Y14.056 Z14.472 F200.000
G0 Z20.000
G0 X13.470 Y12.924 Z20.000
G0 X13.470 Y12.924 Z18.000
G1 X13.470 Y12.924 Z14.472 F500.000
G1 X21.454 Y20.908 Z14.472 F200.000
G0 Z20.000
G0 X22.625 Y19.837 Z20.000
G0 X22.625 Y19.837 Z18.000
G1 X22.625 Y19.837 Z14.472 F500.000
G1 X14.626 Y11.839 Z14.472 F200.000
G0 Z20.000
G0 X15.829 Y10.800 Z20.000
G0 X15.829 Y10.800 Z18.000
G1 X15.829 Y10.800 Z14.472 F500.000
G1 X23.859 Y18.830 Z14.472 F200.000
G0 Z20.000
G0 X25.172 Y17.902 Z20.000
G0 X25.172 Y17.902 Z18.000
G1 X25.172 Y17.902 Z14.472 F500.000
G1 X17.080 Y9.809 Z14.472 F200.000
G0 Z20.000
G0 X18.378 Y8.866 Z20.000
G0 X18.378 Y8.866 Z18.000
G1 X18.378 Y8.866 Z14.472 F500.000
G1 X26.540 Y17.028 Z14.472 F200.000
G0 Z20.000
G0 X27.990 Y16.237 Z20.000
G0 X27.990 Y16.237 Z18.000
G1 X27.990 Y16.237 Z14.472 F500.000
G1 X19.726 Y7.972 Z14.472 F200.000
G0 Z20.000
G0 X21.124 Y7.128 Z20.000
G0 X21.124 Y7.128 Z18.000
G1 X21.124 Y7.128 Z14.472 F500.000
G1 X29.521 Y15.525 Z14.472 F200.000
G0 Z20.000
G0 X31.134 Y14.897 Z20.000
G0 X31.134 Y14.897 Z18.000
G1 X31.134 Y14.897 Z14.472 F500.000
G1 X22.574 Y6.337 Z14.472 F200.000
G0 Z20.000
G0 X24.078 Y5.600 Z20.000
G0 X24.078 Y5.600 Z18.000
G1 X24.078 Y5.600 Z14.472 F500.000
G1 X32.839 Y14.361 Z14.472 F200.000
G0 Z20.000
G0 X34.647 Y13.927 Z20.000
G0 X34.647 Y13.927 Z18.000
G1 X34.647 Y13.927 Z14.472 F500.000
G1 X25.639 Y4.919 Z14.472 F200.000
G0 Z20.000
G0 X27.260 Y4.299 Z20.000
G0 X27.260 Y4.299 Z18.000
G1 X27.260 Y4.299 Z14.472 F500.000
G1 X35.756 Y12.794 Z14.472 F200.000
G0 Z20.000
G0 X34.931 Y9.728 Z20.000
G0 X34.931 Y9.728 Z18.000
G1 X34.931 Y9.728 Z14.472 F500.000
G1 X28.945 Y3.742 Z14.472 F200.000
G0 Z20.000
G0 X30.698 Y3.254 Z20.000
G0 X30.698 Y3.254 Z18.000
G1 X30.698 Y3.254 Z14.472 F500.000
G1 X35.364 Y7.919 Z14.472 F200.000
G0 Z20.000
G0 X36.254 Y6.568 Z20.000
G0 X36.254 Y6.568 Z18.000
G1 X36.254 Y6.568 Z14.472 F500.000
G1 X32.525 Y2.839 Z14.472 F200.000
G0 Z20.000
G0 X34.432 Y2.504 Z20.000
G0 X34.432 Y2.504 Z18.000
G1 X34.432 Y2.504 Z14.472 F500.000
G1 X37.503 Y5.575 Z14.472 F200.000
G0 Z20.000
G0 X39.163 Y4.994 Z20.000
G0 X39.163 Y4.994 Z18.000
G1 X39.163 Y4.994 Z14.472 F500.000
G1 X36.427 Y2.258 Z14.472 F200.000
G0 Z20.000
G0 X38.529 Y2.118 Z20.000
G0 X38.529 Y2.118 Z18.000
G1 X38.529 Y2.118 Z14.472 F500.000
G1 X41.590 Y5.179 Z14.472 F200.000
G0 Z20.000
G0 X40.754 Y2.102 Z20.000
G0 X40.754 Y2.102 Z18.000
G1 X40.754 Y2.102 Z14.472 F500.000
G1 X61.418 Y22.765 Z14.472 F200.000
G0 Z20.000
G0 X62.344 Y21.450 Z20.000
G0 X62.344 Y21.450 Z18.000
G1 X62.344 Y21.450 Z14.472 F500.000
G1 X43.112 Y2.219 Z14.472 F200.000
G0 Z20.000
G0 X45.653 Y2.518 Z20.000
G0 X45.653 Y2.518 Z18.000
G1 X45.653 Y2.518 Z14.472 F500.000
G1 X63.633 Y20.497 Z14.472 F200.000
G0 Z20.000
G0 X65.341 Y19.964 Z20.000
G0 X65.341 Y19.964 Z18.000
G1 X65.341 Y19.964 Z14.472 F500.000
G1 X48.407 Y3.030 Z14.472 F200.000
G0 Z20.000
G0 X51.492 Y3.874 Z20.000
G0 X51.492 Y3.874 Z18.000
G1 X51.492 Y3.874 Z14.472 F500.000
G1 X67.923 Y20.304 Z14.472 F200.000
G0 Z20.000
G0 X70.666 Y23.048 Z20.000
G0 X70.666 Y23.048 Z18.000
G1 X70.666 Y23.048 Z14.472 F500.000
G1 X76.126 Y28.507 Z14.472 F200.000
G0 Z20.000
G0 X76.970 Y31.593 Z20.000
G0 X76.970 Y31.593 Z18.000
G1 X76.970 Y31.593 Z14.472 F500.000
G1 X71.021 Y25.644 Z14.472 F200.000
G0 Z20.000
G0 X70.484 Y27.349 Z20.000
G0 X70.484 Y27.349 Z18.000
G1 X70.484 Y27.349 Z14.472 F500.000
G1 X77.482 Y34.346 Z14.472 F200.000
G0 Z20.000
G0 X77.781 Y36.887 Z20.000
G0 X77.781 Y36.887 Z18.000
G1 X77.781 Y36.887 Z14.472 F500.000
G1 X69.527 Y28.633 Z14.472 F200.000
G0 Z20.000
G0 X68.211 Y29.559 Z20.000
G0 X68.211 Y29.559 Z18.000
G1 X68.211 Y29.559 Z14.472 F500.000
G1 X77.897 Y39.245 Z14.472 F200.000
G0 Z20.000
G0 X77.881 Y41.471 Z20.000
G0 X77.881 Y41.471 Z18.000
G1 X77.881 Y41.471 Z14.472 F500.000
G1 X66.469 Y30.058 Z14.472 F200.000
G0 Z20.000
G0 X64.991 Y30.822 Z20.000
G0 X64.991 Y30.822 Z18.000
G1 X64.991 Y30.822 Z14.472 F500.000
G1 X77.742 Y43.573 Z14.472 F200.000
G0 Z20.000
G0 X77.495 Y45.568 Z20.000
G0 X77.495 Y45.568 Z18.000
G1 X77.495 Y45.568 Z14.472 F500.000
G1 X65.943 Y34.015 Z14.472 F200.000
G0 Z20.000
G0 X66.421 Y36.735 Z20.000
G0 X66.421 Y36.735 Z18.000
G1 X66.421 Y36.735 Z14.472 F500.000
G1 X77.161 Y47.475 Z14.472 F200.000
G0 Z20.000
G0 X76.746 Y49.301 Z20.000
G0 X76.746 Y49.301 Z18.000
G1 X76.746 Y49.301 Z14.472 F500.000
G1 X66.604 Y39.159 Z14.472 F200.000
G0 Z20.000
G0 X66.586 Y41.383 Z20.000
G0 X66.586 Y41.383 Z18.000
G1 X66.586 Y41.383 Z14.472 F500.000
G1 X76.257 Y51.054 Z14.472 F200.000
G0 Z20.000
G0 X75.701 Y52.739 Z20.000
G0 X75.701 Y52.739 Z18.000
G1 X75.701 Y52.739 Z14.472 F500.000
G1 X66.396 Y43.435 Z14.472 F200.000
G0 Z20.000
G0 X66.073 Y45.353 Z20.000
G0 X66.073 Y45.353 Z18.000
G1 X66.073 Y45.353 Z14.472 F500.000
G1 X75.080 Y54.360 Z14.472 F200.000
G0 Z20.000
G0 X74.400 Y55.921 Z20.000
G0 X74.400 Y55.921 Z18.000
G1 X74.400 Y55.921 Z14.472 F500.000
G1 X65.642 Y47.163 Z14.472 F200.000
G0 Z20.000
G0 X65.103 Y48.867 Z20.000
G0 X65.103 Y48.867 Z18.000
G1 X65.103 Y48.867 Z14.472 F500.000
G1 X66.162 Y49.925 Z14.472 F200.000
G0 Z20.000
G0 X71.056 Y54.819 Z20.000
G0 X71.056 Y54.819 Z18.000
G1 X71.056 Y54.819 Z14.472 F500.000
G1 X73.663 Y57.426 Z14.472 F200.000
G0 Z20.000
G0 X72.871 Y58.876 Z20.000
G0 X72.871 Y58.876 Z18.000
G1 X72.871 Y58.876 Z14.472 F500.000
G1 X70.746 Y56.750 Z14.472 F200.000
G0 Z20.000
G0 X69.935 Y58.181 Z20.000
G0 X69.935 Y58.181 Z18.000
G1 X69.935 Y58.181 Z14.472 F500.000
G1 X72.027 Y60.274 Z14.472 F200.000
G0 Z20.000
G0 X71.133 Y61.621 Z20.000
G0 X71.133 Y61.621 Z18.000
G1 X71.133 Y61.621 Z14.472 F500.000
G1 X68.760 Y59.247 Z14.472 F200.000
G0 Z20.000
G0 X67.203 Y59.932 Z20.000
G0 X67.203 Y59.932 Z18.000
G1 X67.203 Y59.932 Z14.472 F500.000
G1 X70.190 Y62.920 Z14.472 F200.000
G0 Z20.000
G0 X69.199 Y64.170 Z20.000
G0 X69.199 Y64.170 Z18.000
G1 X69.199 Y64.170 Z14.472 F500.000
G1 X65.016 Y59.987 Z14.472 F200.000
G0 Z20.000
G0 X60.165 Y57.378 Z20.000
G0 X60.165 Y57.378 Z18.000
G1 X60.165 Y57.378 Z14.472 F500.000
G1 X68.161 Y65.373 Z14.472 F200.000
G0 Z20.000
G0 X51.803 Y60.223 Z20.000
G0 X51.803 Y60.223 Z18.000
G1 X51.803 Y60.223 Z14.472 F500.000
G1 X51.050 Y59.470 Z14.472 F200.000
G0 Z20.000
G0 X48.890 Y55.068 Z20.000
G0 X48.890 Y55.068 Z18.000
G1 X48.890 Y55.068 Z14.472 F500.000
G1 X47.988 Y54.167 Z14.472 F200.000
G0 Z20.000
G0 X45.828 Y49.765 Z20.000
G0 X45.828 Y49.765 Z18.000
G1 X45.828 Y49.765 Z14.472 F500.000
G1 X44.926 Y48.863 Z14.472 F200.000
G0 Z20.000
G0 X43.933 Y45.628 Z20.000
G0 X43.933 Y45.628 Z18.000
G1 X43.933 Y45.628 Z14.472 F500.000
G1 X43.798 Y45.493 Z14.472 F200.000
G0 Z20.000
G0 X47.496 Y40.225 Z20.000
G0 X47.496 Y40.225 Z18.000
G1 X47.496 Y40.225 Z14.472 F500.000
G1 X46.653 Y39.383 Z14.472 F200.000
G0 Z20.000
G0 X49.347 Y39.835 Z20.000
G0 X49.347 Y39.835 Z18.000
G1 X49.347 Y39.835 Z14.472 F500.000
G1 X49.677 Y40.165 Z14.472 F200.000
G0 Z20.000
G0 X51.589 Y39.835 Z20.000
G0 X51.589 Y39.835 Z18.000
G1 X51.589 Y39.835 Z14.472 F500.000
G1 X51.919 Y40.165 Z14.472 F200.000
G0 Z20.000
G0 X53.830 Y39.835 Z20.000
G0 X53.830 Y39.835 Z18.000
G1 X53.830 Y39.835 Z14.472 F500.000
G1 X54.160 Y40.165 Z14.472 F200.000
G0 Z20.000
G0 X56.072 Y39.835 Z20.000
G0 X56.072 Y39.835 Z18.000
G1 X56.072 Y39.835 Z14.472 F500.000
G1 X56.402 Y40.165 Z14.472 F200.000
G0 Z20.000
G0 X58.313 Y39.835 Z20.000
G0 X58.313 Y39.835 Z18.000
G1 X58.313 Y39.835 Z14.472 F500.000
G1 X58.643 Y40.165 Z14.472 F200.000
G0 Z20.000
G0 X60.555 Y39.835 Z20.000
G0 X60.555 Y39.835 Z18.000
G1 X60.555 Y39.835 Z14.472 F500.000
G1 X60.885 Y40.165 Z14.472 F200.000
G0 Z20.000
G0 X62.796 Y39.835 Z20.000
G0 X62.796 Y39.835 Z18.000
G1 X62.796 Y39.835 Z14.472 F500.000
G1 X63.126 Y40.165 Z14.472 F200.000
G0 Z20.000
G0 X74.784 Y24.924 Z20.000
G0 X74.784 Y24.924 Z18.000
G1 X74.784 Y24.924 Z14.472 F500.000
G1 X55.075 Y5.216 Z14.472 F200.000
G0 Z20.000
G0 X59.735 Y7.634 Z20.000
G0 X59.735 Y7.634 Z18.000
G1 X59.735 Y7.634 Z14.472 F500.000
G1 X72.366 Y20.264 Z14.472 F200.000
G0 Z20.000
G0 X53.426 Y17.015 Z20.000
G0 X53.426 Y17.015 Z18.000
G1 X53.426 Y17.015 Z14.472 F500.000
G1 X44.828 Y8.418 Z14.472 F200.000
G0 Z20.000
G0 X45.011 Y10.842 Z20.000
G0 X45.011 Y10.842 Z18.000
G1 X45.011 Y10.842 Z14.472 F500.000
G1 X49.173 Y15.004 Z14.472 F200.000
G0 Z20.000
G0 X45.994 Y14.066 Z20.000
G0 X45.994 Y14.066 Z18.000
G1 X45.994 Y14.066 Z14.472 F500.000
G1 X44.421 Y12.493 Z14.472 F200.000
G0 Z20.000
G0 X51.571 Y19.643 Z20.000
G0 X51.571 Y19.643 Z18.000
G1 X51.571 Y19.643 Z14.472 F500.000
G1 X51.807 Y19.879 Z14.472 F200.000
G0 Z20.000
G0 X50.745 Y21.059 Z20.000
G0 X50.745 Y21.059 Z18.000
G1 X50.745 Y21.059 Z14.472 F500.000
G1 X50.986 Y21.300 Z14.472 F200.000
G0 Z20.000
G0 X49.924 Y22.480 Z20.000
G0 X49.924 Y22.480 Z18.000
G1 X49.924 Y22.480 Z14.472 F500.000
G1 X50.166 Y22.721 Z14.472 F200.000
G0 Z20.000
G0 X49.104 Y23.901 Z20.000
G0 X49.104 Y23.901 Z18.000
G1 X49.104 Y23.901 Z14.472 F500.000
G1 X49.345 Y24.142 Z14.472 F200.000
G0 Z20.000
G0 X48.283 Y25.322 Z20.000
G0 X48.283 Y25.322 Z18.000
G1 X48.283 Y25.322 Z14.472 F500.000
G1 X48.525 Y25.564 Z14.472 F200.000
G0 Z20.000
G0 X47.463 Y26.743 Z20.000
G0 X47.463 Y26.743 Z18.000
G1 X47.463 Y26.743 Z14.472 F500.000
G1 X47.705 Y26.985 Z14.472 F200.000
G0 Z20.000
G0 X46.643 Y28.164 Z20.000
G0 X46.643 Y28.164 Z18.000
G1 X46.643 Y28.164 Z14.472 F500.000
G1 X46.884 Y28.406 Z14.472 F200.000
G0 Z20.000
G0 X45.822 Y29.585 Z20.000
G0 X45.822 Y29.585 Z18.000
G1 X45.822 Y29.585 Z14.472 F500.000
G1 X46.064 Y29.827 Z14.472 F200.000
G0 Z20.000
G0 X45.002 Y31.006 Z20.000
G0 X45.002 Y31.006 Z18.000
G1 X45.002 Y31.006 Z14.472 F500.000
G1 X45.243 Y31.248 Z14.472 F200.000
G0 Z20.000
G0 X44.181 Y32.427 Z20.000
G0 X44.181 Y32.427 Z18.000
G1 X44.181 Y32.427 Z14.472 F500.000
G1 X44.423 Y32.669 Z14.472 F200.000
G0 Z20.000
G0 X43.179 Y33.667 Z20.000
G0 X43.179 Y33.667 Z18.000
G1 X43.179 Y33.667 Z14.472 F500.000
G1 X43.949 Y34.437 Z14.472 F200.000
G0 Z20.000
G0 X36.882 Y34.094 Z20.000
G0 X36.882 Y34.094 Z18.000
G1 X36.882 Y34.094 Z14.472 F500.000
G1 X35.740 Y32.953 Z14.472 F200.000
G0 Z20.000
G0 X33.580 Y28.551 Z20.000
G0 X33.580 Y28.551 Z18.000
G1 X33.580 Y28.551 Z14.472 F500.000
G1 X32.678 Y27.649 Z14.472 F200.000
G0 Z20.000
G0 X30.518 Y23.247 Z20.000
G0 X30.518 Y23.247 Z18.000
G1 X30.518 Y23.247 Z14.472 F500.000
G1 X29.616 Y22.346 Z14.472 F200.000
G0 Z20.000
G0 X15.192 Y30.336 Z20.000
G0 X15.192 Y30.336 Z18.000
G1 X15.192 Y30.336 Z14.472 F500.000
G1 X14.861 Y30.006 Z14.472 F200.000
G0 Z20.000
G0 X14.613 Y31.999 Z20.000
G0 X14.613 Y31.999 Z18.000
G1 X14.613 Y31.999 Z14.472 F500.000
G1 X12.437 Y29.823 Z14.472 F200.000
G0 Z20.000
G0 X17.966 Y39.835 Z20.000
G0 X17.966 Y39.835 Z18.000
G1 X17.966 Y39.835 Z14.472 F500.000
G1 X18.296 Y40.165 Z14.472 F200.000
G0 Z20.000
G0 X20.207 Y39.835 Z20.000
G0 X20.207 Y39.835 Z18.000
G1 X20.207 Y39.835 Z14.472 F500.000
G1 X20.537 Y40.165 Z14.472 F200.000
G0 Z20.000
G0 X22.449 Y39.835 Z20.000
G0 X22.449 Y39.835 Z18.000
G1 X22.449 Y39.835 Z14.472 F500.000
G1 X22.779 Y40.165 Z14.472 F200.000
G0 Z20.000
G0 X24.690 Y39.835 Z20.000
G0 X24.690 Y39.835 Z18.000
G1 X24.690 Y39.835 Z14.472 F500.000
G1 X25.020 Y40.165 Z14.472 F200.000
G0 Z20.000
G0 X26.932 Y39.835 Z20.000
G0 X26.932 Y39.835 Z18.000
G1 X26.932 Y39.835 Z14.472 F500.000
G1 X27.262 Y40.165 Z14.472 F200.000
G0 Z20.000
G0 X29.173 Y39.835 Z20.000
G0 X29.173 Y39.835 Z18.000
G1 X29.173 Y39.835 Z14.472 F500.000
G1 X29.503 Y40.165 Z14.472 F200.000
G0 Z20.000
G0 X31.415 Y39.835 Z20.000
G0 X31.415 Y39.835 Z18.000
G1 X31.415 Y39.835 Z14.472 F500.000
G1 X31.745 Y40.165 Z14.472 F200.000
G0 Z20.000
G0 X33.195 Y39.373 Z20.000
G0 X33.195 Y39.373 Z18.000
G1 X33.195 Y39.373 Z14.472 F500.000
G1 X33.340 Y39.518 Z14.472 F200.000
G0 Z20.000
G0 X35.964 Y46.625 Z20.000
G0 X35.964 Y46.625 Z18.000
G1 X35.964 Y46.625 Z14.472 F500.000
G1 X36.222 Y46.884 Z14.472 F200.000
G0 Z20.000
G0 X35.156 Y48.059 Z20.000
G0 X35.156 Y48.059 Z18.000
G1 X35.156 Y48.059 Z14.472 F500.000
G1 X35.398 Y48.301 Z14.472 F200.000
G0 Z20.000
G0 X34.336 Y49.480 Z20.000
G0 X34.336 Y49.480 Z18.000
G1 X34.336 Y49.480 Z14.472 F500.000
G1 X34.577 Y49.722 Z14.472 F200.000
G0 Z20.000
G0 X33.515 Y50.901 Z20.000
G0 X33.515 Y50.901 Z18.000
G1 X33.515 Y50.901 Z14.472 F500.000
G1 X33.757 Y51.143 Z14.472 F200.000
G0 Z20.000
G0 X32.695 Y52.322 Z20.000
G0 X32.695 Y52.322 Z18.000
G1 X32.695 Y52.322 Z14.472 F500.000
G1 X32.936 Y52.564 Z14.472 F200.000
G0 Z20.000
G0 X31.874 Y53.743 Z20.000
G0 X31.874 Y53.743 Z18.000
G1 X31.874 Y53.743 Z14.472 F500.000
G1 X32.116 Y53.985 Z14.472 F200.000
G0 Z20.000
G0 X31.054 Y55.164 Z20.000
G0 X31.054 Y55.164 Z18.000
G1 X31.054 Y55.164 Z14.472 F500.000
G1 X31.295 Y55.406 Z14.472 F200.000
G0 Z20.000
G0 X30.233 Y56.586 Z20.000
G0 X30.233 Y56.586 Z18.000
G1 X30.233 Y56.586 Z14.472 F500.000
G1 X30.475 Y56.827 Z14.472 F200.000
G0 Z20.000
G0 X29.413 Y58.007 Z20.000
G0 X29.413 Y58.007 Z18.000
G1 X29.413 Y58.007 Z14.472 F500.000
G1 X29.655 Y58.248 Z14.472 F200.000
G0 Z20.000
G0 X28.592 Y59.428 Z20.000
G0 X28.592 Y59.428 Z18.000
G1 X28.592 Y59.428 Z14.472 F500.000
G1 X28.834 Y59.669 Z14.472 F200.000
G0 Z20.000
G0 X28.845 Y64.163 Z20.000
G0 X28.845 Y64.163 Z18.000
G1 X28.845 Y64.163 Z14.472 F500.000
G1 X34.929 Y70.247 Z14.472 F200.000
G0 Z20.000
G0 X35.217 Y68.294 Z20.000
G0 X35.217 Y68.294 Z18.000
G1 X35.217 Y68.294 Z14.472 F500.000
G1 X32.448 Y65.524 Z14.472 F200.000
G0 Z20.000
G0 X35.383 Y66.219 Z20.000
G0 X35.383 Y66.219 Z18.000
G1 X35.383 Y66.219 Z14.472 F500.000
G1 X36.018 Y66.853 Z14.472 F200.000
G0 Z20.000
G0 X26.758 Y75.525 Z20.000
G0 X26.758 Y75.525 Z18.000
G1 X26.758 Y75.525 Z14.472 F500.000
G1 X4.475 Y53.242 Z14.472 F200.000
G1 X4.475 Y53.242 Z13.943 F500.000
G1 X26.758 Y75.525 Z13.943 F200.000
G0 Z20.000
G0 X30.059 Y76.585 Z20.000
G0 X30.059 Y76.585 Z18.000
G1 X30.059 Y76.585 Z13.943 F500.000
G1 X13.532 Y60.058 Z13.943 F200.000
G0 Z20.000
G0 X15.553 Y59.838 Z20.000
G0 X15.553 Y59.838 Z18.000
G1 X15.553 Y59.838 Z13.943 F500.000
G1 X32.967 Y77.251 Z13.943 F200.000
G0 Z20.000
G0 X35.607 Y77.650 Z20.000
G0 X35.607 Y77.650 Z18.000
G1 X35.607 Y77.650 Z13.943 F500.000
G1 X17.040 Y59.083 Z13.943 F200.000
G0 Z20.000
G0 X18.153 Y57.955 Z20.000
G0 X18.153 Y57.955 Z18.000
G1 X18.153 Y57.955 Z13.943 F500.000
G1 X38.059 Y77.860 Z13.943 F200.000
G0 Z20.000
G0 X40.347 Y77.907 Z20.000
G0 X40.347 Y77.907 Z18.000
G1 X40.347 Y77.907 Z13.943 F500.000
G1 X22.464 Y60.024 Z13.943 F200.000
G0 Z20.000
G0 X19.913 Y57.473 Z20.000
G0 X19.913 Y57.473 Z18.000
G1 X19.913 Y57.473 Z13.943 F500.000
G1 X18.889 Y56.449 Z13.943 F200.000
G0 Z20.000
G0 X14.643 Y49.961 Z20.000
G0 X14.643 Y49.961 Z18.000
G1 X14.643 Y49.961 Z13.943 F500.000
G1 X2.177 Y37.496 Z13.943 F200.000
G0 Z20.000
G0 X2.368 Y35.445 Z20.000
G0 X2.368 Y35.445 Z18.000
G1 X2.368 Y35.445 Z13.943 F500.000
G1 X14.478 Y47.555 Z13.943 F200.000
G0 Z20.000
G0 X13.785 Y44.620 Z20.000
G0 X13.785 Y44.620 Z18.000
G1 X13.785 Y44.620 Z13.943 F500.000
G1 X2.653 Y33.489 Z13.943 F200.000
G0 Z20.000
G0 X3.024 Y31.618 Z20.000
G0 X3.024 Y31.618 Z18.000
G1 X3.024 Y31.618 Z13.943 F500.000
G1 X13.457 Y42.051 Z13.943 F200.000
G0 Z20.000
G0 X13.384 Y39.736 Z20.000
G0 X13.384 Y39.736 Z18.000
G1 X13.384 Y39.736 Z13.943 F500.000
G1 X3.477 Y29.829 Z13.943 F200.000
G0 Z20.000
G0 X4.001 Y28.112 Z20.000
G0 X4.001 Y28.112 Z18.000
G1 X4.001 Y28.112 Z13.943 F500.000
G1 X13.490 Y37.601 Z13.943 F200.000
G0 Z20.000
G0 X13.744 Y35.613 Z20.000
G0 X13.744 Y35.613 Z18.000
G1 X13.744 Y35.613 Z13.943 F500.000
G1 X4.590 Y26.459 Z13.943 F200.000
G0 Z20.000
G0 X5.241 Y24.868 Z20.000
G0 X5.241 Y24.868 Z18.000
G1 X5.241 Y24.868 Z13.943 F500.000
G1 X14.119 Y33.746 Z13.943 F200.000
G0 Z20.000
G0 X14.613 Y31.999 Z20.000
G0 X14.613 Y31.999 Z18.000
G1 X14.613 Y31.999 Z13.943 F500.000
G1 X12.437 Y29.823 Z13.943 F200.000
G0 Z20.000
G0 X14.861 Y30.006 Z20.000
G0 X14.861 Y30.006 Z18.000
G1 X14.861 Y30.006 Z13.943 F500.000
G1 X15.192 Y30.336 Z13.943 F200.000
G0 Z20.000
G0 X9.187 Y26.573 Z20.000
G0 X9.187 Y26.573 Z18.000
G1 X9.187 Y26.573 Z13.943 F500.000
G1 X5.949 Y23.335 Z13.943 F200.000
G0 Z20.000
G0 X6.712 Y21.857 Z20.000
G0 X6.712 Y21.857 Z18.000
G1 X6.712 Y21.857 Z13.943 F500.000
G1 X9.009 Y24.153 Z13.943 F200.000
G0 Z20.000
G0 X9.600 Y22.503 Z20.000
G0 X9.600 Y22.503 Z18.000
G1 X9.600 Y22.503 Z13.943 F500.000
G1 X7.529 Y20.432 Z13.943 F200.000
G0 Z20.000
G0 X8.396 Y19.057 Z20.000
G0 X8.396 Y19.057 Z18.000
G1 X8.396 Y19.057 Z13.943 F500.000
G1 X10.593 Y21.255 Z13.943 F200.000
G0 Z20.000
G0 X11.945 Y20.365 Z20.000
G0 X11.945 Y20.365 Z18.000
G1 X11.945 Y20.365 Z13.943 F500.000
G1 X9.313 Y17.733 Z13.943 F200.000
G0 Z20.000
G0 X10.281 Y16.460 Z20.000
G0 X10.281 Y16.460 Z18.000
G1 X10.281 Y16.460 Z13.943 F500.000
G1 X13.747 Y19.925 Z13.943 F200.000
G0 Z20.000
G0 X16.852 Y20.789 Z20.000
G0 X16.852 Y20.789 Z18.000
G1 X16.852 Y20.789 Z13.943 F500.000
G1 X11.297 Y15.234 Z13.943 F200.000
G0 Z20.000
G0 X12.360 Y14.056 Z20.000
G0 X12.360 Y14.056 Z18.000
G1 X12.360 Y14.056 Z13.943 F500.000
G1 X20.350 Y22.045 Z13.943 F200.000
G0 Z20.000
G0 X21.454 Y20.908 Z20.000
G0 X21.454 Y20.908 Z18.000
G1 X21.454 Y20.908 Z13.943 F500.000
G1 X13.470 Y12.924 Z13.943 F200.000
G0 Z20.000
G0 X14.626 Y11.839 Z20.000
G0 X14.626 Y11.839 Z18.000
G1 X14.626 Y11.839 Z13.943 F500.000
G1 X22.625 Y19.837 Z13.943 F200.000
G0 Z20.000
G0 X23.859 Y18.830 Z20.000
G0 X23.859 Y18.830 Z18.000
G1 X23.859 Y18.830 Z13.943 F500.000
G1 X15.829 Y10.800 Z13.943 F200.000
G0 Z20.000
G0 X17.080 Y9.809 Z20.000
G0 X17.080 Y9.809 Z18.000
G1 X17.080 Y9.809 Z13.943 F500.000
G1 X25.172 Y17.902 Z13.943 F200.000
G0 Z20.000
G0 X26.540 Y17.028 Z20.000
G0 X26.540 Y17.028 Z18.000
G1 X26.540 Y17.028 Z13.943 F500.000
G1 X18.378 Y8.866 Z13.943 F200.000
G0 Z20.000
G0 X19.726 Y7.972 Z20.000
G0 X19.726 Y7.972 Z18.000
G1 X19.726 Y7.972 Z13.943 F500.000
G1 X27.990 Y16.237 Z13.943 F200.000
G0 Z20.000
G0 X29.521 Y15.525 Z20.000
G0 X29.521 Y15.525 Z18.000
G1 X29.521 Y15.525 Z13.943 F500.000
G1 X21.124 Y7.128 Z13.943 F200.000
G0 Z20.000
G0 X22.574 Y6.337 Z20.000
G0 X22.574 Y6.337 Z18.000
G1 X22.574 Y6.337 Z13.943 F500.000
G1 X31.134 Y14.897 Z13.943 F200.000
G0 Z20.000
G0 X32.839 Y14.361 Z20.000
G0 X32.839 Y14.361 Z18.000
G1 X32.839 Y14.361 Z13.943 F500.000
G1 X24.078 Y5.600 Z13.943 F200.000
G0 Z20.000
G0 X25.639 Y4.919 Z20.000
G0 X25.639 Y4.919 Z18.000
G1 X25.639 Y4.919 Z13.943 F500.000
G1 X34.647 Y13.927 Z13.943 F200.000
G0 Z20.000
G0 X35.756 Y12.794 Z20.000
G0 X35.756 Y12.794 Z18.000
G1 X35.756 Y12.794 Z13.943 F500.000
G1 X27.260 Y4.299 Z13.943 F200.000
G0 Z20.000
G0 X28.945 Y3.742 Z20.000
G0 X28.945 Y3.742 Z18.000
G1 X28.945 Y3.742 Z13.943 F500.000
G1 X34.931 Y9.728 Z13.943 F200.000
G0 Z20.000
G0 X35.364 Y7.919 Z20.000
G0 X35.364 Y7.919 Z18.000
G1 X35.364 Y7.919 Z13.943 F500.000
G1 X30.698 Y3.254 Z13.943 F200.000
G0 Z20.000
G0 X32.525 Y2.839 Z20.000
G0 X32.525 Y2.839 Z18.000
G1 X32.525 Y2.839 Z13.943 F500.000
G1 X36.254 Y6.568 Z13.943 F200.000
G0 Z20.000
G0 X37.503 Y5.575 Z20.000
G0 X37.503 Y5.575 Z18.000
G1 X37.503 Y5.575 Z13.943 F500.000
G1 X34.432 Y2.504 Z13.943 F200.000
G0 Z20.000
G0 X36.427 Y2.258 Z20.000
G0 X36.427 Y2.258 Z18.000
G1 X36.427 Y2.258 Z13.943 F500.000
G1 X39.163 Y4.994 Z13.943 F200.000
G0 Z20.000
G0 X41.590 Y5.179 Z20.000
G0 X41.590 Y5.179 Z18.000
G1 X41.590 Y5.179 Z13.943 F500.000
G1 X38.529 Y2.118 Z13.943 F200.000
G0 Z20.000
G0 X40.754 Y2.102 Z20.000
G0 X40.754 Y2.102 Z18.000
G1 X40.754 Y2.102 Z13.943 F500.000
G1 X61.418 Y22.765 Z13.943 F200.000
G0 Z20.000
G0 X62.344 Y21.450 Z20.000
G0 X62.344 Y21.450 Z18.000
G1 X62.344 Y21.450 Z13.943 F500.000
G1 X43.112 Y2.219 Z13.943 F200.000
G0 Z20.000
G0 X45.653 Y2.518 Z20.000
G0 X45.653 Y2.518 Z18.000
G1 X45.653 Y2.518 Z13.943 F500.000
G1 X63.633 Y20.497 Z13.943 F200.000
G0 Z20.000
G0 X65.341 Y19.964 Z20.000
G0 X65.341 Y19.964 Z18.000
G1 X65.341 Y19.964 Z13.943 F500.000
G1 X48.407 Y3.030 Z13.943 F200.000
G0 Z20.000
G0 X51.492 Y3.874 Z20.000
G0 X51.492 Y3.874 Z18.000
G1 X51.492 Y3.874 Z13.943 F500.000
G1 X67.923 Y20.304 Z13.943 F200.000
G0 Z20.000
G0 X70.666 Y23.048 Z20.000
G0 X70.666 Y23.048 Z18.000
G1 X70.666 Y23.048 Z13.943 F500.000
G1 X76.126 Y28.507 Z13.943 F200.000
G0 Z20.000
G0 X76.970 Y31.593 Z20.000
G0 X76.970 Y31.593 Z18.000
G1 X76.970 Y31.593 Z13.943 F500.000
G1 X71.021 Y25.644 Z13.943 F200.000
G0 Z20.000
G0 X70.484 Y27.349 Z20.000
G0 X70.484 Y27.349 Z18.000
G1 X70.484 Y27.349 Z13.943 F500.000
G1 X77.482 Y34.346 Z13.943 F200.000
G0 Z20.000
G0 X77.781 Y36.887 Z20.000
G0 X77.781 Y36.887 Z18.000
G1 X77.781 Y36.887 Z13.943 F500.000
G1 X69.527 Y28.633 Z13.943 F200.000
G0 Z20.000
G0 X68.211 Y29.559 Z20.000
G0 X68.211 Y29.559 Z18.000
G1 X68.211 Y29.559 Z13.943 F500.000
G1 X77.897 Y39.245 Z13.943 F200.000
G0 Z20.000
G0 X77.881 Y41.471 Z20.000
G0 X77.881 Y41.471 Z18.000
G1 X77.881 Y41.471 Z13.943 F500.000
G1 X66.469 Y30.058 Z13.943 F200.000
G0 Z20.000
G0 X64.991 Y30.822 Z20.000
G0 X64.991 Y30.822 Z18.000
G1 X64.991 Y30.822 Z13.943 F500.000
G1 X77.742 Y43.573 Z13.943 F200.000
G0 Z20.000
G0 X77.495 Y45.568 Z20.000
G0 X77.495 Y45.568 Z18.000
G1 X77.495 Y45.568 Z13.943 F500.000
G1 X65.943 Y34.015 Z13.943 F200.000
G0 Z20.000
G0 X66.421 Y36.735 Z20.000
G0 X66.421 Y36.735 Z18.000
G1 X66.421 Y36.735 Z13.943 F500.000
G1 X77.161 Y47.475 Z13.943 F200.000
G0 Z20.000
G0 X76.746 Y49.301 Z20.000
G0 X76.746 Y49.301 Z18.000
G1 X76.746 Y49.301 Z13.943 F500.000
G1 X66.604 Y39.159 Z13.943 F200.000
G0 Z20.000
G0 X66.586 Y41.383 Z20.000
G0 X66.586 Y41.383 Z18.000
G1 X66.586 Y41.383 Z13.943 F500.000
G1 X76.257 Y51.054 Z13.943 F200.000
G0 Z20.000
G0 X75.701 Y52.739 Z20.000
G0 X75.701 Y52.739 Z18.000
G1 X75.701 Y52.739 Z13.943 F500.000
G1 X66.396 Y43.435 Z13.943 F200.000
G0 Z20.000
G0 X66.073 Y45.353 Z20.000
G0 X66.073 Y45.353 Z18.000
G1 X66.073 Y45.353 Z13.943 F500.000
G1 X75.080 Y54.360 Z13.943 F200.000
G0 Z20.000
G0 X74.400 Y55.921 Z20.000
G0 X74.400 Y55.921 Z18.000
G1 X74.400 Y55.921 Z13.943 F500.000
G1 X65.642 Y47.163 Z13.943 F200.000
G0 Z20.000
G0 X65.103 Y48.867 Z20.000
G0 X65.103 Y48.867 Z18.000
G1 X65.103 Y48.867 Z13.943 F500.000
G1 X66.162 Y49.925 Z13.943 F200.000
G0 Z20.000
G0 X71.056 Y54.819 Z20.000
G0 X71.056 Y54.819 Z18.000
G1 X71.056 Y54.819 Z13.943 F500.000
G1 X73.663 Y57.426 Z13.943 F200.000
G0 Z20.000
G0 X72.871 Y58.876 Z20.000
G0 X72.871 Y58.876 Z18.000
G1 X72.871 Y58.876 Z13.943 F500.000
G1 X70.746 Y56.750 Z13.943 F200.000
G0 Z20.000
G0 X69.935 Y58.181 Z20.000
G0 X69.935 Y58.181 Z18.000
G1 X69.935 Y58.181 Z13.943 F500.000
G1 X72.027 Y60.274 Z13.943 F200.000
G0 Z20.000
G0 X71.133 Y61.621 Z20.000
G0 X71.133 Y61.621 Z18.000
G1 X71.133 Y61.621 Z13.943 F500.000
G1 X68.760 Y59.247 Z13.943 F200.000
G0 Z20.000
G0 X67.203 Y59.932 Z20.000
G0 X67.203 Y59.932 Z18.000
G1 X67.203 Y59.932 Z13.943 F500.000
G1 X70.190 Y62.920 Z13.943 F200.000
G0 Z20.000
G0 X69.199 Y64.170 Z20.000
G0 X69.199 Y64.170 Z18.000
G1 X69.199 Y64.170 Z13.943 F500.000
G1 X65.016 Y59.987 Z13.943 F200.000
G0 Z20.000
G0 X60.165 Y57.378 Z20.000
G0 X60.165 Y57.378 Z18.000
G1 X60.165 Y57.378 Z13.943 F500.000
G1 X68.161 Y65.373 Z13.943 F200.000
G0 Z20.000
G0 X67.076 Y66.530 Z20.000
G0 X67.076 Y66.530 Z18.000
G1 X67.076 Y66.530 Z13.943 F500.000
G1 X59.093 Y58.547 Z13.943 F200.000
G0 Z20.000
G0 X57.954 Y59.650 Z20.000
G0 X57.954 Y59.650 Z18.000
G1 X57.954 Y59.650 Z13.943 F500.000
G1 X65.944 Y67.639 Z13.943 F200.000
G0 Z20.000
G0 X64.765 Y68.702 Z20.000
G0 X64.765 Y68.702 Z18.000
G1 X64.765 Y68.702 Z13.943 F500.000
G1 X56.749 Y60.685 Z13.943 F200.000
G0 Z20.000
G0 X55.475 Y61.654 Z20.000
G0 X55.475 Y61.654 Z18.000
G1 X55.475 Y61.654 Z13.943 F500.000
G1 X63.540 Y69.718 Z13.943 F200.000
G0 Z20.000
G0 X62.267 Y70.686 Z20.000
G0 X62.267 Y70.686 Z18.000
G1 X62.267 Y70.686 Z13.943 F500.000
G1 X54.134 Y62.554 Z13.943 F200.000
G0 Z20.000
G0 X52.717 Y63.378 Z20.000
G0 X52.717 Y63.378 Z18.000
G1 X52.717 Y63.378 Z13.943 F500.000
G1 X60.942 Y71.604 Z13.943 F200.000
G0 Z20.000
G0 X59.568 Y72.471 Z20.000
G0 X59.568 Y72.471 Z18.000
G1 X59.568 Y72.471 Z13.943 F500.000
G1 X51.234 Y64.137 Z13.943 F200.000
G0 Z20.000
G0 X49.664 Y64.808 Z20.000
G0 X49.664 Y64.808 Z18.000
G1 X49.664 Y64.808 Z13.943 F500.000
G1 X58.143 Y73.287 Z13.943 F200.000
G0 Z20.000
G0 X56.665 Y74.051 Z20.000
G0 X56.665 Y74.051 Z18.000
G1 X56.665 Y74.051 Z13.943 F500.000
G1 X48.001 Y65.387 Z13.943 F200.000
G0 Z20.000
G0 X46.246 Y65.873 Z20.000
G0 X46.246 Y65.873 Z18.000
G1 X46.246 Y65.873 Z13.943 F500.000
G1 X55.131 Y74.759 Z13.943 F200.000
G0 Z20.000
G0 X53.540 Y75.409 Z20.000
G0 X53.540 Y75.409 Z18.000
G1 X53.540 Y75.409 Z13.943 F500.000
G1 X44.388 Y66.257 Z13.943 F200.000
G0 Z20.000
G0 X45.003 Y69.114 Z20.000
G0 X45.003 Y69.114 Z18.000
G1 X45.003 Y69.114 Z13.943 F500.000
G1 X51.888 Y75.999 Z13.943 F200.000
G0 Z20.000
G0 X50.171 Y76.523 Z20.000
G0 X50.171 Y76.523 Z18.000
G1 X50.171 Y76.523 Z13.943 F500.000
G1 X44.916 Y71.268 Z13.943 F200.000
G0 Z20.000
G0 X44.226 Y72.820 Z20.000
G0 X44.226 Y72.820 Z18.000
G1 X44.226 Y72.820 Z13.943 F500.000
G1 X48.381 Y76.975 Z13.943 F200.000
G0 Z20.000
G0 X46.511 Y77.346 Z20.000
G0 X46.511 Y77.346 Z18.000
G1 X46.511 Y77.346 Z13.943 F500.000
G1 X43.150 Y73.986 Z13.943 F200.000
G0 Z20.000
G0 X41.708 Y74.784 Z20.000
G0 X41.708 Y74.784 Z18.000
G1 X41.708 Y74.784 Z13.943 F500.000
G1 X44.555 Y77.632 Z13.943 F200.000
G0 Z20.000
G0 X42.504 Y77.822 Z20.000
G0 X42.504 Y77.822 Z18.000
G1 X42.504 Y77.822 Z13.943 F500.000
G1 X39.757 Y75.075 Z13.943 F200.000
G0 Z20.000
G0 X34.929 Y70.247 Z20.000
G0 X34.929 Y70.247 Z18.000
G1 X34.929 Y70.247 Z13.943 F500.000
G1 X28.845 Y64.163 Z13.943 F200.000
G0 Z20.000
G0 X32.448 Y65.524 Z20.000
G0 X32.448 Y65.524 Z18.000
G1 X32.448 Y65.524 Z13.943 F500.000
G1 X35.217 Y68.294 Z13.943 F200.000
G0 Z20.000
G0 X36.018 Y66.853 Z20.000
G0 X36.018 Y66.853 Z18.000
G1 X36.018 Y66.853 Z13.943 F500.000
G1 X35.383 Y66.219 Z13.943 F200.000
G0 Z20.000
G0 X28.834 Y59.669 Z20.000
G0 X28.834 Y59.669 Z18.000
G1 X28.834 Y59.669 Z13.943 F500.000
G1 X28.592 Y59.428 Z13.943 F200.000
G0 Z20.000
G0 X29.655 Y58.248 Z20.000
G0 X29.655 Y58.248 Z18.000
G1 X29.655 Y58.248 Z13.943 F500.000
G1 X29.413 Y58.007 Z13.943 F200.000
G0 Z20.000
G0 X30.475 Y56.827 Z20.000
G0 X30.475 Y56.827 Z18.000
G1 X30.475 Y56.827 Z13.943 F500.000
G1 X30.233 Y56.586 Z13.943 F200.000
G0 Z20.000
G0 X31.295 Y55.406 Z20.000
G0 X31.295 Y55.406 Z18.000
G1 X31.295 Y55.406 Z13.943 F500.000
G1 X31.054 Y55.164 Z13.943 F200.000
G0 Z20.000
G0 X32.116 Y53.985 Z20.000
G0 X32.116 Y53.985 Z18.000
G1 X32.116 Y53.985 Z13.943 F500.000
G1 X31.874 Y53.743 Z13.943 F200.000
G0 Z20.000
G0 X32.936 Y52.564 Z20.000
G0 X32.936 Y52.564 Z18.000
G1 X32.936 Y52.564 Z13.943 F500.000
G1 X32.695 Y52.322 Z13.943 F200.000
G0 Z20.000
G0 X33.757 Y51.143 Z20.000
G0 X33.757 Y51.143 Z18.000
G1 X33.757 Y51.143 Z13.943 F500.000
G1 X33.515 Y50.901 Z13.943 F200.000
G0 Z20.000
G0 X34.577 Y49.722 Z20.000
G0 X34.577 Y49.722 Z18.000
G1 X34.577 Y49.722 Z13.943 F500.000
G1 X34.336 Y49.480 Z13.943 F200.000
G0 Z20.000
G0 X35.398 Y48.301 Z20.000
G0 X35.398 Y48.301 Z18.000
G1 X35.398 Y48.301 Z13.943 F500.000
G1 X35.156 Y48.059 Z13.943 F200.000
G0 Z20.000
G0 X36.222 Y46.884 Z20.000
G0 X36.222 Y46.884 Z18.000
G1 X36.222 Y46.884 Z13.943 F500.000
G1 X35.964 Y46.625 Z13.943 F200.000
G0 Z20.000
G0 X33.340 Y39.518 Z20.000
G0 X33.340 Y39.518 Z18.000
G1 X33.340 Y39.518 Z13.943 F500.000
G1 X33.195 Y39.373 Z13.943 F200.000
G0 Z20.000
G0 X31.745 Y40.165 Z20.000
G0 X31.745 Y40.165 Z18.000
G1 X31.745 Y40.165 Z13.943 F500.000
G1 X31.415 Y39.835 Z13.943 F200.000
G0 Z20.000
G0 X29.503 Y40.165 Z20.000
G0 X29.503 Y40.165 Z18.000
G1 X29.503 Y40.165 Z13.943 F500.000
G1 X29.173 Y39.835 Z13.943 F200.000
G0 Z20.000
G0 X27.262 Y40.165 Z20.000
G0 X27.262 Y40.165 Z18.000
G1 X27.262 Y40.165 Z13.943 F500.000
G1 X26.932 Y39.835 Z13.943 F200.000
G0 Z20.000
G0 X25.020 Y40.165 Z20.000
G0 X25.020 Y40.165 Z18.000
G1 X25.020 Y40.165 Z13.943 F500.000
G1 X24.690 Y39.835 Z13.943 F200.000
G0 Z20.000
G0 X22.779 Y40.165 Z20.000
G0 X22.779 Y40.165 Z18.000
G1 X22.779 Y40.165 Z13.943 F500.000
G1 X22.449 Y39.835 Z13.943 F200.000
G0 Z20.000
G0 X20.537 Y40.165 Z20.000
G0 X20.537 Y40.165 Z18.000
G1 X20.537 Y40.165 Z13.943 F500.000
G1 X20.207 Y39.835 Z13.943 F200.000
G0 Z20.000
G0 X18.296 Y40.165 Z20.000
G0 X18.296 Y40.165 Z18.000
G1 X18.296 Y40.165 Z13.943 F500.000
G1 X17.966 Y39.835 Z13.943 F200.000
G0 Z20.000
G0 X12.574 Y50.134 Z20.000
G0 X12.574 Y50.134 Z18.000
G1 X12.574 Y50.134 Z13.943 F500.000
G1 X2.093 Y39.653 Z13.943 F200.000
G0 Z20.000
G0 X2.139 Y41.941 Z20.000
G0 X2.139 Y41.941 Z18.000
G1 X2.139 Y41.941 Z13.943 F500.000
G1 X11.068 Y50.869 Z13.943 F200.000
G0 Z20.000
G0 X9.936 Y51.979 Z20.000
G0 X9.936 Y51.979 Z18.000
G1 X9.936 Y51.979 Z13.943 F500.000
G1 X2.350 Y44.392 Z13.943 F200.000
G0 Z20.000
G0 X2.748 Y47.032 Z20.000
G0 X2.748 Y47.032 Z18.000
G1 X2.748 Y47.032 Z13.943 F500.000
G1 X9.177 Y53.461 Z13.943 F200.000
G0 Z20.000
G0 X8.966 Y55.492 Z20.000
G0 X8.966 Y55.492 Z18.000
G1 X8.966 Y55.492 Z13.943 F500.000
G1 X3.415 Y49.940 Z13.943 F200.000
G0 Z20.000
G0 X6.253 Y57.262 Z20.000
G0 X6.253 Y57.262 Z18.000
G1 X6.253 Y57.262 Z13.943 F500.000
G1 X22.737 Y73.746 Z13.943 F200.000
G0 Z20.000
G0 X16.494 Y69.745 Z20.000
G0 X16.494 Y69.745 Z18.000
G1 X16.494 Y69.745 Z13.943 F500.000
G1 X10.255 Y63.505 Z13.943 F200.000
G0 Z20.000
G0 X44.926 Y48.863 Z20.000
G0 X44.926 Y48.863 Z18.000
G1 X44.926 Y48.863 Z13.943 F500.000
G1 X45.828 Y49.765 Z13.943 F200.000
G0 Z20.000
G0 X43.933 Y45.628 Z20.000
G0 X43.933 Y45.628 Z18.000
G1 X43.933 Y45.628 Z13.943 F500.000
G1 X43.798 Y45.493 Z13.943 F200.000
G0 Z20.000
G0 X47.496 Y40.225 Z20.000
G0 X47.496 Y40.225 Z18.000
G1 X47.496 Y40.225 Z13.943 F500.000
G1 X46.653 Y39.383 Z13.943 F200.000
G0 Z20.000
G0 X49.347 Y39.835 Z20.000
G0 X49.347 Y39.835 Z18.000
G1 X49.347 Y39.835 Z13.943 F500.000
G1 X49.677 Y40.165 Z13.943 F200.000
G0 Z20.000
G0 X51.589 Y39.835 Z20.000
G0 X51.589 Y39.835 Z18.000
G1 X51.589 Y39.835 Z13.943 F500.000
G1 X51.919 Y40.165 Z13.943 F200.000
G0 Z20.000
G0 X53.830 Y39.835 Z20.000
G0 X53.830 Y39.835 Z18.000
G1 X53.830 Y39.835 Z13.943 F500.000
G1 X54.160 Y40.165 Z13.943 F200.000
G0 Z20.000
G0 X56.072 Y39.835 Z20.000
G0 X56.072 Y39.835 Z18.000
G1 X56.072 Y39.835 Z13.943 F500.000
G1 X56.402 Y40.165 Z13.943 F200.000
G0 Z20.000
G0 X58.313 Y39.835 Z20.000
G0 X58.313 Y39.835 Z18.000
G1 X58.313 Y39.835 Z13.943 F500.000
G1 X58.643 Y40.165 Z13.943 F200.000
G0 Z20.000
G0 X60.555 Y39.835 Z20.000
G0 X60.555 Y39.835 Z18.000
G1 X60.555 Y39.835 Z13.943 F500.000
G1 X60.885 Y40.165 Z13.943 F200.000
G0 Z20.000
G0 X62.796 Y39.835 Z20.000
G0 X62.796 Y39.835 Z18.000
G1 X62.796 Y39.835 Z13.943 F500.000
G1 X63.126 Y40.165 Z13.943 F200.000
G0 Z20.000
G0 X74.784 Y24.924 Z20.000
G0 X74.784 Y24.924 Z18.000
G1 X74.784 Y24.924 Z13.943 F500.000
G1 X55.075 Y5.216 Z13.943 F200.000
G0 Z20.000
G0 X59.735 Y7.634 Z20.000
G0 X59.735 Y7.634 Z18.000
G1 X59.735 Y7.634 Z13.943 F500.000
G1 X72.366 Y20.264 Z13.943 F200.000
G0 Z20.000
G0 X53.426 Y17.015 Z20.000
G0 X53.426 Y17.015 Z18.000
G1 X53.426 Y17.015 Z13.943 F500.000
G1 X44.828 Y8.418 Z13.943 F200.000
G0 Z20.000
G0 X45.011 Y10.842 Z20.000
G0 X45.011 Y10.842 Z18.000
G1 X45.011 Y10.842 Z13.943 F500.000
G1 X49.173 Y15.004 Z13.943 F200.000
G0 Z20.000
G0 X45.994 Y14.066 Z20.000
G0 X45.994 Y14.066 Z18.000
G1 X45.994 Y14.066 Z13.943 F500.000
G1 X44.421 Y12.493 Z13.943 F200.000
G0 Z20.000
G0 X51.571 Y19.643 Z20.000
G0 X51.571 Y19.643 Z18.000
G1 X51.571 Y19.643 Z13.943 F500.000
G1 X51.807 Y19.879 Z13.943 F200.000
G0 Z20.000
G0 X50.745 Y21.059 Z20.000
G0 X50.745 Y21.059 Z18.000
G1 X50.745 Y21.059 Z13.943 F500.000
G1 X50.986 Y21.300 Z13.943 F200.000
G0 Z20.000
G0 X49.924 Y22.480 Z20.000
G0 X49.924 Y22.480 Z18.000
G1 X49.924 Y22.480 Z13.943 F500.000
G1 X50.166 Y22.721 Z13.943 F200.000
G0 Z20.000
G0 X49.104 Y23.901 Z20.000
G0 X49.104 Y23.901 Z18.000
G1 X49.104 Y23.901 Z13.943 F500.000
G1 X49.345 Y24.142 Z13.943 F200.000
G0 Z20.000
G0 X48.283 Y25.322 Z20.000
G0 X48.283 Y25.322 Z18.000
G1 X48.283 Y25.322 Z13.943 F500.000
G1 X48.525 Y25.564 Z13.943 F200.000
G0 Z20.000
G0 X47.463 Y26.743 Z20.000
G0 X47.463 Y26.743 Z18.000
G1 X47.463 Y26.743 Z13.943 F500.000
G1 X47.705 Y26.985 Z13.943 F200.000
G0 Z20.000
G0 X46.643 Y28.164 Z20.000
G0 X46.643 Y28.164 Z18.000
G1 X46.643 Y28.164 Z13.943 F500.000
G1 X46.884 Y28.406 Z13.943 F200.000
G0 Z20.000
G0 X45.822 Y29.585 Z20.000
G0 X45.822 Y29.585 Z18.000
G1 X45.822 Y29.585 Z13.943 F500.000
G1 X46.064 Y29.827 Z13.943 F200.000
G0 Z20.000
G0 X45.002 Y31.006 Z20.000
G0 X45.002 Y31.006 Z18.000
G1 X45.002 Y31.006 Z13.943 F500.000
G1 X45.243 Y31.248 Z13.943 F200.000
G0 Z20.000
G0 X44.181 Y32.427 Z20.000
G0 X44.181 Y32.427 Z18.000
G1 X44.181 Y32.427 Z13.943 F500.000
G1 X44.423 Y32.669 Z13.943 F200.000
G0 Z20.000
G0 X43.179 Y33.667 Z20.000
G0 X43.179 Y33.667 Z18.000
G1 X43.179 Y33.667 Z13.943 F500.000
G1 X43.949 Y34.437 Z13.943 F200.000
G0 Z20.000
G0 X36.882 Y34.094 Z20.000
G0 X36.882 Y34.094 Z18.000
G1 X36.882 Y34.094 Z13.943 F500.000
G1 X35.740 Y32.953 Z13.943 F200.000
G0 Z20.000
G0 X33.580 Y28.551 Z20.000
G0 X33.580 Y28.551 Z18.000
G1 X33.580 Y28.551 Z13.943 F500.000
G1 X32.678 Y27.649 Z13.943 F200.000
G0 Z20.000
G0 X30.518 Y23.247 Z20.000
G0 X30.518 Y23.247 Z18.000
G1 X30.518 Y23.247 Z13.943 F500.000
G1 X29.616 Y22.346 Z13.943 F200.000
G0 Z20.000
G0 X19.312 Y23.249 Z20.000
G0 X19.312 Y23.249 Z18.000
G1 X19.312 Y23.249 Z13.943 F500.000
G1 X18.250 Y22.187 Z13.943 F200.000
G0 Z20.000
G0 X47.988 Y54.167 Z20.000
G0 X47.988 Y54.167 Z18.000
G1 X47.988 Y54.167 Z13.943 F500.000
G1 X48.890 Y55.068 Z13.943 F200.000
G0 Z20.000
G0 X51.050 Y59.470 Z20.000
G0 X51.050 Y59.470 Z18.000
G1 X51.050 Y59.470 Z13.943 F500.000
G1 X51.803 Y60.223 Z13.943 F200.000
G1 X51.803 Y60.223 Z13.415 F500.000
G1 X51.050 Y59.470 Z13.415 F200.000
G0 Z20.000
G0 X52.717 Y63.378 Z20.000
G0 X52.717 Y63.378 Z18.000
G1 X52.717 Y63.378 Z13.415 F500.000
G1 X60.942 Y71.604 Z13.415 F200.000
G0 Z20.000
G0 X62.267 Y70.686 Z20.000
G0 X62.267 Y70.686 Z18.000
G1 X62.267 Y70.686 Z13.415 F500.000
G1 X54.134 Y62.554 Z13.415 F200.000
G0 Z20.000
G0 X55.475 Y61.654 Z20.000
G0 X55.475 Y61.654 Z18.000
G1 X55.475 Y61.654 Z13.415 F500.000
G1 X63.540 Y69.718 Z13.415 F200.000
G0 Z20.000
G0 X64.765 Y68.702 Z20.000
G0 X64.765 Y68.702 Z18.000
G1 X64.765 Y68.702 Z13.415 F500.000
G1 X56.749 Y60.685 Z13.415 F200.000
G0 Z20.000
G0 X57.954 Y59.650 Z20.000
G0 X57.954 Y59.650 Z18.000
G1 X57.954 Y59.650 Z13.415 F500.000
G1 X65.944 Y67.639 Z13.415 F200.000
G0 Z20.000
G0 X67.076 Y66.530 Z20.000
G0 X67.076 Y66.530 Z18.000
G1 X67.076 Y66.530 Z13.415 F500.000
G1 X59.093 Y58.547 Z13.415 F200.000
G0 Z20.000
G0 X60.165 Y57.378 Z20.000
G0 X60.165 Y57.378 Z18.000
G1 X60.165 Y57.378 Z13.415 F500.000
G1 X68.161 Y65.373 Z13.415 F200.000
G0 Z20.000
G0 X69.199 Y64.170 Z20.000
G0 X69.199 Y64.170 Z18.000
G1 X69.199 Y64.170 Z13.415 F500.000
G1 X65.016 Y59.987 Z13.415 F200.000
G0 Z20.000
G0 X67.203 Y59.932 Z20.000
G0 X67.203 Y59.932 Z18.000
G1 X67.203 Y59.932 Z13.415 F500.000
G1 X70.190 Y62.920 Z13.415 F200.000
G0 Z20.000
G0 X71.133 Y61.621 Z20.000
G0 X71.133 Y61.621 Z18.000
G1 X71.133 Y61.621 Z13.415 F500.000
G1 X68.760 Y59.247 Z13.415 F200.000
G0 Z20.000
G0 X69.935 Y58.181 Z20.000
G0 X69.935 Y58.181 Z18.000
G1 X69.935 Y58.181 Z13.415 F500.000
G1 X72.027 Y60.274 Z13.415 F200.000
G0 Z20.000
G0 X72.871 Y58.876 Z20.000
G0 X72.871 Y58.876 Z18.000
G1 X72.871 Y58.876 Z13.415 F500.000
G1 X70.746 Y56.750 Z13.415 F200.000
G0 Z20.000
G0 X71.056 Y54.819 Z20.000
G0 X71.056 Y54.819 Z18.000
G1 X71.056 Y54.819 Z13.415 F500.000
G1 X73.663 Y57.426 Z13.415 F200.000
G0 Z20.000
G0 X74.400 Y55.921 Z20.000
G0 X74.400 Y55.921 Z18.000
G1 X74.400 Y55.921 Z13.415 F500.000
G1 X65.642 Y47.163 Z13.415 F200.000
G0 Z20.000
G0 X65.103 Y48.867 Z20.000
G0 X65.103 Y48.867 Z18.000
G1 X65.103 Y48.867 Z13.415 F500.000
G1 X66.162 Y49.925 Z13.415 F200.000
G0 Z20.000
G0 X66.073 Y45.353 Z20.000
G0 X66.073 Y45.353 Z18.000
G1 X66.073 Y45.353 Z13.415 F500.000
G1 X75.080 Y54.360 Z13.415 F200.000
G0 Z20.000
G0 X75.701 Y52.739 Z20.000
G0 X75.701 Y52.739 Z18.000
G1 X75.701 Y52.739 Z13.415 F500.000
G1 X66.396 Y43.435 Z13.415 F200.000
G0 Z20.000
G0 X66.586 Y41.383 Z20.000
G0 X66.586 Y41.383 Z18.000
G1 X66.586 Y41.383 Z13.415 F500.000
G1 X76.257 Y51.054 Z13.415 F200.000
G0 Z20.000
G0 X76.746 Y49.301 Z20.000
G0 X76.746 Y49.301 Z18.000
G1 X76.746 Y49.301 Z13.415 F500.000
G1 X66.604 Y39.159 Z13.415 F200.000
G0 Z20.000
G0 X66.421 Y36.735 Z20.000
G0 X66.421 Y36.735 Z18.000
G1 X66.421 Y36.735 Z13.415 F500.000
G1 X77.161 Y47.475 Z13.415 F200.000
G0 Z20.000
G0 X77.495 Y45.568 Z20.000
G0 X77.495 Y45.568 Z18.000
G1 X77.495 Y45.568 Z13.415 F500.000
G1 X65.943 Y34.015 Z13.415 F200.000
G0 Z20.000
G0 X64.991 Y30.822 Z20.000
G0 X64.991 Y30.822 Z18.000
G1 X64.991 Y30.822 Z13.415 F500.000
G1 X77.742 Y43.573 Z13.415 F200.000
G0 Z20.000
G0 X77.881 Y41.471 Z20.000
G0 X77.881 Y41.471 Z18.000
G1 X77.881 Y41.471 Z13.415 F500.000
G1 X66.469 Y30.058 Z13.415 F200.000
G0 Z20.000
G0 X68.211 Y29.559 Z20.000
G0 X68.211 Y29.559 Z18.000
G1 X68.211 Y29.559 Z13.415 F500.000
G1 X77.897 Y39.245 Z13.415 F200.000
G0 Z20.000
G0 X77.781 Y36.887 Z20.000
G0 X77.781 Y36.887 Z18.000
G1 X77.781 Y36.887 Z13.415 F500.000
G1 X69.527 Y28.633 Z13.415 F200.000
G0 Z20.000
G0 X70.484 Y27.349 Z20.000
G0 X70.484 Y27.349 Z18.000
G1 X70.484 Y27.349 Z13.415 F500.000
G1 X77.482 Y34.346 Z13.415 F200.000
G0 Z20.000
G0 X76.970 Y31.593 Z20.000
G0 X76.970 Y31.593 Z18.000
G1 X76.970 Y31.593 Z13.415 F500.000
G1 X71.021 Y25.644 Z13.415 F200.000
G0 Z20.000
G0 X70.666 Y23.048 Z20.000
G0 X70.666 Y23.048 Z18.000
G1 X70.666 Y23.048 Z13.415 F500.000
G1 X76.126 Y28.507 Z13.415 F200.000
G0 Z20.000
G0 X74.784 Y24.924 Z20.000
G0 X74.784 Y24.924 Z18.000
G1 X74.784 Y24.924 Z13.415 F500.000
G1 X55.075 Y5.216 Z13.415 F200.000
G0 Z20.000
G0 X51.492 Y3.874 Z20.000
G0 X51.492 Y3.874 Z18.000
G1 X51.492 Y3.874 Z13.415 F500.000
G1 X67.923 Y20.304 Z13.415 F200.000
G0 Z20.000
G0 X65.341 Y19.964 Z20.000
G0 X65.341 Y19.964 Z18.000
G1 X65.341 Y19.964 Z13.415 F500.000
G1 X48.407 Y3.030 Z13.415 F200.000
G0 Z20.000
G0 X45.653 Y2.518 Z20.000
G0 X45.653 Y2.518 Z18.000
G1 X45.653 Y2.518 Z13.415 F500.000
G1 X63.633 Y20.497 Z13.415 F200.000
G0 Z20.000
G0 X62.344 Y21.450 Z20.000
G0 X62.344 Y21.450 Z18.000
G1 X62.344 Y21.450 Z13.415 F500.000
G1 X43.112 Y2.219 Z13.415 F200.000
G0 Z20.000
G0 X40.754 Y2.102 Z20.000
G0 X40.754 Y2.102 Z18.000
G1 X40.754 Y2.102 Z13.415 F500.000
G1 X61.418 Y22.765 Z13.415 F200.000
G0 Z20.000
G0 X53.426 Y17.015 Z20.000
G0 X53.426 Y17.015 Z18.000
G1 X53.426 Y17.015 Z13.415 F500.000
G1 X44.828 Y8.418 Z13.415 F200.000
G0 Z20.000
G0 X45.011 Y10.842 Z20.000
G0 X45.011 Y10.842 Z18.000
G1 X45.011 Y10.842 Z13.415 F500.000
G1 X49.173 Y15.004 Z13.415 F200.000
G0 Z20.000
G0 X45.994 Y14.066 Z20.000
G0 X45.994 Y14.066 Z18.000
G1 X45.994 Y14.066 Z13.415 F500.000
G1 X44.421 Y12.493 Z13.415 F200.000
G0 Z20.000
G0 X41.590 Y5.179 Z20.000
G0 X41.590 Y5.179 Z18.000
G1 X41.590 Y5.179 Z13.415 F500.000
G1 X38.529 Y2.118 Z13.415 F200.000
G0 Z20.000
G0 X36.427 Y2.258 Z20.000
G0 X36.427 Y2.258 Z18.000
G1 X36.427 Y2.258 Z13.415 F500.000
G1 X39.163 Y4.994 Z13.415 F200.000
G0 Z20.000
G0 X37.503 Y5.575 Z20.000
G0 X37.503 Y5.575 Z18.000
G1 X37.503 Y5.575 Z13.415 F500.000
G1 X34.432 Y2.504 Z13.415 F200.000
G0 Z20.000
G0 X32.525 Y2.839 Z20.000
G0 X32.525 Y2.839 Z18.000
G1 X32.525 Y2.839 Z13.415 F500.000
G1 X36.254 Y6.568 Z13.415 F200.000
G0 Z20.000
G0 X35.364 Y7.919 Z20.000
G0 X35.364 Y7.919 Z18.000
G1 X35.364 Y7.919 Z13.415 F500.000
G1 X30.698 Y3.254 Z13.415 F200.000
G0 Z20.000
G0 X28.945 Y3.742 Z20.000
G0 X28.945 Y3.742 Z18.000
G1 X28.945 Y3.742 Z13.415 F500.000
G1 X34.931 Y9.728 Z13.415 F200.000
G0 Z20.000
G0 X35.756 Y12.794 Z20.000
G0 X35.756 Y12.794 Z18.000
G1 X35.756 Y12.794 Z13.415 F500.000
G1 X27.260 Y4.299 Z13.415 F200.000
G0 Z20.000
G0 X25.639 Y4.919 Z20.000
G0 X25.639 Y4.919 Z18.000
G1 X25.639 Y4.919 Z13.415 F500.000
G1 X34.647 Y13.927 Z13.415 F200.000
G0 Z20.000
G0 X32.839 Y14.361 Z20.000
G0 X32.839 Y14.361 Z18.000
G1 X32.839 Y14.361 Z13.415 F500.000
G1 X24.078 Y5.600 Z13.415 F200.000
G0 Z20.000
G0 X22.574 Y6.337 Z20.000
G0 X22.574 Y6.337 Z18.000
G1 X22.574 Y6.337 Z13.415 F500.000
G1 X31.134 Y14.897 Z13.415 F200.000
G0 Z20.000
G0 X29.521 Y15.525 Z20.000
G0 X29.521 Y15.525 Z18.000
G1 X29.521 Y15.525 Z13.415 F500.000
G1 X21.124 Y7.128 Z13.415 F200.000
G0 Z20.000
G0 X19.726 Y7.972 Z20.000
G0 X19.726 Y7.972 Z18.000
G1 X19.726 Y7.972 Z13.415 F500.000
G1 X27.990 Y16.237 Z13.415 F200.000
G0 Z20.000
G0 X26.540 Y17.028 Z20.000
G0 X26.540 Y17.028 Z18.000
G1 X26.540 Y17.028 Z13.415 F500.000
G1 X18.378 Y8.866 Z13.415 F200.000
G0 Z20.000
G0 X17.080 Y9.809 Z20.000
G0 X17.080 Y9.809 Z18.000
G1 X17.080 Y9.809 Z13.415 F500.000
G1 X25.172 Y17.902 Z13.415 F200.000
G0 Z20.000
G0 X23.859 Y18.830 Z20.000
G0 X23.859 Y18.830 Z18.000
G1 X23.859 Y18.830 Z13.415 F500.000
G1 X15.829 Y10.800 Z13.415 F200.000
G0 Z20.000
G0 X14.626 Y11.839 Z20.000
G0 X14.626 Y11.839 Z18.000
G1 X14.626 Y11.839 Z13.415 F500.000
G1 X22.625 Y19.837 Z13.415 F200.000
G0 Z20.000
G0 X21.454 Y20.908 Z20.000
G0 X21.454 Y20.908 Z18.000
G1 X21.454 Y20.908 Z13.415 F500.000
G1 X13.470 Y12.924 Z13.415 F200.000
G0 Z20.000
G0 X12.360 Y14.056 Z20.000
G0 X12.360 Y14.056 Z18.000
G1 X12.360 Y14.056 Z13.415 F500.000
G1 X20.350 Y22.045 Z13.415 F200.000
G0 Z20.000
G0 X19.312 Y23.249 Z20.000
G0 X19.312 Y23.249 Z18.000
G1 X19.312 Y23.249 Z13.415 F500.000
G1 X18.250 Y22.187 Z13.415 F200.000
G0 Z20.000
G0 X16.852 Y20.789 Z20.000
G0 X16.852 Y20.789 Z18.000
G1 X16.852 Y20.789 Z13.415 F500.000
G1 X11.297 Y15.234 Z13.415 F200.000
G0 Z20.000
G0 X10.281 Y16.460 Z20.000
G0 X10.281 Y16.460 Z18.000
G1 X10.281 Y16.460 Z13.415 F500.000
G1 X13.747 Y19.925 Z13.415 F200.000
G0 Z20.000
G0 X11.945 Y20.365 Z20.000
G0 X11.945 Y20.365 Z18.000
G1 X11.945 Y20.365 Z13.415 F500.000
G1 X9.313 Y17.733 Z13.415 F200.000
G0 Z20.000
G0 X8.396 Y19.057 Z20.000
G0 X8.396 Y19.057 Z18.000
G1 X8.396 Y19.057 Z13.415 F500.000
G1 X10.593 Y21.255 Z13.415 F200.000
G0 Z20.000
G0 X9.600 Y22.503 Z20.000
G0 X9.600 Y22.503 Z18.000
G1 X9.600 Y22.503 Z13.415 F500.000
G1 X7.529 Y20.432 Z13.415 F200.000
G0 Z20.000
G0 X6.712 Y21.857 Z20.000
G0 X6.712 Y21.857 Z18.000
G1 X6.712 Y21.857 Z13.415 F500.000
G1 X9.009 Y24.153 Z13.415 F200.000
G0 Z20.000
G0 X9.187 Y26.573 Z20.000
G0 X9.187 Y26.573 Z18.000
G1 X9.187 Y26.573 Z13.415 F500.000
G1 X5.949 Y23.335 Z13.415 F200.000
G0 Z20.000
G0 X5.241 Y24.868 Z20.000
G0 X5.241 Y24.868 Z18.000
G1 X5.241 Y24.868 Z13.415 F500.000
G1 X14.119 Y33.746 Z13.415 F200.000
G0 Z20.000
G0 X14.613 Y31.999 Z20.000
G0 X14.613 Y31.999 Z18.000
G1 X14.613 Y31.999 Z13.415 F500.000
G1 X12.437 Y29.823 Z13.415 F200.000
G0 Z20.000
G0 X14.861 Y30.006 Z20.000
G0 X14.861 Y30.006 Z18.000
G1 X14.861 Y30.006 Z13.415 F500.000
G1 X15.192 Y30.336 Z13.415 F200.000
G0 Z20.000
G0 X13.744 Y35.613 Z20.000
G0 X13.744 Y35.613 Z18.000
G1 X13.744 Y35.613 Z13.415 F500.000
G1 X4.590 Y26.459 Z13.415 F200.000
G0 Z20.000
G0 X4.001 Y28.112 Z20.000
G0 X4.001 Y28.112 Z18.000
G1 X4.001 Y28.112 Z13.415 F500.000
G1 X13.490 Y37.601 Z13.415 F200.000
G0 Z20.000
G0 X13.384 Y39.736 Z20.000
G0 X13.384 Y39.736 Z18.000
G1 X13.384 Y39.736 Z13.415 F500.000
G1 X3.477 Y29.829 Z13.415 F200.000
G0 Z20.000
G0 X3.024 Y31.618 Z20.000
G0 X3.024 Y31.618 Z18.000
G1 X3.024 Y31.618 Z13.415 F500.000
G1 X13.457 Y42.051 Z13.415 F200.000
G0 Z20.000
G0 X13.785 Y44.620 Z20.000
G0 X13.785 Y44.620 Z18.000
G1 X13.785 Y44.620 Z13.415 F500.000
G1 X2.653 Y33.489 Z13.415 F200.000
G0 Z20.000
G0 X2.368 Y35.445 Z20.000
G0 X2.368 Y35.445 Z18.000
G1 X2.368 Y35.445 Z13.415 F500.000
G1 X14.478 Y47.555 Z13.415 F200.000
G0 Z20.000
G0 X14.643 Y49.961 Z20.000
G0 X14.643 Y49.961 Z18.000
G1 X14.643 Y49.961 Z13.415 F500.000
G1 X2.177 Y37.496 Z13.415 F200.000
G0 Z20.000
G0 X2.093 Y39.653 Z20.000
G0 X2.093 Y39.653 Z18.000
G1 X2.093 Y39.653 Z13.415 F500.000
G1 X12.574 Y50.134 Z13.415 F200.000
G0 Z20.000
G0 X11.068 Y50.869 Z20.000
G0 X11.068 Y50.869 Z18.000
G1 X11.068 Y50.869 Z13.415 F500.000
G1 X2.139 Y41.941 Z13.415 F200.000
G0 Z20.000
G0 X2.350 Y44.392 Z20.000
G0 X2.350 Y44.392 Z18.000
G1 X2.350 Y44.392 Z13.415 F500.000
G1 X9.936 Y51.979 Z13.415 F200.000
G0 Z20.000
G0 X9.177 Y53.461 Z20.000
G0 X9.177 Y53.461 Z18.000
G1 X9.177 Y53.461 Z13.415 F500.000
G1 X2.748 Y47.032 Z13.415 F200.000
G0 Z20.000
G0 X3.415 Y49.940 Z20.000
G0 X3.415 Y49.940 Z18.000
G1 X3.415 Y49.940 Z13.415 F500.000
G1 X8.966 Y55.492 Z13.415 F200.000
G0 Z20.000
G0 X6.253 Y57.262 Z20.000
G0 X6.253 Y57.262 Z18.000
G1 X6.253 Y57.262 Z13.415 F500.000
G1 X22.737 Y73.746 Z13.415 F200.000
G0 Z20.000
G0 X26.758 Y75.525 Z20.000
G0 X26.758 Y75.525 Z18.000
G1 X26.758 Y75.525 Z13.415 F500.000
G1 X4.475 Y53.242 Z13.415 F200.000
G0 Z20.000
G0 X13.532 Y60.058 Z20.000
G0 X13.532 Y60.058 Z18.000
G1 X13.532 Y60.058 Z13.415 F500.000
G1 X30.059 Y76.585 Z13.415 F200.000
G0 Z20.000
G0 X32.967 Y77.251 Z20.000
G0 X32.967 Y77.251 Z18.000
G1 X32.967 Y77.251 Z13.415 F500.000
G1 X15.553 Y59.838 Z13.415 F200.000
G0 Z20.000
G0 X17.040 Y59.083 Z20.000
G0 X17.040 Y59.083 Z18.000
G1 X17.040 Y59.083 Z13.415 F500.000
G1 X35.607 Y77.650 Z13.415 F200.000
G0 Z20.000
G0 X38.059 Y77.860 Z20.000
G0 X38.059 Y77.860 Z18.000
G1 X38.059 Y77.860 Z13.415 F500.000
G1 X18.153 Y57.955 Z13.415 F200.000
G0 Z20.000
G0 X18.889 Y56.449 Z20.000
G0 X18.889 Y56.449 Z18.000
G1 X18.889 Y56.449 Z13.415 F500.000
G1 X19.913 Y57.473 Z13.415 F200.000
G0 Z20.000
G0 X22.464 Y60.024 Z20.000
G0 X22.464 Y60.024 Z18.000
G1 X22.464 Y60.024 Z13.415 F500.000
G1 X40.347 Y77.907 Z13.415 F200.000
G0 Z20.000
G0 X42.504 Y77.822 Z20.000
G0 X42.504 Y77.822 Z18.000
G1 X42.504 Y77.822 Z13.415 F500.000
G1 X39.757 Y75.075 Z13.415 F200.000
G0 Z20.000
G0 X41.708 Y74.784 Z20.000
G0 X41.708 Y74.784 Z18.000
G1 X41.708 Y74.784 Z13.415 F500.000
G1 X44.555 Y77.632 Z13.415 F200.000
G0 Z20.000
G0 X46.511 Y77.346 Z20.000
G0 X46.511 Y77.346 Z18.000
G1 X46.511 Y77.346 Z13.415 F500.000
G1 X43.150 Y73.986 Z13.415 F200.000
G0 Z20.000
G0 X44.226 Y72.820 Z20.000
G0 X44.226 Y72.820 Z18.000
G1 X44.226 Y72.820 Z13.415 F500.000
G1 X48.381 Y76.975 Z13.415 F200.000
G0 Z20.000
G0 X50.171 Y76.523 Z20.000
G0 X50.171 Y76.523 Z18.000
G1 X50.171 Y76.523 Z13.415 F500.000
G1 X44.916 Y71.268 Z13.415 F200.000
G0 Z20.000
G0 X45.003 Y69.114 Z20.000
G0 X45.003 Y69.114 Z18.000
G1 X45.003 Y69.114 Z13.415 F500.000
G1 X51.888 Y75.999 Z13.415 F200.000
G0 Z20.000
G0 X53.540 Y75.409 Z20.000
G0 X53.540 Y75.409 Z18.000
G1 X53.540 Y75.409 Z13.415 F500.000
G1 X44.388 Y66.257 Z13.415 F200.000
G0 Z20.000
G0 X46.246 Y65.873 Z20.000
G0 X46.246 Y65.873 Z18.000
G1 X46.246 Y65.873 Z13.415 F500.000
G1 X55.131 Y74.759 Z13.415 F200.000
G0 Z20.000
G0 X56.665 Y74.051 Z20.000
G0 X56.665 Y74.051 Z18.000
G1 X56.665 Y74.051 Z13.415 F500.000
G1 X48.001 Y65.387 Z13.415 F200.000
G0 Z20.000
G0 X49.664 Y64.808 Z20.000
G0 X49.664 Y64.808 Z18.000
G1 X49.664 Y64.808 Z13.415 F500.000
G1 X58.143 Y73.287 Z13.415 F200.000
G0 Z20.000
G0 X59.568 Y72.471 Z20.000
G0 X59.568 Y72.471 Z18.000
G1 X59.568 Y72.471 Z13.415 F500.000
G1 X51.234 Y64.137 Z13.415 F200.000
G0 Z20.000
G0 X48.890 Y55.068 Z20.000
G0 X48.890 Y55.068 Z18.000
G1 X48.890 Y55.068 Z13.415 F500.000
G1 X47.988 Y54.167 Z13.415 F200.000
G0 Z20.000
G0 X45.828 Y49.765 Z20.000
G0 X45.828 Y49.765 Z18.000
G1 X45.828 Y49.765 Z13.415 F500.000
G1 X44.926 Y48.863 Z13.415 F200.000
G0 Z20.000
G0 X43.933 Y45.628 Z20.000
G0 X43.933 Y45.628 Z18.000
G1 X43.933 Y45.628 Z13.415 F500.000
G1 X43.798 Y45.493 Z13.415 F200.000
G0 Z20.000
G0 X47.496 Y40.225 Z20.000
G0 X47.496 Y40.225 Z18.000
G1 X47.496 Y40.225 Z13.415 F500.000
G1 X46.653 Y39.383 Z13.415 F200.000
G0 Z20.000
G0 X49.347 Y39.835 Z20.000
G0 X49.347 Y39.835 Z18.000
G1 X49.347 Y39.835 Z13.415 F500.000
G1 X49.677 Y40.165 Z13.415 F200.000
G0 Z20.000
G0 X51.589 Y39.835 Z20.000
G0 X51.589 Y39.835 Z18.000
G1 X51.589 Y39.835 Z13.415 F500.000
G1 X51.919 Y40.165 Z13.415 F200.000
G0 Z20.000
G0 X53.830 Y39.835 Z20.000
G0 X53.830 Y39.835 Z18.000
G1 X53.830 Y39.835 Z13.415 F500.000
G1 X54.160 Y40.165 Z13.415 F200.000
G0 Z20.000
G0 X56.072 Y39.835 Z20.000
G0 X56.072 Y39.835 Z18.000
G1 X56.072 Y39.835 Z13.415 F500.000
G1 X56.402 Y40.165 Z13.415 F200.000
G0 Z20.000
G0 X58.313 Y39.835 Z20.000
G0 X58.313 Y39.835 Z18.000
G1 X58.313 Y39.835 Z13.415 F500.000
G1 X58.643 Y40.165 Z13.415 F200.000
G0 Z20.000
G0 X60.555 Y39.835 Z20.000
G0 X60.555 Y39.835 Z18.000
G1 X60.555 Y39.835 Z13.415 F500.000
G1 X60.885 Y40.165 Z13.415 F200.000
G0 Z20.000
G0 X62.796 Y39.835 Z20.000
G0 X62.796 Y39.835 Z18.000
G1 X62.796 Y39.835 Z13.415 F500.000
G1 X63.126 Y40.165 Z13.415 F200.000
G0 Z20.000
G0 X46.064 Y29.827 Z20.000
G0 X46.064 Y29.827 Z18.000
G1 X46.064 Y29.827 Z13.415 F500.000
G1 X45.822 Y29.585 Z13.415 F200.000
G0 Z20.000
G0 X46.884 Y28.406 Z20.000
G0 X46.884 Y28.406 Z18.000
G1 X46.884 Y28.406 Z13.415 F500.000
G1 X46.643 Y28.164 Z13.415 F200.000
G0 Z20.000
G0 X47.705 Y26.985 Z20.000
G0 X47.705 Y26.985 Z18.000
G1 X47.705 Y26.985 Z13.415 F500.000
G1 X47.463 Y26.743 Z13.415 F200.000
G0 Z20.000
G0 X48.525 Y25.564 Z20.000
G0 X48.525 Y25.564 Z18.000
G1 X48.525 Y25.564 Z13.415 F500.000
G1 X48.283 Y25.322 Z13.415 F200.000
G0 Z20.000
G0 X49.345 Y24.142 Z20.000
G0 X49.345 Y24.142 Z18.000
G1 X49.345 Y24.142 Z13.415 F500.000
G1 X49.104 Y23.901 Z13.415 F200.000
G0 Z20.000
G0 X50.166 Y22.721 Z20.000
G0 X50.166 Y22.721 Z18.000
G1 X50.166 Y22.721 Z13.415 F500.000
G1 X49.924 Y22.480 Z13.415 F200.000
G0 Z20.000
G0 X50.986 Y21.300 Z20.000
G0 X50.986 Y21.300 Z18.000
G1 X50.986 Y21.300 Z13.415 F500.000
G1 X50.745 Y21.059 Z13.415 F200.000
G0 Z20.000
G0 X51.807 Y19.879 Z20.000
G0 X51.807 Y19.879 Z18.000
G1 X51.807 Y19.879 Z13.415 F500.000
G1 X51.571 Y19.643 Z13.415 F200.000
G0 Z20.000
G0 X45.002 Y31.006 Z20.000
G0 X45.002 Y31.006 Z18.000
G1 X45.002 Y31.006 Z13.415 F500.000
G1 X45.243 Y31.248 Z13.415 F200.000
G0 Z20.000
G0 X44.181 Y32.427 Z20.000
G0 X44.181 Y32.427 Z18.000
G1 X44.181 Y32.427 Z13.415 F500.000
G1 X44.423 Y32.669 Z13.415 F200.000
G0 Z20.000
G0 X43.179 Y33.667 Z20.000
G0 X43.179 Y33.667 Z18.000
G1 X43.179 Y33.667 Z13.415 F500.000
G1 X43.949 Y34.437 Z13.415 F200.000
G0 Z20.000
G0 X36.882 Y34.094 Z20.000
G0 X36.882 Y34.094 Z18.000
G1 X36.882 Y34.094 Z13.415 F500.000
G1 X35.740 Y32.953 Z13.415 F200.000
G0 Z20.000
G0 X33.580 Y28.551 Z20.000
G0 X33.580 Y28.551 Z18.000
G1 X33.580 Y28.551 Z13.415 F500.000
G1 X32.678 Y27.649 Z13.415 F200.000
G0 Z20.000
G0 X30.518 Y23.247 Z20.000
G0 X30.518 Y23.247 Z18.000
G1 X30.518 Y23.247 Z13.415 F500.000
G1 X29.616 Y22.346 Z13.415 F200.000
G0 Z20.000
G0 X33.195 Y39.373 Z20.000
G0 X33.195 Y39.373 Z18.000
G1 X33.195 Y39.373 Z13.415 F500.000
G1 X33.340 Y39.518 Z13.415 F200.000
G0 Z20.000
G0 X31.745 Y40.165 Z20.000
G0 X31.745 Y40.165 Z18.000
G1 X31.745 Y40.165 Z13.415 F500.000
G1 X31.415 Y39.835 Z13.415 F200.000
G0 Z20.000
G0 X29.503 Y40.165 Z20.000
G0 X29.503 Y40.165 Z18.000
G1 X29.503 Y40.165 Z13.415 F500.000
G1 X29.173 Y39.835 Z13.415 F200.000
G0 Z20.000
G0 X27.262 Y40.165 Z20.000
G0 X27.262 Y40.165 Z18.000
G1 X27.262 Y40.165 Z13.415 F500.000
G1 X26.932 Y39.835 Z13.415 F200.000
G0 Z20.000
G0 X25.020 Y40.165 Z20.000
G0 X25.020 Y40.165 Z18.000
G1 X25.020 Y40.165 Z13.415 F500.000
G1 X24.690 Y39.835 Z13.415 F200.000
G0 Z20.000
G0 X22.779 Y40.165 Z20.000
G0 X22.779 Y40.165 Z18.000
G1 X22.779 Y40.165 Z13.415 F500.000
G1 X22.449 Y39.835 Z13.415 F200.000
G0 Z20.000
G0 X20.537 Y40.165 Z20.000
G0 X20.537 Y40.165 Z18.000
G1 X20.537 Y40.165 Z13.415 F500.000
G1 X20.207 Y39.835 Z13.415 F200.000
G0 Z20.000
G0 X18.296 Y40.165 Z20.000
G0 X18.296 Y40.165 Z18.000
G1 X18.296 Y40.165 Z13.415 F500.000
G1 X17.966 Y39.835 Z13.415 F200.000
G0 Z20.000
G0 X34.336 Y49.480 Z20.000
G0 X34.336 Y49.480 Z18.000
G1 X34.336 Y49.480 Z13.415 F500.000
G1 X34.577 Y49.722 Z13.415 F200.000
G0 Z20.000
G0 X33.515 Y50.901 Z20.000
G0 X33.515 Y50.901 Z18.000
G1 X33.515 Y50.901 Z13.415 F500.000
G1 X33.757 Y51.143 Z13.415 F200.000
G0 Z20.000
G0 X32.695 Y52.322 Z20.000
G0 X32.695 Y52.322 Z18.000
G1 X32.695 Y52.322 Z13.415 F500.000
G1 X32.936 Y52.564 Z13.415 F200.000
G0 Z20.000
G0 X31.874 Y53.743 Z20.000
G0 X31.874 Y53.743 Z18.000
G1 X31.874 Y53.743 Z13.415 F500.000
G1 X32.116 Y53.985 Z13.415 F200.000
G0 Z20.000
G0 X31.054 Y55.164 Z20.000
G0 X31.054 Y55.164 Z18.000
G1 X31.054 Y55.164 Z13.415 F500.000
G1 X31.295 Y55.406 Z13.415 F200.000
G0 Z20.000
G0 X30.233 Y56.586 Z20.000
G0 X30.233 Y56.586 Z18.000
G1 X30.233 Y56.586 Z13.415 F500.000
G1 X30.475 Y56.827 Z13.415 F200.000
G0 Z20.000
G0 X29.413 Y58.007 Z20.000
G0 X29.413 Y58.007 Z18.000
G1 X29.413 Y58.007 Z13.415 F500.000
G1 X29.655 Y58.248 Z13.415 F200.000
G0 Z20.000
G0 X28.592 Y59.428 Z20.000
G0 X28.592 Y59.428 Z18.000
G1 X28.592 Y59.428 Z13.415 F500.000
G1 X28.834 Y59.669 Z13.415 F200.000
G0 Z20.000
G0 X28.845 Y64.163 Z20.000
G0 X28.845 Y64.163 Z18.000
G1 X28.845 Y64.163 Z13.415 F500.000
G1 X34.929 Y70.247 Z13.415 F200.000
G0 Z20.000
G0 X35.217 Y68.294 Z20.000
G0 X35.217 Y68.294 Z18.000
G1 X35.217 Y68.294 Z13.415 F500.000
G1 X32.448 Y65.524 Z13.415 F200.000
G0 Z20.000
G0 X35.383 Y66.219 Z20.000
G0 X35.383 Y66.219 Z18.000
G1 X35.383 Y66.219 Z13.415 F500.000
G1 X36.018 Y66.853 Z13.415 F200.000
G0 Z20.000
G0 X35.398 Y48.301 Z20.000
G0 X35.398 Y48.301 Z18.000
G1 X35.398 Y48.301 Z13.415 F500.000
G1 X35.156 Y48.059 Z13.415 F200.000
G0 Z20.000
G0 X36.222 Y46.884 Z20.000
G0 X36.222 Y46.884 Z18.000
G1 X36.222 Y46.884 Z13.415 F500.000
G1 X35.964 Y46.625 Z13.415 F200.000
G0 Z20.000
G0 X16.494 Y69.745 Z20.000
G0 X16.494 Y69.745 Z18.000
G1 X16.494 Y69.745 Z13.415 F500.000
G1 X10.255 Y63.505 Z13.415 F200.000
G0 Z20.000
G0 X59.735 Y7.634 Z20.000
G0 X59.735 Y7.634 Z18.000
G1 X59.735 Y7.634 Z13.415 F500.000
G1 X72.366 Y20.264 Z13.415 F200.000
G1 X72.366 Y20.264 Z12.887 F500.000
G1 X59.735 Y7.634 Z12.887 F200.000
G0 Z20.000
G0 X55.075 Y5.216 Z20.000
G0 X55.075 Y5.216 Z18.000
G1 X55.075 Y5.216 Z12.887 F500.000
G1 X74.784 Y24.924 Z12.887 F200.000
G0 Z20.000
G0 X76.126 Y28.507 Z20.000
G0 X76.126 Y28.507 Z18.000
G1 X76.126 Y28.507 Z12.887 F500.000
G1 X70.666 Y23.048 Z12.887 F200.000
G0 Z20.000
G0 X71.021 Y25.644 Z20.000
G0 X71.021 Y25.644 Z18.000
G1 X71.021 Y25.644 Z12.887 F500.000
G1 X76.970 Y31.593 Z12.887 F200.000
G0 Z20.000
G0 X77.482 Y34.346 Z20.000
G0 X77.482 Y34.346 Z18.000
G1 X77.482 Y34.346 Z12.887 F500.000
G1 X70.484 Y27.349 Z12.887 F200.000
G0 Z20.000
G0 X69.527 Y28.633 Z20.000
G0 X69.527 Y28.633 Z18.000
G1 X69.527 Y28.633 Z12.887 F500.000
G1 X77.781 Y36.887 Z12.887 F200.000
G0 Z20.000
G0 X77.897 Y39.245 Z20.000
G0 X77.897 Y39.245 Z18.000
G1 X77.897 Y39.245 Z12.887 F500.000
G1 X68.211 Y29.559 Z12.887 F200.000
G0 Z20.000
G0 X66.469 Y30.058 Z20.000
G0 X66.469 Y30.058 Z18.000
G1 X66.469 Y30.058 Z12.887 F500.000
G1 X77.881 Y41.471 Z12.887 F200.000
G0 Z20.000
G0 X77.742 Y43.573 Z20.000
G0 X77.742 Y43.573 Z18.000
G1 X77.742 Y43.573 Z12.887 F500.000
G1 X64.991 Y30.822 Z12.887 F200.000
G0 Z20.000
G0 X65.943 Y34.015 Z20.000
G0 X65.943 Y34.015 Z18.000
G1 X65.943 Y34.015 Z12.887 F500.000
G1 X77.495 Y45.568 Z12.887 F200.000
G0 Z20.000
G0 X77.161 Y47.475 Z20.000
G0 X77.161 Y47.475 Z18.000
G1 X77.161 Y47.475 Z12.887 F500.000
G1 X66.421 Y36.735 Z12.887 F200.000
G0 Z20.000
G0 X66.604 Y39.159 Z20.000
G0 X66.604 Y39.159 Z18.000
G1 X66.604 Y39.159 Z12.887 F500.000
G1 X76.746 Y49.301 Z12.887 F200.000
G0 Z20.000
G0 X76.257 Y51.054 Z20.000
G0 X76.257 Y51.054 Z18.000
G1 X76.257 Y51.054 Z12.887 F500.000
G1 X66.586 Y41.383 Z12.887 F200.000
G0 Z20.000
G0 X66.396 Y43.435 Z20.000
G0 X66.396 Y43.435 Z18.000
G1 X66.396 Y43.435 Z12.887 F500.000
G1 X75.701 Y52.739 Z12.887 F200.000
G0 Z20.000
G0 X75.080 Y54.360 Z20.000
G0 X75.080 Y54.360 Z18.000
G1 X75.080 Y54.360 Z12.887 F500.000
G1 X66.073 Y45.353 Z12.887 F200.000
G0 Z20.000
G0 X65.642 Y47.163 Z20.000
G0 X65.642 Y47.163 Z18.000
G1 X65.642 Y47.163 Z12.887 F500.000
G1 X74.400 Y55.921 Z12.887 F200.000
G0 Z20.000
G0 X73.663 Y57.426 Z20.000
G0 X73.663 Y57.426 Z18.000
G1 X73.663 Y57.426 Z12.887 F500.000
G1 X71.056 Y54.819 Z12.887 F200.000
G0 Z20.000
G0 X70.746 Y56.750 Z20.000
G0 X70.746 Y56.750 Z18.000
G1 X70.746 Y56.750 Z12.887 F500.000
G1 X72.871 Y58.876 Z12.887 F200.000
G0 Z20.000
G0 X72.027 Y60.274 Z20.000
G0 X72.027 Y60.274 Z18.000
G1 X72.027 Y60.274 Z12.887 F500.000
G1 X69.935 Y58.181 Z12.887 F200.000
G0 Z20.000
G0 X68.760 Y59.247 Z20.000
G0 X68.760 Y59.247 Z18.000
G1 X68.760 Y59.247 Z12.887 F500.000
G1 X71.133 Y61.621 Z12.887 F200.000
G0 Z20.000
G0 X70.190 Y62.920 Z20.000
G0 X70.190 Y62.920 Z18.000
G1 X70.190 Y62.920 Z12.887 F500.000
G1 X67.203 Y59.932 Z12.887 F200.000
G0 Z20.000
G0 X65.016 Y59.987 Z20.000
G0 X65.016 Y59.987 Z18.000
G1 X65.016 Y59.987 Z12.887 F500.000
G1 X69.199 Y64.170 Z12.887 F200.000
G0 Z20.000
G0 X68.161 Y65.373 Z20.000
G0 X68.161 Y65.373 Z18.000
G1 X68.161 Y65.373 Z12.887 F500.000
G1 X60.165 Y57.378 Z12.887 F200.000
G0 Z20.000
G0 X59.093 Y58.547 Z20.000
G0 X59.093 Y58.547 Z18.000
G1 X59.093 Y58.547 Z12.887 F500.000
G1 X67.076 Y66.530 Z12.887 F200.000
G0 Z20.000
G0 X65.944 Y67.639 Z20.000
G0 X65.944 Y67.639 Z18.000
G1 X65.944 Y67.639 Z12.887 F500.000
G1 X57.954 Y59.650 Z12.887 F200.000
G0 Z20.000
G0 X56.749 Y60.685 Z20.000
G0 X56.749 Y60.685 Z18.000
G1 X56.749 Y60.685 Z12.887 F500.000
G1 X64.765 Y68.702 Z12.887 F200.000
G0 Z20.000
G0 X63.540 Y69.718 Z20.000
G0 X63.540 Y69.718 Z18.000
G1 X63.540 Y69.718 Z12.887 F500.000
G1 X55.475 Y61.654 Z12.887 F200.000
G0 Z20.000
G0 X54.134 Y62.554 Z20.000
G0 X54.134 Y62.554 Z18.000
G1 X54.134 Y62.554 Z12.887 F500.000
G1 X62.267 Y70.686 Z12.887 F200.000
G0 Z20.000
G0 X60.942 Y71.604 Z20.000
G0 X60.942 Y71.604 Z18.000
G1 X60.942 Y71.604 Z12.887 F500.000
G1 X52.717 Y63.378 Z12.887 F200.000
G0 Z20.000
G0 X51.234 Y64.137 Z20.000
G0 X51.234 Y64.137 Z18.000
G1 X51.234 Y64.137 Z12.887 F500.000
G1 X59.568 Y72.471 Z12.887 F200.000
G0 Z20.000
G0 X58.143 Y73.287 Z20.000
G0 X58.143 Y73.287 Z18.000
G1 X58.143 Y73.287 Z12.887 F500.000
G1 X49.664 Y64.808 Z12.887 F200.000
G0 Z20.000
G0 X48.001 Y65.387 Z20.000
G0 X48.001 Y65.387 Z18.000
G1 X48.001 Y65.387 Z12.887 F500.000
G1 X56.665 Y74.051 Z12.887 F200.000
G0 Z20.000
G0 X55.131 Y74.759 Z20.000
G0 X55.131 Y74.759 Z18.000
G1 X55.131 Y74.759 Z12.887 F500.000
G1 X46.246 Y65.873 Z12.887 F200.000
G0 Z20.000
G0 X44.388 Y66.257 Z20.000
G0 X44.388 Y66.257 Z18.000
G1 X44.388 Y66.257 Z12.887 F500.000
G1 X53.540 Y75.409 Z12.887 F200.000
G0 Z20.000
G0 X51.888 Y75.999 Z20.000
G0 X51.888 Y75.999 Z18.000
G1 X51.888 Y75.999 Z12.887 F500.000
G1 X45.003 Y69.114 Z12.887 F200.000
G0 Z20.000
G0 X44.916 Y71.268 Z20.000
G0 X44.916 Y71.268 Z18.000
G1 X44.916 Y71.268 Z12.887 F500.000
G1 X50.171 Y76.523 Z12.887 F200.000
G0 Z20.000
G0 X48.381 Y76.975 Z20.000
G0 X48.381 Y76.975 Z18.000
G1 X48.381 Y76.975 Z12.887 F500.000
G1 X44.226 Y72.820 Z12.887 F200.000
G0 Z20.000
G0 X43.150 Y73.986 Z20.000
G0 X43.150 Y73.986 Z18.000
G1 X43.150 Y73.986 Z12.887 F500.000
G1 X46.511 Y77.346 Z12.887 F200.000
G0 Z20.000
G0 X44.555 Y77.632 Z20.000
G0 X44.555 Y77.632 Z18.000
G1 X44.555 Y77.632 Z12.887 F500.000
G1 X41.708 Y74.784 Z12.887 F200.000
G0 Z20.000
G0 X39.757 Y75.075 Z20.000
G0 X39.757 Y75.075 Z18.000
G1 X39.757 Y75.075 Z12.887 F500.000
G1 X42.504 Y77.822 Z12.887 F200.000
G0 Z20.000
G0 X40.347 Y77.907 Z20.000
G0 X40.347 Y77.907 Z18.000
G1 X40.347 Y77.907 Z12.887 F500.000
G1 X22.464 Y60.024 Z12.887 F200.000
G0 Z20.000
G0 X19.913 Y57.473 Z20.000
G0 X19.913 Y57.473 Z18.000
G1 X19.913 Y57.473 Z12.887 F500.000
G1 X18.889 Y56.449 Z12.887 F200.000
G0 Z20.000
G0 X18.153 Y57.955 Z20.000
G0 X18.153 Y57.955 Z18.000
G1 X18.153 Y57.955 Z12.887 F500.000
G1 X38.059 Y77.860 Z12.887 F200.000
G0 Z20.000
G0 X35.607 Y77.650 Z20.000
G0 X35.607 Y77.650 Z18.000
G1 X35.607 Y77.650 Z12.887 F500.000
G1 X17.040 Y59.083 Z12.887 F200.000
G0 Z20.000
G0 X15.553 Y59.838 Z20.000
G0 X15.553 Y59.838 Z18.000
G1 X15.553 Y59.838 Z12.887 F500.000
G1 X32.967 Y77.251 Z12.887 F200.000
G0 Z20.000
G0 X30.059 Y76.585 Z20.000
G0 X30.059 Y76.585 Z18.000
G1 X30.059 Y76.585 Z12.887 F500.000
G1 X13.532 Y60.058 Z12.887 F200.000
G0 Z20.000
G0 X10.255 Y63.505 Z20.000
G0 X10.255 Y63.505 Z18.000
G1 X10.255 Y63.505 Z12.887 F500.000
G1 X16.494 Y69.745 Z12.887 F200.000
G0 Z20.000
G0 X22.737 Y73.746 Z20.000
G0 X22.737 Y73.746 Z18.000
G1 X22.737 Y73.746 Z12.887 F500.000
G1 X6.253 Y57.262 Z12.887 F200.000
G0 Z20.000
G0 X8.966 Y55.492 Z20.000
G0 X8.966 Y55.492 Z18.000
G1 X8.966 Y55.492 Z12.887 F500.000
G1 X3.415 Y49.940 Z12.887 F200.000
G0 Z20.000
G0 X2.748 Y47.032 Z20.000
G0 X2.748 Y47.032 Z18.000
G1 X2.748 Y47.032 Z12.887 F500.000
G1 X9.177 Y53.461 Z12.887 F200.000
G0 Z20.000
G0 X9.936 Y51.979 Z20.000
G0 X9.936 Y51.979 Z18.000
G1 X9.936 Y51.979 Z12.887 F500.000
G1 X2.350 Y44.392 Z12.887 F200.000
G0 Z20.000
G0 X2.139 Y41.941 Z20.000
G0 X2.139 Y41.941 Z18.000
G1 X2.139 Y41.941 Z12.887 F500.000
G1 X11.068 Y50.869 Z12.887 F200.000
G0 Z20.000
G0 X12.574 Y50.134 Z20.000
G0 X12.574 Y50.134 Z18.000
G1 X12.574 Y50.134 Z12.887 F500.000
G1 X2.093 Y39.653 Z12.887 F200.000
G0 Z20.000
G0 X2.177 Y37.496 Z20.000
G0 X2.177 Y37.496 Z18.000
G1 X2.177 Y37.496 Z12.887 F500.000
G1 X14.643 Y49.961 Z12.887 F200.000
G0 Z20.000
G0 X14.478 Y47.555 Z20.000
G0 X14.478 Y47.555 Z18.000
G1 X14.478 Y47.555 Z12.887 F500.000
G1 X2.368 Y35.445 Z12.887 F200.000
G0 Z20.000
G0 X2.653 Y33.489 Z20.000
G0 X2.653 Y33.489 Z18.000
G1 X2.653 Y33.489 Z12.887 F500.000
G1 X13.785 Y44.620 Z12.887 F200.000
G0 Z20.000
G0 X13.457 Y42.051 Z20.000
G0 X13.457 Y42.051 Z18.000
G1 X13.457 Y42.051 Z12.887 F500.000
G1 X3.024 Y31.618 Z12.887 F200.000
G0 Z20.000
G0 X3.477 Y29.829 Z20.000
G0 X3.477 Y29.829 Z18.000
G1 X3.477 Y29.829 Z12.887 F500.000
G1 X13.384 Y39.736 Z12.887 F200.000
G0 Z20.000
G0 X13.490 Y37.601 Z20.000
G0 X13.490 Y37.601 Z18.000
G1 X13.490 Y37.601 Z12.887 F500.000
G1 X4.001 Y28.112 Z12.887 F200.000
G0 Z20.000
G0 X4.590 Y26.459 Z20.000
G0 X4.590 Y26.459 Z18.000
G1 X4.590 Y26.459 Z12.887 F500.000
G1 X13.744 Y35.613 Z12.887 F200.000
G0 Z20.000
G0 X14.119 Y33.746 Z20.000
G0 X14.119 Y33.746 Z18.000
G1 X14.119 Y33.746 Z12.887 F500.000
G1 X5.241 Y24.868 Z12.887 F200.000
G0 Z20.000
G0 X5.949 Y23.335 Z20.000
G0 X5.949 Y23.335 Z18.000
G1 X5.949 Y23.335 Z12.887 F500.000
G1 X9.187 Y26.573 Z12.887 F200.000
G0 Z20.000
G0 X9.009 Y24.153 Z20.000
G0 X9.009 Y24.153 Z18.000
G1 X9.009 Y24.153 Z12.887 F500.000
G1 X6.712 Y21.857 Z12.887 F200.000
G0 Z20.000
G0 X7.529 Y20.432 Z20.000
G0 X7.529 Y20.432 Z18.000
G1 X7.529 Y20.432 Z12.887 F500.000
G1 X9.600 Y22.503 Z12.887 F200.000
G0 Z20.000
G0 X10.593 Y21.255 Z20.000
G0 X10.593 Y21.255 Z18.000
G1 X10.593 Y21.255 Z12.887 F500.000
G1 X8.396 Y19.057 Z12.887 F200.000
G0 Z20.000
G0 X9.313 Y17.733 Z20.000
G0 X9.313 Y17.733 Z18.000
G1 X9.313 Y17.733 Z12.887 F500.000
G1 X11.945 Y20.365 Z12.887 F200.000
G0 Z20.000
G0 X13.747 Y19.925 Z20.000
G0 X13.747 Y19.925 Z18.000
G1 X13.747 Y19.925 Z12.887 F500.000
G1 X10.281 Y16.460 Z12.887 F200.000
G0 Z20.000
G0 X11.297 Y15.234 Z20.000
G0 X11.297 Y15.234 Z18.000
G1 X11.297 Y15.234 Z12.887 F500.000
G1 X16.852 Y20.789 Z12.887 F200.000
G0 Z20.000
G0 X18.250 Y22.187 Z20.000
G0 X18.250 Y22.187 Z18.000
G1 X18.250 Y22.187 Z12.887 F500.000
G1 X19.312 Y23.249 Z12.887 F200.000
G0 Z20.000
G0 X20.350 Y22.045 Z20.000
G0 X20.350 Y22.045 Z18.000
G1 X20.350 Y22.045 Z12.887 F500.000
G1 X12.360 Y14.056 Z12.887 F200.000
G0 Z20.000
G0 X13.470 Y12.924 Z20.000
G0 X13.470 Y12.924 Z18.000
G1 X13.470 Y12.924 Z12.887 F500.000
G1 X21.454 Y20.908 Z12.887 F200.000
G0 Z20.000
G0 X22.625 Y19.837 Z20.000
G0 X22.625 Y19.837 Z18.000
G1 X22.625 Y19.837 Z12.887 F500.000
G1 X14.626 Y11.839 Z12.887 F200.000
G0 Z20.000
G0 X15.829 Y10.800 Z20.000
G0 X15.829 Y10.800 Z18.000
G1 X15.829 Y10.800 Z12.887 F500.000
G1 X23.859 Y18.830 Z12.887 F200.000
G0 Z20.000
G0 X25.172 Y17.902 Z20.000
G0 X25.172 Y17.902 Z18.000
G1 X25.172 Y17.902 Z12.887 F500.000
G1 X17.080 Y9.809 Z12.887 F200.000
G0 Z20.000
G0 X18.378 Y8.866 Z20.000
G0 X18.378 Y8.866 Z18.000
G1 X18.378 Y8.866 Z12.887 F500.000
G1 X26.540 Y17.028 Z12.887 F200.000
G0 Z20.000
G0 X27.990 Y16.237 Z20.000
G0 X27.990 Y16.237 Z18.000
G1 X27.990 Y16.237 Z12.887 F500.000
G1 X19.726 Y7.972 Z12.887 F200.000
G0 Z20.000
G0 X21.124 Y7.128 Z20.000
G0 X21.124 Y7.128 Z18.000
G1 X21.124 Y7.128 Z12.887 F500.000
G1 X29.521 Y15.525 Z12.887 F200.000
G0 Z20.000
G0 X31.134 Y14.897 Z20.000
G0 X31.134 Y14.897 Z18.000
G1 X31.134 Y14.897 Z12.887 F500.000
G1 X22.574 Y6.337 Z12.887 F200.000
G0 Z20.000
G0 X24.078 Y5.600 Z20.000
G0 X24.078 Y5.600 Z18.000
G1 X24.078 Y5.600 Z12.887 F500.000
G1 X32.839 Y14.361 Z12.887 F200.000
G0 Z20.000
G0 X34.647 Y13.927 Z20.000
G0 X34.647 Y13.927 Z18.000
G1 X34.647 Y13.927 Z12.887 F500.000
G1 X25.639 Y4.919 Z12.887 F200.000
G0 Z20.000
G0 X27.260 Y4.299 Z20.000
G0 X27.260 Y4.299 Z18.000
G1 X27.260 Y4.299 Z12.887 F500.000
G1 X35.756 Y12.794 Z12.887 F200.000
G0 Z20.000
G0 X34.931 Y9.728 Z20.000
G0 X34.931 Y9.728 Z18.000
G1 X34.931 Y9.728 Z12.887 F500.000
G1 X28.945 Y3.742 Z12.887 F200.000
G0 Z20.000
G0 X30.698 Y3.254 Z20.000
G0 X30.698 Y3.254 Z18.000
G1 X30.698 Y3.254 Z12.887 F500.000
G1 X35.364 Y7.919 Z12.887 F200.000
G0 Z20.000
G0 X36.254 Y6.568 Z20.000
G0 X36.254 Y6.568 Z18.000
G1 X36.254 Y6.568 Z12.887 F500.000
G1 X32.525 Y2.839 Z12.887 F200.000
G0 Z20.000
G0 X34.432 Y2.504 Z20.000
G0 X34.432 Y2.504 Z18.000
G1 X34.432 Y2.504 Z12.887 F500.000
G1 X37.503 Y5.575 Z12.887 F200.000
G0 Z20.000
G0 X39.163 Y4.994 Z20.000
G0 X39.163 Y4.994 Z18.000
G1 X39.163 Y4.994 Z12.887 F500.000
G1 X36.427 Y2.258 Z12.887 F200.000
G0 Z20.000
G0 X38.529 Y2.118 Z20.000
G0 X38.529 Y2.118 Z18.000
G1 X38.529 Y2.118 Z12.887 F500.000
G1 X41.590 Y5.179 Z12.887 F200.000
G0 Z20.000
G0 X40.754 Y2.102 Z20.000
G0 X40.754 Y2.102 Z18.000
G1 X40.754 Y2.102 Z12.887 F500.000
G1 X61.418 Y22.765 Z12.887 F200.000
G0 Z20.000
G0 X62.344 Y21.450 Z20.000
G0 X62.344 Y21.450 Z18.000
G1 X62.344 Y21.450 Z12.887 F500.000
G1 X43.112 Y2.219 Z12.887 F200.000
G0 Z20.000
G0 X45.653 Y2.518 Z20.000
G0 X45.653 Y2.518 Z18.000
G1 X45.653 Y2.518 Z12.887 F500.000
G1 X63.633 Y20.497 Z12.887 F200.000
G0 Z20.000
G0 X65.341 Y19.964 Z20.000
G0 X65.341 Y19.964 Z18.000
G1 X65.341 Y19.964 Z12.887 F500.000
G1 X48.407 Y3.030 Z12.887 F200.000
G0 Z20.000
G0 X51.492 Y3.874 Z20.000
G0 X51.492 Y3.874 Z18.000
G1 X51.492 Y3.874 Z12.887 F500.000
G1 X67.923 Y20.304 Z12.887 F200.000
G0 Z20.000
G0 X53.426 Y17.015 Z20.000
G0 X53.426 Y17.015 Z18.000
G1 X53.426 Y17.015 Z12.887 F500.000
G1 X44.828 Y8.418 Z12.887 F200.000
G0 Z20.000
G0 X45.011 Y10.842 Z20.000
G0 X45.011 Y10.842 Z18.000
G1 X45.011 Y10.842 Z12.887 F500.000
G1 X49.173 Y15.004 Z12.887 F200.000
G0 Z20.000
G0 X45.994 Y14.066 Z20.000
G0 X45.994 Y14.066 Z18.000
G1 X45.994 Y14.066 Z12.887 F500.000
G1 X44.421 Y12.493 Z12.887 F200.000
G0 Z20.000
G0 X51.571 Y19.643 Z20.000
G0 X51.571 Y19.643 Z18.000
G1 X51.571 Y19.643 Z12.887 F500.000
G1 X51.807 Y19.879 Z12.887 F200.000
G0 Z20.000
G0 X50.745 Y21.059 Z20.000
G0 X50.745 Y21.059 Z18.000
G1 X50.745 Y21.059 Z12.887 F500.000
G1 X50.986 Y21.300 Z12.887 F200.000
G0 Z20.000
G0 X49.924 Y22.480 Z20.000
G0 X49.924 Y22.480 Z18.000
G1 X49.924 Y22.480 Z12.887 F500.000
G1 X50.166 Y22.721 Z12.887 F200.000
G0 Z20.000
G0 X49.104 Y23.901 Z20.000
G0 X49.104 Y23.901 Z18.000
G1 X49.104 Y23.901 Z12.887 F500.000
G1 X49.345 Y24.142 Z12.887 F200.000
G0 Z20.000
G0 X48.283 Y25.322 Z20.000
G0 X48.283 Y25.322 Z18.000
G1 X48.283 Y25.322 Z12.887 F500.000
G1 X48.525 Y25.564 Z12.887 F200.000
G0 Z20.000
G0 X47.463 Y26.743 Z20.000
G0 X47.463 Y26.743 Z18.000
G1 X47.463 Y26.743 Z12.887 F500.000
G1 X47.705 Y26.985 Z12.887 F200.000
G0 Z20.000
G0 X46.643 Y28.164 Z20.000
G0 X46.643 Y28.164 Z18.000
G1 X46.643 Y28.164 Z12.887 F500.000
G1 X46.884 Y28.406 Z12.887 F200.000
G0 Z20.000
G0 X45.822 Y29.585 Z20.000
G0 X45.822 Y29.585 Z18.000
G1 X45.822 Y29.585 Z12.887 F500.000
G1 X46.064 Y29.827 Z12.887 F200.000
G0 Z20.000
G0 X45.002 Y31.006 Z20.000
G0 X45.002 Y31.006 Z18.000
G1 X45.002 Y31.006 Z12.887 F500.000
G1 X45.243 Y31.248 Z12.887 F200.000
G0 Z20.000
G0 X44.181 Y32.427 Z20.000
G0 X44.181 Y32.427 Z18.000
G1 X44.181 Y32.427 Z12.887 F500.000
G1 X44.423 Y32.669 Z12.887 F200.000
G0 Z20.000
G0 X43.179 Y33.667 Z20.000
G0 X43.179 Y33.667 Z18.000
G1 X43.179 Y33.667 Z12.887 F500.000
G1 X43.949 Y34.437 Z12.887 F200.000
G0 Z20.000
G0 X46.653 Y39.383 Z20.000
G0 X46.653 Y39.383 Z18.000
G1 X46.653 Y39.383 Z12.887 F500.000
G1 X47.496 Y40.225 Z12.887 F200.000
G0 Z20.000
G0 X49.347 Y39.835 Z20.000
G0 X49.347 Y39.835 Z18.000
G1 X49.347 Y39.835 Z12.887 F500.000
G1 X49.677 Y40.165 Z12.887 F200.000
G0 Z20.000
G0 X51.589 Y39.835 Z20.000
G0 X51.589 Y39.835 Z18.000
G1 X51.589 Y39.835 Z12.887 F500.000
G1 X51.919 Y40.165 Z12.887 F200.000
G0 Z20.000
G0 X53.830 Y39.835 Z20.000
G0 X53.830 Y39.835 Z18.000
G1 X53.830 Y39.835 Z12.887 F500.000
G1 X54.160 Y40.165 Z12.887 F200.000
G0 Z20.000
G0 X56.072 Y39.835 Z20.000
G0 X56.072 Y39.835 Z18.000
G1 X56.072 Y39.835 Z12.887 F500.000
G1 X56.402 Y40.165 Z12.887 F200.000
G0 Z20.000
G0 X58.313 Y39.835 Z20.000
G0 X58.313 Y39.835 Z18.000
G1 X58.313 Y39.835 Z12.887 F500.000
G1 X58.643 Y40.165 Z12.887 F200.000
G0 Z20.000
G0 X60.555 Y39.835 Z20.000
G0 X60.555 Y39.835 Z18.000
G1 X60.555 Y39.835 Z12.887 F500.000
G1 X60.885 Y40.165 Z12.887 F200.000
G0 Z20.000
G0 X62.796 Y39.835 Z20.000
G0 X62.796 Y39.835 Z18.000
G1 X62.796 Y39.835 Z12.887 F500.000
G1 X63.126 Y40.165 Z12.887 F200.000
G0 Z20.000
G0 X65.103 Y48.867 Z20.000
G0 X65.103 Y48.867 Z18.000
G1 X65.103 Y48.867 Z12.887 F500.000
G1 X66.162 Y49.925 Z12.887 F200.000
G0 Z20.000
G0 X51.803 Y60.223 Z20.000
G0 X51.803 Y60.223 Z18.000
G1 X51.803 Y60.223 Z12.887 F500.000
G1 X51.050 Y59.470 Z12.887 F200.000
G0 Z20.000
G0 X48.890 Y55.068 Z20.000
G0 X48.890 Y55.068 Z18.000
G1 X48.890 Y55.068 Z12.887 F500.000
G1 X47.988 Y54.167 Z12.887 F200.000
G0 Z20.000
G0 X45.828 Y49.765 Z20.000
G0 X45.828 Y49.765 Z18.000
G1 X45.828 Y49.765 Z12.887 F500.000
G1 X44.926 Y48.863 Z12.887 F200.000
G0 Z20.000
G0 X43.933 Y45.628 Z20.000
G0 X43.933 Y45.628 Z18.000
G1 X43.933 Y45.628 Z12.887 F500.000
G1 X43.798 Y45.493 Z12.887 F200.000
G0 Z20.000
G0 X36.222 Y46.884 Z20.000
G0 X36.222 Y46.884 Z18.000
G1 X36.222 Y46.884 Z12.887 F500.000
G1 X35.964 Y46.625 Z12.887 F200.000
G0 Z20.000
G0 X35.156 Y48.059 Z20.000
G0 X35.156 Y48.059 Z18.000
G1 X35.156 Y48.059 Z12.887 F500.000
G1 X35.398 Y48.301 Z12.887 F200.000
G0 Z20.000
G0 X34.336 Y49.480 Z20.000
G0 X34.336 Y49.480 Z18.000
G1 X34.336 Y49.480 Z12.887 F500.000
G1 X34.577 Y49.722 Z12.887 F200.000
G0 Z20.000
G0 X33.515 Y50.901 Z20.000
G0 X33.515 Y50.901 Z18.000
G1 X33.515 Y50.901 Z12.887 F500.000
G1 X33.757 Y51.143 Z12.887 F200.000
G0 Z20.000
G0 X32.695 Y52.322 Z20.000
G0 X32.695 Y52.322 Z18.000
G1 X32.695 Y52.322 Z12.887 F500.000
G1 X32.936 Y52.564 Z12.887 F200.000
G0 Z20.000
G0 X31.874 Y53.743 Z20.000
G0 X31.874 Y53.743 Z18.000
G1 X31.874 Y53.743 Z12.887 F500.000
G1 X32.116 Y53.985 Z12.887 F200.000
G0 Z20.000
G0 X31.054 Y55.164 Z20.000
G0 X31.054 Y55.164 Z18.000
G1 X31.054 Y55.164 Z12.887 F500.000
G1 X31.295 Y55.406 Z12.887 F200.000
G0 Z20.000
G0 X30.233 Y56.586 Z20.000
G0 X30.233 Y56.586 Z18.000
G1 X30.233 Y56.586 Z12.887 F500.000
G1 X30.475 Y56.827 Z12.887 F200.000
G0 Z20.000
G0 X29.413 Y58.007 Z20.000
G0 X29.413 Y58.007 Z18.000
G1 X29.413 Y58.007 Z12.887 F500.000
G1 X29.655 Y58.248 Z12.887 F200.000
G0 Z20.000
G0 X28.592 Y59.428 Z20.000
G0 X28.592 Y59.428 Z18.000
G1 X28.592 Y59.428 Z12.887 F500.000
G1 X28.834 Y59.669 Z12.887 F200.000
G0 Z20.000
G0 X28.845 Y64.163 Z20.000
G0 X28.845 Y64.163 Z18.000
G1 X28.845 Y64.163 Z12.887 F500.000
G1 X34.929 Y70.247 Z12.887 F200.000
G0 Z20.000
G0 X35.217 Y68.294 Z20.000
G0 X35.217 Y68.294 Z18.000
G1 X35.217 Y68.294 Z12.887 F500.000
G1 X32.448 Y65.524 Z12.887 F200.000
G0 Z20.000
G0 X35.383 Y66.219 Z20.000
G0 X35.383 Y66.219 Z18.000
G1 X35.383 Y66.219 Z12.887 F500.000
G1 X36.018 Y66.853 Z12.887 F200.000
G0 Z20.000
G0 X26.758 Y75.525 Z20.000
G0 X26.758 Y75.525 Z18.000
G1 X26.758 Y75.525 Z12.887 F500.000
G1 X4.475 Y53.242 Z12.887 F200.000
G0 Z20.000
G0 X17.966 Y39.835 Z20.000
G0 X17.966 Y39.835 Z18.000
G1 X17.966 Y39.835 Z12.887 F500.000
G1 X18.296 Y40.165 Z12.887 F200.000
G0 Z20.000
G0 X20.207 Y39.835 Z20.000
G0 X20.207 Y39.835 Z18.000
G1 X20.207 Y39.835 Z12.887 F500.000
G1 X20.537 Y40.165 Z12.887 F200.000
G0 Z20.000
G0 X22.449 Y39.835 Z20.000
G0 X22.449 Y39.835 Z18.000
G1 X22.449 Y39.835 Z12.887 F500.000
G1 X22.779 Y40.165 Z12.887 F200.000
G0 Z20.000
G0 X24.690 Y39.835 Z20.000
G0 X24.690 Y39.835 Z18.000
G1 X24.690 Y39.835 Z12.887 F500.000
G1 X25.020 Y40.165 Z12.887 F200.000
G0 Z20.000
G0 X26.932 Y39.835 Z20.000
G0 X26.932 Y39.835 Z18.000
G1 X26.932 Y39.835 Z12.887 F500.000
G1 X27.262 Y40.165 Z12.887 F200.000
G0 Z20.000
G0 X29.173 Y39.835 Z20.000
G0 X29.173 Y39.835 Z18.000
G1 X29.173 Y39.835 Z12.887 F500.000
G1 X29.503 Y40.165 Z12.887 F200.000
G0 Z20.000
G0 X31.415 Y39.835 Z20.000
G0 X31.415 Y39.835 Z18.000
G1 X31.415 Y39.835 Z12.887 F500.000
G1 X31.745 Y40.165 Z12.887 F200.000
G0 Z20.000
G0 X33.195 Y39.373 Z20.000
G0 X33.195 Y39.373 Z18.000
G1 X33.195 Y39.373 Z12.887 F500.000
G1 X33.340 Y39.518 Z12.887 F200.000
G0 Z20.000
G0 X36.882 Y34.094 Z20.000
G0 X36.882 Y34.094 Z18.000
G1 X36.882 Y34.094 Z12.887 F500.000
G1 X35.740 Y32.953 Z12.887 F200.000
G0 Z20.000
G0 X33.580 Y28.551 Z20.000
G0 X33.580 Y28.551 Z18.000
G1 X33.580 Y28.551 Z12.887 F500.000
G1 X32.678 Y27.649 Z12.887 F200.000
G0 Z20.000
G0 X30.518 Y23.247 Z20.000
G0 X30.518 Y23.247 Z18.000
G1 X30.518 Y23.247 Z12.887 F500.000
G1 X29.616 Y22.346 Z12.887 F200.000
G0 Z20.000
G0 X15.192 Y30.336 Z20.000
G0 X15.192 Y30.336 Z18.000
G1 X15.192 Y30.336 Z12.887 F500.000
G1 X14.861 Y30.006 Z12.887 F200.000
G0 Z20.000
G0 X14.613 Y31.999 Z20.000
G0 X14.613 Y31.999 Z18.000
G1 X14.613 Y31.999 Z12.887 F500.000
G1 X12.437 Y29.823 Z12.887 F200.000
G1 X12.437 Y29.823 Z12.358 F500.000
G1 X14.613 Y31.999 Z12.358 F200.000
G0 Z20.000
G0 X15.192 Y30.336 Z20.000
G0 X15.192 Y30.336 Z18.000
G1 X15.192 Y30.336 Z12.358 F500.000
G1 X14.861 Y30.006 Z12.358 F200.000
G0 Z20.000
G0 X14.119 Y33.746 Z20.000
G0 X14.119 Y33.746 Z18.000
G1 X14.119 Y33.746 Z12.358 F500.000
G1 X5.241 Y24.868 Z12.358 F200.000
G0 Z20.000
G0 X5.949 Y23.335 Z20.000
G0 X5.949 Y23.335 Z18.000
G1 X5.949 Y23.335 Z12.358 F500.000
G1 X9.187 Y26.573 Z12.358 F200.000
G0 Z20.000
G0 X9.009 Y24.153 Z20.000
G0 X9.009 Y24.153 Z18.000
G1 X9.009 Y24.153 Z12.358 F500.000
G1 X6.712 Y21.857 Z12.358 F200.000
G0 Z20.000
G0 X7.529 Y20.432 Z20.000
G0 X7.529 Y20.432 Z18.000
G1 X7.529 Y20.432 Z12.358 F500.000
G1 X9.600 Y22.503 Z12.358 F200.000
G0 Z20.000
G0 X10.593 Y21.255 Z20.000
G0 X10.593 Y21.255 Z18.000
G1 X10.593 Y21.255 Z12.358 F500.000
G1 X8.396 Y19.057 Z12.358 F200.000
G0 Z20.000
G0 X9.313 Y17.733 Z20.000
G0 X9.313 Y17.733 Z18.000
G1 X9.313 Y17.733 Z12.358 F500.000
G1 X11.945 Y20.365 Z12.358 F200.000
G0 Z20.000
G0 X13.747 Y19.925 Z20.000
G0 X13.747 Y19.925 Z18.000
G1 X13.747 Y19.925 Z12.358 F500.000
G1 X10.281 Y16.460 Z12.358 F200.000
G0 Z20.000
G0 X11.297 Y15.234 Z20.000
G0 X11.297 Y15.234 Z18.000
G1 X11.297 Y15.234 Z12.358 F500.000
G1 X16.852 Y20.789 Z12.358 F200.000
G0 Z20.000
G0 X18.250 Y22.187 Z20.000
G0 X18.250 Y22.187 Z18.000
G1 X18.250 Y22.187 Z12.358 F500.000
G1 X19.312 Y23.249 Z12.358 F200.000
G0 Z20.000
G0 X20.350 Y22.045 Z20.000
G0 X20.350 Y22.045 Z18.000
G1 X20.350 Y22.045 Z12.358 F500.000
G1 X12.360 Y14.056 Z12.358 F200.000
G0 Z20.000
G0 X13.470 Y12.924 Z20.000
G0 X13.470 Y12.924 Z18.000
G1 X13.470 Y12.924 Z12.358 F500.000
G1 X21.454 Y20.908 Z12.358 F200.000
G0 Z20.000
G0 X22.625 Y19.837 Z20.000
G0 X22.625 Y19.837 Z18.000
G1 X22.625 Y19.837 Z12.358 F500.000
G1 X14.626 Y11.839 Z12.358 F200.000
G0 Z20.000
G0 X15.829 Y10.800 Z20.000
G0 X15.829 Y10.800 Z18.000
G1 X15.829 Y10.800 Z12.358 F500.000
G1 X23.859 Y18.830 Z12.358 F200.000
G0 Z20.000
G0 X25.172 Y17.902 Z20.000
G0 X25.172 Y17.902 Z18.000
G1 X25.172 Y17.902 Z12.358 F500.000
G1 X17.080 Y9.809 Z12.358 F200.000
G0 Z20.000
G0 X18.378 Y8.866 Z20.000
G0 X18.378 Y8.866 Z18.000
G1 X18.378 Y8.866 Z12.358 F500.000
G1 X26.540 Y17.028 Z12.358 F200.000
G0 Z20.000
G0 X27.990 Y16.237 Z20.000
G0 X27.990 Y16.237 Z18.000
G1 X27.990 Y16.237 Z12.358 F500.000
G1 X19.726 Y7.972 Z12.358 F200.000
G0 Z20.000
G0 X21.124 Y7.128 Z20.000
G0 X21.124 Y7.128 Z18.000
G1 X21.124 Y7.128 Z12.358 F500.000
G1 X29.521 Y15.525 Z12.358 F200.000
G0 Z20.000
G0 X31.134 Y14.897 Z20.000
G0 X31.134 Y14.897 Z18.000
G1 X31.134 Y14.897 Z12.358 F500.000
G1 X22.574 Y6.337 Z12.358 F200.000
G0 Z20.000
G0 X24.078 Y5.600 Z20.000
G0 X24.078 Y5.600 Z18.000
G1 X24.078 Y5.600 Z12.358 F500.000
G1 X32.839 Y14.361 Z12.358 F200.000
G0 Z20.000
G0 X34.647 Y13.927 Z20.000
G0 X34.647 Y13.927 Z18.000
G1 X34.647 Y13.927 Z12.358 F500.000
G1 X25.639 Y4.919 Z12.358 F200.000
G0 Z20.000
G0 X27.260 Y4.299 Z20.000
G0 X27.260 Y4.299 Z18.000
G1 X27.260 Y4.299 Z12.358 F500.000
G1 X35.756 Y12.794 Z12.358 F200.000
G0 Z20.000
G0 X34.931 Y9.728 Z20.000
G0 X34.931 Y9.728 Z18.000
G1 X34.931 Y9.728 Z12.358 F500.000
G1 X28.945 Y3.742 Z12.358 F200.000
G0 Z20.000
G0 X30.698 Y3.254 Z20.000
G0 X30.698 Y3.254 Z18.000
G1 X30.698 Y3.254 Z12.358 F500.000
G1 X35.364 Y7.919 Z12.358 F200.000
G0 Z20.000
G0 X36.254 Y6.568 Z20.000
G0 X36.254 Y6.568 Z18.000
G1 X36.254 Y6.568 Z12.358 F500.000
G1 X32.525 Y2.839 Z12.358 F200.000
G0 Z20.000
G0 X34.432 Y2.504 Z20.000
G0 X34.432 Y2.504 Z18.000
G1 X34.432 Y2.504 Z12.358 F500.000
G1 X37.503 Y5.575 Z12.358 F200.000
G0 Z20.000
G0 X39.163 Y4.994 Z20.000
G0 X39.163 Y4.994 Z18.000
G1 X39.163 Y4.994 Z12.358 F500.000
G1 X36.427 Y2.258 Z12.358 F200.000
G0 Z20.000
G0 X38.529 Y2.118 Z20.000
G0 X38.529 Y2.118 Z18.000
G1 X38.529 Y2.118 Z12.358 F500.000
G1 X41.590 Y5.179 Z12.358 F200.000
G0 Z20.000
G0 X40.754 Y2.102 Z20.000
G0 X40.754 Y2.102 Z18.000
G1 X40.754 Y2.102 Z12.358 F500.000
G1 X61.418 Y22.765 Z12.358 F200.000
G0 Z20.000
G0 X62.344 Y21.450 Z20.000
G0 X62.344 Y21.450 Z18.000
G1 X62.344 Y21.450 Z12.358 F500.000
G1 X43.112 Y2.219 Z12.358 F200.000
G0 Z20.000
G0 X45.653 Y2.518 Z20.000
G0 X45.653 Y2.518 Z18.000
G1 X45.653 Y2.518 Z12.358 F500.000
G1 X63.633 Y20.497 Z12.358 F200.000
G0 Z20.000
G0 X65.341 Y19.964 Z20.000
G0 X65.341 Y19.964 Z18.000
G1 X65.341 Y19.964 Z12.358 F500.000
G1 X48.407 Y3.030 Z12.358 F200.000
G0 Z20.000
G0 X51.492 Y3.874 Z20.000
G0 X51.492 Y3.874 Z18.000
G1 X51.492 Y3.874 Z12.358 F500.000
G1 X67.923 Y20.304 Z12.358 F200.000
G0 Z20.000
G0 X70.666 Y23.048 Z20.000
G0 X70.666 Y23.048 Z18.000
G1 X70.666 Y23.048 Z12.358 F500.000
G1 X76.126 Y28.507 Z12.358 F200.000
G0 Z20.000
G0 X76.970 Y31.593 Z20.000
G0 X76.970 Y31.593 Z18.000
G1 X76.970 Y31.593 Z12.358 F500.000
G1 X71.021 Y25.644 Z12.358 F200.000
G0 Z20.000
G0 X70.484 Y27.349 Z20.000
G0 X70.484 Y27.349 Z18.000
G1 X70.484 Y27.349 Z12.358 F500.000
G1 X77.482 Y34.346 Z12.358 F200.000
G0 Z20.000
G0 X77.781 Y36.887 Z20.000
G0 X77.781 Y36.887 Z18.000
G1 X77.781 Y36.887 Z12.358 F500.000
G1 X69.527 Y28.633 Z12.358 F200.000
G0 Z20.000
G0 X68.211 Y29.559 Z20.000
G0 X68.211 Y29.559 Z18.000
G1 X68.211 Y29.559 Z12.358 F500.000
G1 X77.897 Y39.245 Z12.358 F200.000
G0 Z20.000
G0 X77.881 Y41.471 Z20.000
G0 X77.881 Y41.471 Z18.000
G1 X77.881 Y41.471 Z12.358 F500.000
G1 X66.469 Y30.058 Z12.358 F200.000
G0 Z20.000
G0 X64.991 Y30.822 Z20.000
G0 X64.991 Y30.822 Z18.000
G1 X64.991 Y30.822 Z12.358 F500.000
G1 X77.742 Y43.573 Z12.358 F200.000
G0 Z20.000
G0 X77.495 Y45.568 Z20.000
G0 X77.495 Y45.568 Z18.000
G1 X77.495 Y45.568 Z12.358 F500.000
G1 X65.943 Y34.015 Z12.358 F200.000
G0 Z20.000
G0 X66.421 Y36.735 Z20.000
G0 X66.421 Y36.735 Z18.000
G1 X66.421 Y36.735 Z12.358 F500.000
G1 X77.161 Y47.475 Z12.358 F200.000
G0 Z20.000
G0 X76.746 Y49.301 Z20.000
G0 X76.746 Y49.301 Z18.000
G1 X76.746 Y49.301 Z12.358 F500.000
G1 X66.604 Y39.159 Z12.358 F200.000
G0 Z20.000
G0 X66.586 Y41.383 Z20.000
G0 X66.586 Y41.383 Z18.000
G1 X66.586 Y41.383 Z12.358 F500.000
G1 X76.257 Y51.054 Z12.358 F200.000
G0 Z20.000
G0 X75.701 Y52.739 Z20.000
G0 X75.701 Y52.739 Z18.000
G1 X75.701 Y52.739 Z12.358 F500.000
G1 X66.396 Y43.435 Z12.358 F200.000
G0 Z20.000
G0 X66.073 Y45.353 Z20.000
G0 X66.073 Y45.353 Z18.000
G1 X66.073 Y45.353 Z12.358 F500.000
G1 X75.080 Y54.360 Z12.358 F200.000
G0 Z20.000
G0 X74.400 Y55.921 Z20.000
G0 X74.400 Y55.921 Z18.000
G1 X74.400 Y55.921 Z12.358 F500.000
G1 X65.642 Y47.163 Z12.358 F200.000
G0 Z20.000
G0 X65.103 Y48.867 Z20.000
G0 X65.103 Y48.867 Z18.000
G1 X65.103 Y48.867 Z12.358 F500.000
G1 X66.162 Y49.925 Z12.358 F200.000
G0 Z20.000
G0 X71.056 Y54.819 Z20.000
G0 X71.056 Y54.819 Z18.000
G1 X71.056 Y54.819 Z12.358 F500.000
G1 X73.663 Y57.426 Z12.358 F200.000
G0 Z20.000
G0 X72.871 Y58.876 Z20.000
G0 X72.871 Y58.876 Z18.000
G1 X72.871 Y58.876 Z12.358 F500.000
G1 X70.746 Y56.750 Z12.358 F200.000
G0 Z20.000
G0 X69.935 Y58.181 Z20.000
G0 X69.935 Y58.181 Z18.000
G1 X69.935 Y58.181 Z12.358 F500.000
G1 X72.027 Y60.274 Z12.358 F200.000
G0 Z20.000
G0 X71.133 Y61.621 Z20.000
G0 X71.133 Y61.621 Z18.000
G1 X71.133 Y61.621 Z12.358 F500.000
G1 X68.760 Y59.247 Z12.358 F200.000
G0 Z20.000
G0 X67.203 Y59.932 Z20.000
G0 X67.203 Y59.932 Z18.000
G1 X67.203 Y59.932 Z12.358 F500.000
G1 X70.190 Y62.920 Z12.358 F200.000
G0 Z20.000
G0 X69.199 Y64.170 Z20.000
G0 X69.199 Y64.170 Z18.000
G1 X69.199 Y64.170 Z12.358 F500.000
G1 X65.016 Y59.987 Z12.358 F200.000
G0 Z20.000
G0 X60.165 Y57.378 Z20.000
G0 X60.165 Y57.378 Z18.000
G1 X60.165 Y57.378 Z12.358 F500.000
G1 X68.161 Y65.373 Z12.358 F200.000
G0 Z20.000
G0 X67.076 Y66.530 Z20.000
G0 X67.076 Y66.530 Z18.000
G1 X67.076 Y66.530 Z12.358 F500.000
G1 X59.093 Y58.547 Z12.358 F200.000
G0 Z20.000
G0 X57.954 Y59.650 Z20.000
G0 X57.954 Y59.650 Z18.000
G1 X57.954 Y59.650 Z12.358 F500.000
G1 X65.944 Y67.639 Z12.358 F200.000
G0 Z20.000
G0 X64.765 Y68.702 Z20.000
G0 X64.765 Y68.702 Z18.000
G1 X64.765 Y68.702 Z12.358 F500.000
G1 X56.749 Y60.685 Z12.358 F200.000
G0 Z20.000
G0 X55.475 Y61.654 Z20.000
G0 X55.475 Y61.654 Z18.000
G1 X55.475 Y61.654 Z12.358 F500.000
G1 X63.540 Y69.718 Z12.358 F200.000
G0 Z20.000
G0 X62.267 Y70.686 Z20.000
G0 X62.267 Y70.686 Z18.000
G1 X62.267 Y70.686 Z12.358 F500.000
G1 X54.134 Y62.554 Z12.358 F200.000
G0 Z20.000
G0 X52.717 Y63.378 Z20.000
G0 X52.717 Y63.378 Z18.000
G1 X52.717 Y63.378 Z12.358 F500.000
G1 X60.942 Y71.604 Z12.358 F200.000
G0 Z20.000
G0 X59.568 Y72.471 Z20.000
G0 X59.568 Y72.471 Z18.000
G1 X59.568 Y72.471 Z12.358 F500.000
G1 X51.234 Y64.137 Z12.358 F200.000
G0 Z20.000
G0 X49.664 Y64.808 Z20.000
G0 X49.664 Y64.808 Z18.000
G1 X49.664 Y64.808 Z12.358 F500.000
G1 X58.143 Y73.287 Z12.358 F200.000
G0 Z20.000
G0 X56.665 Y74.051 Z20.000
G0 X56.665 Y74.051 Z18.000
G1 X56.665 Y74.051 Z12.358 F500.000
G1 X48.001 Y65.387 Z12.358 F200.000
G0 Z20.000
G0 X46.246 Y65.873 Z20.000
G0 X46.246 Y65.873 Z18.000
G1 X46.246 Y65.873 Z12.358 F500.000
G1 X55.131 Y74.759 Z12.358 F200.000
G0 Z20.000
G0 X53.540 Y75.409 Z20.000
G0 X53.540 Y75.409 Z18.000
G1 X53.540 Y75.409 Z12.358 F500.000
G1 X44.388 Y66.257 Z12.358 F200.000
G0 Z20.000
G0 X45.003 Y69.114 Z20.000
G0 X45.003 Y69.114 Z18.000
G1 X45.003 Y69.114 Z12.358 F500.000
G1 X51.888 Y75.999 Z12.358 F200.000
G0 Z20.000
G0 X50.171 Y76.523 Z20.000
G0 X50.171 Y76.523 Z18.000
G1 X50.171 Y76.523 Z12.358 F500.000
G1 X44.916 Y71.268 Z12.358 F200.000
G0 Z20.000
G0 X44.226 Y72.820 Z20.000
G0 X44.226 Y72.820 Z18.000
G1 X44.226 Y72.820 Z12.358 F500.000
G1 X48.381 Y76.975 Z12.358 F200.000
G0 Z20.000
G0 X46.511 Y77.346 Z20.000
G0 X46.511 Y77.346 Z18.000
G1 X46.511 Y77.346 Z12.358 F500.000
G1 X43.150 Y73.986 Z12.358 F200.000
G0 Z20.000
G0 X41.708 Y74.784 Z20.000
G0 X41.708 Y74.784 Z18.000
G1 X41.708 Y74.784 Z12.358 F500.000
G1 X44.555 Y77.632 Z12.358 F200.000
G0 Z20.000
G0 X42.504 Y77.822 Z20.000
G0 X42.504 Y77.822 Z18.000
G1 X42.504 Y77.822 Z12.358 F500.000
G1 X39.757 Y75.075 Z12.358 F200.000
G0 Z20.000
G0 X40.347 Y77.907 Z20.000
G0 X40.347 Y77.907 Z18.000
G1 X40.347 Y77.907 Z12.358 F500.000
G1 X22.464 Y60.024 Z12.358 F200.000
G0 Z20.000
G0 X19.913 Y57.473 Z20.000
G0 X19.913 Y57.473 Z18.000
G1 X19.913 Y57.473 Z12.358 F500.000
G1 X18.889 Y56.449 Z12.358 F200.000
G0 Z20.000
G0 X18.153 Y57.955 Z20.000
G0 X18.153 Y57.955 Z18.000
G1 X18.153 Y57.955 Z12.358 F500.000
G1 X38.059 Y77.860 Z12.358 F200.000
G0 Z20.000
G0 X35.607 Y77.650 Z20.000
G0 X35.607 Y77.650 Z18.000
G1 X35.607 Y77.650 Z12.358 F500.000
G1 X17.040 Y59.083 Z12.358 F200.000
G0 Z20.000
G0 X15.553 Y59.838 Z20.000
G0 X15.553 Y59.838 Z18.000
G1 X15.553 Y59.838 Z12.358 F500.000
G1 X32.967 Y77.251 Z12.358 F200.000
G0 Z20.000
G0 X30.059 Y76.585 Z20.000
G0 X30.059 Y76.585 Z18.000
G1 X30.059 Y76.585 Z12.358 F500.000
G1 X13.532 Y60.058 Z12.358 F200.000
G0 Z20.000
G0 X10.255 Y63.505 Z20.000
G0 X10.255 Y63.505 Z18.000
G1 X10.255 Y63.505 Z12.358 F500.000
G1 X16.494 Y69.745 Z12.358 F200.000
G0 Z20.000
G0 X22.737 Y73.746 Z20.000
G0 X22.737 Y73.746 Z18.000
G1 X22.737 Y73.746 Z12.358 F500.000
G1 X6.253 Y57.262 Z12.358 F200.000
G0 Z20.000
G0 X8.966 Y55.492 Z20.000
G0 X8.966 Y55.492 Z18.000
G1 X8.966 Y55.492 Z12.358 F500.000
G1 X3.415 Y49.940 Z12.358 F200.000
G0 Z20.000
G0 X2.748 Y47.032 Z20.000
G0 X2.748 Y47.032 Z18.000
G1 X2.748 Y47.032 Z12.358 F500.000
G1 X9.177 Y53.461 Z12.358 F200.000
G0 Z20.000
G0 X9.936 Y51.979 Z20.000
G0 X9.936 Y51.979 Z18.000
G1 X9.936 Y51.979 Z12.358 F500.000
G1 X2.350 Y44.392 Z12.358 F200.000
G0 Z20.000
G0 X2.139 Y41.941 Z20.000
G0 X2.139 Y41.941 Z18.000
G1 X2.139 Y41.941 Z12.358 F500.000
G1 X11.068 Y50.869 Z12.358 F200.000
G0 Z20.000
G0 X12.574 Y50.134 Z20.000
G0 X12.574 Y50.134 Z18.000
G1 X12.574 Y50.134 Z12.358 F500.000
G1 X2.093 Y39.653 Z12.358 F200.000
G0 Z20.000
G0 X2.177 Y37.496 Z20.000
G0 X2.177 Y37.496 Z18.000
G1 X2.177 Y37.496 Z12.358 F500.000
G1 X14.643 Y49.961 Z12.358 F200.000
G0 Z20.000
G0 X14.478 Y47.555 Z20.000
G0 X14.478 Y47.555 Z18.000
G1 X14.478 Y47.555 Z12.358 F500.000
G1 X2.368 Y35.445 Z12.358 F200.000
G0 Z20.000
G0 X2.653 Y33.489 Z20.000
G0 X2.653 Y33.489 Z18.000
G1 X2.653 Y33.489 Z12.358 F500.000
G1 X13.785 Y44.620 Z12.358 F200.000
G0 Z20.000
G0 X13.457 Y42.051 Z20.000
G0 X13.457 Y42.051 Z18.000
G1 X13.457 Y42.051 Z12.358 F500.000
G1 X3.024 Y31.618 Z12.358 F200.000
G0 Z20.000
G0 X3.477 Y29.829 Z20.000
G0 X3.477 Y29.829 Z18.000
G1 X3.477 Y29.829 Z12.358 F500.000
G1 X13.384 Y39.736 Z12.358 F200.000
G0 Z20.000
G0 X13.490 Y37.601 Z20.000
G0 X13.490 Y37.601 Z18.000
G1 X13.490 Y37.601 Z12.358 F500.000
G1 X4.001 Y28.112 Z12.358 F200.000
G0 Z20.000
G0 X4.590 Y26.459 Z20.000
G0 X4.590 Y26.459 Z18.000
G1 X4.590 Y26.459 Z12.358 F500.000
G1 X13.744 Y35.613 Z12.358 F200.000
G0 Z20.000
G0 X17.966 Y39.835 Z20.000
G0 X17.966 Y39.835 Z18.000
G1 X17.966 Y39.835 Z12.358 F500.000
G1 X18.296 Y40.165 Z12.358 F200.000
G0 Z20.000
G0 X20.207 Y39.835 Z20.000
G0 X20.207 Y39.835 Z18.000
G1 X20.207 Y39.835 Z12.358 F500.000
G1 X20.537 Y40.165 Z12.358 F200.000
G0 Z20.000
G0 X22.449 Y39.835 Z20.000
G0 X22.449 Y39.835 Z18.000
G1 X22.449 Y39.835 Z12.358 F500.000
G1 X22.779 Y40.165 Z12.358 F200.000
G0 Z20.000
G0 X24.690 Y39.835 Z20.000
G0 X24.690 Y39.835 Z18.000
G1 X24.690 Y39.835 Z12.358 F500.000
G1 X25.020 Y40.165 Z12.358 F200.000
G0 Z20.000
G0 X26.932 Y39.835 Z20.000
G0 X26.932 Y39.835 Z18.000
G1 X26.932 Y39.835 Z12.358 F500.000
G1 X27.262 Y40.165 Z12.358 F200.000
G0 Z20.000
G0 X29.173 Y39.835 Z20.000
G0 X29.173 Y39.835 Z18.000
G1 X29.173 Y39.835 Z12.358 F500.000
G1 X29.503 Y40.165 Z12.358 F200.000
G0 Z20.000
G0 X31.415 Y39.835 Z20.000
G0 X31.415 Y39.835 Z18.000
G1 X31.415 Y39.835 Z12.358 F500.000
G1 X31.745 Y40.165 Z12.358 F200.000
G0 Z20.000
G0 X33.195 Y39.373 Z20.000
G0 X33.195 Y39.373 Z18.000
G1 X33.195 Y39.373 Z12.358 F500.000
G1 X33.340 Y39.518 Z12.358 F200.000
G0 Z20.000
G0 X36.882 Y34.094 Z20.000
G0 X36.882 Y34.094 Z18.000
G1 X36.882 Y34.094 Z12.358 F500.000
G1 X35.740 Y32.953 Z12.358 F200.000
G0 Z20.000
G0 X33.580 Y28.551 Z20.000
G0 X33.580 Y28.551 Z18.000
G1 X33.580 Y28.551 Z12.358 F500.000
G1 X32.678 Y27.649 Z12.358 F200.000
G0 Z20.000
G0 X30.518 Y23.247 Z20.000
G0 X30.518 Y23.247 Z18.000
G1 X30.518 Y23.247 Z12.358 F500.000
G1 X29.616 Y22.346 Z12.358 F200.000
G0 Z20.000
G0 X45.002 Y31.006 Z20.000
G0 X45.002 Y31.006 Z18.000
G1 X45.002 Y31.006 Z12.358 F500.000
G1 X45.243 Y31.248 Z12.358 F200.000
G0 Z20.000
G0 X44.181 Y32.427 Z20.000
G0 X44.181 Y32.427 Z18.000
G1 X44.181 Y32.427 Z12.358 F500.000
G1 X44.423 Y32.669 Z12.358 F200.000
G0 Z20.000
G0 X43.179 Y33.667 Z20.000
G0 X43.179 Y33.667 Z18.000
G1 X43.179 Y33.667 Z12.358 F500.000
G1 X43.949 Y34.437 Z12.358 F200.000
G0 Z20.000
G0 X46.064 Y29.827 Z20.000
G0 X46.064 Y29.827 Z18.000
G1 X46.064 Y29.827 Z12.358 F500.000
G1 X45.822 Y29.585 Z12.358 F200.000
G0 Z20.000
G0 X46.884 Y28.406 Z20.000
G0 X46.884 Y28.406 Z18.000
G1 X46.884 Y28.406 Z12.358 F500.000
G1 X46.643 Y28.164 Z12.358 F200.000
G0 Z20.000
G0 X47.705 Y26.985 Z20.000
G0 X47.705 Y26.985 Z18.000
G1 X47.705 Y26.985 Z12.358 F500.000
G1 X47.463 Y26.743 Z12.358 F200.000
G0 Z20.000
G0 X48.525 Y25.564 Z20.000
G0 X48.525 Y25.564 Z18.000
G1 X48.525 Y25.564 Z12.358 F500.000
G1 X48.283 Y25.322 Z12.358 F200.000
G0 Z20.000
G0 X49.345 Y24.142 Z20.000
G0 X49.345 Y24.142 Z18.000
G1 X49.345 Y24.142 Z12.358 F500.000
G1 X49.104 Y23.901 Z12.358 F200.000
G0 Z20.000
G0 X50.166 Y22.721 Z20.000
G0 X50.166 Y22.721 Z18.000
G1 X50.166 Y22.721 Z12.358 F500.000
G1 X49.924 Y22.480 Z12.358 F200.000
G0 Z20.000
G0 X50.986 Y21.300 Z20.000
G0 X50.986 Y21.300 Z18.000
G1 X50.986 Y21.300 Z12.358 F500.000
G1 X50.745 Y21.059 Z12.358 F200.000
G0 Z20.000
G0 X51.807 Y19.879 Z20.000
G0 X51.807 Y19.879 Z18.000
G1 X51.807 Y19.879 Z12.358 F500.000
G1 X51.571 Y19.643 Z12.358 F200.000
G0 Z20.000
G0 X53.426 Y17.015 Z20.000
G0 X53.426 Y17.015 Z18.000
G1 X53.426 Y17.015 Z12.358 F500.000
G1 X44.828 Y8.418 Z12.358 F200.000
G0 Z20.000
G0 X45.011 Y10.842 Z20.000
G0 X45.011 Y10.842 Z18.000
G1 X45.011 Y10.842 Z12.358 F500.000
G1 X49.173 Y15.004 Z12.358 F200.000
G0 Z20.000
G0 X45.994 Y14.066 Z20.000
G0 X45.994 Y14.066 Z18.000
G1 X45.994 Y14.066 Z12.358 F500.000
G1 X44.421 Y12.493 Z12.358 F200.000
G0 Z20.000
G0 X55.075 Y5.216 Z20.000
G0 X55.075 Y5.216 Z18.000
G1 X55.075 Y5.216 Z12.358 F500.000
G1 X74.784 Y24.924 Z12.358 F200.000
G0 Z20.000
G0 X72.366 Y20.264 Z20.000
G0 X72.366 Y20.264 Z18.000
G1 X72.366 Y20.264 Z12.358 F500.000
G1 X59.735 Y7.634 Z12.358 F200.000
G0 Z20.000
G0 X60.555 Y39.835 Z20.000
G0 X60.555 Y39.835 Z18.000
G1 X60.555 Y39.835 Z12.358 F500.000
G1 X60.885 Y40.165 Z12.358 F200.000
G0 Z20.000
G0 X62.796 Y39.835 Z20.000
G0 X62.796 Y39.835 Z18.000
G1 X62.796 Y39.835 Z12.358 F500.000
G1 X63.126 Y40.165 Z12.358 F200.000
G0 Z20.000
G0 X58.643 Z20.000
G0 X58.643 Z18.000
G1 X58.643 Y40.165 Z12.358 F500.000
G1 X58.313 Y39.835 Z12.358 F200.000
G0 Z20.000
G0 X56.402 Y40.165 Z20.000
G0 X56.402 Y40.165 Z18.000
G1 X56.402 Y40.165 Z12.358 F500.000
G1 X56.072 Y39.835 Z12.358 F200.000
G0 Z20.000
G0 X54.160 Y40.165 Z20.000
G0 X54.160 Y40.165 Z18.000
G1 X54.160 Y40.165 Z12.358 F500.000
G1 X53.830 Y39.835 Z12.358 F200.000
G0 Z20.000
G0 X51.919 Y40.165 Z20.000
G0 X51.919 Y40.165 Z18.000
G1 X51.919 Y40.165 Z12.358 F500.000
G1 X51.589 Y39.835 Z12.358 F200.000
G0 Z20.000
G0 X49.677 Y40.165 Z20.000
G0 X49.677 Y40.165 Z18.000
G1 X49.677 Y40.165 Z12.358 F500.000
G1 X49.347 Y39.835 Z12.358 F200.000
G0 Z20.000
G0 X47.496 Y40.225 Z20.000
G0 X47.496 Y40.225 Z18.000
G1 X47.496 Y40.225 Z12.358 F500.000
G1 X46.653 Y39.383 Z12.358 F200.000
G0 Z20.000
G0 X43.798 Y45.493 Z20.000
G0 X43.798 Y45.493 Z18.000
G1 X43.798 Y45.493 Z12.358 F500.000
G1 X43.933 Y45.628 Z12.358 F200.000
G0 Z20.000
G0 X44.926 Y48.863 Z20.000
G0 X44.926 Y48.863 Z18.000
G1 X44.926 Y48.863 Z12.358 F500.000
G1 X45.828 Y49.765 Z12.358 F200.000
G0 Z20.000
G0 X47.988 Y54.167 Z20.000
G0 X47.988 Y54.167 Z18.000
G1 X47.988 Y54.167 Z12.358 F500.000
G1 X48.890 Y55.068 Z12.358 F200.000
G0 Z20.000
G0 X51.050 Y59.470 Z20.000
G0 X51.050 Y59.470 Z18.000
G1 X51.050 Y59.470 Z12.358 F500.000
G1 X51.803 Y60.223 Z12.358 F200.000
G0 Z20.000
G0 X36.018 Y66.853 Z20.000
G0 X36.018 Y66.853 Z18.000
G1 X36.018 Y66.853 Z12.358 F500.000
G1 X35.383 Y66.219 Z12.358 F200.000
G0 Z20.000
G0 X35.217 Y68.294 Z20.000
G0 X35.217 Y68.294 Z18.000
G1 X35.217 Y68.294 Z12.358 F500.000
G1 X32.448 Y65.524 Z12.358 F200.000
G0 Z20.000
G0 X28.845 Y64.163 Z20.000
G0 X28.845 Y64.163 Z18.000
G1 X28.845 Y64.163 Z12.358 F500.000
G1 X34.929 Y70.247 Z12.358 F200.000
G0 Z20.000
G0 X26.758 Y75.525 Z20.000
G0 X26.758 Y75.525 Z18.000
G1 X26.758 Y75.525 Z12.358 F500.000
G1 X4.475 Y53.242 Z12.358 F200.000
G0 Z20.000
G0 X28.592 Y59.428 Z20.000
G0 X28.592 Y59.428 Z18.000
G1 X28.592 Y59.428 Z12.358 F500.000
G1 X28.834 Y59.669 Z12.358 F200.000
G0 Z20.000
G0 X29.655 Y58.248 Z20.000
G0 X29.655 Y58.248 Z18.000
G1 X29.655 Y58.248 Z12.358 F500.000
G1 X29.413 Y58.007 Z12.358 F200.000
G0 Z20.000
G0 X30.475 Y56.827 Z20.000
G0 X30.475 Y56.827 Z18.000
G1 X30.475 Y56.827 Z12.358 F500.000
G1 X30.233 Y56.586 Z12.358 F200.000
G0 Z20.000
G0 X31.295 Y55.406 Z20.000
G0 X31.295 Y55.406 Z18.000
G1 X31.295 Y55.406 Z12.358 F500.000
G1 X31.054 Y55.164 Z12.358 F200.000
G0 Z20.000
G0 X32.116 Y53.985 Z20.000
G0 X32.116 Y53.985 Z18.000
G1 X32.116 Y53.985 Z12.358 F500.000
G1 X31.874 Y53.743 Z12.358 F200.000
G0 Z20.000
G0 X32.936 Y52.564 Z20.000
G0 X32.936 Y52.564 Z18.000
G1 X32.936 Y52.564 Z12.358 F500.000
G1 X32.695 Y52.322 Z12.358 F200.000
G0 Z20.000
G0 X33.757 Y51.143 Z20.000
G0 X33.757 Y51.143 Z18.000
G1 X33.757 Y51.143 Z12.358 F500.000
G1 X33.515 Y50.901 Z12.358 F200.000
G0 Z20.000
G0 X34.577 Y49.722 Z20.000
G0 X34.577 Y49.722 Z18.000
G1 X34.577 Y49.722 Z12.358 F500.000
G1 X34.336 Y49.480 Z12.358 F200.000
G0 Z20.000
G0 X35.398 Y48.301 Z20.000
G0 X35.398 Y48.301 Z18.000
G1 X35.398 Y48.301 Z12.358 F500.000
G1 X35.156 Y48.059 Z12.358 F200.000
G0 Z20.000
G0 X36.222 Y46.884 Z20.000
G0 X36.222 Y46.884 Z18.000
G1 X36.222 Y46.884 Z12.358 F500.000
G1 X35.964 Y46.625 Z12.358 F200.000
G1 X35.964 Y46.625 Z11.830 F500.000
G1 X36.222 Y46.884 Z11.830 F200.000
G0 Z20.000
G0 X35.156 Y48.059 Z20.000
G0 X35.156 Y48.059 Z18.000
G1 X35.156 Y48.059 Z11.830 F500.000
G1 X35.398 Y48.301 Z11.830 F200.000
G0 Z20.000
G0 X34.336 Y49.480 Z20.000
G0 X34.336 Y49.480 Z18.000
G1 X34.336 Y49.480 Z11.830 F500.000
