(Exported by FreeCAD)
(Post Processor: grbl_post)
(Output Time:2022-05-22 18:04:42.383126)
(Begin preamble)
G17 G90
G21
(Begin operation: Fixture)
(Path: Fixture)
G54
G0 Z5.000
(Finish operation: Fixture)
(Begin operation: 3.175 Z1 UP Helicoidale002)
(Path: 3.175 Z1 UP Helicoidale002)
(3.175 Z1 UP Helicoidale002)
(Begin toolchange)
( M6 T3.0 )
M3 S24000.0
(Finish operation: 3.175 Z1 UP Helicoidale002)
(Begin operation: Pocket_Shape)
(Path: Pocket_Shape)
(Pocket_Shape)
G0 Z5.000
G0 X-21.635 Y46.817
G0 Z3.000
G1 X-21.635 Y46.817 Z-3.170 F500.000
G1 X-30.733 Y41.563 Z-3.170 F2500.000
G2 X-32.168 Y41.494 Z-3.170 I-0.783 J1.323 K0.000 F2500.000
G2 X-31.344 Y40.065 Z-3.170 I-5.278 J-3.997 K0.000 F2500.000
G2 X-30.568 Y41.278 Z-3.170 I1.543 J-0.132 K0.000 F2500.000
G1 X-21.470 Y46.531 Z-3.170 F2500.000
G1 X-21.635 Y46.817 Z-3.170 F2500.000
G0 Z5.000
G0 X-36.672 Y44.097 Z5.000
G0 X-36.672 Y44.097 Z3.000
G1 X-36.672 Y44.097 Z-3.170 F500.000
G2 X-37.335 Y45.375 Z-3.170 I0.884 J1.270 K0.000 F2500.000
G1 X-37.335 Y55.881 Z-3.170 F2500.000
G1 X-37.665 Y55.881 Z-3.170 F2500.000
G1 X-37.665 Y45.375 Z-3.170 F2500.000
G2 X-38.322 Y44.098 Z-3.170 I-1.537 J-0.017 K0.000 F2500.000
G2 X-36.672 Y44.097 Z-3.170 I0.822 J-6.570 K0.000 F2500.000
G0 Z5.000
G0 X-42.829 Y41.499 Z5.000
G0 X-42.829 Y41.499 Z3.000
G1 X-42.829 Y41.499 Z-3.170 F500.000
G2 X-44.267 Y41.563 Z-3.170 I-0.658 J1.401 K0.000 F2500.000
G1 X-53.365 Y46.817 Z-3.170 F2500.000
G1 X-53.530 Y46.531 Z-3.170 F2500.000
G1 X-44.432 Y41.278 Z-3.170 F2500.000
G2 X-43.654 Y40.070 Z-3.170 I-0.754 J-1.339 K0.000 F2500.000
G2 X-42.829 Y41.499 Z-3.170 I6.101 J-2.573 K0.000 F2500.000
G0 Z5.000
G0 X-43.657 Y34.868 Z5.000
G0 X-43.657 Y34.868 Z3.000
G1 X-43.657 Y34.868 Z-3.170 F500.000
G2 X-44.432 Y33.655 Z-3.170 I-1.542 J0.131 K0.000 F2500.000
G1 X-53.530 Y28.402 Z-3.170 F2500.000
G1 X-53.365 Y28.116 Z-3.170 F2500.000
G1 X-44.267 Y33.369 Z-3.170 F2500.000
G2 X-42.832 Y33.439 Z-3.170 I0.783 J-1.323 K0.000 F2500.000
G2 X-43.657 Y34.868 Z-3.170 I5.279 J3.997 K0.000 F2500.000
G0 Z5.000
G0 X-38.328 Y30.835 Z5.000
G0 X-38.328 Y30.835 Z3.000
G1 X-38.328 Y30.835 Z-3.170 F500.000
G2 X-37.665 Y29.558 Z-3.170 I-0.884 J-1.270 K0.000 F2500.000
G1 X-37.665 Y19.051 Z-3.170 F2500.000
G1 X-37.335 Y19.051 Z-3.170 F2500.000
G1 X-37.335 Y29.558 Z-3.170 F2500.000
G2 X-36.678 Y30.835 Z-3.170 I1.537 J0.017 K0.000 F2500.000
G2 X-38.328 Y30.835 Z-3.170 I-0.822 J6.570 K0.000 F2500.000
G0 Z5.000
G0 X-32.171 Y33.434 Z5.000
G0 X-32.171 Y33.434 Z3.000
G1 X-32.171 Y33.434 Z-3.170 F500.000
G2 X-30.733 Y33.369 Z-3.170 I0.658 J-1.401 K0.000 F2500.000
G1 X-21.635 Y28.116 Z-3.170 F2500.000
G1 X-21.470 Y28.402 Z-3.170 F2500.000
G1 X-30.568 Y33.655 Z-3.170 F2500.000
G2 X-31.346 Y34.862 Z-3.170 I0.754 J1.339 K0.000 F2500.000
G2 X-32.171 Y33.434 Z-3.170 I-6.101 J2.573 K0.000 F2500.000
G1 X-32.171 Y33.434 Z-6.340 F500.000
G2 X-30.733 Y33.369 Z-6.340 I0.658 J-1.401 K0.000 F2500.000
G1 X-21.635 Y28.116 Z-6.340 F2500.000
G1 X-21.470 Y28.402 Z-6.340 F2500.000
G1 X-30.568 Y33.655 Z-6.340 F2500.000
G2 X-31.346 Y34.862 Z-6.340 I0.754 J1.339 K0.000 F2500.000
G2 X-32.171 Y33.434 Z-6.340 I-6.101 J2.573 K0.000 F2500.000
G0 Z5.000
G0 X-36.678 Y30.835 Z5.000
G0 X-36.678 Y30.835 Z3.000
G1 X-36.678 Y30.835 Z-6.340 F500.000
G2 X-38.328 Y30.835 Z-6.340 I-0.822 J6.570 K0.000 F2500.000
G2 X-37.665 Y29.558 Z-6.340 I-0.884 J-1.270 K0.000 F2500.000
G1 X-37.665 Y19.051 Z-6.340 F2500.000
G1 X-37.335 Y19.051 Z-6.340 F2500.000
G1 X-37.335 Y29.558 Z-6.340 F2500.000
G2 X-36.678 Y30.835 Z-6.340 I1.537 J0.017 K0.000 F2500.000
G0 Z5.000
G0 X-42.832 Y33.439 Z5.000
G0 X-42.832 Y33.439 Z3.000
G1 X-42.832 Y33.439 Z-6.340 F500.000
G2 X-43.657 Y34.868 Z-6.340 I5.279 J3.997 K0.000 F2500.000
G2 X-44.432 Y33.655 Z-6.340 I-1.542 J0.131 K0.000 F2500.000
G1 X-53.530 Y28.402 Z-6.340 F2500.000
G1 X-53.365 Y28.116 Z-6.340 F2500.000
G1 X-44.267 Y33.369 Z-6.340 F2500.000
G2 X-42.832 Y33.439 Z-6.340 I0.783 J-1.323 K0.000 F2500.000
G0 Z5.000
G0 X-43.654 Y40.070 Z5.000
G0 X-43.654 Y40.070 Z3.000
G1 X-43.654 Y40.070 Z-6.340 F500.000
G2 X-42.829 Y41.499 Z-6.340 I6.101 J-2.573 K0.000 F2500.000
G2 X-44.267 Y41.563 Z-6.340 I-0.658 J1.401 K0.000 F2500.000
G1 X-53.365 Y46.817 Z-6.340 F2500.000
G1 X-53.530 Y46.531 Z-6.340 F2500.000
G1 X-44.432 Y41.278 Z-6.340 F2500.000
G2 X-43.654 Y40.070 Z-6.340 I-0.754 J-1.339 K0.000 F2500.000
G0 Z5.000
G0 X-38.322 Y44.098 Z5.000
G0 X-38.322 Y44.098 Z3.000
G1 X-38.322 Y44.098 Z-6.340 F500.000
G2 X-36.672 Y44.097 Z-6.340 I0.822 J-6.570 K0.000 F2500.000
G2 X-37.335 Y45.375 Z-6.340 I0.884 J1.270 K0.000 F2500.000
G1 X-37.335 Y55.881 Z-6.340 F2500.000
G1 X-37.665 Y55.881 Z-6.340 F2500.000
G1 X-37.665 Y45.375 Z-6.340 F2500.000
G2 X-38.322 Y44.098 Z-6.340 I-1.537 J-0.017 K0.000 F2500.000
G0 Z5.000
G0 X-32.168 Y41.494 Z5.000
G0 X-32.168 Y41.494 Z3.000
G1 X-32.168 Y41.494 Z-6.340 F500.000
G2 X-31.344 Y40.065 Z-6.340 I-5.278 J-3.997 K0.000 F2500.000
G2 X-30.568 Y41.278 Z-6.340 I1.543 J-0.132 K0.000 F2500.000
G1 X-21.470 Y46.531 Z-6.340 F2500.000
G1 X-21.635 Y46.817 Z-6.340 F2500.000
G1 X-30.733 Y41.563 Z-6.340 F2500.000
G2 X-32.168 Y41.494 Z-6.340 I-0.783 J1.323 K0.000 F2500.000
G1 X-32.168 Y41.494 Z-9.510 F500.000
G2 X-31.344 Y40.065 Z-9.510 I-5.278 J-3.997 K0.000 F2500.000
G2 X-30.568 Y41.278 Z-9.510 I1.543 J-0.132 K0.000 F2500.000
G1 X-21.470 Y46.531 Z-9.510 F2500.000
G1 X-21.635 Y46.817 Z-9.510 F2500.000
G1 X-30.733 Y41.563 Z-9.510 F2500.000
G2 X-32.168 Y41.494 Z-9.510 I-0.783 J1.323 K0.000 F2500.000
G0 Z5.000
G0 X-36.672 Y44.097 Z5.000
G0 X-36.672 Y44.097 Z3.000
G1 X-36.672 Y44.097 Z-9.510 F500.000
G2 X-37.335 Y45.375 Z-9.510 I0.884 J1.270 K0.000 F2500.000
G1 X-37.335 Y55.881 Z-9.510 F2500.000
G1 X-37.665 Y55.881 Z-9.510 F2500.000
G1 X-37.665 Y45.375 Z-9.510 F2500.000
G2 X-38.322 Y44.098 Z-9.510 I-1.537 J-0.017 K0.000 F2500.000
G2 X-36.672 Y44.097 Z-9.510 I0.822 J-6.570 K0.000 F2500.000
G0 Z5.000
G0 X-42.829 Y41.499 Z5.000
G0 X-42.829 Y41.499 Z3.000
G1 X-42.829 Y41.499 Z-9.510 F500.000
G2 X-44.267 Y41.563 Z-9.510 I-0.658 J1.401 K0.000 F2500.000
G1 X-53.365 Y46.817 Z-9.510 F2500.000
G1 X-53.530 Y46.531 Z-9.510 F2500.000
G1 X-44.432 Y41.278 Z-9.510 F2500.000
G2 X-43.654 Y40.070 Z-9.510 I-0.754 J-1.339 K0.000 F2500.000
G2 X-42.829 Y41.499 Z-9.510 I6.101 J-2.573 K0.000 F2500.000
G0 Z5.000
G0 X-43.657 Y34.868 Z5.000
G0 X-43.657 Y34.868 Z3.000
G1 X-43.657 Y34.868 Z-9.510 F500.000
G2 X-44.432 Y33.655 Z-9.510 I-1.542 J0.131 K0.000 F2500.000
G1 X-53.530 Y28.402 Z-9.510 F2500.000
G1 X-53.365 Y28.116 Z-9.510 F2500.000
G1 X-44.267 Y33.369 Z-9.510 F2500.000
G2 X-42.832 Y33.439 Z-9.510 I0.783 J-1.323 K0.000 F2500.000
G2 X-43.657 Y34.868 Z-9.510 I5.279 J3.997 K0.000 F2500.000
G0 Z5.000
G0 X-38.328 Y30.835 Z5.000
G0 X-38.328 Y30.835 Z3.000
G1 X-38.328 Y30.835 Z-9.510 F500.000
G2 X-37.665 Y29.558 Z-9.510 I-0.884 J-1.270 K0.000 F2500.000
G1 X-37.665 Y19.051 Z-9.510 F2500.000
G1 X-37.335 Y19.051 Z-9.510 F2500.000
G1 X-37.335 Y29.558 Z-9.510 F2500.000
G2 X-36.678 Y30.835 Z-9.510 I1.537 J0.017 K0.000 F2500.000
G2 X-38.328 Y30.835 Z-9.510 I-0.822 J6.570 K0.000 F2500.000
G0 Z5.000
G0 X-32.171 Y33.434 Z5.000
G0 X-32.171 Y33.434 Z3.000
G1 X-32.171 Y33.434 Z-9.510 F500.000
G2 X-30.733 Y33.369 Z-9.510 I0.658 J-1.401 K0.000 F2500.000
G1 X-21.635 Y28.116 Z-9.510 F2500.000
G1 X-21.470 Y28.402 Z-9.510 F2500.000
G1 X-30.568 Y33.655 Z-9.510 F2500.000
G2 X-31.346 Y34.862 Z-9.510 I0.754 J1.339 K0.000 F2500.000
G2 X-32.171 Y33.434 Z-9.510 I-6.101 J2.573 K0.000 F2500.000
G1 X-32.171 Y33.434 Z-10.000 F500.000
G2 X-30.733 Y33.369 Z-10.000 I0.658 J-1.401 K0.000 F2500.000
G1 X-21.635 Y28.116 Z-10.000 F2500.000
G1 X-21.470 Y28.402 Z-10.000 F2500.000
G1 X-30.568 Y33.655 Z-10.000 F2500.000
G2 X-31.346 Y34.862 Z-10.000 I0.754 J1.339 K0.000 F2500.000
G2 X-32.171 Y33.434 Z-10.000 I-6.101 J2.573 K0.000 F2500.000
G0 Z5.000
G0 X-36.678 Y30.835 Z5.000
G0 X-36.678 Y30.835 Z3.000
G1 X-36.678 Y30.835 Z-10.000 F500.000
G2 X-38.328 Y30.835 Z-10.000 I-0.822 J6.570 K0.000 F2500.000
G2 X-37.665 Y29.558 Z-10.000 I-0.884 J-1.270 K0.000 F2500.000
G1 X-37.665 Y19.051 Z-10.000 F2500.000
G1 X-37.335 Y19.051 Z-10.000 F2500.000
G1 X-37.335 Y29.558 Z-10.000 F2500.000
G2 X-36.678 Y30.835 Z-10.000 I1.537 J0.017 K0.000 F2500.000
G0 Z5.000
G0 X-42.832 Y33.439 Z5.000
G0 X-42.832 Y33.439 Z3.000
G1 X-42.832 Y33.439 Z-10.000 F500.000
G2 X-43.657 Y34.868 Z-10.000 I5.279 J3.997 K0.000 F2500.000
G2 X-44.432 Y33.655 Z-10.000 I-1.542 J0.131 K0.000 F2500.000
G1 X-53.530 Y28.402 Z-10.000 F2500.000
G1 X-53.365 Y28.116 Z-10.000 F2500.000
G1 X-44.267 Y33.369 Z-10.000 F2500.000
G2 X-42.832 Y33.439 Z-10.000 I0.783 J-1.323 K0.000 F2500.000
G0 Z5.000
G0 X-43.654 Y40.070 Z5.000
G0 X-43.654 Y40.070 Z3.000
G1 X-43.654 Y40.070 Z-10.000 F500.000
G2 X-42.829 Y41.499 Z-10.000 I6.101 J-2.573 K0.000 F2500.000
G2 X-44.267 Y41.563 Z-10.000 I-0.658 J1.401 K0.000 F2500.000
G1 X-53.365 Y46.817 Z-10.000 F2500.000
G1 X-53.530 Y46.531 Z-10.000 F2500.000
G1 X-44.432 Y41.278 Z-10.000 F2500.000
G2 X-43.654 Y40.070 Z-10.000 I-0.754 J-1.339 K0.000 F2500.000
G0 Z5.000
G0 X-38.322 Y44.098 Z5.000
G0 X-38.322 Y44.098 Z3.000
G1 X-38.322 Y44.098 Z-10.000 F500.000
G2 X-36.672 Y44.097 Z-10.000 I0.822 J-6.570 K0.000 F2500.000
G2 X-37.335 Y45.375 Z-10.000 I0.884 J1.270 K0.000 F2500.000
G1 X-37.335 Y55.881 Z-10.000 F2500.000
G1 X-37.665 Y55.881 Z-10.000 F2500.000
G1 X-37.665 Y45.375 Z-10.000 F2500.000
G2 X-38.322 Y44.098 Z-10.000 I-1.537 J-0.017 K0.000 F2500.000
G0 Z5.000
G0 X-32.168 Y41.494 Z5.000
G0 X-32.168 Y41.494 Z3.000
G1 X-32.168 Y41.494 Z-10.000 F500.000
G2 X-31.344 Y40.065 Z-10.000 I-5.278 J-3.997 K0.000 F2500.000
G2 X-30.568 Y41.278 Z-10.000 I1.543 J-0.132 K0.000 F2500.000
G1 X-21.470 Y46.531 Z-10.000 F2500.000
G1 X-21.635 Y46.817 Z-10.000 F2500.000
G1 X-30.733 Y41.563 Z-10.000 F2500.000
G2 X-32.168 Y41.494 Z-10.000 I-0.783 J1.323 K0.000 F2500.000
G0 Z5.000
G0 Z5.000
(Finish operation: Pocket_Shape)
(Begin postamble)
M5
G17 G90
M2
