(Exported by FreeCAD)
(Post Processor: grbl_post)
(Output Time:2022-05-22 18:03:47.241638)
(Begin preamble)
G17 G90
G21
(Begin operation: Fixture)
(Path: Fixture)
G54
(Finish operation: Fixture)
(Begin operation: 6 Z1 UP Alu Q012)
(Path: 6 Z1 UP Alu Q012)
(6 Z1 UP Alu Q012)
(Begin toolchange)
( M6 T4.0 )
M3 S0.0
(Finish operation: 6 Z1 UP Alu Q012)
(Begin operation: Profile001)
(Path: Profile001)
(Profile001)
(Compensated Tool Path. Diameter: 6.0)
G0 Z5.000
G0 X-8.863 Y66.104
G0 Z3.000
G1 X-8.863 Y66.104 Z-2.000
G2 X-34.695 Y-2.936 Z-2.000 I-28.637 J-28.637 K0.000
G2 X-40.332 Y77.866 Z-2.000 I-2.805 J40.402 K0.000
G2 X-8.863 Y66.104 Z-2.000 I2.832 J-40.400 K0.000
G1 X-8.863 Y66.104 Z-4.000
G2 X-34.695 Y-2.936 Z-4.000 I-28.637 J-28.637 K0.000
G2 X-40.332 Y77.866 Z-4.000 I-2.805 J40.402 K0.000
G2 X-8.863 Y66.104 Z-4.000 I2.832 J-40.400 K0.000
G1 X-8.863 Y66.104 Z-6.000
G2 X-34.695 Y-2.936 Z-6.000 I-28.637 J-28.637 K0.000
G2 X-40.332 Y77.866 Z-6.000 I-2.805 J40.402 K0.000
G2 X-8.863 Y66.104 Z-6.000 I2.832 J-40.400 K0.000
G1 X-8.863 Y66.104 Z-8.000
G2 X-34.695 Y-2.936 Z-8.000 I-28.637 J-28.637 K0.000
G2 X-40.332 Y77.866 Z-8.000 I-2.805 J40.402 K0.000
G2 X-8.863 Y66.104 Z-8.000 I2.832 J-40.400 K0.000
G1 X-8.863 Y66.104 Z-10.000
G2 X-34.695 Y-2.936 Z-10.000 I-28.637 J-28.637 K0.000
G2 X-40.332 Y77.866 Z-10.000 I-2.805 J40.402 K0.000
G2 X-8.863 Y66.104 Z-10.000 I2.832 J-40.400 K0.000
G1 X-8.863 Y66.104 Z-12.000
G2 X-34.695 Y-2.936 Z-12.000 I-28.637 J-28.637 K0.000
G2 X-40.332 Y77.866 Z-12.000 I-2.805 J40.402 K0.000
G2 X-8.863 Y66.104 Z-12.000 I2.832 J-40.400 K0.000
G1 X-8.863 Y66.104 Z-14.000
G2 X-34.695 Y-2.936 Z-14.000 I-28.637 J-28.637 K0.000
G2 X-40.332 Y77.866 Z-14.000 I-2.805 J40.402 K0.000
G2 X-8.863 Y66.104 Z-14.000 I2.832 J-40.400 K0.000
G1 X-8.863 Y66.104 Z-15.000
G2 X-34.695 Y-2.936 Z-15.000 I-28.637 J-28.637 K0.000
G2 X-40.332 Y77.866 Z-15.000 I-2.805 J40.402 K0.000
G2 X-8.863 Y66.104 Z-15.000 I2.832 J-40.400 K0.000
G0 Z5.000
G0 Z5.000
(Finish operation: Profile001)
(Begin postamble)
M5
G17 G90
M2
