(Exported by FreeCAD)
(Post Processor: grbl_post)
(Output Time:2021-12-22 11:48:33.069831)
(Begin preamble)
G17 G90
G21
(Begin operation: Fixture)
(Path: Fixture)
G54
G0 Z5.000
(Finish operation: Fixture)
(Begin operation: 3.175 Z1 UP Helicoidale002)
(Path: 3.175 Z1 UP Helicoidale002)
(3.175 Z1 UP Helicoidale002)
(Begin toolchange)
( M6 T3.0 )
M3 S24000.0
(Finish operation: 3.175 Z1 UP Helicoidale002)
(Begin operation: Pocket_Shape)
(Path: Pocket_Shape)
(Pocket_Shape)
G0 Z5.000
G0 X15.866 Y9.350
G0 Z3.000
G1 X15.866 Y9.350 Z-3.170 F500.000
G1 X6.767 Y4.097 Z-3.170 F2500.000
G2 X5.332 Y4.028 Z-3.170 I-0.783 J1.323 K0.000 F2500.000
G2 X6.157 Y2.599 Z-3.170 I-5.278 J-3.997 K0.000 F2500.000
G2 X6.932 Y3.811 Z-3.170 I1.543 J-0.132 K0.000 F2500.000
G1 X16.031 Y9.065 Z-3.170 F2500.000
G1 X15.866 Y9.350 Z-3.170 F2500.000
G0 Z5.000
G0 X0.828 Y6.631 Z5.000
G0 X0.828 Y6.631 Z3.000
G1 X0.828 Y6.631 Z-3.170 F500.000
G2 X0.165 Y7.909 Z-3.170 I0.884 J1.270 K0.000 F2500.000
G1 X0.165 Y18.415 Z-3.170 F2500.000
G1 X-0.165 Y18.415 Z-3.170 F2500.000
G1 X-0.165 Y7.909 Z-3.170 F2500.000
G2 X-0.822 Y6.632 Z-3.170 I-1.537 J-0.017 K0.000 F2500.000
G2 X0.828 Y6.631 Z-3.170 I0.822 J-6.570 K0.000 F2500.000
G0 Z5.000
G0 X-5.328 Y4.033 Z5.000
G0 X-5.328 Y4.033 Z3.000
G1 X-5.328 Y4.033 Z-3.170 F500.000
G2 X-6.766 Y4.097 Z-3.170 I-0.658 J1.401 K0.000 F2500.000
G1 X-15.865 Y9.350 Z-3.170 F2500.000
G1 X-16.030 Y9.065 Z-3.170 F2500.000
G1 X-6.931 Y3.811 Z-3.170 F2500.000
G2 X-6.154 Y2.604 Z-3.170 I-0.754 J-1.339 K0.000 F2500.000
G2 X-5.328 Y4.033 Z-3.170 I6.101 J-2.573 K0.000 F2500.000
G0 Z5.000
G0 X-6.156 Y-2.598 Z5.000
G0 X-6.156 Y-2.598 Z3.000
G1 X-6.156 Y-2.598 Z-3.170 F500.000
G2 X-6.931 Y-3.811 Z-3.170 I-1.542 J0.131 K0.000 F2500.000
G1 X-16.030 Y-9.065 Z-3.170 F2500.000
G1 X-15.865 Y-9.350 Z-3.170 F2500.000
G1 X-6.766 Y-4.097 Z-3.170 F2500.000
G2 X-5.332 Y-4.028 Z-3.170 I0.783 J-1.323 K0.000 F2500.000
G2 X-6.156 Y-2.598 Z-3.170 I5.279 J3.997 K0.000 F2500.000
G0 Z5.000
G0 X-0.828 Y-6.631 Z5.000
G0 X-0.828 Y-6.631 Z3.000
G1 X-0.828 Y-6.631 Z-3.170 F500.000
G2 X-0.165 Y-7.909 Z-3.170 I-0.884 J-1.270 K0.000 F2500.000
G1 X-0.165 Y-18.415 Z-3.170 F2500.000
G1 X0.165 Y-18.415 Z-3.170 F2500.000
G1 X0.165 Y-7.909 Z-3.170 F2500.000
G2 X0.822 Y-6.632 Z-3.170 I1.537 J0.017 K0.000 F2500.000
G2 X-0.828 Y-6.631 Z-3.170 I-0.822 J6.570 K0.000 F2500.000
G0 Z5.000
G0 X5.329 Y-4.033 Z5.000
G0 X5.329 Y-4.033 Z3.000
G1 X5.329 Y-4.033 Z-3.170 F500.000
G2 X6.767 Y-4.097 Z-3.170 I0.658 J-1.401 K0.000 F2500.000
G1 X15.866 Y-9.350 Z-3.170 F2500.000
G1 X16.031 Y-9.065 Z-3.170 F2500.000
G1 X6.932 Y-3.811 Z-3.170 F2500.000
G2 X6.154 Y-2.604 Z-3.170 I0.754 J1.339 K0.000 F2500.000
G2 X5.329 Y-4.033 Z-3.170 I-6.101 J2.573 K0.000 F2500.000
G1 X5.329 Y-4.033 Z-6.340 F500.000
G2 X6.767 Y-4.097 Z-6.340 I0.658 J-1.401 K0.000 F2500.000
G1 X15.866 Y-9.350 Z-6.340 F2500.000
G1 X16.031 Y-9.065 Z-6.340 F2500.000
G1 X6.932 Y-3.811 Z-6.340 F2500.000
G2 X6.154 Y-2.604 Z-6.340 I0.754 J1.339 K0.000 F2500.000
G2 X5.329 Y-4.033 Z-6.340 I-6.101 J2.573 K0.000 F2500.000
G0 Z5.000
G0 X0.822 Y-6.632 Z5.000
G0 X0.822 Y-6.632 Z3.000
G1 X0.822 Y-6.632 Z-6.340 F500.000
G2 X-0.828 Y-6.631 Z-6.340 I-0.822 J6.570 K0.000 F2500.000
G2 X-0.165 Y-7.909 Z-6.340 I-0.884 J-1.270 K0.000 F2500.000
G1 X-0.165 Y-18.415 Z-6.340 F2500.000
G1 X0.165 Y-18.415 Z-6.340 F2500.000
G1 X0.165 Y-7.909 Z-6.340 F2500.000
G2 X0.822 Y-6.632 Z-6.340 I1.537 J0.017 K0.000 F2500.000
G0 Z5.000
G0 X-5.332 Y-4.028 Z5.000
G0 X-5.332 Y-4.028 Z3.000
G1 X-5.332 Y-4.028 Z-6.340 F500.000
G2 X-6.156 Y-2.598 Z-6.340 I5.279 J3.997 K0.000 F2500.000
G2 X-6.931 Y-3.811 Z-6.340 I-1.542 J0.131 K0.000 F2500.000
G1 X-16.030 Y-9.065 Z-6.340 F2500.000
G1 X-15.865 Y-9.350 Z-6.340 F2500.000
G1 X-6.766 Y-4.097 Z-6.340 F2500.000
G2 X-5.332 Y-4.028 Z-6.340 I0.783 J-1.323 K0.000 F2500.000
G0 Z5.000
G0 X-6.154 Y2.604 Z5.000
G0 X-6.154 Y2.604 Z3.000
G1 X-6.154 Y2.604 Z-6.340 F500.000
G2 X-5.328 Y4.033 Z-6.340 I6.101 J-2.573 K0.000 F2500.000
G2 X-6.766 Y4.097 Z-6.340 I-0.658 J1.401 K0.000 F2500.000
G1 X-15.865 Y9.350 Z-6.340 F2500.000
G1 X-16.030 Y9.065 Z-6.340 F2500.000
G1 X-6.931 Y3.811 Z-6.340 F2500.000
G2 X-6.154 Y2.604 Z-6.340 I-0.754 J-1.339 K0.000 F2500.000
G0 Z5.000
G0 X-0.822 Y6.632 Z5.000
G0 X-0.822 Y6.632 Z3.000
G1 X-0.822 Y6.632 Z-6.340 F500.000
G2 X0.828 Y6.631 Z-6.340 I0.822 J-6.570 K0.000 F2500.000
G2 X0.165 Y7.909 Z-6.340 I0.884 J1.270 K0.000 F2500.000
G1 X0.165 Y18.415 Z-6.340 F2500.000
G1 X-0.165 Y18.415 Z-6.340 F2500.000
G1 X-0.165 Y7.909 Z-6.340 F2500.000
G2 X-0.822 Y6.632 Z-6.340 I-1.537 J-0.017 K0.000 F2500.000
G0 Z5.000
G0 X5.332 Y4.028 Z5.000
G0 X5.332 Y4.028 Z3.000
G1 X5.332 Y4.028 Z-6.340 F500.000
G2 X6.157 Y2.599 Z-6.340 I-5.278 J-3.997 K0.000 F2500.000
G2 X6.932 Y3.811 Z-6.340 I1.543 J-0.132 K0.000 F2500.000
G1 X16.031 Y9.065 Z-6.340 F2500.000
G1 X15.866 Y9.350 Z-6.340 F2500.000
G1 X6.767 Y4.097 Z-6.340 F2500.000
G2 X5.332 Y4.028 Z-6.340 I-0.783 J1.323 K0.000 F2500.000
G1 X5.332 Y4.028 Z-9.510 F500.000
G2 X6.157 Y2.599 Z-9.510 I-5.278 J-3.997 K0.000 F2500.000
G2 X6.932 Y3.811 Z-9.510 I1.543 J-0.132 K0.000 F2500.000
G1 X16.031 Y9.065 Z-9.510 F2500.000
G1 X15.866 Y9.350 Z-9.510 F2500.000
G1 X6.767 Y4.097 Z-9.510 F2500.000
G2 X5.332 Y4.028 Z-9.510 I-0.783 J1.323 K0.000 F2500.000
G0 Z5.000
G0 X0.828 Y6.631 Z5.000
G0 X0.828 Y6.631 Z3.000
G1 X0.828 Y6.631 Z-9.510 F500.000
G2 X0.165 Y7.909 Z-9.510 I0.884 J1.270 K0.000 F2500.000
G1 X0.165 Y18.415 Z-9.510 F2500.000
G1 X-0.165 Y18.415 Z-9.510 F2500.000
G1 X-0.165 Y7.909 Z-9.510 F2500.000
G2 X-0.822 Y6.632 Z-9.510 I-1.537 J-0.017 K0.000 F2500.000
G2 X0.828 Y6.631 Z-9.510 I0.822 J-6.570 K0.000 F2500.000
G0 Z5.000
G0 X-5.328 Y4.033 Z5.000
G0 X-5.328 Y4.033 Z3.000
G1 X-5.328 Y4.033 Z-9.510 F500.000
G2 X-6.766 Y4.097 Z-9.510 I-0.658 J1.401 K0.000 F2500.000
G1 X-15.865 Y9.350 Z-9.510 F2500.000
G1 X-16.030 Y9.065 Z-9.510 F2500.000
G1 X-6.931 Y3.811 Z-9.510 F2500.000
G2 X-6.154 Y2.604 Z-9.510 I-0.754 J-1.339 K0.000 F2500.000
G2 X-5.328 Y4.033 Z-9.510 I6.101 J-2.573 K0.000 F2500.000
G0 Z5.000
G0 X-6.156 Y-2.598 Z5.000
G0 X-6.156 Y-2.598 Z3.000
G1 X-6.156 Y-2.598 Z-9.510 F500.000
G2 X-6.931 Y-3.811 Z-9.510 I-1.542 J0.131 K0.000 F2500.000
G1 X-16.030 Y-9.065 Z-9.510 F2500.000
G1 X-15.865 Y-9.350 Z-9.510 F2500.000
G1 X-6.766 Y-4.097 Z-9.510 F2500.000
G2 X-5.332 Y-4.028 Z-9.510 I0.783 J-1.323 K0.000 F2500.000
G2 X-6.156 Y-2.598 Z-9.510 I5.279 J3.997 K0.000 F2500.000
G0 Z5.000
G0 X-0.828 Y-6.631 Z5.000
G0 X-0.828 Y-6.631 Z3.000
G1 X-0.828 Y-6.631 Z-9.510 F500.000
G2 X-0.165 Y-7.909 Z-9.510 I-0.884 J-1.270 K0.000 F2500.000
G1 X-0.165 Y-18.415 Z-9.510 F2500.000
G1 X0.165 Y-18.415 Z-9.510 F2500.000
G1 X0.165 Y-7.909 Z-9.510 F2500.000
G2 X0.822 Y-6.632 Z-9.510 I1.537 J0.017 K0.000 F2500.000
G2 X-0.828 Y-6.631 Z-9.510 I-0.822 J6.570 K0.000 F2500.000
G0 Z5.000
G0 X5.329 Y-4.033 Z5.000
G0 X5.329 Y-4.033 Z3.000
G1 X5.329 Y-4.033 Z-9.510 F500.000
G2 X6.767 Y-4.097 Z-9.510 I0.658 J-1.401 K0.000 F2500.000
G1 X15.866 Y-9.350 Z-9.510 F2500.000
G1 X16.031 Y-9.065 Z-9.510 F2500.000
G1 X6.932 Y-3.811 Z-9.510 F2500.000
G2 X6.154 Y-2.604 Z-9.510 I0.754 J1.339 K0.000 F2500.000
G2 X5.329 Y-4.033 Z-9.510 I-6.101 J2.573 K0.000 F2500.000
G1 X5.329 Y-4.033 Z-10.000 F500.000
G2 X6.767 Y-4.097 Z-10.000 I0.658 J-1.401 K0.000 F2500.000
G1 X15.866 Y-9.350 Z-10.000 F2500.000
G1 X16.031 Y-9.065 Z-10.000 F2500.000
G1 X6.932 Y-3.811 Z-10.000 F2500.000
G2 X6.154 Y-2.604 Z-10.000 I0.754 J1.339 K0.000 F2500.000
G2 X5.329 Y-4.033 Z-10.000 I-6.101 J2.573 K0.000 F2500.000
G0 Z5.000
G0 X0.822 Y-6.632 Z5.000
G0 X0.822 Y-6.632 Z3.000
G1 X0.822 Y-6.632 Z-10.000 F500.000
G2 X-0.828 Y-6.631 Z-10.000 I-0.822 J6.570 K0.000 F2500.000
G2 X-0.165 Y-7.909 Z-10.000 I-0.884 J-1.270 K0.000 F2500.000
G1 X-0.165 Y-18.415 Z-10.000 F2500.000
G1 X0.165 Y-18.415 Z-10.000 F2500.000
G1 X0.165 Y-7.909 Z-10.000 F2500.000
G2 X0.822 Y-6.632 Z-10.000 I1.537 J0.017 K0.000 F2500.000
G0 Z5.000
G0 X-5.332 Y-4.028 Z5.000
G0 X-5.332 Y-4.028 Z3.000
G1 X-5.332 Y-4.028 Z-10.000 F500.000
G2 X-6.156 Y-2.598 Z-10.000 I5.279 J3.997 K0.000 F2500.000
G2 X-6.931 Y-3.811 Z-10.000 I-1.542 J0.131 K0.000 F2500.000
G1 X-16.030 Y-9.065 Z-10.000 F2500.000
G1 X-15.865 Y-9.350 Z-10.000 F2500.000
G1 X-6.766 Y-4.097 Z-10.000 F2500.000
G2 X-5.332 Y-4.028 Z-10.000 I0.783 J-1.323 K0.000 F2500.000
G0 Z5.000
G0 X-6.154 Y2.604 Z5.000
G0 X-6.154 Y2.604 Z3.000
G1 X-6.154 Y2.604 Z-10.000 F500.000
G2 X-5.328 Y4.033 Z-10.000 I6.101 J-2.573 K0.000 F2500.000
G2 X-6.766 Y4.097 Z-10.000 I-0.658 J1.401 K0.000 F2500.000
G1 X-15.865 Y9.350 Z-10.000 F2500.000
G1 X-16.030 Y9.065 Z-10.000 F2500.000
G1 X-6.931 Y3.811 Z-10.000 F2500.000
G2 X-6.154 Y2.604 Z-10.000 I-0.754 J-1.339 K0.000 F2500.000
G0 Z5.000
G0 X-0.822 Y6.632 Z5.000
G0 X-0.822 Y6.632 Z3.000
G1 X-0.822 Y6.632 Z-10.000 F500.000
G2 X0.828 Y6.631 Z-10.000 I0.822 J-6.570 K0.000 F2500.000
G2 X0.165 Y7.909 Z-10.000 I0.884 J1.270 K0.000 F2500.000
G1 X0.165 Y18.415 Z-10.000 F2500.000
G1 X-0.165 Y18.415 Z-10.000 F2500.000
G1 X-0.165 Y7.909 Z-10.000 F2500.000
G2 X-0.822 Y6.632 Z-10.000 I-1.537 J-0.017 K0.000 F2500.000
G0 Z5.000
G0 X5.332 Y4.028 Z5.000
G0 X5.332 Y4.028 Z3.000
G1 X5.332 Y4.028 Z-10.000 F500.000
G2 X6.157 Y2.599 Z-10.000 I-5.278 J-3.997 K0.000 F2500.000
G2 X6.932 Y3.811 Z-10.000 I1.543 J-0.132 K0.000 F2500.000
G1 X16.031 Y9.065 Z-10.000 F2500.000
G1 X15.866 Y9.350 Z-10.000 F2500.000
G1 X6.767 Y4.097 Z-10.000 F2500.000
G2 X5.332 Y4.028 Z-10.000 I-0.783 J1.323 K0.000 F2500.000
G0 Z5.000
G0 Z5.000
(Finish operation: Pocket_Shape)
(Begin postamble)
M5
G17 G90
M2
