(Exported by FreeCAD)
(Post Processor: grbl_post)
(Output Time:2021-12-22 11:47:05.200792)
(Begin preamble)
G17 G90
G21
(Begin operation: Fixture)
(Path: Fixture)
G54
(Finish operation: Fixture)
(Begin operation: TC: 6.35 Z2 Q6.036)
(Path: TC: 6.35 Z2 Q6.036)
(TC: 6.35 Z2 Q6.036)
(Begin toolchange)
( M6 T7.0 )
M3 S24000.0
(Finish operation: TC: 6.35 Z2 Q6.036)
(Begin operation: Profile001)
(Path: Profile001)
(Profile001)
(Compensated Tool Path. Diameter: 6.35)
G0 Z5.000
G0 X28.761 Y28.761
G0 Z3.000
G1 X28.761 Y28.761 Z-6.350 F500.000
G2 X2.821 Y-40.576 Z-6.350 I-28.761 J-28.761 K0.000 F2500.000
G2 X-40.576 Y-2.820 Z-6.350 I-2.820 J40.576 K0.000 F2500.000
G2 X-2.820 Y40.576 Z-6.350 I40.576 J2.820 K0.000 F2500.000
G2 X28.761 Y28.761 Z-6.350 I2.820 J-40.576 K0.000 F2500.000
G1 X28.761 Y28.761 Z-12.700 F500.000
G2 X2.821 Y-40.576 Z-12.700 I-28.761 J-28.761 K0.000 F2500.000
G2 X-40.576 Y-2.820 Z-12.700 I-2.820 J40.576 K0.000 F2500.000
G2 X-2.820 Y40.576 Z-12.700 I40.576 J2.820 K0.000 F2500.000
G2 X28.761 Y28.761 Z-12.700 I2.820 J-40.576 K0.000 F2500.000
G1 X28.761 Y28.761 Z-15.000 F500.000
G2 X2.821 Y-40.576 Z-15.000 I-28.761 J-28.761 K0.000 F2500.000
G2 X-40.576 Y-2.820 Z-15.000 I-2.820 J40.576 K0.000 F2500.000
G2 X-2.820 Y40.576 Z-15.000 I40.576 J2.820 K0.000 F2500.000
G2 X28.761 Y28.761 Z-15.000 I2.820 J-40.576 K0.000 F2500.000
G0 Z5.000
G0 Z5.000
(Finish operation: Profile001)
(Begin postamble)
M5
G17 G90
M2
