(Exported by FreeCAD)
(Post Processor: grbl_post)
(Output Time:2022-05-22 18:04:20.569090)
(Begin preamble)
G17 G90
G21
(Begin operation: Fixture)
(Path: Fixture)
G54
G0 Z5.000
(Finish operation: Fixture)
(Begin operation: 6 Z1 UP Alu Q012)
(Path: 6 Z1 UP Alu Q012)
(6 Z1 UP Alu Q012)
(Begin toolchange)
( M6 T4.0 )
M3 S0.0
(Finish operation: 6 Z1 UP Alu Q012)
(Begin operation: Helix009)
(Path: Helix009)
(Helix009)
(helix cut operation)
G0 Z5.000
G0 X-11.019 Y22.466
G0 Z3.000
G1 Z0.000
G2 X-12.019 Y22.466 Z-2.500 I-0.500 J0.000
G2 X-11.019 Y22.466 Z-5.000 I0.500 J0.000
G2 X-12.019 Y22.466 Z-7.500 I-0.500 J0.000
G2 X-11.019 Y22.466 Z-10.000 I0.500 J0.000
G2 X-12.019 Y22.466 Z-12.500 I-0.500 J0.000
G2 X-11.019 Y22.466 Z-15.000 I0.500 J0.000
G2 X-12.019 Y22.466 Z-15.000 I-0.500 J0.000
G2 X-11.019 Y22.466 Z-15.000 I0.500 J0.000
G0 Z3.000
G0 X-11.019 Y52.466
G0 Z3.000
G1 Z0.000
G2 X-12.019 Y52.466 Z-2.500 I-0.500 J0.000
G2 X-11.019 Y52.466 Z-5.000 I0.500 J0.000
G2 X-12.019 Y52.466 Z-7.500 I-0.500 J0.000
G2 X-11.019 Y52.466 Z-10.000 I0.500 J0.000
G2 X-12.019 Y52.466 Z-12.500 I-0.500 J0.000
G2 X-11.019 Y52.466 Z-15.000 I0.500 J0.000
G2 X-12.019 Y52.466 Z-15.000 I-0.500 J0.000
G2 X-11.019 Y52.466 Z-15.000 I0.500 J0.000
G0 Z3.000
G0 X-37.000 Y67.466
G0 Z3.000
G1 Z0.000
G2 X-38.000 Y67.466 Z-2.500 I-0.500 J0.000
G2 X-37.000 Y67.466 Z-5.000 I0.500 J0.000
G2 X-38.000 Y67.466 Z-7.500 I-0.500 J0.000
G2 X-37.000 Y67.466 Z-10.000 I0.500 J0.000
G2 X-38.000 Y67.466 Z-12.500 I-0.500 J0.000
G2 X-37.000 Y67.466 Z-15.000 I0.500 J0.000
G2 X-38.000 Y67.466 Z-15.000 I-0.500 J0.000
G2 X-37.000 Y67.466 Z-15.000 I0.500 J0.000
G0 Z3.000
G0 X-35.400 Y37.466
G0 Z3.000
G1 Z0.000
G2 X-39.600 Y37.466 Z-2.500 I-2.100 J0.000
G2 X-35.400 Y37.466 Z-5.000 I2.100 J0.000
G2 X-39.600 Y37.466 Z-7.500 I-2.100 J0.000
G2 X-35.400 Y37.466 Z-10.000 I2.100 J0.000
G2 X-39.600 Y37.466 Z-12.500 I-2.100 J0.000
G2 X-35.400 Y37.466 Z-15.000 I2.100 J0.000
G2 X-39.600 Y37.466 Z-15.000 I-2.100 J0.000
G2 X-35.400 Y37.466 Z-15.000 I2.100 J0.000
G0 Z3.000
G0 X-37.000 Y7.466
G0 Z3.000
G1 Z0.000
G2 X-38.000 Y7.466 Z-2.500 I-0.500 J0.000
G2 X-37.000 Y7.466 Z-5.000 I0.500 J0.000
G2 X-38.000 Y7.466 Z-7.500 I-0.500 J0.000
G2 X-37.000 Y7.466 Z-10.000 I0.500 J0.000
G2 X-38.000 Y7.466 Z-12.500 I-0.500 J0.000
G2 X-37.000 Y7.466 Z-15.000 I0.500 J0.000
G2 X-38.000 Y7.466 Z-15.000 I-0.500 J0.000
G2 X-37.000 Y7.466 Z-15.000 I0.500 J0.000
G0 Z3.000
G0 X-62.981 Y22.466
G0 Z3.000
G1 Z0.000
G2 X-63.981 Y22.466 Z-2.500 I-0.500 J0.000
G2 X-62.981 Y22.466 Z-5.000 I0.500 J0.000
G2 X-63.981 Y22.466 Z-7.500 I-0.500 J0.000
G2 X-62.981 Y22.466 Z-10.000 I0.500 J0.000
G2 X-63.981 Y22.466 Z-12.500 I-0.500 J0.000
G2 X-62.981 Y22.466 Z-15.000 I0.500 J0.000
G2 X-63.981 Y22.466 Z-15.000 I-0.500 J0.000
G2 X-62.981 Y22.466 Z-15.000 I0.500 J0.000
G0 Z3.000
G0 X-62.981 Y52.466
G0 Z3.000
G1 Z0.000
G2 X-63.981 Y52.466 Z-2.500 I-0.500 J0.000
G2 X-62.981 Y52.466 Z-5.000 I0.500 J0.000
G2 X-63.981 Y52.466 Z-7.500 I-0.500 J0.000
G2 X-62.981 Y52.466 Z-10.000 I0.500 J0.000
G2 X-63.981 Y52.466 Z-12.500 I-0.500 J0.000
G2 X-62.981 Y52.466 Z-15.000 I0.500 J0.000
G2 X-63.981 Y52.466 Z-15.000 I-0.500 J0.000
G2 X-62.981 Y52.466 Z-15.000 I0.500 J0.000
G0 Z3.000
G0 Z5.000
(Finish operation: Helix009)
(Begin postamble)
M5
G17 G90
M2
