(Exported by FreeCAD)
(Post Processor: grbl_post)
(Output Time:2021-12-22 11:48:02.939701)
(Begin preamble)
G17 G90
G21
(Begin operation: Fixture)
(Path: Fixture)
G54
G0 Z5.000
(Finish operation: Fixture)
(Begin operation: TC: 6.35 Z2 Q6.036)
(Path: TC: 6.35 Z2 Q6.036)
(TC: 6.35 Z2 Q6.036)
(Begin toolchange)
( M6 T7.0 )
M3 S24000.0
(Finish operation: TC: 6.35 Z2 Q6.036)
(Begin operation: MillFace001)
(Path: MillFace001)
(MillFace001)
G0 Z5.000
G0 X3.326 Y3.628
G0 Z3.000
G1 X3.326 Y3.628 Z-6.350 F500.000
G3 X4.561 Y2.633 Z-6.350 I2.925 J2.368 K0.000 F2500.000
G3 X4.658 Y1.616 Z-6.350 I2.342 J-0.291 K0.000 F2500.000
G2 X4.805 Y-1.067 Z-6.350 I-4.761 J-1.607 K0.000 F2500.000
G3 X4.561 Y-2.633 Z-6.350 I3.513 J-1.350 K0.000 F2500.000
G3 X3.728 Y-3.226 Z-6.350 I0.919 J-2.174 K0.000 F2500.000
G2 X1.479 Y-4.695 Z-6.350 I-3.772 J3.320 K0.000 F2500.000
G3 X0.000 Y-5.267 Z-6.350 I0.588 J-3.717 K0.000 F2500.000
G3 X-0.929 Y-4.842 Z-6.350 I-1.423 J-1.883 K0.000 F2500.000
G2 X-3.326 Y-3.628 Z-6.350 I0.989 J4.926 K0.000 F2500.000
G3 X-4.561 Y-2.633 Z-6.350 I-2.925 J-2.368 K0.000 F2500.000
G3 X-4.657 Y-1.616 Z-6.350 I-2.342 J0.291 K0.000 F2500.000
G2 X-4.805 Y1.067 Z-6.350 I4.761 J1.607 K0.000 F2500.000
G3 X-4.561 Y2.633 Z-6.350 I-3.513 J1.350 K0.000 F2500.000
G3 X-3.728 Y3.226 Z-6.350 I-0.919 J2.174 K0.000 F2500.000
G2 X-1.479 Y4.695 Z-6.350 I3.772 J-3.320 K0.000 F2500.000
G3 X0.000 Y5.267 Z-6.350 I-0.588 J3.717 K0.000 F2500.000
G3 X0.929 Y4.842 Z-6.350 I1.423 J1.883 K0.000 F2500.000
G2 X3.326 Y3.628 Z-6.350 I-0.989 J-4.926 K0.000 F2500.000
G0 Z5.000
G0 X1.234 Y1.250 Z5.000
G0 X1.234 Y1.250 Z3.000
G1 X1.234 Y1.250 Z-6.350 F500.000
G2 X1.524 Y0.941 Z-6.350 I-1.447 J-1.645 K0.000 F2500.000
G2 X1.591 Y-0.793 Z-6.350 I-1.936 J-0.944 K0.000 F2500.000
G2 X1.524 Y-0.941 Z-6.350 I-0.300 J0.048 K0.000 F2500.000
G2 X-0.025 Y-1.798 Z-6.350 I-1.769 J1.368 K0.000 F2500.000
G1 X-0.929 Y-4.842 Z-6.350 F2500.000
G1 X-0.025 Y-1.798 Z-6.350 F2500.000
G2 X-1.523 Y-0.941 Z-6.350 I0.296 J2.256 K0.000 F2500.000
G2 X-1.576 Y0.849 Z-6.350 I1.972 J0.954 K0.000 F2500.000
G2 X-0.053 Y1.790 Z-6.350 I1.813 J-1.231 K0.000 F2500.000
G2 X1.234 Y1.250 Z-6.350 I-0.160 J-2.185 K0.000 F2500.000
G1 X1.234 Y1.250 Z-10.000 F500.000
G2 X1.524 Y0.941 Z-10.000 I-1.447 J-1.645 K0.000 F2500.000
G2 X1.591 Y-0.793 Z-10.000 I-1.936 J-0.944 K0.000 F2500.000
G2 X1.524 Y-0.941 Z-10.000 I-0.300 J0.048 K0.000 F2500.000
G2 X-0.025 Y-1.798 Z-10.000 I-1.769 J1.368 K0.000 F2500.000
G1 X-0.929 Y-4.842 Z-10.000 F2500.000
G1 X-0.025 Y-1.798 Z-10.000 F2500.000
G2 X-1.523 Y-0.941 Z-10.000 I0.296 J2.256 K0.000 F2500.000
G2 X-1.576 Y0.849 Z-10.000 I1.972 J0.954 K0.000 F2500.000
G2 X-0.053 Y1.790 Z-10.000 I1.813 J-1.231 K0.000 F2500.000
G2 X1.234 Y1.250 Z-10.000 I-0.160 J-2.185 K0.000 F2500.000
G0 Z5.000
G0 X3.518 Y3.409 Z5.000
G0 X3.518 Y3.409 Z3.000
G1 X3.518 Y3.409 Z-10.000 F500.000
G3 X4.561 Y2.633 Z-10.000 I2.734 J2.586 K0.000 F2500.000
G3 X4.658 Y1.616 Z-10.000 I2.342 J-0.291 K0.000 F2500.000
G2 X4.805 Y-1.067 Z-10.000 I-4.761 J-1.607 K0.000 F2500.000
G3 X4.561 Y-2.633 Z-10.000 I3.513 J-1.350 K0.000 F2500.000
G3 X3.728 Y-3.226 Z-10.000 I0.919 J-2.174 K0.000 F2500.000
G2 X1.479 Y-4.695 Z-10.000 I-3.772 J3.320 K0.000 F2500.000
G3 X0.000 Y-5.267 Z-10.000 I0.588 J-3.717 K0.000 F2500.000
G3 X-0.929 Y-4.842 Z-10.000 I-1.423 J-1.883 K0.000 F2500.000
G2 X-3.326 Y-3.628 Z-10.000 I0.989 J4.926 K0.000 F2500.000
G3 X-4.561 Y-2.633 Z-10.000 I-2.925 J-2.368 K0.000 F2500.000
G3 X-4.657 Y-1.616 Z-10.000 I-2.342 J0.291 K0.000 F2500.000
G2 X-4.805 Y1.067 Z-10.000 I4.761 J1.607 K0.000 F2500.000
G3 X-4.561 Y2.633 Z-10.000 I-3.513 J1.350 K0.000 F2500.000
G3 X-3.728 Y3.226 Z-10.000 I-0.919 J2.174 K0.000 F2500.000
G2 X-1.479 Y4.695 Z-10.000 I3.772 J-3.320 K0.000 F2500.000
G3 X0.000 Y5.267 Z-10.000 I-0.588 J3.717 K0.000 F2500.000
G3 X0.929 Y4.842 Z-10.000 I1.423 J1.883 K0.000 F2500.000
G2 X3.326 Y3.628 Z-10.000 I-0.989 J-4.926 K0.000 F2500.000
G3 X3.518 Y3.409 Z-10.000 I2.925 J2.368 K0.000 F2500.000
G0 Z5.000
G0 Z5.000
(Finish operation: MillFace001)
(Begin postamble)
M5
G17 G90
M2
