(Exported by FreeCAD)
(Post Processor: grbl_post)
(Output Time:2021-12-22 11:47:24.419765)
(Begin preamble)
G17 G90
G21
(Begin operation: Fixture)
(Path: Fixture)
G54
G0 Z5.000
(Finish operation: Fixture)
(Begin operation: TC: 6.35 Z2 Q6.036)
(Path: TC: 6.35 Z2 Q6.036)
(TC: 6.35 Z2 Q6.036)
(Begin toolchange)
( M6 T7.0 )
M3 S24000.0
(Finish operation: TC: 6.35 Z2 Q6.036)
(Begin operation: Surface001)
(Path: Surface001)
(Surface001)
(Surface001)
(Tool type: endmill)
(Compensated Tool Path. Diameter: 6.35)
(Sample interval: 1.0)
(Step over %: 81.0)
()
G0 Z5.000
(Beginning of Multi-pass layers.)
(Layer 0 begins)
(Begin step 0.)
G0 X-18.924 Y-36.004
(part 1)
G1 X-18.924 Y-36.004 Z-3.175 F2500.000
G1 X18.924 Y-36.004 Z-3.175 F2500.000
(End of step 0.)
G0 Z3.000
G0 X-26.496 Y-30.861
(Begin step 1.)
G0 X-26.496 Y-30.861
(part 1)
G1 X-26.496 Y-30.861 Z-3.175 F2500.000
G1 X26.496 Y-30.861 Z-3.175 F2500.000
(End of step 1.)
G0 Z3.000
G0 X-31.514 Y-25.717
(Begin step 2.)
G0 X-31.514 Y-25.717
(part 1)
G1 X-31.514 Y-25.717 Z-3.175 F2500.000
G1 X31.515 Y-25.717 Z-3.175 F2500.000
(End of step 2.)
G0 Z3.000
G0 X-35.089 Y-20.574
(Begin step 3.)
G0 X-35.089 Y-20.574
(part 1)
G1 X-35.089 Y-20.574 Z-3.175 F2500.000
G1 X35.090 Y-20.574 Z-3.175 F2500.000
(End of step 3.)
G0 Z3.000
G0 X-37.637 Y-15.430
(Begin step 4.)
G0 X-37.637 Y-15.430
(part 1)
G1 X-37.637 Y-15.430 Z-3.175 F2500.000
G1 X37.637 Y-15.430 Z-3.175 F2500.000
(End of step 4.)
G0 Z3.000
G0 X-39.354 Y-10.287
(Begin step 5.)
G0 X-39.354 Y-10.287
(part 1)
G1 X-39.354 Y-10.287 Z-3.175 F2500.000
G1 X-11.457 Y-10.287 Z-3.175 F2500.000
G1 X-10.461 Y-10.287 Z-2.676 F2500.000
G1 X-9.465 Y-10.287 Z-1.653 F2500.000
G1 X-8.468 Y-10.287 Z-0.199 F2500.000
G1 X-7.472 Y-10.287 Z0.000 F2500.000
G1 X7.472 Y-10.287 Z0.000 F2500.000
G1 X8.469 Y-10.287 Z-0.199 F2500.000
G1 X9.465 Y-10.287 Z-1.653 F2500.000
G1 X10.461 Y-10.287 Z-2.677 F2500.000
G1 X11.458 Y-10.287 Z-3.175 F2500.000
G1 X39.354 Y-10.287 Z-3.175 F2500.000
(End of step 5.)
G0 Z3.000
G0 X-40.348 Y-5.143
(Begin step 6.)
G0 X-40.348 Y-5.143
(part 1)
G1 X-40.348 Y-5.143 Z-3.175 F2500.000
G1 X-14.445 Y-5.143 Z-3.175 F2500.000
G1 X-13.449 Y-5.143 Z-2.293 F2500.000
G1 X-12.453 Y-5.143 Z-0.856 F2500.000
G1 X-11.457 Y-5.143 Z0.000 F2500.000
G1 X11.457 Y-5.143 Z0.000 F2500.000
G1 X12.453 Y-5.143 Z-0.856 F2500.000
G1 X13.450 Y-5.143 Z-2.293 F2500.000
G1 X14.446 Y-5.143 Z-3.175 F2500.000
G1 X40.348 Y-5.143 Z-3.175 F2500.000
(End of step 6.)
G0 Z3.000
G0 X-40.677 Y0.000
(Begin step 7.)
G0 X-40.677 Y0.000
(part 1)
G1 X-40.677 Y0.000 Z-3.175 F2500.000
G1 X-15.874 Y0.000 Z-3.175 F2500.000
G1 X-14.882 Y0.000 Z-2.959 F2500.000
G1 X-13.890 Y0.000 Z-1.511 F2500.000
G1 X-12.897 Y0.000 Z0.000 F2500.000
G1 X-4.960 Y0.000 Z0.000 F2500.000
G1 X-3.968 Y0.000 Z-3.175 F2500.000
G1 X3.969 Y0.000 Z-3.175 F2500.000
G1 X4.961 Y0.000 Z0.000 F2500.000
G1 X12.898 Y0.000 Z0.000 F2500.000
G1 X13.890 Y0.000 Z-1.511 F2500.000
G1 X14.882 Y0.000 Z-2.959 F2500.000
G1 X15.874 Y0.000 Z-3.175 F2500.000
G1 X40.677 Y0.000 Z-3.175 F2500.000
(End of step 7.)
G0 Z3.000
G0 X-40.348 Y5.144
(Begin step 8.)
G0 X-40.348 Y5.144
(part 1)
G1 X-40.348 Y5.144 Z-3.175 F2500.000
G1 X-14.445 Y5.144 Z-3.175 F2500.000
G1 X-13.449 Y5.144 Z-2.293 F2500.000
G1 X-12.453 Y5.144 Z-0.856 F2500.000
G1 X-11.457 Y5.144 Z0.000 F2500.000
G1 X11.457 Y5.144 Z0.000 F2500.000
G1 X12.453 Y5.144 Z-0.856 F2500.000
G1 X13.450 Y5.144 Z-2.293 F2500.000
G1 X14.446 Y5.144 Z-3.175 F2500.000
G1 X40.348 Y5.144 Z-3.175 F2500.000
(End of step 8.)
G0 Z3.000
G0 X-39.354 Y10.287
(Begin step 9.)
G0 X-39.354 Y10.287
(part 1)
G1 X-39.354 Y10.287 Z-3.175 F2500.000
G1 X-11.457 Y10.287 Z-3.175 F2500.000
G1 X-10.461 Y10.287 Z-2.677 F2500.000
G1 X-9.465 Y10.287 Z-1.653 F2500.000
G1 X-8.468 Y10.287 Z-0.199 F2500.000
G1 X-7.472 Y10.287 Z0.000 F2500.000
G1 X7.472 Y10.287 Z0.000 F2500.000
G1 X8.469 Y10.287 Z-0.199 F2500.000
G1 X9.465 Y10.287 Z-1.653 F2500.000
G1 X10.461 Y10.287 Z-2.676 F2500.000
G1 X11.458 Y10.287 Z-3.175 F2500.000
G1 X39.354 Y10.287 Z-3.175 F2500.000
(End of step 9.)
G0 Z3.000
G0 X-37.637 Y15.431
(Begin step 10.)
G0 X-37.637 Y15.431
(part 1)
G1 X-37.637 Y15.431 Z-3.175 F2500.000
G1 X37.637 Y15.431 Z-3.175 F2500.000
(End of step 10.)
G0 Z3.000
G0 X-35.089 Y20.574
(Begin step 11.)
G0 X-35.089 Y20.574
(part 1)
G1 X-35.089 Y20.574 Z-3.175 F2500.000
G1 X35.090 Y20.574 Z-3.175 F2500.000
(End of step 11.)
G0 Z3.000
G0 X-31.514 Y25.718
(Begin step 12.)
G0 X-31.514 Y25.718
(part 1)
G1 X-31.514 Y25.718 Z-3.175 F2500.000
G1 X31.515 Y25.718 Z-3.175 F2500.000
(End of step 12.)
G0 Z3.000
G0 X-26.496 Y30.861
(Begin step 13.)
G0 X-26.496 Y30.861
(part 1)
G1 X-26.496 Y30.861 Z-3.175 F2500.000
G1 X26.496 Y30.861 Z-3.175 F2500.000
(End of step 13.)
G0 Z3.000
G0 X-18.924 Y36.005
(Begin step 14.)
G0 X-18.924 Y36.005
(part 1)
G1 X-18.924 Y36.005 Z-3.175 F2500.000
G1 X18.924 Y36.005 Z-3.175 F2500.000
(End of step 14.)
(End of layer 0)
(Layer 1 begins)
(Layer transition)
G0 Z3.000
G0 X-18.924 Y-36.004
(Begin step 0.)
G0 X-18.924 Y-36.004
(part 1)
G1 X-18.924 Y-36.004 Z-6.350 F2500.000
G1 X18.924 Y-36.004 Z-6.350 F2500.000
(End of step 0.)
G0 Z3.000
G0 X-26.496 Y-30.861
(Begin step 1.)
G0 X-26.496 Y-30.861
(part 1)
G1 X-26.496 Y-30.861 Z-6.350 F2500.000
G1 X26.496 Y-30.861 Z-6.350 F2500.000
(End of step 1.)
G0 Z3.000
G0 X-31.514 Y-25.717
(Begin step 2.)
G0 X-31.514 Y-25.717
(part 1)
G1 X-31.514 Y-25.717 Z-6.350 F2500.000
G1 X31.515 Y-25.717 Z-6.350 F2500.000
(End of step 2.)
G0 Z3.000
G0 X-35.089 Y-20.574
(Begin step 3.)
G0 X-35.089 Y-20.574
(part 1)
G1 X-35.089 Y-20.574 Z-6.350 F2500.000
G1 X35.090 Y-20.574 Z-6.350 F2500.000
(End of step 3.)
G0 Z3.000
G0 X-37.637 Y-15.430
(Begin step 4.)
G0 X-37.637 Y-15.430
(part 1)
G1 X-37.637 Y-15.430 Z-6.350 F2500.000
G1 X-9.904 Y-15.430 Z-6.350 F2500.000
G1 X-8.914 Y-15.430 Z-6.000 F2500.000
G1 X-7.923 Y-15.430 Z-5.599 F2500.000
G1 X-6.933 Y-15.430 Z-5.211 F2500.000
G1 X-5.942 Y-15.430 Z-4.845 F2500.000
G1 X-4.952 Y-15.430 Z-4.509 F2500.000
G1 X-3.962 Y-15.430 Z-4.217 F2500.000
G1 X-2.971 Y-15.430 Z-3.975 F2500.000
G1 X-1.981 Y-15.430 Z-3.802 F2500.000
G1 X-0.990 Y-15.430 Z-3.898 F2500.000
G1 X0.000 Y-15.430 Z-4.372 F2500.000
G1 X0.991 Y-15.430 Z-3.898 F2500.000
G1 X1.981 Y-15.430 Z-3.802 F2500.000
G1 X2.972 Y-15.430 Z-3.975 F2500.000
G1 X3.962 Y-15.430 Z-4.217 F2500.000
G1 X4.952 Y-15.430 Z-4.510 F2500.000
G1 X5.943 Y-15.430 Z-4.845 F2500.000
G1 X6.933 Y-15.430 Z-5.211 F2500.000
G1 X7.924 Y-15.430 Z-5.599 F2500.000
G1 X8.914 Y-15.430 Z-6.000 F2500.000
G1 X9.905 Y-15.430 Z-6.350 F2500.000
G1 X37.637 Y-15.430 Z-6.350 F2500.000
(End of step 4.)
G0 Z3.000
G0 X-39.354 Y-10.287
(Begin step 5.)
G0 X-39.354 Y-10.287
(part 1)
G1 X-39.354 Y-10.287 Z-6.350 F2500.000
G1 X-15.442 Y-10.287 Z-6.350 F2500.000
G1 X-14.446 Y-10.287 Z-5.951 F2500.000
G1 X-13.450 Y-10.287 Z-5.227 F2500.000
G1 X-12.454 Y-10.287 Z-4.455 F2500.000
G1 X-11.457 Y-10.287 Z-3.606 F2500.000
G1 X-10.461 Y-10.287 Z-2.676 F2500.000
G1 X-9.465 Y-10.287 Z-1.653 F2500.000
G1 X-8.468 Y-10.287 Z-0.199 F2500.000
G1 X-7.472 Y-10.287 Z0.000 F2500.000
G1 X7.472 Y-10.287 Z0.000 F2500.000
G1 X8.469 Y-10.287 Z-0.199 F2500.000
G1 X9.465 Y-10.287 Z-1.653 F2500.000
G1 X10.461 Y-10.287 Z-2.677 F2500.000
G1 X11.458 Y-10.287 Z-3.607 F2500.000
G1 X12.454 Y-10.287 Z-4.455 F2500.000
G1 X13.450 Y-10.287 Z-5.227 F2500.000
G1 X14.447 Y-10.287 Z-5.951 F2500.000
G1 X15.443 Y-10.287 Z-6.350 F2500.000
G1 X39.354 Y-10.287 Z-6.350 F2500.000
(End of step 5.)
G0 Z3.000
G0 X-40.348 Y-5.143
(Begin step 6.)
G0 X-40.348 Y-5.143
(part 1)
G1 X-40.348 Y-5.143 Z-6.350 F2500.000
G1 X-18.431 Y-5.143 Z-6.350 F2500.000
G1 X-17.434 Y-5.143 Z-6.284 F2500.000
G1 X-16.438 Y-5.143 Z-5.493 F2500.000
G1 X-15.442 Y-5.143 Z-4.582 F2500.000
G1 X-14.445 Y-5.143 Z-3.530 F2500.000
G1 X-13.449 Y-5.143 Z-2.293 F2500.000
G1 X-12.453 Y-5.143 Z-0.856 F2500.000
G1 X-11.457 Y-5.143 Z0.000 F2500.000
G1 X11.457 Y-5.143 Z0.000 F2500.000
G1 X12.453 Y-5.143 Z-0.856 F2500.000
G1 X13.450 Y-5.143 Z-2.293 F2500.000
G1 X14.446 Y-5.143 Z-3.530 F2500.000
G1 X15.442 Y-5.143 Z-4.582 F2500.000
G1 X16.438 Y-5.143 Z-5.492 F2500.000
G1 X17.435 Y-5.143 Z-6.284 F2500.000
G1 X18.431 Y-5.143 Z-6.350 F2500.000
G1 X40.348 Y-5.143 Z-6.350 F2500.000
(End of step 6.)
G0 Z3.000
G0 X-40.677 Y0.000
(Begin step 7.)
G0 X-40.677 Y0.000
(part 1)
G1 X-40.677 Y0.000 Z-6.350 F2500.000
G1 X-18.850 Y0.000 Z-6.350 F2500.000
G1 X-17.858 Y0.000 Z-6.031 F2500.000
G1 X-16.866 Y0.000 Z-5.164 F2500.000
G1 X-15.874 Y0.000 Z-4.153 F2500.000
G1 X-14.882 Y0.000 Z-2.959 F2500.000
G1 X-13.890 Y0.000 Z-1.511 F2500.000
G1 X-12.897 Y0.000 Z0.000 F2500.000
G1 X-4.960 Y0.000 Z0.000 F2500.000
G1 X-3.968 Y0.000 Z-6.350 F2500.000
G1 X3.969 Y0.000 Z-6.350 F2500.000
G1 X4.961 Y0.000 Z0.000 F2500.000
G1 X12.898 Y0.000 Z0.000 F2500.000
G1 X13.890 Y0.000 Z-1.511 F2500.000
G1 X14.882 Y0.000 Z-2.959 F2500.000
G1 X15.874 Y0.000 Z-4.153 F2500.000
G1 X16.866 Y0.000 Z-5.164 F2500.000
G1 X17.858 Y0.000 Z-6.031 F2500.000
G1 X18.851 Y0.000 Z-6.350 F2500.000
G1 X40.677 Y0.000 Z-6.350 F2500.000
(End of step 7.)
G0 Z3.000
G0 X-40.348 Y5.144
(Begin step 8.)
G0 X-40.348 Y5.144
(part 1)
G1 X-40.348 Y5.144 Z-6.350 F2500.000
G1 X-18.431 Y5.144 Z-6.350 F2500.000
G1 X-17.434 Y5.144 Z-6.284 F2500.000
G1 X-16.438 Y5.144 Z-5.493 F2500.000
G1 X-15.442 Y5.144 Z-4.583 F2500.000
G1 X-14.445 Y5.144 Z-3.530 F2500.000
G1 X-13.449 Y5.144 Z-2.293 F2500.000
G1 X-12.453 Y5.144 Z-0.856 F2500.000
G1 X-11.457 Y5.144 Z0.000 F2500.000
G1 X11.457 Y5.144 Z0.000 F2500.000
G1 X12.453 Y5.144 Z-0.856 F2500.000
G1 X13.450 Y5.144 Z-2.293 F2500.000
G1 X14.446 Y5.144 Z-3.531 F2500.000
G1 X15.442 Y5.144 Z-4.582 F2500.000
G1 X16.438 Y5.144 Z-5.492 F2500.000
G1 X17.435 Y5.144 Z-6.284 F2500.000
G1 X18.431 Y5.144 Z-6.350 F2500.000
G1 X40.348 Y5.144 Z-6.350 F2500.000
(End of step 8.)
G0 Z3.000
G0 X-39.354 Y10.287
(Begin step 9.)
G0 X-39.354 Y10.287
(part 1)
G1 X-39.354 Y10.287 Z-6.350 F2500.000
G1 X-15.442 Y10.287 Z-6.350 F2500.000
G1 X-14.446 Y10.287 Z-5.951 F2500.000
G1 X-13.450 Y10.287 Z-5.227 F2500.000
G1 X-12.454 Y10.287 Z-4.456 F2500.000
G1 X-11.457 Y10.287 Z-3.606 F2500.000
G1 X-10.461 Y10.287 Z-2.677 F2500.000
G1 X-9.465 Y10.287 Z-1.653 F2500.000
G1 X-8.468 Y10.287 Z-0.199 F2500.000
G1 X-7.472 Y10.287 Z0.000 F2500.000
G1 X7.472 Y10.287 Z0.000 F2500.000
G1 X8.469 Y10.287 Z-0.199 F2500.000
G1 X9.465 Y10.287 Z-1.653 F2500.000
G1 X10.461 Y10.287 Z-2.676 F2500.000
G1 X11.458 Y10.287 Z-3.606 F2500.000
G1 X12.454 Y10.287 Z-4.455 F2500.000
G1 X13.450 Y10.287 Z-5.227 F2500.000
G1 X14.447 Y10.287 Z-5.951 F2500.000
G1 X15.443 Y10.287 Z-6.350 F2500.000
G1 X39.354 Y10.287 Z-6.350 F2500.000
(End of step 9.)
G0 Z3.000
G0 X-37.637 Y15.431
(Begin step 10.)
G0 X-37.637 Y15.431
(part 1)
G1 X-37.637 Y15.431 Z-6.350 F2500.000
G1 X-9.904 Y15.431 Z-6.350 F2500.000
G1 X-8.914 Y15.431 Z-6.000 F2500.000
G1 X-7.923 Y15.431 Z-5.599 F2500.000
G1 X-6.933 Y15.431 Z-5.211 F2500.000
G1 X-5.942 Y15.431 Z-4.845 F2500.000
G1 X-4.952 Y15.431 Z-4.510 F2500.000
G1 X-3.962 Y15.431 Z-4.217 F2500.000
G1 X-2.971 Y15.431 Z-3.975 F2500.000
G1 X-1.981 Y15.431 Z-3.802 F2500.000
G1 X-0.990 Y15.431 Z-3.898 F2500.000
G1 X0.000 Y15.431 Z-4.372 F2500.000
G1 X0.991 Y15.431 Z-3.898 F2500.000
G1 X1.981 Y15.431 Z-3.802 F2500.000
G1 X2.972 Y15.431 Z-3.976 F2500.000
G1 X3.962 Y15.431 Z-4.217 F2500.000
G1 X4.952 Y15.431 Z-4.509 F2500.000
G1 X5.943 Y15.431 Z-4.845 F2500.000
G1 X6.933 Y15.431 Z-5.211 F2500.000
G1 X7.924 Y15.431 Z-5.599 F2500.000
G1 X8.914 Y15.431 Z-6.000 F2500.000
G1 X9.905 Y15.431 Z-6.350 F2500.000
G1 X37.637 Y15.431 Z-6.350 F2500.000
(End of step 10.)
G0 Z3.000
G0 X-35.089 Y20.574
(Begin step 11.)
G0 X-35.089 Y20.574
(part 1)
G1 X-35.089 Y20.574 Z-6.350 F2500.000
G1 X35.090 Y20.574 Z-6.350 F2500.000
(End of step 11.)
G0 Z3.000
G0 X-31.514 Y25.718
(Begin step 12.)
G0 X-31.514 Y25.718
(part 1)
G1 X-31.514 Y25.718 Z-6.350 F2500.000
G1 X31.515 Y25.718 Z-6.350 F2500.000
(End of step 12.)
G0 Z3.000
G0 X-26.496 Y30.861
(Begin step 13.)
G0 X-26.496 Y30.861
(part 1)
G1 X-26.496 Y30.861 Z-6.350 F2500.000
G1 X26.496 Y30.861 Z-6.350 F2500.000
(End of step 13.)
G0 Z3.000
G0 X-18.924 Y36.005
(Begin step 14.)
G0 X-18.924 Y36.005
(part 1)
G1 X-18.924 Y36.005 Z-6.350 F2500.000
G1 X18.924 Y36.005 Z-6.350 F2500.000
(End of step 14.)
(End of layer 1)
(Layer 2 begins)
(Layer transition)
G0 Z3.000
G0 X-18.924 Y-36.004
(Begin step 0.)
G0 X-18.924 Y-36.004
(part 1)
G1 X-18.924 Y-36.004 Z-9.525 F2500.000
G1 X18.924 Y-36.004 Z-9.525 F2500.000
(End of step 0.)
G0 Z3.000
G0 X-26.496 Y-30.861
(Begin step 1.)
G0 X-26.496 Y-30.861
(part 1)
G1 X-26.496 Y-30.861 Z-9.525 F2500.000
G1 X26.496 Y-30.861 Z-9.525 F2500.000
(End of step 1.)
G0 Z3.000
G0 X-31.514 Y-25.717
(Begin step 2.)
G0 X-31.514 Y-25.717
(part 1)
G1 X-31.514 Y-25.717 Z-9.525 F2500.000
G1 X31.515 Y-25.717 Z-9.525 F2500.000
(End of step 2.)
G0 Z3.000
G0 X-35.089 Y-20.574
(Begin step 3.)
G0 X-35.089 Y-20.574
(part 1)
G1 X-35.089 Y-20.574 Z-9.525 F2500.000
G1 X-14.332 Y-20.574 Z-9.525 F2500.000
G1 X-13.344 Y-20.574 Z-9.422 F2500.000
G1 X-12.355 Y-20.574 Z-9.274 F2500.000
G1 X-11.367 Y-20.574 Z-9.118 F2500.000
G1 X-8.402 Y-20.574 Z-8.639 F2500.000
G1 X-7.413 Y-20.574 Z-8.487 F2500.000
G1 X-6.425 Y-20.574 Z-8.343 F2500.000
G1 X-5.436 Y-20.574 Z-8.213 F2500.000
G1 X-4.448 Y-20.574 Z-8.098 F2500.000
G1 X-3.459 Y-20.574 Z-8.002 F2500.000
G1 X-2.471 Y-20.574 Z-7.928 F2500.000
G1 X-1.482 Y-20.574 Z-7.902 F2500.000
G1 X-0.494 Y-20.574 Z-8.032 F2500.000
G1 X0.494 Y-20.574 Z-8.032 F2500.000
G1 X1.483 Y-20.574 Z-7.902 F2500.000
G1 X2.471 Y-20.574 Z-7.928 F2500.000
G1 X3.460 Y-20.574 Z-8.002 F2500.000
G1 X4.448 Y-20.574 Z-8.099 F2500.000
G1 X5.437 Y-20.574 Z-8.213 F2500.000
G1 X6.425 Y-20.574 Z-8.343 F2500.000
G1 X7.413 Y-20.574 Z-8.487 F2500.000
G1 X8.402 Y-20.574 Z-8.639 F2500.000
G1 X11.367 Y-20.574 Z-9.118 F2500.000
G1 X12.356 Y-20.574 Z-9.274 F2500.000
G1 X13.344 Y-20.574 Z-9.422 F2500.000
G1 X14.333 Y-20.574 Z-9.525 F2500.000
G1 X35.090 Y-20.574 Z-9.525 F2500.000
(End of step 3.)
G0 Z3.000
G0 X-37.637 Y-15.430
(Begin step 4.)
G0 X-37.637 Y-15.430
(part 1)
G1 X-37.637 Y-15.430 Z-9.525 F2500.000
G1 X-19.809 Y-15.430 Z-9.525 F2500.000
G1 X-18.818 Y-15.430 Z-9.371 F2500.000
G1 X-17.828 Y-15.430 Z-9.143 F2500.000
G1 X-16.837 Y-15.430 Z-8.883 F2500.000
G1 X-15.847 Y-15.430 Z-8.595 F2500.000
G1 X-14.856 Y-15.430 Z-8.280 F2500.000
G1 X-13.866 Y-15.430 Z-7.941 F2500.000
G1 X-12.876 Y-15.430 Z-7.579 F2500.000
G1 X-11.885 Y-15.430 Z-7.200 F2500.000
G1 X-10.895 Y-15.430 Z-6.807 F2500.000
G1 X-7.923 Y-15.430 Z-5.599 F2500.000
G1 X-6.933 Y-15.430 Z-5.211 F2500.000
G1 X-5.942 Y-15.430 Z-4.845 F2500.000
G1 X-4.952 Y-15.430 Z-4.509 F2500.000
G1 X-3.962 Y-15.430 Z-4.217 F2500.000
G1 X-2.971 Y-15.430 Z-3.975 F2500.000
G1 X-1.981 Y-15.430 Z-3.802 F2500.000
G1 X-0.990 Y-15.430 Z-3.898 F2500.000
G1 X0.000 Y-15.430 Z-4.372 F2500.000
G1 X0.991 Y-15.430 Z-3.898 F2500.000
G1 X1.981 Y-15.430 Z-3.802 F2500.000
G1 X2.972 Y-15.430 Z-3.975 F2500.000
G1 X3.962 Y-15.430 Z-4.217 F2500.000
G1 X4.952 Y-15.430 Z-4.510 F2500.000
G1 X5.943 Y-15.430 Z-4.845 F2500.000
G1 X6.933 Y-15.430 Z-5.211 F2500.000
G1 X7.924 Y-15.430 Z-5.599 F2500.000
G1 X10.895 Y-15.430 Z-6.807 F2500.000
G1 X11.885 Y-15.430 Z-7.200 F2500.000
G1 X12.876 Y-15.430 Z-7.579 F2500.000
G1 X13.866 Y-15.430 Z-7.941 F2500.000
G1 X14.857 Y-15.430 Z-8.280 F2500.000
G1 X15.847 Y-15.430 Z-8.595 F2500.000
G1 X16.838 Y-15.430 Z-8.883 F2500.000
G1 X17.828 Y-15.430 Z-9.143 F2500.000
G1 X18.819 Y-15.430 Z-9.371 F2500.000
G1 X19.809 Y-15.430 Z-9.525 F2500.000
G1 X37.637 Y-15.430 Z-9.525 F2500.000
(End of step 4.)
G0 Z3.000
G0 X-39.354 Y-10.287
(Begin step 5.)
G0 X-39.354 Y-10.287
(part 1)
G1 X-39.354 Y-10.287 Z-9.525 F2500.000
G1 X-23.413 Y-10.287 Z-9.525 F2500.000
G1 X-22.417 Y-10.287 Z-9.458 F2500.000
G1 X-21.420 Y-10.287 Z-9.201 F2500.000
G1 X-20.424 Y-10.287 Z-8.921 F2500.000
G1 X-18.431 Y-10.287 Z-8.335 F2500.000
G1 X-17.435 Y-10.287 Z-7.938 F2500.000
G1 X-16.439 Y-10.287 Z-7.313 F2500.000
G1 X-15.442 Y-10.287 Z-6.650 F2500.000
G1 X-14.446 Y-10.287 Z-5.951 F2500.000
G1 X-13.450 Y-10.287 Z-5.227 F2500.000
G1 X-12.454 Y-10.287 Z-4.455 F2500.000
G1 X-11.457 Y-10.287 Z-3.606 F2500.000
G1 X-10.461 Y-10.287 Z-2.676 F2500.000
G1 X-9.465 Y-10.287 Z-1.653 F2500.000
G1 X-8.468 Y-10.287 Z-0.199 F2500.000
G1 X-7.472 Y-10.287 Z0.000 F2500.000
G1 X7.472 Y-10.287 Z0.000 F2500.000
G1 X8.469 Y-10.287 Z-0.199 F2500.000
G1 X9.465 Y-10.287 Z-1.653 F2500.000
G1 X10.461 Y-10.287 Z-2.677 F2500.000
G1 X11.458 Y-10.287 Z-3.607 F2500.000
G1 X12.454 Y-10.287 Z-4.455 F2500.000
G1 X13.450 Y-10.287 Z-5.227 F2500.000
G1 X14.447 Y-10.287 Z-5.951 F2500.000
G1 X15.443 Y-10.287 Z-6.650 F2500.000
G1 X16.439 Y-10.287 Z-7.313 F2500.000
G1 X17.435 Y-10.287 Z-7.938 F2500.000
G1 X18.432 Y-10.287 Z-8.335 F2500.000
G1 X20.424 Y-10.287 Z-8.921 F2500.000
G1 X21.421 Y-10.287 Z-9.202 F2500.000
G1 X22.417 Y-10.287 Z-9.458 F2500.000
G1 X23.413 Y-10.287 Z-9.525 F2500.000
G1 X39.354 Y-10.287 Z-9.525 F2500.000
(End of step 5.)
G0 Z3.000
G0 X-40.348 Y-5.143
(Begin step 6.)
G0 X-40.348 Y-5.143
(part 1)
G1 X-40.348 Y-5.143 Z-9.525 F2500.000
G1 X-24.408 Y-5.143 Z-9.525 F2500.000
G1 X-23.412 Y-5.143 Z-9.265 F2500.000
G1 X-22.416 Y-5.143 Z-8.943 F2500.000
G1 X-21.419 Y-5.143 Z-8.556 F2500.000
G1 X-20.423 Y-5.143 Z-8.104 F2500.000
G1 X-19.427 Y-5.143 Z-7.579 F2500.000
G1 X-18.431 Y-5.143 Z-6.976 F2500.000
G1 X-17.434 Y-5.143 Z-6.284 F2500.000
G1 X-16.438 Y-5.143 Z-5.493 F2500.000
G1 X-15.442 Y-5.143 Z-4.582 F2500.000
G1 X-14.445 Y-5.143 Z-3.530 F2500.000
G1 X-13.449 Y-5.143 Z-2.293 F2500.000
G1 X-12.453 Y-5.143 Z-0.856 F2500.000
G1 X-11.457 Y-5.143 Z0.000 F2500.000
G1 X11.457 Y-5.143 Z0.000 F2500.000
G1 X12.453 Y-5.143 Z-0.856 F2500.000
G1 X13.450 Y-5.143 Z-2.293 F2500.000
G1 X14.446 Y-5.143 Z-3.530 F2500.000
G1 X15.442 Y-5.143 Z-4.582 F2500.000
G1 X16.438 Y-5.143 Z-5.492 F2500.000
G1 X17.435 Y-5.143 Z-6.284 F2500.000
G1 X18.431 Y-5.143 Z-6.975 F2500.000
G1 X19.427 Y-5.143 Z-7.579 F2500.000
G1 X20.423 Y-5.143 Z-8.104 F2500.000
G1 X21.420 Y-5.143 Z-8.556 F2500.000
G1 X22.416 Y-5.143 Z-8.942 F2500.000
G1 X23.412 Y-5.143 Z-9.265 F2500.000
G1 X24.408 Y-5.143 Z-9.525 F2500.000
G1 X40.348 Y-5.143 Z-9.525 F2500.000
(End of step 6.)
G0 Z3.000
G0 X-40.677 Y0.000
(Begin step 7.)
G0 X-40.677 Y0.000
(part 1)
G1 X-40.677 Y0.000 Z-9.525 F2500.000
G1 X-25.795 Y0.000 Z-9.525 F2500.000
G1 X-24.803 Y0.000 Z-9.494 F2500.000
G1 X-23.811 Y0.000 Z-9.216 F2500.000
G1 X-22.819 Y0.000 Z-8.876 F2500.000
G1 X-21.827 Y0.000 Z-8.468 F2500.000
G1 X-20.834 Y0.000 Z-7.987 F2500.000
G1 X-19.842 Y0.000 Z-7.428 F2500.000
G1 X-18.850 Y0.000 Z-6.780 F2500.000
G1 X-17.858 Y0.000 Z-6.031 F2500.000
G1 X-16.866 Y0.000 Z-5.164 F2500.000
G1 X-15.874 Y0.000 Z-4.153 F2500.000
G1 X-14.882 Y0.000 Z-2.959 F2500.000
G1 X-13.890 Y0.000 Z-1.511 F2500.000
G1 X-12.897 Y0.000 Z0.000 F2500.000
G1 X-4.960 Y0.000 Z0.000 F2500.000
G1 X-3.968 Y0.000 Z-9.525 F2500.000
G1 X3.969 Y0.000 Z-9.525 F2500.000
G1 X4.961 Y0.000 Z0.000 F2500.000
G1 X12.898 Y0.000 Z0.000 F2500.000
G1 X13.890 Y0.000 Z-1.511 F2500.000
G1 X14.882 Y0.000 Z-2.959 F2500.000
G1 X15.874 Y0.000 Z-4.153 F2500.000
G1 X16.866 Y0.000 Z-5.164 F2500.000
G1 X17.858 Y0.000 Z-6.031 F2500.000
G1 X18.851 Y0.000 Z-6.780 F2500.000
G1 X19.843 Y0.000 Z-7.427 F2500.000
G1 X20.835 Y0.000 Z-7.987 F2500.000
G1 X21.827 Y0.000 Z-8.468 F2500.000
G1 X22.819 Y0.000 Z-8.876 F2500.000
G1 X23.811 Y0.000 Z-9.216 F2500.000
G1 X24.803 Y0.000 Z-9.494 F2500.000
G1 X25.795 Y0.000 Z-9.525 F2500.000
G1 X40.677 Y0.000 Z-9.525 F2500.000
(End of step 7.)
G0 Z3.000
G0 X-40.348 Y5.144
(Begin step 8.)
G0 X-40.348 Y5.144
(part 1)
G1 X-40.348 Y5.144 Z-9.525 F2500.000
G1 X-24.408 Y5.144 Z-9.525 F2500.000
G1 X-23.412 Y5.144 Z-9.265 F2500.000
G1 X-22.416 Y5.144 Z-8.943 F2500.000
G1 X-21.419 Y5.144 Z-8.556 F2500.000
G1 X-20.423 Y5.144 Z-8.104 F2500.000
G1 X-19.427 Y5.144 Z-7.579 F2500.000
G1 X-18.431 Y5.144 Z-6.976 F2500.000
G1 X-17.434 Y5.144 Z-6.284 F2500.000
G1 X-16.438 Y5.144 Z-5.493 F2500.000
G1 X-15.442 Y5.144 Z-4.583 F2500.000
G1 X-14.445 Y5.144 Z-3.530 F2500.000
G1 X-13.449 Y5.144 Z-2.293 F2500.000
G1 X-12.453 Y5.144 Z-0.856 F2500.000
G1 X-11.457 Y5.144 Z0.000 F2500.000
G1 X11.457 Y5.144 Z0.000 F2500.000
G1 X12.453 Y5.144 Z-0.856 F2500.000
G1 X13.450 Y5.144 Z-2.293 F2500.000
G1 X14.446 Y5.144 Z-3.531 F2500.000
G1 X15.442 Y5.144 Z-4.582 F2500.000
G1 X16.438 Y5.144 Z-5.492 F2500.000
G1 X17.435 Y5.144 Z-6.284 F2500.000
G1 X18.431 Y5.144 Z-6.975 F2500.000
G1 X19.427 Y5.144 Z-7.579 F2500.000
G1 X20.423 Y5.144 Z-8.104 F2500.000
G1 X21.420 Y5.144 Z-8.556 F2500.000
G1 X22.416 Y5.144 Z-8.942 F2500.000
G1 X23.412 Y5.144 Z-9.265 F2500.000
G1 X24.408 Y5.144 Z-9.525 F2500.000
G1 X40.348 Y5.144 Z-9.525 F2500.000
(End of step 8.)
G0 Z3.000
G0 X-39.354 Y10.287
(Begin step 9.)
G0 X-39.354 Y10.287
(part 1)
G1 X-39.354 Y10.287 Z-9.525 F2500.000
G1 X-23.413 Y10.287 Z-9.525 F2500.000
G1 X-22.417 Y10.287 Z-9.459 F2500.000
G1 X-21.420 Y10.287 Z-9.201 F2500.000
G1 X-20.424 Y10.287 Z-8.921 F2500.000
G1 X-18.431 Y10.287 Z-8.335 F2500.000
G1 X-17.435 Y10.287 Z-7.938 F2500.000
G1 X-16.439 Y10.287 Z-7.313 F2500.000
G1 X-15.442 Y10.287 Z-6.650 F2500.000
G1 X-14.446 Y10.287 Z-5.951 F2500.000
G1 X-13.450 Y10.287 Z-5.227 F2500.000
G1 X-12.454 Y10.287 Z-4.456 F2500.000
G1 X-11.457 Y10.287 Z-3.606 F2500.000
G1 X-10.461 Y10.287 Z-2.677 F2500.000
G1 X-9.465 Y10.287 Z-1.653 F2500.000
G1 X-8.468 Y10.287 Z-0.199 F2500.000
G1 X-7.472 Y10.287 Z0.000 F2500.000
G1 X7.472 Y10.287 Z0.000 F2500.000
G1 X8.469 Y10.287 Z-0.199 F2500.000
G1 X9.465 Y10.287 Z-1.653 F2500.000
G1 X10.461 Y10.287 Z-2.676 F2500.000
G1 X11.458 Y10.287 Z-3.606 F2500.000
G1 X12.454 Y10.287 Z-4.455 F2500.000
G1 X13.450 Y10.287 Z-5.227 F2500.000
G1 X14.447 Y10.287 Z-5.951 F2500.000
G1 X15.443 Y10.287 Z-6.650 F2500.000
G1 X16.439 Y10.287 Z-7.313 F2500.000
G1 X17.435 Y10.287 Z-7.938 F2500.000
G1 X18.432 Y10.287 Z-8.335 F2500.000
G1 X20.424 Y10.287 Z-8.921 F2500.000
G1 X21.421 Y10.287 Z-9.201 F2500.000
G1 X22.417 Y10.287 Z-9.459 F2500.000
G1 X23.413 Y10.287 Z-9.525 F2500.000
G1 X39.354 Y10.287 Z-9.525 F2500.000
(End of step 9.)
G0 Z3.000
G0 X-37.637 Y15.431
(Begin step 10.)
G0 X-37.637 Y15.431
(part 1)
G1 X-37.637 Y15.431 Z-9.525 F2500.000
G1 X-19.809 Y15.431 Z-9.525 F2500.000
G1 X-18.818 Y15.431 Z-9.371 F2500.000
G1 X-17.828 Y15.431 Z-9.143 F2500.000
G1 X-16.837 Y15.431 Z-8.883 F2500.000
G1 X-15.847 Y15.431 Z-8.595 F2500.000
G1 X-14.856 Y15.431 Z-8.280 F2500.000
G1 X-13.866 Y15.431 Z-7.941 F2500.000
G1 X-12.876 Y15.431 Z-7.579 F2500.000
G1 X-11.885 Y15.431 Z-7.200 F2500.000
G1 X-10.895 Y15.431 Z-6.807 F2500.000
G1 X-7.923 Y15.431 Z-5.599 F2500.000
G1 X-6.933 Y15.431 Z-5.211 F2500.000
G1 X-5.942 Y15.431 Z-4.845 F2500.000
G1 X-4.952 Y15.431 Z-4.510 F2500.000
G1 X-3.962 Y15.431 Z-4.217 F2500.000
G1 X-2.971 Y15.431 Z-3.975 F2500.000
G1 X-1.981 Y15.431 Z-3.802 F2500.000
G1 X-0.990 Y15.431 Z-3.898 F2500.000
G1 X0.000 Y15.431 Z-4.372 F2500.000
G1 X0.991 Y15.431 Z-3.898 F2500.000
G1 X1.981 Y15.431 Z-3.802 F2500.000
G1 X2.972 Y15.431 Z-3.976 F2500.000
G1 X3.962 Y15.431 Z-4.217 F2500.000
G1 X4.952 Y15.431 Z-4.509 F2500.000
G1 X5.943 Y15.431 Z-4.845 F2500.000
G1 X6.933 Y15.431 Z-5.211 F2500.000
G1 X7.924 Y15.431 Z-5.599 F2500.000
G1 X10.895 Y15.431 Z-6.807 F2500.000
G1 X11.885 Y15.431 Z-7.200 F2500.000
G1 X12.876 Y15.431 Z-7.579 F2500.000
G1 X13.866 Y15.431 Z-7.941 F2500.000
G1 X14.857 Y15.431 Z-8.280 F2500.000
G1 X15.847 Y15.431 Z-8.595 F2500.000
G1 X16.838 Y15.431 Z-8.883 F2500.000
G1 X17.828 Y15.431 Z-9.143 F2500.000
G1 X18.819 Y15.431 Z-9.371 F2500.000
G1 X19.809 Y15.431 Z-9.525 F2500.000
G1 X37.637 Y15.431 Z-9.525 F2500.000
(End of step 10.)
G0 Z3.000
G0 X-35.089 Y20.574
(Begin step 11.)
G0 X-35.089 Y20.574
(part 1)
G1 X-35.089 Y20.574 Z-9.525 F2500.000
G1 X-14.332 Y20.574 Z-9.525 F2500.000
G1 X-13.344 Y20.574 Z-9.422 F2500.000
G1 X-12.355 Y20.574 Z-9.274 F2500.000
G1 X-11.367 Y20.574 Z-9.118 F2500.000
G1 X-8.402 Y20.574 Z-8.639 F2500.000
G1 X-7.413 Y20.574 Z-8.487 F2500.000
G1 X-6.425 Y20.574 Z-8.343 F2500.000
G1 X-5.436 Y20.574 Z-8.213 F2500.000
G1 X-4.448 Y20.574 Z-8.098 F2500.000
G1 X-3.459 Y20.574 Z-8.002 F2500.000
G1 X-2.471 Y20.574 Z-7.928 F2500.000
G1 X-1.482 Y20.574 Z-7.902 F2500.000
G1 X-0.494 Y20.574 Z-8.032 F2500.000
G1 X0.494 Y20.574 Z-8.032 F2500.000
G1 X1.483 Y20.574 Z-7.902 F2500.000
G1 X2.471 Y20.574 Z-7.928 F2500.000
G1 X3.460 Y20.574 Z-8.003 F2500.000
G1 X4.448 Y20.574 Z-8.098 F2500.000
G1 X5.437 Y20.574 Z-8.213 F2500.000
G1 X6.425 Y20.574 Z-8.343 F2500.000
G1 X7.413 Y20.574 Z-8.487 F2500.000
G1 X8.402 Y20.574 Z-8.639 F2500.000
G1 X11.367 Y20.574 Z-9.118 F2500.000
G1 X12.356 Y20.574 Z-9.274 F2500.000
G1 X13.344 Y20.574 Z-9.422 F2500.000
G1 X14.333 Y20.574 Z-9.525 F2500.000
G1 X35.090 Y20.574 Z-9.525 F2500.000
(End of step 11.)
G0 Z3.000
G0 X-31.514 Y25.718
(Begin step 12.)
G0 X-31.514 Y25.718
(part 1)
G1 X-31.514 Y25.718 Z-9.525 F2500.000
G1 X31.515 Y25.718 Z-9.525 F2500.000
(End of step 12.)
G0 Z3.000
G0 X-26.496 Y30.861
(Begin step 13.)
G0 X-26.496 Y30.861
(part 1)
G1 X-26.496 Y30.861 Z-9.525 F2500.000
G1 X26.496 Y30.861 Z-9.525 F2500.000
(End of step 13.)
G0 Z3.000
G0 X-18.924 Y36.005
(Begin step 14.)
G0 X-18.924 Y36.005
(part 1)
G1 X-18.924 Y36.005 Z-9.525 F2500.000
G1 X18.924 Y36.005 Z-9.525 F2500.000
(End of step 14.)
(End of layer 2)
(Layer 3 begins)
(Layer transition)
G0 Z3.000
G0 X-18.924 Y-36.004
(Begin step 0.)
G0 X-18.924 Y-36.004
(part 1)
G1 X-18.924 Y-36.004 Z-10.000 F2500.000
G1 X18.924 Y-36.004 Z-10.000 F2500.000
(End of step 0.)
G0 Z3.000
G0 X-26.496 Y-30.861
(Begin step 1.)
G0 X-26.496 Y-30.861
(part 1)
G1 X-26.496 Y-30.861 Z-10.000 F2500.000
G1 X26.496 Y-30.861 Z-10.000 F2500.000
(End of step 1.)
G0 Z3.000
G0 X-31.514 Y-25.717
(Begin step 2.)
G0 X-31.514 Y-25.717
(part 1)
G1 X-31.514 Y-25.717 Z-10.000 F2500.000
G1 X-11.818 Y-25.717 Z-10.000 F2500.000
G1 X-10.833 Y-25.717 Z-9.982 F2500.000
G1 X-9.848 Y-25.717 Z-9.952 F2500.000
G1 X-5.909 Y-25.717 Z-9.813 F2500.000
G1 X-3.939 Y-25.717 Z-9.752 F2500.000
G1 X-2.954 Y-25.717 Z-9.728 F2500.000
G1 X-1.969 Y-25.717 Z-9.710 F2500.000
G1 X-0.985 Y-25.717 Z-9.700 F2500.000
G1 X0.000 Y-25.717 Z-9.696 F2500.000
G1 X0.985 Y-25.717 Z-9.699 F2500.000
G1 X1.970 Y-25.717 Z-9.710 F2500.000
G1 X2.955 Y-25.717 Z-9.728 F2500.000
G1 X3.939 Y-25.717 Z-9.752 F2500.000
G1 X5.909 Y-25.717 Z-9.813 F2500.000
G1 X9.848 Y-25.717 Z-9.952 F2500.000
G1 X10.833 Y-25.717 Z-9.982 F2500.000
G1 X11.818 Y-25.717 Z-10.000 F2500.000
G1 X31.515 Y-25.717 Z-10.000 F2500.000
(End of step 2.)
G0 Z3.000
G0 X-35.089 Y-20.574
(Begin step 3.)
G0 X-35.089 Y-20.574
(part 1)
G1 X-35.089 Y-20.574 Z-10.000 F2500.000
G1 X-19.274 Y-20.574 Z-9.999 F2500.000
G1 X-18.286 Y-20.574 Z-9.951 F2500.000
G1 X-17.297 Y-20.574 Z-9.881 F2500.000
G1 X-16.309 Y-20.574 Z-9.791 F2500.000
G1 X-15.321 Y-20.574 Z-9.683 F2500.000
G1 X-14.332 Y-20.574 Z-9.559 F2500.000
G1 X-13.344 Y-20.574 Z-9.422 F2500.000
G1 X-12.355 Y-20.574 Z-9.274 F2500.000
G1 X-11.367 Y-20.574 Z-9.118 F2500.000
G1 X-8.402 Y-20.574 Z-8.639 F2500.000
G1 X-7.413 Y-20.574 Z-8.487 F2500.000
G1 X-6.425 Y-20.574 Z-8.343 F2500.000
G1 X-5.436 Y-20.574 Z-8.213 F2500.000
G1 X-4.448 Y-20.574 Z-8.098 F2500.000
G1 X-3.459 Y-20.574 Z-8.002 F2500.000
G1 X-2.471 Y-20.574 Z-7.928 F2500.000
G1 X-1.482 Y-20.574 Z-7.902 F2500.000
G1 X-0.494 Y-20.574 Z-8.032 F2500.000
G1 X0.494 Y-20.574 Z-8.032 F2500.000
G1 X1.483 Y-20.574 Z-7.902 F2500.000
G1 X2.471 Y-20.574 Z-7.928 F2500.000
G1 X3.460 Y-20.574 Z-8.002 F2500.000
G1 X4.448 Y-20.574 Z-8.099 F2500.000
G1 X5.437 Y-20.574 Z-8.213 F2500.000
G1 X6.425 Y-20.574 Z-8.343 F2500.000
G1 X7.413 Y-20.574 Z-8.487 F2500.000
G1 X8.402 Y-20.574 Z-8.639 F2500.000
G1 X11.367 Y-20.574 Z-9.118 F2500.000
G1 X12.356 Y-20.574 Z-9.274 F2500.000
G1 X13.344 Y-20.574 Z-9.422 F2500.000
G1 X14.333 Y-20.574 Z-9.559 F2500.000
G1 X15.321 Y-20.574 Z-9.683 F2500.000
G1 X16.309 Y-20.574 Z-9.791 F2500.000
G1 X17.298 Y-20.574 Z-9.882 F2500.000
G1 X18.286 Y-20.574 Z-9.951 F2500.000
G1 X19.275 Y-20.574 Z-9.999 F2500.000
G1 X35.090 Y-20.574 Z-10.000 F2500.000
(End of step 3.)
G0 Z3.000
G0 X-37.637 Y-15.430
(Begin step 4.)
G0 X-37.637 Y-15.430
(part 1)
G1 X-37.637 Y-15.430 Z-10.000 F2500.000
G1 X-23.770 Y-15.430 Z-10.000 F2500.000
G1 X-22.780 Y-15.430 Z-9.950 F2500.000
G1 X-21.789 Y-15.430 Z-9.858 F2500.000
G1 X-20.799 Y-15.430 Z-9.730 F2500.000
G1 X-19.809 Y-15.430 Z-9.568 F2500.000
G1 X-18.818 Y-15.430 Z-9.371 F2500.000
G1 X-17.828 Y-15.430 Z-9.143 F2500.000
G1 X-16.837 Y-15.430 Z-8.883 F2500.000
G1 X-15.847 Y-15.430 Z-8.595 F2500.000
G1 X-14.856 Y-15.430 Z-8.280 F2500.000
G1 X-13.866 Y-15.430 Z-7.941 F2500.000
G1 X-12.876 Y-15.430 Z-7.579 F2500.000
G1 X-11.885 Y-15.430 Z-7.200 F2500.000
G1 X-10.895 Y-15.430 Z-6.807 F2500.000
G1 X-7.923 Y-15.430 Z-5.599 F2500.000
G1 X-6.933 Y-15.430 Z-5.211 F2500.000
G1 X-5.942 Y-15.430 Z-4.845 F2500.000
G1 X-4.952 Y-15.430 Z-4.509 F2500.000
G1 X-3.962 Y-15.430 Z-4.217 F2500.000
G1 X-2.971 Y-15.430 Z-3.975 F2500.000
G1 X-1.981 Y-15.430 Z-3.802 F2500.000
G1 X-0.990 Y-15.430 Z-3.898 F2500.000
G1 X0.000 Y-15.430 Z-4.372 F2500.000
G1 X0.991 Y-15.430 Z-3.898 F2500.000
G1 X1.981 Y-15.430 Z-3.802 F2500.000
G1 X2.972 Y-15.430 Z-3.975 F2500.000
G1 X3.962 Y-15.430 Z-4.217 F2500.000
G1 X4.952 Y-15.430 Z-4.510 F2500.000
G1 X5.943 Y-15.430 Z-4.845 F2500.000
G1 X6.933 Y-15.430 Z-5.211 F2500.000
G1 X7.924 Y-15.430 Z-5.599 F2500.000
G1 X10.895 Y-15.430 Z-6.807 F2500.000
G1 X11.885 Y-15.430 Z-7.200 F2500.000
G1 X12.876 Y-15.430 Z-7.579 F2500.000
G1 X13.866 Y-15.430 Z-7.941 F2500.000
G1 X14.857 Y-15.430 Z-8.280 F2500.000
G1 X15.847 Y-15.430 Z-8.595 F2500.000
G1 X16.838 Y-15.430 Z-8.883 F2500.000
G1 X17.828 Y-15.430 Z-9.143 F2500.000
G1 X18.819 Y-15.430 Z-9.371 F2500.000
G1 X19.809 Y-15.430 Z-9.567 F2500.000
G1 X20.799 Y-15.430 Z-9.730 F2500.000
G1 X21.790 Y-15.430 Z-9.858 F2500.000
G1 X22.780 Y-15.430 Z-9.950 F2500.000
G1 X23.771 Y-15.430 Z-10.000 F2500.000
G1 X37.637 Y-15.430 Z-10.000 F2500.000
(End of step 4.)
G0 Z3.000
G0 X-39.354 Y-10.287
(Begin step 5.)
G0 X-39.354 Y-10.287
(part 1)
G1 X-39.354 Y-10.287 Z-10.000 F2500.000
G1 X-26.402 Y-10.287 Z-10.000 F2500.000
G1 X-25.405 Y-10.287 Z-9.940 F2500.000
G1 X-24.409 Y-10.287 Z-9.828 F2500.000
G1 X-23.413 Y-10.287 Z-9.667 F2500.000
G1 X-22.417 Y-10.287 Z-9.458 F2500.000
G1 X-21.420 Y-10.287 Z-9.201 F2500.000
G1 X-20.424 Y-10.287 Z-8.921 F2500.000
G1 X-18.431 Y-10.287 Z-8.335 F2500.000
G1 X-17.435 Y-10.287 Z-7.938 F2500.000
G1 X-16.439 Y-10.287 Z-7.313 F2500.000
G1 X-15.442 Y-10.287 Z-6.650 F2500.000
G1 X-14.446 Y-10.287 Z-5.951 F2500.000
G1 X-13.450 Y-10.287 Z-5.227 F2500.000
G1 X-12.454 Y-10.287 Z-4.455 F2500.000
G1 X-11.457 Y-10.287 Z-3.606 F2500.000
G1 X-10.461 Y-10.287 Z-2.676 F2500.000
G1 X-9.465 Y-10.287 Z-1.653 F2500.000
G1 X-8.468 Y-10.287 Z-0.199 F2500.000
G1 X-7.472 Y-10.287 Z0.000 F2500.000
G1 X7.472 Y-10.287 Z0.000 F2500.000
G1 X8.469 Y-10.287 Z-0.199 F2500.000
G1 X9.465 Y-10.287 Z-1.653 F2500.000
G1 X10.461 Y-10.287 Z-2.677 F2500.000
G1 X11.458 Y-10.287 Z-3.607 F2500.000
G1 X12.454 Y-10.287 Z-4.455 F2500.000
G1 X13.450 Y-10.287 Z-5.227 F2500.000
G1 X14.447 Y-10.287 Z-5.951 F2500.000
G1 X15.443 Y-10.287 Z-6.650 F2500.000
G1 X16.439 Y-10.287 Z-7.313 F2500.000
G1 X17.435 Y-10.287 Z-7.938 F2500.000
G1 X18.432 Y-10.287 Z-8.335 F2500.000
G1 X20.424 Y-10.287 Z-8.921 F2500.000
G1 X21.421 Y-10.287 Z-9.202 F2500.000
G1 X22.417 Y-10.287 Z-9.458 F2500.000
G1 X23.413 Y-10.287 Z-9.667 F2500.000
G1 X24.410 Y-10.287 Z-9.828 F2500.000
G1 X25.406 Y-10.287 Z-9.940 F2500.000
G1 X26.402 Y-10.287 Z-10.000 F2500.000
G1 X39.354 Y-10.287 Z-10.000 F2500.000
(End of step 5.)
G0 Z3.000
G0 X-40.348 Y-5.143
(Begin step 6.)
G0 X-40.348 Y-5.143
(part 1)
G1 X-40.348 Y-5.143 Z-10.000 F2500.000
G1 X-28.393 Y-5.143 Z-10.000 F2500.000
G1 X-27.397 Y-5.143 Z-9.979 F2500.000
G1 X-26.401 Y-5.143 Z-9.884 F2500.000
G1 X-25.404 Y-5.143 Z-9.734 F2500.000
G1 X-24.408 Y-5.143 Z-9.528 F2500.000
G1 X-23.412 Y-5.143 Z-9.265 F2500.000
G1 X-22.416 Y-5.143 Z-8.943 F2500.000
G1 X-21.419 Y-5.143 Z-8.556 F2500.000
G1 X-20.423 Y-5.143 Z-8.104 F2500.000
G1 X-19.427 Y-5.143 Z-7.579 F2500.000
G1 X-18.431 Y-5.143 Z-6.976 F2500.000
G1 X-17.434 Y-5.143 Z-6.284 F2500.000
G1 X-16.438 Y-5.143 Z-5.493 F2500.000
G1 X-15.442 Y-5.143 Z-4.582 F2500.000
G1 X-14.445 Y-5.143 Z-3.530 F2500.000
G1 X-13.449 Y-5.143 Z-2.293 F2500.000
G1 X-12.453 Y-5.143 Z-0.856 F2500.000
G1 X-11.457 Y-5.143 Z0.000 F2500.000
G1 X11.457 Y-5.143 Z0.000 F2500.000
G1 X12.453 Y-5.143 Z-0.856 F2500.000
G1 X13.450 Y-5.143 Z-2.293 F2500.000
G1 X14.446 Y-5.143 Z-3.530 F2500.000
G1 X15.442 Y-5.143 Z-4.582 F2500.000
G1 X16.438 Y-5.143 Z-5.492 F2500.000
G1 X17.435 Y-5.143 Z-6.284 F2500.000
G1 X18.431 Y-5.143 Z-6.975 F2500.000
G1 X19.427 Y-5.143 Z-7.579 F2500.000
G1 X20.423 Y-5.143 Z-8.104 F2500.000
G1 X21.420 Y-5.143 Z-8.556 F2500.000
G1 X22.416 Y-5.143 Z-8.942 F2500.000
G1 X23.412 Y-5.143 Z-9.265 F2500.000
G1 X24.408 Y-5.143 Z-9.528 F2500.000
G1 X25.405 Y-5.143 Z-9.734 F2500.000
G1 X26.401 Y-5.143 Z-9.884 F2500.000
G1 X27.397 Y-5.143 Z-9.979 F2500.000
G1 X28.393 Y-5.143 Z-10.000 F2500.000
G1 X40.348 Y-5.143 Z-10.000 F2500.000
(End of step 6.)
G0 Z3.000
G0 X-40.677 Y0.000
(Begin step 7.)
G0 X-40.677 Y0.000
(part 1)
G1 X-40.677 Y0.000 Z-10.000 F2500.000
G1 X-28.771 Y0.000 Z-10.000 F2500.000
G1 X-27.779 Y0.000 Z-9.972 F2500.000
G1 X-26.787 Y0.000 Z-9.869 F2500.000
G1 X-25.795 Y0.000 Z-9.711 F2500.000
G1 X-24.803 Y0.000 Z-9.494 F2500.000
G1 X-23.811 Y0.000 Z-9.216 F2500.000
G1 X-22.819 Y0.000 Z-8.876 F2500.000
G1 X-21.827 Y0.000 Z-8.468 F2500.000
G1 X-20.834 Y0.000 Z-7.987 F2500.000
G1 X-19.842 Y0.000 Z-7.428 F2500.000
G1 X-18.850 Y0.000 Z-6.780 F2500.000
G1 X-17.858 Y0.000 Z-6.031 F2500.000
G1 X-16.866 Y0.000 Z-5.164 F2500.000
G1 X-15.874 Y0.000 Z-4.153 F2500.000
G1 X-14.882 Y0.000 Z-2.959 F2500.000
G1 X-13.890 Y0.000 Z-1.511 F2500.000
G1 X-12.897 Y0.000 Z0.000 F2500.000
G1 X-4.960 Y0.000 Z0.000 F2500.000
G1 X-3.968 Y0.000 Z-10.000 F2500.000
G1 X3.969 Y0.000 Z-10.000 F2500.000
G1 X4.961 Y0.000 Z0.000 F2500.000
G1 X12.898 Y0.000 Z0.000 F2500.000
G1 X13.890 Y0.000 Z-1.511 F2500.000
G1 X14.882 Y0.000 Z-2.959 F2500.000
G1 X15.874 Y0.000 Z-4.153 F2500.000
G1 X16.866 Y0.000 Z-5.164 F2500.000
G1 X17.858 Y0.000 Z-6.031 F2500.000
G1 X18.851 Y0.000 Z-6.780 F2500.000
G1 X19.843 Y0.000 Z-7.427 F2500.000
G1 X20.835 Y0.000 Z-7.987 F2500.000
G1 X21.827 Y0.000 Z-8.468 F2500.000
G1 X22.819 Y0.000 Z-8.876 F2500.000
G1 X23.811 Y0.000 Z-9.216 F2500.000
G1 X24.803 Y0.000 Z-9.494 F2500.000
G1 X25.795 Y0.000 Z-9.711 F2500.000
G1 X26.788 Y0.000 Z-9.869 F2500.000
G1 X27.780 Y0.000 Z-9.972 F2500.000
G1 X28.772 Y0.000 Z-10.000 F2500.000
G1 X40.677 Y0.000 Z-10.000 F2500.000
(End of step 7.)
G0 Z3.000
G0 X-40.348 Y5.144
(Begin step 8.)
G0 X-40.348 Y5.144
(part 1)
G1 X-40.348 Y5.144 Z-10.000 F2500.000
G1 X-28.393 Y5.144 Z-10.000 F2500.000
G1 X-27.397 Y5.144 Z-9.979 F2500.000
G1 X-26.401 Y5.144 Z-9.884 F2500.000
G1 X-25.404 Y5.144 Z-9.734 F2500.000
G1 X-24.408 Y5.144 Z-9.528 F2500.000
G1 X-23.412 Y5.144 Z-9.265 F2500.000
G1 X-22.416 Y5.144 Z-8.943 F2500.000
G1 X-21.419 Y5.144 Z-8.556 F2500.000
G1 X-20.423 Y5.144 Z-8.104 F2500.000
G1 X-19.427 Y5.144 Z-7.579 F2500.000
G1 X-18.431 Y5.144 Z-6.976 F2500.000
G1 X-17.434 Y5.144 Z-6.284 F2500.000
G1 X-16.438 Y5.144 Z-5.493 F2500.000
G1 X-15.442 Y5.144 Z-4.583 F2500.000
G1 X-14.445 Y5.144 Z-3.530 F2500.000
G1 X-13.449 Y5.144 Z-2.293 F2500.000
G1 X-12.453 Y5.144 Z-0.856 F2500.000
G1 X-11.457 Y5.144 Z0.000 F2500.000
G1 X11.457 Y5.144 Z0.000 F2500.000
G1 X12.453 Y5.144 Z-0.856 F2500.000
G1 X13.450 Y5.144 Z-2.293 F2500.000
G1 X14.446 Y5.144 Z-3.531 F2500.000
G1 X15.442 Y5.144 Z-4.582 F2500.000
G1 X16.438 Y5.144 Z-5.492 F2500.000
G1 X17.435 Y5.144 Z-6.284 F2500.000
G1 X18.431 Y5.144 Z-6.975 F2500.000
G1 X19.427 Y5.144 Z-7.579 F2500.000
G1 X20.423 Y5.144 Z-8.104 F2500.000
G1 X21.420 Y5.144 Z-8.556 F2500.000
G1 X22.416 Y5.144 Z-8.942 F2500.000
G1 X23.412 Y5.144 Z-9.265 F2500.000
G1 X24.408 Y5.144 Z-9.528 F2500.000
G1 X25.405 Y5.144 Z-9.734 F2500.000
G1 X26.401 Y5.144 Z-9.884 F2500.000
G1 X27.397 Y5.144 Z-9.979 F2500.000
G1 X28.393 Y5.144 Z-10.000 F2500.000
G1 X40.348 Y5.144 Z-10.000 F2500.000
(End of step 8.)
G0 Z3.000
G0 X-39.354 Y10.287
(Begin step 9.)
G0 X-39.354 Y10.287
(part 1)
G1 X-39.354 Y10.287 Z-10.000 F2500.000
G1 X-26.402 Y10.287 Z-10.000 F2500.000
G1 X-25.405 Y10.287 Z-9.940 F2500.000
G1 X-24.409 Y10.287 Z-9.828 F2500.000
G1 X-23.413 Y10.287 Z-9.667 F2500.000
G1 X-22.417 Y10.287 Z-9.459 F2500.000
G1 X-21.420 Y10.287 Z-9.201 F2500.000
G1 X-20.424 Y10.287 Z-8.921 F2500.000
G1 X-18.431 Y10.287 Z-8.335 F2500.000
G1 X-17.435 Y10.287 Z-7.938 F2500.000
G1 X-16.439 Y10.287 Z-7.313 F2500.000
G1 X-15.442 Y10.287 Z-6.650 F2500.000
G1 X-14.446 Y10.287 Z-5.951 F2500.000
G1 X-13.450 Y10.287 Z-5.227 F2500.000
G1 X-12.454 Y10.287 Z-4.456 F2500.000
G1 X-11.457 Y10.287 Z-3.606 F2500.000
G1 X-10.461 Y10.287 Z-2.677 F2500.000
G1 X-9.465 Y10.287 Z-1.653 F2500.000
G1 X-8.468 Y10.287 Z-0.199 F2500.000
G1 X-7.472 Y10.287 Z0.000 F2500.000
G1 X7.472 Y10.287 Z0.000 F2500.000
G1 X8.469 Y10.287 Z-0.199 F2500.000
G1 X9.465 Y10.287 Z-1.653 F2500.000
G1 X10.461 Y10.287 Z-2.676 F2500.000
G1 X11.458 Y10.287 Z-3.606 F2500.000
G1 X12.454 Y10.287 Z-4.455 F2500.000
G1 X13.450 Y10.287 Z-5.227 F2500.000
G1 X14.447 Y10.287 Z-5.951 F2500.000
G1 X15.443 Y10.287 Z-6.650 F2500.000
G1 X16.439 Y10.287 Z-7.313 F2500.000
G1 X17.435 Y10.287 Z-7.938 F2500.000
G1 X18.432 Y10.287 Z-8.335 F2500.000
G1 X20.424 Y10.287 Z-8.921 F2500.000
G1 X21.421 Y10.287 Z-9.201 F2500.000
G1 X22.417 Y10.287 Z-9.459 F2500.000
G1 X23.413 Y10.287 Z-9.667 F2500.000
G1 X24.410 Y10.287 Z-9.828 F2500.000
G1 X25.406 Y10.287 Z-9.940 F2500.000
G1 X26.402 Y10.287 Z-10.000 F2500.000
G1 X39.354 Y10.287 Z-10.000 F2500.000
(End of step 9.)
G0 Z3.000
G0 X-37.637 Y15.431
(Begin step 10.)
G0 X-37.637 Y15.431
(part 1)
G1 X-37.637 Y15.431 Z-10.000 F2500.000
G1 X-23.770 Y15.431 Z-10.000 F2500.000
G1 X-22.780 Y15.431 Z-9.950 F2500.000
G1 X-21.789 Y15.431 Z-9.858 F2500.000
G1 X-20.799 Y15.431 Z-9.730 F2500.000
G1 X-19.809 Y15.431 Z-9.567 F2500.000
G1 X-18.818 Y15.431 Z-9.371 F2500.000
G1 X-17.828 Y15.431 Z-9.143 F2500.000
G1 X-16.837 Y15.431 Z-8.883 F2500.000
G1 X-15.847 Y15.431 Z-8.595 F2500.000
G1 X-14.856 Y15.431 Z-8.280 F2500.000
G1 X-13.866 Y15.431 Z-7.941 F2500.000
G1 X-12.876 Y15.431 Z-7.579 F2500.000
G1 X-11.885 Y15.431 Z-7.200 F2500.000
G1 X-10.895 Y15.431 Z-6.807 F2500.000
G1 X-7.923 Y15.431 Z-5.599 F2500.000
G1 X-6.933 Y15.431 Z-5.211 F2500.000
G1 X-5.942 Y15.431 Z-4.845 F2500.000
G1 X-4.952 Y15.431 Z-4.510 F2500.000
G1 X-3.962 Y15.431 Z-4.217 F2500.000
G1 X-2.971 Y15.431 Z-3.975 F2500.000
G1 X-1.981 Y15.431 Z-3.802 F2500.000
G1 X-0.990 Y15.431 Z-3.898 F2500.000
G1 X0.000 Y15.431 Z-4.372 F2500.000
G1 X0.991 Y15.431 Z-3.898 F2500.000
G1 X1.981 Y15.431 Z-3.802 F2500.000
G1 X2.972 Y15.431 Z-3.976 F2500.000
G1 X3.962 Y15.431 Z-4.217 F2500.000
G1 X4.952 Y15.431 Z-4.509 F2500.000
G1 X5.943 Y15.431 Z-4.845 F2500.000
G1 X6.933 Y15.431 Z-5.211 F2500.000
G1 X7.924 Y15.431 Z-5.599 F2500.000
G1 X10.895 Y15.431 Z-6.807 F2500.000
G1 X11.885 Y15.431 Z-7.200 F2500.000
G1 X12.876 Y15.431 Z-7.579 F2500.000
G1 X13.866 Y15.431 Z-7.941 F2500.000
G1 X14.857 Y15.431 Z-8.280 F2500.000
G1 X15.847 Y15.431 Z-8.595 F2500.000
G1 X16.838 Y15.431 Z-8.883 F2500.000
G1 X17.828 Y15.431 Z-9.143 F2500.000
G1 X18.819 Y15.431 Z-9.371 F2500.000
G1 X19.809 Y15.431 Z-9.568 F2500.000
G1 X20.799 Y15.431 Z-9.730 F2500.000
G1 X21.790 Y15.431 Z-9.858 F2500.000
G1 X22.780 Y15.431 Z-9.950 F2500.000
G1 X23.771 Y15.431 Z-10.000 F2500.000
G1 X37.637 Y15.431 Z-10.000 F2500.000
(End of step 10.)
G0 Z3.000
G0 X-35.089 Y20.574
(Begin step 11.)
G0 X-35.089 Y20.574
(part 1)
G1 X-35.089 Y20.574 Z-10.000 F2500.000
G1 X-19.274 Y20.574 Z-9.999 F2500.000
G1 X-18.286 Y20.574 Z-9.951 F2500.000
G1 X-17.297 Y20.574 Z-9.882 F2500.000
G1 X-16.309 Y20.574 Z-9.791 F2500.000
G1 X-15.321 Y20.574 Z-9.683 F2500.000
G1 X-14.332 Y20.574 Z-9.559 F2500.000
G1 X-13.344 Y20.574 Z-9.422 F2500.000
G1 X-12.355 Y20.574 Z-9.274 F2500.000
G1 X-11.367 Y20.574 Z-9.118 F2500.000
G1 X-8.402 Y20.574 Z-8.639 F2500.000
G1 X-7.413 Y20.574 Z-8.487 F2500.000
G1 X-6.425 Y20.574 Z-8.343 F2500.000
G1 X-5.436 Y20.574 Z-8.213 F2500.000
G1 X-4.448 Y20.574 Z-8.098 F2500.000
G1 X-3.459 Y20.574 Z-8.002 F2500.000
G1 X-2.471 Y20.574 Z-7.928 F2500.000
G1 X-1.482 Y20.574 Z-7.902 F2500.000
G1 X-0.494 Y20.574 Z-8.032 F2500.000
G1 X0.494 Y20.574 Z-8.032 F2500.000
G1 X1.483 Y20.574 Z-7.902 F2500.000
G1 X2.471 Y20.574 Z-7.928 F2500.000
G1 X3.460 Y20.574 Z-8.003 F2500.000
G1 X4.448 Y20.574 Z-8.098 F2500.000
G1 X5.437 Y20.574 Z-8.213 F2500.000
G1 X6.425 Y20.574 Z-8.343 F2500.000
G1 X7.413 Y20.574 Z-8.487 F2500.000
G1 X8.402 Y20.574 Z-8.639 F2500.000
G1 X11.367 Y20.574 Z-9.118 F2500.000
G1 X12.356 Y20.574 Z-9.274 F2500.000
G1 X13.344 Y20.574 Z-9.422 F2500.000
G1 X14.333 Y20.574 Z-9.559 F2500.000
G1 X15.321 Y20.574 Z-9.683 F2500.000
G1 X16.309 Y20.574 Z-9.791 F2500.000
G1 X17.298 Y20.574 Z-9.881 F2500.000
G1 X18.286 Y20.574 Z-9.951 F2500.000
G1 X19.275 Y20.574 Z-9.999 F2500.000
G1 X35.090 Y20.574 Z-10.000 F2500.000
(End of step 11.)
G0 Z3.000
G0 X-31.514 Y25.718
(Begin step 12.)
G0 X-31.514 Y25.718
(part 1)
G1 X-31.514 Y25.718 Z-10.000 F2500.000
G1 X-11.818 Y25.718 Z-10.000 F2500.000
G1 X-10.833 Y25.718 Z-9.982 F2500.000
G1 X-9.848 Y25.718 Z-9.952 F2500.000
G1 X-5.909 Y25.718 Z-9.813 F2500.000
G1 X-3.939 Y25.718 Z-9.752 F2500.000
G1 X-2.954 Y25.718 Z-9.728 F2500.000
G1 X-1.969 Y25.718 Z-9.710 F2500.000
G1 X-0.985 Y25.718 Z-9.700 F2500.000
G1 X0.000 Y25.718 Z-9.696 F2500.000
G1 X0.985 Y25.718 Z-9.700 F2500.000
G1 X1.970 Y25.718 Z-9.710 F2500.000
G1 X2.955 Y25.718 Z-9.728 F2500.000
G1 X3.939 Y25.718 Z-9.751 F2500.000
G1 X5.909 Y25.718 Z-9.813 F2500.000
G1 X9.848 Y25.718 Z-9.952 F2500.000
G1 X10.833 Y25.718 Z-9.982 F2500.000
G1 X11.818 Y25.718 Z-10.000 F2500.000
G1 X31.515 Y25.718 Z-10.000 F2500.000
(End of step 12.)
G0 Z3.000
G0 X-26.496 Y30.861
(Begin step 13.)
G0 X-26.496 Y30.861
(part 1)
G1 X-26.496 Y30.861 Z-10.000 F2500.000
G1 X26.496 Y30.861 Z-10.000 F2500.000
(End of step 13.)
G0 Z3.000
G0 X-18.924 Y36.005
(Begin step 14.)
G0 X-18.924 Y36.005
(part 1)
G1 X-18.924 Y36.005 Z-10.000 F2500.000
G1 X18.924 Y36.005 Z-10.000 F2500.000
(End of step 14.)
(End of layer 3)
G0 Z5.000
(Finish operation: Surface001)
(Begin postamble)
M5
G17 G90
M2
