(Exported by FreeCAD)
(Post Processor: grbl_post)
(Output Time:2022-05-24 00:50:17.051739)
(Begin preamble)
G17 G90
G21
(Begin operation: 6 Z1 UP Alu Q012)
(Path: 6 Z1 UP Alu Q012)
(6 Z1 UP Alu Q012)
(Begin toolchange)
( M6 T4.0 )
M3 S8000.0
(Finish operation: 6 Z1 UP Alu Q012)
(Begin operation: Fixture)
(Path: Fixture)
G54
G0 Z20.000
(Finish operation: Fixture)
(Begin operation: Profile002)
(Path: Profile002)
(Profile002)
(Compensated Tool Path. Diameter: 6.0)
G0 Z20.000
G0 X70.051 Y70.051
G0 Z18.000
G1 X70.051 Y70.051 Z14.000 F500.000
G3 X36.123 Y82.322 Z14.000 I-30.052 J-30.052 K0.000 F320.000
G3 X43.876 Y-2.322 Z14.000 I3.877 J-42.322 K0.000 F320.000
G3 X70.051 Y70.051 Z14.000 I-3.877 J42.322 K0.000 F320.000
G1 X70.051 Y70.051 Z13.000 F500.000
G3 X36.123 Y82.322 Z13.000 I-30.052 J-30.052 K0.000 F320.000
G3 X43.876 Y-2.322 Z13.000 I3.877 J-42.322 K0.000 F320.000
G3 X70.051 Y70.051 Z13.000 I-3.877 J42.322 K0.000 F320.000
G1 X70.051 Y70.051 Z12.000 F500.000
G3 X36.123 Y82.322 Z12.000 I-30.052 J-30.052 K0.000 F320.000
G3 X43.876 Y-2.322 Z12.000 I3.877 J-42.322 K0.000 F320.000
G3 X70.051 Y70.051 Z12.000 I-3.877 J42.322 K0.000 F320.000
G1 X70.051 Y70.051 Z11.000 F500.000
G3 X36.123 Y82.322 Z11.000 I-30.052 J-30.052 K0.000 F320.000
G3 X43.876 Y-2.322 Z11.000 I3.877 J-42.322 K0.000 F320.000
G3 X70.051 Y70.051 Z11.000 I-3.877 J42.322 K0.000 F320.000
G1 X70.051 Y70.051 Z10.000 F500.000
G3 X36.123 Y82.322 Z10.000 I-30.052 J-30.052 K0.000 F320.000
G3 X43.876 Y-2.322 Z10.000 I3.877 J-42.322 K0.000 F320.000
G3 X70.051 Y70.051 Z10.000 I-3.877 J42.322 K0.000 F320.000
G1 X70.051 Y70.051 Z9.000 F500.000
G3 X36.123 Y82.322 Z9.000 I-30.052 J-30.052 K0.000 F320.000
G3 X43.876 Y-2.322 Z9.000 I3.877 J-42.322 K0.000 F320.000
G3 X70.051 Y70.051 Z9.000 I-3.877 J42.322 K0.000 F320.000
G1 X70.051 Y70.051 Z8.000 F500.000
G3 X36.123 Y82.322 Z8.000 I-30.052 J-30.052 K0.000 F320.000
G3 X43.876 Y-2.322 Z8.000 I3.877 J-42.322 K0.000 F320.000
G3 X70.051 Y70.051 Z8.000 I-3.877 J42.322 K0.000 F320.000
G1 X70.051 Y70.051 Z7.000 F500.000
G3 X36.123 Y82.322 Z7.000 I-30.052 J-30.052 K0.000 F320.000
G3 X43.876 Y-2.322 Z7.000 I3.877 J-42.322 K0.000 F320.000
G3 X70.051 Y70.051 Z7.000 I-3.877 J42.322 K0.000 F320.000
G1 X70.051 Y70.051 Z6.000 F500.000
G3 X36.123 Y82.322 Z6.000 I-30.052 J-30.052 K0.000 F320.000
G3 X43.876 Y-2.322 Z6.000 I3.877 J-42.322 K0.000 F320.000
G3 X70.051 Y70.051 Z6.000 I-3.877 J42.322 K0.000 F320.000
G1 X70.051 Y70.051 Z5.000 F500.000
G3 X36.123 Y82.322 Z5.000 I-30.052 J-30.052 K0.000 F320.000
G3 X43.876 Y-2.322 Z5.000 I3.877 J-42.322 K0.000 F320.000
G3 X70.051 Y70.051 Z5.000 I-3.877 J42.322 K0.000 F320.000
G1 X70.051 Y70.051 Z4.000 F500.000
G3 X36.123 Y82.322 Z4.000 I-30.052 J-30.052 K0.000 F320.000
G3 X43.876 Y-2.322 Z4.000 I3.877 J-42.322 K0.000 F320.000
G3 X70.051 Y70.051 Z4.000 I-3.877 J42.322 K0.000 F320.000
G1 X70.051 Y70.051 Z3.000 F500.000
G3 X36.123 Y82.322 Z3.000 I-30.052 J-30.052 K0.000 F320.000
G3 X43.876 Y-2.322 Z3.000 I3.877 J-42.322 K0.000 F320.000
G3 X70.051 Y70.051 Z3.000 I-3.877 J42.322 K0.000 F320.000
G1 X70.051 Y70.051 Z2.000 F500.000
G3 X36.123 Y82.322 Z2.000 I-30.052 J-30.052 K0.000 F320.000
G3 X43.876 Y-2.322 Z2.000 I3.877 J-42.322 K0.000 F320.000
G3 X70.051 Y70.051 Z2.000 I-3.877 J42.322 K0.000 F320.000
G1 X70.051 Y70.051 Z1.000 F500.000
G3 X36.123 Y82.322 Z1.000 I-30.052 J-30.052 K0.000 F320.000
G3 X43.876 Y-2.322 Z1.000 I3.877 J-42.322 K0.000 F320.000
G3 X70.051 Y70.051 Z1.000 I-3.877 J42.322 K0.000 F320.000
G1 X70.051 Y70.051 Z0.000 F500.000
G3 X36.123 Y82.322 Z0.000 I-30.052 J-30.052 K0.000 F320.000
G3 X43.876 Y-2.322 Z0.000 I3.877 J-42.322 K0.000 F320.000
G3 X70.051 Y70.051 Z0.000 I-3.877 J42.322 K0.000 F320.000
G0 Z20.000
G0 Z20.000
(Finish operation: Profile002)
(Begin operation: Helix010)
(Path: Helix010)
(Helix010)
(helix cut operation)
G0 Z20.000
G0 X40.450 Y40.000
G0 Z18.000
G1 Z15.000 F500.000
G2 X39.550 Y40.000 Z14.545 I-0.450 J0.000 F320.000
G2 X40.450 Y40.000 Z14.091 I0.450 J0.000 F320.000
G2 X39.550 Y40.000 Z13.636 I-0.450 J0.000 F320.000
G2 X40.450 Y40.000 Z13.182 I0.450 J0.000 F320.000
G2 X39.550 Y40.000 Z12.727 I-0.450 J0.000 F320.000
G2 X40.450 Y40.000 Z12.273 I0.450 J0.000 F320.000
G2 X39.550 Y40.000 Z11.818 I-0.450 J0.000 F320.000
G2 X40.450 Y40.000 Z11.364 I0.450 J0.000 F320.000
G2 X39.550 Y40.000 Z10.909 I-0.450 J0.000 F320.000
G2 X40.450 Y40.000 Z10.455 I0.450 J0.000 F320.000
G2 X39.550 Y40.000 Z10.000 I-0.450 J0.000 F320.000
G2 X40.450 Y40.000 Z9.545 I0.450 J0.000 F320.000
G2 X39.550 Y40.000 Z9.091 I-0.450 J0.000 F320.000
G2 X40.450 Y40.000 Z8.636 I0.450 J0.000 F320.000
G2 X39.550 Y40.000 Z8.182 I-0.450 J0.000 F320.000
G2 X40.450 Y40.000 Z7.727 I0.450 J0.000 F320.000
G2 X39.550 Y40.000 Z7.273 I-0.450 J0.000 F320.000
G2 X40.450 Y40.000 Z6.818 I0.450 J0.000 F320.000
G2 X39.550 Y40.000 Z6.364 I-0.450 J0.000 F320.000
G2 X40.450 Y40.000 Z5.909 I0.450 J0.000 F320.000
G2 X39.550 Y40.000 Z5.455 I-0.450 J0.000 F320.000
G2 X40.450 Y40.000 Z5.000 I0.450 J0.000 F320.000
G2 X39.550 Y40.000 Z5.000 I-0.450 J0.000 F320.000
G2 X40.450 Y40.000 Z5.000 I0.450 J0.000 F320.000
G0 Z18.000
G0 X41.225 Y40.000
G0 Z18.000
G1 Z15.000 F500.000
G2 X38.775 Y40.000 Z14.545 I-1.225 J0.000 F320.000
G2 X41.225 Y40.000 Z14.091 I1.225 J0.000 F320.000
G2 X38.775 Y40.000 Z13.636 I-1.225 J0.000 F320.000
G2 X41.225 Y40.000 Z13.182 I1.225 J0.000 F320.000
G2 X38.775 Y40.000 Z12.727 I-1.225 J0.000 F320.000
G2 X41.225 Y40.000 Z12.273 I1.225 J0.000 F320.000
G2 X38.775 Y40.000 Z11.818 I-1.225 J0.000 F320.000
G2 X41.225 Y40.000 Z11.364 I1.225 J0.000 F320.000
G2 X38.775 Y40.000 Z10.909 I-1.225 J0.000 F320.000
G2 X41.225 Y40.000 Z10.455 I1.225 J0.000 F320.000
G2 X38.775 Y40.000 Z10.000 I-1.225 J0.000 F320.000
G2 X41.225 Y40.000 Z9.545 I1.225 J0.000 F320.000
G2 X38.775 Y40.000 Z9.091 I-1.225 J0.000 F320.000
G2 X41.225 Y40.000 Z8.636 I1.225 J0.000 F320.000
G2 X38.775 Y40.000 Z8.182 I-1.225 J0.000 F320.000
G2 X41.225 Y40.000 Z7.727 I1.225 J0.000 F320.000
G2 X38.775 Y40.000 Z7.273 I-1.225 J0.000 F320.000
G2 X41.225 Y40.000 Z6.818 I1.225 J0.000 F320.000
G2 X38.775 Y40.000 Z6.364 I-1.225 J0.000 F320.000
G2 X41.225 Y40.000 Z5.909 I1.225 J0.000 F320.000
G2 X38.775 Y40.000 Z5.455 I-1.225 J0.000 F320.000
G2 X41.225 Y40.000 Z5.000 I1.225 J0.000 F320.000
G2 X38.775 Y40.000 Z5.000 I-1.225 J0.000 F320.000
G2 X41.225 Y40.000 Z5.000 I1.225 J0.000 F320.000
G0 Z18.000
G0 X42.000 Y40.000
G0 Z18.000
G1 Z15.000 F500.000
G2 X38.000 Y40.000 Z14.545 I-2.000 J0.000 F320.000
G2 X42.000 Y40.000 Z14.091 I2.000 J0.000 F320.000
G2 X38.000 Y40.000 Z13.636 I-2.000 J0.000 F320.000
G2 X42.000 Y40.000 Z13.182 I2.000 J0.000 F320.000
G2 X38.000 Y40.000 Z12.727 I-2.000 J0.000 F320.000
G2 X42.000 Y40.000 Z12.273 I2.000 J0.000 F320.000
G2 X38.000 Y40.000 Z11.818 I-2.000 J0.000 F320.000
G2 X42.000 Y40.000 Z11.364 I2.000 J0.000 F320.000
G2 X38.000 Y40.000 Z10.909 I-2.000 J0.000 F320.000
G2 X42.000 Y40.000 Z10.455 I2.000 J0.000 F320.000
G2 X38.000 Y40.000 Z10.000 I-2.000 J0.000 F320.000
G2 X42.000 Y40.000 Z9.545 I2.000 J0.000 F320.000
G2 X38.000 Y40.000 Z9.091 I-2.000 J0.000 F320.000
G2 X42.000 Y40.000 Z8.636 I2.000 J0.000 F320.000
G2 X38.000 Y40.000 Z8.182 I-2.000 J0.000 F320.000
G2 X42.000 Y40.000 Z7.727 I2.000 J0.000 F320.000
G2 X38.000 Y40.000 Z7.273 I-2.000 J0.000 F320.000
G2 X42.000 Y40.000 Z6.818 I2.000 J0.000 F320.000
G2 X38.000 Y40.000 Z6.364 I-2.000 J0.000 F320.000
G2 X42.000 Y40.000 Z5.909 I2.000 J0.000 F320.000
G2 X38.000 Y40.000 Z5.455 I-2.000 J0.000 F320.000
G2 X42.000 Y40.000 Z5.000 I2.000 J0.000 F320.000
G2 X38.000 Y40.000 Z5.000 I-2.000 J0.000 F320.000
G2 X42.000 Y40.000 Z5.000 I2.000 J0.000 F320.000
G0 Z18.000
G0 X42.775 Y40.000
G0 Z18.000
G1 Z15.000 F500.000
G2 X37.225 Y40.000 Z14.545 I-2.775 J0.000 F320.000
G2 X42.775 Y40.000 Z14.091 I2.775 J0.000 F320.000
G2 X37.225 Y40.000 Z13.636 I-2.775 J0.000 F320.000
G2 X42.775 Y40.000 Z13.182 I2.775 J0.000 F320.000
G2 X37.225 Y40.000 Z12.727 I-2.775 J0.000 F320.000
G2 X42.775 Y40.000 Z12.273 I2.775 J0.000 F320.000
G2 X37.225 Y40.000 Z11.818 I-2.775 J0.000 F320.000
G2 X42.775 Y40.000 Z11.364 I2.775 J0.000 F320.000
G2 X37.225 Y40.000 Z10.909 I-2.775 J0.000 F320.000
G2 X42.775 Y40.000 Z10.455 I2.775 J0.000 F320.000
G2 X37.225 Y40.000 Z10.000 I-2.775 J0.000 F320.000
G2 X42.775 Y40.000 Z9.545 I2.775 J0.000 F320.000
G2 X37.225 Y40.000 Z9.091 I-2.775 J0.000 F320.000
G2 X42.775 Y40.000 Z8.636 I2.775 J0.000 F320.000
G2 X37.225 Y40.000 Z8.182 I-2.775 J0.000 F320.000
G2 X42.775 Y40.000 Z7.727 I2.775 J0.000 F320.000
G2 X37.225 Y40.000 Z7.273 I-2.775 J0.000 F320.000
G2 X42.775 Y40.000 Z6.818 I2.775 J0.000 F320.000
G2 X37.225 Y40.000 Z6.364 I-2.775 J0.000 F320.000
G2 X42.775 Y40.000 Z5.909 I2.775 J0.000 F320.000
G2 X37.225 Y40.000 Z5.455 I-2.775 J0.000 F320.000
G2 X42.775 Y40.000 Z5.000 I2.775 J0.000 F320.000
G2 X37.225 Y40.000 Z5.000 I-2.775 J0.000 F320.000
G2 X42.775 Y40.000 Z5.000 I2.775 J0.000 F320.000
G0 Z18.000
G0 X43.550 Y40.000
G0 Z18.000
G1 Z15.000 F500.000
G2 X36.450 Y40.000 Z14.545 I-3.550 J0.000 F320.000
G2 X43.550 Y40.000 Z14.091 I3.550 J0.000 F320.000
G2 X36.450 Y40.000 Z13.636 I-3.550 J0.000 F320.000
G2 X43.550 Y40.000 Z13.182 I3.550 J0.000 F320.000
G2 X36.450 Y40.000 Z12.727 I-3.550 J0.000 F320.000
G2 X43.550 Y40.000 Z12.273 I3.550 J0.000 F320.000
G2 X36.450 Y40.000 Z11.818 I-3.550 J0.000 F320.000
G2 X43.550 Y40.000 Z11.364 I3.550 J0.000 F320.000
G2 X36.450 Y40.000 Z10.909 I-3.550 J0.000 F320.000
G2 X43.550 Y40.000 Z10.455 I3.550 J0.000 F320.000
G2 X36.450 Y40.000 Z10.000 I-3.550 J0.000 F320.000
G2 X43.550 Y40.000 Z9.545 I3.550 J0.000 F320.000
G2 X36.450 Y40.000 Z9.091 I-3.550 J0.000 F320.000
G2 X43.550 Y40.000 Z8.636 I3.550 J0.000 F320.000
G2 X36.450 Y40.000 Z8.182 I-3.550 J0.000 F320.000
G2 X43.550 Y40.000 Z7.727 I3.550 J0.000 F320.000
G2 X36.450 Y40.000 Z7.273 I-3.550 J0.000 F320.000
G2 X43.550 Y40.000 Z6.818 I3.550 J0.000 F320.000
G2 X36.450 Y40.000 Z6.364 I-3.550 J0.000 F320.000
G2 X43.550 Y40.000 Z5.909 I3.550 J0.000 F320.000
G2 X36.450 Y40.000 Z5.455 I-3.550 J0.000 F320.000
G2 X43.550 Y40.000 Z5.000 I3.550 J0.000 F320.000
G2 X36.450 Y40.000 Z5.000 I-3.550 J0.000 F320.000
G2 X43.550 Y40.000 Z5.000 I3.550 J0.000 F320.000
G0 Z18.000
G0 X44.325 Y40.000
G0 Z18.000
G1 Z15.000 F500.000
G2 X35.675 Y40.000 Z14.545 I-4.325 J0.000 F320.000
G2 X44.325 Y40.000 Z14.091 I4.325 J0.000 F320.000
G2 X35.675 Y40.000 Z13.636 I-4.325 J0.000 F320.000
G2 X44.325 Y40.000 Z13.182 I4.325 J0.000 F320.000
G2 X35.675 Y40.000 Z12.727 I-4.325 J0.000 F320.000
G2 X44.325 Y40.000 Z12.273 I4.325 J0.000 F320.000
G2 X35.675 Y40.000 Z11.818 I-4.325 J0.000 F320.000
G2 X44.325 Y40.000 Z11.364 I4.325 J0.000 F320.000
G2 X35.675 Y40.000 Z10.909 I-4.325 J0.000 F320.000
G2 X44.325 Y40.000 Z10.455 I4.325 J0.000 F320.000
G2 X35.675 Y40.000 Z10.000 I-4.325 J0.000 F320.000
G2 X44.325 Y40.000 Z9.545 I4.325 J0.000 F320.000
G2 X35.675 Y40.000 Z9.091 I-4.325 J0.000 F320.000
G2 X44.325 Y40.000 Z8.636 I4.325 J0.000 F320.000
G2 X35.675 Y40.000 Z8.182 I-4.325 J0.000 F320.000
G2 X44.325 Y40.000 Z7.727 I4.325 J0.000 F320.000
G2 X35.675 Y40.000 Z7.273 I-4.325 J0.000 F320.000
G2 X44.325 Y40.000 Z6.818 I4.325 J0.000 F320.000
G2 X35.675 Y40.000 Z6.364 I-4.325 J0.000 F320.000
G2 X44.325 Y40.000 Z5.909 I4.325 J0.000 F320.000
G2 X35.675 Y40.000 Z5.455 I-4.325 J0.000 F320.000
G2 X44.325 Y40.000 Z5.000 I4.325 J0.000 F320.000
G2 X35.675 Y40.000 Z5.000 I-4.325 J0.000 F320.000
G2 X44.325 Y40.000 Z5.000 I4.325 J0.000 F320.000
G0 Z18.000
G0 X45.100 Y40.000
G0 Z18.000
G1 Z15.000 F500.000
G2 X34.900 Y40.000 Z14.545 I-5.100 J0.000 F320.000
G2 X45.100 Y40.000 Z14.091 I5.100 J0.000 F320.000
G2 X34.900 Y40.000 Z13.636 I-5.100 J0.000 F320.000
G2 X45.100 Y40.000 Z13.182 I5.100 J0.000 F320.000
G2 X34.900 Y40.000 Z12.727 I-5.100 J0.000 F320.000
G2 X45.100 Y40.000 Z12.273 I5.100 J0.000 F320.000
G2 X34.900 Y40.000 Z11.818 I-5.100 J0.000 F320.000
G2 X45.100 Y40.000 Z11.364 I5.100 J0.000 F320.000
G2 X34.900 Y40.000 Z10.909 I-5.100 J0.000 F320.000
G2 X45.100 Y40.000 Z10.455 I5.100 J0.000 F320.000
G2 X34.900 Y40.000 Z10.000 I-5.100 J0.000 F320.000
G2 X45.100 Y40.000 Z9.545 I5.100 J0.000 F320.000
G2 X34.900 Y40.000 Z9.091 I-5.100 J0.000 F320.000
G2 X45.100 Y40.000 Z8.636 I5.100 J0.000 F320.000
G2 X34.900 Y40.000 Z8.182 I-5.100 J0.000 F320.000
G2 X45.100 Y40.000 Z7.727 I5.100 J0.000 F320.000
G2 X34.900 Y40.000 Z7.273 I-5.100 J0.000 F320.000
G2 X45.100 Y40.000 Z6.818 I5.100 J0.000 F320.000
G2 X34.900 Y40.000 Z6.364 I-5.100 J0.000 F320.000
G2 X45.100 Y40.000 Z5.909 I5.100 J0.000 F320.000
G2 X34.900 Y40.000 Z5.455 I-5.100 J0.000 F320.000
G2 X45.100 Y40.000 Z5.000 I5.100 J0.000 F320.000
G2 X34.900 Y40.000 Z5.000 I-5.100 J0.000 F320.000
G2 X45.100 Y40.000 Z5.000 I5.100 J0.000 F320.000
G0 Z18.000
G0 Z20.000
(Finish operation: Helix010)
(Begin operation: Surface006)
(Path: Surface006)
(Surface006)
(Surface006)
(Tool type: endmill)
(Compensated Tool Path. Diameter: 6.0)
(Sample interval: 1.0)
(Step over %: 40.0)
()
G0 Z20.000
(Beginning of Single-pass layer.)
G0 X44.800 Y39.970
(Begin step 0.)
(part 1.)
G1 X44.800 Y39.970 Z5.000 F320.000
G1 X44.695 Y39.005 Z5.000 F320.000
G1 X44.399 Y38.081 Z5.000 F320.000
G1 X43.924 Y37.236 Z5.000 F320.000
G1 X43.288 Y36.503 Z5.000 F320.000
G1 X42.517 Y35.913 Z5.000 F320.000
G1 X41.644 Y35.490 Z5.000 F320.000
G1 X40.704 Y35.252 Z5.000 F320.000
G1 X39.734 Y35.207 Z5.000 F320.000
G1 X38.776 Y35.359 Z5.000 F320.000
G1 X37.867 Y35.699 Z5.000 F320.000
G1 X37.046 Y36.216 Z5.000 F320.000
G1 X36.346 Y36.887 Z5.000 F320.000
G1 X35.794 Y37.686 Z5.000 F320.000
G1 X35.415 Y38.579 Z5.000 F320.000
G1 X35.223 Y39.530 Z5.000 F320.000
G1 X35.226 Y40.500 Z5.000 F320.000
G1 X35.424 Y41.450 Z5.000 F320.000
G1 X35.809 Y42.340 Z5.000 F320.000
G1 X36.365 Y43.135 Z5.000 F320.000
G1 X37.070 Y43.802 Z5.000 F320.000
G1 X37.894 Y44.314 Z5.000 F320.000
G1 X38.805 Y44.649 Z5.000 F320.000
G1 X39.764 Y44.794 Z5.000 F320.000
G1 X40.733 Y44.744 Z5.000 F320.000
G1 X41.672 Y44.499 Z5.000 F320.000
G1 X42.543 Y44.071 Z5.000 F320.000
G1 X43.309 Y43.476 Z5.000 F320.000
G1 X43.941 Y42.740 Z5.000 F320.000
G1 X44.411 Y41.891 Z5.000 F320.000
G1 X44.702 Y40.965 Z5.000 F320.000
G1 X44.800 Y40.000 Z5.000 F320.000
G1 X44.800 Y39.970 Z5.000 F320.000
(End of step 0.)
(Begin step 1.)
G0 Z18.000
G0 X47.200 Y39.970
G0 Z18.000
(part 1.)
G1 X47.200 Y39.970 Z15.000 F320.000
G1 X47.129 Y38.990 Z15.000 F320.000
G1 X46.925 Y38.030 Z15.000 F320.000
G1 X46.592 Y37.106 Z15.000 F320.000
G1 X46.137 Y36.236 Z15.000 F320.000
G1 X45.568 Y35.435 Z15.000 F320.000
G1 X44.895 Y34.720 Z15.000 F320.000
G1 X44.131 Y34.103 Z15.000 F320.000
G1 X43.290 Y33.596 Z15.000 F320.000
G1 X42.388 Y33.208 Z15.000 F320.000
G1 X41.442 Y32.946 Z15.000 F320.000
G1 X40.468 Y32.815 Z15.000 F320.000
G1 X39.486 Y32.818 Z15.000 F320.000
G1 X38.514 Y32.955 Z15.000 F320.000
G1 X37.569 Y33.223 Z15.000 F320.000
G1 X36.669 Y33.616 Z15.000 F320.000
G1 X35.832 Y34.129 Z15.000 F320.000
G1 X35.071 Y34.751 Z15.000 F320.000
G1 X34.403 Y35.470 Z15.000 F320.000
G1 X33.839 Y36.274 Z15.000 F320.000
G1 X33.389 Y37.147 Z15.000 F320.000
G1 X33.062 Y38.073 Z15.000 F320.000
G1 X32.865 Y39.035 Z15.000 F320.000
G1 X32.800 Y40.015 Z15.000 F320.000
G1 X32.869 Y40.995 Z15.000 F320.000
G1 X33.070 Y41.956 Z15.000 F320.000
G1 X33.401 Y42.880 Z15.000 F320.000
G1 X33.854 Y43.751 Z15.000 F320.000
G1 X34.422 Y44.553 Z15.000 F320.000
G1 X35.093 Y45.269 Z15.000 F320.000
G1 X35.856 Y45.888 Z15.000 F320.000
G1 X36.696 Y46.397 Z15.000 F320.000
G1 X37.597 Y46.787 Z15.000 F320.000
G1 X38.543 Y47.051 Z15.000 F320.000
G1 X39.516 Y47.184 Z15.000 F320.000
G1 X40.498 Y47.183 Z15.000 F320.000
G1 X41.471 Y47.048 Z15.000 F320.000
G1 X42.416 Y46.782 Z15.000 F320.000
G1 X43.317 Y46.390 Z15.000 F320.000
G1 X44.155 Y45.879 Z15.000 F320.000
G1 X44.917 Y45.259 Z15.000 F320.000
G1 X45.587 Y44.541 Z15.000 F320.000
G1 X46.153 Y43.739 Z15.000 F320.000
G1 X46.604 Y42.867 Z15.000 F320.000
G1 X46.933 Y41.941 Z15.000 F320.000
G1 X47.133 Y40.980 Z15.000 F320.000
G1 X47.200 Y40.000 Z15.000 F320.000
G1 X47.200 Y39.970 Z15.000 F320.000
(End of step 1.)
(Begin step 2.)
G1 X48.000 Y39.970 Z15.000 F320.000
G1 X48.800 Y39.970 Z15.000 F320.000
G1 X49.600 Y39.970 Z15.000 F320.000
(part 1.)
G1 X49.600 Y39.970 Z15.000 F320.000
G1 X49.546 Y38.983 Z15.000 F320.000
G1 X49.391 Y38.008 Z15.000 F320.000
G1 X49.136 Y37.053 Z15.000 F320.000
G1 X48.785 Y36.130 Z15.000 F320.000
G1 X48.341 Y35.247 Z15.000 F320.000
G1 X47.808 Y34.415 Z15.000 F320.000
G1 X47.193 Y33.643 Z15.000 F320.000
G1 X46.501 Y32.937 Z15.000 F320.000
G1 X45.741 Y32.306 Z15.000 F320.000
G1 X44.920 Y31.757 Z15.000 F320.000
G1 X44.047 Y31.295 Z15.000 F320.000
G1 X43.131 Y30.925 Z15.000 F320.000
G1 X42.182 Y30.651 Z15.000 F320.000
G1 X41.209 Y30.476 Z15.000 F320.000
G1 X40.224 Y30.403 Z15.000 F320.000
G1 X39.237 Y30.430 Z15.000 F320.000
G1 X38.257 Y30.559 Z15.000 F320.000
G1 X37.296 Y30.788 Z15.000 F320.000
G1 X36.364 Y31.115 Z15.000 F320.000
G1 X35.470 Y31.536 Z15.000 F320.000
G1 X34.624 Y32.046 Z15.000 F320.000
G1 X33.835 Y32.641 Z15.000 F320.000
G1 X33.112 Y33.313 Z15.000 F320.000
G1 X32.461 Y34.056 Z15.000 F320.000
G1 X31.890 Y34.863 Z15.000 F320.000
G1 X31.405 Y35.723 Z15.000 F320.000
G1 X31.011 Y36.629 Z15.000 F320.000
G1 X30.712 Y37.571 Z15.000 F320.000
G1 X30.512 Y38.538 Z15.000 F320.000
G1 X30.412 Y39.521 Z15.000 F320.000
G1 X30.413 Y40.509 Z15.000 F320.000
G1 X30.516 Y41.491 Z15.000 F320.000
G1 X30.720 Y42.458 Z15.000 F320.000
G1 X31.021 Y43.399 Z15.000 F320.000
G1 X31.418 Y44.303 Z15.000 F320.000
G1 X31.906 Y45.163 Z15.000 F320.000
G1 X32.479 Y45.967 Z15.000 F320.000
G1 X33.132 Y46.708 Z15.000 F320.000
G1 X33.858 Y47.378 Z15.000 F320.000
G1 X34.649 Y47.971 Z15.000 F320.000
G1 X35.497 Y48.478 Z15.000 F320.000
G1 X36.392 Y48.896 Z15.000 F320.000
G1 X37.325 Y49.220 Z15.000 F320.000
G1 X38.287 Y49.446 Z15.000 F320.000
G1 X39.267 Y49.572 Z15.000 F320.000
G1 X40.254 Y49.597 Z15.000 F320.000
G1 X41.239 Y49.520 Z15.000 F320.000
G1 X42.211 Y49.342 Z15.000 F320.000
G1 X43.159 Y49.065 Z15.000 F320.000
G1 X44.074 Y48.692 Z15.000 F320.000
G1 X44.946 Y48.228 Z15.000 F320.000
G1 X45.765 Y47.676 Z15.000 F320.000
G1 X46.524 Y47.043 Z15.000 F320.000
G1 X47.213 Y46.335 Z15.000 F320.000
G1 X47.826 Y45.560 Z15.000 F320.000
G1 X48.356 Y44.726 Z15.000 F320.000
G1 X48.797 Y43.842 Z15.000 F320.000
G1 X49.145 Y42.918 Z15.000 F320.000
G1 X49.397 Y41.963 Z15.000 F320.000
G1 X49.549 Y40.986 Z15.000 F320.000
G1 X49.600 Y40.000 Z15.000 F320.000
G1 X49.600 Y39.970 Z15.000 F320.000
(End of step 2.)
(Begin step 3.)
G1 X50.400 Y39.970 Z15.000 F320.000
G1 X51.200 Y39.970 Z15.000 F320.000
G1 X52.000 Y39.970 Z15.000 F320.000
(part 1.)
G1 X52.000 Y39.970 Z15.000 F320.000
G1 X51.956 Y38.979 Z15.000 F320.000
G1 X51.831 Y37.996 Z15.000 F320.000
G1 X51.625 Y37.026 Z15.000 F320.000
G1 X51.340 Y36.077 Z15.000 F320.000
G1 X50.978 Y35.154 Z15.000 F320.000
G1 X50.540 Y34.264 Z15.000 F320.000
G1 X50.031 Y33.414 Z15.000 F320.000
G1 X49.453 Y32.608 Z15.000 F320.000
G1 X48.810 Y31.853 Z15.000 F320.000
G1 X48.108 Y31.154 Z15.000 F320.000
G1 X47.350 Y30.514 Z15.000 F320.000
G1 X46.542 Y29.940 Z15.000 F320.000
G1 X45.689 Y29.434 Z15.000 F320.000
G1 X44.798 Y29.001 Z15.000 F320.000
G1 X43.873 Y28.642 Z15.000 F320.000
G1 X42.922 Y28.361 Z15.000 F320.000
G1 X41.952 Y28.160 Z15.000 F320.000
G1 X40.968 Y28.039 Z15.000 F320.000
G1 X39.977 Y28.000 Z15.000 F320.000
G1 X38.987 Y28.043 Z15.000 F320.000
G1 X38.003 Y28.167 Z15.000 F320.000
G1 X37.033 Y28.372 Z15.000 F320.000
G1 X36.083 Y28.657 Z15.000 F320.000
G1 X35.160 Y29.019 Z15.000 F320.000
G1 X34.271 Y29.456 Z15.000 F320.000
G1 X33.420 Y29.965 Z15.000 F320.000
G1 X32.614 Y30.542 Z15.000 F320.000
G1 X31.858 Y31.184 Z15.000 F320.000
G1 X31.158 Y31.886 Z15.000 F320.000
G1 X30.519 Y32.644 Z15.000 F320.000
G1 X29.944 Y33.451 Z15.000 F320.000
G1 X29.438 Y34.304 Z15.000 F320.000
G1 X29.004 Y35.195 Z15.000 F320.000
G1 X28.644 Y36.119 Z15.000 F320.000
G1 X28.363 Y37.070 Z15.000 F320.000
G1 X28.161 Y38.040 Z15.000 F320.000
G1 X28.039 Y39.024 Z15.000 F320.000
G1 X28.000 Y40.015 Z15.000 F320.000
G1 X28.042 Y41.005 Z15.000 F320.000
G1 X28.166 Y41.989 Z15.000 F320.000
G1 X28.370 Y42.959 Z15.000 F320.000
G1 X28.654 Y43.909 Z15.000 F320.000
G1 X29.016 Y44.832 Z15.000 F320.000
G1 X29.452 Y45.722 Z15.000 F320.000
G1 X29.960 Y46.574 Z15.000 F320.000
G1 X30.537 Y47.380 Z15.000 F320.000
G1 X31.179 Y48.136 Z15.000 F320.000
G1 X31.880 Y48.836 Z15.000 F320.000
G1 X32.637 Y49.476 Z15.000 F320.000
G1 X33.445 Y50.052 Z15.000 F320.000
G1 X34.297 Y50.558 Z15.000 F320.000
G1 X35.188 Y50.993 Z15.000 F320.000
G1 X36.112 Y51.353 Z15.000 F320.000
G1 X37.062 Y51.635 Z15.000 F320.000
G1 X38.033 Y51.838 Z15.000 F320.000
G1 X39.017 Y51.960 Z15.000 F320.000
G1 X40.007 Y52.000 Z15.000 F320.000
G1 X40.998 Y51.958 Z15.000 F320.000
G1 X41.981 Y51.835 Z15.000 F320.000
G1 X42.952 Y51.631 Z15.000 F320.000
G1 X43.902 Y51.348 Z15.000 F320.000
G1 X44.825 Y50.987 Z15.000 F320.000
G1 X45.715 Y50.551 Z15.000 F320.000
G1 X46.567 Y50.043 Z15.000 F320.000
G1 X47.374 Y49.467 Z15.000 F320.000
G1 X48.130 Y48.826 Z15.000 F320.000
G1 X48.831 Y48.125 Z15.000 F320.000
G1 X49.471 Y47.368 Z15.000 F320.000
G1 X50.047 Y46.561 Z15.000 F320.000
G1 X50.554 Y45.709 Z15.000 F320.000
G1 X50.990 Y44.818 Z15.000 F320.000
G1 X51.350 Y43.895 Z15.000 F320.000
G1 X51.633 Y42.945 Z15.000 F320.000
G1 X51.836 Y41.974 Z15.000 F320.000
G1 X51.959 Y40.990 Z15.000 F320.000
G1 X52.000 Y40.000 Z15.000 F320.000
G1 X52.000 Y39.970 Z15.000 F320.000
(End of step 3.)
(Begin step 4.)
G1 X52.800 Y39.970 Z14.603 F320.000
G1 X53.600 Y39.970 Z13.172 F320.000
G1 X54.400 Y39.970 Z11.998 F320.000
(part 1.)
G1 X54.400 Y39.970 Z11.998 F320.000
G1 X54.363 Y38.977 Z12.691 F320.000
G1 X54.258 Y37.989 Z12.969 F320.000
G1 X54.086 Y37.010 Z12.977 F320.000
G1 X53.846 Y36.046 Z12.977 F320.000
G1 X53.540 Y35.100 Z12.978 F320.000
G1 X53.170 Y34.178 Z12.977 F320.000
G1 X52.737 Y33.283 Z12.978 F320.000
G1 X52.244 Y32.421 Z12.977 F320.000
G1 X51.692 Y31.594 Z12.977 F320.000
G1 X51.084 Y30.808 Z12.977 F320.000
G1 X50.424 Y30.065 Z12.977 F320.000
G1 X49.714 Y29.370 Z12.977 F320.000
G1 X48.958 Y28.726 Z12.976 F320.000
G1 X48.159 Y28.135 Z12.741 F320.000
G1 X47.321 Y27.600 Z12.099 F320.000
G1 X46.448 Y27.125 Z12.603 F320.000
G1 X45.545 Y26.711 Z12.949 F320.000
G1 X44.615 Y26.360 Z12.977 F320.000
G1 X43.664 Y26.074 Z12.977 F320.000
G1 X42.694 Y25.854 Z12.977 F320.000
G1 X41.712 Y25.702 Z12.977 F320.000
G1 X40.722 Y25.618 Z12.977 F320.000
G1 X39.729 Y25.602 Z12.977 F320.000
G1 X38.736 Y25.655 Z12.977 F320.000
G1 X37.750 Y25.777 Z12.977 F320.000
G1 X36.774 Y25.966 Z12.978 F320.000
G1 X35.814 Y26.222 Z12.977 F320.000
G1 X34.874 Y26.543 Z12.977 F320.000
G1 X33.958 Y26.929 Z12.809 F320.000
G1 X33.071 Y27.376 Z12.242 F320.000
G1 X32.217 Y27.884 Z12.503 F320.000
G1 X31.400 Y28.450 Z12.918 F320.000
G1 X30.624 Y29.071 Z12.978 F320.000
G1 X29.892 Y29.743 Z12.977 F320.000
G1 X29.209 Y30.465 Z12.978 F320.000
G1 X28.577 Y31.232 Z12.977 F320.000
G1 X27.999 Y32.040 Z12.977 F320.000
G1 X27.479 Y32.887 Z12.977 F320.000
G1 X27.018 Y33.767 Z12.977 F320.000
G1 X26.619 Y34.678 Z12.977 F320.000
G1 X26.284 Y35.613 Z12.977 F320.000
G1 X26.014 Y36.569 Z12.977 F320.000
G1 X25.811 Y37.542 Z12.977 F320.000
G1 X25.675 Y38.527 Z12.866 F320.000
G1 X25.608 Y39.518 Z12.370 F320.000
G1 X25.609 Y40.512 Z12.391 F320.000
G1 X25.678 Y41.503 Z12.874 F320.000
G1 X25.816 Y42.487 Z12.977 F320.000
G1 X26.021 Y43.459 Z12.977 F320.000
G1 X26.293 Y44.415 Z12.977 F320.000
G1 X26.630 Y45.350 Z12.977 F320.000
G1 X27.031 Y46.259 Z12.977 F320.000
G1 X27.494 Y47.139 Z12.977 F320.000
G1 X28.016 Y47.984 Z12.977 F320.000
G1 X28.595 Y48.792 Z12.978 F320.000
G1 X29.229 Y49.558 Z12.977 F320.000
G1 X29.914 Y50.278 Z12.978 F320.000
G1 X30.646 Y50.949 Z12.977 F320.000
G1 X31.424 Y51.568 Z12.911 F320.000
G1 X32.242 Y52.132 Z12.485 F320.000
G1 X33.097 Y52.638 Z12.265 F320.000
G1 X33.985 Y53.084 Z12.820 F320.000
G1 X34.902 Y53.467 Z12.977 F320.000
G1 X35.843 Y53.787 Z12.978 F320.000
G1 X36.804 Y54.041 Z12.977 F320.000
G1 X37.780 Y54.228 Z12.978 F320.000
G1 X38.766 Y54.347 Z12.977 F320.000
G1 X39.759 Y54.398 Z12.977 F320.000
G1 X40.752 Y54.380 Z12.977 F320.000
G1 X41.742 Y54.294 Z12.977 F320.000
G1 X42.724 Y54.140 Z12.977 F320.000
G1 X43.693 Y53.918 Z12.977 F320.000
G1 X44.644 Y53.630 Z12.977 F320.000
G1 X45.573 Y53.278 Z12.944 F320.000
G1 X46.475 Y52.862 Z12.586 F320.000
G1 X47.347 Y52.384 Z12.125 F320.000
G1 X48.184 Y51.848 Z12.754 F320.000
G1 X48.981 Y51.256 Z12.977 F320.000
G1 X49.736 Y50.609 Z12.977 F320.000
G1 X50.445 Y49.913 Z12.977 F320.000
G1 X51.103 Y49.169 Z12.977 F320.000
G1 X51.709 Y48.381 Z12.977 F320.000
G1 X52.259 Y47.553 Z12.977 F320.000
G1 X52.751 Y46.690 Z12.977 F320.000
G1 X53.182 Y45.794 Z12.978 F320.000
G1 X53.551 Y44.872 Z12.977 F320.000
G1 X53.854 Y43.925 Z12.977 F320.000
G1 X54.092 Y42.960 Z12.977 F320.000
G1 X54.263 Y41.981 Z12.966 F320.000
G1 X54.365 Y40.993 Z12.676 F320.000
G1 X54.400 Y40.000 Z11.969 F320.000
G1 X54.400 Y39.970 Z11.998 F320.000
(End of step 4.)
(Begin step 5.)
G1 X55.200 Y39.970 Z11.001 F320.000
G1 X56.000 Y39.970 Z10.137 F320.000
G1 X56.800 Y39.970 Z9.379 F320.000
(part 1.)
G1 X56.800 Y39.970 Z9.379 F320.000
G1 X56.768 Y38.975 Z9.826 F320.000
G1 X56.678 Y37.984 Z9.989 F320.000
G1 X56.530 Y36.999 Z9.991 F320.000
G1 X56.323 Y36.026 Z9.991 F320.000
G1 X56.059 Y35.066 Z9.991 F320.000
G1 X55.738 Y34.124 Z9.990 F320.000
G1 X55.363 Y33.202 Z9.990 F320.000
G1 X54.933 Y32.304 Z9.990 F320.000
G1 X54.451 Y31.433 Z9.991 F320.000
G1 X53.918 Y30.592 Z9.991 F320.000
G1 X53.337 Y29.784 Z9.991 F320.000
G1 X52.708 Y29.012 Z9.990 F320.000
G1 X52.035 Y28.279 Z9.990 F320.000
G1 X51.320 Y27.587 Z9.990 F320.000
G1 X50.565 Y26.938 Z9.991 F320.000
G1 X49.773 Y26.335 Z9.957 F320.000
G1 X48.947 Y25.780 Z9.690 F320.000
G1 X48.089 Y25.276 Z9.562 F320.000
G1 X47.202 Y24.822 Z9.909 F320.000
G1 X46.291 Y24.422 Z9.990 F320.000
G1 X45.357 Y24.077 Z9.990 F320.000
G1 X44.405 Y23.788 Z9.990 F320.000
G1 X43.437 Y23.555 Z9.991 F320.000
G1 X42.457 Y23.381 Z9.991 F320.000
G1 X41.469 Y23.264 Z9.991 F320.000
G1 X40.475 Y23.207 Z9.990 F320.000
G1 X39.479 Y23.208 Z9.990 F320.000
G1 X38.486 Y23.268 Z9.990 F320.000
G1 X37.498 Y23.387 Z9.991 F320.000
G1 X36.518 Y23.565 Z9.991 F320.000
G1 X35.551 Y23.800 Z9.990 F320.000
G1 X34.599 Y24.092 Z9.990 F320.000
G1 X33.667 Y24.439 Z9.990 F320.000
G1 X32.756 Y24.842 Z9.899 F320.000
G1 X31.871 Y25.297 Z9.539 F320.000
G1 X31.015 Y25.804 Z9.708 F320.000
G1 X30.190 Y26.362 Z9.963 F320.000
G1 X29.399 Y26.966 Z9.991 F320.000
G1 X28.646 Y27.617 Z9.990 F320.000
G1 X27.932 Y28.311 Z9.991 F320.000
G1 X27.261 Y29.046 Z9.991 F320.000
G1 X26.635 Y29.820 Z9.990 F320.000
G1 X26.056 Y30.629 Z9.990 F320.000
G1 X25.525 Y31.472 Z9.990 F320.000
G1 X25.046 Y32.344 Z9.991 F320.000
G1 X24.618 Y33.243 Z9.991 F320.000
G1 X24.245 Y34.166 Z9.991 F320.000
G1 X23.927 Y35.109 Z9.990 F320.000
G1 X23.666 Y36.070 Z9.990 F320.000
G1 X23.462 Y37.044 Z9.990 F320.000
G1 X23.316 Y38.028 Z9.987 F320.000
G1 X23.228 Y39.020 Z9.813 F320.000
G1 X23.200 Y40.015 Z9.370 F320.000
G1 X23.230 Y41.010 Z9.822 F320.000
G1 X23.319 Y42.001 Z9.989 F320.000
G1 X23.467 Y42.986 Z9.991 F320.000
G1 X23.673 Y43.959 Z9.991 F320.000
G1 X23.936 Y44.919 Z9.991 F320.000
G1 X24.256 Y45.862 Z9.990 F320.000
G1 X24.630 Y46.784 Z9.990 F320.000
G1 X25.059 Y47.683 Z9.990 F320.000
G1 X25.540 Y48.554 Z9.991 F320.000
G1 X26.072 Y49.395 Z9.991 F320.000
G1 X26.653 Y50.204 Z9.991 F320.000
G1 X27.281 Y50.976 Z9.990 F320.000
G1 X27.953 Y51.710 Z9.990 F320.000
G1 X28.668 Y52.403 Z9.990 F320.000
G1 X29.422 Y53.052 Z9.991 F320.000
G1 X30.214 Y53.656 Z9.959 F320.000
G1 X31.040 Y54.211 Z9.696 F320.000
G1 X31.897 Y54.717 Z9.555 F320.000
G1 X32.783 Y55.171 Z9.906 F320.000
G1 X33.694 Y55.572 Z9.991 F320.000
G1 X34.628 Y55.918 Z9.991 F320.000
G1 X35.580 Y56.208 Z9.990 F320.000
G1 X36.547 Y56.441 Z9.990 F320.000
G1 X37.527 Y56.617 Z9.990 F320.000
G1 X38.516 Y56.734 Z9.990 F320.000
G1 X39.509 Y56.793 Z9.991 F320.000
G1 X40.505 Y56.792 Z9.991 F320.000
G1 X41.498 Y56.733 Z9.990 F320.000
G1 X42.487 Y56.615 Z9.990 F320.000
G1 X43.466 Y56.438 Z9.990 F320.000
G1 X44.434 Y56.204 Z9.990 F320.000
G1 X45.386 Y55.913 Z9.991 F320.000
G1 X46.319 Y55.566 Z9.991 F320.000
G1 X47.230 Y55.165 Z9.903 F320.000
G1 X48.115 Y54.710 Z9.547 F320.000
G1 X48.972 Y54.203 Z9.702 F320.000
G1 X49.797 Y53.647 Z9.961 F320.000
G1 X50.588 Y53.043 Z9.990 F320.000
G1 X51.342 Y52.393 Z9.991 F320.000
G1 X52.056 Y51.699 Z9.991 F320.000
G1 X52.728 Y50.965 Z9.991 F320.000
G1 X53.355 Y50.192 Z9.990 F320.000
G1 X53.935 Y49.383 Z9.990 F320.000
G1 X54.466 Y48.541 Z9.990 F320.000
G1 X54.947 Y47.669 Z9.991 F320.000
G1 X55.375 Y46.771 Z9.991 F320.000
G1 X55.749 Y45.848 Z9.991 F320.000
G1 X56.068 Y44.905 Z9.990 F320.000
G1 X56.330 Y43.945 Z9.990 F320.000
G1 X56.535 Y42.971 Z9.990 F320.000
G1 X56.682 Y41.986 Z9.988 F320.000
G1 X56.770 Y40.995 Z9.817 F320.000
G1 X56.800 Y40.000 Z9.360 F320.000
G1 X56.800 Y39.970 Z9.379 F320.000
(End of step 5.)
(Begin step 6.)
G1 X57.600 Y39.970 Z8.710 F320.000
G1 X58.400 Y39.970 Z8.117 F320.000
G1 X59.200 Y39.970 Z7.591 F320.000
(part 1.)
G1 X59.200 Y39.970 Z7.591 F320.000
G1 X59.172 Y38.974 Z7.900 F320.000
G1 X59.093 Y37.980 Z8.004 F320.000
G1 X58.963 Y36.992 Z8.004 F320.000
G1 X58.781 Y36.012 Z8.005 F320.000
G1 X58.549 Y35.043 Z8.004 F320.000
G1 X58.266 Y34.087 Z8.005 F320.000
G1 X57.935 Y33.147 Z8.005 F320.000
G1 X57.555 Y32.226 Z8.004 F320.000
G1 X57.128 Y31.325 Z8.005 F320.000
G1 X56.655 Y30.448 Z8.005 F320.000
G1 X56.137 Y29.597 Z8.004 F320.000
G1 X55.575 Y28.773 Z8.005 F320.000
G1 X54.972 Y27.980 Z8.004 F320.000
G1 X54.328 Y27.219 Z8.004 F320.000
G1 X53.645 Y26.493 Z8.005 F320.000
G1 X52.926 Y25.803 Z8.004 F320.000
G1 X52.172 Y25.152 Z8.004 F320.000
G1 X51.385 Y24.540 Z8.005 F320.000
G1 X50.568 Y23.970 Z7.921 F320.000
G1 X49.722 Y23.443 Z7.638 F320.000
G1 X48.849 Y22.961 Z7.863 F320.000
G1 X47.953 Y22.525 Z8.000 F320.000
G1 X47.036 Y22.136 Z8.005 F320.000
G1 X46.099 Y21.795 Z8.004 F320.000
G1 X45.146 Y21.503 Z8.005 F320.000
G1 X44.180 Y21.260 Z8.004 F320.000
G1 X43.202 Y21.069 Z8.004 F320.000
G1 X42.215 Y20.928 Z8.005 F320.000
G1 X41.222 Y20.839 Z8.004 F320.000
G1 X40.226 Y20.801 Z8.004 F320.000
G1 X39.230 Y20.815 Z8.005 F320.000
G1 X38.235 Y20.881 Z8.004 F320.000
G1 X37.246 Y20.998 Z8.004 F320.000
G1 X36.263 Y21.167 Z8.005 F320.000
G1 X35.291 Y21.386 Z8.004 F320.000
G1 X34.332 Y21.656 Z8.005 F320.000
G1 X33.387 Y21.974 Z8.005 F320.000
G1 X32.461 Y22.342 Z8.004 F320.000
G1 X31.555 Y22.757 Z7.949 F320.000
G1 X30.671 Y23.218 Z7.703 F320.000
G1 X29.813 Y23.725 Z7.819 F320.000
G1 X28.982 Y24.275 Z7.990 F320.000
G1 X28.181 Y24.868 Z8.005 F320.000
G1 X27.412 Y25.502 Z8.004 F320.000
G1 X26.677 Y26.175 Z8.005 F320.000
G1 X25.977 Y26.885 Z8.005 F320.000
G1 X25.315 Y27.630 Z8.004 F320.000
G1 X24.693 Y28.409 Z8.005 F320.000
G1 X24.112 Y29.219 Z8.005 F320.000
G1 X23.574 Y30.057 Z8.004 F320.000
G1 X23.081 Y30.923 Z8.005 F320.000
G1 X22.632 Y31.813 Z8.004 F320.000
G1 X22.231 Y32.726 Z8.004 F320.000
G1 X21.877 Y33.657 Z8.005 F320.000
G1 X21.573 Y34.606 Z8.004 F320.000
G1 X21.318 Y35.570 Z8.004 F320.000
G1 X21.113 Y36.545 Z8.005 F320.000
G1 X20.959 Y37.530 Z8.004 F320.000
G1 X20.857 Y38.521 Z7.971 F320.000
G1 X20.806 Y39.517 Z7.760 F320.000
G1 X20.806 Y40.513 Z7.770 F320.000
G1 X20.859 Y41.508 Z7.974 F320.000
G1 X20.963 Y42.500 Z8.004 F320.000
G1 X21.118 Y43.484 Z8.005 F320.000
G1 X21.325 Y44.459 Z8.005 F320.000
G1 X21.581 Y45.422 Z8.005 F320.000
G1 X21.887 Y46.371 Z8.004 F320.000
G1 X22.242 Y47.302 Z8.005 F320.000
G1 X22.645 Y48.214 Z8.005 F320.000
G1 X23.095 Y49.103 Z8.004 F320.000
G1 X23.590 Y49.968 Z8.005 F320.000
G1 X24.129 Y50.806 Z8.005 F320.000
G1 X24.711 Y51.615 Z8.004 F320.000
G1 X25.335 Y52.393 Z8.005 F320.000
G1 X25.998 Y53.137 Z8.004 F320.000
G1 X26.698 Y53.846 Z8.004 F320.000
G1 X27.435 Y54.517 Z8.005 F320.000
G1 X28.205 Y55.150 Z8.004 F320.000
G1 X29.007 Y55.742 Z7.987 F320.000
G1 X29.838 Y56.291 Z7.811 F320.000
G1 X30.698 Y56.796 Z7.713 F320.000
G1 X31.582 Y57.256 Z7.953 F320.000
G1 X32.488 Y57.670 Z8.005 F320.000
G1 X33.415 Y58.036 Z8.004 F320.000
G1 X34.360 Y58.353 Z8.004 F320.000
G1 X35.320 Y58.621 Z8.005 F320.000
G1 X36.293 Y58.839 Z8.004 F320.000
G1 X37.275 Y59.006 Z8.004 F320.000
G1 X38.265 Y59.121 Z8.005 F320.000
G1 X39.260 Y59.186 Z8.004 F320.000
G1 X40.256 Y59.198 Z8.005 F320.000
G1 X41.252 Y59.159 Z8.005 F320.000
G1 X42.245 Y59.068 Z8.004 F320.000
G1 X43.231 Y58.926 Z8.005 F320.000
G1 X44.209 Y58.733 Z8.004 F320.000
G1 X45.175 Y58.489 Z8.004 F320.000
G1 X46.128 Y58.196 Z8.005 F320.000
G1 X47.064 Y57.853 Z8.004 F320.000
G1 X47.981 Y57.463 Z7.999 F320.000
G1 X48.876 Y57.025 Z7.855 F320.000
G1 X49.747 Y56.541 Z7.650 F320.000
G1 X50.593 Y56.013 Z7.926 F320.000
G1 X51.409 Y55.442 Z8.005 F320.000
G1 X52.195 Y54.829 Z8.005 F320.000
G1 X52.948 Y54.176 Z8.005 F320.000
G1 X53.667 Y53.485 Z8.004 F320.000
G1 X54.348 Y52.758 Z8.005 F320.000
G1 X54.991 Y51.996 Z8.005 F320.000
G1 X55.593 Y51.202 Z8.004 F320.000
G1 X56.153 Y50.378 Z8.005 F320.000
G1 X56.670 Y49.526 Z8.005 F320.000
G1 X57.142 Y48.648 Z8.004 F320.000
G1 X57.567 Y47.747 Z8.005 F320.000
G1 X57.946 Y46.825 Z8.004 F320.000
G1 X58.276 Y45.884 Z8.004 F320.000
G1 X58.556 Y44.928 Z8.005 F320.000
G1 X58.787 Y43.958 Z8.004 F320.000
G1 X58.967 Y42.978 Z8.004 F320.000
G1 X59.096 Y41.990 Z8.004 F320.000
G1 X59.174 Y40.996 Z7.894 F320.000
G1 X59.200 Y40.000 Z7.578 F320.000
G1 X59.200 Y39.970 Z7.591 F320.000
(End of step 6.)
(Begin step 7.)
G1 X60.000 Y39.970 Z7.125 F320.000
G1 X60.800 Y39.970 Z6.714 F320.000
G1 X61.600 Y39.970 Z6.354 F320.000
(part 1.)
G1 X61.600 Y39.970 Z6.354 F320.000
G1 X61.575 Y38.973 Z6.563 F320.000
G1 X61.505 Y37.977 Z6.631 F320.000
G1 X61.388 Y36.987 Z6.631 F320.000
G1 X61.226 Y36.002 Z6.631 F320.000
G1 X61.019 Y35.026 Z6.631 F320.000
G1 X60.767 Y34.061 Z6.631 F320.000
G1 X60.471 Y33.109 Z6.631 F320.000
G1 X60.131 Y32.171 Z6.631 F320.000
G1 X59.748 Y31.250 Z6.631 F320.000
G1 X59.323 Y30.347 Z6.631 F320.000
G1 X58.856 Y29.465 Z6.631 F320.000
G1 X58.350 Y28.606 Z6.631 F320.000
G1 X57.804 Y27.771 Z6.631 F320.000
G1 X57.221 Y26.962 Z6.631 F320.000
G1 X56.600 Y26.180 Z6.631 F320.000
G1 X55.944 Y25.429 Z6.631 F320.000
G1 X55.255 Y24.708 Z6.631 F320.000
G1 X54.532 Y24.020 Z6.631 F320.000
G1 X53.779 Y23.366 Z6.631 F320.000
G1 X52.996 Y22.747 Z6.631 F320.000
G1 X52.186 Y22.166 Z6.620 F320.000
G1 X51.349 Y21.622 Z6.500 F320.000
G1 X50.488 Y21.118 Z6.440 F320.000
G1 X49.605 Y20.653 Z6.600 F320.000
G1 X48.702 Y20.230 Z6.631 F320.000
G1 X47.780 Y19.850 Z6.631 F320.000
G1 X46.841 Y19.512 Z6.631 F320.000
G1 X45.888 Y19.218 Z6.631 F320.000
G1 X44.922 Y18.968 Z6.631 F320.000
G1 X43.946 Y18.763 Z6.631 F320.000
G1 X42.961 Y18.604 Z6.631 F320.000
G1 X41.970 Y18.490 Z6.631 F320.000
G1 X40.974 Y18.422 Z6.631 F320.000
G1 X39.977 Y18.400 Z6.631 F320.000
G1 X38.980 Y18.424 Z6.631 F320.000
G1 X37.985 Y18.494 Z6.631 F320.000
G1 X36.994 Y18.610 Z6.631 F320.000
G1 X36.009 Y18.772 Z6.631 F320.000
G1 X35.033 Y18.979 Z6.631 F320.000
G1 X34.068 Y19.230 Z6.631 F320.000
G1 X33.115 Y19.526 Z6.631 F320.000
G1 X32.177 Y19.866 Z6.631 F320.000
G1 X31.256 Y20.249 Z6.631 F320.000
G1 X30.354 Y20.673 Z6.596 F320.000
G1 X29.471 Y21.139 Z6.429 F320.000
G1 X28.612 Y21.646 Z6.509 F320.000
G1 X27.776 Y22.191 Z6.623 F320.000
G1 X26.967 Y22.774 Z6.631 F320.000
G1 X26.186 Y23.395 Z6.631 F320.000
G1 X25.434 Y24.050 Z6.631 F320.000
G1 X24.713 Y24.740 Z6.631 F320.000
G1 X24.025 Y25.462 Z6.631 F320.000
G1 X23.370 Y26.215 Z6.631 F320.000
G1 X22.752 Y26.997 Z6.631 F320.000
G1 X22.170 Y27.808 Z6.631 F320.000
G1 X21.626 Y28.644 Z6.631 F320.000
G1 X21.121 Y29.504 Z6.631 F320.000
G1 X20.656 Y30.387 Z6.631 F320.000
G1 X20.233 Y31.291 Z6.631 F320.000
G1 X19.852 Y32.213 Z6.631 F320.000
G1 X19.514 Y33.151 Z6.631 F320.000
G1 X19.220 Y34.104 Z6.631 F320.000
G1 X18.970 Y35.070 Z6.631 F320.000
G1 X18.764 Y36.047 Z6.631 F320.000
G1 X18.605 Y37.031 Z6.631 F320.000
G1 X18.490 Y38.022 Z6.631 F320.000
G1 X18.422 Y39.018 Z6.557 F320.000
G1 X18.400 Y40.015 Z6.349 F320.000
G1 X18.423 Y41.012 Z6.561 F320.000
G1 X18.493 Y42.007 Z6.631 F320.000
G1 X18.609 Y42.998 Z6.631 F320.000
G1 X18.770 Y43.983 Z6.631 F320.000
G1 X18.977 Y44.959 Z6.631 F320.000
G1 X19.228 Y45.924 Z6.631 F320.000
G1 X19.524 Y46.877 Z6.631 F320.000
G1 X19.863 Y47.815 Z6.631 F320.000
G1 X20.245 Y48.737 Z6.631 F320.000
G1 X20.670 Y49.639 Z6.631 F320.000
G1 X21.135 Y50.522 Z6.631 F320.000
G1 X21.641 Y51.381 Z6.631 F320.000
G1 X22.187 Y52.217 Z6.631 F320.000
G1 X22.770 Y53.026 Z6.631 F320.000
G1 X23.389 Y53.808 Z6.631 F320.000
G1 X24.045 Y54.560 Z6.631 F320.000
G1 X24.734 Y55.281 Z6.631 F320.000
G1 X25.456 Y55.970 Z6.631 F320.000
G1 X26.209 Y56.624 Z6.631 F320.000
G1 X26.991 Y57.243 Z6.631 F320.000
G1 X27.801 Y57.826 Z6.621 F320.000
G1 X28.637 Y58.370 Z6.503 F320.000
G1 X29.498 Y58.875 Z6.437 F320.000
G1 X30.380 Y59.340 Z6.599 F320.000
G1 X31.284 Y59.763 Z6.631 F320.000
G1 X32.205 Y60.145 Z6.631 F320.000
G1 X33.144 Y60.483 Z6.631 F320.000
G1 X34.097 Y60.778 Z6.631 F320.000
G1 X35.063 Y61.028 Z6.631 F320.000
G1 X36.039 Y61.234 Z6.631 F320.000
G1 X37.024 Y61.394 Z6.631 F320.000
G1 X38.015 Y61.508 Z6.631 F320.000
G1 X39.010 Y61.577 Z6.631 F320.000
G1 X40.007 Y61.600 Z6.631 F320.000
G1 X41.004 Y61.577 Z6.631 F320.000
G1 X42.000 Y61.507 Z6.631 F320.000
G1 X42.991 Y61.392 Z6.631 F320.000
G1 X43.975 Y61.231 Z6.631 F320.000
G1 X44.951 Y61.025 Z6.631 F320.000
G1 X45.917 Y60.774 Z6.631 F320.000
G1 X46.870 Y60.478 Z6.631 F320.000
G1 X47.808 Y60.139 Z6.631 F320.000
G1 X48.729 Y59.757 Z6.631 F320.000
G1 X49.632 Y59.333 Z6.597 F320.000
G1 X50.515 Y58.868 Z6.433 F320.000
G1 X51.375 Y58.362 Z6.506 F320.000
G1 X52.210 Y57.817 Z6.622 F320.000
G1 X53.020 Y57.234 Z6.631 F320.000
G1 X53.802 Y56.615 Z6.631 F320.000
G1 X54.554 Y55.960 Z6.631 F320.000
G1 X55.276 Y55.271 Z6.631 F320.000
G1 X55.965 Y54.549 Z6.631 F320.000
G1 X56.619 Y53.796 Z6.631 F320.000
G1 X57.239 Y53.014 Z6.631 F320.000
G1 X57.821 Y52.204 Z6.631 F320.000
G1 X58.366 Y51.369 Z6.631 F320.000
G1 X58.871 Y50.508 Z6.631 F320.000
G1 X59.336 Y49.626 Z6.631 F320.000
G1 X59.760 Y48.723 Z6.631 F320.000
G1 X60.142 Y47.801 Z6.631 F320.000
G1 X60.480 Y46.863 Z6.631 F320.000
G1 X60.775 Y45.910 Z6.631 F320.000
G1 X61.026 Y44.944 Z6.631 F320.000
G1 X61.232 Y43.968 Z6.631 F320.000
G1 X61.393 Y42.983 Z6.631 F320.000
G1 X61.508 Y41.992 Z6.631 F320.000
G1 X61.577 Y40.997 Z6.559 F320.000
G1 X61.600 Y40.000 Z6.345 F320.000
G1 X61.600 Y39.970 Z6.354 F320.000
(End of step 7.)
(Begin step 8.)
G1 X62.400 Y39.970 Z6.040 F320.000
G1 X63.200 Y39.970 Z5.771 F320.000
G1 X64.000 Y39.970 Z5.545 F320.000
(part 1.)
G1 X64.000 Y39.970 Z5.545 F320.000
G1 X63.978 Y38.972 Z5.675 F320.000
G1 X63.914 Y37.975 Z5.715 F320.000
G1 X63.809 Y36.983 Z5.715 F320.000
G1 X63.663 Y35.995 Z5.715 F320.000
G1 X63.476 Y35.014 Z5.715 F320.000
G1 X63.248 Y34.042 Z5.715 F320.000
G1 X62.980 Y33.080 Z5.715 F320.000
G1 X62.673 Y32.131 Z5.715 F320.000
G1 X62.326 Y31.194 Z5.715 F320.000
G1 X61.940 Y30.273 Z5.715 F320.000
G1 X61.517 Y29.369 Z5.715 F320.000
G1 X61.056 Y28.484 Z5.715 F320.000
G1 X60.559 Y27.618 Z5.715 F320.000
G1 X60.026 Y26.774 Z5.715 F320.000
G1 X59.459 Y25.952 Z5.715 F320.000
G1 X58.858 Y25.155 Z5.715 F320.000
G1 X58.224 Y24.383 Z5.715 F320.000
G1 X57.559 Y23.639 Z5.715 F320.000
G1 X56.863 Y22.923 Z5.715 F320.000
G1 X56.138 Y22.236 Z5.715 F320.000
G1 X55.385 Y21.580 Z5.715 F320.000
G1 X54.606 Y20.956 Z5.715 F320.000
G1 X53.801 Y20.365 Z5.715 F320.000
G1 X52.973 Y19.808 Z5.683 F320.000
G1 X52.122 Y19.286 Z5.564 F320.000
G1 X51.250 Y18.800 Z5.659 F320.000
G1 X50.358 Y18.351 Z5.714 F320.000
G1 X49.449 Y17.938 Z5.715 F320.000
G1 X48.523 Y17.565 Z5.715 F320.000
G1 X47.583 Y17.229 Z5.715 F320.000
G1 X46.629 Y16.934 Z5.715 F320.000
G1 X45.664 Y16.678 Z5.715 F320.000
G1 X44.689 Y16.463 Z5.715 F320.000
G1 X43.706 Y16.288 Z5.715 F320.000
G1 X42.717 Y16.154 Z5.715 F320.000
G1 X41.723 Y16.062 Z5.715 F320.000
G1 X40.726 Y16.011 Z5.715 F320.000
G1 X39.728 Y16.001 Z5.715 F320.000
G1 X38.730 Y16.034 Z5.715 F320.000
G1 X37.734 Y16.107 Z5.715 F320.000
G1 X36.742 Y16.222 Z5.715 F320.000
G1 X35.756 Y16.378 Z5.715 F320.000
G1 X34.777 Y16.575 Z5.715 F320.000
G1 X33.808 Y16.812 Z5.715 F320.000
G1 X32.849 Y17.090 Z5.715 F320.000
G1 X31.902 Y17.407 Z5.715 F320.000
G1 X30.969 Y17.764 Z5.715 F320.000
G1 X30.052 Y18.158 Z5.715 F320.000
G1 X29.153 Y18.591 Z5.695 F320.000
G1 X28.272 Y19.061 Z5.592 F320.000
G1 X27.411 Y19.567 Z5.641 F320.000
G1 X26.572 Y20.108 Z5.711 F320.000
G1 X25.756 Y20.683 Z5.715 F320.000
G1 X24.965 Y21.293 Z5.715 F320.000
G1 X24.200 Y21.934 Z5.715 F320.000
G1 X23.462 Y22.607 Z5.715 F320.000
G1 X22.753 Y23.310 Z5.715 F320.000
G1 X22.074 Y24.041 Z5.715 F320.000
G1 X21.426 Y24.801 Z5.715 F320.000
G1 X20.810 Y25.586 Z5.715 F320.000
G1 X20.227 Y26.397 Z5.715 F320.000
G1 X19.678 Y27.231 Z5.715 F320.000
G1 X19.165 Y28.087 Z5.715 F320.000
G1 X18.687 Y28.964 Z5.715 F320.000
G1 X18.247 Y29.860 Z5.715 F320.000
G1 X17.844 Y30.773 Z5.715 F320.000
G1 X17.479 Y31.703 Z5.715 F320.000
G1 X17.154 Y32.647 Z5.715 F320.000
G1 X16.868 Y33.603 Z5.715 F320.000
G1 X16.622 Y34.571 Z5.715 F320.000
G1 X16.416 Y35.548 Z5.715 F320.000
G1 X16.251 Y36.532 Z5.715 F320.000
G1 X16.128 Y37.523 Z5.715 F320.000
G1 X16.045 Y38.518 Z5.704 F320.000
G1 X16.005 Y39.516 Z5.616 F320.000
G1 X16.005 Y40.514 Z5.620 F320.000
G1 X16.047 Y41.512 Z5.705 F320.000
G1 X16.131 Y42.506 Z5.715 F320.000
G1 X16.256 Y43.497 Z5.715 F320.000
G1 X16.422 Y44.481 Z5.715 F320.000
G1 X16.629 Y45.458 Z5.715 F320.000
G1 X16.876 Y46.425 Z5.715 F320.000
G1 X17.163 Y47.382 Z5.715 F320.000
G1 X17.490 Y48.325 Z5.715 F320.000
G1 X17.856 Y49.254 Z5.715 F320.000
G1 X18.260 Y50.167 Z5.715 F320.000
G1 X18.701 Y51.062 Z5.715 F320.000
G1 X19.180 Y51.939 Z5.715 F320.000
G1 X19.694 Y52.794 Z5.715 F320.000
G1 X20.244 Y53.628 Z5.715 F320.000
G1 X20.828 Y54.437 Z5.715 F320.000
G1 X21.445 Y55.222 Z5.715 F320.000
G1 X22.094 Y55.981 Z5.715 F320.000
G1 X22.774 Y56.712 Z5.715 F320.000
G1 X23.484 Y57.414 Z5.715 F320.000
G1 X24.223 Y58.085 Z5.715 F320.000
G1 X24.989 Y58.726 Z5.715 F320.000
G1 X25.780 Y59.334 Z5.715 F320.000
G1 X26.597 Y59.909 Z5.710 F320.000
G1 X27.436 Y60.449 Z5.637 F320.000
G1 X28.298 Y60.954 Z5.596 F320.000
G1 X29.179 Y61.422 Z5.697 F320.000
G1 X30.080 Y61.854 Z5.715 F320.000
G1 X30.997 Y62.247 Z5.715 F320.000
G1 X31.930 Y62.603 Z5.715 F320.000
G1 X32.877 Y62.919 Z5.715 F320.000
G1 X33.837 Y63.195 Z5.715 F320.000
G1 X34.807 Y63.431 Z5.715 F320.000
G1 X35.786 Y63.627 Z5.715 F320.000
G1 X36.772 Y63.782 Z5.715 F320.000
G1 X37.764 Y63.896 Z5.715 F320.000
G1 X38.760 Y63.968 Z5.715 F320.000
G1 X39.758 Y63.999 Z5.715 F320.000
G1 X40.756 Y63.988 Z5.715 F320.000
G1 X41.753 Y63.936 Z5.715 F320.000
G1 X42.747 Y63.842 Z5.715 F320.000
G1 X43.736 Y63.707 Z5.715 F320.000
G1 X44.719 Y63.531 Z5.715 F320.000
G1 X45.693 Y63.315 Z5.715 F320.000
G1 X46.658 Y63.058 Z5.715 F320.000
G1 X47.611 Y62.761 Z5.715 F320.000
G1 X48.551 Y62.425 Z5.715 F320.000
G1 X49.477 Y62.050 Z5.715 F320.000
G1 X50.386 Y61.636 Z5.714 F320.000
G1 X51.276 Y61.186 Z5.656 F320.000
G1 X52.148 Y60.698 Z5.569 F320.000
G1 X52.998 Y60.175 Z5.686 F320.000
G1 X53.826 Y59.617 Z5.715 F320.000
G1 X54.630 Y59.025 Z5.715 F320.000
G1 X55.408 Y58.400 Z5.715 F320.000
G1 X56.160 Y57.743 Z5.715 F320.000
G1 X56.884 Y57.056 Z5.715 F320.000
G1 X57.579 Y56.339 Z5.715 F320.000
G1 X58.243 Y55.594 Z5.715 F320.000
G1 X58.876 Y54.821 Z5.715 F320.000
G1 X59.476 Y54.023 Z5.715 F320.000
G1 X60.043 Y53.201 Z5.715 F320.000
G1 X60.574 Y52.356 Z5.715 F320.000
G1 X61.070 Y51.490 Z5.715 F320.000
G1 X61.530 Y50.604 Z5.715 F320.000
G1 X61.953 Y49.699 Z5.715 F320.000
G1 X62.337 Y48.777 Z5.715 F320.000
G1 X62.683 Y47.841 Z5.715 F320.000
G1 X62.989 Y46.891 Z5.715 F320.000
G1 X63.256 Y45.929 Z5.715 F320.000
G1 X63.482 Y44.956 Z5.715 F320.000
G1 X63.668 Y43.975 Z5.715 F320.000
G1 X63.813 Y42.987 Z5.715 F320.000
G1 X63.917 Y41.995 Z5.715 F320.000
G1 X63.979 Y40.998 Z5.672 F320.000
G1 X64.000 Y40.000 Z5.540 F320.000
G1 X64.000 Y39.970 Z5.545 F320.000
(End of step 8.)
(Begin step 9.)
G1 X64.800 Y39.970 Z5.359 F320.000
G1 X65.600 Y39.970 Z5.213 F320.000
G1 X66.400 Y39.970 Z5.105 F320.000
(part 1.)
G1 X66.400 Y39.970 Z5.105 F320.000
G1 X66.380 Y38.971 Z5.165 F320.000
G1 X66.322 Y37.974 Z5.184 F320.000
G1 X66.226 Y36.979 Z5.184 F320.000
G1 X66.093 Y35.989 Z5.184 F320.000
G1 X65.923 Y35.005 Z5.184 F320.000
G1 X65.715 Y34.028 Z5.184 F320.000
G1 X65.471 Y33.059 Z5.184 F320.000
G1 X65.190 Y32.100 Z5.184 F320.000
G1 X64.873 Y31.153 Z5.184 F320.000
G1 X64.521 Y30.218 Z5.184 F320.000
G1 X64.133 Y29.297 Z5.184 F320.000
G1 X63.711 Y28.392 Z5.184 F320.000
G1 X63.255 Y27.503 Z5.184 F320.000
G1 X62.765 Y26.632 Z5.184 F320.000
G1 X62.243 Y25.780 Z5.184 F320.000
G1 X61.689 Y24.949 Z5.184 F320.000
G1 X61.104 Y24.139 Z5.184 F320.000
G1 X60.489 Y23.352 Z5.184 F320.000
G1 X59.844 Y22.589 Z5.184 F320.000
G1 X59.171 Y21.850 Z5.184 F320.000
G1 X58.471 Y21.138 Z5.184 F320.000
G1 X57.744 Y20.453 Z5.184 F320.000
G1 X56.992 Y19.795 Z5.184 F320.000
G1 X56.215 Y19.167 Z5.184 F320.000
G1 X55.416 Y18.568 Z5.184 F320.000
G1 X54.594 Y18.000 Z5.181 F320.000
G1 X53.751 Y17.464 Z5.146 F320.000
G1 X52.888 Y16.960 Z5.129 F320.000
G1 X52.007 Y16.489 Z5.176 F320.000
G1 X51.109 Y16.051 Z5.184 F320.000
G1 X50.195 Y15.648 Z5.184 F320.000
G1 X49.267 Y15.280 Z5.184 F320.000
G1 X48.325 Y14.947 Z5.184 F320.000
G1 X47.371 Y14.650 Z5.184 F320.000
G1 X46.406 Y14.389 Z5.184 F320.000
G1 X45.433 Y14.165 Z5.184 F320.000
G1 X44.452 Y13.978 Z5.184 F320.000
G1 X43.464 Y13.828 Z5.184 F320.000
G1 X42.471 Y13.716 Z5.184 F320.000
G1 X41.475 Y13.641 Z5.184 F320.000
G1 X40.477 Y13.604 Z5.184 F320.000
G1 X39.478 Y13.605 Z5.184 F320.000
G1 X38.479 Y13.644 Z5.184 F320.000
G1 X37.483 Y13.720 Z5.184 F320.000
G1 X36.491 Y13.834 Z5.184 F320.000
G1 X35.503 Y13.986 Z5.184 F320.000
G1 X34.522 Y14.174 Z5.184 F320.000
G1 X33.549 Y14.400 Z5.184 F320.000
G1 X32.585 Y14.662 Z5.184 F320.000
G1 X31.632 Y14.961 Z5.184 F320.000
G1 X30.691 Y15.296 Z5.184 F320.000
G1 X29.762 Y15.666 Z5.184 F320.000
G1 X28.849 Y16.070 Z5.184 F320.000
G1 X27.952 Y16.509 Z5.174 F320.000
G1 X27.072 Y16.982 Z5.126 F320.000
G1 X26.210 Y17.488 Z5.149 F320.000
G1 X25.368 Y18.025 Z5.182 F320.000
G1 X24.547 Y18.595 Z5.184 F320.000
G1 X23.748 Y19.195 Z5.184 F320.000
G1 X22.973 Y19.824 Z5.184 F320.000
G1 X22.222 Y20.483 Z5.184 F320.000
G1 X21.496 Y21.170 Z5.184 F320.000
G1 X20.797 Y21.883 Z5.184 F320.000
G1 X20.125 Y22.623 Z5.184 F320.000
G1 X19.482 Y23.387 Z5.184 F320.000
G1 X18.868 Y24.175 Z5.184 F320.000
G1 X18.285 Y24.986 Z5.184 F320.000
G1 X17.732 Y25.818 Z5.184 F320.000
G1 X17.211 Y26.671 Z5.184 F320.000
G1 X16.723 Y27.543 Z5.184 F320.000
G1 X16.269 Y28.432 Z5.184 F320.000
G1 X15.848 Y29.338 Z5.184 F320.000
G1 X15.462 Y30.260 Z5.184 F320.000
G1 X15.111 Y31.195 Z5.184 F320.000
G1 X14.796 Y32.143 Z5.184 F320.000
G1 X14.517 Y33.102 Z5.184 F320.000
G1 X14.274 Y34.071 Z5.184 F320.000
G1 X14.068 Y35.049 Z5.184 F320.000
G1 X13.899 Y36.034 Z5.184 F320.000
G1 X13.768 Y37.024 Z5.184 F320.000
G1 X13.674 Y38.019 Z5.184 F320.000
G1 X13.618 Y39.016 Z5.163 F320.000
G1 X13.600 Y40.015 Z5.104 F320.000
G1 X13.619 Y41.014 Z5.164 F320.000
G1 X13.676 Y42.011 Z5.184 F320.000
G1 X13.771 Y43.006 Z5.184 F320.000
G1 X13.904 Y43.996 Z5.184 F320.000
G1 X14.074 Y44.980 Z5.183 F320.000
G1 X14.281 Y45.958 Z5.184 F320.000
G1 X14.524 Y46.926 Z5.184 F320.000
G1 X14.805 Y47.885 Z5.184 F320.000
G1 X15.121 Y48.833 Z5.184 F320.000
G1 X15.473 Y49.768 Z5.184 F320.000
G1 X15.860 Y50.689 Z5.184 F320.000
G1 X16.282 Y51.594 Z5.184 F320.000
G1 X16.738 Y52.483 Z5.184 F320.000
G1 X17.227 Y53.355 Z5.184 F320.000
G1 X17.748 Y54.207 Z5.184 F320.000
G1 X18.302 Y55.038 Z5.184 F320.000
G1 X18.886 Y55.849 Z5.184 F320.000
G1 X19.501 Y56.636 Z5.184 F320.000
G1 X20.145 Y57.400 Z5.184 F320.000
G1 X20.817 Y58.138 Z5.184 F320.000
G1 X21.517 Y58.851 Z5.184 F320.000
G1 X22.244 Y59.537 Z5.184 F320.000
G1 X22.996 Y60.195 Z5.184 F320.000
G1 X23.772 Y60.824 Z5.184 F320.000
G1 X24.572 Y61.423 Z5.184 F320.000
G1 X25.393 Y61.991 Z5.181 F320.000
G1 X26.236 Y62.528 Z5.147 F320.000
G1 X27.098 Y63.033 Z5.128 F320.000
G1 X27.978 Y63.504 Z5.175 F320.000
G1 X28.876 Y63.942 Z5.184 F320.000
G1 X29.790 Y64.346 Z5.184 F320.000
G1 X30.719 Y64.715 Z5.184 F320.000
G1 X31.660 Y65.048 Z5.184 F320.000
G1 X32.614 Y65.346 Z5.184 F320.000
G1 X33.578 Y65.607 Z5.184 F320.000
G1 X34.552 Y65.832 Z5.184 F320.000
G1 X35.533 Y66.019 Z5.184 F320.000
G1 X36.521 Y66.170 Z5.184 F320.000
G1 X37.513 Y66.283 Z5.184 F320.000
G1 X38.509 Y66.358 Z5.184 F320.000
G1 X39.508 Y66.395 Z5.184 F320.000
G1 X40.507 Y66.395 Z5.184 F320.000
G1 X41.505 Y66.357 Z5.184 F320.000
G1 X42.501 Y66.281 Z5.184 F320.000
G1 X43.494 Y66.168 Z5.184 F320.000
G1 X44.481 Y66.017 Z5.184 F320.000
G1 X45.462 Y65.829 Z5.184 F320.000
G1 X46.436 Y65.603 Z5.184 F320.000
G1 X47.400 Y65.342 Z5.184 F320.000
G1 X48.353 Y65.043 Z5.184 F320.000
G1 X49.295 Y64.709 Z5.184 F320.000
G1 X50.223 Y64.340 Z5.184 F320.000
G1 X51.136 Y63.936 Z5.184 F320.000
G1 X52.034 Y63.497 Z5.175 F320.000
G1 X52.915 Y63.025 Z5.127 F320.000
G1 X53.776 Y62.520 Z5.148 F320.000
G1 X54.619 Y61.983 Z5.182 F320.000
G1 X55.440 Y61.414 Z5.184 F320.000
G1 X56.239 Y60.814 Z5.184 F320.000
G1 X57.015 Y60.185 Z5.184 F320.000
G1 X57.766 Y59.527 Z5.184 F320.000
G1 X58.492 Y58.841 Z5.184 F320.000
G1 X59.192 Y58.128 Z5.184 F320.000
G1 X59.864 Y57.388 Z5.184 F320.000
G1 X60.508 Y56.624 Z5.184 F320.000
G1 X61.122 Y55.837 Z5.184 F320.000
G1 X61.706 Y55.026 Z5.184 F320.000
G1 X62.259 Y54.194 Z5.184 F320.000
G1 X62.780 Y53.342 Z5.184 F320.000
G1 X63.269 Y52.470 Z5.184 F320.000
G1 X63.724 Y51.581 Z5.184 F320.000
G1 X64.145 Y50.675 Z5.184 F320.000
G1 X64.532 Y49.754 Z5.184 F320.000
G1 X64.883 Y48.819 Z5.184 F320.000
G1 X65.199 Y47.871 Z5.184 F320.000
G1 X65.479 Y46.912 Z5.184 F320.000
G1 X65.722 Y45.943 Z5.184 F320.000
G1 X65.928 Y44.966 Z5.184 F320.000
G1 X66.098 Y43.981 Z5.184 F320.000
G1 X66.230 Y42.991 Z5.184 F320.000
G1 X66.324 Y41.996 Z5.184 F320.000
G1 X66.381 Y40.999 Z5.163 F320.000
G1 X66.400 Y40.000 Z5.103 F320.000
G1 X66.400 Y39.970 Z5.105 F320.000
(End of step 9.)
(Begin step 10.)
G1 X67.200 Y39.970 Z5.035 F320.000
G1 X68.000 Y39.970 Z5.024 F320.000
G1 X68.800 Y39.970 Z5.001 F320.000
(part 1.)
G1 X68.800 Y39.970 Z5.001 F320.000
G1 X68.781 Y38.971 Z5.001 F320.000
G1 X68.728 Y37.972 Z5.000 F320.000
G1 X68.641 Y36.977 Z5.000 F320.000
G1 X68.518 Y35.985 Z5.000 F320.000
G1 X68.362 Y34.997 Z5.000 F320.000
G1 X68.171 Y34.016 Z5.000 F320.000
G1 X67.947 Y33.042 Z5.000 F320.000
G1 X67.688 Y32.077 Z5.000 F320.000
G1 X67.397 Y31.121 Z5.000 F320.000
G1 X67.072 Y30.175 Z5.000 F320.000
G1 X66.715 Y29.242 Z5.000 F320.000
G1 X66.325 Y28.321 Z5.000 F320.000
G1 X65.904 Y27.415 Z5.000 F320.000
G1 X65.452 Y26.523 Z5.000 F320.000
G1 X64.969 Y25.648 Z5.000 F320.000
G1 X64.456 Y24.790 Z5.000 F320.000
G1 X63.913 Y23.951 Z5.000 F320.000
G1 X63.342 Y23.131 Z5.000 F320.000
G1 X62.743 Y22.331 Z5.000 F320.000
G1 X62.116 Y21.552 Z5.000 F320.000
G1 X61.462 Y20.796 Z5.000 F320.000
G1 X60.783 Y20.063 Z5.000 F320.000
G1 X60.079 Y19.354 Z5.000 F320.000
G1 X59.350 Y18.669 Z5.000 F320.000
G1 X58.598 Y18.011 Z5.000 F320.000
G1 X57.824 Y17.378 Z5.000 F320.000
G1 X57.028 Y16.774 Z5.000 F320.000
G1 X56.212 Y16.197 Z5.000 F320.000
G1 X55.376 Y15.648 Z5.000 F320.000
G1 X54.522 Y15.129 Z5.001 F320.000
G1 X53.650 Y14.641 Z5.001 F320.000
G1 X52.762 Y14.182 Z5.000 F320.000
G1 X51.858 Y13.755 Z5.000 F320.000
G1 X50.941 Y13.359 Z5.000 F320.000
G1 X50.010 Y12.995 Z5.000 F320.000
G1 X49.066 Y12.664 Z5.000 F320.000
G1 X48.112 Y12.366 Z5.000 F320.000
G1 X47.149 Y12.101 Z5.000 F320.000
G1 X46.176 Y11.870 Z5.000 F320.000
G1 X45.196 Y11.673 Z5.000 F320.000
G1 X44.210 Y11.509 Z5.000 F320.000
G1 X43.219 Y11.380 Z5.000 F320.000
G1 X42.224 Y11.286 Z5.000 F320.000
G1 X41.226 Y11.226 Z5.000 F320.000
G1 X40.227 Y11.201 Z5.000 F320.000
G1 X39.228 Y11.210 Z5.000 F320.000
G1 X38.229 Y11.254 Z5.000 F320.000
G1 X37.233 Y11.333 Z5.000 F320.000
G1 X36.239 Y11.446 Z5.000 F320.000
G1 X35.251 Y11.594 Z5.000 F320.000
G1 X34.268 Y11.776 Z5.000 F320.000
G1 X33.292 Y11.992 Z5.000 F320.000
G1 X32.324 Y12.242 Z5.000 F320.000
G1 X31.366 Y12.525 Z5.000 F320.000
G1 X30.417 Y12.841 Z5.000 F320.000
G1 X29.481 Y13.190 Z5.000 F320.000
G1 X28.557 Y13.571 Z5.000 F320.000
G1 X27.646 Y13.984 Z5.001 F320.000
G1 X26.751 Y14.428 Z5.001 F320.000
G1 X25.872 Y14.903 Z5.001 F320.000
G1 X25.009 Y15.409 Z5.000 F320.000
G1 X24.165 Y15.944 Z5.000 F320.000
G1 X23.340 Y16.508 Z5.000 F320.000
G1 X22.535 Y17.100 Z5.000 F320.000
G1 X21.750 Y17.720 Z5.000 F320.000
G1 X20.988 Y18.366 Z5.000 F320.000
G1 X20.249 Y19.039 Z5.000 F320.000
G1 X19.534 Y19.737 Z5.000 F320.000
G1 X18.843 Y20.459 Z5.000 F320.000
G1 X18.177 Y21.205 Z5.000 F320.000
G1 X17.538 Y21.974 Z5.000 F320.000
G1 X16.926 Y22.764 Z5.000 F320.000
G1 X16.342 Y23.575 Z5.000 F320.000
G1 X15.787 Y24.406 Z5.000 F320.000
G1 X15.260 Y25.256 Z5.000 F320.000
G1 X14.763 Y26.123 Z5.000 F320.000
G1 X14.297 Y27.007 Z5.000 F320.000
G1 X13.862 Y27.907 Z5.000 F320.000
G1 X13.458 Y28.821 Z5.000 F320.000
G1 X13.086 Y29.749 Z5.000 F320.000
G1 X12.746 Y30.689 Z5.000 F320.000
G1 X12.440 Y31.640 Z5.000 F320.000
G1 X12.166 Y32.602 Z5.000 F320.000
G1 X11.926 Y33.572 Z5.000 F320.000
G1 X11.720 Y34.550 Z5.000 F320.000
G1 X11.548 Y35.535 Z5.000 F320.000
G1 X11.410 Y36.525 Z5.000 F320.000
G1 X11.307 Y37.519 Z5.000 F320.000
G1 X11.238 Y38.516 Z5.001 F320.000
G1 X11.204 Y39.515 Z5.001 F320.000
G1 X11.204 Y40.515 Z5.000 F320.000
G1 X11.239 Y41.514 Z5.001 F320.000
G1 X11.309 Y42.511 Z5.000 F320.000
G1 X11.414 Y43.505 Z5.000 F320.000
G1 X11.553 Y44.495 Z5.000 F320.000
G1 X11.726 Y45.479 Z5.001 F320.000
G1 X11.933 Y46.457 Z5.000 F320.000
G1 X12.174 Y47.427 Z5.000 F320.000
G1 X12.448 Y48.388 Z5.000 F320.000
G1 X12.756 Y49.339 Z5.000 F320.000
G1 X13.096 Y50.279 Z5.000 F320.000
G1 X13.469 Y51.206 Z5.000 F320.000
G1 X13.874 Y52.120 Z5.000 F320.000
G1 X14.310 Y53.019 Z5.000 F320.000
G1 X14.778 Y53.903 Z5.000 F320.000
G1 X15.275 Y54.770 Z5.000 F320.000
G1 X15.803 Y55.619 Z5.000 F320.000
G1 X16.359 Y56.449 Z5.000 F320.000
G1 X16.944 Y57.260 Z5.000 F320.000
G1 X17.557 Y58.049 Z5.000 F320.000
G1 X18.197 Y58.817 Z5.000 F320.000
G1 X18.863 Y59.562 Z5.000 F320.000
G1 X19.555 Y60.284 Z5.000 F320.000
G1 X20.271 Y60.981 Z5.000 F320.000
G1 X21.011 Y61.653 Z5.000 F320.000
G1 X21.774 Y62.299 Z5.000 F320.000
G1 X22.558 Y62.918 Z5.000 F320.000
G1 X23.364 Y63.510 Z5.001 F320.000
G1 X24.190 Y64.073 Z5.001 F320.000
G1 X25.035 Y64.607 Z5.001 F320.000
G1 X25.898 Y65.111 Z5.001 F320.000
G1 X26.778 Y65.585 Z5.001 F320.000
G1 X27.674 Y66.029 Z5.000 F320.000
G1 X28.584 Y66.441 Z5.000 F320.000
G1 X29.509 Y66.821 Z5.000 F320.000
G1 X30.446 Y67.169 Z5.000 F320.000
G1 X31.394 Y67.484 Z5.000 F320.000
G1 X32.353 Y67.766 Z5.000 F320.000
G1 X33.321 Y68.015 Z5.000 F320.000
G1 X34.297 Y68.230 Z5.000 F320.000
G1 X35.280 Y68.411 Z5.000 F320.000
G1 X36.269 Y68.557 Z5.000 F320.000
G1 X37.262 Y68.670 Z5.000 F320.000
G1 X38.259 Y68.747 Z5.000 F320.000
G1 X39.258 Y68.790 Z5.000 F320.000
G1 X40.257 Y68.799 Z5.000 F320.000
G1 X41.256 Y68.772 Z5.000 F320.000
G1 X42.254 Y68.712 Z5.000 F320.000
G1 X43.249 Y68.616 Z5.000 F320.000
G1 X44.240 Y68.486 Z5.000 F320.000
G1 X45.226 Y68.322 Z5.000 F320.000
G1 X46.205 Y68.123 Z5.000 F320.000
G1 X47.178 Y67.891 Z5.000 F320.000
G1 X48.141 Y67.625 Z5.000 F320.000
G1 X49.095 Y67.326 Z5.000 F320.000
G1 X50.038 Y66.994 Z5.000 F320.000
G1 X50.968 Y66.629 Z5.000 F320.000
G1 X51.886 Y66.233 Z5.000 F320.000
G1 X52.789 Y65.804 Z5.001 F320.000
G1 X53.677 Y65.345 Z5.001 F320.000
G1 X54.548 Y64.855 Z5.001 F320.000
G1 X55.402 Y64.335 Z5.001 F320.000
G1 X56.237 Y63.786 Z5.000 F320.000
G1 X57.053 Y63.208 Z5.000 F320.000
G1 X57.848 Y62.603 Z5.000 F320.000
G1 X58.621 Y61.970 Z5.000 F320.000
G1 X59.372 Y61.310 Z5.000 F320.000
G1 X60.100 Y60.625 Z5.000 F320.000
G1 X60.804 Y59.915 Z5.000 F320.000
G1 X61.482 Y59.181 Z5.000 F320.000
G1 X62.135 Y58.424 Z5.000 F320.000
G1 X62.761 Y57.645 Z5.000 F320.000
G1 X63.360 Y56.845 Z5.000 F320.000
G1 X63.930 Y56.024 Z5.000 F320.000
G1 X64.472 Y55.184 Z5.000 F320.000
G1 X64.984 Y54.326 Z5.000 F320.000
G1 X65.466 Y53.450 Z5.000 F320.000
G1 X65.917 Y52.558 Z5.000 F320.000
G1 X66.338 Y51.651 Z5.000 F320.000
G1 X66.726 Y50.730 Z5.000 F320.000
G1 X67.082 Y49.796 Z5.000 F320.000
G1 X67.406 Y48.851 Z5.000 F320.000
G1 X67.697 Y47.894 Z5.000 F320.000
G1 X67.954 Y46.928 Z5.000 F320.000
G1 X68.177 Y45.954 Z5.000 F320.000
G1 X68.367 Y44.973 Z5.000 F320.000
G1 X68.523 Y43.985 Z5.000 F320.000
G1 X68.644 Y42.993 Z5.000 F320.000
G1 X68.730 Y41.997 Z5.000 F320.000
G1 X68.782 Y40.999 Z5.001 F320.000
G1 X68.800 Y40.000 Z5.001 F320.000
G1 X68.800 Y39.970 Z5.001 F320.000
(End of step 10.)
(Begin step 11.)
G1 X69.600 Y39.970 Z5.000 F320.000
G1 X70.400 Y39.970 Z5.000 F320.000
G1 X71.200 Y39.970 Z5.000 F320.000
(part 1.)
G1 X71.200 Y39.970 Z5.000 F320.000
G1 X71.183 Y38.975 Z5.000 F320.000
G1 X71.134 Y37.981 Z5.000 F320.000
G1 X71.054 Y36.990 Z5.000 F320.000
G1 X70.942 Y36.001 Z5.000 F320.000
G1 X70.799 Y35.017 Z5.000 F320.000
G1 X70.625 Y34.037 Z5.000 F320.000
G1 X70.419 Y33.064 Z5.000 F320.000
G1 X70.182 Y32.097 Z5.000 F320.000
G1 X69.915 Y31.139 Z5.000 F320.000
G1 X69.617 Y30.190 Z5.000 F320.000
G1 X69.289 Y29.250 Z5.000 F320.000
G1 X68.932 Y28.322 Z5.000 F320.000
G1 X68.545 Y27.405 Z5.000 F320.000
G1 X68.129 Y26.502 Z5.000 F320.000
G1 X67.684 Y25.612 Z5.000 F320.000
G1 X67.211 Y24.736 Z5.000 F320.000
G1 X66.711 Y23.876 Z5.000 F320.000
G1 X66.183 Y23.033 Z5.000 F320.000
G1 X65.629 Y22.207 Z5.000 F320.000
G1 X65.048 Y21.399 Z5.000 F320.000
G1 X64.442 Y20.609 Z5.000 F320.000
G1 X63.812 Y19.840 Z5.000 F320.000
G1 X63.157 Y19.091 Z5.000 F320.000
G1 X62.478 Y18.363 Z5.000 F320.000
G1 X61.777 Y17.658 Z5.000 F320.000
G1 X61.054 Y16.975 Z5.000 F320.000
G1 X60.309 Y16.315 Z5.000 F320.000
G1 X59.543 Y15.680 Z5.000 F320.000
G1 X58.758 Y15.069 Z5.000 F320.000
G1 X57.954 Y14.483 Z5.000 F320.000
G1 X57.131 Y13.924 Z5.000 F320.000
G1 X56.291 Y13.391 Z5.000 F320.000
G1 X55.434 Y12.885 Z5.000 F320.000
G1 X54.562 Y12.407 Z5.000 F320.000
G1 X53.674 Y11.956 Z5.000 F320.000
G1 X52.773 Y11.535 Z5.000 F320.000
G1 X51.859 Y11.142 Z5.000 F320.000
G1 X50.933 Y10.778 Z5.000 F320.000
G1 X49.996 Y10.445 Z5.000 F320.000
G1 X49.048 Y10.141 Z5.000 F320.000
G1 X48.092 Y9.868 Z5.000 F320.000
G1 X47.127 Y9.625 Z5.000 F320.000
G1 X46.155 Y9.413 Z5.000 F320.000
G1 X45.177 Y9.232 Z5.000 F320.000
G1 X44.193 Y9.083 Z5.000 F320.000
G1 X43.205 Y8.965 Z5.000 F320.000
G1 X42.214 Y8.879 Z5.000 F320.000
G1 X41.220 Y8.824 Z5.000 F320.000
G1 X40.226 Y8.801 Z5.000 F320.000
G1 X39.231 Y8.809 Z5.000 F320.000
G1 X38.237 Y8.850 Z5.000 F320.000
G1 X37.245 Y8.922 Z5.000 F320.000
G1 X36.255 Y9.025 Z5.000 F320.000
G1 X35.269 Y9.161 Z5.000 F320.000
G1 X34.289 Y9.327 Z5.000 F320.000
G1 X33.313 Y9.525 Z5.000 F320.000
G1 X32.345 Y9.753 Z5.000 F320.000
G1 X31.385 Y10.013 Z5.000 F320.000
G1 X30.433 Y10.303 Z5.000 F320.000
G1 X29.491 Y10.623 Z5.000 F320.000
G1 X28.560 Y10.973 Z5.000 F320.000
G1 X27.640 Y11.352 Z5.000 F320.000
G1 X26.733 Y11.761 Z5.000 F320.000
G1 X25.839 Y12.198 Z5.000 F320.000
G1 X24.960 Y12.664 Z5.000 F320.000
G1 X24.096 Y13.157 Z5.000 F320.000
G1 X23.248 Y13.678 Z5.000 F320.000
G1 X22.418 Y14.226 Z5.000 F320.000
G1 X21.605 Y14.799 Z5.000 F320.000
G1 X20.811 Y15.399 Z5.000 F320.000
G1 X20.036 Y16.023 Z5.000 F320.000
G1 X19.282 Y16.672 Z5.000 F320.000
G1 X18.548 Y17.344 Z5.000 F320.000
G1 X17.837 Y18.040 Z5.000 F320.000
G1 X17.148 Y18.757 Z5.000 F320.000
G1 X16.482 Y19.497 Z5.000 F320.000
G1 X15.841 Y20.257 Z5.000 F320.000
G1 X15.223 Y21.037 Z5.000 F320.000
G1 X14.631 Y21.837 Z5.000 F320.000
G1 X14.065 Y22.655 Z5.000 F320.000
G1 X13.525 Y23.491 Z5.000 F320.000
G1 X13.012 Y24.343 Z5.000 F320.000
G1 X12.527 Y25.212 Z5.000 F320.000
G1 X12.069 Y26.095 Z5.000 F320.000
G1 X11.640 Y26.993 Z5.000 F320.000
G1 X11.240 Y27.904 Z5.000 F320.000
G1 X10.869 Y28.827 Z5.000 F320.000
G1 X10.527 Y29.761 Z5.000 F320.000
G1 X10.216 Y30.706 Z5.000 F320.000
G1 X9.935 Y31.660 Z5.000 F320.000
G1 X9.684 Y32.623 Z5.000 F320.000
G1 X9.464 Y33.594 Z5.000 F320.000
G1 X9.276 Y34.570 Z5.000 F320.000
G1 X9.118 Y35.553 Z5.000 F320.000
G1 X8.992 Y36.540 Z5.000 F320.000
G1 X8.898 Y37.530 Z5.000 F320.000
G1 X8.835 Y38.523 Z5.000 F320.000
G1 X8.803 Y39.517 Z5.000 F320.000
G1 X8.804 Y40.512 Z5.000 F320.000
G1 X8.836 Y41.507 Z5.000 F320.000
G1 X8.900 Y42.500 Z5.000 F320.000
G1 X8.995 Y43.490 Z5.000 F320.000
G1 X9.122 Y44.477 Z5.000 F320.000
G1 X9.281 Y45.459 Z5.000 F320.000
G1 X9.471 Y46.436 Z5.000 F320.000
G1 X9.691 Y47.406 Z5.000 F320.000
G1 X9.943 Y48.368 Z5.000 F320.000
G1 X10.225 Y49.322 Z5.000 F320.000
G1 X10.537 Y50.267 Z5.000 F320.000
G1 X10.880 Y51.201 Z5.000 F320.000
G1 X11.252 Y52.124 Z5.000 F320.000
G1 X11.653 Y53.034 Z5.000 F320.000
G1 X12.083 Y53.931 Z5.000 F320.000
G1 X12.541 Y54.815 Z5.000 F320.000
G1 X13.027 Y55.682 Z5.000 F320.000
G1 X13.541 Y56.534 Z5.000 F320.000
G1 X14.082 Y57.370 Z5.000 F320.000
G1 X14.649 Y58.187 Z5.000 F320.000
G1 X15.242 Y58.986 Z5.000 F320.000
G1 X15.860 Y59.766 Z5.000 F320.000
G1 X16.502 Y60.526 Z5.000 F320.000
G1 X17.168 Y61.264 Z5.000 F320.000
G1 X17.858 Y61.982 Z5.000 F320.000
G1 X18.570 Y62.676 Z5.000 F320.000
G1 X19.304 Y63.348 Z5.000 F320.000
G1 X20.059 Y63.996 Z5.000 F320.000
G1 X20.834 Y64.620 Z5.000 F320.000
G1 X21.629 Y65.218 Z5.000 F320.000
G1 X22.442 Y65.791 Z5.000 F320.000
G1 X23.274 Y66.338 Z5.000 F320.000
G1 X24.122 Y66.858 Z5.000 F320.000
G1 X24.986 Y67.350 Z5.000 F320.000
G1 X25.866 Y67.815 Z5.000 F320.000
G1 X26.760 Y68.252 Z5.000 F320.000
G1 X27.668 Y68.659 Z5.000 F320.000
G1 X28.588 Y69.038 Z5.000 F320.000
G1 X29.519 Y69.387 Z5.000 F320.000
G1 X30.462 Y69.706 Z5.000 F320.000
G1 X31.414 Y69.995 Z5.000 F320.000
G1 X32.374 Y70.254 Z5.000 F320.000
G1 X33.343 Y70.481 Z5.000 F320.000
G1 X34.318 Y70.678 Z5.000 F320.000
G1 X35.299 Y70.844 Z5.000 F320.000
G1 X36.285 Y70.978 Z5.000 F320.000
G1 X37.274 Y71.081 Z5.000 F320.000
G1 X38.267 Y71.152 Z5.000 F320.000
G1 X39.261 Y71.191 Z5.000 F320.000
G1 X40.256 Y71.199 Z5.000 F320.000
G1 X41.250 Y71.175 Z5.000 F320.000
G1 X42.244 Y71.119 Z5.000 F320.000
G1 X43.235 Y71.032 Z5.000 F320.000
G1 X44.223 Y70.913 Z5.000 F320.000
G1 X45.206 Y70.762 Z5.000 F320.000
G1 X46.184 Y70.581 Z5.000 F320.000
G1 X47.156 Y70.368 Z5.000 F320.000
G1 X48.121 Y70.124 Z5.000 F320.000
G1 X49.077 Y69.850 Z5.000 F320.000
G1 X50.024 Y69.546 Z5.000 F320.000
G1 X50.961 Y69.211 Z5.000 F320.000
G1 X51.887 Y68.847 Z5.000 F320.000
G1 X52.801 Y68.453 Z5.000 F320.000
G1 X53.701 Y68.030 Z5.000 F320.000
G1 X54.588 Y67.579 Z5.000 F320.000
G1 X55.460 Y67.100 Z5.000 F320.000
G1 X56.316 Y66.593 Z5.000 F320.000
G1 X57.156 Y66.059 Z5.000 F320.000
G1 X57.978 Y65.499 Z5.000 F320.000
G1 X58.782 Y64.913 Z5.000 F320.000
G1 X59.567 Y64.301 Z5.000 F320.000
G1 X60.332 Y63.665 Z5.000 F320.000
G1 X61.076 Y63.005 Z5.000 F320.000
G1 X61.799 Y62.321 Z5.000 F320.000
G1 X62.499 Y61.615 Z5.000 F320.000
G1 X63.177 Y60.886 Z5.000 F320.000
G1 X63.831 Y60.137 Z5.000 F320.000
G1 X64.461 Y59.367 Z5.000 F320.000
G1 X65.066 Y58.577 Z5.000 F320.000
G1 X65.646 Y57.768 Z5.000 F320.000
G1 X66.199 Y56.942 Z5.000 F320.000
G1 X66.726 Y56.098 Z5.000 F320.000
G1 X67.226 Y55.237 Z5.000 F320.000
G1 X67.698 Y54.362 Z5.000 F320.000
G1 X68.142 Y53.471 Z5.000 F320.000
G1 X68.557 Y52.567 Z5.000 F320.000
G1 X68.943 Y51.650 Z5.000 F320.000
G1 X69.300 Y50.721 Z5.000 F320.000
G1 X69.627 Y49.782 Z5.000 F320.000
G1 X69.923 Y48.832 Z5.000 F320.000
G1 X70.190 Y47.873 Z5.000 F320.000
G1 X70.425 Y46.907 Z5.000 F320.000
G1 X70.630 Y45.933 Z5.000 F320.000
G1 X70.804 Y44.954 Z5.000 F320.000
G1 X70.946 Y43.969 Z5.000 F320.000
G1 X71.057 Y42.980 Z5.000 F320.000
G1 X71.136 Y41.988 Z5.000 F320.000
G1 X71.184 Y40.995 Z5.000 F320.000
G1 X71.200 Y40.000 Z5.000 F320.000
G1 X71.200 Y39.970 Z5.000 F320.000
(End of step 11.)
(Begin step 12.)
G1 X72.000 Y39.970 Z5.000 F320.000
G1 X72.800 Y39.970 Z5.000 F320.000
G1 X73.600 Y39.970 Z5.000 F320.000
(part 1.)
G1 X73.600 Y39.970 Z5.000 F320.000
G1 X73.584 Y38.974 Z5.000 F320.000
G1 X73.539 Y37.980 Z5.000 F320.000
G1 X73.464 Y36.987 Z5.000 F320.000
G1 X73.360 Y35.997 Z5.000 F320.000
G1 X73.227 Y35.010 Z5.000 F320.000
G1 X73.065 Y34.028 Z5.000 F320.000
G1 X72.873 Y33.051 Z5.000 F320.000
G1 X72.653 Y32.080 Z5.000 F320.000
G1 X72.404 Y31.116 Z5.000 F320.000
G1 X72.126 Y30.159 Z5.000 F320.000
G1 X71.821 Y29.212 Z5.000 F320.000
G1 X71.487 Y28.274 Z5.000 F320.000
G1 X71.126 Y27.346 Z5.000 F320.000
G1 X70.737 Y26.429 Z5.000 F320.000
G1 X70.322 Y25.525 Z5.000 F320.000
G1 X69.879 Y24.632 Z5.000 F320.000
G1 X69.411 Y23.754 Z5.000 F320.000
G1 X68.917 Y22.890 Z5.000 F320.000
G1 X68.397 Y22.040 Z5.000 F320.000
G1 X67.852 Y21.207 Z5.000 F320.000
G1 X67.283 Y20.390 Z5.000 F320.000
G1 X66.690 Y19.590 Z5.000 F320.000
G1 X66.074 Y18.808 Z5.000 F320.000
G1 X65.435 Y18.045 Z5.000 F320.000
G1 X64.773 Y17.301 Z5.000 F320.000
G1 X64.090 Y16.577 Z5.000 F320.000
G1 X63.385 Y15.873 Z5.000 F320.000
G1 X62.660 Y15.191 Z5.000 F320.000
G1 X61.915 Y14.531 Z5.000 F320.000
G1 X61.151 Y13.892 Z5.000 F320.000
G1 X60.368 Y13.277 Z5.000 F320.000
G1 X59.567 Y12.686 Z5.000 F320.000
G1 X58.749 Y12.118 Z5.000 F320.000
G1 X57.915 Y11.574 Z5.000 F320.000
G1 X57.065 Y11.056 Z5.000 F320.000
G1 X56.200 Y10.563 Z5.000 F320.000
G1 X55.320 Y10.096 Z5.000 F320.000
G1 X54.428 Y9.655 Z5.000 F320.000
G1 X53.522 Y9.241 Z5.000 F320.000
G1 X52.605 Y8.854 Z5.000 F320.000
G1 X51.677 Y8.494 Z5.000 F320.000
G1 X50.738 Y8.162 Z5.000 F320.000
G1 X49.790 Y7.858 Z5.000 F320.000
G1 X48.833 Y7.582 Z5.000 F320.000
G1 X47.869 Y7.334 Z5.000 F320.000
G1 X46.898 Y7.116 Z5.000 F320.000
G1 X45.920 Y6.926 Z5.000 F320.000
G1 X44.938 Y6.765 Z5.000 F320.000
G1 X43.951 Y6.633 Z5.000 F320.000
G1 X42.960 Y6.531 Z5.000 F320.000
G1 X41.967 Y6.458 Z5.000 F320.000
G1 X40.973 Y6.414 Z5.000 F320.000
G1 X39.977 Y6.400 Z5.000 F320.000
G1 X38.982 Y6.415 Z5.000 F320.000
G1 X37.987 Y6.460 Z5.000 F320.000
G1 X36.994 Y6.535 Z5.000 F320.000
G1 X36.004 Y6.638 Z5.000 F320.000
G1 X35.017 Y6.771 Z5.000 F320.000
G1 X34.035 Y6.934 Z5.000 F320.000
G1 X33.058 Y7.125 Z5.000 F320.000
G1 X32.087 Y7.345 Z5.000 F320.000
G1 X31.123 Y7.594 Z5.000 F320.000
G1 X30.166 Y7.871 Z5.000 F320.000
G1 X29.219 Y8.176 Z5.000 F320.000
G1 X28.281 Y8.510 Z5.000 F320.000
G1 X27.353 Y8.871 Z5.000 F320.000
G1 X26.436 Y9.259 Z5.000 F320.000
G1 X25.531 Y9.675 Z5.000 F320.000
G1 X24.639 Y10.117 Z5.000 F320.000
G1 X23.760 Y10.585 Z5.000 F320.000
G1 X22.896 Y11.079 Z5.000 F320.000
G1 X22.046 Y11.598 Z5.000 F320.000
G1 X21.213 Y12.143 Z5.000 F320.000
G1 X20.396 Y12.712 Z5.000 F320.000
G1 X19.596 Y13.305 Z5.000 F320.000
G1 X18.814 Y13.921 Z5.000 F320.000
G1 X18.050 Y14.560 Z5.000 F320.000
G1 X17.306 Y15.222 Z5.000 F320.000
G1 X16.582 Y15.905 Z5.000 F320.000
G1 X15.878 Y16.609 Z5.000 F320.000
G1 X15.196 Y17.334 Z5.000 F320.000
G1 X14.535 Y18.079 Z5.000 F320.000
G1 X13.897 Y18.843 Z5.000 F320.000
G1 X13.282 Y19.626 Z5.000 F320.000
G1 X12.690 Y20.426 Z5.000 F320.000
G1 X12.122 Y21.244 Z5.000 F320.000
G1 X11.578 Y22.078 Z5.000 F320.000
G1 X11.060 Y22.928 Z5.000 F320.000
G1 X10.567 Y23.793 Z5.000 F320.000
G1 X10.099 Y24.673 Z5.000 F320.000
G1 X9.658 Y25.565 Z5.000 F320.000
G1 X9.244 Y26.470 Z5.000 F320.000
G1 X8.857 Y27.388 Z5.000 F320.000
G1 X8.497 Y28.316 Z5.000 F320.000
G1 X8.164 Y29.255 Z5.000 F320.000
G1 X7.860 Y30.202 Z5.000 F320.000
G1 X7.584 Y31.159 Z5.000 F320.000
G1 X7.336 Y32.123 Z5.000 F320.000
G1 X7.117 Y33.095 Z5.000 F320.000
G1 X6.927 Y34.072 Z5.000 F320.000
G1 X6.766 Y35.055 Z5.000 F320.000
G1 X6.634 Y36.041 Z5.000 F320.000
G1 X6.531 Y37.032 Z5.000 F320.000
G1 X6.458 Y38.025 Z5.000 F320.000
G1 X6.414 Y39.019 Z5.000 F320.000
G1 X6.400 Y40.015 Z5.000 F320.000
G1 X6.415 Y41.010 Z5.000 F320.000
G1 X6.460 Y42.005 Z5.000 F320.000
G1 X6.534 Y42.998 Z5.000 F320.000
G1 X6.637 Y43.988 Z5.000 F320.000
G1 X6.770 Y44.975 Z5.000 F320.000
G1 X6.932 Y45.957 Z5.000 F320.000
G1 X7.123 Y46.934 Z5.000 F320.000
G1 X7.343 Y47.906 Z5.000 F320.000
G1 X7.591 Y48.870 Z5.000 F320.000
G1 X7.869 Y49.826 Z5.000 F320.000
G1 X8.174 Y50.774 Z5.000 F320.000
G1 X8.507 Y51.712 Z5.000 F320.000
G1 X8.868 Y52.640 Z5.000 F320.000
G1 X9.256 Y53.557 Z5.000 F320.000
G1 X9.671 Y54.462 Z5.000 F320.000
G1 X10.113 Y55.354 Z5.000 F320.000
G1 X10.581 Y56.233 Z5.000 F320.000
G1 X11.075 Y57.097 Z5.000 F320.000
G1 X11.594 Y57.947 Z5.000 F320.000
G1 X12.138 Y58.781 Z5.000 F320.000
G1 X12.707 Y59.598 Z5.000 F320.000
G1 X13.300 Y60.398 Z5.000 F320.000
G1 X13.916 Y61.180 Z5.000 F320.000
G1 X14.555 Y61.944 Z5.000 F320.000
G1 X15.216 Y62.688 Z5.000 F320.000
G1 X15.899 Y63.412 Z5.000 F320.000
G1 X16.604 Y64.116 Z5.000 F320.000
G1 X17.328 Y64.799 Z5.000 F320.000
G1 X18.073 Y65.459 Z5.000 F320.000
G1 X18.837 Y66.098 Z5.000 F320.000
G1 X19.620 Y66.713 Z5.000 F320.000
G1 X20.420 Y67.306 Z5.000 F320.000
G1 X21.238 Y67.874 Z5.000 F320.000
G1 X22.072 Y68.417 Z5.000 F320.000
G1 X22.922 Y68.936 Z5.000 F320.000
G1 X23.786 Y69.429 Z5.000 F320.000
G1 X24.666 Y69.897 Z5.000 F320.000
G1 X25.558 Y70.338 Z5.000 F320.000
G1 X26.463 Y70.753 Z5.000 F320.000
G1 X27.380 Y71.140 Z5.000 F320.000
G1 X28.309 Y71.500 Z5.000 F320.000
G1 X29.247 Y71.833 Z5.000 F320.000
G1 X30.195 Y72.138 Z5.000 F320.000
G1 X31.152 Y72.414 Z5.000 F320.000
G1 X32.116 Y72.662 Z5.000 F320.000
G1 X33.087 Y72.881 Z5.000 F320.000
G1 X34.064 Y73.072 Z5.000 F320.000
G1 X35.047 Y73.233 Z5.000 F320.000
G1 X36.034 Y73.365 Z5.000 F320.000
G1 X37.024 Y73.468 Z5.000 F320.000
G1 X38.017 Y73.541 Z5.000 F320.000
G1 X39.012 Y73.585 Z5.000 F320.000
G1 X40.007 Y73.600 Z5.000 F320.000
G1 X41.003 Y73.585 Z5.000 F320.000
G1 X41.997 Y73.540 Z5.000 F320.000
G1 X42.990 Y73.467 Z5.000 F320.000
G1 X43.980 Y73.363 Z5.000 F320.000
G1 X44.967 Y73.231 Z5.000 F320.000
G1 X45.950 Y73.069 Z5.000 F320.000
G1 X46.927 Y72.878 Z5.000 F320.000
G1 X47.898 Y72.658 Z5.000 F320.000
G1 X48.862 Y72.410 Z5.000 F320.000
G1 X49.819 Y72.133 Z5.000 F320.000
G1 X50.766 Y71.828 Z5.000 F320.000
G1 X51.705 Y71.495 Z5.000 F320.000
G1 X52.633 Y71.135 Z5.000 F320.000
G1 X53.550 Y70.747 Z5.000 F320.000
G1 X54.455 Y70.332 Z5.000 F320.000
G1 X55.347 Y69.890 Z5.000 F320.000
G1 X56.226 Y69.422 Z5.000 F320.000
G1 X57.091 Y68.928 Z5.000 F320.000
G1 X57.940 Y68.409 Z5.000 F320.000
G1 X58.774 Y67.865 Z5.000 F320.000
G1 X59.591 Y67.297 Z5.000 F320.000
G1 X60.392 Y66.704 Z5.000 F320.000
G1 X61.174 Y66.088 Z5.000 F320.000
G1 X61.938 Y65.450 Z5.000 F320.000
G1 X62.682 Y64.788 Z5.000 F320.000
G1 X63.406 Y64.105 Z5.000 F320.000
G1 X64.110 Y63.401 Z5.000 F320.000
G1 X64.793 Y62.677 Z5.000 F320.000
G1 X65.454 Y61.932 Z5.000 F320.000
G1 X66.093 Y61.168 Z5.000 F320.000
G1 X66.709 Y60.386 Z5.000 F320.000
G1 X67.301 Y59.586 Z5.000 F320.000
G1 X67.869 Y58.768 Z5.000 F320.000
G1 X68.413 Y57.934 Z5.000 F320.000
G1 X68.932 Y57.084 Z5.000 F320.000
G1 X69.425 Y56.220 Z5.000 F320.000
G1 X69.893 Y55.341 Z5.000 F320.000
G1 X70.335 Y54.448 Z5.000 F320.000
G1 X70.749 Y53.543 Z5.000 F320.000
G1 X71.137 Y52.626 Z5.000 F320.000
G1 X71.498 Y51.698 Z5.000 F320.000
G1 X71.830 Y50.759 Z5.000 F320.000
G1 X72.135 Y49.812 Z5.000 F320.000
G1 X72.412 Y48.855 Z5.000 F320.000
G1 X72.660 Y47.891 Z5.000 F320.000
G1 X72.879 Y46.920 Z5.000 F320.000
G1 X73.070 Y45.943 Z5.000 F320.000
G1 X73.231 Y44.960 Z5.000 F320.000
G1 X73.364 Y43.973 Z5.000 F320.000
G1 X73.467 Y42.983 Z5.000 F320.000
G1 X73.541 Y41.990 Z5.000 F320.000
G1 X73.585 Y40.995 Z5.000 F320.000
G1 X73.600 Y40.000 Z5.000 F320.000
G1 X73.600 Y39.970 Z5.000 F320.000
(End of step 12.)
(Begin step 13.)
G1 X74.400 Y39.970 Z5.000 F320.000
G1 X75.200 Y39.970 Z5.000 F320.000
G1 X76.000 Y39.970 Z5.000 F320.000
(part 1.)
G1 X76.000 Y39.970 Z5.000 F320.000
G1 X75.985 Y38.974 Z5.000 F320.000
G1 X75.943 Y37.978 Z5.000 F320.000
G1 X75.873 Y36.984 Z5.000 F320.000
G1 X75.776 Y35.993 Z5.000 F320.000
G1 X75.651 Y35.004 Z5.000 F320.000
G1 X75.499 Y34.020 Z5.000 F320.000
G1 X75.320 Y33.040 Z5.000 F320.000
G1 X75.114 Y32.065 Z5.000 F320.000
G1 X74.881 Y31.096 Z5.000 F320.000
G1 X74.622 Y30.135 Z5.000 F320.000
G1 X74.335 Y29.180 Z5.000 F320.000
G1 X74.023 Y28.234 Z5.000 F320.000
G1 X73.684 Y27.297 Z5.000 F320.000
G1 X73.320 Y26.370 Z5.000 F320.000
G1 X72.930 Y25.453 Z5.000 F320.000
G1 X72.515 Y24.548 Z5.000 F320.000
G1 X72.075 Y23.654 Z5.000 F320.000
G1 X71.610 Y22.772 Z5.000 F320.000
G1 X71.121 Y21.904 Z5.000 F320.000
G1 X70.608 Y21.050 Z5.000 F320.000
G1 X70.072 Y20.210 Z5.000 F320.000
G1 X69.513 Y19.386 Z5.000 F320.000
G1 X68.931 Y18.577 Z5.000 F320.000
G1 X68.328 Y17.784 Z5.000 F320.000
G1 X67.702 Y17.009 Z5.000 F320.000
G1 X67.055 Y16.251 Z5.000 F320.000
G1 X66.388 Y15.512 Z5.000 F320.000
G1 X65.700 Y14.791 Z5.000 F320.000
G1 X64.992 Y14.089 Z5.000 F320.000
G1 X64.266 Y13.408 Z5.000 F320.000
G1 X63.521 Y12.746 Z5.000 F320.000
G1 X62.758 Y12.106 Z5.000 F320.000
G1 X61.977 Y11.487 Z5.000 F320.000
G1 X61.180 Y10.890 Z5.000 F320.000
G1 X60.366 Y10.315 Z5.000 F320.000
G1 X59.537 Y9.762 Z5.000 F320.000
G1 X58.692 Y9.233 Z5.000 F320.000
G1 X57.834 Y8.728 Z5.000 F320.000
G1 X56.962 Y8.246 Z5.000 F320.000
G1 X56.077 Y7.789 Z5.000 F320.000
G1 X55.179 Y7.357 Z5.000 F320.000
G1 X54.270 Y6.949 Z5.000 F320.000
G1 X53.350 Y6.567 Z5.000 F320.000
G1 X52.420 Y6.210 Z5.000 F320.000
G1 X51.480 Y5.879 Z5.000 F320.000
G1 X50.531 Y5.575 Z5.000 F320.000
G1 X49.575 Y5.297 Z5.000 F320.000
G1 X48.611 Y5.045 Z5.000 F320.000
G1 X47.640 Y4.820 Z5.000 F320.000
G1 X46.664 Y4.622 Z5.000 F320.000
G1 X45.682 Y4.451 Z5.000 F320.000
G1 X44.696 Y4.308 Z5.000 F320.000
G1 X43.707 Y4.191 Z5.000 F320.000
G1 X42.714 Y4.102 Z5.000 F320.000
G1 X41.720 Y4.041 Z5.000 F320.000
G1 X40.724 Y4.007 Z5.000 F320.000
G1 X39.728 Y4.001 Z5.000 F320.000
G1 X38.732 Y4.022 Z5.000 F320.000
G1 X37.737 Y4.071 Z5.000 F320.000
G1 X36.744 Y4.147 Z5.000 F320.000
G1 X35.753 Y4.251 Z5.000 F320.000
G1 X34.765 Y4.383 Z5.000 F320.000
G1 X33.781 Y4.541 Z5.000 F320.000
G1 X32.803 Y4.727 Z5.000 F320.000
G1 X31.829 Y4.939 Z5.000 F320.000
G1 X30.862 Y5.179 Z5.000 F320.000
G1 X29.902 Y5.445 Z5.000 F320.000
G1 X28.950 Y5.738 Z5.000 F320.000
G1 X28.006 Y6.057 Z5.000 F320.000
G1 X27.071 Y6.401 Z5.000 F320.000
G1 X26.146 Y6.772 Z5.000 F320.000
G1 X25.232 Y7.168 Z5.000 F320.000
G1 X24.329 Y7.589 Z5.000 F320.000
G1 X23.439 Y8.035 Z5.000 F320.000
G1 X22.560 Y8.506 Z5.000 F320.000
G1 X21.696 Y9.001 Z5.000 F320.000
G1 X20.845 Y9.519 Z5.000 F320.000
G1 X20.009 Y10.061 Z5.000 F320.000
G1 X19.188 Y10.625 Z5.000 F320.000
G1 X18.383 Y11.212 Z5.000 F320.000
G1 X17.595 Y11.822 Z5.000 F320.000
G1 X16.823 Y12.452 Z5.000 F320.000
G1 X16.070 Y13.104 Z5.000 F320.000
G1 X15.335 Y13.777 Z5.000 F320.000
G1 X14.619 Y14.469 Z5.000 F320.000
G1 X13.922 Y15.181 Z5.000 F320.000
G1 X13.245 Y15.913 Z5.000 F320.000
G1 X12.589 Y16.662 Z5.000 F320.000
G1 X11.954 Y17.430 Z5.000 F320.000
G1 X11.340 Y18.214 Z5.000 F320.000
G1 X10.748 Y19.016 Z5.000 F320.000
G1 X10.178 Y19.833 Z5.000 F320.000
G1 X9.632 Y20.666 Z5.000 F320.000
G1 X9.108 Y21.514 Z5.000 F320.000
G1 X8.609 Y22.376 Z5.000 F320.000
G1 X8.133 Y23.251 Z5.000 F320.000
G1 X7.682 Y24.139 Z5.000 F320.000
G1 X7.255 Y25.040 Z5.000 F320.000
G1 X6.854 Y25.952 Z5.000 F320.000
G1 X6.478 Y26.874 Z5.000 F320.000
G1 X6.127 Y27.807 Z5.000 F320.000
G1 X5.803 Y28.749 Z5.000 F320.000
G1 X5.505 Y29.700 Z5.000 F320.000
G1 X5.233 Y30.658 Z5.000 F320.000
G1 X4.988 Y31.624 Z5.000 F320.000
G1 X4.769 Y32.596 Z5.000 F320.000
G1 X4.578 Y33.573 Z5.000 F320.000
G1 X4.414 Y34.556 Z5.000 F320.000
G1 X4.277 Y35.543 Z5.000 F320.000
G1 X4.167 Y36.533 Z5.000 F320.000
G1 X4.085 Y37.526 Z5.000 F320.000
G1 X4.030 Y38.521 Z5.000 F320.000
G1 X4.003 Y39.517 Z5.000 F320.000
G1 X4.003 Y40.513 Z5.000 F320.000
G1 X4.031 Y41.509 Z5.000 F320.000
G1 X4.087 Y42.504 Z5.000 F320.000
G1 X4.170 Y43.497 Z5.000 F320.000
G1 X4.280 Y44.487 Z5.000 F320.000
G1 X4.418 Y45.473 Z5.000 F320.000
G1 X4.583 Y46.456 Z5.000 F320.000
G1 X4.775 Y47.433 Z5.000 F320.000
G1 X4.995 Y48.405 Z5.000 F320.000
G1 X5.241 Y49.371 Z5.000 F320.000
G1 X5.513 Y50.329 Z5.000 F320.000
G1 X5.812 Y51.279 Z5.000 F320.000
G1 X6.138 Y52.221 Z5.000 F320.000
G1 X6.489 Y53.153 Z5.000 F320.000
G1 X6.865 Y54.076 Z5.000 F320.000
G1 X7.268 Y54.987 Z5.000 F320.000
G1 X7.695 Y55.887 Z5.000 F320.000
G1 X8.147 Y56.775 Z5.000 F320.000
G1 X8.623 Y57.650 Z5.000 F320.000
G1 X9.124 Y58.512 Z5.000 F320.000
G1 X9.648 Y59.359 Z5.000 F320.000
G1 X10.195 Y60.191 Z5.000 F320.000
G1 X10.765 Y61.008 Z5.000 F320.000
G1 X11.358 Y61.809 Z5.000 F320.000
G1 X11.972 Y62.594 Z5.000 F320.000
G1 X12.608 Y63.360 Z5.000 F320.000
G1 X13.265 Y64.109 Z5.000 F320.000
G1 X13.943 Y64.840 Z5.000 F320.000
G1 X14.640 Y65.552 Z5.000 F320.000
G1 X15.357 Y66.244 Z5.000 F320.000
G1 X16.092 Y66.915 Z5.000 F320.000
G1 X16.846 Y67.567 Z5.000 F320.000
G1 X17.618 Y68.197 Z5.000 F320.000
G1 X18.407 Y68.805 Z5.000 F320.000
G1 X19.212 Y69.392 Z5.000 F320.000
G1 X20.034 Y69.956 Z5.000 F320.000
G1 X20.870 Y70.497 Z5.000 F320.000
G1 X21.721 Y71.015 Z5.000 F320.000
G1 X22.587 Y71.508 Z5.000 F320.000
G1 X23.465 Y71.978 Z5.000 F320.000
G1 X24.356 Y72.424 Z5.000 F320.000
G1 X25.260 Y72.844 Z5.000 F320.000
G1 X26.174 Y73.239 Z5.000 F320.000
G1 X27.099 Y73.609 Z5.000 F320.000
G1 X28.034 Y73.953 Z5.000 F320.000
G1 X28.978 Y74.271 Z5.000 F320.000
G1 X29.931 Y74.563 Z5.000 F320.000
G1 X30.891 Y74.829 Z5.000 F320.000
G1 X31.859 Y75.067 Z5.000 F320.000
G1 X32.832 Y75.279 Z5.000 F320.000
G1 X33.811 Y75.464 Z5.000 F320.000
G1 X34.795 Y75.622 Z5.000 F320.000
G1 X35.782 Y75.752 Z5.000 F320.000
G1 X36.773 Y75.855 Z5.000 F320.000
G1 X37.767 Y75.931 Z5.000 F320.000
G1 X38.762 Y75.979 Z5.000 F320.000
G1 X39.758 Y75.999 Z5.000 F320.000
G1 X40.754 Y75.992 Z5.000 F320.000
G1 X41.750 Y75.957 Z5.000 F320.000
G1 X42.744 Y75.895 Z5.000 F320.000
G1 X43.737 Y75.805 Z5.000 F320.000
G1 X44.726 Y75.688 Z5.000 F320.000
G1 X45.712 Y75.544 Z5.000 F320.000
G1 X46.693 Y75.372 Z5.000 F320.000
G1 X47.669 Y75.173 Z5.000 F320.000
G1 X48.640 Y74.948 Z5.000 F320.000
G1 X49.604 Y74.695 Z5.000 F320.000
G1 X50.560 Y74.416 Z5.000 F320.000
G1 X51.508 Y74.111 Z5.000 F320.000
G1 X52.448 Y73.779 Z5.000 F320.000
G1 X53.378 Y73.422 Z5.000 F320.000
G1 X54.297 Y73.039 Z5.000 F320.000
G1 X55.206 Y72.631 Z5.000 F320.000
G1 X56.103 Y72.197 Z5.000 F320.000
G1 X56.988 Y71.739 Z5.000 F320.000
G1 X57.860 Y71.257 Z5.000 F320.000
G1 X58.718 Y70.751 Z5.000 F320.000
G1 X59.562 Y70.221 Z5.000 F320.000
G1 X60.391 Y69.668 Z5.000 F320.000
G1 X61.204 Y69.093 Z5.000 F320.000
G1 X62.001 Y68.495 Z5.000 F320.000
G1 X62.781 Y67.875 Z5.000 F320.000
G1 X63.543 Y67.234 Z5.000 F320.000
G1 X64.288 Y66.572 Z5.000 F320.000
G1 X65.014 Y65.890 Z5.000 F320.000
G1 X65.721 Y65.188 Z5.000 F320.000
G1 X66.408 Y64.466 Z5.000 F320.000
G1 X67.075 Y63.726 Z5.000 F320.000
G1 X67.721 Y62.968 Z5.000 F320.000
G1 X68.346 Y62.192 Z5.000 F320.000
G1 X68.949 Y61.399 Z5.000 F320.000
G1 X69.530 Y60.590 Z5.000 F320.000
G1 X70.089 Y59.764 Z5.000 F320.000
G1 X70.624 Y58.924 Z5.000 F320.000
G1 X71.136 Y58.070 Z5.000 F320.000
G1 X71.624 Y57.201 Z5.000 F320.000
G1 X72.088 Y56.319 Z5.000 F320.000
G1 X72.527 Y55.425 Z5.000 F320.000
G1 X72.942 Y54.519 Z5.000 F320.000
G1 X73.331 Y53.602 Z5.000 F320.000
G1 X73.695 Y52.674 Z5.000 F320.000
G1 X74.032 Y51.737 Z5.000 F320.000
G1 X74.344 Y50.791 Z5.000 F320.000
G1 X74.630 Y49.836 Z5.000 F320.000
G1 X74.889 Y48.874 Z5.000 F320.000
G1 X75.121 Y47.906 Z5.000 F320.000
G1 X75.326 Y46.931 Z5.000 F320.000
G1 X75.504 Y45.950 Z5.000 F320.000
G1 X75.655 Y44.966 Z5.000 F320.000
G1 X75.779 Y43.977 Z5.000 F320.000
G1 X75.876 Y42.985 Z5.000 F320.000
G1 X75.944 Y41.992 Z5.000 F320.000
G1 X75.986 Y40.996 Z5.000 F320.000
G1 X76.000 Y40.000 Z5.000 F320.000
G1 X76.000 Y39.970 Z5.000 F320.000
(End of step 13.)
(Begin step 14.)
G0 Z18.000
G0 X78.400 Y39.970
G0 Z8.000
(part 1.)
G1 X78.400 Y39.970 Z5.000 F320.000
G1 X78.386 Y38.973 Z5.000 F320.000
G1 X78.346 Y37.977 Z5.000 F320.000
G1 X78.281 Y36.982 Z5.000 F320.000
G1 X78.190 Y35.990 Z5.000 F320.000
G1 X78.073 Y35.000 Z5.000 F320.000
G1 X77.930 Y34.013 Z5.000 F320.000
G1 X77.762 Y33.031 Z5.000 F320.000
G1 X77.568 Y32.053 Z5.000 F320.000
G1 X77.349 Y31.080 Z5.000 F320.000
G1 X77.105 Y30.114 Z5.000 F320.000
G1 X76.836 Y29.154 Z5.000 F320.000
G1 X76.542 Y28.201 Z5.000 F320.000
G1 X76.224 Y27.257 Z5.000 F320.000
G1 X75.881 Y26.321 Z5.000 F320.000
G1 X75.513 Y25.394 Z5.000 F320.000
G1 X75.122 Y24.477 Z5.000 F320.000
G1 X74.708 Y23.571 Z5.000 F320.000
G1 X74.269 Y22.675 Z5.000 F320.000
G1 X73.808 Y21.792 Z5.000 F320.000
G1 X73.324 Y20.920 Z5.000 F320.000
G1 X72.818 Y20.062 Z5.000 F320.000
G1 X72.289 Y19.216 Z5.000 F320.000
G1 X71.739 Y18.385 Z5.000 F320.000
G1 X71.167 Y17.569 Z5.000 F320.000
G1 X70.574 Y16.767 Z5.000 F320.000
G1 X69.961 Y15.981 Z5.000 F320.000
G1 X69.327 Y15.212 Z5.000 F320.000
G1 X68.674 Y14.459 Z5.000 F320.000
G1 X68.001 Y13.723 Z5.000 F320.000
G1 X67.310 Y13.005 Z5.000 F320.000
G1 X66.600 Y12.305 Z5.000 F320.000
G1 X65.872 Y11.624 Z5.000 F320.000
G1 X65.127 Y10.962 Z5.000 F320.000
G1 X64.364 Y10.320 Z5.000 F320.000
G1 X63.586 Y9.697 Z5.000 F320.000
G1 X62.791 Y9.095 Z5.000 F320.000
G1 X61.981 Y8.514 Z5.000 F320.000
G1 X61.157 Y7.954 Z5.000 F320.000
G1 X60.318 Y7.416 Z5.000 F320.000
G1 X59.465 Y6.899 Z5.000 F320.000
G1 X58.599 Y6.405 Z5.000 F320.000
G1 X57.721 Y5.934 Z5.000 F320.000
G1 X56.831 Y5.485 Z5.000 F320.000
G1 X55.929 Y5.060 Z5.000 F320.000
G1 X55.017 Y4.658 Z5.000 F320.000
G1 X54.094 Y4.280 Z5.000 F320.000
G1 X53.163 Y3.926 Z5.000 F320.000
G1 X52.222 Y3.597 Z5.000 F320.000
G1 X51.273 Y3.292 Z5.000 F320.000
G1 X50.316 Y3.012 Z5.000 F320.000
G1 X49.352 Y2.756 Z5.000 F320.000
G1 X48.383 Y2.526 Z5.000 F320.000
G1 X47.407 Y2.321 Z5.000 F320.000
G1 X46.426 Y2.142 Z5.000 F320.000
G1 X45.442 Y1.987 Z5.000 F320.000
G1 X44.453 Y1.859 Z5.000 F320.000
G1 X43.461 Y1.756 Z5.000 F320.000
G1 X42.468 Y1.679 Z5.000 F320.000
G1 X41.472 Y1.628 Z5.000 F320.000
G1 X40.476 Y1.603 Z5.000 F320.000
G1 X39.479 Y1.603 Z5.000 F320.000
G1 X38.482 Y1.630 Z5.000 F320.000
G1 X37.487 Y1.682 Z5.000 F320.000
G1 X36.493 Y1.760 Z5.000 F320.000
G1 X35.502 Y1.864 Z5.000 F320.000
G1 X34.513 Y1.994 Z5.000 F320.000
G1 X33.528 Y2.149 Z5.000 F320.000
G1 X32.548 Y2.330 Z5.000 F320.000
G1 X31.573 Y2.536 Z5.000 F320.000
G1 X30.603 Y2.767 Z5.000 F320.000
G1 X29.640 Y3.024 Z5.000 F320.000
G1 X28.684 Y3.305 Z5.000 F320.000
G1 X27.735 Y3.611 Z5.000 F320.000
G1 X26.794 Y3.942 Z5.000 F320.000
G1 X25.863 Y4.297 Z5.000 F320.000
G1 X24.941 Y4.676 Z5.000 F320.000
G1 X24.029 Y5.079 Z5.000 F320.000
G1 X23.128 Y5.505 Z5.000 F320.000
G1 X22.238 Y5.954 Z5.000 F320.000
G1 X21.361 Y6.427 Z5.000 F320.000
G1 X20.495 Y6.922 Z5.000 F320.000
G1 X19.643 Y7.439 Z5.000 F320.000
G1 X18.805 Y7.979 Z5.000 F320.000
G1 X17.981 Y8.540 Z5.000 F320.000
G1 X17.172 Y9.122 Z5.000 F320.000
G1 X16.378 Y9.725 Z5.000 F320.000
G1 X15.600 Y10.348 Z5.000 F320.000
G1 X14.839 Y10.992 Z5.000 F320.000
G1 X14.094 Y11.655 Z5.000 F320.000
G1 X13.367 Y12.337 Z5.000 F320.000
G1 X12.658 Y13.037 Z5.000 F320.000
G1 X11.967 Y13.756 Z5.000 F320.000
G1 X11.295 Y14.492 Z5.000 F320.000
G1 X10.643 Y15.246 Z5.000 F320.000
G1 X10.010 Y16.016 Z5.000 F320.000
G1 X9.398 Y16.803 Z5.000 F320.000
G1 X8.806 Y17.605 Z5.000 F320.000
G1 X8.235 Y18.422 Z5.000 F320.000
G1 X7.686 Y19.254 Z5.000 F320.000
G1 X7.158 Y20.100 Z5.000 F320.000
G1 X6.653 Y20.959 Z5.000 F320.000
G1 X6.170 Y21.831 Z5.000 F320.000
G1 X5.710 Y22.715 Z5.000 F320.000
G1 X5.272 Y23.611 Z5.000 F320.000
G1 X4.859 Y24.518 Z5.000 F320.000
G1 X4.469 Y25.436 Z5.000 F320.000
G1 X4.103 Y26.363 Z5.000 F320.000
G1 X3.761 Y27.299 Z5.000 F320.000
G1 X3.443 Y28.244 Z5.000 F320.000
G1 X3.150 Y29.197 Z5.000 F320.000
G1 X2.882 Y30.157 Z5.000 F320.000
G1 X2.639 Y31.124 Z5.000 F320.000
G1 X2.422 Y32.097 Z5.000 F320.000
G1 X2.229 Y33.075 Z5.000 F320.000
G1 X2.062 Y34.058 Z5.000 F320.000
G1 X1.921 Y35.044 Z5.000 F320.000
G1 X1.805 Y36.034 Z5.000 F320.000
G1 X1.715 Y37.027 Z5.000 F320.000
G1 X1.651 Y38.022 Z5.000 F320.000
G1 X1.612 Y39.018 Z5.000 F320.000
G1 X1.600 Y40.015 Z5.000 F320.000
G1 X1.613 Y41.012 Z5.000 F320.000
G1 X1.652 Y42.008 Z5.000 F320.000
G1 X1.717 Y43.002 Z5.000 F320.000
G1 X1.808 Y43.995 Z5.000 F320.000
G1 X1.925 Y44.985 Z5.000 F320.000
G1 X2.067 Y45.972 Z5.000 F320.000
G1 X2.235 Y46.954 Z5.000 F320.000
G1 X2.428 Y47.932 Z5.000 F320.000
G1 X2.646 Y48.905 Z5.000 F320.000
G1 X2.890 Y49.872 Z5.000 F320.000
G1 X3.159 Y50.832 Z5.000 F320.000
G1 X3.453 Y51.784 Z5.000 F320.000
G1 X3.771 Y52.729 Z5.000 F320.000
G1 X4.113 Y53.665 Z5.000 F320.000
G1 X4.480 Y54.592 Z5.000 F320.000
G1 X4.871 Y55.509 Z5.000 F320.000
G1 X5.285 Y56.416 Z5.000 F320.000
G1 X5.723 Y57.311 Z5.000 F320.000
G1 X6.184 Y58.195 Z5.000 F320.000
G1 X6.668 Y59.067 Z5.000 F320.000
G1 X7.174 Y59.925 Z5.000 F320.000
G1 X7.702 Y60.771 Z5.000 F320.000
G1 X8.252 Y61.602 Z5.000 F320.000
G1 X8.824 Y62.419 Z5.000 F320.000
G1 X9.416 Y63.221 Z5.000 F320.000
G1 X10.029 Y64.007 Z5.000 F320.000
G1 X10.662 Y64.777 Z5.000 F320.000
G1 X11.315 Y65.530 Z5.000 F320.000
G1 X11.988 Y66.266 Z5.000 F320.000
G1 X12.679 Y66.984 Z5.000 F320.000
G1 X13.389 Y67.684 Z5.000 F320.000
G1 X14.116 Y68.366 Z5.000 F320.000
G1 X14.861 Y69.028 Z5.000 F320.000
G1 X15.623 Y69.671 Z5.000 F320.000
G1 X16.402 Y70.293 Z5.000 F320.000
G1 X17.196 Y70.896 Z5.000 F320.000
G1 X18.006 Y71.477 Z5.000 F320.000
G1 X18.830 Y72.037 Z5.000 F320.000
G1 X19.669 Y72.576 Z5.000 F320.000
G1 X20.521 Y73.093 Z5.000 F320.000
G1 X21.387 Y73.587 Z5.000 F320.000
G1 X22.265 Y74.059 Z5.000 F320.000
G1 X23.155 Y74.508 Z5.000 F320.000
G1 X24.056 Y74.934 Z5.000 F320.000
G1 X24.969 Y75.336 Z5.000 F320.000
G1 X25.891 Y75.714 Z5.000 F320.000
G1 X26.823 Y76.068 Z5.000 F320.000
G1 X27.763 Y76.398 Z5.000 F320.000
G1 X28.712 Y76.704 Z5.000 F320.000
G1 X29.669 Y76.984 Z5.000 F320.000
G1 X30.632 Y77.240 Z5.000 F320.000
G1 X31.602 Y77.470 Z5.000 F320.000
G1 X32.578 Y77.676 Z5.000 F320.000
G1 X33.558 Y77.856 Z5.000 F320.000
G1 X34.543 Y78.010 Z5.000 F320.000
G1 X35.531 Y78.139 Z5.000 F320.000
G1 X36.523 Y78.242 Z5.000 F320.000
G1 X37.517 Y78.320 Z5.000 F320.000
G1 X38.512 Y78.371 Z5.000 F320.000
G1 X39.509 Y78.397 Z5.000 F320.000
G1 X40.506 Y78.397 Z5.000 F320.000
G1 X41.502 Y78.371 Z5.000 F320.000
G1 X42.498 Y78.319 Z5.000 F320.000
G1 X43.491 Y78.241 Z5.000 F320.000
G1 X44.483 Y78.137 Z5.000 F320.000
G1 X45.471 Y78.008 Z5.000 F320.000
G1 X46.456 Y77.853 Z5.000 F320.000
G1 X47.436 Y77.673 Z5.000 F320.000
G1 X48.412 Y77.467 Z5.000 F320.000
G1 X49.382 Y77.236 Z5.000 F320.000
G1 X50.345 Y76.980 Z5.000 F320.000
G1 X51.301 Y76.699 Z5.000 F320.000
G1 X52.250 Y76.393 Z5.000 F320.000
G1 X53.191 Y76.063 Z5.000 F320.000
G1 X54.122 Y75.709 Z5.000 F320.000
G1 X55.045 Y75.330 Z5.000 F320.000
G1 X55.957 Y74.928 Z5.000 F320.000
G1 X56.858 Y74.502 Z5.000 F320.000
G1 X57.748 Y74.052 Z5.000 F320.000
G1 X58.626 Y73.580 Z5.000 F320.000
G1 X59.491 Y73.085 Z5.000 F320.000
G1 X60.343 Y72.568 Z5.000 F320.000
G1 X61.182 Y72.029 Z5.000 F320.000
G1 X62.006 Y71.469 Z5.000 F320.000
G1 X62.815 Y70.887 Z5.000 F320.000
G1 X63.610 Y70.284 Z5.000 F320.000
G1 X64.388 Y69.661 Z5.000 F320.000
G1 X65.149 Y69.018 Z5.000 F320.000
G1 X65.894 Y68.355 Z5.000 F320.000
G1 X66.621 Y67.674 Z5.000 F320.000
G1 X67.331 Y66.973 Z5.000 F320.000
G1 X68.022 Y66.255 Z5.000 F320.000
G1 X68.694 Y65.519 Z5.000 F320.000
G1 X69.347 Y64.765 Z5.000 F320.000
G1 X69.980 Y63.995 Z5.000 F320.000
G1 X70.592 Y63.209 Z5.000 F320.000
G1 X71.184 Y62.407 Z5.000 F320.000
G1 X71.756 Y61.590 Z5.000 F320.000
G1 X72.305 Y60.758 Z5.000 F320.000
G1 X72.833 Y59.913 Z5.000 F320.000
G1 X73.339 Y59.054 Z5.000 F320.000
G1 X73.822 Y58.182 Z5.000 F320.000
G1 X74.283 Y57.298 Z5.000 F320.000
G1 X74.720 Y56.402 Z5.000 F320.000
G1 X75.134 Y55.495 Z5.000 F320.000
G1 X75.525 Y54.578 Z5.000 F320.000
G1 X75.891 Y53.651 Z5.000 F320.000
G1 X76.233 Y52.715 Z5.000 F320.000
G1 X76.551 Y51.770 Z5.000 F320.000
G1 X76.845 Y50.817 Z5.000 F320.000
G1 X77.113 Y49.857 Z5.000 F320.000
G1 X77.356 Y48.890 Z5.000 F320.000
G1 X77.574 Y47.918 Z5.000 F320.000
G1 X77.767 Y46.940 Z5.000 F320.000
G1 X77.935 Y45.957 Z5.000 F320.000
G1 X78.077 Y44.970 Z5.000 F320.000
G1 X78.193 Y43.980 Z5.000 F320.000
G1 X78.283 Y42.988 Z5.000 F320.000
G1 X78.348 Y41.993 Z5.000 F320.000
G1 X78.387 Y40.997 Z5.000 F320.000
G1 X78.400 Y40.000 Z5.000 F320.000
G1 X78.400 Y39.970 Z5.000 F320.000
(End of step 14.)
(Begin step 15.)
G1 X79.200 Y39.970 Z15.000 F320.000
G1 X80.000 Y39.970 Z15.000 F320.000
G1 X80.800 Y39.970 Z5.000 F320.000
(part 1.)
G1 X80.800 Y39.970 Z5.000 F320.000
G1 X80.787 Y38.973 Z5.000 F320.000
G1 X80.749 Y37.976 Z5.000 F320.000
G1 X80.688 Y36.981 Z5.000 F320.000
G1 X80.602 Y35.987 Z5.000 F320.000
G1 X80.492 Y34.996 Z5.000 F320.000
G1 X80.357 Y34.007 Z5.000 F320.000
G1 X80.199 Y33.023 Z5.000 F320.000
G1 X80.016 Y32.042 Z5.000 F320.000
G1 X79.810 Y31.067 Z5.000 F320.000
G1 X79.579 Y30.096 Z5.000 F320.000
G1 X79.325 Y29.132 Z5.000 F320.000
G1 X79.048 Y28.174 Z5.000 F320.000
G1 X78.747 Y27.223 Z5.000 F320.000
G1 X78.423 Y26.279 Z5.000 F320.000
G1 X78.077 Y25.344 Z5.000 F320.000
G1 X77.707 Y24.418 Z5.000 F320.000
G1 X77.315 Y23.501 Z5.000 F320.000
G1 X76.900 Y22.594 Z5.000 F320.000
G1 X76.464 Y21.697 Z5.000 F320.000
G1 X76.006 Y20.811 Z5.000 F320.000
G1 X75.526 Y19.937 Z5.000 F320.000
G1 X75.025 Y19.075 Z5.000 F320.000
G1 X74.503 Y18.225 Z5.000 F320.000
G1 X73.960 Y17.388 Z5.000 F320.000
G1 X73.398 Y16.564 Z5.000 F320.000
G1 X72.815 Y15.755 Z5.000 F320.000
G1 X72.212 Y14.960 Z5.000 F320.000
G1 X71.591 Y14.180 Z5.000 F320.000
G1 X70.950 Y13.416 Z5.000 F320.000
G1 X70.291 Y12.667 Z5.000 F320.000
G1 X69.614 Y11.935 Z5.000 F320.000
G1 X68.919 Y11.220 Z5.000 F320.000
G1 X68.207 Y10.521 Z5.000 F320.000
G1 X67.478 Y9.841 Z5.000 F320.000
G1 X66.733 Y9.178 Z5.000 F320.000
G1 X65.971 Y8.534 Z5.000 F320.000
G1 X65.194 Y7.908 Z5.000 F320.000
G1 X64.402 Y7.302 Z5.000 F320.000
G1 X63.596 Y6.715 Z5.000 F320.000
G1 X62.775 Y6.149 Z5.000 F320.000
G1 X61.941 Y5.602 Z5.000 F320.000
G1 X61.094 Y5.076 Z5.000 F320.000
G1 X60.234 Y4.571 Z5.000 F320.000
G1 X59.362 Y4.087 Z5.000 F320.000
G1 X58.478 Y3.624 Z5.000 F320.000
G1 X57.584 Y3.184 Z5.000 F320.000
G1 X56.678 Y2.765 Z5.000 F320.000
G1 X55.763 Y2.368 Z5.000 F320.000
G1 X54.839 Y1.994 Z5.000 F320.000
G1 X53.905 Y1.643 Z5.000 F320.000
G1 X52.964 Y1.314 Z5.000 F320.000
G1 X52.014 Y1.009 Z5.000 F320.000
G1 X51.057 Y0.727 Z5.000 F320.000
G1 X50.094 Y0.468 Z5.000 F320.000
G1 X49.125 Y0.233 Z5.000 F320.000
G1 X48.150 Y0.022 Z5.000 F320.000
G1 X47.171 Y-0.165 Z5.000 F320.000
G1 X46.187 Y-0.328 Z5.000 F320.000
G1 X45.199 Y-0.467 Z5.000 F320.000
G1 X44.208 Y-0.582 Z5.000 F320.000
G1 X43.215 Y-0.673 Z5.000 F320.000
G1 X42.220 Y-0.740 Z5.000 F320.000
G1 X41.224 Y-0.782 Z5.000 F320.000
G1 X40.226 Y-0.799 Z5.000 F320.000
G1 X39.229 Y-0.793 Z5.000 F320.000
G1 X38.232 Y-0.762 Z5.000 F320.000
G1 X37.236 Y-0.706 Z5.000 F320.000
G1 X36.242 Y-0.627 Z5.000 F320.000
G1 X35.250 Y-0.523 Z5.000 F320.000
G1 X34.261 Y-0.395 Z5.000 F320.000
G1 X33.276 Y-0.242 Z5.000 F320.000
G1 X32.294 Y-0.066 Z5.000 F320.000
G1 X31.317 Y0.134 Z5.000 F320.000
G1 X30.345 Y0.359 Z5.000 F320.000
G1 X29.379 Y0.606 Z5.000 F320.000
G1 X28.419 Y0.878 Z5.000 F320.000
G1 X27.467 Y1.173 Z5.000 F320.000
G1 X26.521 Y1.490 Z5.000 F320.000
G1 X25.584 Y1.831 Z5.000 F320.000
G1 X24.655 Y2.195 Z5.000 F320.000
G1 X23.736 Y2.582 Z5.000 F320.000
G1 X22.826 Y2.990 Z5.000 F320.000
G1 X21.927 Y3.421 Z5.000 F320.000
G1 X21.038 Y3.874 Z5.000 F320.000
G1 X20.161 Y4.348 Z5.000 F320.000
G1 X19.295 Y4.844 Z5.000 F320.000
G1 X18.442 Y5.360 Z5.000 F320.000
G1 X17.602 Y5.897 Z5.000 F320.000
G1 X16.775 Y6.455 Z5.000 F320.000
G1 X15.962 Y7.033 Z5.000 F320.000
G1 X15.163 Y7.630 Z5.000 F320.000
G1 X14.379 Y8.247 Z5.000 F320.000
G1 X13.611 Y8.883 Z5.000 F320.000
G1 X12.858 Y9.537 Z5.000 F320.000
G1 X12.122 Y10.210 Z5.000 F320.000
G1 X11.402 Y10.900 Z5.000 F320.000
G1 X10.699 Y11.608 Z5.000 F320.000
G1 X10.014 Y12.332 Z5.000 F320.000
G1 X9.347 Y13.073 Z5.000 F320.000
G1 X8.698 Y13.831 Z5.000 F320.000
G1 X8.067 Y14.604 Z5.000 F320.000
G1 X7.456 Y15.392 Z5.000 F320.000
G1 X6.864 Y16.195 Z5.000 F320.000
G1 X6.292 Y17.012 Z5.000 F320.000
G1 X5.741 Y17.842 Z5.000 F320.000
G1 X5.209 Y18.686 Z5.000 F320.000
G1 X4.699 Y19.543 Z5.000 F320.000
G1 X4.209 Y20.412 Z5.000 F320.000
G1 X3.741 Y21.293 Z5.000 F320.000
G1 X3.295 Y22.185 Z5.000 F320.000
G1 X2.870 Y23.087 Z5.000 F320.000
G1 X2.468 Y24.000 Z5.000 F320.000
G1 X2.088 Y24.922 Z5.000 F320.000
G1 X1.731 Y25.853 Z5.000 F320.000
G1 X1.396 Y26.793 Z5.000 F320.000
G1 X1.085 Y27.740 Z5.000 F320.000
G1 X0.797 Y28.695 Z5.000 F320.000
G1 X0.532 Y29.657 Z5.000 F320.000
G1 X0.291 Y30.624 Z5.000 F320.000
G1 X0.074 Y31.598 Z5.000 F320.000
G1 X-0.119 Y32.576 Z5.000 F320.000
G1 X-0.289 Y33.559 Z5.000 F320.000
G1 X-0.434 Y34.546 Z5.000 F320.000
G1 X-0.555 Y35.536 Z5.000 F320.000
G1 X-0.652 Y36.528 Z5.000 F320.000
G1 X-0.725 Y37.523 Z5.000 F320.000
G1 X-0.774 Y38.519 Z5.000 F320.000
G1 X-0.798 Y39.516 Z5.000 F320.000
G1 X-0.797 Y40.514 Z5.000 F320.000
G1 X-0.772 Y41.511 Z5.000 F320.000
G1 X-0.723 Y42.507 Z5.000 F320.000
G1 X-0.650 Y43.501 Z5.000 F320.000
G1 X-0.552 Y44.494 Z5.000 F320.000
G1 X-0.430 Y45.484 Z5.000 F320.000
G1 X-0.284 Y46.470 Z5.000 F320.000
G1 X-0.114 Y47.453 Z5.000 F320.000
G1 X0.080 Y48.431 Z5.000 F320.000
G1 X0.298 Y49.405 Z5.000 F320.000
G1 X0.540 Y50.372 Z5.000 F320.000
G1 X0.805 Y51.334 Z5.000 F320.000
G1 X1.094 Y52.288 Z5.000 F320.000
G1 X1.406 Y53.236 Z5.000 F320.000
G1 X1.741 Y54.175 Z5.000 F320.000
G1 X2.099 Y55.106 Z5.000 F320.000
G1 X2.480 Y56.028 Z5.000 F320.000
G1 X2.883 Y56.940 Z5.000 F320.000
G1 X3.308 Y57.842 Z5.000 F320.000
G1 X3.755 Y58.734 Z5.000 F320.000
G1 X4.224 Y59.614 Z5.000 F320.000
G1 X4.714 Y60.483 Z5.000 F320.000
G1 X5.225 Y61.339 Z5.000 F320.000
G1 X5.757 Y62.183 Z5.000 F320.000
G1 X6.309 Y63.013 Z5.000 F320.000
G1 X6.882 Y63.830 Z5.000 F320.000
G1 X7.474 Y64.632 Z5.000 F320.000
G1 X8.086 Y65.420 Z5.000 F320.000
G1 X8.717 Y66.192 Z5.000 F320.000
G1 X9.366 Y66.949 Z5.000 F320.000
G1 X10.034 Y67.690 Z5.000 F320.000
G1 X10.720 Y68.414 Z5.000 F320.000
G1 X11.423 Y69.121 Z5.000 F320.000
G1 X12.144 Y69.811 Z5.000 F320.000
G1 X12.881 Y70.483 Z5.000 F320.000
G1 X13.634 Y71.137 Z5.000 F320.000
G1 X14.403 Y71.772 Z5.000 F320.000
G1 X15.187 Y72.388 Z5.000 F320.000
G1 X15.986 Y72.985 Z5.000 F320.000
G1 X16.800 Y73.562 Z5.000 F320.000
G1 X17.627 Y74.119 Z5.000 F320.000
G1 X18.467 Y74.655 Z5.000 F320.000
G1 X19.321 Y75.171 Z5.000 F320.000
G1 X20.187 Y75.666 Z5.000 F320.000
G1 X21.065 Y76.140 Z5.000 F320.000
G1 X21.954 Y76.592 Z5.000 F320.000
G1 X22.853 Y77.022 Z5.000 F320.000
G1 X23.763 Y77.430 Z5.000 F320.000
G1 X24.683 Y77.816 Z5.000 F320.000
G1 X25.612 Y78.179 Z5.000 F320.000
G1 X26.550 Y78.519 Z5.000 F320.000
G1 X27.495 Y78.836 Z5.000 F320.000
G1 X28.448 Y79.131 Z5.000 F320.000
G1 X29.408 Y79.401 Z5.000 F320.000
G1 X30.374 Y79.648 Z5.000 F320.000
G1 X31.346 Y79.872 Z5.000 F320.000
G1 X32.324 Y80.071 Z5.000 F320.000
G1 X33.305 Y80.247 Z5.000 F320.000
G1 X34.291 Y80.399 Z5.000 F320.000
G1 X35.280 Y80.526 Z5.000 F320.000
G1 X36.272 Y80.629 Z5.000 F320.000
G1 X37.266 Y80.708 Z5.000 F320.000
G1 X38.262 Y80.763 Z5.000 F320.000
G1 X39.259 Y80.793 Z5.000 F320.000
G1 X40.256 Y80.799 Z5.000 F320.000
G1 X41.254 Y80.781 Z5.000 F320.000
G1 X42.250 Y80.738 Z5.000 F320.000
G1 X43.245 Y80.671 Z5.000 F320.000
G1 X44.238 Y80.579 Z5.000 F320.000
G1 X45.229 Y80.463 Z5.000 F320.000
G1 X46.216 Y80.323 Z5.000 F320.000
G1 X47.200 Y80.159 Z5.000 F320.000
G1 X48.180 Y79.971 Z5.000 F320.000
G1 X49.154 Y79.760 Z5.000 F320.000
G1 X50.123 Y79.524 Z5.000 F320.000
G1 X51.086 Y79.265 Z5.000 F320.000
G1 X52.043 Y78.982 Z5.000 F320.000
G1 X52.992 Y78.676 Z5.000 F320.000
G1 X53.933 Y78.347 Z5.000 F320.000
G1 X54.867 Y77.995 Z5.000 F320.000
G1 X55.791 Y77.620 Z5.000 F320.000
G1 X56.706 Y77.223 Z5.000 F320.000
G1 X57.611 Y76.803 Z5.000 F320.000
G1 X58.505 Y76.362 Z5.000 F320.000
G1 X59.388 Y75.899 Z5.000 F320.000
G1 X60.260 Y75.414 Z5.000 F320.000
G1 X61.119 Y74.908 Z5.000 F320.000
G1 X61.966 Y74.382 Z5.000 F320.000
G1 X62.800 Y73.834 Z5.000 F320.000
G1 X63.620 Y73.267 Z5.000 F320.000
G1 X64.426 Y72.680 Z5.000 F320.000
G1 X65.218 Y72.073 Z5.000 F320.000
G1 X65.994 Y71.447 Z5.000 F320.000
G1 X66.755 Y70.802 Z5.000 F320.000
G1 X67.500 Y70.139 Z5.000 F320.000
G1 X68.229 Y69.458 Z5.000 F320.000
G1 X68.940 Y68.759 Z5.000 F320.000
G1 X69.635 Y68.043 Z5.000 F320.000
G1 X70.311 Y67.310 Z5.000 F320.000
G1 X70.970 Y66.561 Z5.000 F320.000
G1 X71.610 Y65.796 Z5.000 F320.000
G1 X72.231 Y65.016 Z5.000 F320.000
G1 X72.833 Y64.221 Z5.000 F320.000
G1 X73.415 Y63.411 Z5.000 F320.000
G1 X73.977 Y62.587 Z5.000 F320.000
G1 X74.519 Y61.750 Z5.000 F320.000
G1 X75.040 Y60.900 Z5.000 F320.000
G1 X75.541 Y60.037 Z5.000 F320.000
G1 X76.020 Y59.162 Z5.000 F320.000
G1 X76.477 Y58.276 Z5.000 F320.000
G1 X76.913 Y57.379 Z5.000 F320.000
G1 X77.327 Y56.471 Z5.000 F320.000
G1 X77.718 Y55.554 Z5.000 F320.000
G1 X78.087 Y54.627 Z5.000 F320.000
G1 X78.434 Y53.692 Z5.000 F320.000
G1 X78.757 Y52.749 Z5.000 F320.000
G1 X79.057 Y51.797 Z5.000 F320.000
G1 X79.333 Y50.839 Z5.000 F320.000
G1 X79.587 Y49.875 Z5.000 F320.000
G1 X79.816 Y48.904 Z5.000 F320.000
G1 X80.022 Y47.928 Z5.000 F320.000
G1 X80.204 Y46.947 Z5.000 F320.000
G1 X80.362 Y45.963 Z5.000 F320.000
G1 X80.495 Y44.974 Z5.000 F320.000
G1 X80.605 Y43.983 Z5.000 F320.000
G1 X80.690 Y42.989 Z5.000 F320.000
G1 X80.751 Y41.994 Z5.000 F320.000
G1 X80.787 Y40.997 Z5.000 F320.000
G1 X80.800 Y40.000 Z5.000 F320.000
G1 X80.800 Y39.970 Z5.000 F320.000
(End of step 15.)
G0 Z20.000
(Finish operation: Surface006)
(Begin operation: Helix009)
(Path: Helix009)
(Helix009)
(helix cut operation)
G0 Z20.000
G0 X14.519 Y25.000
G0 Z18.000
G1 Z5.000 F500.000
G2 X13.519 Y25.000 Z4.500 I-0.500 J0.000 F320.000
G2 X14.519 Y25.000 Z4.000 I0.500 J0.000 F320.000
G2 X13.519 Y25.000 Z3.500 I-0.500 J0.000 F320.000
G2 X14.519 Y25.000 Z3.000 I0.500 J0.000 F320.000
G2 X13.519 Y25.000 Z2.500 I-0.500 J0.000 F320.000
G2 X14.519 Y25.000 Z2.000 I0.500 J0.000 F320.000
G2 X13.519 Y25.000 Z1.500 I-0.500 J0.000 F320.000
G2 X14.519 Y25.000 Z1.000 I0.500 J0.000 F320.000
G2 X13.519 Y25.000 Z0.500 I-0.500 J0.000 F320.000
G2 X14.519 Y25.000 Z0.000 I0.500 J0.000 F320.000
G2 X13.519 Y25.000 Z0.000 I-0.500 J0.000 F320.000
G2 X14.519 Y25.000 Z0.000 I0.500 J0.000 F320.000
G0 Z18.000
G0 X14.519 Y55.000
G0 Z18.000
G1 Z5.000 F500.000
G2 X13.519 Y55.000 Z4.500 I-0.500 J0.000 F320.000
G2 X14.519 Y55.000 Z4.000 I0.500 J0.000 F320.000
G2 X13.519 Y55.000 Z3.500 I-0.500 J0.000 F320.000
G2 X14.519 Y55.000 Z3.000 I0.500 J0.000 F320.000
G2 X13.519 Y55.000 Z2.500 I-0.500 J0.000 F320.000
G2 X14.519 Y55.000 Z2.000 I0.500 J0.000 F320.000
G2 X13.519 Y55.000 Z1.500 I-0.500 J0.000 F320.000
G2 X14.519 Y55.000 Z1.000 I0.500 J0.000 F320.000
G2 X13.519 Y55.000 Z0.500 I-0.500 J0.000 F320.000
G2 X14.519 Y55.000 Z0.000 I0.500 J0.000 F320.000
G2 X13.519 Y55.000 Z0.000 I-0.500 J0.000 F320.000
G2 X14.519 Y55.000 Z0.000 I0.500 J0.000 F320.000
G0 Z18.000
G0 X40.900 Y40.000
G0 Z18.000
G1 Z5.000 F500.000
G2 X39.100 Y40.000 Z4.500 I-0.900 J0.000 F320.000
G2 X40.900 Y40.000 Z4.000 I0.900 J0.000 F320.000
G2 X39.100 Y40.000 Z3.500 I-0.900 J0.000 F320.000
G2 X40.900 Y40.000 Z3.000 I0.900 J0.000 F320.000
G2 X39.100 Y40.000 Z2.500 I-0.900 J0.000 F320.000
G2 X40.900 Y40.000 Z2.000 I0.900 J0.000 F320.000
G2 X39.100 Y40.000 Z1.500 I-0.900 J0.000 F320.000
G2 X40.900 Y40.000 Z1.000 I0.900 J0.000 F320.000
G2 X39.100 Y40.000 Z0.500 I-0.900 J0.000 F320.000
G2 X40.900 Y40.000 Z0.000 I0.900 J0.000 F320.000
G2 X39.100 Y40.000 Z0.000 I-0.900 J0.000 F320.000
G2 X40.900 Y40.000 Z0.000 I0.900 J0.000 F320.000
G0 Z18.000
G0 X42.100 Y40.000
G0 Z18.000
G1 Z5.000 F500.000
G2 X37.900 Y40.000 Z4.500 I-2.100 J0.000 F320.000
G2 X42.100 Y40.000 Z4.000 I2.100 J0.000 F320.000
G2 X37.900 Y40.000 Z3.500 I-2.100 J0.000 F320.000
G2 X42.100 Y40.000 Z3.000 I2.100 J0.000 F320.000
G2 X37.900 Y40.000 Z2.500 I-2.100 J0.000 F320.000
G2 X42.100 Y40.000 Z2.000 I2.100 J0.000 F320.000
G2 X37.900 Y40.000 Z1.500 I-2.100 J0.000 F320.000
G2 X42.100 Y40.000 Z1.000 I2.100 J0.000 F320.000
G2 X37.900 Y40.000 Z0.500 I-2.100 J0.000 F320.000
G2 X42.100 Y40.000 Z0.000 I2.100 J0.000 F320.000
G2 X37.900 Y40.000 Z0.000 I-2.100 J0.000 F320.000
G2 X42.100 Y40.000 Z0.000 I2.100 J0.000 F320.000
G0 Z18.000
G0 X40.900 Y40.000
G0 Z18.000
G1 Z5.000 F500.000
G2 X39.100 Y40.000 Z4.500 I-0.900 J0.000 F320.000
G2 X40.900 Y40.000 Z4.000 I0.900 J0.000 F320.000
G2 X39.100 Y40.000 Z3.500 I-0.900 J0.000 F320.000
G2 X40.900 Y40.000 Z3.000 I0.900 J0.000 F320.000
G2 X39.100 Y40.000 Z2.500 I-0.900 J0.000 F320.000
G2 X40.900 Y40.000 Z2.000 I0.900 J0.000 F320.000
G2 X39.100 Y40.000 Z1.500 I-0.900 J0.000 F320.000
G2 X40.900 Y40.000 Z1.000 I0.900 J0.000 F320.000
G2 X39.100 Y40.000 Z0.500 I-0.900 J0.000 F320.000
G2 X40.900 Y40.000 Z0.000 I0.900 J0.000 F320.000
