(Project Plaque Meshed)
(Created by Estlcam version 11 build 11,244)
(Machining time about 04:55:21 hours)

(Required tools:)
(D6 UP Z1 Q8 ALU)
(D1.5 Q4)
G21
G90
G94
M03 S8000
G00 Z5.0000


(No. 1: )
G00 X-3.1000 Y32.9000
G01 Z-2.0000 F160 S8000
G01 Y47.1000
G01 Z0.7000
G01 X1.7000 Y60.9000
G01 Z-2.0000
G01 Y19.1000
G01 X6.5000 Y12.3000
G01 Y67.7000
G01 X11.3000 Y72.7000
G01 Y7.3000
G01 X16.1000 Y3.5000
G01 Y76.5000
G01 X20.9000 Y79.3000
G01 Y0.7000
G01 X25.7000 Y-1.1000
G01 Y81.1000
G01 X30.5000 Y82.5000
G01 Y-2.5000
G01 X35.3000 Y-3.3000
G01 Y83.3000
G01 X40.1000 Y83.5000
G01 Y-3.5000
G01 X44.9000 Y-3.3000
G01 Y83.3000
G01 X49.7000 Y82.5000
G01 Y-2.5000
G01 X54.5000 Y-1.1000
G01 Y81.1000
G01 X59.3000 Y79.1000
G01 Y0.9000
G01 X64.1000 Y3.7000
G01 Y76.3000
G01 X68.9000 Y72.5000
G01 Y7.5000
G01 X73.7000 Y12.5000
G01 Y67.5000
G01 X78.5000 Y60.5000
G01 Y19.5000
G01 Z-1.5000
G01 X83.3000 Y34.9000
G01 Z-2.0000
G01 Y45.1000
G00 Z5.0000
G00 X-3.1000 Y47.1000
G01 Z-4.0000
G01 Y32.9000
G01 Z0.7000
G01 X1.7000 Y19.1000
G01 Z-4.0000
G01 Y60.9000
G01 X6.5000 Y67.7000
G01 Y12.3000
G01 X11.3000 Y7.3000
G01 Y72.7000
G01 X16.1000 Y76.5000
G01 Y3.5000
G01 X20.9000 Y0.7000
G01 Y79.3000
G01 X25.7000 Y81.1000
G01 Y-1.1000
G01 X30.5000 Y-2.5000
G01 Y29.5000
G01 Y31.3000 Z-2.3000
G01 Y48.9000 Z-2.3021
G01 Y50.5000 Z-4.0000
G01 Y82.5000
G01 X35.3000 Y83.3000
G01 Y53.3000
G01 Y52.3000 Z-2.3198
G01 Y41.5000 Z-2.3000
G01 Y41.3000 Z-4.0000
G01 Y38.7000
G01 Y38.5000 Z-2.3000
G01 Y27.9000
G01 Y26.7000 Z-4.0000
G01 Y-3.3000
G01 X40.1000 Y-3.5000
G01 Y26.7000
G01 Y27.9000 Z-2.3000
G01 Y34.7000
G01 Y34.9000 Z-4.0000
G01 Y45.1000
G01 Y45.3000 Z-2.3000
G01 Y52.3000 Z-2.3005
G01 Y53.3000 Z-4.0000
G01 Y83.5000
G01 X44.9000 Y83.3000
G01 Y53.3000
G01 Y52.1000 Z-2.3021
G01 Y28.1000 Z-2.3000
G01 Y27.5000 Z-2.4372
G01 Y26.9000 Z-4.0000
G01 Y-3.3000
G01 X49.7000 Y-2.5000
G01 Y29.7000
G01 Y31.5000 Z-2.3000
G01 Y48.7000 Z-2.3048
G01 Y50.3000 Z-4.0000
G01 Y82.5000
G01 X54.5000 Y81.1000
G01 Y-1.1000
G01 X59.3000 Y0.9000
G01 Y79.1000
G01 X64.1000 Y76.3000
G01 Y3.7000
G01 X68.9000 Y7.5000
G01 Y72.5000
G01 X73.7000 Y67.5000
G01 Y12.5000
G01 X78.5000 Y19.5000
G01 Y60.5000
G01 Z-3.5000
G01 X83.3000 Y45.1000
G01 Z-4.0000
G01 Y34.9000
G00 Z5.0000
G00 X-3.1000 Y32.9000
G01 Z-6.0000
G01 Y47.1000
G01 Z0.7000
G01 X1.7000 Y60.9000
G01 Z-6.0000
G01 Y19.1000
G01 X6.5000 Y12.3000
G01 Y67.7000
G01 X11.3000 Y72.7000
G01 Y7.3000
G01 X16.1000 Y3.5000
G01 Y76.5000
G01 X20.9000 Y79.3000
G01 Y0.7000
G01 X25.7000 Y-1.1000
G01 Y34.1000
G01 Y38.5000 Z-4.5055
G01 Y41.7000
G01 Y45.9000 Z-6.0000
G01 Y81.1000
G01 X30.5000 Y82.5000
G01 Y52.3000
G01 Y48.9000 Z-2.3021
G01 Y31.3000 Z-2.3000
G01 Y27.9000 Z-6.0000
G01 Y-2.5000
G01 X35.3000 Y-3.3000
G01 Y25.1000
G01 Y27.9000 Z-2.3000
G01 Y38.5000
G01 Y38.7000 Z-6.0000
G01 Y41.3000
G01 Y41.5000 Z-2.3000
G01 Y52.3000 Z-2.3198
G01 Y54.9000 Z-6.0000
G01 Y83.3000
G01 X40.1000 Y83.5000
G01 Y54.9000
G01 Y52.5000 Z-2.3445
G01 Y45.3000 Z-2.3000
G01 Y45.1000 Z-6.0000
G01 Y34.9000
G01 Y34.7000 Z-2.3000
G01 Y27.9000
G01 Y25.1000 Z-6.0000
G01 Y-3.5000
G01 X44.9000 Y-3.3000
G01 Y25.1000
G01 Y28.1000 Z-2.3000
G01 Y52.3000 Z-2.3234
G01 Y54.9000 Z-6.0000
G01 Y83.3000
G01 X49.7000 Y82.5000
G01 Y52.1000
G01 Y48.9000 Z-2.3398
G01 Y31.5000 Z-2.3000
G01 Y27.9000 Z-6.0000
G01 Y-2.5000
G01 X54.5000 Y-1.1000
G01 Y34.5000
G01 Y39.5000 Z-4.7383
G01 Y45.5000 Z-6.0000
G01 Y81.1000
G01 X59.3000 Y79.1000
G01 Y0.9000
G01 X64.1000 Y3.7000
G01 Y76.3000
G01 X68.9000 Y72.5000
G01 Y7.5000
G01 X73.7000 Y12.5000
G01 Y67.5000
G01 X78.5000 Y60.5000
G01 Y19.5000
G01 Z-5.5000
G01 X83.3000 Y34.9000
G01 Z-6.0000
G01 Y45.1000
G00 Z5.0000
G00 X-3.1000 Y47.1000
G01 Z-8.0000
G01 Y32.9000
G01 Z0.7000
G01 X1.7000 Y19.1000
G01 Z-8.0000
G01 Y60.9000
G01 X6.5000 Y67.7000
G01 Y12.3000
G01 X11.3000 Y7.3000
G01 Y72.7000
G01 X16.1000 Y76.5000
G01 Y3.5000
G01 X20.9000 Y0.7000
G01 Y79.3000
G01 X25.7000 Y81.1000
G01 Y48.9000 Z-7.9790
G01 Y44.1000 Z-5.1231
G01 Y38.5000 Z-4.5055
G01 Y34.7000 Z-5.6749
G01 Y30.9000 Z-7.9794
G01 Y-1.1000 Z-8.0000
G01 X30.5000 Y-2.5000
G01 Y25.1000
G01 Y27.9000 Z-6.0122
G01 Y31.3000 Z-2.3000
G01 Y49.1000 Z-2.3445
G01 Y52.1000 Z-5.9022
G01 Y54.9000 Z-8.0000
G01 Y82.5000
G01 X35.3000 Y83.3000
G01 Y56.9000
G01 Y53.7000 Z-4.7854
G01 Y52.3000 Z-2.3198
G01 Y41.5000 Z-2.3000
G01 Y41.3000 Z-8.0000
G01 Y38.7000
G01 Y38.5000 Z-2.3000
G01 Y27.9000
G01 Y23.1000 Z-8.0000
G01 Y-3.3000
G01 X40.1000 Y-3.5000
G01 Y23.1000
G01 Y27.9000 Z-2.3000
G01 Y34.7000
G01 Y34.9000 Z-8.0000
G01 Y45.1000
G01 Y45.3000 Z-2.3000
G01 Y52.5000 Z-2.3445
G01 Y54.1000 Z-5.2168
G01 Y56.9000 Z-8.0000
G01 Y83.5000
G01 X44.9000 Y83.3000
G01 Y56.7000
G01 Y52.3000 Z-2.3234
G01 Y28.1000 Z-2.3000
G01 Y23.1000 Z-8.0000
G01 Y-3.3000
G01 X49.7000 Y-2.5000
G01 Y25.5000
G01 Y31.5000 Z-2.3000
G01 Y48.9000 Z-2.3398
G01 Y54.5000 Z-7.9945
G01 Y82.5000 Z-8.0000
G01 X54.5000 Y81.1000
G01 Y48.5000 Z-7.9790
G01 Y44.7000 Z-5.6229
G01 Y39.5000 Z-4.7383
G01 Y35.3000 Z-5.6229
G01 Y31.1000 Z-8.0000
G01 Y-1.1000
G01 X59.3000 Y0.9000
G01 Y79.1000
G01 X64.1000 Y76.3000
G01 Y3.7000
G01 X68.9000 Y7.5000
G01 Y72.5000
G01 X73.7000 Y67.5000
G01 Y12.5000
G01 X78.5000 Y19.5000
G01 Y60.5000
G01 Z-7.5000
G01 X83.3000 Y45.1000
G01 Z-8.0000
G01 Y34.9000
G00 Z5.0000
G00 X-3.1000 Y32.9000
G01 Z-10.0000
G01 Y47.1000
G01 Z0.7000
G01 X1.7000 Y60.9000
G01 Z-10.0000
G01 Y19.1000
G01 X6.5000 Y12.3000
G01 Y67.7000
G01 X11.3000 Y72.7000
G01 Y7.3000
G01 X16.1000 Y3.5000
G01 Y76.5000
G01 X20.9000 Y79.3000
G01 Y47.3000
G01 Y41.7000 Z-9.2417
G01 Y33.1000 Z-10.0000
G01 Y0.7000
G01 X25.7000 Y-1.1000
G01 Y25.5000
G01 Y31.9000 Z-7.7129
G01 Y34.7000 Z-5.6749
G01 Y38.5000 Z-4.5055
G01 Y44.1000 Z-5.1231
G01 Y48.1000 Z-7.7343
G01 Y54.5000 Z-10.0000
G01 Y81.1000
G01 X30.5000 Y82.5000
G01 Y57.9000 Z-9.9820
G01 Y53.5000 Z-7.1915
G01 Y49.1000 Z-2.3445
G01 Y31.3000 Z-2.3000
G01 Y26.5000 Z-7.1902
G01 Y21.9000 Z-10.0000
G01 Y-2.5000
G01 X35.3000 Y-3.3000
G01 Y20.3000 Z-9.9524
G01 Y24.1000 Z-7.1902
G01 Y27.9000 Z-2.3000
G01 Y38.5000
G01 Y38.7000 Z-10.0000
G01 Y41.3000
G01 Y41.5000 Z-2.3000
G01 Y52.3000 Z-2.3198
G01 Y55.7000 Z-7.0148
G01 Y59.9000 Z-10.0000
G01 Y83.3000
G01 X40.1000 Y83.5000
G01 Y59.7000
G01 Y55.3000 Z-6.5615
G01 Y52.5000 Z-2.3445
G01 Y45.3000 Z-2.3000
G01 Y45.1000 Z-10.0000
G01 Y34.9000
G01 Y34.7000 Z-2.3000
G01 Y27.9000
G01 Y24.1000 Z-7.1915
G01 Y20.3000 Z-10.0000
G01 Y-3.5000
G01 X44.9000 Y-3.3000
G01 Y20.1000
G01 Y23.1000 Z-8.1331
G01 Z-7.6331
G01 X49.7000 Y-2.5000
G01 Z-10.0000
G01 Y22.3000 Z-9.9637
G01 Y26.7000 Z-7.1902
G01 Y31.5000 Z-2.3000
G01 Y48.9000 Z-2.3398
G01 Y51.9000 Z-5.9022
G01 Y57.9000 Z-9.9811
G01 Y82.5000 Z-10.0000
G01 X44.9000 Y83.3000
G01 Y59.7000
G01 Y56.7000 Z-8.0134
G01 Z-7.5134
G01 X54.5000 Y81.1000
G01 Z-10.0000
G01 Y54.1000
G01 Y48.3000 Z-7.9319
G01 Y44.7000 Z-5.6229
G01 Y39.5000 Z-4.7383
G01 Y35.3000 Z-5.6229
G01 Y31.7000 Z-7.9035
G01 Y25.7000 Z-10.0000
G01 Y-1.1000
G01 X59.3000 Y0.9000
G01 Y33.5000
G01 Y38.5000 Z-9.3881
G01 Y46.3000 Z-10.0000
G01 Y79.1000
G01 X64.1000 Y76.3000
G01 Y3.7000
G01 X68.9000 Y7.5000
G01 Y72.5000
G01 X73.7000 Y67.5000
G01 Y12.5000
G01 X78.5000 Y19.5000
G01 Y60.5000
G01 Z0.7000
G01 X83.3000 Y45.1000
G01 Z-10.0000
G01 Y34.9000
G00 Z5.0000
G00 X-3.1000 Y32.9000
G01 Z-12.0000
G01 Y47.1000
G01 Z0.7000
G01 X1.7000 Y60.9000
G01 Z-12.0000
G01 Y19.1000
G01 X6.5000 Y12.3000
G01 Y67.7000
G01 X11.3000 Y72.7000
G01 Y7.3000
G01 X16.1000 Y3.5000
G01 Y38.5000 Z-11.5251
G01 Y76.5000 Z-12.0000
G01 X20.9000 Y79.3000
G01 Y57.3000 Z-11.9860
G01 Y41.7000 Z-9.2417
G01 Y34.9000 Z-9.6436
G01 Y22.7000 Z-11.9923
G01 Y0.7000 Z-12.0000
G01 X25.7000 Y-1.1000
G01 Y19.9000 Z-11.7713
G01 Y31.9000 Z-7.7129
G01 Y33.5000 Z-6.2332
G01 Y38.5000 Z-4.5055
G01 Y44.1000 Z-5.1231
G01 Y48.1000 Z-7.7343
G01 Y60.1000 Z-11.7638
G01 Y81.1000 Z-12.0000
G01 X30.5000 Y82.5000
G01 Y64.1000
G01 Y58.1000 Z-10.0864
G01 Z-9.5864
G01 X35.3000 Y83.3000
G01 Z-12.0000
G01 Y64.3000 Z-11.7981
G01 Y57.3000 Z-8.4915
G01 Y53.7000 Z-4.7854
G01 Y52.3000 Z-2.3198
G01 Y41.5000 Z-2.3000
G01 Y41.3000 Z-12.0000
G01 Y38.7000
G01 Y38.5000 Z-2.3000
G01 Y27.9000
G01 Y24.1000 Z-7.1902
G01 Y18.1000 Z-11.0847
G01 Y14.5000 Z-12.0000
G01 Y-3.3000
G01 X40.1000 Y-3.5000
G01 Y14.1000
G01 Y17.7000 Z-11.2303
G01 Y23.5000 Z-7.7897
G01 Y27.9000 Z-2.3000
G01 Y34.7000
G01 Y34.9000 Z-12.0000
G01 Y45.1000
G01 Y45.3000 Z-2.3000
G01 Y52.5000 Z-2.3445
G01 Y54.1000 Z-5.2168
G01 Y56.7000 Z-7.9319
G01 Y62.5000 Z-11.2981
G01 Y65.9000 Z-12.0000
G01 Y83.5000
G01 X44.9000 Y83.3000
G01 Y65.5000
G01 Y59.7000 Z-10.0425
G01 X49.7000 Y58.1000
G01 Z-10.0921
G01 Y63.9000 Z-12.0000
G01 Y82.5000
G01 X54.5000 Y81.1000
G01 Y60.1000 Z-11.7981
G01 Y48.3000 Z-7.9319
G01 Y43.9000 Z-5.3435
G01 Y39.5000 Z-4.7383
G01 Y35.3000 Z-5.6229
G01 Y31.7000 Z-7.9035
G01 Y19.9000 Z-11.7986
G01 Y-1.1000 Z-12.0000
G01 X49.7000 Y-2.5000
G01 Y16.1000 Z-11.9866
G01 Y22.1000 Z-10.0681
G01 X44.9000 Y20.1000
G01 Z-10.0797
G01 Y14.5000 Z-12.0000
G01 Y-3.3000
G01 Z-11.5000
G01 X30.5000 Y-2.5000
G01 Z-12.0000
G01 Y15.9000
G01 Y21.9000 Z-10.0412
G00 Z5.0000
G00 X59.3000 Y0.9000
G01 Z-12.0000
G01 Y22.9000 Z-11.9965
G01 Y38.5000 Z-9.3881
G01 Y45.1000 Z-9.7697
G01 Y57.1000 Z-11.9954
G01 Y79.1000 Z-12.0000
G01 X64.1000 Y76.3000
G01 Y38.9000 Z-11.5794
G01 Y3.7000 Z-12.0000
G01 X68.9000 Y7.5000
G01 Y72.5000
G01 X73.7000 Y67.5000
G01 Y12.5000
G01 X78.5000 Y19.5000
G01 Y60.5000
G01 Z-11.5000
G01 X83.3000 Y45.1000
G01 Z-12.0000
G01 Y34.9000
G00 Z5.0000
G00 X-3.1000 Y32.9000
G01 Z-14.0000
G01 Y47.1000
G01 Z0.7000
G01 X1.7000 Y60.9000
G01 Z-14.0000
G01 Y54.1000
G01 Y53.9000 Z-12.3000
G01 Y26.1000
G01 Y25.9000 Z-14.0000
G01 Y19.1000
G01 X6.5000 Y12.3000
G01 Y16.7000
G01 Y16.9000 Z-12.3000
G01 Y63.1000
G01 Y63.3000 Z-14.0000
G01 Y67.7000
G01 X11.3000 Y72.7000
G01 Y68.9000
G01 Y68.7000 Z-12.3000
G01 Y11.3000
G01 Y11.1000 Z-14.0000
G01 Y7.3000
G01 X16.1000 Y3.5000
G01 Y6.9000
G01 Y7.1000 Z-12.3000
G01 Y24.9000
G01 Y38.5000 Z-11.5251
G01 Y54.9000 Z-12.3000
G01 Y72.9000
G01 Y73.1000 Z-14.0000
G01 Y76.5000
G01 X20.9000 Y79.3000
G01 Y76.1000
G01 Y75.9000 Z-12.3000
G01 Y57.5000 Z-12.0104
G01 X25.7000 Y61.7000
G01 Z-12.0310
G01 Y78.1000 Z-12.3000
G01 Y78.3000 Z-14.0000
G01 Y81.1000
G01 X30.5000 Y82.5000
G01 Y79.7000
G01 Y79.5000 Z-12.3000
G01 Y64.1000 Z-12.0203
G01 Z-11.5203
G01 X35.3000 Y83.3000
G01 Z-14.0000
G01 Y80.7000
G01 Y80.5000 Z-12.3000
G01 Y67.7000 Z-12.2909
G01 Y62.1000 Z-11.0945
G01 Y57.3000 Z-8.4915
G01 Y52.1000 Z-2.3000
G01 Y41.5000
G01 Y41.3000 Z-12.3000
G01 Y38.7000
G01 Y38.5000 Z-2.3000
G01 Y27.9000
G01 Y24.1000 Z-7.1902
G01 Y18.1000 Z-11.0847
G01 Y12.1000 Z-12.3000
G01 Y-0.5000
G01 Y-0.7000 Z-14.0000
G01 Y-3.3000
G01 X40.1000 Y-3.5000
G01 Y-0.9000
G01 Y-0.7000 Z-12.3000
G01 Y11.7000 Z-12.2998
G01 Y18.3000 Z-11.0145
G01 Y23.5000 Z-7.7897
G01 Y27.9000 Z-2.3000
G01 Y34.7000
G01 Y34.9000 Z-12.3000
G01 Y38.1000
G01 Y38.3000 Z-14.0000
G01 Y41.7000
G01 Y41.9000 Z-12.3000
G01 Y45.1000
G01 Y45.3000 Z-2.3000
G01 Y52.5000 Z-2.3445
G01 Y54.1000 Z-5.2168
G01 Y56.7000 Z-7.9319
G01 Y62.5000 Z-11.2981
G01 Y68.3000 Z-12.2999
G01 Y80.7000 Z-12.3000
G01 Y80.9000 Z-14.0000
G01 Y83.5000
G01 X44.9000 Y83.3000
G01 Y80.7000
G01 Y80.5000 Z-12.3000
G01 Y65.5000 Z-12.0108
G01 Z-12.0083
G01 X49.7000 Y63.9000
G01 Y79.5000 Z-12.3000
G01 Y79.7000 Z-14.0000
G01 Y82.5000
G01 X54.5000 Y81.1000
G01 Y78.3000
G01 Y78.1000 Z-12.3000
G01 Y61.5000 Z-12.0281
G01 Z-12.0200
G01 X59.3000 Y57.3000
G01 Y75.9000 Z-12.3000
G01 Y76.1000 Z-14.0000
G01 Y79.1000
G01 X64.1000 Y76.3000
G01 Y72.9000
G01 Y72.7000 Z-12.3000
G01 Y38.9000 Z-11.5794
G01 Y25.3000 Z-12.3000
G01 Y7.3000
G01 Y7.1000 Z-14.0000
G01 Y3.7000
G01 X59.3000 Y0.9000
G01 Y3.9000
G01 Y4.1000 Z-12.3000
G01 Y22.7000 Z-12.0221
G01 X54.5000 Y18.5000
G01 Z-12.0256
G01 Y1.9000 Z-12.3000
G01 Y1.7000 Z-14.0000
G01 Y-1.1000
G01 X49.7000 Y-2.5000
G01 Y0.3000
G01 Y0.5000 Z-12.3000
G01 Y15.9000 Z-12.0227
G01 Z-12.0102
G01 X44.9000 Y14.5000
G01 Y-0.5000 Z-12.3000
G01 Y-0.7000 Z-14.0000
G01 Y-3.3000
G01 Z-13.5000
G01 X30.5000 Y-2.5000
G01 Z-14.0000
G01 Y0.3000
G01 Y0.5000 Z-12.3000
G01 Y15.9000 Z-12.0145
G01 X25.7000 Y18.3000
G01 Z-12.0301
G01 Y1.9000 Z-12.3000
G01 Y1.7000 Z-14.0000
G01 Y-1.1000
G01 X20.9000 Y0.7000
G01 Y3.9000
G01 Y4.1000 Z-12.3000
G01 Y22.5000 Z-12.0200
G00 Z5.0000
G00 X68.9000 Y7.5000
G01 Z-14.0000
G01 Y11.3000
G01 Y11.5000 Z-12.3000
G01 Y68.5000
G01 Y68.7000 Z-14.0000
G01 Y72.5000
G01 X73.7000 Y67.5000
G01 Y63.1000
G01 Y62.9000 Z-12.3000
G01 Y17.1000
G01 Y16.9000 Z-14.0000
G01 Y12.5000
G01 X78.5000 Y19.5000
G01 Y26.7000
G01 Y26.9000 Z-12.3000
G01 Y53.1000
G01 Y53.3000 Z-14.0000
G01 Y60.5000
G01 Z-13.5000
G01 X83.3000 Y45.1000
G01 Z-14.0000
G01 Y34.9000
G00 Z5.0000
G00 X-3.1000 Y32.9000
G01 Z-16.0000
G01 Y47.1000
G01 Z0.7000
G01 X1.7000 Y60.9000
G01 Z-16.0000
G01 Y54.1000
G01 Y53.9000 Z-12.3000
G01 Y26.1000
G01 Y25.9000 Z-16.0000
G01 Y19.1000
G01 X6.5000 Y16.7000
G01 Y12.3000
G01 X11.3000 Y11.1000
G01 Y7.3000
G01 X16.1000 Y6.9000
G01 Y3.5000
G01 X20.9000 Y3.9000
G01 Y0.7000
G01 X25.7000 Y1.7000
G01 Y-1.1000
G01 X30.5000 Y-2.5000
G01 Y0.3000
G01 X35.3000 Y-0.7000
G01 Y-3.3000
G01 X40.1000 Y-3.5000
G01 Y-0.9000
G01 X44.9000 Y-0.7000
G01 Y-3.3000
G01 X49.7000 Y-2.5000
G01 Y0.3000
G01 X54.5000 Y-1.1000
G01 Y1.7000
G01 X59.3000 Y0.9000
G01 Y3.9000
G01 X64.1000 Y3.7000
G01 Y7.1000
G01 X68.9000 Y7.5000
G01 Y11.3000
G01 X73.7000 Y12.5000
G01 Y16.9000
G01 X78.5000 Y19.5000
G01 Y26.7000
G01 Y26.9000 Z-12.3000
G01 Y53.1000
G01 Y53.3000 Z-16.0000
G01 Y60.5000
G01 X73.7000 Y63.1000
G01 Y67.5000
G01 X68.9000 Y68.7000
G01 Y72.5000
G01 X64.1000 Y72.9000
G01 Y76.3000
G01 X59.3000 Y76.1000
G01 Y79.1000
G01 X54.5000 Y78.3000
G01 Y81.1000
G01 X49.7000 Y82.5000
G01 Y79.7000
G01 X44.9000 Y80.7000
G01 Y83.3000
G01 X40.1000 Y83.5000
G01 Y80.9000
G01 X35.3000 Y80.7000
G01 Y83.3000
G01 X30.5000 Y82.5000
G01 Y79.7000
G01 X25.7000 Y78.3000
G01 Y81.1000
G01 X20.9000 Y79.3000
G01 Y76.1000
G01 X16.1000 Y76.5000
G01 Y73.1000
G01 X11.3000 Y72.7000
G01 Y68.9000
G01 X6.5000 Y67.7000
G01 Y63.3000
G00 Z5.0000
G00 X40.1000 Y41.7000
G01 Z-16.0000
G01 Y38.3000
G00 Z5.0000
G00 X83.3000 Y34.9000
G01 Z-16.0000
G01 Y45.1000
G00 Z5.0000
G00 X-3.1000 Y47.1000
G01 Z-18.0000
G01 Y32.9000
G01 Z0.7000
G01 X1.7000 Y19.1000
G01 Z-18.0000
G01 Y25.9000
G01 Y26.1000 Z-12.3000
G01 Y53.9000
G01 Y54.1000 Z-18.0000
G01 Y60.9000
G01 X6.5000 Y63.3000
G01 Y67.7000
G01 X11.3000 Y68.9000
G01 Y72.7000
G01 X16.1000 Y73.1000
G01 Y76.5000
G01 X20.9000 Y76.1000
G01 Y79.3000
G01 X25.7000 Y78.3000
G01 Y81.1000
G01 X30.5000 Y82.5000
G01 Y79.7000
G01 X35.3000 Y80.7000
G01 Y83.3000
G01 X40.1000 Y83.5000
G01 Y80.9000
G01 X44.9000 Y80.7000
G01 Y83.3000
G01 X49.7000 Y82.5000
G01 Y79.7000
G01 X54.5000 Y78.3000
G01 Y81.1000
G01 X59.3000 Y79.1000
G01 Y76.1000
G01 X64.1000 Y76.3000
G01 Y72.9000
G01 X68.9000 Y72.5000
G01 Y68.7000
G01 X73.7000 Y67.5000
G01 Y63.1000
G01 X78.5000 Y60.5000
G01 Y53.3000
G01 Y53.1000 Z-12.3000
G01 Y26.9000
G01 Y26.7000 Z-18.0000
G01 Y19.5000
G01 X73.7000 Y16.9000
G01 Y12.5000
G01 X68.9000 Y11.3000
G01 Y7.5000
G01 X64.1000 Y7.1000
G01 Y3.7000
G01 X59.3000 Y3.9000
G01 Y0.9000
G01 X54.5000 Y1.7000
G01 Y-1.1000
G01 X49.7000 Y-2.5000
G01 Y0.3000
G01 X44.9000 Y-0.7000
G01 Y-3.3000
G01 X40.1000 Y-3.5000
G01 Y-0.9000
G01 X35.3000 Y-0.7000
G01 Y-3.3000
G01 X30.5000 Y-2.5000
G01 Y0.3000
G01 X25.7000 Y-1.1000
G01 Y1.7000
G01 X20.9000 Y0.7000
G01 Y3.9000
G01 X16.1000 Y3.5000
G01 Y6.9000
G01 X11.3000 Y7.3000
G01 Y11.1000
G01 X6.5000 Y12.3000
G01 Y16.7000
G00 Z5.0000
G00 X40.1000 Y38.3000
G01 Z-18.0000
G01 Y41.7000
G00 Z5.0000
G00 X83.3000 Y45.1000
G01 Z-18.0000
G01 Y34.9000
G00 Z5.0000
G00 X-3.1000 Y32.9000
G01 Z-19.8000
G01 Y47.1000
G01 Z0.7000
G01 X1.7000 Y60.9000
G01 Z-19.8000
G01 Y54.1000
G01 Y53.9000 Z-12.3000
G01 Y26.1000
G01 Y25.9000 Z-19.8000
G01 Y19.1000
G01 X6.5000 Y16.7000
G01 Y12.3000
G01 X11.3000 Y11.1000
G01 Y7.3000
G01 X16.1000 Y6.9000
G01 Y3.5000
G01 X20.9000 Y3.9000
G01 Y0.7000
G01 X25.7000 Y1.7000
G01 Y-1.1000
G01 X30.5000 Y-2.5000
G01 Y0.3000
G01 X35.3000 Y-0.7000
G01 Y-3.3000
G01 X40.1000 Y-3.5000
G01 Y-0.9000
G01 X44.9000 Y-0.7000
G01 Y-3.3000
G01 X49.7000 Y-2.5000
G01 Y0.3000
G01 X54.5000 Y-1.1000
G01 Y1.7000
G01 X59.3000 Y0.9000
G01 Y3.9000
G01 X64.1000 Y3.7000
G01 Y7.1000
G01 X68.9000 Y7.5000
G01 Y11.3000
G01 X73.7000 Y12.5000
G01 Y16.9000
G01 X78.5000 Y19.5000
G01 Y26.7000
G01 Y26.9000 Z-12.3000
G01 Y53.1000
G01 Y53.3000 Z-19.8000
G01 Y60.5000
G01 X73.7000 Y63.1000
G01 Y67.5000
G01 X68.9000 Y68.7000
G01 Y72.5000
G01 X64.1000 Y72.9000
G01 Y76.3000
G01 X59.3000 Y76.1000
G01 Y79.1000
G01 X54.5000 Y78.3000
G01 Y81.1000
G01 X49.7000 Y82.5000
G01 Y79.7000
G01 X44.9000 Y80.7000
G01 Y83.3000
G01 X40.1000 Y83.5000
G01 Y80.9000
G01 X35.3000 Y80.7000
G01 Y83.3000
G01 X30.5000 Y82.5000
G01 Y79.7000
G01 X25.7000 Y78.3000
G01 Y81.1000
G01 X20.9000 Y79.3000
G01 Y76.1000
G01 X16.1000 Y76.5000
G01 Y73.1000
G01 X11.3000 Y72.7000
G01 Y68.9000
G01 X6.5000 Y67.7000
G01 Y63.3000
G00 Z5.0000
G00 X40.1000 Y41.7000
G01 Z-19.8000
G01 Y38.3000
G00 Z5.0000
G00 X83.3000 Y34.9000
G01 Z-19.8000
G01 Y45.1000
G00 Z5.0000
G00 X2.5000 Y2.5000


(No. 2: )
M05
M00 (Change tool: D1.5 Q4)
M03 S24000
G00 X12.3250 Y13.5250 Z5.0000
G01 Z-11.7990 F120 S24000
G01 Z-12.5990 F100
G01 X14.5750 Y11.3500 F120
G01 X17.5000 Y9.0250
G01 X21.0250 Y6.7750
G01 X24.4000 Y5.0500
G01 X28.2250 Y3.5500
G01 X31.7500 Y2.6500
G01 X35.5000 Y2.0500
G01 X38.8000 Y1.8250
G01 X43.6750 Y1.9750
G01 X48.2500 Y2.6500
G01 X53.4250 Y4.1500
G01 X58.9750 Y6.7750
G01 X64.0000 Y10.1500
G01 X67.7500 Y13.6000
G01 X70.7500 Y17.2000
G01 X73.0750 Y20.8000
G01 X74.7250 Y23.9500
G01 X76.3750 Y28.0750
G01 X77.8000 Y34.1500
G01 X78.2500 Y40.0000
G01 X77.8000 Y45.8500
G01 X76.3750 Y51.9250
G01 X74.2750 Y57.0250
G01 X70.7500 Y62.8000
G01 X67.7500 Y66.4000
G01 X64.0000 Y69.8500
G01 X58.4500 Y73.5250
G01 X52.8250 Y76.0750
G01 X48.2500 Y77.3500
G01 X42.7000 Y78.1000
G01 X37.3000
G01 X31.7500 Y77.3500
G01 X26.2000 Y75.7000
G01 X21.0250 Y73.2250
G01 X16.0000 Y69.8500
G01 X12.3250 Y66.4750
G01 X9.2500 Y62.8000
G01 X6.0250 Y57.6250
G01 X3.6250 Y51.9250
G01 X2.2000 Y45.8500
G01 X1.7500 Y40.0000
G01 X2.2000 Y34.1500
G01 X3.1750 Y29.7250
G01 X4.1500 Y26.6500
G01 X5.7250 Y22.9750
G01 X6.9250 Y20.8000
G01 X9.2500 Y17.2000
G01 X12.3250 Y13.5250
G01 Z-12.8990 F100
G01 X14.5750 Y11.3500 F120
G01 X17.5000 Y9.0250
G01 X21.0250 Y6.7750
G01 X24.4000 Y5.0500
G01 X28.2250 Y3.5500
G01 X31.7500 Y2.6500
G01 X35.5000 Y2.0500
G01 X38.8000 Y1.8250
G01 X43.6750 Y1.9750
G01 X48.2500 Y2.6500
G01 X53.4250 Y4.1500
G01 X58.9750 Y6.7750
G01 X64.0000 Y10.1500
G01 X67.7500 Y13.6000
G01 X70.7500 Y17.2000
G01 X73.0750 Y20.8000
G01 X74.7250 Y23.9500
G01 X76.3750 Y28.0750
G01 X77.8000 Y34.1500
G01 X78.2500 Y40.0000
G01 X77.8000 Y45.8500
G01 X76.3750 Y51.9250
G01 X74.2750 Y57.0250
G01 X70.7500 Y62.8000
G01 X67.7500 Y66.4000
G01 X64.0000 Y69.8500
G01 X58.4500 Y73.5250
G01 X52.8250 Y76.0750
G01 X48.2500 Y77.3500
G01 X42.7000 Y78.1000
G01 X37.3000
G01 X31.7500 Y77.3500
G01 X26.2000 Y75.7000
G01 X21.0250 Y73.2250
G01 X16.0000 Y69.8500
G01 X12.3250 Y66.4750
G01 X9.2500 Y62.8000
G01 X6.0250 Y57.6250
G01 X3.6250 Y51.9250
G01 X2.2000 Y45.8500
G01 X1.7500 Y40.0000
G01 X2.2000 Y34.1500
G01 X3.1750 Y29.7250
G01 X4.1500 Y26.6500
G01 X5.7250 Y22.9750
G01 X6.9250 Y20.8000
G01 X9.2500 Y17.2000
G01 X12.3250 Y13.5250
G01 Z-13.1990 F100
G01 X14.5750 Y11.3500 F120
G01 X17.5000 Y9.0250
G01 X21.0250 Y6.7750
G01 X24.4000 Y5.0500
G01 X28.2250 Y3.5500
G01 X31.7500 Y2.6500
G01 X35.5000 Y2.0500
G01 X38.8000 Y1.8250
G01 X43.6750 Y1.9750
G01 X48.2500 Y2.6500
G01 X53.4250 Y4.1500
G01 X58.9750 Y6.7750
G01 X64.0000 Y10.1500
G01 X67.7500 Y13.6000
G01 X70.7500 Y17.2000
G01 X73.0750 Y20.8000
G01 X74.7250 Y23.9500
G01 X76.3750 Y28.0750
G01 X77.8000 Y34.1500
G01 X78.2500 Y40.0000
G01 X77.8000 Y45.8500
G01 X76.3750 Y51.9250
G01 X74.2750 Y57.0250
G01 X70.7500 Y62.8000
G01 X67.7500 Y66.4000
G01 X64.0000 Y69.8500
G01 X58.4500 Y73.5250
G01 X52.8250 Y76.0750
G01 X48.2500 Y77.3500
G01 X42.7000 Y78.1000
G01 X37.3000
G01 X31.7500 Y77.3500
G01 X26.2000 Y75.7000
G01 X21.0250 Y73.2250
G01 X16.0000 Y69.8500
G01 X12.3250 Y66.4750
G01 X9.2500 Y62.8000
G01 X6.0250 Y57.6250
G01 X3.6250 Y51.9250
G01 X2.2000 Y45.8500
G01 X1.7500 Y40.0000
G01 X2.2000 Y34.1500
G01 X3.1750 Y29.7250
G01 X4.1500 Y26.6500
G01 X5.7250 Y22.9750
G01 X6.9250 Y20.8000
G01 X9.2500 Y17.2000
G01 X12.3250 Y13.5250
G01 Z-13.4990 F100
G01 X14.5750 Y11.3500 F120
G01 X17.5000 Y9.0250
G01 X21.0250 Y6.7750
G01 X24.4000 Y5.0500
G01 X28.2250 Y3.5500
G01 X31.7500 Y2.6500
G01 X35.5000 Y2.0500
G01 X38.8000 Y1.8250
G01 X43.6750 Y1.9750
G01 X48.2500 Y2.6500
G01 X53.4250 Y4.1500
G01 X58.9750 Y6.7750
G01 X64.0000 Y10.1500
G01 X67.7500 Y13.6000
G01 X70.7500 Y17.2000
G01 X73.0750 Y20.8000
G01 X74.7250 Y23.9500
G01 X76.3750 Y28.0750
G01 X77.8000 Y34.1500
G01 X78.2500 Y40.0000
G01 X77.8000 Y45.8500
G01 X76.3750 Y51.9250
G01 X74.2750 Y57.0250
G01 X70.7500 Y62.8000
G01 X67.7500 Y66.4000
G01 X64.0000 Y69.8500
G01 X58.4500 Y73.5250
G01 X52.8250 Y76.0750
G01 X48.2500 Y77.3500
G01 X42.7000 Y78.1000
G01 X37.3000
G01 X31.7500 Y77.3500
G01 X26.2000 Y75.7000
G01 X21.0250 Y73.2250
G01 X16.0000 Y69.8500
G01 X12.3250 Y66.4750
G01 X9.2500 Y62.8000
G01 X6.0250 Y57.6250
G01 X3.6250 Y51.9250
G01 X2.2000 Y45.8500
G01 X1.7500 Y40.0000
G01 X2.2000 Y34.1500
G01 X3.1750 Y29.7250
G01 X4.1500 Y26.6500
G01 X5.7250 Y22.9750
G01 X6.9250 Y20.8000
G01 X9.2500 Y17.2000
G01 X12.3250 Y13.5250
G01 Z-13.7990 F100
G01 X14.5750 Y11.3500 F120
G01 X17.5000 Y9.0250
G01 X21.0250 Y6.7750
G01 X24.4000 Y5.0500
G01 X28.2250 Y3.5500
G01 X31.7500 Y2.6500
G01 X35.5000 Y2.0500
G01 X38.8000 Y1.8250
G01 X43.6750 Y1.9750
G01 X48.2500 Y2.6500
G01 X53.4250 Y4.1500
G01 X58.9750 Y6.7750
G01 X64.0000 Y10.1500
G01 X67.7500 Y13.6000
G01 X70.7500 Y17.2000
G01 X73.0750 Y20.8000
G01 X74.7250 Y23.9500
G01 X76.3750 Y28.0750
G01 X77.8000 Y34.1500
G01 X78.2500 Y40.0000
G01 X77.8000 Y45.8500
G01 X76.3750 Y51.9250
G01 X74.2750 Y57.0250
G01 X70.7500 Y62.8000
G01 X67.7500 Y66.4000
G01 X64.0000 Y69.8500
G01 X58.4500 Y73.5250
G01 X52.8250 Y76.0750
G01 X48.2500 Y77.3500
G01 X42.7000 Y78.1000
G01 X37.3000
G01 X31.7500 Y77.3500
G01 X26.2000 Y75.7000
G01 X21.0250 Y73.2250
G01 X16.0000 Y69.8500
G01 X12.3250 Y66.4750
G01 X9.2500 Y62.8000
G01 X6.0250 Y57.6250
G01 X3.6250 Y51.9250
G01 X2.2000 Y45.8500
G01 X1.7500 Y40.0000
G01 X2.2000 Y34.1500
G01 X3.1750 Y29.7250
G01 X4.1500 Y26.6500
G01 X5.7250 Y22.9750
G01 X6.9250 Y20.8000
G01 X9.2500 Y17.2000
G01 X12.3250 Y13.5250
G01 Z-14.0990 F100
G01 X14.5750 Y11.3500 F120
G01 X17.5000 Y9.0250
G01 X21.0250 Y6.7750
G01 X24.4000 Y5.0500
G01 X28.2250 Y3.5500
G01 X31.7500 Y2.6500
G01 X35.5000 Y2.0500
G01 X38.8000 Y1.8250
G01 X43.6750 Y1.9750
G01 X48.2500 Y2.6500
G01 X53.4250 Y4.1500
G01 X58.9750 Y6.7750
G01 X64.0000 Y10.1500
G01 X67.7500 Y13.6000
G01 X70.7500 Y17.2000
G01 X73.0750 Y20.8000
G01 X74.7250 Y23.9500
G01 X76.3750 Y28.0750
G01 X77.8000 Y34.1500
G01 X78.2500 Y40.0000
G01 X77.8000 Y45.8500
G01 X76.3750 Y51.9250
G01 X74.2750 Y57.0250
G01 X70.7500 Y62.8000
G01 X67.7500 Y66.4000
G01 X64.0000 Y69.8500
G01 X58.4500 Y73.5250
G01 X52.8250 Y76.0750
G01 X48.2500 Y77.3500
G01 X42.7000 Y78.1000
G01 X37.3000
G01 X31.7500 Y77.3500
G01 X26.2000 Y75.7000
G01 X21.0250 Y73.2250
G01 X16.0000 Y69.8500
G01 X12.3250 Y66.4750
G01 X9.2500 Y62.8000
G01 X6.0250 Y57.6250
G01 X3.6250 Y51.9250
G01 X2.2000 Y45.8500
G01 X1.7500 Y40.0000
G01 X2.2000 Y34.1500
G01 X3.1750 Y29.7250
G01 X4.1500 Y26.6500
G01 X5.7250 Y22.9750
G01 X6.9250 Y20.8000
G01 X9.2500 Y17.2000
G01 X12.3250 Y13.5250
G01 Z-14.3990 F100
G01 X14.5750 Y11.3500 F120
G01 X17.5000 Y9.0250
G01 X21.0250 Y6.7750
G01 X24.4000 Y5.0500
G01 X28.2250 Y3.5500
G01 X31.7500 Y2.6500
G01 X35.5000 Y2.0500
G01 X38.8000 Y1.8250
G01 X43.6750 Y1.9750
G01 X48.2500 Y2.6500
G01 X53.4250 Y4.1500
G01 X58.9750 Y6.7750
G01 X64.0000 Y10.1500
G01 X67.7500 Y13.6000
G01 X70.7500 Y17.2000
G01 X73.0750 Y20.8000
G01 X74.7250 Y23.9500
G01 X76.3750 Y28.0750
G01 X77.8000 Y34.1500
G01 X78.2500 Y40.0000
G01 X77.8000 Y45.8500
G01 X76.3750 Y51.9250
G01 X74.2750 Y57.0250
G01 X70.7500 Y62.8000
G01 X67.7500 Y66.4000
G01 X64.0000 Y69.8500
G01 X58.4500 Y73.5250
G01 X52.8250 Y76.0750
G01 X48.2500 Y77.3500
G01 X42.7000 Y78.1000
G01 X37.3000
G01 X31.7500 Y77.3500
G01 X26.2000 Y75.7000
G01 X21.0250 Y73.2250
G01 X16.0000 Y69.8500
G01 X12.3250 Y66.4750
G01 X9.2500 Y62.8000
G01 X6.0250 Y57.6250
G01 X3.6250 Y51.9250
G01 X2.2000 Y45.8500
G01 X1.7500 Y40.0000
G01 X2.2000 Y34.1500
G01 X3.1750 Y29.7250
G01 X4.1500 Y26.6500
G01 X5.7250 Y22.9750
G01 X6.9250 Y20.8000
G01 X9.2500 Y17.2000
G01 X12.3250 Y13.5250
G01 Z-14.6990 F100
G01 X14.5750 Y11.3500 F120
G01 X17.5000 Y9.0250
G01 X21.0250 Y6.7750
G01 X24.4000 Y5.0500
G01 X28.2250 Y3.5500
G01 X31.7500 Y2.6500
G01 X35.5000 Y2.0500
G01 X38.8000 Y1.8250
G01 X43.6750 Y1.9750
G01 X48.2500 Y2.6500
G01 X53.4250 Y4.1500
G01 X58.9750 Y6.7750
G01 X64.0000 Y10.1500
G01 X67.7500 Y13.6000
G01 X70.7500 Y17.2000
G01 X73.0750 Y20.8000
G01 X74.7250 Y23.9500
G01 X76.3750 Y28.0750
G01 X77.8000 Y34.1500
G01 X78.2500 Y40.0000
G01 X77.8000 Y45.8500
G01 X76.3750 Y51.9250
G01 X74.2750 Y57.0250
G01 X70.7500 Y62.8000
G01 X67.7500 Y66.4000
G01 X64.0000 Y69.8500
G01 X58.4500 Y73.5250
G01 X52.8250 Y76.0750
G01 X48.2500 Y77.3500
G01 X42.7000 Y78.1000
G01 X37.3000
G01 X31.7500 Y77.3500
G01 X26.2000 Y75.7000
G01 X21.0250 Y73.2250
G01 X16.0000 Y69.8500
G01 X12.3250 Y66.4750
G01 X9.2500 Y62.8000
G01 X6.0250 Y57.6250
G01 X3.6250 Y51.9250
G01 X2.2000 Y45.8500
G01 X1.7500 Y40.0000
G01 X2.2000 Y34.1500
G01 X3.1750 Y29.7250
G01 X4.1500 Y26.6500
G01 X5.7250 Y22.9750
G01 X6.9250 Y20.8000
G01 X9.2500 Y17.2000
G01 X12.3250 Y13.5250
G01 Z-14.9990 F100
G01 X14.5750 Y11.3500 F120
G01 X17.5000 Y9.0250
G01 X21.0250 Y6.7750
G01 X24.4000 Y5.0500
G01 X28.2250 Y3.5500
G01 X31.7500 Y2.6500
G01 X35.5000 Y2.0500
G01 X38.8000 Y1.8250
G01 X43.6750 Y1.9750
G01 X48.2500 Y2.6500
G01 X53.4250 Y4.1500
G01 X58.9750 Y6.7750
G01 X64.0000 Y10.1500
G01 X67.7500 Y13.6000
G01 X70.7500 Y17.2000
G01 X73.0750 Y20.8000
G01 X74.7250 Y23.9500
G01 X76.3750 Y28.0750
G01 X77.8000 Y34.1500
G01 X78.2500 Y40.0000
G01 X77.8000 Y45.8500
G01 X76.3750 Y51.9250
G01 X74.2750 Y57.0250
G01 X70.7500 Y62.8000
G01 X67.7500 Y66.4000
G01 X64.0000 Y69.8500
G01 X58.4500 Y73.5250
G01 X52.8250 Y76.0750
G01 X48.2500 Y77.3500
G01 X42.7000 Y78.1000
G01 X37.3000
G01 X31.7500 Y77.3500
G01 X26.2000 Y75.7000
G01 X21.0250 Y73.2250
G01 X16.0000 Y69.8500
G01 X12.3250 Y66.4750
G01 X9.2500 Y62.8000
G01 X6.0250 Y57.6250
G01 X3.6250 Y51.9250
G01 X2.2000 Y45.8500
G01 X1.7500 Y40.0000
G01 X2.2000 Y34.1500
G01 X3.1750 Y29.7250
G01 X4.1500 Y26.6500
G01 X5.7250 Y22.9750
G01 X6.9250 Y20.8000
G01 X9.2500 Y17.2000
G01 X12.3250 Y13.5250
G01 Z-15.2990 F100
G01 X14.5750 Y11.3500 F120
G01 X17.5000 Y9.0250
G01 X21.0250 Y6.7750
G01 X24.4000 Y5.0500
G01 X28.2250 Y3.5500
G01 X31.7500 Y2.6500
G01 X35.5000 Y2.0500
G01 X38.8000 Y1.8250
G01 X43.6750 Y1.9750
G01 X48.2500 Y2.6500
G01 X53.4250 Y4.1500
G01 X58.9750 Y6.7750
G01 X64.0000 Y10.1500
G01 X67.7500 Y13.6000
G01 X70.7500 Y17.2000
G01 X73.0750 Y20.8000
G01 X74.7250 Y23.9500
G01 X76.3750 Y28.0750
G01 X77.8000 Y34.1500
G01 X78.2500 Y40.0000
G01 X77.8000 Y45.8500
G01 X76.3750 Y51.9250
G01 X74.2750 Y57.0250
G01 X70.7500 Y62.8000
G01 X67.7500 Y66.4000
G01 X64.0000 Y69.8500
G01 X58.4500 Y73.5250
G01 X52.8250 Y76.0750
G01 X48.2500 Y77.3500
G01 X42.7000 Y78.1000
G01 X37.3000
G01 X31.7500 Y77.3500
G01 X26.2000 Y75.7000
G01 X21.0250 Y73.2250
G01 X16.0000 Y69.8500
G01 X12.3250 Y66.4750
G01 X9.2500 Y62.8000
G01 X6.0250 Y57.6250
G01 X3.6250 Y51.9250
G01 X2.2000 Y45.8500
G01 X1.7500 Y40.0000
G01 X2.2000 Y34.1500
G01 X3.1750 Y29.7250
G01 X4.1500 Y26.6500
G01 X5.7250 Y22.9750
G01 X6.9250 Y20.8000
G01 X9.2500 Y17.2000
G01 X12.3250 Y13.5250
G01 Z-15.5990 F100
G01 X14.5750 Y11.3500 F120
G01 X17.5000 Y9.0250
G01 X21.0250 Y6.7750
G01 X24.4000 Y5.0500
G01 X28.2250 Y3.5500
G01 X31.7500 Y2.6500
G01 X35.5000 Y2.0500
G01 X38.8000 Y1.8250
G01 X43.6750 Y1.9750
G01 X48.2500 Y2.6500
G01 X53.4250 Y4.1500
G01 X58.9750 Y6.7750
G01 X64.0000 Y10.1500
G01 X67.7500 Y13.6000
G01 X70.7500 Y17.2000
G01 X73.0750 Y20.8000
G01 X74.7250 Y23.9500
G01 X76.3750 Y28.0750
G01 X77.8000 Y34.1500
G01 X78.2500 Y40.0000
G01 X77.8000 Y45.8500
G01 X76.3750 Y51.9250
G01 X74.2750 Y57.0250
G01 X70.7500 Y62.8000
G01 X67.7500 Y66.4000
G01 X64.0000 Y69.8500
G01 X58.4500 Y73.5250
G01 X52.8250 Y76.0750
G01 X48.2500 Y77.3500
G01 X42.7000 Y78.1000
G01 X37.3000
G01 X31.7500 Y77.3500
G01 X26.2000 Y75.7000
G01 X21.0250 Y73.2250
G01 X16.0000 Y69.8500
G01 X12.3250 Y66.4750
G01 X9.2500 Y62.8000
G01 X6.0250 Y57.6250
G01 X3.6250 Y51.9250
G01 X2.2000 Y45.8500
G01 X1.7500 Y40.0000
G01 X2.2000 Y34.1500
G01 X3.1750 Y29.7250
G01 X4.1500 Y26.6500
G01 X5.7250 Y22.9750
G01 X6.9250 Y20.8000
G01 X9.2500 Y17.2000
G01 X12.3250 Y13.5250
G01 Z-15.8990 F100
G01 X14.5750 Y11.3500 F120
G01 X17.5000 Y9.0250
G01 X21.0250 Y6.7750
G01 X24.4000 Y5.0500
G01 X28.2250 Y3.5500
G01 X31.7500 Y2.6500
G01 X35.5000 Y2.0500
G01 X38.8000 Y1.8250
G01 X43.6750 Y1.9750
G01 X48.2500 Y2.6500
G01 X53.4250 Y4.1500
G01 X58.9750 Y6.7750
G01 X64.0000 Y10.1500
G01 X67.7500 Y13.6000
G01 X70.7500 Y17.2000
G01 X73.0750 Y20.8000
G01 X74.7250 Y23.9500
G01 X76.3750 Y28.0750
G01 X77.8000 Y34.1500
G01 X78.2500 Y40.0000
G01 X77.8000 Y45.8500
G01 X76.3750 Y51.9250
G01 X74.2750 Y57.0250
G01 X70.7500 Y62.8000
G01 X67.7500 Y66.4000
G01 X64.0000 Y69.8500
G01 X58.4500 Y73.5250
G01 X52.8250 Y76.0750
G01 X48.2500 Y77.3500
G01 X42.7000 Y78.1000
G01 X37.3000
G01 X31.7500 Y77.3500
G01 X26.2000 Y75.7000
G01 X21.0250 Y73.2250
G01 X16.0000 Y69.8500
G01 X12.3250 Y66.4750
G01 X9.2500 Y62.8000
G01 X6.0250 Y57.6250
G01 X3.6250 Y51.9250
G01 X2.2000 Y45.8500
G01 X1.7500 Y40.0000
G01 X2.2000 Y34.1500
G01 X3.1750 Y29.7250
G01 X4.1500 Y26.6500
G01 X5.7250 Y22.9750
G01 X6.9250 Y20.8000
G01 X9.2500 Y17.2000
G01 X12.3250 Y13.5250
G01 Z-16.1990 F100
G01 X14.5750 Y11.3500 F120
G01 X17.5000 Y9.0250
G01 X21.0250 Y6.7750
G01 X24.4000 Y5.0500
G01 X28.2250 Y3.5500
G01 X31.7500 Y2.6500
G01 X35.5000 Y2.0500
G01 X38.8000 Y1.8250
G01 X43.6750 Y1.9750
G01 X48.2500 Y2.6500
G01 X53.4250 Y4.1500
G01 X58.9750 Y6.7750
G01 X64.0000 Y10.1500
G01 X67.7500 Y13.6000
G01 X70.7500 Y17.2000
G01 X73.0750 Y20.8000
G01 X74.7250 Y23.9500
G01 X76.3750 Y28.0750
G01 X77.8000 Y34.1500
G01 X78.2500 Y40.0000
G01 X77.8000 Y45.8500
G01 X76.3750 Y51.9250
G01 X74.2750 Y57.0250
G01 X70.7500 Y62.8000
G01 X67.7500 Y66.4000
G01 X64.0000 Y69.8500
G01 X58.4500 Y73.5250
G01 X52.8250 Y76.0750
G01 X48.2500 Y77.3500
G01 X42.7000 Y78.1000
G01 X37.3000
G01 X31.7500 Y77.3500
G01 X26.2000 Y75.7000
G01 X21.0250 Y73.2250
G01 X16.0000 Y69.8500
G01 X12.3250 Y66.4750
G01 X9.2500 Y62.8000
G01 X6.0250 Y57.6250
G01 X3.6250 Y51.9250
G01 X2.2000 Y45.8500
G01 X1.7500 Y40.0000
G01 X2.2000 Y34.1500
G01 X3.1750 Y29.7250
G01 X4.1500 Y26.6500
G01 X5.7250 Y22.9750
G01 X6.9250 Y20.8000
G01 X9.2500 Y17.2000
G01 X12.3250 Y13.5250
G01 Z-16.4990 F100
G01 X14.5750 Y11.3500 F120
G01 X17.5000 Y9.0250
G01 X21.0250 Y6.7750
G01 X24.4000 Y5.0500
G01 X28.2250 Y3.5500
G01 X31.7500 Y2.6500
G01 X35.5000 Y2.0500
G01 X38.8000 Y1.8250
G01 X43.6750 Y1.9750
G01 X48.2500 Y2.6500
G01 X53.4250 Y4.1500
G01 X58.9750 Y6.7750
G01 X64.0000 Y10.1500
G01 X67.7500 Y13.6000
G01 X70.7500 Y17.2000
G01 X73.0750 Y20.8000
G01 X74.7250 Y23.9500
G01 X76.3750 Y28.0750
G01 X77.8000 Y34.1500
G01 X78.2500 Y40.0000
G01 X77.8000 Y45.8500
G01 X76.3750 Y51.9250
G01 X74.2750 Y57.0250
G01 X70.7500 Y62.8000
G01 X67.7500 Y66.4000
G01 X64.0000 Y69.8500
G01 X58.4500 Y73.5250
G01 X52.8250 Y76.0750
G01 X48.2500 Y77.3500
G01 X42.7000 Y78.1000
G01 X37.3000
G01 X31.7500 Y77.3500
G01 X26.2000 Y75.7000
G01 X21.0250 Y73.2250
G01 X16.0000 Y69.8500
G01 X12.3250 Y66.4750
G01 X9.2500 Y62.8000
G01 X6.0250 Y57.6250
G01 X3.6250 Y51.9250
G01 X2.2000 Y45.8500
G01 X1.7500 Y40.0000
G01 X2.2000 Y34.1500
G01 X3.1750 Y29.7250
G01 X4.1500 Y26.6500
G01 X5.7250 Y22.9750
G01 X6.9250 Y20.8000
G01 X9.2500 Y17.2000
G01 X12.3250 Y13.5250
G01 Z-16.7990 F100
G01 X14.5750 Y11.3500 F120
G01 X17.5000 Y9.0250
G01 X21.0250 Y6.7750
G01 X24.4000 Y5.0500
G01 X28.2250 Y3.5500
G01 X31.7500 Y2.6500
G01 X35.5000 Y2.0500
G01 X38.8000 Y1.8250
G01 X43.6750 Y1.9750
G01 X48.2500 Y2.6500
G01 X53.4250 Y4.1500
G01 X58.9750 Y6.7750
G01 X64.0000 Y10.1500
G01 X67.7500 Y13.6000
G01 X70.7500 Y17.2000
G01 X73.0750 Y20.8000
G01 X74.7250 Y23.9500
G01 X76.3750 Y28.0750
G01 X77.8000 Y34.1500
G01 X78.2500 Y40.0000
G01 X77.8000 Y45.8500
G01 X76.3750 Y51.9250
G01 X74.2750 Y57.0250
G01 X70.7500 Y62.8000
G01 X67.7500 Y66.4000
G01 X64.0000 Y69.8500
G01 X58.4500 Y73.5250
G01 X52.8250 Y76.0750
G01 X48.2500 Y77.3500
G01 X42.7000 Y78.1000
G01 X37.3000
G01 X31.7500 Y77.3500
G01 X26.2000 Y75.7000
G01 X21.0250 Y73.2250
G01 X16.0000 Y69.8500
G01 X12.3250 Y66.4750
G01 X9.2500 Y62.8000
G01 X6.0250 Y57.6250
G01 X3.6250 Y51.9250
G01 X2.2000 Y45.8500
G01 X1.7500 Y40.0000
G01 X2.2000 Y34.1500
G01 X3.1750 Y29.7250
G01 X4.1500 Y26.6500
G01 X5.7250 Y22.9750
G01 X6.9250 Y20.8000
G01 X9.2500 Y17.2000
G01 X12.3250 Y13.5250
G01 Z-17.0990 F100
G01 X14.5750 Y11.3500 F120
G01 X17.5000 Y9.0250
G01 X21.0250 Y6.7750
G01 X24.4000 Y5.0500
G01 X28.2250 Y3.5500
G01 X31.7500 Y2.6500
G01 X35.5000 Y2.0500
G01 X38.8000 Y1.8250
G01 X43.6750 Y1.9750
G01 X48.2500 Y2.6500
G01 X53.4250 Y4.1500
G01 X58.9750 Y6.7750
G01 X64.0000 Y10.1500
G01 X67.7500 Y13.6000
G01 X70.7500 Y17.2000
G01 X73.0750 Y20.8000
G01 X74.7250 Y23.9500
G01 X76.3750 Y28.0750
G01 X77.8000 Y34.1500
G01 X78.2500 Y40.0000
G01 X77.8000 Y45.8500
G01 X76.3750 Y51.9250
G01 X74.2750 Y57.0250
G01 X70.7500 Y62.8000
G01 X67.7500 Y66.4000
G01 X64.0000 Y69.8500
G01 X58.4500 Y73.5250
G01 X52.8250 Y76.0750
G01 X48.2500 Y77.3500
G01 X42.7000 Y78.1000
G01 X37.3000
G01 X31.7500 Y77.3500
G01 X26.2000 Y75.7000
G01 X21.0250 Y73.2250
G01 X16.0000 Y69.8500
G01 X12.3250 Y66.4750
G01 X9.2500 Y62.8000
G01 X6.0250 Y57.6250
G01 X3.6250 Y51.9250
G01 X2.2000 Y45.8500
G01 X1.7500 Y40.0000
G01 X2.2000 Y34.1500
G01 X3.1750 Y29.7250
G01 X4.1500 Y26.6500
G01 X5.7250 Y22.9750
G01 X6.9250 Y20.8000
G01 X9.2500 Y17.2000
G01 X12.3250 Y13.5250
G01 Z-17.3990 F100
G01 X14.5750 Y11.3500 F120
G01 X17.5000 Y9.0250
G01 X21.0250 Y6.7750
G01 X24.4000 Y5.0500
G01 X28.2250 Y3.5500
G01 X31.7500 Y2.6500
G01 X35.5000 Y2.0500
G01 X38.8000 Y1.8250
G01 X43.6750 Y1.9750
G01 X48.2500 Y2.6500
G01 X53.4250 Y4.1500
G01 X58.9750 Y6.7750
G01 X64.0000 Y10.1500
G01 X67.7500 Y13.6000
G01 X70.7500 Y17.2000
G01 X73.0750 Y20.8000
G01 X74.7250 Y23.9500
G01 X76.3750 Y28.0750
G01 X77.8000 Y34.1500
G01 X78.2500 Y40.0000
G01 X77.8000 Y45.8500
G01 X76.3750 Y51.9250
G01 X74.2750 Y57.0250
G01 X70.7500 Y62.8000
G01 X67.7500 Y66.4000
G01 X64.0000 Y69.8500
G01 X58.4500 Y73.5250
G01 X52.8250 Y76.0750
G01 X48.2500 Y77.3500
G01 X42.7000 Y78.1000
G01 X37.3000
G01 X31.7500 Y77.3500
G01 X26.2000 Y75.7000
G01 X21.0250 Y73.2250
G01 X16.0000 Y69.8500
G01 X12.3250 Y66.4750
G01 X9.2500 Y62.8000
G01 X6.0250 Y57.6250
G01 X3.6250 Y51.9250
G01 X2.2000 Y45.8500
G01 X1.7500 Y40.0000
G01 X2.2000 Y34.1500
G01 X3.1750 Y29.7250
G01 X4.1500 Y26.6500
G01 X5.7250 Y22.9750
G01 X6.9250 Y20.8000
G01 X9.2500 Y17.2000
G01 X12.3250 Y13.5250
G01 Z-17.6990 F100
G01 X14.5750 Y11.3500 F120
G01 X17.5000 Y9.0250
G01 X21.0250 Y6.7750
G01 X24.4000 Y5.0500
G01 X28.2250 Y3.5500
G01 X31.7500 Y2.6500
G01 X35.5000 Y2.0500
G01 X38.8000 Y1.8250
G01 X43.6750 Y1.9750
G01 X48.2500 Y2.6500
G01 X53.4250 Y4.1500
G01 X58.9750 Y6.7750
G01 X64.0000 Y10.1500
G01 X67.7500 Y13.6000
G01 X70.7500 Y17.2000
G01 X73.0750 Y20.8000
G01 X74.7250 Y23.9500
G01 X76.3750 Y28.0750
G01 X77.8000 Y34.1500
G01 X78.2500 Y40.0000
G01 X77.8000 Y45.8500
G01 X76.3750 Y51.9250
G01 X74.2750 Y57.0250
G01 X70.7500 Y62.8000
G01 X67.7500 Y66.4000
G01 X64.0000 Y69.8500
G01 X58.4500 Y73.5250
G01 X52.8250 Y76.0750
G01 X48.2500 Y77.3500
G01 X42.7000 Y78.1000
G01 X37.3000
G01 X31.7500 Y77.3500
G01 X26.2000 Y75.7000
G01 X21.0250 Y73.2250
G01 X16.0000 Y69.8500
G01 X12.3250 Y66.4750
G01 X9.2500 Y62.8000
G01 X6.0250 Y57.6250
G01 X3.6250 Y51.9250
G01 X2.2000 Y45.8500
G01 X1.7500 Y40.0000
G01 X2.2000 Y34.1500
G01 X3.1750 Y29.7250
G01 X4.1500 Y26.6500
G01 X5.7250 Y22.9750
G01 X6.9250 Y20.8000
G01 X9.2500 Y17.2000
G01 X12.3250 Y13.5250
G01 Z-17.9990 F100
G01 X14.5750 Y11.3500 F120
G01 X17.5000 Y9.0250
G01 X21.0250 Y6.7750
G01 X24.4000 Y5.0500
G01 X28.2250 Y3.5500
G01 X31.7500 Y2.6500
G01 X35.5000 Y2.0500
G01 X38.8000 Y1.8250
G01 X43.6750 Y1.9750
G01 X48.2500 Y2.6500
G01 X53.4250 Y4.1500
G01 X58.9750 Y6.7750
G01 X64.0000 Y10.1500
G01 X67.7500 Y13.6000
G01 X70.7500 Y17.2000
G01 X73.0750 Y20.8000
G01 X74.7250 Y23.9500
G01 X76.3750 Y28.0750
G01 X77.8000 Y34.1500
G01 X78.2500 Y40.0000
G01 X77.8000 Y45.8500
G01 X76.3750 Y51.9250
G01 X74.2750 Y57.0250
G01 X70.7500 Y62.8000
G01 X67.7500 Y66.4000
G01 X64.0000 Y69.8500
G01 X58.4500 Y73.5250
G01 X52.8250 Y76.0750
G01 X48.2500 Y77.3500
G01 X42.7000 Y78.1000
G01 X37.3000
G01 X31.7500 Y77.3500
G01 X26.2000 Y75.7000
G01 X21.0250 Y73.2250
G01 X16.0000 Y69.8500
G01 X12.3250 Y66.4750
G01 X9.2500 Y62.8000
G01 X6.0250 Y57.6250
G01 X3.6250 Y51.9250
G01 X2.2000 Y45.8500
G01 X1.7500 Y40.0000
G01 X2.2000 Y34.1500
G01 X3.1750 Y29.7250
G01 X4.1500 Y26.6500
G01 X5.7250 Y22.9750
G01 X6.9250 Y20.8000
G01 X9.2500 Y17.2000
G01 X12.3250 Y13.5250
G01 Z-18.2990 F100
G01 X14.5750 Y11.3500 F120
G01 X17.5000 Y9.0250
G01 X21.0250 Y6.7750
G01 X24.4000 Y5.0500
G01 X28.2250 Y3.5500
G01 X31.7500 Y2.6500
G01 X35.5000 Y2.0500
G01 X38.8000 Y1.8250
G01 X43.6750 Y1.9750
G01 X48.2500 Y2.6500
G01 X53.4250 Y4.1500
G01 X58.9750 Y6.7750
G01 X64.0000 Y10.1500
G01 X67.7500 Y13.6000
G01 X70.7500 Y17.2000
G01 X73.0750 Y20.8000
G01 X74.7250 Y23.9500
G01 X76.3750 Y28.0750
G01 X77.8000 Y34.1500
G01 X78.2500 Y40.0000
G01 X77.8000 Y45.8500
G01 X76.3750 Y51.9250
G01 X74.2750 Y57.0250
G01 X70.7500 Y62.8000
G01 X67.7500 Y66.4000
G01 X64.0000 Y69.8500
G01 X58.4500 Y73.5250
G01 X52.8250 Y76.0750
G01 X48.2500 Y77.3500
G01 X42.7000 Y78.1000
G01 X37.3000
G01 X31.7500 Y77.3500
G01 X26.2000 Y75.7000
G01 X21.0250 Y73.2250
G01 X16.0000 Y69.8500
G01 X12.3250 Y66.4750
G01 X9.2500 Y62.8000
G01 X6.0250 Y57.6250
G01 X3.6250 Y51.9250
G01 X2.2000 Y45.8500
G01 X1.7500 Y40.0000
G01 X2.2000 Y34.1500
G01 X3.1750 Y29.7250
G01 X4.1500 Y26.6500
G01 X5.7250 Y22.9750
G01 X6.9250 Y20.8000
G01 X9.2500 Y17.2000
G01 X12.3250 Y13.5250
G01 Z-18.5990 F100
G01 X14.5750 Y11.3500 F120
G01 X17.5000 Y9.0250
G01 X21.0250 Y6.7750
G01 X24.4000 Y5.0500
G01 X28.2250 Y3.5500
G01 X31.7500 Y2.6500
G01 X35.5000 Y2.0500
G01 X38.8000 Y1.8250
G01 X43.6750 Y1.9750
G01 X48.2500 Y2.6500
G01 X53.4250 Y4.1500
G01 X58.9750 Y6.7750
G01 X64.0000 Y10.1500
G01 X67.7500 Y13.6000
G01 X70.7500 Y17.2000
G01 X73.0750 Y20.8000
G01 X74.7250 Y23.9500
G01 X76.3750 Y28.0750
G01 X77.8000 Y34.1500
G01 X78.2500 Y40.0000
G01 X77.8000 Y45.8500
G01 X76.3750 Y51.9250
G01 X74.2750 Y57.0250
G01 X70.7500 Y62.8000
G01 X67.7500 Y66.4000
G01 X64.0000 Y69.8500
G01 X58.4500 Y73.5250
G01 X52.8250 Y76.0750
G01 X48.2500 Y77.3500
G01 X42.7000 Y78.1000
G01 X37.3000
G01 X31.7500 Y77.3500
G01 X26.2000 Y75.7000
G01 X21.0250 Y73.2250
G01 X16.0000 Y69.8500
G01 X12.3250 Y66.4750
G01 X9.2500 Y62.8000
G01 X6.0250 Y57.6250
G01 X3.6250 Y51.9250
G01 X2.2000 Y45.8500
G01 X1.7500 Y40.0000
G01 X2.2000 Y34.1500
G01 X3.1750 Y29.7250
G01 X4.1500 Y26.6500
G01 X5.7250 Y22.9750
G01 X6.9250 Y20.8000
G01 X9.2500 Y17.2000
G01 X12.3250 Y13.5250
G01 Z-18.8990 F100
G01 X14.5750 Y11.3500 F120
G01 X17.5000 Y9.0250
G01 X21.0250 Y6.7750
G01 X24.4000 Y5.0500
G01 X28.2250 Y3.5500
G01 X31.7500 Y2.6500
G01 X35.5000 Y2.0500
G01 X38.8000 Y1.8250
G01 X43.6750 Y1.9750
G01 X48.2500 Y2.6500
G01 X53.4250 Y4.1500
G01 X58.9750 Y6.7750
G01 X64.0000 Y10.1500
G01 X67.7500 Y13.6000
G01 X70.7500 Y17.2000
G01 X73.0750 Y20.8000
G01 X74.7250 Y23.9500
G01 X76.3750 Y28.0750
G01 X77.8000 Y34.1500
G01 X78.2500 Y40.0000
G01 X77.8000 Y45.8500
G01 X76.3750 Y51.9250
G01 X74.2750 Y57.0250
G01 X70.7500 Y62.8000
G01 X67.7500 Y66.4000
G01 X64.0000 Y69.8500
G01 X58.4500 Y73.5250
G01 X52.8250 Y76.0750
G01 X48.2500 Y77.3500
G01 X42.7000 Y78.1000
G01 X37.3000
G01 X31.7500 Y77.3500
G01 X26.2000 Y75.7000
G01 X21.0250 Y73.2250
G01 X16.0000 Y69.8500
G01 X12.3250 Y66.4750
G01 X9.2500 Y62.8000
G01 X6.0250 Y57.6250
G01 X3.6250 Y51.9250
G01 X2.2000 Y45.8500
G01 X1.7500 Y40.0000
G01 X2.2000 Y34.1500
G01 X3.1750 Y29.7250
G01 X4.1500 Y26.6500
G01 X5.7250 Y22.9750
G01 X6.9250 Y20.8000
G01 X9.2500 Y17.2000
G01 X12.3250 Y13.5250
G01 Z-19.1990 F100
G01 X14.5750 Y11.3500 F120
G01 X17.5000 Y9.0250
G01 X21.0250 Y6.7750
G01 X24.4000 Y5.0500
G01 X28.2250 Y3.5500
G01 X31.7500 Y2.6500
G01 X35.5000 Y2.0500
G01 X38.8000 Y1.8250
G01 X43.6750 Y1.9750
G01 X48.2500 Y2.6500
G01 X53.4250 Y4.1500
G01 X58.9750 Y6.7750
G01 X64.0000 Y10.1500
G01 X67.7500 Y13.6000
G01 X70.7500 Y17.2000
G01 X73.0750 Y20.8000
G01 X74.7250 Y23.9500
G01 X76.3750 Y28.0750
G01 X77.8000 Y34.1500
G01 X78.2500 Y40.0000
G01 X77.8000 Y45.8500
G01 X76.3750 Y51.9250
G01 X74.2750 Y57.0250
G01 X70.7500 Y62.8000
G01 X67.7500 Y66.4000
G01 X64.0000 Y69.8500
G01 X58.4500 Y73.5250
G01 X52.8250 Y76.0750
G01 X48.2500 Y77.3500
G01 X42.7000 Y78.1000
G01 X37.3000
G01 X31.7500 Y77.3500
G01 X26.2000 Y75.7000
G01 X21.0250 Y73.2250
G01 X16.0000 Y69.8500
G01 X12.3250 Y66.4750
G01 X9.2500 Y62.8000
G01 X6.0250 Y57.6250
G01 X3.6250 Y51.9250
G01 X2.2000 Y45.8500
G01 X1.7500 Y40.0000
G01 X2.2000 Y34.1500
G01 X3.1750 Y29.7250
G01 X4.1500 Y26.6500
G01 X5.7250 Y22.9750
G01 X6.9250 Y20.8000
G01 X9.2500 Y17.2000
G01 X12.3250 Y13.5250
G01 Z-19.4990 F100
G01 X14.5750 Y11.3500 F120
G01 X17.5000 Y9.0250
G01 X21.0250 Y6.7750
G01 X24.4000 Y5.0500
G01 X28.2250 Y3.5500
G01 X31.7500 Y2.6500
G01 X35.5000 Y2.0500
G01 X38.8000 Y1.8250
G01 X43.6750 Y1.9750
G01 X48.2500 Y2.6500
G01 X53.4250 Y4.1500
G01 X58.9750 Y6.7750
G01 X64.0000 Y10.1500
G01 X67.7500 Y13.6000
G01 X70.7500 Y17.2000
G01 X73.0750 Y20.8000
G01 X74.7250 Y23.9500
G01 X76.3750 Y28.0750
G01 X77.8000 Y34.1500
G01 X78.2500 Y40.0000
G01 X77.8000 Y45.8500
G01 X76.3750 Y51.9250
G01 X74.2750 Y57.0250
G01 X70.7500 Y62.8000
G01 X67.7500 Y66.4000
G01 X64.0000 Y69.8500
G01 X58.4500 Y73.5250
G01 X52.8250 Y76.0750
G01 X48.2500 Y77.3500
G01 X42.7000 Y78.1000
G01 X37.3000
G01 X31.7500 Y77.3500
G01 X26.2000 Y75.7000
G01 X21.0250 Y73.2250
G01 X16.0000 Y69.8500
G01 X12.3250 Y66.4750
G01 X9.2500 Y62.8000
G01 X6.0250 Y57.6250
G01 X3.6250 Y51.9250
G01 X2.2000 Y45.8500
G01 X1.7500 Y40.0000
G01 X2.2000 Y34.1500
G01 X3.1750 Y29.7250
G01 X4.1500 Y26.6500
G01 X5.7250 Y22.9750
G01 X6.9250 Y20.8000
G01 X9.2500 Y17.2000
G01 X12.3250 Y13.5250
G01 Z-19.7990 F100
G01 X14.5750 Y11.3500 F120
G01 X17.5000 Y9.0250
G01 X21.0250 Y6.7750
G01 X24.4000 Y5.0500
G01 X28.2250 Y3.5500
G01 X31.7500 Y2.6500
G01 X35.5000 Y2.0500
G01 X38.8000 Y1.8250
G01 X43.6750 Y1.9750
G01 X48.2500 Y2.6500
G01 X53.4250 Y4.1500
G01 X58.9750 Y6.7750
G01 X64.0000 Y10.1500
G01 X67.7500 Y13.6000
G01 X70.7500 Y17.2000
G01 X73.0750 Y20.8000
G01 X74.7250 Y23.9500
G01 X76.3750 Y28.0750
G01 X77.8000 Y34.1500
G01 X78.2500 Y40.0000
G01 X77.8000 Y45.8500
G01 X76.3750 Y51.9250
G01 X74.2750 Y57.0250
G01 X70.7500 Y62.8000
G01 X67.7500 Y66.4000
G01 X64.0000 Y69.8500
G01 X58.4500 Y73.5250
G01 X52.8250 Y76.0750
G01 X48.2500 Y77.3500
G01 X42.7000 Y78.1000
G01 X37.3000
G01 X31.7500 Y77.3500
G01 X26.2000 Y75.7000
G01 X21.0250 Y73.2250
G01 X16.0000 Y69.8500
G01 X12.3250 Y66.4750
G01 X9.2500 Y62.8000
G01 X6.0250 Y57.6250
G01 X3.6250 Y51.9250
G01 X2.2000 Y45.8500
G01 X1.7500 Y40.0000
G01 X2.2000 Y34.1500
G01 X3.1750 Y29.7250
G01 X4.1500 Y26.6500
G01 X5.7250 Y22.9750
G01 X6.9250 Y20.8000
G01 X9.2500 Y17.2000
G01 X12.3250 Y13.5250
G01 Z-12.0000
G01 X13.8250 Y12.5500
G01 Z-12.5000 F100
G01 X17.7250 Y9.3250 F120
G01 X22.4500 Y6.4000
G01 X28.2250 Y3.9250
G01 X33.7000 Y2.6500
G01 X38.8000 Y2.2000
G01 X45.1750 Y2.5000
G01 X50.9500 Y3.7000
G01 X55.3750 Y5.3500
G01 X58.7500 Y7.0750
G01 X63.7750 Y10.4500
G01 X67.4500 Y13.8250
G01 X70.4500 Y17.4250
G01 X73.9000 Y23.0500
G01 X76.0000 Y28.1500
G01 X77.4250 Y34.2250
G01 X77.8000 Y38.1250
G01 Y41.8750
G01 X77.4250 Y45.7750
G01 X76.1500 Y51.3250
G01 X75.0250 Y54.4000
G01 X72.7750 Y58.9750
G01 X69.4750 Y63.8500
G01 X66.1750 Y67.4500
G01 X62.2750 Y70.6750
G01 X57.5500 Y73.6000
G01 X52.0000 Y76.0000
G01 X46.3000 Y77.3500
G01 X41.2750 Y77.8000
G01 X37.3000 Y77.7250
G01 X33.7000 Y77.3500
G01 X28.2250 Y76.0750
G01 X26.4250 Y75.4000
G01 X22.4500 Y73.6000
G01 X18.1750 Y70.9750
G01 X14.8000 Y68.3500
G01 X12.6250 Y66.2500
G01 X9.5500 Y62.5750
G01 X7.2250 Y58.9750
G01 X5.6500 Y55.9750
G01 X4.0750 Y52.0750
G01 X2.9500 Y47.7250
G01 X2.3500 Y43.8250
G01 X2.2000 Y38.1250
G01 X2.3500 Y36.1750
G01 X3.2500 Y31.0000
G01 X4.0000 Y28.1500
G01 X4.9750 Y25.6000
G01 X7.2250 Y21.0250
G01 X10.8250 Y15.7750
G01 X13.8250 Y12.5500
G01 X14.0500 Y12.8500
G01 X17.9500 Y9.6250
G01 X22.6750 Y6.7000
G01 X28.5250 Y4.2250
G01 X33.7000 Y3.0250
G01 X38.8000 Y2.5750
G01 X45.1750 Y2.8750
G01 X50.9500 Y4.0750
G01 X55.9750 Y6.0250
G01 X61.6000 Y9.3250
G01 X64.9750 Y11.9500
G01 X67.9750 Y14.9500
G01 X70.1500 Y17.6500
G01 X73.5250 Y23.1250
G01 X75.6250 Y28.2250
G01 X77.0500 Y34.3000
G01 X77.4250 Y38.2000
G01 Y41.8000
G01 X77.0500 Y45.7000
G01 X75.6250 Y51.7750
G01 X74.2750 Y55.2250
G01 X72.4750 Y58.7500
G01 X68.8750 Y64.0000
G01 X65.9500 Y67.1500
G01 X62.0500 Y70.3750
G01 X57.3250 Y73.3000
G01 X51.7750 Y75.7000
G01 X46.3000 Y76.9750
G01 X41.2750 Y77.4250
G01 X37.3000 Y77.3500
G01 X33.7000 Y76.9750
G01 X28.5250 Y75.7750
G01 X24.8500 Y74.3500
G01 X21.4750 Y72.6250
G01 X17.9500 Y70.3750
G01 X15.0250 Y68.0500
G01 X12.0250 Y65.0500
G01 X9.8500 Y62.3500
G01 X7.5250 Y58.7500
G01 X6.0250 Y55.9000
G01 X4.3750 Y51.7750
G01 X3.3250 Y47.6500
G01 X2.7250 Y43.7500
G01 X2.5750 Y38.2000
G01 X2.9500 Y34.3000
G01 X4.3750 Y28.2250
G01 X6.0250 Y24.1000
G01 X7.5250 Y21.2500
G01 X11.1250 Y16.0000
G01 X14.0500 Y12.8500
G01 Z-12.0000
G01 X13.2250 Y14.2000
G01 Z-12.5000 F100
G01 X16.6750 Y11.0500 F120
G01 X21.7000 Y7.6750
G01 X26.8750 Y5.2000
G01 X31.7500 Y3.7750
G01 X37.3000 Y3.0250
G01 X42.7000
G01 X48.2500 Y3.7750
G01 X52.7500 Y5.0500
G01 X57.7750 Y7.3750
G01 X63.3250 Y11.0500
G01 X66.8500 Y14.2750
G01 X69.8500 Y17.8750
G01 X73.1500 Y23.2000
G01 X75.2500 Y28.3000
G01 X76.6750 Y34.3750
G01 X77.0500 Y38.2750
G01 Y41.7250
G01 X76.6750 Y45.6250
G01 X75.4000 Y51.1750
G01 X74.2750 Y54.2500
G01 X72.1750 Y58.5250
G01 X68.8750 Y63.4000
G01 X65.7250 Y66.8500
G01 X61.8250 Y70.0750
G01 X57.1000 Y73.0000
G01 X52.1500 Y75.1750
G01 X46.3000 Y76.6000
G01 X41.2750 Y77.0500
G01 X37.3000 Y76.9750
G01 X33.7000 Y76.6000
G01 X29.3500 Y75.6250
G01 X26.8750 Y74.8000
G01 X22.9000 Y73.0000
G01 X18.6250 Y70.3750
G01 X15.2500 Y67.7500
G01 X13.2250 Y65.8000
G01 X10.1500 Y62.1250
G01 X7.8250 Y58.5250
G01 X6.4000 Y55.8250
G01 X4.8250 Y51.9250
G01 X3.3250 Y45.6250
G01 X2.9500 Y41.7250
G01 Y38.2750
G01 X3.3250 Y34.3750
G01 X4.8250 Y28.0750
G01 X6.9250 Y23.0500
G01 X10.1500 Y17.8750
G01 X13.2250 Y14.2000
G01 Z-12.0000
G01 X14.5000 Y13.4500
G01 Z-12.5000 F100
G01 X18.4000 Y10.2250 F120
G01 X23.1250 Y7.3000
G01 X28.3000 Y5.0500
G01 X33.7000 Y3.7750
G01 X38.8000 Y3.3250
G01 X43.6750 Y3.4750
G01 X48.2500 Y4.1500
G01 X52.5250 Y5.3500
G01 X57.5500 Y7.6750
G01 X63.1000 Y11.3500
G01 X66.5500 Y14.5000
G01 X69.5500 Y18.1000
G01 X72.7750 Y23.2750
G01 X74.8750 Y28.3750
G01 X76.3000 Y34.4500
G01 X76.6750 Y38.3500
G01 Y41.6500
G01 X76.3000 Y45.5500
G01 X75.0250 Y51.1000
G01 X73.9000 Y54.1750
G01 X71.8750 Y58.3000
G01 X68.5750 Y63.1750
G01 X65.5000 Y66.5500
G01 X61.6000 Y69.7750
G01 X56.8750 Y72.7000
G01 X51.9250 Y74.8750
G01 X46.3000 Y76.2250
G01 X41.2750 Y76.6750
G01 X37.3000 Y76.6000
G01 X33.7000 Y76.2250
G01 X28.5250 Y75.0250
G01 X25.3000 Y73.7500
G01 X21.9250 Y72.0250
G01 X18.4000 Y69.7750
G01 X15.4750 Y67.4500
G01 X12.6250 Y64.6000
G01 X10.4500 Y61.9000
G01 X8.1250 Y58.3000
G01 X6.7750 Y55.7500
G01 X5.1250 Y51.6250
G01 X4.0750 Y47.5000
G01 X3.4750 Y43.6000
G01 X3.3250 Y38.3500
G01 X3.5500 Y35.7250
G01 X4.9750 Y28.9000
G01 X6.4750 Y24.9250
G01 X8.1250 Y21.7000
G01 X11.7250 Y16.4500
G01 X14.5000 Y13.4500
G01 X14.7250 Y13.7500
G01 X18.6250 Y10.5250
G01 X23.3500 Y7.6000
G01 X28.5250 Y5.3500
G01 X33.7000 Y4.1500
G01 X38.8000 Y3.7000
G01 X45.1750 Y4.0000
G01 X50.9500 Y5.2000
G01 X56.6500 Y7.6000
G01 X60.9250 Y10.2250
G01 X64.3000 Y12.8500
G01 X67.0750 Y15.6250
G01 X70.0000 Y19.4500
G01 X72.8500 Y24.3250
G01 X74.5000 Y28.4500
G01 X75.9250 Y34.5250
G01 X76.3000 Y38.4250
G01 Y41.5750
G01 X75.9250 Y45.4750
G01 X74.5000 Y51.5500
G01 X73.1500 Y55.0000
G01 X71.5750 Y58.0750
G01 X67.9750 Y63.3250
G01 X65.2750 Y66.2500
G01 X61.3750 Y69.4750
G01 X56.6500 Y72.4000
G01 X51.7000 Y74.5750
G01 X46.3000 Y75.8500
G01 X41.2750 Y76.3000
G01 X37.3000 Y76.2250
G01 X33.7000 Y75.8500
G01 X28.5250 Y74.6500
G01 X25.5250 Y73.4500
G01 X22.1500 Y71.7250
G01 X18.6250 Y69.4750
G01 X15.7000 Y67.1500
G01 X12.9250 Y64.3750
G01 X10.7500 Y61.6750
G01 X8.4250 Y58.0750
G01 X7.1500 Y55.6750
G01 X5.5000 Y51.5500
G01 X4.4500 Y47.4250
G01 X3.8500 Y43.5250
G01 X3.7000 Y38.4250
G01 X4.1500 Y34.1500
G01 X5.5000 Y28.4500
G01 X7.1500 Y24.3250
G01 X10.0000 Y19.4500
G01 X12.0250 Y16.6750
G01 X14.7250 Y13.7500
G01 X14.9500 Y14.0500
G01 X18.8500 Y10.8250
G01 X23.5750 Y7.9000
G01 X28.1500 Y5.8750
G01 X33.7000 Y4.5250
G01 X38.8000 Y4.0750
G01 X43.6750 Y4.2250
G01 X48.2500 Y4.9000
G01 X52.0750 Y5.9500
G01 X57.1000 Y8.2750
G01 X62.6500 Y11.9500
G01 X65.9500 Y14.9500
G01 X68.9500 Y18.5500
G01 X72.4750 Y24.4000
G01 X74.1250 Y28.5250
G01 X75.5500 Y34.6000
G01 X75.9250 Y38.5000
G01 Y41.5000
G01 X75.5500 Y45.4000
G01 X74.2750 Y50.9500
G01 X73.1500 Y54.0250
G01 X71.2750 Y57.8500
G01 X67.9750 Y62.7250
G01 X65.0500 Y65.9500
G01 X61.1500 Y69.1750
G01 X56.4250 Y72.1000
G01 X51.4750 Y74.2750
G01 X46.3000 Y75.4750
G01 X41.2750 Y75.9250
G01 X37.3000 Y75.8500
G01 X33.7000 Y75.4750
G01 X27.5500 Y73.9000
G01 X23.5750 Y72.1000
G01 X19.3000 Y69.4750
G01 X16.9000 Y67.6750
G01 X14.1250 Y65.1250
G01 X11.0500 Y61.4500
G01 X8.7250 Y57.8500
G01 X7.5250 Y55.6000
G01 X5.9500 Y51.7000
G01 X4.4500 Y45.4000
G01 X4.0750 Y41.5000
G01 X4.1500 Y37.5250
G01 X4.6750 Y33.4000
G01 X5.9500 Y28.3000
G01 X8.1250 Y23.2000
G01 X11.2750 Y18.2500
G01 X14.9500 Y14.0500
G01 X15.1750 Y14.3500
G01 X19.0750 Y11.1250
G01 X23.8000 Y8.2000
G01 X28.8250 Y6.0250
G01 X33.7000 Y4.9000
G01 X38.8000 Y4.4500
G01 X45.1750 Y4.7500
G01 X50.9500 Y5.9500
G01 X56.2000 Y8.2000
G01 X60.4750 Y10.8250
G01 X63.8500 Y13.4500
G01 X66.4750 Y16.0750
G01 X68.6500 Y18.7750
G01 X72.1000 Y24.4750
G01 X73.7500 Y28.6000
G01 X75.1750 Y34.6750
G01 X75.5500 Y38.5750
G01 Y41.4250
G01 X75.1750 Y45.3250
G01 X73.7500 Y51.4000
G01 X72.4000 Y54.8500
G01 X70.9750 Y57.6250
G01 X67.3750 Y62.8750
G01 X63.8500 Y66.5500
G01 X60.4750 Y69.1750
G01 X56.2000 Y71.8000
G01 X50.9500 Y74.0500
G01 X46.3000 Y75.1000
G01 X41.2750 Y75.5500
G01 X37.3000 Y75.4750
G01 X33.7000 Y75.1000
G01 X28.8250 Y73.9750
G01 X25.9750 Y72.8500
G01 X22.6000 Y71.1250
G01 X19.0750 Y68.8750
G01 X16.1500 Y66.5500
G01 X13.5250 Y63.9250
G01 X11.3500 Y61.2250
G01 X9.0250 Y57.6250
G01 X7.9000 Y55.5250
G01 X6.2500 Y51.4000
G01 X5.2000 Y47.2750
G01 X4.6000 Y43.3750
G01 X4.4500 Y38.5750
G01 X4.7500 Y35.3500
G01 X6.1000 Y29.1250
G01 X7.6000 Y25.1500
G01 X9.0250 Y22.3750
G01 X12.6250 Y17.1250
G01 X15.1750 Y14.3500
G01 Z-12.0000
G01 X16.3750 Y13.7500
G01 Z-12.5000 F100
G01 X19.3000 Y11.4250 F120
G01 X22.8250 Y9.1750
G01 X28.8250 Y6.4000
G01 X32.5000 Y5.5000
G01 X36.3250 Y4.9750
G01 X37.0000 Y5.1250
G01 X35.4250 Y6.4750
G01 X34.2250 Y9.1000
G01 X34.3750 Y11.5750
G01 X35.3500 Y13.5250
G01 X30.3250 Y14.9500
G01 X26.6500 Y16.6000
G01 X23.3500 Y18.7750
G01 X19.3750 Y22.6750
G01 X18.4750 Y21.3250
G01 X16.8250 Y19.9750
G01 X14.5000 Y19.2250
G01 X13.6000
G01 X11.0500 Y20.0500
G01 X11.3500 Y19.4500
G01 X13.8250 Y16.3000
G01 X16.3750 Y13.7500
G01 X16.6000 Y14.0500
G01 X19.5250 Y11.7250
G01 X23.0500 Y9.4750
G01 X28.8250 Y6.7750
G01 X31.7500 Y6.0250
G01 X35.5000 Y5.4250
G01 X35.8000 Y5.5750
G01 X34.8250 Y6.7000
G01 X33.8500 Y9.0250
G01 X33.9250 Y11.3500
G01 X34.7500 Y13.3000
G01 X30.1000 Y14.6500
G01 X26.4250 Y16.3000
G01 X23.1250 Y18.4750
G01 X19.4500 Y22.0000
G01 X17.8000 Y20.1250
G01 X17.0500 Y19.6750
G01 X14.5000 Y18.8500
G01 X13.6000
G01 X12.1000 Y19.3750
G01 X11.9500 Y19.2250
G01 X14.1250 Y16.5250
G01 X16.6000 Y14.0500
G01 X16.8250 Y14.3500
G01 X19.7500 Y12.0250
G01 X23.2750 Y9.7750
G01 X28.4500 Y7.3000
G01 X34.2250 Y5.9500
G01 X34.8250 Y6.1000
G01 X33.6250 Y8.2750
G01 X33.4750 Y10.5250
G01 X33.6250 Y11.7250
G01 X34.2250 Y13.0750
G01 X29.8750 Y14.3500
G01 X26.2000 Y16.0000
G01 X22.9000 Y18.1750
G01 X19.5250 Y21.3250
G01 X18.0250 Y19.8250
G01 X17.2750 Y19.3750
G01 X14.5000 Y18.4750
G01 X13.3000 Y18.6250
G01 X13.0000 Y18.4750
G01 X16.8250 Y14.3500
G01 Z-12.0000
G01 X16.0750 Y15.5500
G01 Z-12.5000 F100
G01 X18.4750 Y13.4500 F120
G01 X23.5000 Y10.0750
G01 X28.6750 Y7.6000
G01 X33.7000 Y6.4000
G01 X34.0750
G01 Y6.6250
G01 X33.1750 Y8.5000
G01 X33.1000 Y10.9750
G01 X33.7000 Y12.7750
G01 X29.6500 Y14.0500
G01 X25.9750 Y15.7000
G01 X22.6750 Y17.8750
G01 X19.6000 Y20.7250
G01 X17.5000 Y19.0750
G01 X14.5000 Y18.1000
G01 X13.9000
G01 X14.2000 Y17.6500
G01 X16.0750 Y15.5500
G01 Z-12.0000
G01 X14.9500 Y17.3500
G01 Z-12.5000 F100
G01 X18.7000 Y13.7500 F120
G01 X23.7250 Y10.3750
G01 X28.9000 Y7.9000
G01 X33.3250 Y6.8500
G01 X33.4750 Y7.0000
G01 X32.7250 Y8.8000
G01 Y11.2000
G01 X33.1000 Y12.6250
G01 X29.4250 Y13.7500
G01 X25.7500 Y15.4000
G01 X22.4500 Y17.5750
G01 X19.6000 Y20.2000
G01 X17.7250 Y18.7750
G01 X14.6500 Y17.8000
G01 X14.9500 Y17.3500
G01 X15.4000
G01 X18.9250 Y14.0500
G01 X23.9500 Y10.6750
G01 X29.1250 Y8.2000
G01 X32.5000 Y7.3750
G01 X32.8000
G01 X32.3500 Y8.7250
G01 Y11.2750
G01 X32.6500 Y12.4000
G01 X29.2000 Y13.4500
G01 X25.5250 Y15.1000
G01 X22.2250 Y17.2750
G01 X19.6000 Y19.6750
G01 X17.9500 Y18.4750
G01 X15.3250 Y17.6500
G01 X15.4000 Y17.3500
G01 Z-12.0000
G01 X16.0000 Y17.2750
G01 Z-12.5000 F100
G01 X19.1500 Y14.3500 F120
G01 X24.1750 Y10.9750
G01 X29.3500 Y8.5000
G01 X31.7500 Y7.9000
G01 X32.1250
G01 X32.0500 Y12.1750
G01 X28.0000 Y13.5250
G01 X25.3000 Y14.8000
G01 X22.0000 Y16.9750
G01 X19.6000 Y19.1500
G01 X18.4750 Y18.3250
G01 X16.0000 Y17.5000
G01 Y17.2750
G01 Z-12.0000
G01 X16.6750 Y17.3500
G01 Z-12.5000 F100
G01 X16.7500 Y17.0500 F120
G01 X19.3750 Y14.6500
G01 X24.4000 Y11.2750
G01 X28.6750 Y9.1750
G01 X31.4500 Y8.3500
G01 X31.6750
G01 X31.6000 Y11.9500
G01 X27.7750 Y13.2250
G01 X25.0750 Y14.5000
G01 X21.7750 Y16.6750
G01 X19.6750 Y18.6250
G01 X18.4000 Y17.8750
G01 X16.6750 Y17.3500
G01 Z-12.0000
G01 X17.3500 Y17.2000
G01 Z-12.5000 F100
G01 Y16.9750 F120
G01 X21.1000 Y13.8250
G01 X24.6250 Y11.5750
G01 X28.0000 Y9.8500
G01 X30.8500 Y8.8750
G01 X31.2250
G01 X31.1500 Y11.7250
G01 X27.5500 Y12.9250
G01 X24.8500 Y14.2000
G01 X21.5500 Y16.3750
G01 X19.6750 Y18.1000
G01 X17.3500 Y17.2000
G01 Z-12.0000
G01 X18.0250 Y17.0500
G01 Z-12.5000 F100
G01 X18.4000 Y16.4500 F120
G01 X21.3250 Y14.1250
G01 X24.8500 Y11.8750
G01 X28.2250 Y10.1500
G01 X30.5500 Y9.3250
G01 X30.8500
G01 Y11.4250
G01 X27.3250 Y12.6250
G01 X24.6250 Y13.9000
G01 X21.3250 Y16.0750
G01 X19.6000 Y17.6500
G01 X18.0250 Y17.0500
G01 Z-12.0000
G01 X18.7000 Y16.9000
G01 Z-12.5000 F100
G01 X19.0000 Y16.4500 F120
G01 X21.5500 Y14.4250
G01 X25.0750 Y12.1750
G01 X30.2500 Y9.7750
G01 X30.4750
G01 Y11.2000
G01 X27.1000 Y12.3250
G01 X24.4000 Y13.6000
G01 X21.1000 Y15.7750
G01 X19.6000 Y17.1250
G01 X18.7000 Y16.9000
G01 Z-12.0000
G01 X19.6000 Y16.4500
G01 Z-12.5000 F100
G01 X20.2750 Y15.8500 F120
G01 X20.4250 Y15.9250
G01 X20.0500 Y16.3000
G01 X19.6000 Y16.4500
G01 Z-12.0000
G01 X23.5750 Y19.0750
G01 Z-12.5000 F100
G01 X20.7250 Y21.7000 F120
G01 X19.3000 Y23.3500
G01 X18.4000 Y21.8500
G01 X17.3500 Y20.7250
G01 X14.5000 Y19.6000
G01 X13.6000
G01 X11.2750 Y20.3500
G01 X9.6250 Y21.8500
G01 X8.8750 Y23.2750
G01 X8.6500 Y23.9500
G01 Y26.0500
G01 X10.0000 Y28.6000
G01 X11.2750 Y29.6500
G01 X13.0750 Y30.2500
G01 X14.5000 Y30.4000
G01 X15.2500 Y30.1750
G01 X13.6750 Y35.8750
G01 X13.4500 Y39.2500
G01 Y42.2500
G01 X13.8250 Y45.1750
G01 X15.2500 Y49.8250
G01 X13.6000 Y49.6000
G01 X11.2750 Y50.3500
G01 X9.6250 Y51.8500
G01 X8.6500 Y53.9500
G01 Y56.0500
G01 X9.4750 Y57.9250
G01 X11.2750 Y59.6500
G01 X13.6000 Y60.4000
G01 X14.5000
G01 X17.3500 Y59.2750
G01 X18.4000 Y58.1500
G01 X19.3000 Y56.6500
G01 X19.9750 Y57.5500
G01 X23.5750 Y60.9250
G01 X27.0250 Y63.1750
G01 X30.8500 Y64.8250
G01 X34.0750 Y65.8750
G01 X36.0250 Y66.2500
G01 X34.6750 Y68.8000
G01 X34.7500 Y71.5000
G01 X35.7250 Y73.3000
G01 X36.6250 Y74.2000
G01 X37.4500 Y74.7250
G01 X39.5500 Y75.4000
G01 X41.0500 Y75.2500
G01 X43.3000 Y74.2750
G01 X44.2750 Y73.3000
G01 X45.2500 Y71.5000
G01 X45.3250 Y68.8000
G01 X44.5750 Y67.1500
G01 X43.9750 Y66.4000
G01 X44.0500 Y66.1750
G01 X45.6250 Y65.9500
G01 X49.0750 Y64.9000
G01 X54.3250 Y62.4250
G01 X58.0750 Y59.5000
G01 X60.7000 Y56.6500
G01 X61.6000 Y58.1500
G01 X62.5750 Y59.2000
G01 X63.4000 Y59.7250
G01 X65.5000 Y60.4000
G01 X66.4750
G01 X68.5750 Y59.7250
G01 X69.3250 Y59.2750
G01 X70.5250 Y57.9250
G01 X71.3500 Y56.0500
G01 Y53.9500
G01 X70.3750 Y51.8500
G01 X69.3250 Y50.7250
G01 X68.5750 Y50.2750
G01 X66.4750 Y49.6000
G01 X64.7500 Y49.8250
G01 X66.1750 Y45.2500
G01 X66.5500 Y41.8750
G01 X66.4000 Y36.1750
G01 X65.7250 Y33.0250
G01 X64.7500 Y30.4000
G01 Y30.1750
G01 X66.4750 Y30.4000
G01 X68.5750 Y29.7250
G01 X69.3250 Y29.2750
G01 X70.3750 Y28.1500
G01 X71.3500 Y26.0500
G01 Y23.9500
G01 X70.5250 Y22.0750
G01 X69.3250 Y20.7250
G01 X68.5750 Y20.2750
G01 X66.4750 Y19.6000
G01 X65.5000
G01 X63.4000 Y20.2750
G01 X62.5750 Y20.8000
G01 X61.6000 Y21.8500
G01 X60.7000 Y23.3500
G01 X60.1000 Y22.5250
G01 X56.5750 Y19.1500
G01 X53.2750 Y16.9750
G01 X48.5500 Y14.9500
G01 X45.9250 Y14.1250
G01 X44.0500 Y13.8250
G01 X43.9750 Y13.6000
G01 X44.5750 Y12.8500
G01 X45.3250 Y11.2000
G01 X45.2500 Y8.5000
G01 X44.2750 Y6.7000
G01 X43.3000 Y5.7250
G01 X41.0500 Y4.7500
G01 X39.5500 Y4.6000
G01 X37.4500 Y5.2750
G01 X36.6250 Y5.8000
G01 X35.7250 Y6.7000
G01 X34.7500 Y8.5000
G01 X34.6750 Y11.2000
G01 X36.0250 Y13.7500
G01 X30.5500 Y15.2500
G01 X26.8750 Y16.9000
G01 X23.5750 Y19.0750
G01 X23.8000 Y19.3750
G01 X22.6000 Y20.4250
G01 X20.5750 Y22.3750
G01 X19.1500 Y24.1750
G01 X18.2500 Y22.3000
G01 X17.1250 Y21.0250
G01 X14.5000 Y19.9750
G01 X13.6000
G01 X11.5000 Y20.6500
G01 X10.3000 Y21.6250
G01 X9.5500 Y22.7500
G01 X9.0250 Y24.0250
G01 Y25.9750
G01 X10.3000 Y28.3750
G01 X11.5000 Y29.3500
G01 X13.6000 Y30.0250
G01 X14.5000
G01 X15.9250 Y29.5750
G01 X14.5000 Y33.7750
G01 X13.8250 Y37.6750
G01 Y42.1750
G01 X14.2000 Y45.1000
G01 X15.8500 Y50.4250
G01 X14.5000 Y49.9750
G01 X13.6000
G01 X11.5000 Y50.6500
G01 X10.3000 Y51.6250
G01 X9.0250 Y54.0250
G01 Y55.9750
G01 X9.7750 Y57.7000
G01 X11.5000 Y59.3500
G01 X13.6000 Y60.0250
G01 X14.5000
G01 X17.1250 Y58.9750
G01 X18.2500 Y57.7000
G01 X19.1500 Y55.8250
G01 X20.2000 Y57.2500
G01 X23.8000 Y60.6250
G01 X27.7750 Y63.1750
G01 X34.0750 Y65.5000
G01 X36.9250 Y65.9500
G01 X36.0250 Y66.9250
G01 X35.1250 Y68.5750
G01 X34.9750 Y70.6750
G01 X35.1250 Y71.4250
G01 X36.0250 Y73.0750
G01 X36.8500 Y73.9000
G01 X37.6750 Y74.4250
G01 X39.5500 Y75.0250
G01 X41.0500 Y74.8750
G01 X43.0750 Y73.9750
G01 X43.9750 Y73.0750
G01 X44.8750 Y71.4250
G01 Y68.5750
G01 X43.9750 Y66.9250
G01 X43.1500 Y66.1000
G01 X43.2250 Y65.8750
G01 X45.2500 Y65.6500
G01 X47.5000 Y65.0500
G01 X50.4250 Y64.0000
G01 X53.5750 Y62.4250
G01 X55.4500 Y61.2250
G01 X57.8500 Y59.2000
G01 X60.8500 Y55.8250
G01 X61.7500 Y57.7000
G01 X62.8000 Y58.9000
G01 X63.6250 Y59.4250
G01 X65.5000 Y60.0250
G01 X66.4750
G01 X68.3500 Y59.4250
G01 X69.1000 Y58.9750
G01 X70.2250 Y57.7000
G01 X70.9750 Y55.9750
G01 Y54.0250
G01 X69.7000 Y51.6250
G01 X68.6500 Y50.7250
G01 X66.4750 Y49.9750
G01 X65.5000
G01 X64.0750 Y50.4250
G01 X65.8000 Y45.1750
G01 X66.1750 Y41.8000
G01 Y37.6750
G01 X65.8000 Y34.9000
G01 X64.6750 Y31.0750
G01 X64.0750 Y29.8000
G01 X64.2250 Y29.5750
G01 X65.5000 Y30.0250
G01 X67.0000 Y29.8750
G01 X68.6500 Y29.2750
G01 X70.0750 Y27.9250
G01 X70.9750 Y25.9750
G01 Y24.0250
G01 X70.2250 Y22.3000
G01 X69.1000 Y21.0250
G01 X68.3500 Y20.5750
G01 X66.4750 Y19.9750
G01 X65.5000
G01 X63.6250 Y20.5750
G01 X62.8000 Y21.1000
G01 X61.7500 Y22.3000
G01 X60.8500 Y24.1750
G01 X59.8000 Y22.7500
G01 X56.3500 Y19.4500
G01 X53.0500 Y17.2750
G01 X46.9750 Y14.8000
G01 X43.1500 Y14.0500
G01 X44.2750 Y12.6250
G01 X44.8750 Y11.4250
G01 Y8.5750
G01 X43.9750 Y6.9250
G01 X43.0750 Y6.0250
G01 X41.0500 Y5.1250
G01 X39.5500 Y4.9750
G01 X37.6750 Y5.5750
G01 X36.8500 Y6.1000
G01 X36.0250 Y6.9250
G01 X35.1250 Y8.5750
G01 X34.9750 Y10.6750
G01 X35.1250 Y11.4250
G01 X36.0250 Y13.0750
G01 X36.9250 Y14.0500
G01 X32.1250 Y15.1000
G01 X28.6750 Y16.3750
G01 X27.1000 Y17.2000
G01 X23.8000 Y19.3750
G01 X24.0250 Y19.6750
G01 X22.8250 Y20.7250
G01 X20.8750 Y22.6000
G01 X18.7750 Y25.3000
G01 X18.5500 Y23.7250
G01 X17.5750 Y22.0000
G01 X16.4500 Y21.0250
G01 X14.5000 Y20.3500
G01 X13.6000
G01 X11.7250 Y20.9500
G01 X10.2250 Y22.3000
G01 X9.5500 Y23.5750
G01 X9.4750 Y26.2000
G01 X10.0750 Y27.4750
G01 X11.0500 Y28.6000
G01 X11.7250 Y29.0500
G01 X13.6000 Y29.6500
G01 X14.5000
G01 X16.6750 Y28.8250
G01 X14.8000 Y34.1500
G01 X14.2000 Y37.7500
G01 Y42.1000
G01 X14.5750 Y45.0250
G01 X15.3250 Y47.8000
G01 X16.6750 Y51.1750
G01 X14.5000 Y50.3500
G01 X13.6000
G01 X11.7250 Y50.9500
G01 X11.0500 Y51.4000
G01 X10.0750 Y52.5250
G01 X9.4000 Y54.1000
G01 Y55.9000
G01 X10.0750 Y57.4750
G01 X11.7250 Y59.0500
G01 X13.6000 Y59.6500
G01 X15.0250 Y59.5000
G01 X16.4500 Y58.9750
G01 X17.5750 Y58.0000
G01 X18.5500 Y56.2750
G01 X18.7750 Y54.6250
G01 X20.5000 Y57.0250
G01 X22.7500 Y59.2000
G01 X24.3250 Y60.5500
G01 X27.4750 Y62.5750
G01 X29.6500 Y63.6250
G01 X34.0750 Y65.1250
G01 X38.0500 Y65.7250
G01 X37.0750 Y66.4000
G01 X36.0250 Y67.6000
G01 X35.4250 Y68.9500
G01 X35.3500 Y70.6750
G01 X36.0250 Y72.4000
G01 X37.0750 Y73.6000
G01 X37.9000 Y74.1250
G01 X39.5500 Y74.6500
G01 X40.5250
G01 X42.6250 Y73.8250
G01 X43.6750 Y72.8500
G01 X44.5000 Y71.3500
G01 Y68.6500
G01 X43.6750 Y67.1500
G01 X41.8750 Y65.6500 Z-12.4927
G01 X43.9750 Y65.5000 Z-12.5000
G01 X47.5000 Y64.6750
G01 X50.2000 Y63.7000
G01 X53.3500 Y62.1250
G01 X55.2250 Y60.9250
G01 X57.6250 Y58.9000
G01 X59.4250 Y57.0250
G01 X61.2250 Y54.6250
G01 X61.4500 Y56.2750
G01 X62.4250 Y58.0000
G01 X63.7000 Y59.0500
G01 X64.9750 Y59.5000
G01 X66.4750 Y59.6500
G01 X68.1250 Y59.1250
G01 X68.8750 Y58.6750
G01 X69.9250 Y57.4750
G01 X70.6000 Y55.9000
G01 Y54.1000
G01 X69.9250 Y52.5250
G01 X68.8750 Y51.3250
G01 X66.4750 Y50.3500
G01 X65.5000
G01 X63.2500 Y51.1750 Z-12.4998
G01 X64.0000 Y49.6750 Z-12.5000
G01 X65.3500 Y45.4000
G01 X65.8000 Y41.7250
G01 Y37.7500
G01 X65.4250 Y34.9750
G01 X64.3000 Y31.1500
G01 X63.3250 Y28.9000
G01 X65.5000 Y29.6500
G01 X66.4750
G01 X68.8750 Y28.6750
G01 X69.9250 Y27.4750
G01 X70.6000 Y25.9000
G01 Y24.1000
G01 X69.9250 Y22.5250
G01 X68.8750 Y21.3250
G01 X68.1250 Y20.8750
G01 X66.4750 Y20.3500
G01 X64.9750 Y20.5000
G01 X63.7000 Y20.9500
G01 X62.4250 Y22.0000
G01 X61.4500 Y23.7250
G01 X61.2250 Y25.3000
G01 X59.5000 Y22.9750
G01 X56.8750 Y20.4250
G01 X52.8250 Y17.5750
G01 X46.9750 Y15.1750
G01 X42.0250 Y14.2750
G01 X43.6750 Y12.8500
G01 X44.5000 Y11.3500
G01 Y8.6500
G01 X43.6750 Y7.1500
G01 X42.8500 Y6.3250
G01 X41.0500 Y5.5000
G01 X39.5500 Y5.3500
G01 X37.9000 Y5.8750
G01 X37.0750 Y6.4000
G01 X36.0250 Y7.6000
G01 X35.3500 Y9.3250
G01 X35.4250 Y11.0500
G01 X36.0250 Y12.4000
G01 X37.0750 Y13.6000
G01 X38.0500 Y14.1250
G01 Y14.3500
G01 X33.8500 Y14.9500
G01 X30.0250 Y16.2250 Z-12.4998
G01 X27.3250 Y17.5000 Z-12.5000
G01 X24.0250 Y19.6750
G01 Z-12.4706
G01 X24.2500 Y19.9750
G01 X21.1750 Y22.8250 Z-12.4703
G01 X18.8500 Y25.8250 Z-12.4719
G01 X16.8250 Y29.5000 Z-12.4671
G01 X15.6250 Y32.5750 Z-12.4694
G01 X14.9500 Y35.3500 Z-12.4712
G01 X14.5750 Y37.8250 Z-12.4730
G01 Y41.2750 Z-12.4649
G01 X14.9500 Y44.9500 Z-12.4761
G01 X16.6000 Y50.1250 Z-12.4754
G01 X19.3750 Y55.0000 Z-12.4735
G01 X20.8000 Y56.8000 Z-12.4752
G01 X24.2500 Y60.0250 Z-12.4698
G01 X28.2250 Y62.5750 Z-12.4730
G01 X34.0750 Y64.7500 Z-12.4667
G01 X38.4250 Y65.4250 Z-12.4770
G01 X41.8000 Y65.3500 Z-12.4634
G01 X45.6250 Y64.8250 Z-12.4688
G01 X49.9750 Y63.4000 Z-12.4659
G01 X53.6500 Y61.5250 Z-12.4753
G01 X56.7250 Y59.2000 Z-12.4713
G01 X59.1250 Y56.8000 Z-12.4668
G01 X61.9000 Y52.9750 Z-12.4721
G01 X63.6250 Y49.6000 Z-12.4734
G01 X64.9750 Y45.3250 Z-12.4757
G01 X65.2750 Y43.4500 Z-12.4705
G01 X65.4250 Y37.8250
G01 X65.0500 Y35.0500 Z-12.4757
G01 X63.9250 Y31.2250 Z-12.4688
G01 X62.8750 Y28.8250 Z-12.4697
G01 X61.2250 Y25.9000 Z-12.4690
G01 X59.2000 Y23.2000 Z-12.4697
G01 X55.9000 Y20.0500 Z-12.4696
G01 X53.5000 Y18.4000 Z-12.4691
G01 X51.6250 Y17.3500 Z-12.4660
G01 X46.9750 Y15.5500 Z-12.4637
G01 X41.8000 Y14.5750 Z-12.4769
G01 X38.7250 Z-12.4714
G01 X33.8500 Y15.3250 Z-12.4648
G01 X30.2500 Y16.5250 Z-12.4603
G01 X27.5500 Y17.8000 Z-12.4669
G01 X24.2500 Y19.9750 Z-12.4706
G01 Z-12.4306
G01 X24.4750 Y20.2750
G01 X21.7750 Y22.7500 Z-12.4302
G01 X20.2750 Y24.4750 Z-12.4337
G01 X18.4000 Y27.2500 Z-12.4321
G01 X16.5250 Y31.1500 Z-12.4325
G01 X15.5500 Y34.3000 Z-12.4343
G01 X14.9500 Y37.9000 Z-12.4355
G01 X15.0250 Y42.6250 Z-12.4335
G01 X15.3250 Y44.8750 Z-12.4372
G01 X16.0750 Y47.6500 Z-12.4332
G01 X17.9500 Y52.0000 Z-12.4314
G01 X19.6750 Y54.7750 Z-12.4342
G01 X21.1000 Y56.5750 Z-12.4354
G01 X24.4750 Y59.7250 Z-12.4337
G01 X28.6000 Y62.3500 Z-12.4325
G01 X34.0750 Y64.3750 Z-12.4300
G01 X38.4250 Y65.0500 Z-12.4388
G01 X41.8000 Y64.9750 Z-12.4268
G01 X45.6250 Y64.4500 Z-12.4317
G01 X49.7500 Y63.1000 Z-12.4333
G01 X53.4250 Y61.2250 Z-12.4347
G01 X56.5000 Y58.9000 Z-12.4346
G01 X58.8250 Y56.5750 Z-12.4291
G01 X61.6000 Y52.7500 Z-12.4323
G01 X63.2500 Y49.5250 Z-12.4349
G01 X64.6000 Y45.2500 Z-12.4377
G01 X64.9000 Y43.3750 Z-12.4332
G01 X65.0500 Y37.9000 Z-12.4338
G01 X64.6750 Y35.1250 Z-12.4373
G01 X63.5500 Y31.3000 Z-12.4332
G01 X62.5000 Y28.9000 Z-12.4311
G01 X60.9250 Y26.1250 Z-12.4334
G01 X58.9000 Y23.4250 Z-12.4313
G01 X55.6750 Y20.3500 Z-12.4332
G01 X53.2750 Y18.7000 Z-12.4361
G01 X50.3500 Y17.2000 Z-12.4286
G01 X45.9250 Y15.6250 Z-12.4330
G01 X41.8000 Y14.9500 Z-12.4386
G01 X38.7250 Z-12.4331
G01 X35.9500 Y15.2500 Z-12.4345
G01 X32.1250 Y16.2250 Z-12.4291
G01 X27.7750 Y18.1000 Z-12.4297
G01 X24.4750 Y20.2750 Z-12.4306
G01 Z-12.3959
G01 X24.7000 Y20.5750
G01 X21.7750 Y23.2750 Z-12.3958
G01 X19.4500 Y26.2750 Z-12.3938
G01 X17.5750 Y29.6500 Z-12.3951
G01 X16.3750 Y32.7250 Z-12.3957
G01 X15.5500 Y36.2500 Z-12.3969
G01 X15.3250 Y37.9750 Z-12.3976
G01 Y41.8750 Z-12.3961
G01 X15.7000 Y44.8000 Z-12.3983
G01 X16.4500 Y47.5750 Z-12.3974
G01 X18.2500 Y51.7750 Z-12.3939
G01 X19.9750 Y54.5500 Z-12.3955
G01 X21.4000 Y56.3500 Z-12.3993
G01 X24.7000 Y59.4250 Z-12.3975
G01 X28.8250 Y62.0500 Z-12.3953
G01 X34.0750 Y64.0000 Z-12.3955
G01 X38.4250 Y64.6750 Z-12.4005
G01 X41.8000 Y64.6000 Z-12.3913
G01 X45.6250 Y64.0750 Z-12.3946
G01 X49.5250 Y62.8000 Z-12.3975
G01 X53.2000 Y60.9250 Z-12.3987
G01 X56.2750 Y58.6000 Z-12.3943
G01 X58.5250 Y56.3500 Z-12.3914
G01 X61.3000 Y52.5250 Z-12.3970
G01 X62.8750 Y49.4500 Z-12.3963
G01 X64.2250 Y45.1750 Z-12.3996
G01 X64.5250 Y43.3000 Z-12.3965
G01 X64.6750 Y41.5000
G01 X64.5250 Y36.5500 Z-12.3985
G01 X63.8500 Y33.4000 Z-12.3968
G01 X62.1250 Y28.9750 Z-12.3959
G01 X60.6250 Y26.3500 Z-12.3941
G01 X58.6000 Y23.6500 Z-12.3945
G01 X55.4500 Y20.6500 Z-12.3966
G01 X53.0500 Y19.0000 Z-12.3990
G01 X51.1750 Y17.9500 Z-12.3911
G01 X46.9750 Y16.3000 Z-12.3941
G01 X41.8000 Y15.3250 Z-12.4004
G01 X38.7250 Z-12.3949
G01 X33.8500 Y16.0750 Z-12.3965
G01 X30.7000 Y17.1250 Z-12.3930
G01 X28.0000 Y18.4000 Z-12.3943
G01 X24.7000 Y20.5750 Z-12.3959
G01 Z-12.3560
G01 X24.9250 Y20.8750
G01 X22.0750 Y23.5000 Z-12.3581
G01 X20.2000 Y25.8250 Z-12.3607
G01 X18.2500 Y29.1250 Z-12.3581
G01 X17.0500 Y31.9000 Z-12.3583
G01 X16.1500 Y35.2750 Z-12.3581
G01 X15.7000 Y38.0500 Z-12.3598
G01 Y41.8000 Z-12.3586
G01 X16.0750 Y44.7250 Z-12.3605
G01 X17.7250 Y49.9000 Z-12.3591
G01 X20.2750 Y54.3250 Z-12.3568
G01 X21.7000 Y56.1250 Z-12.3586
G01 X24.9250 Y59.1250 Z-12.3553
G01 X28.9000 Y61.6750 Z-12.3591
G01 X34.0750 Y63.6250 Z-12.3597
G01 X38.4250 Y64.3000 Z-12.3593
G01 X41.8000 Y64.2250 Z-12.3552
G01 X45.6250 Y63.7000 Z-12.3576
G01 X49.3000 Y62.5000 Z-12.3617
G01 X52.4500 Y60.9250 Z-12.3569
G01 X54.7000 Y59.4250 Z-12.3596
G01 X58.2250 Y56.1250 Z-12.3547
G01 X59.6500 Y54.3250 Z-12.3597
G01 X61.6750 Y51.0250 Z-12.3582
G01 X62.5000 Y49.3750 Z-12.3591
G01 X63.9250 Y44.8000 Z-12.3595
G01 X64.3000 Y41.4250 Z-12.3598
G01 X64.2250 Y37.1500 Z-12.3591
G01 X63.4750 Y33.4750 Z-12.3603
G01 X62.5000 Y30.7000 Z-12.3582
G01 X60.3250 Y26.5750 Z-12.3571
G01 X58.8250 Y24.5500 Z-12.3577
G01 X55.2250 Y20.9500 Z-12.3610
G01 X52.8250 Y19.3000 Z-12.3619
G01 X50.9500 Y18.2500 Z-12.3596
G01 X46.9750 Y16.6750 Z-12.3594
G01 X41.8000 Y15.7000 Z-12.3614
G01 X38.7250 Z-12.3579
G01 X33.8500 Y16.4500 Z-12.3601
G01 X29.8000 Y17.8750 Z-12.3580
G01 X28.2250 Y18.7000 Z-12.3569
G01 X24.9250 Y20.8750 Z-12.3560
G01 Z-12.2990
G01 X25.1500 Y21.2500
G01 X28.4500 Y19.0750
G01 X32.1250 Y17.4250
G01 X35.9500 Y16.4500
G01 X38.7250 Y16.1500
G01 X41.8000
G01 X45.9250 Y16.8250
G01 X49.6750 Y18.1750
G01 X52.6000 Y19.6750
G01 X55.0000 Y21.3250
G01 X57.9250 Y24.1000
G01 X59.8000 Y26.5750
G01 X61.3000 Y29.1250
G01 X63.0250 Y33.5500
G01 X63.7000 Y36.7000
G01 Y43.1500
G01 X63.4000 Y45.0250
G01 X62.0500 Y49.3000
G01 X60.6250 Y52.0750
G01 X57.8500 Y55.9000
G01 X55.8250 Y57.9250
G01 X52.7500 Y60.2500
G01 X49.0750 Y62.1250
G01 X45.6250 Y63.2500
G01 X39.7000 Y63.8500
G01 X34.6750 Y63.3250
G01 X30.1000 Y61.7500
G01 X25.4500 Y58.9750
G01 X22.0750 Y55.9000
G01 X20.6500 Y54.1000
G01 X18.9250 Y51.3250
G01 X17.2750 Y47.4250
G01 X16.5250 Y44.6500
G01 X16.2250 Y42.4000
G01 X16.1500 Y38.1250
G01 X16.7500 Y34.5250
G01 X17.7250 Y31.3750
G01 X19.3750 Y27.9250
G01 X21.2500 Y25.1500
G01 X22.4500 Y23.7250
G01 X25.1500 Y21.2500
G01 Z-12.2246
G01 X25.3750 Y21.5500
G01 X28.6750 Y19.3750 Z-12.2280
G01 X30.2500 Y18.5500 Z-12.2295
G01 X33.8500 Y17.2750 Z-12.2203
G01 X38.7250 Y16.5250 Z-12.2289
G01 X41.8000 Z-12.2259
G01 X46.6750 Y17.4250 Z-12.2200
G01 X50.5000 Y18.9250 Z-12.2252
G01 X52.3750 Y19.9750 Z-12.2306
G01 X54.7750 Y21.6250
G01 X57.7750 Y24.5500 Z-12.2220
G01 X59.6500 Y27.0250 Z-12.2240
G01 X61.6750 Y30.8500 Z-12.2269
G01 X62.6500 Y33.6250 Z-12.2259
G01 X63.3250 Y36.7750 Z-12.2229
G01 Y43.0750 Z-12.2225
G01 X63.0250 Y44.9500 Z-12.2244
G01 X61.6750 Y49.2250 Z-12.2260
G01 X60.3250 Y51.8500 Z-12.2251
G01 X57.5500 Y55.6750 Z-12.2259
G01 X55.6000 Y57.6250 Z-12.2213
G01 X52.5250 Y59.9500 Z-12.2273
G01 X48.8500 Y61.8250 Z-12.2289
G01 X45.5500 Y62.8750 Z-12.2217
G01 X39.7000 Y63.4750 Z-12.2302
G01 X37.0000 Y63.3250 Z-12.2203
G01 X34.0750 Y62.8000 Z-12.2271
G01 X29.5000 Y61.0750 Z-12.2255
G01 X25.3750 Y58.4500 Z-12.2251
G01 X22.2250 Y55.4500 Z-12.2241
G01 X19.8250 Y52.1500 Z-12.2246
G01 X18.5500 Y49.7500 Z-12.2268
G01 X17.6500 Y47.3500 Z-12.2280
G01 X16.9000 Y44.5750 Z-12.2253
G01 X16.5250 Y41.6500 Z-12.2219
G01 X16.7500 Y36.4750 Z-12.2228
G01 X17.5750 Y32.9500 Z-12.2197
G01 X18.7750 Y29.8750 Z-12.2216
G01 X20.8750 Y26.2750 Z-12.2225
G01 X22.9750 Y23.7250 Z-12.2266
G01 X25.3750 Y21.5500 Z-12.2246
G01 Z-11.5865
G01 X25.4500 Y22.3750
G01 Z-12.0865 F100
G01 X23.0500 Y24.7000 Z-12.0849 F120
G01 X20.8750 Y27.5500 Z-12.0904
G01 X19.1500 Y30.7000 Z-12.0899
G01 X18.1000 Y33.4000
G01 X17.3500 Y36.8500 Z-12.0895
G01 X17.1250 Y40.0750 Z-12.0906
G01 X17.2750 Y42.3250 Z-12.0895
G01 X17.5750 Y44.4250 Z-12.0894
G01 X18.2500 Y46.8250 Z-12.0858
G01 X19.9750 Y50.9500 Z-12.0880
G01 X22.8250 Y55.0750 Z-12.0867
G01 X25.9750 Y58.0000 Z-12.0826
G01 X27.9250 Y59.4250 Z-12.0927
G01 X30.1750 Y60.6250 Z-12.0902
G01 X34.9000 Y62.2750 Z-12.0892
G01 X39.1750 Y62.8000 Z-12.0958
G01 X43.0000 Y62.6500 Z-12.0924
G01 X45.4000 Y62.2000 Z-12.0888
G01 X48.8500 Y61.0750 Z-12.0910
G01 X51.7000 Y59.6500 Z-12.0927
G01 X55.0000 Y57.2500 Z-12.0912
G01 X57.1750 Y55.0750 Z-12.0900
G01 X59.7250 Y51.5500 Z-12.0935
G01 X60.8500 Y49.3000 Z-12.0887
G01 X61.8250 Y46.8250 Z-12.0924
G01 X62.6500 Y43.1500 Z-12.0892
G01 X62.8750 Y39.6250
G01 X62.4250 Y35.5000
G01 X61.4500 Y32.1250 Z-12.0906
G01 X60.7000 Y30.4000 Z-12.0870
G01 X58.9750 Y27.3250 Z-12.0881
G01 X57.1750 Y24.9250 Z-12.0878
G01 X55.3750 Y23.1250 Z-12.0853
G01 X52.4500 Y20.8750 Z-12.0900
G01 X49.3750 Y19.1500 Z-12.0912
G01 X46.9750 Y18.2500 Z-12.0819
G01 X44.7250 Y17.6500 Z-12.0862
G01 X40.9750 Y17.2000 Z-12.0994
G01 X37.0000 Y17.3500 Z-12.0911
G01 X33.4750 Y18.1000 Z-12.0866
G01 X31.5250 Y18.7750 Z-12.0832
G01 X27.4750 Y20.8750 Z-12.0909
G01 X25.4500 Y22.3750 Z-12.0865
G01 Z-11.9990
G01 X25.6750 Y22.7500
G01 X27.7000 Y21.2500
G01 X31.7500 Y19.1500
G01 X33.4750 Y18.5500
G01 X36.4750 Y17.8750
G01 X39.1750 Y17.6500
G01 X42.0250 Y17.7250
G01 X45.4000 Y18.2500
G01 X49.1500 Y19.5250
G01 X51.0250 Y20.5000
G01 X53.7250 Y22.3000
G01 X56.8000 Y25.1500
G01 X58.6000 Y27.5500
G01 X60.2500 Y30.4750
G01 X61.0000 Y32.2000
G01 X61.9750 Y35.5750
G01 X62.4250 Y39.7000
G01 X62.2000 Y43.0750
G01 X61.3750 Y46.7500
G01 X60.4000 Y49.2250
G01 X59.3500 Y51.3250
G01 X56.8000 Y54.8500
G01 X54.7750 Y56.8750
G01 X51.9250 Y58.9750
G01 X47.4250 Y61.1500
G01 X43.9750 Y62.0500
G01 X40.8250 Y62.3500
G01 X37.0000 Y62.2000
G01 X34.9000 Y61.8250
G01 X30.4000 Y60.2500
G01 X27.1000 Y58.3000
G01 X23.2000 Y54.8500
G01 X20.7250 Y51.3250
G01 X19.5250 Y49.0750
G01 X18.1000 Y44.6500
G01 X17.5750 Y40.1500
G01 X17.9500 Y36.2500
G01 X18.5500 Y33.4750
G01 X19.6000 Y30.7750
G01 X21.2500 Y27.7750
G01 X23.4250 Y24.9250
G01 X25.6750 Y22.7500
G01 Z-11.3520
G01 X30.6250 Y20.1250
G01 Z-11.8811 F100
G01 X32.7250 Y19.1500 Z-11.9006 F120
G01 X36.0250 Y18.3250 Z-11.8902
G01 X40.9750 Y18.0250 Z-11.8868
G01 X45.4000 Y18.6250 Z-11.9042
G01 X47.5750 Y19.3000 Z-11.8947
G01 X50.2750 Y20.5000 Z-11.9024
G01 X53.1250 Y22.3000 Z-11.8932
G01 X54.9250 Y23.8000 Z-11.8861
G01 X57.7000 Y26.8750 Z-11.8907
G01 X59.4250 Y29.6500 Z-11.8918
G01 X60.4750 Y31.9000 Z-11.8876
G01 X61.4500 Y35.0500 Z-11.8823
G01 X61.6750 Y36.5500 Z-11.8668
G01 X60.4750 Y32.5000 Z-11.8276
G01 X59.2000 Y29.6500 Z-11.8353
G01 X57.4750 Y26.9500 Z-11.8216
G01 X55.1500 Y24.2500 Z-11.8411
G01 X52.0750 Y21.8500 Z-11.8264
G01 X48.8500 Y20.0500 Z-11.8285
G01 X45.3250 Y18.8500 Z-11.8175
G01 X41.5000 Y18.2500 Z-11.8312
G01 X37.6000 Y18.3250 Z-11.8337
G01 X34.0000 Y19.0000 Z-11.8446
G01 X31.3000 Y20.1250 Z-11.8016
G01 X30.4750 Y20.2000 Z-11.8892
G01 X27.9250 Y21.5500 Z-11.8906
G01 X26.3500 Y22.6750 Z-11.8930
G01 X23.7250 Y25.1500 Z-11.8943
G01 X20.9500 Y28.9750 Z-11.8934
G01 X19.3750 Y32.2750 Z-11.8896
G01 X18.4750 Y35.5750 Z-11.8853
G01 X18.5500 Y36.1750 Z-11.8201
G01 X18.4000 Y35.9500 Z-11.8814
G01 Z-11.8718
G01 X18.3250 Y36.3250
G01 Z-11.8807 F100
G01 X18.4750 Z-11.8339 F120
G01 X18.3250 Y37.8250 Z-11.8218
G01 X18.1750 Y37.0750 Z-11.8852
G01 X18.3250 Y36.3250 Z-11.8807
G01 Z-11.1990
G01 X19.1500 Y35.3500
G01 Z-11.6990 F100
G01 X19.6750 Y33.3250 F120
G01 X21.0250 Y30.1750
G01 X22.9750 Y27.0250
G01 X24.2500 Y25.5250
G01 X26.4250 Y23.5000
G01 X28.4500 Y22.0000
G01 X30.8500 Y20.6500
G01 X34.0000 Y19.4500
G01 X38.5750 Y18.7000
G01 X41.5000
G01 X45.3250 Y19.3000
G01 X48.6250 Y20.4250
G01 X50.6500 Y21.4750
G01 X52.7500 Y22.8250
G01 X55.5250 Y25.2250
G01 X57.6250 Y27.9250
G01 X59.5000 Y31.2250
G01 X60.5500 Y34.1500
G01 X61.1500 Y36.7000
G01 X61.3750 Y39.2500
G01 X61.2250 Y42.5500
G01 X60.7750 Y45.0250
G01 X59.8000 Y48.1000
G01 X58.4500 Y50.8000
G01 X56.5000 Y53.6500
G01 X52.9750 Y57.0250
G01 X49.6000 Y59.1250
G01 X47.1250 Y60.1750
G01 X43.9750 Y61.0000
G01 X41.2000 Y61.3000
G01 X37.0000 Y61.1500
G01 X32.4250 Y60.0250
G01 X28.3000 Y57.9250
G01 X26.7250 Y56.8000
G01 X23.7250 Y53.8750
G01 X21.3250 Y50.4250
G01 X20.0500 Y47.6500
G01 X19.3750 Y45.5500
G01 X18.6250 Y40.6750
G01 X18.7000 Y37.9750
G01 X19.1500 Y35.3500
G01 Z-10.8990
G01 X19.7500 Y37.0750
G01 Z-11.3990 F100
G01 X20.4250 Y34.0000 F120
G01 X21.4000 Y31.5250
G01 X21.8500 Y31.0750
G01 X22.4500
G01 X32.5000 Y36.7750
G01 X33.0250 Y37.5250
G01 X32.6500 Y39.2500
G01 X32.7250 Y41.5750
G01 X33.0250 Y42.4750
G01 X32.8000 Y43.0000
G01 X22.4500 Y48.9250
G01 X21.8500
G01 X21.4000 Y48.4750
G01 X19.9750 Y44.0500
G01 X19.6000 Y41.3500
G01 X19.7500 Y37.0750
G01 Z-10.5990
G01 X20.3500 Y38.5000
G01 Z-11.0990 F100
G01 X21.1750 Y34.1500 F120
G01 X22.0750 Y31.8250
G01 X22.4500 Y31.4500
G01 X23.5000 Y31.6000
G01 X32.5000 Y36.7750
G01 X32.9500 Y37.2250
G01 X32.6500 Y39.2500
G01 X32.7250 Y41.5750
G01 X33.0250 Y42.4750
G01 X32.8000 Y43.0000
G01 X23.2000 Y48.5500
G01 X22.2250 Y48.4000
G01 X21.1750 Y45.8500
G01 X20.3500 Y41.7250
G01 Y38.5000
G01 Z-10.2990
G01 X20.9500 Y39.1750
G01 Z-10.7990 F100
G01 X21.2500 Y36.4750 F120
G01 X21.9250 Y33.9250
G01 X22.6000 Y32.3500
G01 X23.1250 Y31.7500
G01 X23.7250
G01 X24.8500 Y32.3500
G01 X32.5000 Y36.7750
G01 X32.9500 Y37.2250
G01 X32.6500 Y39.2500
G01 X32.7250 Y41.5750
G01 X33.0250 Y42.4750
G01 X32.8000 Y43.0000
G01 X23.7250 Y48.2500
G01 X22.9000 Y48.1000
G01 X21.7750 Y45.6250
G01 X21.0250 Y42.0250
G01 X20.9500 Y39.1750
G01 Z-9.9990
G01 X21.6250 Y38.7250
G01 Z-10.4990 F100
G01 X22.1500 Y35.6500 F120
G01 X23.2000 Y32.5000
G01 X23.6500 Y32.0500
G01 X24.2500
G01 X32.5000 Y36.7750
G01 X33.0250 Y37.5250
G01 X32.6500 Y39.2500
G01 X32.7250 Y41.5750
G01 X33.0250 Y42.4750
G01 X32.8000 Y43.0000
G01 X24.2500 Y47.9500
G01 X23.6500
G01 X23.1250 Y47.3500
G01 X22.3000 Y45.1750
G01 X21.7000 Y42.1000
G01 X21.6250 Y38.7250
G01 Z-10.1990
G01 X22.1500
G01 X22.4500 Y36.4750
G01 X23.2000 Y33.7750
G01 X24.1000 Y32.2750
G01 X24.8500 Y32.3500
G01 X32.5000 Y36.7750
G01 X32.9500 Y37.2250
G01 X32.6500 Y39.2500
G01 X32.7250 Y41.5750
G01 X33.0250 Y42.4750
G01 X32.8000 Y43.0000
G01 X24.7000 Y47.7250
G01 X24.1000
G01 X23.7250 Y47.3500
G01 X22.6750 Y44.5000
G01 X22.1500 Y41.5750
G01 Y38.7250
G01 Z-9.3990
G01 X22.7500 Y37.7500
G01 Z-9.8990 F100
G01 X23.6500 Y34.0750 F120
G01 X24.1000 Y33.0250
G01 X24.5500 Y32.5750
G01 X25.2250
G01 X32.5000 Y36.7750
G01 X32.9500 Y37.2250
G01 X32.6500 Y39.2500
G01 X32.7250 Y41.5750
G01 X33.0250 Y42.4750
G01 X32.8000 Y43.0000
G01 X25.2250 Y47.4250
G01 X24.3250 Y47.2750
G01 X23.2750 Y44.7250
G01 X22.6750 Y41.7250
G01 X22.7500 Y37.7500
G01 Z-9.0990
G01 X23.3500 Y37.3000
G01 Z-9.5990 F100
G01 X24.5500 Y33.1750 F120
G01 X24.9250 Y32.8000
G01 X25.5250
G01 X32.5000 Y36.7750
G01 X33.0250 Y37.5250
G01 X32.6500 Y39.2500
G01 X32.7250 Y41.5750
G01 X33.0250 Y42.4750
G01 X32.8000 Y43.0000
G01 X25.5250 Y47.2000
G01 X24.9250
G01 X24.5500 Y46.8250
G01 X23.4250 Y43.3000
G01 X23.1250 Y41.0500
G01 X23.3500 Y37.3000
G01 Z-8.7990
G01 X23.9500 Y36.3250
G01 Z-9.2990 F100
G01 X24.9250 Y33.4750 F120
G01 X25.3750 Y33.0250
G01 X25.9750
G01 X32.5000 Y36.7750
G01 X33.0250 Y37.5250
G01 X32.6500 Y39.2500
G01 X32.7250 Y41.5750
G01 X33.0250 Y42.4750
G01 X32.8000 Y43.0000
G01 X25.9750 Y46.9750
G01 X25.3750
G01 X24.9250 Y46.5250
G01 X23.7250 Y42.7000
G01 X23.5750 Y38.8750
G01 X23.9500 Y36.3250
G01 Z-8.4990
G01 X24.4750 Y35.8750
G01 Z-8.9990 F100
G01 X25.0750 Y34.1500 F120
G01 X25.7500 Y33.2500
G01 X26.5000 Y33.3250
G01 X32.5000 Y36.7750
G01 X32.9500 Y37.2250
G01 X32.6500 Y39.2500
G01 X32.7250 Y41.5750
G01 X33.0250 Y42.4750
G01 X32.8000 Y43.0000
G01 X26.3500 Y46.7500
G01 X25.4500 Y46.5250
G01 X24.5500 Y44.2750
G01 X24.1000 Y42.4000
G01 X23.9500 Y39.3250
G01 X24.4750 Y35.8750
G01 Z-8.1990
G01 X25.3000 Y34.6750
G01 Z-8.6990 F100
G01 X26.0500 Y33.4750 F120
G01 X26.7250
G01 X31.6000 Y36.2500
G01 X32.7250 Y36.9250
G01 X33.0250 Y37.5250
G01 X32.6500 Y39.2500
G01 X32.7250 Y41.5750
G01 X33.0250 Y42.4750
G01 X32.8000 Y43.0000
G01 X26.7250 Y46.5250
G01 X26.0500
G01 X25.5250 Y45.9250
G01 X24.7000 Y43.2250
G01 X24.4000 Y41.2000
G01 X24.5500 Y37.5250
G01 X25.3000 Y34.6750
G01 Z-7.8990
G01 X25.9750 Y34.0000
G01 Z-8.3990 F100
G01 X26.3500 Y33.6250 F120
G01 X26.9500
G01 X32.5000 Y36.7750
G01 X33.0250 Y37.5250
G01 X32.6500 Y39.2500
G01 X32.7250 Y41.5750
G01 X33.0250 Y42.4750
G01 X32.8000 Y43.0000
G01 X26.9500 Y46.3750
G01 X26.3500
G01 X25.8250 Y45.7000
G01 X24.8500 Y42.0250
G01 X24.7750 Y38.9500
G01 X25.1500 Y36.3250
G01 X25.9750 Y34.0000
G01 Z-8.0990
G01 X26.1250 Y34.4500
G01 X26.6500 Y33.7750
G01 X27.2500
G01 X32.5000 Y36.7750
G01 X32.9500 Y37.2250
G01 X32.6500 Y40.4500
G01 X32.9500 Y42.7750
G01 X32.5000 Y43.2250
G01 X27.2500 Y46.2250
G01 X26.4250 Y46.0750
G01 X25.6000 Y43.9000
G01 X25.1500 Y41.7250
G01 Y38.5000
G01 X25.6000 Y36.0250
G01 X26.1250 Y34.4500
G01 Z-7.7990
G01 X26.6500 Y34.2250
G01 X26.9500 Y34.0000
G01 X27.6250
G01 X32.5000 Y36.7750
G01 X33.0250 Y37.5250
G01 X32.6500 Y39.2500
G01 X32.9500 Y42.7750
G01 X32.5000 Y43.2250
G01 X27.6250 Y46.0000
G01 X26.9500
G01 X26.5750 Y45.6250
G01 X25.6000 Y42.4750
G01 X25.4500 Y38.8000
G01 X25.7500 Y36.7750
G01 X26.6500 Y34.2250
G01 Z-6.9990
G01 X27.2500 Y34.1500
G01 Z-7.4990 F100
G01 X27.8500 F120
G01 X32.5000 Y36.7750
G01 X32.9500 Y37.2250
G01 X32.6500 Y40.4500
G01 X32.9500 Y42.7750
G01 X32.5000 Y43.2250
G01 X27.8500 Y45.8500
G01 X27.0250 Y45.7000
G01 X26.3500 Y44.1250
G01 X25.8250 Y41.8000
G01 X25.7500 Y39.1000
G01 X26.1250 Y36.6250
G01 X26.6500 Y34.9750
G01 X27.2500 Y34.1500
G01 Z-6.9990
G01 X22.9750 Y31.3750
G01 Z-10.8990
G01 Z-11.6990 F100
G01 X32.8000 Y37.0000 F120
G01 X33.0250 Y37.5250
G01 X32.7250 Y38.4250
G01 X32.6500 Y40.7500
G01 X33.0250 Y42.4750
G01 X32.5000 Y43.2250
G01 X22.9750 Y48.6250
G01 X22.9000 Y49.0000
G01 X23.8750 Y50.5000
G01 X33.7000 Y44.8000
G01 X34.3000
G01 X35.8750 Y46.1500
G01 X37.3000 Y46.9000
G01 X38.5750 Y47.2000
G01 X39.0250 Y47.8750
G01 X39.1000 Y59.3500
G01 X40.9750 Y59.2750
G01 X41.0500 Y47.5750
G01 X41.4250 Y47.2000
G01 X42.3250 Y47.0500
G01 X44.0500 Y46.2250
G01 X45.7000 Y44.8000
G01 X46.7500 Y45.0250
G01 X56.2750 Y50.4250
G01 X57.1750 Y48.8500
G01 X57.0250 Y48.6250
G01 X47.2000 Y43.0000
G01 X46.9750 Y42.4750
G01 X47.2750 Y41.5750
G01 X47.3500 Y39.2500
G01 X46.9750 Y37.5250
G01 X47.5000 Y36.7750
G01 X57.0250 Y31.3750
G01 X57.1000 Y31.0000
G01 X56.1250 Y29.5000
G01 X46.3000 Y35.2000
G01 X45.7000
G01 X44.0500 Y33.7750
G01 X42.7000 Y33.1000
G01 X41.4250 Y32.8000
G01 X40.9750 Y32.1250
G01 X40.9000 Y20.6500
G01 X39.0250 Y20.7250
G01 X38.9500 Y32.4250
G01 X38.5750 Y32.8000
G01 X37.6750 Y32.9500
G01 X36.1000 Y33.7000
G01 X34.3000 Y35.2000
G01 X33.2500 Y34.9750
G01 X23.8750 Y29.5000
G01 X23.3500 Y30.2500
G01 X22.8250 Y31.1500
G01 X22.9750 Y31.3750
G01 Z-11.9990 F100
G01 X32.8000 Y37.0000 F120
G01 X33.0250 Y37.5250
G01 X32.7250 Y38.4250
G01 X32.6500 Y40.7500
G01 X33.0250 Y42.4750
G01 X32.5000 Y43.2250
G01 X22.9750 Y48.6250
G01 X22.9000 Y49.0000
G01 X23.8750 Y50.5000
G01 X33.7000 Y44.8000
G01 X34.3000
G01 X35.8750 Y46.1500
G01 X37.3000 Y46.9000
G01 X38.5750 Y47.2000
G01 X39.0250 Y47.8750
G01 X39.1000 Y59.3500
G01 X40.9750 Y59.2750
G01 X41.0500 Y47.5750
G01 X41.4250 Y47.2000
G01 X42.3250 Y47.0500
G01 X44.0500 Y46.2250
G01 X45.7000 Y44.8000
G01 X46.7500 Y45.0250
G01 X56.2750 Y50.4250
G01 X57.1750 Y48.8500
G01 X57.0250 Y48.6250
G01 X47.2000 Y43.0000
G01 X46.9750 Y42.4750
G01 X47.2750 Y41.5750
G01 X47.3500 Y39.2500
G01 X46.9750 Y37.5250
G01 X47.5000 Y36.7750
G01 X57.0250 Y31.3750
G01 X57.1000 Y31.0000
G01 X56.1250 Y29.5000
G01 X46.3000 Y35.2000
G01 X45.7000
G01 X44.0500 Y33.7750
G01 X42.7000 Y33.1000
G01 X41.4250 Y32.8000
G01 X40.9750 Y32.1250
G01 X40.9000 Y20.6500
G01 X39.0250 Y20.7250
G01 X38.9500 Y32.4250
G01 X38.5750 Y32.8000
G01 X37.6750 Y32.9500
G01 X36.1000 Y33.7000
G01 X34.3000 Y35.2000
G01 X33.2500 Y34.9750
G01 X23.8750 Y29.5000
G01 X23.3500 Y30.2500
G01 X22.8250 Y31.1500
G01 X22.9750 Y31.3750
G01 Z-12.2990 F100
G01 X32.8000 Y37.0000 F120
G01 X33.0250 Y37.5250
G01 X32.7250 Y38.4250
G01 X32.6500 Y40.7500
G01 X33.0250 Y42.4750
G01 X32.5000 Y43.2250
G01 X22.9750 Y48.6250
G01 X22.9000 Y49.0000
G01 X23.8750 Y50.5000
G01 X33.7000 Y44.8000
G01 X34.3000
G01 X35.8750 Y46.1500
G01 X37.3000 Y46.9000
G01 X38.5750 Y47.2000
G01 X39.0250 Y47.8750
G01 X39.1000 Y59.3500
G01 X40.9750 Y59.2750
G01 X41.0500 Y47.5750
G01 X41.4250 Y47.2000
G01 X42.3250 Y47.0500
G01 X44.0500 Y46.2250
G01 X45.7000 Y44.8000
G01 X46.7500 Y45.0250
G01 X56.2750 Y50.4250
G01 X57.1750 Y48.8500
G01 X57.0250 Y48.6250
G01 X47.2000 Y43.0000
G01 X46.9750 Y42.4750
G01 X47.2750 Y41.5750
G01 X47.3500 Y39.2500
G01 X46.9750 Y37.5250
G01 X47.5000 Y36.7750
G01 X57.0250 Y31.3750
G01 X57.1000 Y31.0000
G01 X56.1250 Y29.5000
G01 X46.3000 Y35.2000
G01 X45.7000
G01 X44.0500 Y33.7750
G01 X42.7000 Y33.1000
G01 X41.4250 Y32.8000
G01 X40.9750 Y32.1250
G01 X40.9000 Y20.6500
G01 X39.0250 Y20.7250
G01 X38.9500 Y32.4250
G01 X38.5750 Y32.8000
G01 X37.6750 Y32.9500
G01 X36.1000 Y33.7000
G01 X34.3000 Y35.2000
G01 X33.2500 Y34.9750
G01 X23.8750 Y29.5000
G01 X23.3500 Y30.2500
G01 X22.8250 Y31.1500
G01 X22.9750 Y31.3750
G01 Z-11.1103
G01 X23.5000 Y31.1500
G01 Z-11.7000
G01 Z-12.5000 F100
G01 X23.8750 Y30.2500 F120
G01 X24.1750 Y30.1750
G01 X33.3250 Y35.5000
G01 X34.5250 Y35.5750
G01 X36.3250 Y34.0750
G01 X37.5250 Y33.4750
G01 X38.8000 Y33.1750
G01 X39.4000 Y32.5000
G01 X39.4750 Y21.1000
G01 X40.5250
G01 Y32.2000
G01 X41.2000 Y33.1750
G01 X42.4750 Y33.4750
G01 X43.8250 Y34.1500
G01 X45.4750 Y35.5750
G01 X46.3000 Y35.6500
G01 X55.8250 Y30.1750
G01 X56.2000 Y30.3250
G01 X56.5000 Y31.1500
G01 X46.8250 Y36.7750
G01 X46.5250 Y37.6000
G01 X46.8250 Y38.5000
G01 X46.9000 Y40.6750
G01 X46.5250 Y42.5500
G01 X47.2750 Y43.6000
G01 X56.5000 Y48.8500
G01 Y49.1500
G01 X56.0500 Y49.8250
G01 X55.8250
G01 X46.3000 Y44.3500
G01 X45.4750 Y44.4250
G01 X43.8250 Y45.8500
G01 X42.4750 Y46.5250
G01 X41.2000 Y46.8250
G01 X40.5250 Y47.8000
G01 Y58.9000
G01 X39.4750
G01 Y47.8000
G01 X38.8000 Y46.8250
G01 X37.5250 Y46.5250
G01 X36.3250 Y45.9250
G01 X34.5250 Y44.4250
G01 X33.7000 Y44.3500
G01 X24.1750 Y49.8250
G01 X23.9500
G01 X23.5000 Y49.1500
G01 Y48.8500
G01 X32.7250 Y43.6000
G01 X33.4750 Y42.5500
G01 X33.1000 Y40.6750
G01 X33.1750 Y38.5000
G01 X33.4750 Y37.6000
G01 X33.1750 Y36.7750
G01 X23.5000 Y31.1500
G01 Z-12.0000
G01 X24.1000 Y31.0750
G01 Z-12.5000 F100
G01 X24.0250 Y30.7000 F120
G01 X33.7000 Y36.0250
G01 X34.7500 Y35.8750
G01 X36.5500 Y34.3750
G01 X37.7500 Y33.7750
G01 X39.0250 Y33.4750
G01 X39.4750 Y33.1000
G01 X39.8500 Y32.2750
G01 Y21.4750
G01 X40.1500
G01 Y32.2750
G01 X40.5250 Y33.1000
G01 X40.9750 Y33.4750
G01 X42.2500 Y33.7750
G01 X43.6000 Y34.4500
G01 X45.2500 Y35.8750
G01 X46.3000 Y36.0250
G01 X55.9750 Y30.7000
G01 X55.9000 Y31.0750
G01 X46.8250 Y36.2500
G01 X46.1500 Y37.3750
G01 X46.5250 Y39.4000
G01 X46.4500 Y41.4250
G01 X46.1500 Y42.6250
G01 X46.5250 Y43.4500
G01 X55.9000 Y48.9250
G01 X55.9750 Y49.3000
G01 X46.3000 Y43.9750
G01 X45.2500 Y44.1250
G01 X43.6000 Y45.5500
G01 X42.2500 Y46.2250
G01 X40.9750 Y46.5250
G01 X40.5250 Y46.9000
G01 X40.1500 Y47.7250
G01 Y58.5250
G01 X39.8500
G01 Y47.7250
G01 X39.4750 Y46.9000
G01 X39.0250 Y46.5250
G01 X37.7500 Y46.2250
G01 X36.5500 Y45.6250
G01 X34.7500 Y44.1250
G01 X33.7000 Y43.9750
G01 X24.0250 Y49.3000
G01 X24.1000 Y48.9250
G01 X33.1750 Y43.7500
G01 X33.8500 Y42.6250
G01 X33.5500 Y41.4250
G01 X33.4750 Y39.4000
G01 X33.8500 Y37.3750
G01 X33.4750 Y36.5500
G01 X24.1000 Y31.0750
G01 Z-10.5990
G01 X24.7750 Y30.1000
G01 Z-11.0990 F100
G01 X23.8750 Y29.3500 F120
G01 Y28.7500
G01 X25.8250 Y26.2750
G01 X29.0500 Y23.5750
G01 X32.6500 Y21.7000
G01 X34.6000 Y21.0250
G01 X37.6750 Y20.4250
G01 X38.5750 Y20.5000
G01 X39.0250 Y21.1750
G01 Y32.1250
G01 X38.5750 Y32.8000
G01 X37.3000 Y33.1000
G01 X35.8750 Y33.8500
G01 X34.3000 Y35.2000
G01 X33.7000
G01 X24.7750 Y30.1000
G01 Z-10.7990
G01 X24.7000 Y30.0250
G01 X24.4000 Y29.4250
G01 X24.5500 Y28.9750
G01 X25.9750 Y27.1000
G01 X28.0000 Y25.1500
G01 X31.2250 Y23.0500
G01 X34.6000 Y21.7000
G01 X37.7500 Y21.1000
G01 X38.5750
G01 X39.0250 Y21.7750
G01 Y32.1250
G01 X38.5750 Y32.8000
G01 X37.3000 Y33.1000
G01 X35.8750 Y33.8500
G01 X34.3000 Y35.2000
G01 X33.7000
G01 X24.7000 Y30.0250
G01 Z-10.2798
G01 X23.7250 Y29.4250
G01 Z-10.5990
G01 Z-11.3990 F100
G01 X23.2750 Y28.9750 F120
G01 Y28.3000
G01 X24.4750 Y26.6500
G01 X25.9750 Y25.1500
G01 X28.3750 Y23.2000
G01 X30.1750 Y22.0750
G01 X33.3250 Y20.6500
G01 X37.9000 Y19.6750
G01 X38.7250 Y19.8250
G01 X39.0250 Y20.4250
G01 Y32.1250
G01 X38.5750 Y32.8000
G01 X37.3000 Y33.1000
G01 X35.8750 Y33.8500
G01 X34.3000 Y35.2000
G01 X33.7000
G01 X23.7250 Y29.4250
G01 Z-10.8990
G01 X23.2000 Y29.8750
G01 Z-11.5060 F100
G01 X22.6750 Y30.7000 F120
G01 X21.6250 Z-11.5171
G01 X21.1000 Y31.2250 Z-11.5327
G01 X20.9500 Y31.1500 Z-11.5849
G01 X22.0000 Y29.2000 Z-11.5890
G01 X22.9750 Y28.0000 Z-11.5380
G01 X22.8250 Y27.9250 Z-11.5853
G01 X22.7500 Y28.7500 Z-11.5171
G01 X23.2000 Y29.8750 Z-11.5060
G01 X22.7500 Y29.5750
G01 X22.6750 Y30.0250
G01 X22.5250 Y30.2500
G01 X21.9250 Z-11.5082
G01 X22.0000 Y29.9500 Z-11.5060
G01 X22.3750 Y29.3500
G01 X22.7500 Y29.5750
G01 Z-9.9990
G01 X24.9250 Y29.7250
G01 Z-10.4990 F100
G01 X25.0000 Y29.3500 F120
G01 X28.0000 Y26.0500
G01 X30.9250 Y23.9500
G01 X34.6000 Y22.3750
G01 X37.5250 Y21.7750
G01 X38.5750
G01 X39.0250 Y22.4500
G01 Y32.1250
G01 X38.5750 Y32.8000
G01 X37.3000 Y33.1000
G01 X35.8750 Y33.8500
G01 X34.3000 Y35.2000
G01 X33.7000
G01 X25.2250 Y30.3250
G01 X24.9250 Y29.7250
G01 Z-10.1990
G01 X25.3750 Y29.9500
G01 X25.6750 Y29.3500
G01 X28.8250 Y25.9750
G01 X31.3000 Y24.3250
G01 X34.6750 Y22.9000
G01 X37.6000 Y22.3000
G01 X38.5750
G01 X39.0250 Y22.9750
G01 Y32.1250
G01 X38.5750 Y32.8000
G01 X37.3000 Y33.1000
G01 X35.8750 Y33.8500
G01 X34.3000 Y35.2000
G01 X33.7000
G01 X25.6750 Y30.5500
G01 X25.3750 Y29.9500
G01 Z-9.8990
G01 X25.8250 Y30.2500
G01 X26.3500 Y29.2750
G01 X29.2750 Y26.2750
G01 X31.8250 Y24.6250
G01 X34.6750 Y23.4250
G01 X37.6750 Y22.8250
G01 X38.5750
G01 X39.0250 Y23.5000
G01 Y32.1250
G01 X38.5750 Y32.8000
G01 X37.3000 Y33.1000
G01 X35.8750 Y33.8500
G01 X34.3000 Y35.2000
G01 X33.7000
G01 X26.0500 Y30.7750
G01 X25.8250 Y30.2500
G01 Z-9.5990
G01 X26.3500 Y30.1750
G01 X28.0750 Y28.0750
G01 X30.7750 Y25.8250
G01 X34.9000 Y23.8750
G01 X37.7500 Y23.2750
G01 X38.5750
G01 X39.0250 Y23.9500
G01 Y32.1250
G01 X38.5750 Y32.8000
G01 X37.3000 Y33.1000
G01 X35.8750 Y33.8500
G01 X34.3000 Y35.2000
G01 X33.7000
G01 X26.5750 Y31.0750
G01 X26.3500 Y30.1750
G01 Z-9.2990
G01 X26.8750
G01 X27.9250 Y28.7500
G01 X31.3000 Y25.9750
G01 X35.2750 Y24.1750
G01 X37.7500 Y23.7250
G01 X38.5750
G01 X39.0250 Y24.4000
G01 Y32.1250
G01 X38.5750 Y32.8000
G01 X37.3000 Y33.1000
G01 X35.8750 Y33.8500
G01 X34.3000 Y35.2000
G01 X33.7000
G01 X26.9500 Y31.3000
G01 X26.6500 Y30.7000
G01 X26.8750 Y30.1750
G01 Z-8.4990
G01 X27.0250 Y30.8500
G01 Z-8.9990 F100
G01 X27.5500 Y29.9500 F120
G01 X29.0500 Y28.2250
G01 X31.6000 Y26.2750
G01 X35.2750 Y24.6250
G01 X37.6750 Y24.1750
G01 X38.5750
G01 X39.0250 Y24.8500
G01 Y32.1250
G01 X38.5750 Y32.8000
G01 X37.3000 Y33.1000
G01 X35.8750 Y33.8500
G01 X34.3000 Y35.2000
G01 X33.7000
G01 X27.2500 Y31.4500
G01 X27.0250 Y30.8500
G01 Z-8.6990
G01 X27.3250 Y31.0750
G01 X27.5500 Y30.5500
G01 X29.6500 Y28.2250
G01 X32.2750 Y26.3500
G01 X35.2750 Y25.0750
G01 X37.6750 Y24.5500
G01 X38.5750
G01 X39.0250 Y25.2250
G01 Y32.1250
G01 X38.5750 Y32.8000
G01 X37.3000 Y33.1000
G01 X35.8750 Y33.8500
G01 X34.3000 Y35.2000
G01 X33.7000
G01 X27.5500 Y31.6000
G01 X27.3250 Y31.0750
G01 Z-8.3990
G01 X27.7000 Y31.2250
G01 X28.0750 Y30.5500
G01 X29.5750 Y28.7500
G01 X32.6500 Y26.5750
G01 X35.4250 Y25.3750
G01 X37.6750 Y24.9250
G01 X38.5750
G01 X39.0250 Y25.6000
G01 Y32.1250
G01 X38.5750 Y32.8000
G01 X37.3000 Y33.1000
G01 X35.8750 Y33.8500
G01 X34.3000 Y35.2000
G01 X33.7000
G01 X27.9250 Y31.8250
G01 X27.7000 Y31.2250
G01 Z-8.0990
G01 X28.0750 Y31.1500
G01 X29.9500 Y28.9000
G01 X32.8000 Y26.8750
G01 X35.4250 Y25.7500
G01 X37.4500 Y25.3000
G01 X38.5750
G01 X39.0250 Y25.9750
G01 Y32.1250
G01 X38.5750 Y32.8000
G01 X37.3000 Y33.1000
G01 X35.8750 Y33.8500
G01 X34.3000 Y35.2000
G01 X33.7000
G01 X28.3750 Y32.1250
G01 X28.0750 Y31.7500
G01 Y31.1500
G01 Z-7.7990
G01 X28.3000 Y31.6000
G01 X28.6750 Y30.7750
G01 X30.3250 Y29.0500
G01 X32.8750 Y27.2500
G01 X35.5750 Y26.0500
G01 X37.8250 Y25.6000
G01 X38.5750
G01 X39.0250 Y26.2750
G01 Y32.1250
G01 X38.5750 Y32.8000
G01 X37.3000 Y33.1000
G01 X35.8750 Y33.8500
G01 X34.3000 Y35.2000
G01 X33.7000
G01 X28.5250 Y32.2000
G01 X28.3000 Y31.6000
G01 Z-7.4990
G01 X28.6000 Y31.4500
G01 X30.5500 Y29.2750
G01 X33.0250 Y27.5500
G01 X34.7500 Y26.7250
G01 X37.6000 Y25.9750
G01 X38.5750
G01 X39.0250 Y26.6500
G01 Y32.1250
G01 X38.5750 Y32.8000
G01 X37.3000 Y33.1000
G01 X35.8750 Y33.8500
G01 X34.3000 Y35.2000
G01 X33.7000
G01 X28.9000 Y32.4250
G01 X28.6000 Y32.0500
G01 Y31.4500
G01 Z-7.1990
G01 X28.8250 Y31.9000
G01 X29.2000 Y31.1500
G01 X30.4750 Y29.7250
G01 X33.3250 Y27.7000
G01 X34.9000 Y26.9500
G01 X37.6750 Y26.2750
G01 X38.5750
G01 X39.0250 Y26.9500
G01 Y32.1250
G01 X38.5750 Y32.8000
G01 X37.3000 Y33.1000
G01 X35.8750 Y33.8500
G01 X34.3000 Y35.2000
G01 X33.7000
G01 X29.0500 Y32.5000
G01 X28.8250 Y31.9000
G01 Z-6.8990
G01 X29.0500 Y32.0500
G01 X29.3500 Y31.4500
G01 X30.9250 Y29.7250
G01 X33.6250 Y27.8500
G01 X35.0500 Y27.1750
G01 X37.6750 Y26.5750
G01 X38.5750
G01 X39.0250 Y27.2500
G01 Y32.1250
G01 X38.5750 Y32.8000
G01 X37.3000 Y33.1000
G01 X35.8750 Y33.8500
G01 X34.3000 Y35.2000
G01 X33.7000
G01 X29.4250 Y32.7250
G01 X29.0500 Y32.0500
G01 Z-6.5990
G01 X29.2750 Y32.2000
G01 X29.3500 Y31.8250
G01 X31.5250 Y29.5750
G01 X33.7750 Y28.0750
G01 X36.0250 Y27.1750
G01 X37.9000 Y26.8000
G01 X38.5750
G01 X39.0250 Y27.4750
G01 Y32.1250
G01 X38.5750 Y32.8000
G01 X37.3000 Y33.1000
G01 X35.8750 Y33.8500
G01 X34.3000 Y35.2000
G01 X33.7000
G01 X29.5750 Y32.8000
G01 X29.2750 Y32.2000
G01 Z-6.2990
G01 X29.5000 Y32.3500
G01 X29.8000 Y31.6750
G01 X31.5250 Y29.9500
G01 X33.5500 Y28.5250
G01 X35.5750 Y27.6250
G01 X37.5250 Y27.1000
G01 X38.5750
G01 X39.0250 Y27.7750
G01 Y32.1250
G01 X38.5750 Y32.8000
G01 X37.3000 Y33.1000
G01 X35.8750 Y33.8500
G01 X34.3000 Y35.2000
G01 X33.7000
G01 X29.7250 Y32.8750
G01 X29.5000 Y32.3500
G01 Z-5.9990
G01 X29.7250 Y32.5000
G01 X29.8750 Y32.0500
G01 X32.0500 Y29.8750
G01 X33.8500 Y28.6750
G01 X35.9500 Y27.7750
G01 X37.5250 Y27.4000
G01 X38.5750
G01 X39.0250 Y28.0750
G01 Y32.1250
G01 X38.5750 Y32.8000
G01 X37.3000 Y33.1000
G01 X35.8750 Y33.8500
G01 X34.3000 Y35.2000
G01 X33.7000
G01 X29.9500 Y33.0250
G01 X29.7250 Y32.5000
G01 Z-5.6990
G01 X29.9500 Y32.5750
G01 X30.1750 Y32.0500
G01 X31.4500 Y30.7000
G01 X33.1750 Y29.3500
G01 X35.5000 Y28.1500
G01 X37.8250 Y27.5500
G01 X38.5750 Y27.6250
G01 X39.0250 Y28.3000
G01 Y32.1250
G01 X38.5750 Y32.8000
G01 X37.3000 Y33.1000
G01 X35.8750 Y33.8500
G01 X34.3000 Y35.2000
G01 X33.7000
G01 X30.1750 Y33.1750
G01 X29.9500 Y32.5750
G01 Z-5.3990
G01 X30.1750 Y32.6500
G01 X30.5500 Y31.9750
G01 X32.0500 Y30.4750
G01 X33.8500 Y29.2000
G01 X35.9500 Y28.2250
G01 X37.5250 Y27.8500
G01 X38.5750
G01 X39.0250 Y28.5250
G01 Y32.1250
G01 X38.5750 Y32.8000
G01 X37.3000 Y33.1000
G01 X35.8750 Y33.8500
G01 X34.3000 Y35.2000
G01 X33.7000
G01 X30.4000 Y33.2500
G01 X30.1750 Y32.6500
G01 Z-5.0990
G01 X30.3250 Y32.8000
G01 X30.5500 Y32.2750
G01 X32.3500 Y30.4750
G01 X34.1500 Y29.2750
G01 X35.9500 Y28.4500
G01 X37.5250 Y28.0750
G01 X38.5750
G01 X39.0250 Y28.7500
G01 Y32.1250
G01 X38.5750 Y32.8000
G01 X37.3000 Y33.1000
G01 X35.8750 Y33.8500
G01 X34.3000 Y35.2000
G01 X33.7000
G01 X30.6250 Y33.4000
G01 X30.3250 Y32.8000
G01 Z-4.7990
G01 X30.5500 Y32.8750
G01 X31.6750 Y31.3750
G01 X33.5500 Y29.8750
G01 X35.9500 Y28.6750
G01 X37.7500 Y28.3000
G01 X38.5750
G01 X39.0250 Y28.9750
G01 Y32.1250
G01 X38.5750 Y32.8000
G01 X37.6750 Y32.9500
G01 X36.1000 Y33.7000
G01 X34.3000 Y35.2000
G01 X33.7000
G01 X31.0750 Y33.7000
G01 X30.5500 Y32.8750
G01 Z-4.4990
G01 X30.7000 Y33.0250
G01 X31.0750 Y32.3500
G01 X32.6500 Y30.7750
G01 X34.3750 Y29.6500
G01 X35.9500 Y28.9000
G01 X37.7500 Y28.4500
G01 X38.5750
G01 X39.0250 Y29.1250
G01 Y32.1250
G01 X38.5750 Y32.8000
G01 X37.3000 Y33.1000
G01 X35.8750 Y33.8500
G01 X34.3000 Y35.2000
G01 X33.7000
G01 X30.9250 Y33.5500
G01 X30.7000 Y33.0250
G01 Z-4.1990
G01 X30.9250 Y33.1000
G01 X31.0750 Y32.6500
G01 X32.0500 Y31.5250
G01 X33.9250 Y30.1000
G01 X35.9500 Y29.1250
G01 X37.7500 Y28.6750
G01 X38.5750
G01 X39.0250 Y29.3500
G01 Y32.1250
G01 X38.5750 Y32.8000
G01 X37.3000 Y33.1000
G01 X35.8750 Y33.8500
G01 X34.3000 Y35.2000
G01 X33.7000
G01 X31.3000 Y33.7750
G01 X30.9250 Y33.1000
G01 Z-3.8990
G01 X31.1500 Y32.8750
G01 X32.4250 Y31.4500
G01 X33.9250 Y30.3250
G01 X36.1000 Y29.2750
G01 X37.7500 Y28.8250
G01 X38.5750
G01 X39.0250 Y29.5000
G01 Y32.1250
G01 X38.5750 Y32.8000
G01 X37.6750 Y32.9500
G01 X36.1000 Y33.7000
G01 X34.3000 Y35.2000
G01 X33.7000
G01 X31.6000 Y34.0000
G01 X31.1500 Y33.5500
G01 Y32.8750
G01 Z-3.5990
G01 X31.2250 Y33.2500
G01 X31.7500 Y32.3500
G01 X32.5750 Y31.5250
G01 X34.8250 Y30.0250
G01 X36.5500 Y29.2750
G01 X37.9750 Y28.9750
G01 X38.5750
G01 X38.9500 Y29.3500
G01 Y32.4250
G01 X38.5750 Y32.8000
G01 X37.6750 Y32.9500
G01 X36.1000 Y33.7000
G01 X34.3000 Y35.2000
G01 X33.7000
G01 X31.4500 Y33.8500
G01 X31.2250 Y33.2500
G01 Z-3.2990
G01 X31.3750 Y33.3250
G01 X31.7500 Y32.6500
G01 X32.7250 Y31.6750
G01 X34.9750 Y30.1750
G01 X37.7500 Y29.2000
G01 X38.5750
G01 X39.0250 Y29.8750
G01 Y32.1250
G01 X38.5750 Y32.8000
G01 X37.3000 Y33.1000
G01 X35.8750 Y33.8500
G01 X34.3000 Y35.2000
G01 X33.7000
G01 X31.6000 Y34.0000
G01 X31.3750 Y33.3250
G01 Z-2.9990
G01 Y33.4750
G01 X31.6000 Y32.8750
G01 X33.2500 Y31.3000
G01 X34.9000 Y30.2500
G01 X37.9750 Y29.2000
G01 X38.5750
G01 X39.0250 Y29.8750
G01 Y32.1250
G01 X38.5750 Y32.8000
G01 X37.6750 Y32.9500
G01 X36.1000 Y33.7000
G01 X34.3000 Y35.2000
G01 X33.7000
G01 X31.6000 Y34.0000
G01 X31.3750 Y33.4750
G01 Z-2.6990
G01 X31.4500
G01 X31.6750 Y32.9500
G01 X34.3000 Y30.7000
G01 X36.1000 Y29.8000
G01 X37.7500 Y29.3500
G01 X38.5750
G01 X39.0250 Y30.0250
G01 Y32.1250
G01 X38.5750 Y32.8000
G01 X37.6750 Y32.9500
G01 X36.1000 Y33.7000
G01 X34.3000 Y35.2000
G01 X33.7000
G01 X31.7500 Y34.0750
G01 X31.4500 Y33.4750
G01 Z-2.5021
G01 X31.9000 Y33.3250
G01 X32.2750 Y32.8750 Z-2.5000
G01 X34.5250 Y31.0000 Z-2.5042
G01 X36.3250 Y30.1000 Z-2.5035
G01 X37.7500 Y29.7250 Z-2.5000
G01 X38.4250
G01 X38.6500 Y30.1000
G01 Y32.0500
G01 X38.3500 Y32.5000
G01 X37.4500 Y32.6500
G01 X35.8750 Y33.4000
G01 X34.1500 Y34.8250
G01 X33.7750
G01 X31.9750 Y33.7750
G01 X31.9000 Y33.3250 Z-2.5021
G01 Z-2.5000
G01 X32.3500 Y33.4000
G01 X32.9500 Y32.6500
G01 X34.7500 Y31.3000
G01 X36.5500 Y30.4000
G01 X37.7500 Y30.1000
G01 X38.2750 Y30.1750
G01 X38.2000 Y32.1250
G01 X35.6500 Y33.1000
G01 X34.0750 Y34.4500
G01 X32.6500 Y33.7750
G01 X32.3500 Y33.4000
G01 X32.8750 Y33.4750
G01 X32.9500 Y33.2500
G01 X34.9750 Y31.6000
G01 X37.7500 Y30.4750
G01 X37.9000 Y31.8250
G01 X35.4250 Y32.8000
G01 X34.0000 Y34.0000
G01 X32.8750 Y33.4750
G01 Z-2.0000
G01 X33.5500 Y33.4000
G01 Z-2.5000 F100
G01 Y33.1750 F120
G01 X35.2000 Y31.9000
G01 X37.3000 Y30.9250
G01 X37.5250
G01 Y31.5250
G01 X35.2000 Y32.5000
G01 X33.9250 Y33.5500
G01 X33.5500 Y33.4000
G01 Z-2.0000
G01 X33.9250 Y36.4000
G01 Z-11.7000
G01 Z-12.5000 F100
G01 X34.9750 Y36.1750 F120
G01 X36.5500 Y34.8250
G01 X37.9750 Y34.0750
G01 X39.2500 Y33.7750
G01 X39.9250 Y33.0250
G01 X40.7500 Y33.7750
G01 X42.0250 Y34.0750
G01 X43.3750 Y34.7500
G01 X45.0250 Y36.1750
G01 X46.0750 Y36.4000
G01 X45.7750 Y37.7500
G01 X46.0750 Y38.6500
G01 X46.1500 Y40.5250
G01 X45.7750 Y42.3250
G01 X46.0750 Y43.6000
G01 X45.0250 Y43.8250
G01 X43.3750 Y45.2500
G01 X42.0250 Y45.9250
G01 X40.7500 Y46.2250
G01 X40.0750 Y46.9750
G01 X39.2500 Y46.2250
G01 X37.9750 Y45.9250
G01 X36.7750 Y45.3250
G01 X34.9750 Y43.8250
G01 X33.9250 Y43.6000
G01 X34.2250 Y42.7000
G01 X33.8500 Y40.5250
G01 X33.9250 Y38.6500
G01 X34.2250 Y37.7500
G01 X33.9250 Y36.4000
G01 Z-12.0000
G01 X34.4500 Y36.7000
G01 Z-12.5000 F100
G01 X35.2750 Y36.4750 F120
G01 X34.7500 Y37.3750
G01 X34.4500 Y36.7000
G01 Z-12.0000
G01 X35.4250 Y36.9250
G01 Z-12.5000 F100
G01 X34.7500 Y38.2750 F120
G01 X34.5250 Y40.7500
G01 X34.9000 Y42.1750
G01 X35.4250 Y43.0750
G01 X36.2500 Y44.0500
G01 X37.3000 Y44.8000
G01 X39.7000 Y45.5500
G01 X40.8250 Y45.4750
G01 X42.7000 Y44.8000
G01 X43.7500 Y44.0500
G01 X44.8000 Y42.7750
G01 X45.4750 Y40.8250
G01 Y39.1750
G01 X44.6500 Y37.0000
G01 X43.7500 Y35.9500
G01 X42.7000 Y35.2000
G01 X40.8250 Y34.5250
G01 X39.7000 Y34.4500
G01 X37.8250 Y34.9750
G01 X36.6250 Y35.6500
G01 X35.4250 Y36.9250
G01 Z-12.0000
G01 X35.3500 Y37.7500
G01 Z-12.5000 F100
G01 X34.9000 Y39.3250 F120
G01 Y40.6750
G01 X35.4250 Y42.4000
G01 X36.3250 Y43.6000
G01 X37.5250 Y44.5000
G01 X39.7000 Y45.1750
G01 X40.8250 Y45.1000
G01 X42.4750 Y44.5000
G01 X43.5250 Y43.7500
G01 X44.5000 Y42.5500
G01 X45.1000 Y40.7500
G01 Y39.2500
G01 X44.5000 Y37.4500
G01 X43.5250 Y36.2500
G01 X42.4750 Y35.5000
G01 X40.8250 Y34.9000
G01 X39.7000 Y34.8250
G01 X38.0500 Y35.2750
G01 X36.8500 Y35.9500
G01 X35.3500 Y37.7500
G01 X35.7250 Y37.8250
G01 X35.3500 Y38.9500
G01 Y41.0500
G01 X36.0250 Y42.6250
