(Exported by FreeCAD)
(Post Processor: grbl_post)
(Output Time:2022-05-22 18:04:51.270669)
(Begin preamble)
G17 G90
G21
(Begin operation: Fixture)
(Path: Fixture)
G54
G0 Z5.000
(Finish operation: Fixture)
(Begin operation: TC: 6 ball L24 Q6)
(Path: TC: 6 ball L24 Q6)
(TC: 6 ball L24 Q6)
(Begin toolchange)
( M6 T10.0 )
M3 S0.0
(Finish operation: TC: 6 ball L24 Q6)
(Begin operation: Surface)
(Path: Surface)
(Surface)
(Surface)
(Tool type: ballend)
(Compensated Tool Path. Diameter: 6.0)
(Sample interval: 1.0)
(Step over %: 10.0)
()
G0 Z5.000
(Beginning of Multi-pass layers.)
(Layer 0 begins)
(Begin step 0.)
G0 X-34.500 Y37.436
(part 1)
G1 X-34.500 Y37.436 Z-2.000
G1 X-34.672 Y36.465 Z-2.000
G1 X-35.149 Y35.603 Z-2.000
G1 X-35.880 Y34.941 Z-2.000
G1 X-36.787 Y34.552 Z-2.000
G1 X-37.770 Y34.478 Z-2.000
G1 X-38.724 Y34.727 Z-2.000
G1 X-39.546 Y35.272 Z-2.000
G1 X-40.147 Y36.054 Z-2.000
G1 X-40.462 Y36.988 Z-2.000
G1 X-40.457 Y37.974 Z-2.000
G1 X-40.132 Y38.905 Z-2.000
G1 X-39.524 Y39.681 Z-2.000
G1 X-38.696 Y40.217 Z-2.000
G1 X-37.740 Y40.457 Z-2.000
G1 X-36.757 Y40.373 Z-2.000
G1 X-35.855 Y39.975 Z-2.000
G1 X-35.131 Y39.306 Z-2.000
G1 X-34.662 Y38.439 Z-2.000
G1 X-34.500 Y37.466 Z-2.000
G1 X-34.500 Y37.436 Z-2.000
(End of step 0.)
G0 Z3.000
G0 X-33.900 Y37.436
(Begin step 1.)
G0 X-33.900 Y37.436
(part 1)
G1 X-33.900 Y37.436 Z-2.000
G1 X-34.041 Y36.467 Z-2.000
G1 X-34.438 Y35.572 Z-2.000
G1 X-35.062 Y34.818 Z-2.000
G1 X-35.866 Y34.259 Z-2.000
G1 X-36.791 Y33.937 Z-2.000
G1 X-37.768 Y33.876 Z-2.000
G1 X-38.725 Y34.081 Z-2.000
G1 X-39.592 Y34.536 Z-2.000
G1 X-40.304 Y35.209 Z-2.000
G1 X-40.809 Y36.048 Z-2.000
G1 X-41.069 Y36.992 Z-2.000
G1 X-41.064 Y37.971 Z-2.000
G1 X-40.797 Y38.912 Z-2.000
G1 X-40.285 Y39.747 Z-2.000
G1 X-39.568 Y40.413 Z-2.000
G1 X-38.697 Y40.861 Z-2.000
G1 X-37.738 Y41.058 Z-2.000
G1 X-36.761 Y40.990 Z-2.000
G1 X-35.839 Y40.660 Z-2.000
G1 X-35.040 Y40.095 Z-2.000
G1 X-34.423 Y39.335 Z-2.000
G1 X-34.033 Y38.436 Z-2.000
G1 X-33.900 Y37.466 Z-2.000
G1 X-33.900 Y37.436 Z-2.000
(End of step 1.)
G0 Z3.000
G0 X-33.300 Y37.436
(Begin step 2.)
G0 X-33.300 Y37.436
(part 1)
G1 X-33.300 Y37.436 Z-2.000
G1 X-33.420 Y36.470 Z-2.000
G1 X-33.759 Y35.557 Z-2.000
G1 X-34.300 Y34.746 Z-2.000
G1 X-35.012 Y34.082 Z-2.000
G1 X-35.859 Y33.600 Z-2.000
G1 X-36.794 Y33.326 Z-2.000
G1 X-37.766 Y33.275 Z-2.000
G1 X-38.725 Y33.449 Z-2.000
G1 X-39.617 Y33.839 Z-2.000
G1 X-40.396 Y34.424 Z-2.000
G1 X-41.019 Y35.173 Z-2.000
G1 X-41.452 Y36.045 Z-2.000
G1 X-41.673 Y36.994 Z-2.000
G1 X-41.670 Y37.968 Z-2.000
G1 X-41.442 Y38.915 Z-2.000
G1 X-41.002 Y39.784 Z-2.000
G1 X-40.374 Y40.529 Z-2.000
G1 X-39.591 Y41.109 Z-2.000
G1 X-38.696 Y41.492 Z-2.000
G1 X-37.736 Y41.660 Z-2.000
G1 X-36.764 Y41.601 Z-2.000
G1 X-35.831 Y41.321 Z-2.000
G1 X-34.988 Y40.833 Z-2.000
G1 X-34.280 Y40.163 Z-2.000
G1 X-33.746 Y39.349 Z-2.000
G1 X-33.413 Y38.434 Z-2.000
G1 X-33.300 Y37.466 Z-2.000
G1 X-33.300 Y37.436 Z-2.000
(End of step 2.)
G0 Z3.000
G0 X-32.700 Y37.436
(Begin step 3.)
G0 X-32.700 Y37.436
(part 1)
G1 X-32.700 Y37.436 Z-2.000
G1 X-32.804 Y36.472 Z-2.000
G1 X-33.100 Y35.548 Z-2.000
G1 X-33.576 Y34.702 Z-2.000
G1 X-34.212 Y33.969 Z-2.000
G1 X-34.982 Y33.380 Z-2.000
G1 X-35.856 Y32.957 Z-2.000
G1 X-36.796 Y32.718 Z-2.000
G1 X-37.765 Y32.674 Z-2.000
G1 X-38.724 Y32.825 Z-2.000
G1 X-39.632 Y33.166 Z-2.000
G1 X-40.453 Y33.682 Z-2.000
G1 X-41.154 Y34.354 Z-2.000
G1 X-41.705 Y35.152 Z-2.000
G1 X-42.085 Y36.045 Z-2.000
G1 X-42.277 Y36.996 Z-2.000
G1 X-42.274 Y37.966 Z-2.000
G1 X-42.076 Y38.916 Z-2.000
G1 X-41.691 Y39.807 Z-2.000
G1 X-41.134 Y40.602 Z-2.000
G1 X-40.430 Y41.268 Z-2.000
G1 X-39.605 Y41.780 Z-2.000
G1 X-38.695 Y42.115 Z-2.000
G1 X-37.735 Y42.260 Z-2.000
G1 X-36.766 Y42.210 Z-2.000
G1 X-35.827 Y41.965 Z-2.000
G1 X-34.957 Y41.537 Z-2.000
G1 X-34.190 Y40.943 Z-2.000
G1 X-33.559 Y40.206 Z-2.000
G1 X-33.088 Y39.357 Z-2.000
G1 X-32.798 Y38.432 Z-2.000
G1 X-32.700 Y37.466 Z-2.000
G1 X-32.700 Y37.436 Z-2.000
(End of step 3.)
G0 Z3.000
G0 X-32.100 Y37.436
(Begin step 4.)
G0 X-32.100 Y37.436
(part 1)
G1 X-32.100 Y37.436 Z-1.692
G1 X-32.197 Y36.445 Z-1.692
G1 X-32.475 Y35.489 Z-1.775
G1 X-32.923 Y34.600 Z-2.000
G1 X-33.527 Y33.809 Z-1.692
G1 X-34.266 Y33.142 Z-1.692
G1 X-35.115 Y32.621 Z-1.692
G1 X-36.045 Y32.266 Z-1.692
G1 X-37.025 Y32.087 Z-2.000
G1 X-38.020 Y32.091 Z-1.967
G1 X-38.998 Y32.278 Z-1.692
G1 X-39.925 Y32.641 Z-1.692
G1 X-40.770 Y33.169 Z-1.692
G1 X-41.503 Y33.842 Z-1.693
G1 X-42.100 Y34.639 Z-2.000
G1 X-42.541 Y35.531 Z-1.755
G1 X-42.811 Y36.490 Z-1.692
G1 X-42.900 Y37.481 Z-1.692
G1 X-42.805 Y38.472 Z-1.692
G1 X-42.531 Y39.429 Z-1.768
G1 X-42.085 Y40.319 Z-2.000
G1 X-41.483 Y41.113 Z-1.692
G1 X-40.746 Y41.782 Z-1.692
G1 X-39.898 Y42.304 Z-1.692
G1 X-38.969 Y42.663 Z-1.692
G1 X-37.990 Y42.844 Z-1.996
G1 X-36.995 Y42.843 Z-1.981
G1 X-36.016 Y42.658 Z-1.692
G1 X-35.088 Y42.298 Z-1.692
G1 X-34.242 Y41.773 Z-1.692
G1 X-33.507 Y41.102 Z-1.692
G1 X-32.907 Y40.307 Z-2.000
G1 X-32.464 Y39.415 Z-1.761
G1 X-32.192 Y38.458 Z-1.692
G1 X-32.100 Y37.466 Z-1.692
G1 X-32.100 Y37.436 Z-1.692
(End of step 4.)
G0 Z3.000
G0 X-31.500 Y37.436
(Begin step 5.)
G0 X-31.500 Y37.436
(part 1)
G1 X-31.500 Y37.436 Z-0.857
G1 X-31.587 Y36.450 Z-0.858
G1 X-31.834 Y35.491 Z-0.868
G1 X-32.236 Y34.586 Z-1.341
G1 X-32.782 Y33.760 Z-0.923
G1 X-33.456 Y33.034 Z-0.858
G1 X-34.239 Y32.429 Z-0.858
G1 X-35.112 Y31.962 Z-0.858
G1 X-36.050 Y31.644 Z-0.858
G1 X-37.027 Y31.485 Z-1.089
G1 X-38.018 Y31.489 Z-1.063
G1 X-38.994 Y31.655 Z-0.858
G1 X-39.929 Y31.980 Z-0.858
G1 X-40.798 Y32.454 Z-0.858
G1 X-41.578 Y33.065 Z-0.858
G1 X-42.246 Y33.795 Z-0.937
G1 X-42.785 Y34.626 Z-1.300
G1 X-43.180 Y35.534 Z-0.863
G1 X-43.421 Y36.494 Z-0.858
G1 X-43.500 Y37.481 Z-0.858
G1 X-43.416 Y38.468 Z-0.858
G1 X-43.171 Y39.427 Z-0.866
G1 X-42.771 Y40.333 Z-1.327
G1 X-42.228 Y41.161 Z-0.928
G1 X-41.556 Y41.888 Z-0.858
G1 X-40.773 Y42.495 Z-0.857
G1 X-39.901 Y42.965 Z-0.857
G1 X-38.964 Y43.285 Z-0.857
G1 X-37.988 Y43.446 Z-1.080
G1 X-36.997 Y43.445 Z-1.071
G1 X-36.021 Y43.281 Z-0.857
G1 X-35.085 Y42.959 Z-0.857
G1 X-34.214 Y42.487 Z-0.857
G1 X-33.433 Y41.878 Z-0.857
G1 X-32.763 Y41.149 Z-0.932
G1 X-32.222 Y40.320 Z-1.314
G1 X-31.825 Y39.413 Z-0.864
G1 X-31.582 Y38.453 Z-0.858
G1 X-31.500 Y37.466 Z-0.858
G1 X-31.500 Y37.436 Z-0.857
(End of step 5.)
G0 Z3.000
G0 X-30.900 Y37.436
(Begin step 6.)
G0 X-30.900 Y37.436
(part 1)
G1 X-30.900 Y37.436 Z-0.402
G1 X-30.978 Y36.454 Z-0.402
G1 X-31.202 Y35.494 Z-0.402
G1 X-31.566 Y34.578 Z-0.635
G1 X-32.062 Y33.726 Z-0.608
G1 X-32.680 Y32.958 Z-0.402
G1 X-33.405 Y32.290 Z-0.402
G1 X-34.222 Y31.738 Z-0.402
G1 X-35.111 Y31.314 Z-0.402
G1 X-36.054 Y31.027 Z-0.402
G1 X-37.030 Y30.883 Z-0.632
G1 X-38.015 Y30.886 Z-0.611
G1 X-38.990 Y31.037 Z-0.402
G1 X-39.931 Y31.330 Z-0.402
G1 X-40.817 Y31.761 Z-0.402
G1 X-41.630 Y32.318 Z-0.402
G1 X-42.351 Y32.991 Z-0.402
G1 X-42.963 Y33.763 Z-0.630
G1 X-43.454 Y34.618 Z-0.613
G1 X-43.812 Y35.537 Z-0.402
G1 X-44.029 Y36.498 Z-0.402
G1 X-44.100 Y37.481 Z-0.402
G1 X-44.024 Y38.464 Z-0.402
G1 X-43.803 Y39.425 Z-0.402
G1 X-43.441 Y40.341 Z-0.627
G1 X-42.946 Y41.194 Z-0.615
G1 X-42.330 Y41.964 Z-0.402
G1 X-41.607 Y42.633 Z-0.402
G1 X-40.791 Y43.187 Z-0.402
G1 X-39.903 Y43.613 Z-0.402
G1 X-38.960 Y43.903 Z-0.402
G1 X-37.985 Y44.048 Z-0.625
G1 X-37.000 Y44.047 Z-0.618
G1 X-36.025 Y43.899 Z-0.402
G1 X-35.083 Y43.608 Z-0.402
G1 X-34.196 Y43.180 Z-0.402
G1 X-33.382 Y42.624 Z-0.402
G1 X-32.659 Y41.953 Z-0.402
G1 X-32.045 Y41.182 Z-0.622
G1 X-31.553 Y40.328 Z-0.620
G1 X-31.193 Y39.410 Z-0.402
G1 X-30.974 Y38.449 Z-0.402
G1 X-30.900 Y37.466 Z-0.402
G1 X-30.900 Y37.436 Z-0.402
(End of step 6.)
G0 Z3.000
G0 X-30.300 Y37.436
(Begin step 7.)
G0 X-30.300 Y37.436
(part 1)
G1 X-30.300 Y37.436 Z-0.138
G1 X-30.371 Y36.457 Z-0.138
G1 X-30.575 Y35.496 Z-0.138
G1 X-30.907 Y34.572 Z-0.259
G1 X-31.362 Y33.702 Z-0.537
G1 X-31.932 Y32.902 Z-0.169
G1 X-32.605 Y32.186 Z-0.138
G1 X-33.369 Y31.569 Z-0.138
G1 X-34.210 Y31.062 Z-0.138
G1 X-35.112 Y30.674 Z-0.138
G1 X-36.058 Y30.412 Z-0.141
G1 X-37.031 Y30.282 Z-0.386
G1 X-38.013 Y30.285 Z-0.365
G1 X-38.986 Y30.421 Z-0.139
G1 X-39.931 Y30.689 Z-0.138
G1 X-40.830 Y31.083 Z-0.138
G1 X-41.668 Y31.595 Z-0.138
G1 X-42.428 Y32.217 Z-0.138
G1 X-43.097 Y32.937 Z-0.176
G1 X-43.661 Y33.740 Z-0.566
G1 X-44.111 Y34.613 Z-0.245
G1 X-44.437 Y35.539 Z-0.138
G1 X-44.635 Y36.501 Z-0.138
G1 X-44.700 Y37.481 Z-0.138
G1 X-44.631 Y38.461 Z-0.138
G1 X-44.429 Y39.422 Z-0.138
G1 X-44.099 Y40.347 Z-0.254
G1 X-43.645 Y41.218 Z-0.547
G1 X-43.078 Y42.019 Z-0.171
G1 X-42.406 Y42.736 Z-0.138
G1 X-41.644 Y43.354 Z-0.138
G1 X-40.804 Y43.864 Z-0.138
G1 X-39.903 Y44.254 Z-0.138
G1 X-38.957 Y44.517 Z-0.140
G1 X-37.984 Y44.650 Z-0.379
G1 X-37.001 Y44.649 Z-0.372
G1 X-36.029 Y44.514 Z-0.140
G1 X-35.083 Y44.249 Z-0.138
G1 X-34.183 Y43.857 Z-0.138
G1 X-33.344 Y43.346 Z-0.138
G1 X-32.583 Y42.726 Z-0.138
G1 X-31.913 Y42.008 Z-0.174
G1 X-31.347 Y41.205 Z-0.556
G1 X-30.895 Y40.333 Z-0.250
G1 X-30.567 Y39.408 Z-0.138
G1 X-30.367 Y38.446 Z-0.138
G1 X-30.300 Y37.466 Z-0.138
G1 X-30.300 Y37.436 Z-0.138
(End of step 7.)
G0 Z3.000
G0 X-29.700 Y37.436
(Begin step 8.)
G0 X-29.700 Y37.436
(part 1)
G1 X-29.700 Y37.436 Z-0.015
G1 X-29.768 Y36.440 Z-0.015
G1 X-29.962 Y35.460 Z-0.015
G1 X-30.281 Y34.513 Z-0.088
G1 X-30.717 Y33.615 Z-0.527
G1 X-31.265 Y32.779 Z-0.116
G1 X-31.915 Y32.021 Z-0.015
G1 X-32.657 Y31.352 Z-0.015
G1 X-33.478 Y30.783 Z-0.015
G1 X-34.365 Y30.324 Z-0.015
G1 X-35.304 Y29.982 Z-0.015
G1 X-36.278 Y29.763 Z-0.054
G1 X-37.273 Y29.670 Z-0.418
G1 X-38.271 Y29.704 Z-0.168
G1 X-39.257 Y29.867 Z-0.015
G1 X-40.213 Y30.153 Z-0.015
G1 X-41.126 Y30.560 Z-0.015
G1 X-41.979 Y31.080 Z-0.015
G1 X-42.758 Y31.705 Z-0.015
G1 X-43.451 Y32.424 Z-0.031
G1 X-44.047 Y33.226 Z-0.324
G1 X-44.535 Y34.097 Z-0.232
G1 X-44.908 Y35.024 Z-0.017
G1 X-45.159 Y35.991 Z-0.015
G1 X-45.285 Y36.982 Z-0.015
G1 X-45.283 Y37.981 Z-0.015
G1 X-45.153 Y38.971 Z-0.015
G1 X-44.898 Y39.937 Z-0.018
G1 X-44.522 Y40.862 Z-0.245
G1 X-44.030 Y41.732 Z-0.309
G1 X-43.432 Y42.531 Z-0.028
G1 X-42.736 Y43.248 Z-0.015
G1 X-41.954 Y43.870 Z-0.015
G1 X-41.099 Y44.386 Z-0.015
G1 X-40.185 Y44.789 Z-0.015
G1 X-39.227 Y45.073 Z-0.015
G1 X-38.241 Y45.231 Z-0.178
G1 X-37.243 Y45.262 Z-0.400
G1 X-36.248 Y45.165 Z-0.049
G1 X-35.275 Y44.942 Z-0.015
G1 X-34.338 Y44.596 Z-0.015
G1 X-33.452 Y44.134 Z-0.015
G1 X-32.633 Y43.562 Z-0.015
G1 X-31.894 Y42.890 Z-0.015
G1 X-31.247 Y42.129 Z-0.124
G1 X-30.703 Y41.292 Z-0.506
G1 X-30.269 Y40.392 Z-0.081
G1 X-29.955 Y39.444 Z-0.015
G1 X-29.764 Y38.463 Z-0.015
G1 X-29.700 Y37.466 Z-0.015
G1 X-29.700 Y37.436 Z-0.015
(End of step 8.)
G0 Z3.000
G0 X-29.100 Y37.436
(Begin step 9.)
G0 X-29.100 Y37.436
(part 1)
G1 X-29.100 Y37.436 Z0.000
G1 X-29.162 Y36.444 Z0.000
G1 X-29.342 Y35.465 Z0.000
G1 X-29.636 Y34.515 Z-0.023
G1 X-30.040 Y33.606 Z-0.327
G1 X-30.548 Y32.751 Z-0.226
G1 X-31.154 Y31.962 Z-0.004
G1 X-31.849 Y31.251 Z0.000
G1 X-32.624 Y30.627 Z0.000
G1 X-33.466 Y30.098 Z0.000
G1 X-34.366 Y29.673 Z0.000
G1 X-35.309 Y29.357 Z0.000
G1 X-36.283 Y29.155 Z-0.048
G1 X-37.274 Y29.069 Z-0.416
G1 X-38.268 Y29.101 Z-0.165
G1 X-39.251 Y29.251 Z0.000
G1 X-40.210 Y29.515 Z0.000
G1 X-41.131 Y29.892 Z0.000
G1 X-42.001 Y30.374 Z0.000
G1 X-42.808 Y30.956 Z0.000
G1 X-43.540 Y31.629 Z0.000
G1 X-44.188 Y32.384 Z-0.081
G1 X-44.742 Y33.210 Z-0.518
G1 X-45.194 Y34.096 Z-0.115
G1 X-45.539 Y35.029 Z0.000
G1 X-45.770 Y35.996 Z0.000
G1 X-45.886 Y36.984 Z0.000
G1 X-45.884 Y37.979 Z0.000
G1 X-45.765 Y38.966 Z0.000
G1 X-45.530 Y39.933 Z0.000
G1 X-45.182 Y40.864 Z-0.124
G1 X-44.726 Y41.749 Z-0.497
G1 X-44.170 Y42.573 Z-0.074
G1 X-43.519 Y43.325 Z0.000
G1 X-42.784 Y43.996 Z0.000
G1 X-41.975 Y44.575 Z0.000
G1 X-41.104 Y45.054 Z0.000
G1 X-40.182 Y45.427 Z0.000
G1 X-39.222 Y45.688 Z-0.000
G1 X-38.238 Y45.834 Z-0.176
G1 X-37.244 Y45.862 Z-0.398
G1 X-36.253 Y45.773 Z-0.042
G1 X-35.280 Y45.568 Z0.000
G1 X-34.338 Y45.248 Z0.000
G1 X-33.440 Y44.820 Z0.000
G1 X-32.599 Y44.289 Z0.000
G1 X-31.827 Y43.661 Z0.000
G1 X-31.135 Y42.947 Z-0.006
G1 X-30.531 Y42.157 Z-0.239
G1 X-30.026 Y41.300 Z-0.312
G1 X-29.625 Y40.390 Z-0.020
G1 X-29.335 Y39.438 Z0.000
G1 X-29.159 Y38.459 Z0.000
G1 X-29.100 Y37.466 Z0.000
G1 X-29.100 Y37.436 Z0.000
(End of step 9.)
G0 Z3.000
G0 X-28.500 Y37.436
(Begin step 10.)
G0 X-28.500 Y37.436
(part 1)
G1 X-28.500 Y37.436 Z0.000
G1 X-28.558 Y36.447 Z0.000
G1 X-28.724 Y35.470 Z0.000
G1 X-28.997 Y34.517 Z-0.000
G1 X-29.373 Y33.600 Z-0.184
G1 X-29.847 Y32.730 Z-0.387
G1 X-30.414 Y31.917 Z-0.040
G1 X-31.067 Y31.172 Z0.000
G1 X-31.798 Y30.503 Z0.000
G1 X-32.599 Y29.918 Z0.000
G1 X-33.458 Y29.425 Z0.000
G1 X-34.367 Y29.029 Z0.000
G1 X-35.314 Y28.736 Z0.000
G1 X-36.287 Y28.548 Z-0.048
G1 X-37.275 Y28.469 Z-0.416
G1 X-38.265 Y28.499 Z-0.166
G1 X-39.247 Y28.637 Z-0.000
G1 X-40.207 Y28.883 Z0.000
G1 X-41.134 Y29.233 Z0.000
G1 X-42.017 Y29.682 Z0.000
G1 X-42.846 Y30.226 Z0.000
G1 X-43.609 Y30.858 Z0.000
G1 X-44.299 Y31.569 Z-0.000
G1 X-44.906 Y32.353 Z-0.180
G1 X-45.424 Y33.198 Z-0.393
G1 X-45.845 Y34.095 Z-0.041
G1 X-46.165 Y35.033 Z0.000
G1 X-46.380 Y36.000 Z0.000
G1 X-46.487 Y36.986 Z0.000
G1 X-46.486 Y37.977 Z0.000
G1 X-46.375 Y38.962 Z0.000
G1 X-46.157 Y39.928 Z0.000
G1 X-45.833 Y40.865 Z-0.047
G1 X-45.409 Y41.761 Z-0.410
G1 X-44.889 Y42.604 Z-0.170
G1 X-44.279 Y43.386 Z-0.000
G1 X-43.587 Y44.095 Z0.000
G1 X-42.822 Y44.724 Z0.000
G1 X-41.991 Y45.265 Z0.000
G1 X-41.107 Y45.712 Z0.000
G1 X-40.178 Y46.059 Z0.000
G1 X-39.217 Y46.301 Z-0.000
G1 X-38.235 Y46.436 Z-0.177
G1 X-37.245 Y46.463 Z-0.399
G1 X-36.257 Y46.380 Z-0.043
G1 X-35.285 Y46.189 Z0.000
G1 X-34.339 Y45.893 Z0.000
G1 X-33.432 Y45.494 Z0.000
G1 X-32.574 Y44.998 Z0.000
G1 X-31.775 Y44.411 Z0.000
G1 X-31.046 Y43.739 Z0.000
G1 X-30.396 Y42.992 Z-0.045
G1 X-29.831 Y42.177 Z-0.405
G1 X-29.360 Y41.305 Z-0.173
G1 X-28.987 Y40.387 Z-0.000
G1 X-28.718 Y39.433 Z0.000
G1 X-28.555 Y38.456 Z0.000
G1 X-28.500 Y37.466 Z0.000
G1 X-28.500 Y37.436 Z0.000
(End of step 10.)
G0 Z3.000
G0 X-27.900 Y37.436
(Begin step 11.)
G0 X-27.900 Y37.436
(part 1)
G1 X-27.900 Y37.436 Z0.000
G1 X-27.954 Y36.450 Z0.000
G1 X-28.109 Y35.474 Z0.000
G1 X-28.363 Y34.520 Z0.000
G1 X-28.715 Y33.596 Z-0.085
G1 X-29.159 Y32.714 Z-0.525
G1 X-29.691 Y31.882 Z-0.114
G1 X-30.307 Y31.109 Z0.000
G1 X-30.998 Y30.403 Z0.000
G1 X-31.758 Y29.772 Z0.000
G1 X-32.580 Y29.223 Z0.000
G1 X-33.453 Y28.761 Z0.000
G1 X-34.369 Y28.391 Z0.000
G1 X-35.318 Y28.118 Z0.000
G1 X-36.290 Y27.943 Z-0.049
G1 X-37.275 Y27.869 Z-0.417
G1 X-38.263 Y27.897 Z-0.167
G1 X-39.242 Y28.026 Z-0.000
G1 X-40.203 Y28.255 Z0.000
G1 X-41.136 Y28.581 Z0.000
G1 X-42.030 Y29.002 Z0.000
G1 X-42.875 Y29.512 Z0.000
G1 X-43.664 Y30.107 Z0.000
G1 X-44.388 Y30.779 Z0.000
G1 X-45.039 Y31.523 Z-0.023
G1 X-45.610 Y32.329 Z-0.324
G1 X-46.095 Y33.190 Z-0.232
G1 X-46.489 Y34.095 Z-0.005
G1 X-46.788 Y35.037 Z0.000
G1 X-46.988 Y36.004 Z0.000
G1 X-47.088 Y36.987 Z0.000
G1 X-47.087 Y37.975 Z0.000
G1 X-46.983 Y38.958 Z0.000
G1 X-46.780 Y39.924 Z0.000
G1 X-46.478 Y40.865 Z-0.007
G1 X-46.081 Y41.770 Z-0.245
G1 X-45.594 Y42.629 Z-0.309
G1 X-45.020 Y43.433 Z-0.020
G1 X-44.367 Y44.175 Z0.000
G1 X-43.641 Y44.845 Z0.000
G1 X-42.851 Y45.437 Z0.000
G1 X-42.003 Y45.945 Z0.000
G1 X-41.108 Y46.362 Z0.000
G1 X-40.175 Y46.686 Z0.000
G1 X-39.213 Y46.912 Z-0.000
G1 X-38.233 Y47.038 Z-0.178
G1 X-37.245 Y47.063 Z-0.399
G1 X-36.261 Y46.986 Z-0.044
G1 X-35.289 Y46.808 Z0.000
G1 X-34.340 Y46.531 Z0.000
G1 X-33.426 Y46.159 Z0.000
G1 X-32.554 Y45.694 Z0.000
G1 X-31.734 Y45.142 Z0.000
G1 X-30.976 Y44.509 Z0.000
G1 X-30.287 Y43.801 Z0.000
G1 X-29.674 Y43.026 Z-0.122
G1 X-29.144 Y42.193 Z-0.505
G1 X-28.703 Y41.309 Z-0.078
G1 X-28.354 Y40.384 Z0.000
G1 X-28.103 Y39.429 Z0.000
G1 X-27.951 Y38.453 Z0.000
G1 X-27.900 Y37.466 Z0.000
G1 X-27.900 Y37.436 Z0.000
(End of step 11.)
G0 Z3.000
G0 X-27.300 Y37.436
(Begin step 12.)
G0 X-27.300 Y37.436
(part 1)
G1 X-27.300 Y37.436 Z-0.029
G1 X-27.351 Y36.452 Z-0.029
G1 X-27.496 Y35.478 Z-0.029
G1 X-27.734 Y34.522 Z-0.029
G1 X-28.064 Y33.594 Z-0.063
G1 X-28.481 Y32.702 Z-0.387
G1 X-28.983 Y31.854 Z-0.282
G1 X-29.564 Y31.058 Z-0.038
G1 X-30.219 Y30.323 Z-0.029
G1 X-30.942 Y29.654 Z-0.029
G1 X-31.727 Y29.057 Z-0.029
G1 X-32.565 Y28.540 Z-0.029
G1 X-33.449 Y28.105 Z-0.029
G1 X-34.371 Y27.758 Z-0.029
G1 X-35.322 Y27.502 Z-0.029
G1 X-36.293 Y27.338 Z-0.091
G1 X-37.276 Y27.269 Z-0.477
G1 X-38.261 Y27.295 Z-0.218
G1 X-39.239 Y27.416 Z-0.030
G1 X-40.200 Y27.630 Z-0.029
G1 X-41.136 Y27.936 Z-0.029
G1 X-42.039 Y28.332 Z-0.029
G1 X-42.899 Y28.812 Z-0.029
G1 X-43.708 Y29.373 Z-0.029
G1 X-44.460 Y30.010 Z-0.029
G1 X-45.147 Y30.716 Z-0.029
G1 X-45.763 Y31.485 Z-0.128
G1 X-46.301 Y32.310 Z-0.581
G1 X-46.757 Y33.183 Z-0.165
G1 X-47.127 Y34.096 Z-0.029
G1 X-47.407 Y35.041 Z-0.029
G1 X-47.595 Y36.008 Z-0.029
G1 X-47.689 Y36.989 Z-0.029
G1 X-47.687 Y37.974 Z-0.029
G1 X-47.591 Y38.954 Z-0.029
G1 X-47.400 Y39.921 Z-0.029
G1 X-47.117 Y40.864 Z-0.029
G1 X-46.745 Y41.776 Z-0.174
G1 X-46.286 Y42.648 Z-0.560
G1 X-45.745 Y43.471 Z-0.121
G1 X-45.127 Y44.239 Z-0.029
G1 X-44.438 Y44.943 Z-0.029
G1 X-43.685 Y45.577 Z-0.029
G1 X-42.873 Y46.136 Z-0.029
G1 X-42.012 Y46.614 Z-0.029
G1 X-41.108 Y47.007 Z-0.029
G1 X-40.171 Y47.310 Z-0.029
G1 X-39.209 Y47.522 Z-0.031
G1 X-38.231 Y47.640 Z-0.230
G1 X-37.246 Y47.663 Z-0.459
G1 X-36.264 Y47.591 Z-0.085
G1 X-35.293 Y47.425 Z-0.029
G1 X-34.342 Y47.165 Z-0.029
G1 X-33.421 Y46.815 Z-0.029
G1 X-32.539 Y46.378 Z-0.029
G1 X-31.702 Y45.858 Z-0.029
G1 X-30.919 Y45.260 Z-0.029
G1 X-30.198 Y44.588 Z-0.029
G1 X-29.545 Y43.851 Z-0.041
G1 X-28.966 Y43.054 Z-0.295
G1 X-28.467 Y42.204 Z-0.371
G1 X-28.052 Y41.311 Z-0.059
G1 X-27.725 Y40.382 Z-0.029
G1 X-27.490 Y39.425 Z-0.029
G1 X-27.348 Y38.450 Z-0.029
G1 X-27.300 Y37.466 Z-0.029
G1 X-27.300 Y37.436 Z-0.029
(End of step 12.)
G0 Z3.000
G0 X-26.700 Y37.436
(Begin step 13.)
G0 X-26.700 Y37.436
(part 1)
G1 X-26.700 Y37.436 Z-0.161
G1 X-26.749 Y36.440 Z-0.161
G1 X-26.889 Y35.453 Z-0.161
G1 X-27.120 Y34.483 Z-0.161
G1 X-27.440 Y33.539 Z-0.174
G1 X-27.845 Y32.627 Z-0.436
G1 X-28.332 Y31.758 Z-0.578
G1 X-28.898 Y30.936 Z-0.212
G1 X-29.537 Y30.171 Z-0.161
G1 X-30.243 Y29.467 Z-0.161
G1 X-31.012 Y28.832 Z-0.161
G1 X-31.836 Y28.271 Z-0.161
G1 X-32.708 Y27.788 Z-0.161
G1 X-33.621 Y27.387 Z-0.161
G1 X-34.567 Y27.072 Z-0.161
G1 X-35.538 Y26.846 Z-0.161
G1 X-36.526 Y26.710 Z-0.307
G1 X-37.522 Y26.666 Z-0.804
G1 X-38.518 Y26.714 Z-0.293
G1 X-39.506 Y26.854 Z-0.161
G1 X-40.476 Y27.084 Z-0.161
G1 X-41.421 Y27.403 Z-0.161
G1 X-42.332 Y27.808 Z-0.161
G1 X-43.202 Y28.294 Z-0.161
G1 X-44.024 Y28.859 Z-0.161
G1 X-44.790 Y29.498 Z-0.161
G1 X-45.494 Y30.204 Z-0.161
G1 X-46.129 Y30.972 Z-0.220
G1 X-46.692 Y31.796 Z-0.605
G1 X-47.175 Y32.668 Z-0.416
G1 X-47.577 Y33.580 Z-0.170
G1 X-47.892 Y34.526 Z-0.161
G1 X-48.119 Y35.497 Z-0.161
G1 X-48.255 Y36.485 Z-0.161
G1 X-48.300 Y37.481 Z-0.161
G1 X-48.253 Y38.477 Z-0.161
G1 X-48.114 Y39.465 Z-0.161
G1 X-47.884 Y40.435 Z-0.161
G1 X-47.566 Y41.380 Z-0.173
G1 X-47.162 Y42.292 Z-0.429
G1 X-46.676 Y43.162 Z-0.587
G1 X-46.111 Y43.984 Z-0.215
G1 X-45.474 Y44.751 Z-0.161
G1 X-44.768 Y45.455 Z-0.161
G1 X-44.000 Y46.091 Z-0.161
G1 X-43.177 Y46.654 Z-0.161
G1 X-42.305 Y47.138 Z-0.161
G1 X-41.393 Y47.540 Z-0.161
G1 X-40.447 Y47.856 Z-0.161
G1 X-39.476 Y48.084 Z-0.161
G1 X-38.489 Y48.221 Z-0.302
G1 X-37.492 Y48.266 Z-0.816
G1 X-36.496 Y48.220 Z-0.298
G1 X-35.509 Y48.081 Z-0.161
G1 X-34.538 Y47.852 Z-0.161
G1 X-33.593 Y47.535 Z-0.161
G1 X-32.681 Y47.132 Z-0.161
G1 X-31.810 Y46.646 Z-0.161
G1 X-30.988 Y46.082 Z-0.161
G1 X-30.221 Y45.445 Z-0.161
G1 X-29.516 Y44.740 Z-0.161
G1 X-28.880 Y43.972 Z-0.218
G1 X-28.316 Y43.149 Z-0.596
G1 X-27.831 Y42.278 Z-0.422
G1 X-27.429 Y41.366 Z-0.172
G1 X-27.112 Y40.421 Z-0.161
G1 X-26.884 Y39.450 Z-0.161
G1 X-26.746 Y38.462 Z-0.161
G1 X-26.700 Y37.466 Z-0.161
G1 X-26.700 Y37.436 Z-0.161
(End of step 13.)
G0 Z3.000
G0 X-26.100 Y37.436
(Begin step 14.)
G0 X-26.100 Y37.436
(part 1)
G1 X-26.100 Y37.436 Z-0.413
G1 X-26.146 Y36.443 Z-0.413
G1 X-26.278 Y35.458 Z-0.413
G1 X-26.496 Y34.488 Z-0.413
G1 X-26.797 Y33.541 Z-0.414
G1 X-27.180 Y32.623 Z-0.598
G1 X-27.641 Y31.742 Z-1.158
G1 X-28.177 Y30.905 Z-0.578
G1 X-28.784 Y30.118 Z-0.413
G1 X-29.458 Y29.387 Z-0.413
G1 X-30.192 Y28.717 Z-0.413
G1 X-30.982 Y28.113 Z-0.413
G1 X-31.822 Y27.581 Z-0.413
G1 X-32.704 Y27.124 Z-0.413
G1 X-33.624 Y26.746 Z-0.413
G1 X-34.572 Y26.449 Z-0.413
G1 X-35.543 Y26.235 Z-0.414
G1 X-36.529 Y26.108 Z-0.596
G1 X-37.522 Y26.066 Z-1.162
G1 X-38.516 Y26.112 Z-0.580
G1 X-39.501 Y26.243 Z-0.413
G1 X-40.471 Y26.460 Z-0.413
G1 X-41.419 Y26.761 Z-0.413
G1 X-42.336 Y27.143 Z-0.413
G1 X-43.217 Y27.604 Z-0.413
G1 X-44.055 Y28.139 Z-0.413
G1 X-44.842 Y28.746 Z-0.413
G1 X-45.574 Y29.419 Z-0.413
G1 X-46.245 Y30.153 Z-0.414
G1 X-46.849 Y30.942 Z-0.594
G1 X-47.381 Y31.781 Z-1.166
G1 X-47.839 Y32.664 Z-0.582
G1 X-48.218 Y33.583 Z-0.413
G1 X-48.516 Y34.531 Z-0.413
G1 X-48.730 Y35.502 Z-0.413
G1 X-48.858 Y36.488 Z-0.413
G1 X-48.900 Y37.481 Z-0.413
G1 X-48.855 Y38.474 Z-0.413
G1 X-48.724 Y39.460 Z-0.413
G1 X-48.508 Y40.430 Z-0.413
G1 X-48.208 Y41.378 Z-0.414
G1 X-47.826 Y42.296 Z-0.593
G1 X-47.366 Y43.177 Z-1.171
G1 X-46.831 Y44.015 Z-0.584
G1 X-46.225 Y44.803 Z-0.413
G1 X-45.553 Y45.535 Z-0.413
G1 X-44.819 Y46.206 Z-0.413
G1 X-44.030 Y46.811 Z-0.413
G1 X-43.191 Y47.344 Z-0.413
G1 X-42.309 Y47.802 Z-0.413
G1 X-41.390 Y48.182 Z-0.413
G1 X-40.442 Y48.480 Z-0.413
G1 X-39.471 Y48.695 Z-0.413
G1 X-38.486 Y48.824 Z-0.591
G1 X-37.492 Y48.866 Z-1.176
G1 X-36.499 Y48.822 Z-0.585
G1 X-35.514 Y48.692 Z-0.413
G1 X-34.543 Y48.476 Z-0.413
G1 X-33.595 Y48.177 Z-0.413
G1 X-32.677 Y47.796 Z-0.413
G1 X-31.796 Y47.336 Z-0.413
G1 X-30.957 Y46.802 Z-0.413
G1 X-30.169 Y46.196 Z-0.413
G1 X-29.436 Y45.525 Z-0.413
G1 X-28.765 Y44.791 Z-0.413
G1 X-28.160 Y44.003 Z-0.589
G1 X-27.626 Y43.164 Z-1.180
G1 X-27.167 Y42.282 Z-0.587
G1 X-26.787 Y41.364 Z-0.413
G1 X-26.488 Y40.416 Z-0.413
G1 X-26.273 Y39.445 Z-0.413
G1 X-26.143 Y38.459 Z-0.413
G1 X-26.100 Y37.466 Z-0.413
G1 X-26.100 Y37.436 Z-0.413
(End of step 14.)
G0 Z3.000
G0 X-25.500 Y37.436
(Begin step 15.)
G0 X-25.500 Y37.436
(part 1)
G1 X-25.500 Y37.436 Z-0.819
G1 X-25.543 Y36.446 Z-0.819
G1 X-25.669 Y35.462 Z-0.819
G1 X-25.874 Y34.493 Z-0.819
G1 X-26.159 Y33.543 Z-0.819
G1 X-26.522 Y32.620 Z-0.938
G1 X-26.959 Y31.731 Z-1.492
G1 X-27.469 Y30.880 Z-1.209
G1 X-28.047 Y30.075 Z-0.851
G1 X-28.689 Y29.319 Z-0.819
G1 X-29.392 Y28.620 Z-0.819
G1 X-30.150 Y27.981 Z-0.819
G1 X-30.958 Y27.406 Z-0.819
G1 X-31.811 Y26.901 Z-0.819
G1 X-32.702 Y26.467 Z-0.819
G1 X-33.626 Y26.109 Z-0.819
G1 X-34.577 Y25.828 Z-0.819
G1 X-35.548 Y25.626 Z-0.822
G1 X-36.532 Y25.505 Z-1.061
G1 X-37.522 Y25.466 Z-1.783
G1 X-38.513 Y25.509 Z-1.041
G1 X-39.497 Y25.634 Z-0.820
G1 X-40.466 Y25.839 Z-0.819
G1 X-41.416 Y26.123 Z-0.819
G1 X-42.339 Y26.485 Z-0.819
G1 X-43.229 Y26.922 Z-0.819
G1 X-44.080 Y27.431 Z-0.819
G1 X-44.886 Y28.008 Z-0.819
G1 X-45.641 Y28.650 Z-0.819
G1 X-46.341 Y29.353 Z-0.819
G1 X-46.981 Y30.110 Z-0.858
G1 X-47.556 Y30.918 Z-1.236
G1 X-48.062 Y31.770 Z-1.453
G1 X-48.496 Y32.661 Z-0.925
G1 X-48.855 Y33.586 Z-0.819
G1 X-49.137 Y34.536 Z-0.819
G1 X-49.339 Y35.507 Z-0.819
G1 X-49.460 Y36.491 Z-0.819
G1 X-49.500 Y37.481 Z-0.819
G1 X-49.458 Y38.472 Z-0.819
G1 X-49.334 Y39.455 Z-0.819
G1 X-49.129 Y40.425 Z-0.819
G1 X-48.845 Y41.375 Z-0.819
G1 X-48.484 Y42.299 Z-0.934
G1 X-48.048 Y43.189 Z-1.479
G1 X-47.539 Y44.040 Z-1.218
G1 X-46.962 Y44.846 Z-0.853
G1 X-46.321 Y45.602 Z-0.819
G1 X-45.619 Y46.302 Z-0.819
G1 X-44.862 Y46.942 Z-0.819
G1 X-44.055 Y47.518 Z-0.819
G1 X-43.203 Y48.025 Z-0.819
G1 X-42.312 Y48.459 Z-0.819
G1 X-41.388 Y48.819 Z-0.819
G1 X-40.437 Y49.101 Z-0.819
G1 X-39.467 Y49.304 Z-0.822
G1 X-38.483 Y49.426 Z-1.054
G1 X-37.492 Y49.466 Z-1.801
G1 X-36.502 Y49.425 Z-1.048
G1 X-35.518 Y49.301 Z-0.821
G1 X-34.548 Y49.098 Z-0.819
G1 X-33.598 Y48.814 Z-0.819
G1 X-32.675 Y48.453 Z-0.819
G1 X-31.784 Y48.018 Z-0.819
G1 X-30.933 Y47.510 Z-0.819
G1 X-30.126 Y46.933 Z-0.819
G1 X-29.370 Y46.292 Z-0.819
G1 X-28.669 Y45.591 Z-0.819
G1 X-28.028 Y44.834 Z-0.855
G1 X-27.452 Y44.027 Z-1.227
G1 X-26.945 Y43.176 Z-1.466
G1 X-26.510 Y42.285 Z-0.929
G1 X-26.150 Y41.361 Z-0.819
G1 X-25.867 Y40.411 Z-0.819
G1 X-25.664 Y39.441 Z-0.819
G1 X-25.541 Y38.457 Z-0.819
G1 X-25.500 Y37.466 Z-0.819
G1 X-25.500 Y37.436 Z-0.819
(End of step 15.)
G0 Z3.000
G0 X-24.900 Y37.436
(Begin step 16.)
G0 X-24.900 Y37.436
(part 1)
G1 X-24.900 Y37.436 Z-1.468
G1 X-24.941 Y36.448 Z-1.469
G1 X-25.060 Y35.466 Z-1.468
G1 X-25.255 Y34.497 Z-1.468
G1 X-25.526 Y33.546 Z-1.468
G1 X-25.870 Y32.618 Z-1.542
G1 X-26.286 Y31.721 Z-2.000
G1 X-26.771 Y30.859 Z-2.000
G1 X-27.322 Y30.038 Z-1.636
G1 X-27.936 Y29.263 Z-1.468
G1 X-28.609 Y28.538 Z-1.468
G1 X-29.337 Y27.868 Z-1.468
G1 X-30.115 Y27.258 Z-1.468
G1 X-30.938 Y26.710 Z-1.468
G1 X-31.802 Y26.228 Z-1.468
G1 X-32.701 Y25.816 Z-1.468
G1 X-33.629 Y25.476 Z-1.468
G1 X-34.582 Y25.209 Z-1.468
G1 X-35.552 Y25.018 Z-1.480
G1 X-36.534 Y24.903 Z-1.844
G1 X-37.522 Y24.866 Z-2.000
G1 X-38.511 Y24.907 Z-1.813
G1 X-39.493 Y25.025 Z-1.476
G1 X-40.462 Y25.219 Z-1.468
G1 X-41.414 Y25.489 Z-1.468
G1 X-42.341 Y25.833 Z-1.468
G1 X-43.238 Y26.249 Z-1.468
G1 X-44.100 Y26.733 Z-1.468
G1 X-44.922 Y27.284 Z-1.468
G1 X-45.698 Y27.898 Z-1.468
G1 X-46.423 Y28.570 Z-1.468
G1 X-47.093 Y29.297 Z-1.468
G1 X-47.704 Y30.075 Z-1.656
G1 X-48.252 Y30.898 Z-2.000
G1 X-48.735 Y31.761 Z-2.000
G1 X-49.147 Y32.660 Z-1.531
G1 X-49.488 Y33.588 Z-1.468
G1 X-49.756 Y34.541 Z-1.468
G1 X-49.947 Y35.511 Z-1.469
G1 X-50.062 Y36.493 Z-1.469
G1 X-50.100 Y37.481 Z-1.469
G1 X-50.060 Y38.469 Z-1.469
G1 X-49.943 Y39.451 Z-1.468
G1 X-49.749 Y40.421 Z-1.468
G1 X-49.479 Y41.373 Z-1.468
G1 X-49.136 Y42.300 Z-1.538
G1 X-48.721 Y43.198 Z-2.000
G1 X-48.237 Y44.060 Z-2.000
G1 X-47.687 Y44.882 Z-1.643
G1 X-47.074 Y45.658 Z-1.469
G1 X-46.402 Y46.384 Z-1.469
G1 X-45.675 Y47.054 Z-1.469
G1 X-44.898 Y47.666 Z-1.469
G1 X-44.075 Y48.215 Z-1.469
G1 X-43.212 Y48.697 Z-1.469
G1 X-42.313 Y49.111 Z-1.469
G1 X-41.385 Y49.452 Z-1.469
G1 X-40.433 Y49.720 Z-1.469
G1 X-39.463 Y49.912 Z-1.479
G1 X-38.481 Y50.028 Z-1.834
G1 X-37.492 Y50.066 Z-2.000
G1 X-36.504 Y50.027 Z-1.824
G1 X-35.522 Y49.910 Z-1.477
G1 X-34.552 Y49.717 Z-1.469
G1 X-33.601 Y49.448 Z-1.469
G1 X-32.673 Y49.105 Z-1.469
G1 X-31.775 Y48.691 Z-1.469
G1 X-30.912 Y48.207 Z-1.469
G1 X-30.090 Y47.657 Z-1.469
G1 X-29.314 Y47.045 Z-1.469
G1 X-28.588 Y46.373 Z-1.469
G1 X-27.917 Y45.647 Z-1.469
G1 X-27.305 Y44.870 Z-1.649
G1 X-26.755 Y44.048 Z-2.000
G1 X-26.272 Y43.185 Z-2.000
G1 X-25.858 Y42.286 Z-1.534
G1 X-25.516 Y41.358 Z-1.469
G1 X-25.248 Y40.407 Z-1.469
G1 X-25.055 Y39.437 Z-1.468
G1 X-24.939 Y38.454 Z-1.468
G1 X-24.900 Y37.466 Z-1.468
G1 X-24.900 Y37.436 Z-1.468
(End of step 16.)
G0 Z3.000
G0 X-24.300 Y37.436
(Begin step 17.)
G0 X-24.300 Y37.436
(part 1)
G1 X-24.300 Y37.436 Z-2.000
G1 X-24.340 Y36.438 Z-2.000
G1 X-24.455 Y35.446 Z-2.000
G1 X-24.645 Y34.466 Z-2.000
G1 X-24.909 Y33.503 Z-2.000
G1 X-25.245 Y32.562 Z-2.000
G1 X-25.651 Y31.650 Z-2.000
G1 X-26.124 Y30.771 Z-2.000
G1 X-26.663 Y29.930 Z-2.000
G1 X-27.264 Y29.132 Z-2.000
G1 X-27.923 Y28.382 Z-2.000
G1 X-28.637 Y27.684 Z-2.000
G1 X-29.402 Y27.042 Z-2.000
G1 X-30.214 Y26.460 Z-2.000
G1 X-31.067 Y25.940 Z-2.000
G1 X-31.956 Y25.487 Z-2.000
G1 X-32.878 Y25.102 Z-2.000
G1 X-33.826 Y24.788 Z-2.000
G1 X-34.795 Y24.546 Z-2.000
G1 X-35.779 Y24.379 Z-2.000
G1 X-36.774 Y24.286 Z-2.000
G1 X-37.772 Y24.269 Z-2.000
G1 X-38.769 Y24.327 Z-2.000
G1 X-39.759 Y24.461 Z-2.000
G1 X-40.736 Y24.669 Z-2.000
G1 X-41.694 Y24.950 Z-2.000
G1 X-42.628 Y25.303 Z-2.000
G1 X-43.533 Y25.726 Z-2.000
G1 X-44.403 Y26.215 Z-2.000
G1 X-45.234 Y26.769 Z-2.000
G1 X-46.021 Y27.385 Z-2.000
G1 X-46.758 Y28.058 Z-2.000
G1 X-47.443 Y28.785 Z-2.000
G1 X-48.071 Y29.561 Z-2.000
G1 X-48.639 Y30.383 Z-2.000
G1 X-49.142 Y31.245 Z-2.000
G1 X-49.579 Y32.143 Z-2.000
G1 X-49.947 Y33.072 Z-2.000
G1 X-50.244 Y34.025 Z-2.000
G1 X-50.467 Y34.999 Z-2.000
G1 X-50.617 Y35.986 Z-2.000
G1 X-50.691 Y36.982 Z-2.000
G1 X-50.690 Y37.981 Z-2.000
G1 X-50.613 Y38.976 Z-2.000
G1 X-50.462 Y39.963 Z-2.000
G1 X-50.236 Y40.936 Z-2.000
G1 X-49.937 Y41.889 Z-2.000
G1 X-49.567 Y42.817 Z-2.000
G1 X-49.128 Y43.714 Z-2.000
G1 X-48.622 Y44.575 Z-2.000
G1 X-48.053 Y45.395 Z-2.000
G1 X-47.424 Y46.170 Z-2.000
G1 X-46.737 Y46.896 Z-2.000
G1 X-45.998 Y47.567 Z-2.000
G1 X-45.210 Y48.181 Z-2.000
G1 X-44.378 Y48.733 Z-2.000
G1 X-43.506 Y49.221 Z-2.000
G1 X-42.600 Y49.641 Z-2.000
G1 X-41.665 Y49.992 Z-2.000
G1 X-40.706 Y50.271 Z-2.000
G1 X-39.729 Y50.477 Z-2.000
G1 X-38.739 Y50.608 Z-2.000
G1 X-37.742 Y50.664 Z-2.000
G1 X-36.744 Y50.645 Z-2.000
G1 X-35.750 Y50.550 Z-2.000
G1 X-34.765 Y50.380 Z-2.000
G1 X-33.797 Y50.136 Z-2.000
G1 X-32.850 Y49.820 Z-2.000
G1 X-31.929 Y49.433 Z-2.000
G1 X-31.040 Y48.978 Z-2.000
G1 X-30.189 Y48.456 Z-2.000
G1 X-29.379 Y47.872 Z-2.000
G1 X-28.615 Y47.228 Z-2.000
G1 X-27.903 Y46.529 Z-2.000
G1 X-27.245 Y45.777 Z-2.000
G1 X-26.646 Y44.978 Z-2.000
G1 X-26.109 Y44.136 Z-2.000
G1 X-25.637 Y43.256 Z-2.000
G1 X-25.234 Y42.342 Z-2.000
G1 X-24.900 Y41.401 Z-2.000
G1 X-24.639 Y40.437 Z-2.000
G1 X-24.451 Y39.456 Z-2.000
G1 X-24.338 Y38.464 Z-2.000
G1 X-24.300 Y37.466 Z-2.000
G1 X-24.300 Y37.436 Z-2.000
(End of step 17.)
G0 Z3.000
G0 X-23.700 Y37.436
(Begin step 18.)
G0 X-23.700 Y37.436
(part 1)
G1 X-23.700 Y37.436 Z-2.000
G1 X-23.738 Y36.441 Z-2.000
G1 X-23.848 Y35.451 Z-2.000
G1 X-24.029 Y34.471 Z-2.000
G1 X-24.280 Y33.507 Z-2.000
G1 X-24.600 Y32.564 Z-2.000
G1 X-24.987 Y31.646 Z-2.000
G1 X-25.440 Y30.759 Z-2.000
G1 X-25.955 Y29.907 Z-2.000
G1 X-26.530 Y29.093 Z-2.000
G1 X-27.163 Y28.324 Z-2.000
G1 X-27.849 Y27.602 Z-2.000
G1 X-28.586 Y26.932 Z-2.000
G1 X-29.369 Y26.316 Z-2.000
G1 X-30.194 Y25.759 Z-2.000
G1 X-31.058 Y25.262 Z-2.000
G1 X-31.955 Y24.829 Z-2.000
G1 X-32.881 Y24.462 Z-2.000
G1 X-33.831 Y24.163 Z-2.000
G1 X-34.800 Y23.933 Z-2.000
G1 X-35.783 Y23.773 Z-2.000
G1 X-36.776 Y23.685 Z-2.000
G1 X-37.772 Y23.669 Z-2.000
G1 X-38.766 Y23.724 Z-2.000
G1 X-39.754 Y23.852 Z-2.000
G1 X-40.730 Y24.050 Z-2.000
G1 X-41.690 Y24.318 Z-2.000
G1 X-42.627 Y24.654 Z-2.000
G1 X-43.538 Y25.057 Z-2.000
G1 X-44.417 Y25.525 Z-2.000
G1 X-45.261 Y26.055 Z-2.000
G1 X-46.064 Y26.645 Z-2.000
G1 X-46.822 Y27.291 Z-2.000
G1 X-47.532 Y27.990 Z-2.000
G1 X-48.189 Y28.738 Z-2.000
G1 X-48.791 Y29.532 Z-2.000
G1 X-49.334 Y30.367 Z-2.000
G1 X-49.815 Y31.239 Z-2.000
G1 X-50.232 Y32.143 Z-2.000
G1 X-50.583 Y33.076 Z-2.000
G1 X-50.866 Y34.031 Z-2.000
G1 X-51.079 Y35.004 Z-2.000
G1 X-51.221 Y35.990 Z-2.000
G1 X-51.292 Y36.983 Z-2.000
G1 X-51.290 Y37.979 Z-2.000
G1 X-51.218 Y38.973 Z-2.000
G1 X-51.073 Y39.958 Z-2.000
G1 X-50.858 Y40.931 Z-2.000
G1 X-50.573 Y41.885 Z-2.000
G1 X-50.220 Y42.817 Z-2.000
G1 X-49.801 Y43.720 Z-2.000
G1 X-49.318 Y44.592 Z-2.000
G1 X-48.773 Y45.425 Z-2.000
G1 X-48.170 Y46.218 Z-2.000
G1 X-47.511 Y46.965 Z-2.000
G1 X-46.800 Y47.662 Z-2.000
G1 X-46.040 Y48.306 Z-2.000
G1 X-45.236 Y48.894 Z-2.000
G1 X-44.391 Y49.422 Z-2.000
G1 X-43.511 Y49.888 Z-2.000
G1 X-42.599 Y50.290 Z-2.000
G1 X-41.661 Y50.624 Z-2.000
G1 X-40.701 Y50.890 Z-2.000
G1 X-39.724 Y51.086 Z-2.000
G1 X-38.736 Y51.211 Z-2.000
G1 X-37.742 Y51.264 Z-2.000
G1 X-36.746 Y51.246 Z-2.000
G1 X-35.754 Y51.155 Z-2.000
G1 X-34.771 Y50.994 Z-2.000
G1 X-33.802 Y50.762 Z-2.000
G1 X-32.853 Y50.460 Z-2.000
G1 X-31.928 Y50.091 Z-2.000
G1 X-31.031 Y49.656 Z-2.000
G1 X-30.169 Y49.158 Z-2.000
G1 X-29.345 Y48.599 Z-2.000
G1 X-28.563 Y47.981 Z-2.000
G1 X-27.828 Y47.309 Z-2.000
G1 X-27.143 Y46.586 Z-2.000
G1 X-26.512 Y45.815 Z-2.000
G1 X-25.938 Y45.001 Z-2.000
G1 X-25.425 Y44.147 Z-2.000
G1 X-24.975 Y43.259 Z-2.000
G1 X-24.589 Y42.340 Z-2.000
G1 X-24.271 Y41.396 Z-2.000
G1 X-24.022 Y40.432 Z-2.000
G1 X-23.844 Y39.452 Z-2.000
G1 X-23.736 Y38.462 Z-2.000
G1 X-23.700 Y37.466 Z-2.000
G1 X-23.700 Y37.436 Z-2.000
(End of step 18.)
G0 Z3.000
G0 X-23.100 Y37.436
(Begin step 19.)
G0 X-23.100 Y37.436
(part 1)
G1 X-23.100 Y37.436 Z-2.000
G1 X-23.136 Y36.443 Z-2.000
G1 X-23.241 Y35.455 Z-2.000
G1 X-23.414 Y34.476 Z-2.000
G1 X-23.654 Y33.512 Z-2.000
G1 X-23.959 Y32.566 Z-2.000
G1 X-24.329 Y31.644 Z-2.000
G1 X-24.762 Y30.750 Z-2.000
G1 X-25.256 Y29.887 Z-2.000
G1 X-25.808 Y29.061 Z-2.000
G1 X-26.415 Y28.274 Z-2.000
G1 X-27.076 Y27.532 Z-2.000
G1 X-27.786 Y26.837 Z-2.000
G1 X-28.542 Y26.192 Z-2.000
G1 X-29.341 Y25.601 Z-2.000
G1 X-30.179 Y25.066 Z-2.000
G1 X-31.051 Y24.591 Z-2.000
G1 X-31.955 Y24.177 Z-2.000
G1 X-32.884 Y23.826 Z-2.000
G1 X-33.836 Y23.540 Z-2.000
G1 X-34.805 Y23.321 Z-2.000
G1 X-35.787 Y23.168 Z-2.000
G1 X-36.777 Y23.084 Z-2.000
G1 X-37.771 Y23.069 Z-2.000
G1 X-38.763 Y23.122 Z-2.000
G1 X-39.750 Y23.243 Z-2.000
G1 X-40.725 Y23.432 Z-2.000
G1 X-41.685 Y23.688 Z-2.000
G1 X-42.626 Y24.009 Z-2.000
G1 X-43.542 Y24.395 Z-2.000
G1 X-44.429 Y24.843 Z-2.000
G1 X-45.283 Y25.351 Z-2.000
G1 X-46.100 Y25.916 Z-2.000
G1 X-46.876 Y26.537 Z-2.000
G1 X-47.607 Y27.210 Z-2.000
G1 X-48.291 Y27.931 Z-2.000
G1 X-48.923 Y28.698 Z-2.000
G1 X-49.500 Y29.507 Z-2.000
G1 X-50.021 Y30.353 Z-2.000
G1 X-50.481 Y31.234 Z-2.000
G1 X-50.880 Y32.144 Z-2.000
G1 X-51.216 Y33.079 Z-2.000
G1 X-51.485 Y34.036 Z-2.000
G1 X-51.689 Y35.009 Z-2.000
G1 X-51.824 Y35.993 Z-2.000
G1 X-51.892 Y36.984 Z-2.000
G1 X-51.891 Y37.978 Z-2.000
G1 X-51.821 Y38.969 Z-2.000
G1 X-51.684 Y39.954 Z-2.000
G1 X-51.478 Y40.926 Z-2.000
G1 X-51.206 Y41.882 Z-2.000
G1 X-50.869 Y42.816 Z-2.000
G1 X-50.468 Y43.726 Z-2.000
G1 X-50.006 Y44.605 Z-2.000
G1 X-49.484 Y45.451 Z-2.000
G1 X-48.904 Y46.258 Z-2.000
G1 X-48.271 Y47.024 Z-2.000
G1 X-47.586 Y47.744 Z-2.000
G1 X-46.853 Y48.415 Z-2.000
G1 X-46.076 Y49.034 Z-2.000
G1 X-45.258 Y49.598 Z-2.000
G1 X-44.402 Y50.104 Z-2.000
G1 X-43.514 Y50.550 Z-2.000
G1 X-42.598 Y50.934 Z-2.000
G1 X-41.657 Y51.253 Z-2.000
G1 X-40.696 Y51.507 Z-2.000
G1 X-39.720 Y51.694 Z-2.000
G1 X-38.733 Y51.813 Z-2.000
G1 X-37.741 Y51.864 Z-2.000
G1 X-36.747 Y51.847 Z-2.000
G1 X-35.757 Y51.760 Z-2.000
G1 X-34.776 Y51.606 Z-2.000
G1 X-33.807 Y51.385 Z-2.000
G1 X-32.856 Y51.097 Z-2.000
G1 X-31.927 Y50.744 Z-2.000
G1 X-31.024 Y50.328 Z-2.000
G1 X-30.153 Y49.851 Z-2.000
G1 X-29.316 Y49.315 Z-2.000
G1 X-28.518 Y48.722 Z-2.000
G1 X-27.763 Y48.076 Z-2.000
G1 X-27.055 Y47.379 Z-2.000
G1 X-26.396 Y46.635 Z-2.000
G1 X-25.790 Y45.847 Z-2.000
G1 X-25.240 Y45.020 Z-2.000
G1 X-24.748 Y44.156 Z-2.000
G1 X-24.317 Y43.261 Z-2.000
G1 X-23.949 Y42.338 Z-2.000
G1 X-23.645 Y41.392 Z-2.000
G1 X-23.408 Y40.427 Z-2.000
G1 X-23.237 Y39.448 Z-2.000
G1 X-23.134 Y38.459 Z-2.000
G1 X-23.100 Y37.466 Z-2.000
G1 X-23.100 Y37.436 Z-2.000
(End of step 19.)
G0 Z3.000
G0 X-22.500 Y37.436
(Begin step 20.)
G0 X-22.500 Y37.436
(part 1)
G1 X-22.500 Y37.436 Z-2.000
G1 X-22.535 Y36.445 Z-2.000
G1 X-22.635 Y35.459 Z-2.000
G1 X-22.800 Y34.481 Z-2.000
G1 X-23.029 Y33.516 Z-2.000
G1 X-23.322 Y32.569 Z-2.000
G1 X-23.677 Y31.643 Z-2.000
G1 X-24.091 Y30.742 Z-2.000
G1 X-24.565 Y29.871 Z-2.000
G1 X-25.095 Y29.033 Z-2.000
G1 X-25.679 Y28.232 Z-2.000
G1 X-26.315 Y27.471 Z-2.000
G1 X-27.000 Y26.754 Z-2.000
G1 X-27.731 Y26.084 Z-2.000
G1 X-28.504 Y25.463 Z-2.000
G1 X-29.317 Y24.895 Z-2.000
G1 X-30.165 Y24.382 Z-2.000
G1 X-31.046 Y23.926 Z-2.000
G1 X-31.955 Y23.529 Z-2.000
G1 X-32.888 Y23.193 Z-2.000
G1 X-33.841 Y22.919 Z-2.000
G1 X-34.810 Y22.709 Z-2.000
G1 X-35.791 Y22.564 Z-2.000
G1 X-36.779 Y22.484 Z-2.000
G1 X-37.770 Y22.469 Z-2.000
G1 X-38.761 Y22.519 Z-2.000
G1 X-39.746 Y22.635 Z-2.000
G1 X-40.720 Y22.816 Z-2.000
G1 X-41.681 Y23.061 Z-2.000
G1 X-42.624 Y23.369 Z-2.000
G1 X-43.544 Y23.738 Z-2.000
G1 X-44.438 Y24.167 Z-2.000
G1 X-45.302 Y24.655 Z-2.000
G1 X-46.131 Y25.198 Z-2.000
G1 X-46.923 Y25.795 Z-2.000
G1 X-47.673 Y26.443 Z-2.000
G1 X-48.379 Y27.139 Z-2.000
G1 X-49.038 Y27.881 Z-2.000
G1 X-49.646 Y28.664 Z-2.000
G1 X-50.201 Y29.486 Z-2.000
G1 X-50.700 Y30.342 Z-2.000
G1 X-51.142 Y31.230 Z-2.000
G1 X-51.524 Y32.145 Z-2.000
G1 X-51.845 Y33.083 Z-2.000
G1 X-52.104 Y34.041 Z-2.000
G1 X-52.298 Y35.013 Z-2.000
G1 X-52.428 Y35.996 Z-2.000
G1 X-52.492 Y36.985 Z-2.000
G1 X-52.491 Y37.977 Z-2.000
G1 X-52.425 Y38.966 Z-2.000
G1 X-52.293 Y39.949 Z-2.000
G1 X-52.097 Y40.921 Z-2.000
G1 X-51.837 Y41.878 Z-2.000
G1 X-51.514 Y42.816 Z-2.000
G1 X-51.130 Y43.730 Z-2.000
G1 X-50.686 Y44.617 Z-2.000
G1 X-50.185 Y45.472 Z-2.000
G1 X-49.628 Y46.293 Z-2.000
G1 X-49.019 Y47.075 Z-2.000
G1 X-48.359 Y47.815 Z-2.000
G1 X-47.651 Y48.510 Z-2.000
G1 X-46.899 Y49.156 Z-2.000
G1 X-46.106 Y49.752 Z-2.000
G1 X-45.276 Y50.293 Z-2.000
G1 X-44.411 Y50.779 Z-2.000
G1 X-43.517 Y51.207 Z-2.000
G1 X-42.596 Y51.574 Z-2.000
G1 X-41.653 Y51.880 Z-2.000
G1 X-40.691 Y52.123 Z-2.000
G1 X-39.716 Y52.302 Z-2.000
G1 X-38.731 Y52.416 Z-2.000
G1 X-37.740 Y52.464 Z-2.000
G1 X-36.749 Y52.447 Z-2.000
G1 X-35.761 Y52.365 Z-2.000
G1 X-34.780 Y52.218 Z-2.000
G1 X-33.812 Y52.006 Z-2.000
G1 X-32.859 Y51.730 Z-2.000
G1 X-31.927 Y51.392 Z-2.000
G1 X-31.019 Y50.994 Z-2.000
G1 X-30.139 Y50.536 Z-2.000
G1 X-29.292 Y50.021 Z-2.000
G1 X-28.480 Y49.451 Z-2.000
G1 X-27.708 Y48.829 Z-2.000
G1 X-26.979 Y48.158 Z-2.000
G1 X-26.295 Y47.439 Z-2.000
G1 X-25.661 Y46.677 Z-2.000
G1 X-25.078 Y45.875 Z-2.000
G1 X-24.550 Y45.036 Z-2.000
G1 X-24.078 Y44.163 Z-2.000
G1 X-23.665 Y43.262 Z-2.000
G1 X-23.312 Y42.335 Z-2.000
G1 X-23.022 Y41.387 Z-2.000
G1 X-22.794 Y40.422 Z-2.000
G1 X-22.631 Y39.444 Z-2.000
G1 X-22.533 Y38.457 Z-2.000
G1 X-22.500 Y37.466 Z-2.000
G1 X-22.500 Y37.436 Z-2.000
(End of step 20.)
G0 Z3.000
G0 X-21.900 Y37.436
(Begin step 21.)
G0 X-21.900 Y37.436
(part 1)
G1 X-21.900 Y37.436 Z-2.000
G1 X-21.934 Y36.437 Z-2.000
G1 X-22.032 Y35.442 Z-2.000
G1 X-22.193 Y34.456 Z-2.000
G1 X-22.418 Y33.481 Z-2.000
G1 X-22.704 Y32.524 Z-2.000
G1 X-23.051 Y31.586 Z-2.000
G1 X-23.457 Y30.673 Z-2.000
G1 X-23.921 Y29.787 Z-2.000
G1 X-24.441 Y28.933 Z-2.000
G1 X-25.014 Y28.114 Z-2.000
G1 X-25.639 Y27.334 Z-2.000
G1 X-26.312 Y26.595 Z-2.000
G1 X-27.031 Y25.900 Z-2.000
G1 X-27.794 Y25.254 Z-2.000
G1 X-28.596 Y24.657 Z-2.000
G1 X-29.435 Y24.113 Z-2.000
G1 X-30.306 Y23.624 Z-2.000
G1 X-31.208 Y23.192 Z-2.000
G1 X-32.135 Y22.818 Z-2.000
G1 X-33.084 Y22.504 Z-2.000
G1 X-34.052 Y22.252 Z-2.000
G1 X-35.033 Y22.063 Z-2.000
G1 X-36.025 Y21.936 Z-2.000
G1 X-37.023 Y21.874 Z-2.000
G1 X-38.022 Y21.875 Z-2.000
G1 X-39.020 Y21.940 Z-2.000
G1 X-40.011 Y22.070 Z-2.000
G1 X-40.992 Y22.262 Z-2.000
G1 X-41.959 Y22.517 Z-2.000
G1 X-42.907 Y22.833 Z-2.000
G1 X-43.833 Y23.210 Z-2.000
G1 X-44.734 Y23.645 Z-2.000
G1 X-45.604 Y24.136 Z-2.000
G1 X-46.441 Y24.683 Z-2.000
G1 X-47.242 Y25.282 Z-2.000
G1 X-48.002 Y25.931 Z-2.000
G1 X-48.719 Y26.627 Z-2.000
G1 X-49.390 Y27.368 Z-2.000
G1 X-50.013 Y28.150 Z-2.000
G1 X-50.584 Y28.971 Z-2.000
G1 X-51.101 Y29.826 Z-2.000
G1 X-51.563 Y30.713 Z-2.000
G1 X-51.966 Y31.628 Z-2.000
G1 X-52.310 Y32.566 Z-2.000
G1 X-52.594 Y33.525 Z-2.000
G1 X-52.815 Y34.500 Z-2.000
G1 X-52.974 Y35.487 Z-2.000
G1 X-53.069 Y36.482 Z-2.000
G1 X-53.100 Y37.481 Z-2.000
G1 X-53.067 Y38.480 Z-2.000
G1 X-52.970 Y39.475 Z-2.000
G1 X-52.810 Y40.462 Z-2.000
G1 X-52.586 Y41.437 Z-2.000
G1 X-52.301 Y42.395 Z-2.000
G1 X-51.955 Y43.333 Z-2.000
G1 X-51.550 Y44.246 Z-2.000
G1 X-51.086 Y45.132 Z-2.000
G1 X-50.567 Y45.987 Z-2.000
G1 X-49.995 Y46.806 Z-2.000
G1 X-49.371 Y47.587 Z-2.000
G1 X-48.698 Y48.327 Z-2.000
G1 X-47.980 Y49.022 Z-2.000
G1 X-47.218 Y49.670 Z-2.000
G1 X-46.416 Y50.267 Z-2.000
G1 X-45.578 Y50.812 Z-2.000
G1 X-44.707 Y51.302 Z-2.000
G1 X-43.806 Y51.735 Z-2.000
G1 X-42.879 Y52.110 Z-2.000
G1 X-41.930 Y52.424 Z-2.000
G1 X-40.963 Y52.677 Z-2.000
G1 X-39.982 Y52.868 Z-2.000
G1 X-38.990 Y52.995 Z-2.000
G1 X-37.992 Y53.058 Z-2.000
G1 X-36.993 Y53.058 Z-2.000
G1 X-35.995 Y52.993 Z-2.000
G1 X-35.004 Y52.865 Z-2.000
G1 X-34.022 Y52.674 Z-2.000
G1 X-33.056 Y52.420 Z-2.000
G1 X-32.107 Y52.104 Z-2.000
G1 X-31.180 Y51.729 Z-2.000
G1 X-30.280 Y51.295 Z-2.000
G1 X-29.409 Y50.804 Z-2.000
G1 X-28.571 Y50.258 Z-2.000
G1 X-27.770 Y49.660 Z-2.000
G1 X-27.009 Y49.012 Z-2.000
G1 X-26.291 Y48.316 Z-2.000
G1 X-25.619 Y47.576 Z-2.000
G1 X-24.996 Y46.794 Z-2.000
G1 X-24.424 Y45.974 Z-2.000
G1 X-23.906 Y45.119 Z-2.000
G1 X-23.444 Y44.233 Z-2.000
G1 X-23.039 Y43.319 Z-2.000
G1 X-22.694 Y42.380 Z-2.000
G1 X-22.410 Y41.422 Z-2.000
G1 X-22.188 Y40.447 Z-2.000
G1 X-22.028 Y39.461 Z-2.000
G1 X-21.932 Y38.465 Z-2.000
G1 X-21.900 Y37.466 Z-2.000
G1 X-21.900 Y37.436 Z-2.000
(End of step 21.)
G0 Z3.000
G0 X-21.300 Y37.436
(Begin step 22.)
G0 X-21.300 Y37.436
(part 1)
G1 X-21.300 Y37.436 Z-2.000
G1 X-21.333 Y36.439 Z-2.000
G1 X-21.426 Y35.446 Z-2.000
G1 X-21.581 Y34.461 Z-2.000
G1 X-21.796 Y33.487 Z-2.000
G1 X-22.071 Y32.528 Z-2.000
G1 X-22.404 Y31.588 Z-2.000
G1 X-22.795 Y30.670 Z-2.000
G1 X-23.241 Y29.778 Z-2.000
G1 X-23.741 Y28.915 Z-2.000
G1 X-24.293 Y28.084 Z-2.000
G1 X-24.896 Y27.289 Z-2.000
G1 X-25.546 Y26.533 Z-2.000
G1 X-26.241 Y25.818 Z-2.000
G1 X-26.980 Y25.147 Z-2.000
G1 X-27.758 Y24.523 Z-2.000
G1 X-28.573 Y23.948 Z-2.000
G1 X-29.422 Y23.424 Z-2.000
G1 X-30.301 Y22.954 Z-2.000
G1 X-31.208 Y22.538 Z-2.000
G1 X-32.139 Y22.179 Z-2.000
G1 X-33.090 Y21.878 Z-2.000
G1 X-34.057 Y21.636 Z-2.000
G1 X-35.038 Y21.454 Z-2.000
G1 X-36.028 Y21.333 Z-2.000
G1 X-37.024 Y21.273 Z-2.000
G1 X-38.021 Y21.275 Z-2.000
G1 X-39.017 Y21.337 Z-2.000
G1 X-40.006 Y21.461 Z-2.000
G1 X-40.987 Y21.646 Z-2.000
G1 X-41.954 Y21.890 Z-2.000
G1 X-42.904 Y22.194 Z-2.000
G1 X-43.833 Y22.556 Z-2.000
G1 X-44.739 Y22.974 Z-2.000
G1 X-45.617 Y23.447 Z-2.000
G1 X-46.465 Y23.973 Z-2.000
G1 X-47.278 Y24.550 Z-2.000
G1 X-48.055 Y25.176 Z-2.000
G1 X-48.791 Y25.849 Z-2.000
G1 X-49.484 Y26.566 Z-2.000
G1 X-50.133 Y27.324 Z-2.000
G1 X-50.733 Y28.121 Z-2.000
G1 X-51.283 Y28.953 Z-2.000
G1 X-51.781 Y29.817 Z-2.000
G1 X-52.224 Y30.711 Z-2.000
G1 X-52.612 Y31.630 Z-2.000
G1 X-52.943 Y32.571 Z-2.000
G1 X-53.215 Y33.531 Z-2.000
G1 X-53.427 Y34.505 Z-2.000
G1 X-53.579 Y35.491 Z-2.000
G1 X-53.670 Y36.484 Z-2.000
G1 X-53.700 Y37.481 Z-2.000
G1 X-53.668 Y38.478 Z-2.000
G1 X-53.575 Y39.471 Z-2.000
G1 X-53.422 Y40.457 Z-2.000
G1 X-53.207 Y41.431 Z-2.000
G1 X-52.934 Y42.390 Z-2.000
G1 X-52.601 Y43.331 Z-2.000
G1 X-52.212 Y44.249 Z-2.000
G1 X-51.766 Y45.142 Z-2.000
G1 X-51.267 Y46.005 Z-2.000
G1 X-50.715 Y46.836 Z-2.000
G1 X-50.114 Y47.632 Z-2.000
G1 X-49.464 Y48.389 Z-2.000
G1 X-48.769 Y49.104 Z-2.000
G1 X-48.032 Y49.776 Z-2.000
G1 X-47.254 Y50.401 Z-2.000
G1 X-46.440 Y50.976 Z-2.000
G1 X-45.591 Y51.501 Z-2.000
G1 X-44.712 Y51.972 Z-2.000
G1 X-43.806 Y52.389 Z-2.000
G1 X-42.876 Y52.748 Z-2.000
G1 X-41.925 Y53.050 Z-2.000
G1 X-40.957 Y53.293 Z-2.000
G1 X-39.977 Y53.476 Z-2.000
G1 X-38.987 Y53.598 Z-2.000
G1 X-37.991 Y53.659 Z-2.000
G1 X-36.994 Y53.658 Z-2.000
G1 X-35.998 Y53.597 Z-2.000
G1 X-35.008 Y53.474 Z-2.000
G1 X-34.028 Y53.290 Z-2.000
G1 X-33.061 Y53.046 Z-2.000
G1 X-32.110 Y52.743 Z-2.000
G1 X-31.180 Y52.383 Z-2.000
G1 X-30.274 Y51.966 Z-2.000
G1 X-29.396 Y51.493 Z-2.000
G1 X-28.548 Y50.968 Z-2.000
G1 X-27.734 Y50.391 Z-2.000
G1 X-26.957 Y49.766 Z-2.000
G1 X-26.220 Y49.094 Z-2.000
G1 X-25.526 Y48.378 Z-2.000
G1 X-24.877 Y47.620 Z-2.000
G1 X-24.276 Y46.824 Z-2.000
G1 X-23.725 Y45.992 Z-2.000
G1 X-23.226 Y45.128 Z-2.000
G1 X-22.782 Y44.235 Z-2.000
G1 X-22.393 Y43.317 Z-2.000
G1 X-22.062 Y42.376 Z-2.000
G1 X-21.789 Y41.417 Z-2.000
G1 X-21.576 Y40.442 Z-2.000
G1 X-21.423 Y39.456 Z-2.000
G1 X-21.331 Y38.463 Z-2.000
G1 X-21.300 Y37.466 Z-2.000
G1 X-21.300 Y37.436 Z-2.000
(End of step 22.)
G0 Z3.000
G0 X-20.700 Y37.436
(Begin step 23.)
G0 X-20.700 Y37.436
(part 1)
G1 X-20.700 Y37.436 Z-2.000
G1 X-20.731 Y36.441 Z-2.000
G1 X-20.821 Y35.450 Z-2.000
G1 X-20.970 Y34.466 Z-2.000
G1 X-21.177 Y33.492 Z-2.000
G1 X-21.441 Y32.532 Z-2.000
G1 X-21.761 Y31.590 Z-2.000
G1 X-22.137 Y30.668 Z-2.000
G1 X-22.566 Y29.770 Z-2.000
G1 X-23.048 Y28.899 Z-2.000
G1 X-23.581 Y28.058 Z-2.000
G1 X-24.163 Y27.251 Z-2.000
G1 X-24.791 Y26.479 Z-2.000
G1 X-25.464 Y25.745 Z-2.000
G1 X-26.180 Y25.053 Z-2.000
G1 X-26.935 Y24.404 Z-2.000
G1 X-27.727 Y23.802 Z-2.000
G1 X-28.553 Y23.247 Z-2.000
G1 X-29.411 Y22.742 Z-2.000
G1 X-30.297 Y22.289 Z-2.000
G1 X-31.209 Y21.889 Z-2.000
G1 X-32.142 Y21.543 Z-2.000
G1 X-33.095 Y21.254 Z-2.000
G1 X-34.063 Y21.022 Z-2.000
G1 X-35.042 Y20.847 Z-2.000
G1 X-36.031 Y20.731 Z-2.000
G1 X-37.025 Y20.673 Z-2.000
G1 X-38.020 Y20.674 Z-2.000
G1 X-39.014 Y20.735 Z-2.000
G1 X-40.002 Y20.854 Z-2.000
G1 X-40.981 Y21.031 Z-2.000
G1 X-41.949 Y21.266 Z-2.000
G1 X-42.900 Y21.558 Z-2.000
G1 X-43.833 Y21.906 Z-2.000
G1 X-44.743 Y22.308 Z-2.000
G1 X-45.629 Y22.764 Z-2.000
G1 X-46.485 Y23.271 Z-2.000
G1 X-47.310 Y23.828 Z-2.000
G1 X-48.100 Y24.433 Z-2.000
G1 X-48.854 Y25.083 Z-2.000
G1 X-49.567 Y25.778 Z-2.000
G1 X-50.238 Y26.513 Z-2.000
G1 X-50.865 Y27.286 Z-2.000
G1 X-51.444 Y28.096 Z-2.000
G1 X-51.974 Y28.938 Z-2.000
G1 X-52.454 Y29.810 Z-2.000
G1 X-52.881 Y30.709 Z-2.000
G1 X-53.254 Y31.632 Z-2.000
G1 X-53.572 Y32.575 Z-2.000
G1 X-53.834 Y33.536 Z-2.000
G1 X-54.038 Y34.510 Z-2.000
G1 X-54.184 Y35.495 Z-2.000
G1 X-54.271 Y36.486 Z-2.000
G1 X-54.300 Y37.481 Z-2.000
G1 X-54.270 Y38.476 Z-2.000
G1 X-54.180 Y39.468 Z-2.000
G1 X-54.033 Y40.452 Z-2.000
G1 X-53.827 Y41.426 Z-2.000
G1 X-53.564 Y42.386 Z-2.000
G1 X-53.244 Y43.329 Z-2.000
G1 X-52.869 Y44.251 Z-2.000
G1 X-52.440 Y45.149 Z-2.000
G1 X-51.959 Y46.020 Z-2.000
G1 X-51.427 Y46.862 Z-2.000
G1 X-50.846 Y47.670 Z-2.000
G1 X-50.219 Y48.442 Z-2.000
G1 X-49.546 Y49.176 Z-2.000
G1 X-48.832 Y49.869 Z-2.000
G1 X-48.077 Y50.519 Z-2.000
G1 X-47.286 Y51.122 Z-2.000
G1 X-46.460 Y51.678 Z-2.000
G1 X-45.602 Y52.183 Z-2.000
G1 X-44.716 Y52.637 Z-2.000
G1 X-43.805 Y53.038 Z-2.000
G1 X-42.872 Y53.384 Z-2.000
G1 X-41.920 Y53.674 Z-2.000
G1 X-40.952 Y53.908 Z-2.000
G1 X-39.972 Y54.083 Z-2.000
G1 X-38.984 Y54.201 Z-2.000
G1 X-37.990 Y54.259 Z-2.000
G1 X-36.995 Y54.259 Z-2.000
G1 X-36.001 Y54.199 Z-2.000
G1 X-35.013 Y54.081 Z-2.000
G1 X-34.033 Y53.905 Z-2.000
G1 X-33.066 Y53.670 Z-2.000
G1 X-32.114 Y53.379 Z-2.000
G1 X-31.181 Y53.033 Z-2.000
G1 X-30.270 Y52.631 Z-2.000
G1 X-29.385 Y52.176 Z-2.000
G1 X-28.528 Y51.670 Z-2.000
G1 X-27.702 Y51.113 Z-2.000
G1 X-26.911 Y50.509 Z-2.000
G1 X-26.157 Y49.859 Z-2.000
G1 X-25.443 Y49.166 Z-2.000
G1 X-24.772 Y48.431 Z-2.000
G1 X-24.145 Y47.658 Z-2.000
G1 X-23.564 Y46.849 Z-2.000
G1 X-23.033 Y46.007 Z-2.000
G1 X-22.553 Y45.136 Z-2.000
G1 X-22.125 Y44.237 Z-2.000
G1 X-21.751 Y43.314 Z-2.000
G1 X-21.432 Y42.371 Z-2.000
G1 X-21.170 Y41.411 Z-2.000
G1 X-20.965 Y40.437 Z-2.000
G1 X-20.818 Y39.453 Z-2.000
G1 X-20.729 Y38.461 Z-2.000
G1 X-20.700 Y37.466 Z-2.000
G1 X-20.700 Y37.436 Z-2.000
(End of step 23.)
G0 Z3.000
G0 X-20.100 Y37.436
(Begin step 24.)
G0 X-20.100 Y37.436
(part 1)
G1 X-20.100 Y37.436 Z-2.000
G1 X-20.130 Y36.443 Z-2.000
G1 X-20.217 Y35.454 Z-2.000
G1 X-20.360 Y34.470 Z-2.000
G1 X-20.559 Y33.497 Z-2.000
G1 X-20.813 Y32.537 Z-2.000
G1 X-21.121 Y31.592 Z-2.000
G1 X-21.483 Y30.667 Z-2.000
G1 X-21.898 Y29.764 Z-2.000
G1 X-22.363 Y28.886 Z-2.000
G1 X-22.877 Y28.036 Z-2.000
G1 X-23.439 Y27.217 Z-2.000
G1 X-24.047 Y26.431 Z-2.000
G1 X-24.699 Y25.681 Z-2.000
G1 X-25.392 Y24.970 Z-2.000
G1 X-26.125 Y24.299 Z-2.000
G1 X-26.895 Y23.672 Z-2.000
G1 X-27.700 Y23.089 Z-2.000
G1 X-28.536 Y22.553 Z-2.000
G1 X-29.402 Y22.066 Z-2.000
G1 X-30.294 Y21.628 Z-2.000
G1 X-31.210 Y21.243 Z-2.000
G1 X-32.146 Y20.910 Z-2.000
G1 X-33.100 Y20.632 Z-2.000
G1 X-34.068 Y20.408 Z-2.000
G1 X-35.047 Y20.240 Z-2.000
G1 X-36.034 Y20.128 Z-2.000
G1 X-37.026 Y20.073 Z-2.000
G1 X-38.019 Y20.074 Z-2.000
G1 X-39.011 Y20.132 Z-2.000
G1 X-39.998 Y20.246 Z-2.000
G1 X-40.977 Y20.417 Z-2.000
G1 X-41.944 Y20.643 Z-2.000
G1 X-42.897 Y20.924 Z-2.000
G1 X-43.832 Y21.259 Z-2.000
G1 X-44.747 Y21.647 Z-2.000
G1 X-45.638 Y22.087 Z-2.000
G1 X-46.502 Y22.576 Z-2.000
G1 X-47.338 Y23.114 Z-2.000
G1 X-48.141 Y23.699 Z-2.000
G1 X-48.909 Y24.329 Z-2.000
G1 X-49.640 Y25.001 Z-2.000
G1 X-50.332 Y25.714 Z-2.000
G1 X-50.982 Y26.466 Z-2.000
G1 X-51.587 Y27.253 Z-2.000
G1 X-52.147 Y28.074 Z-2.000
G1 X-52.660 Y28.925 Z-2.000
G1 X-53.122 Y29.804 Z-2.000
G1 X-53.534 Y30.709 Z-2.000
G1 X-53.894 Y31.635 Z-2.000
G1 X-54.200 Y32.580 Z-2.000
G1 X-54.451 Y33.541 Z-2.000
G1 X-54.648 Y34.515 Z-2.000
G1 X-54.788 Y35.498 Z-2.000
G1 X-54.872 Y36.488 Z-2.000
G1 X-54.900 Y37.481 Z-2.000
G1 X-54.871 Y38.474 Z-2.000
G1 X-54.785 Y39.464 Z-2.000
G1 X-54.643 Y40.447 Z-2.000
G1 X-54.445 Y41.421 Z-2.000
G1 X-54.191 Y42.381 Z-2.000
G1 X-53.884 Y43.326 Z-2.000
G1 X-53.522 Y44.252 Z-2.000
G1 X-53.109 Y45.155 Z-2.000
G1 X-52.645 Y46.033 Z-2.000
G1 X-52.131 Y46.884 Z-2.000
G1 X-51.570 Y47.703 Z-2.000
G1 X-50.963 Y48.490 Z-2.000
G1 X-50.312 Y49.240 Z-2.000
G1 X-49.619 Y49.952 Z-2.000
G1 X-48.886 Y50.623 Z-2.000
G1 X-48.117 Y51.252 Z-2.000
G1 X-47.313 Y51.835 Z-2.000
G1 X-46.477 Y52.372 Z-2.000
G1 X-45.611 Y52.860 Z-2.000
G1 X-44.720 Y53.298 Z-2.000
G1 X-43.804 Y53.684 Z-2.000
G1 X-42.868 Y54.017 Z-2.000
G1 X-41.915 Y54.297 Z-2.000
G1 X-40.947 Y54.521 Z-2.000
G1 X-39.968 Y54.690 Z-2.000
G1 X-38.981 Y54.803 Z-2.000
G1 X-37.989 Y54.859 Z-2.000
G1 X-36.996 Y54.859 Z-2.000
G1 X-36.004 Y54.802 Z-2.000
G1 X-35.017 Y54.688 Z-2.000
G1 X-34.038 Y54.518 Z-2.000
G1 X-33.071 Y54.293 Z-2.000
G1 X-32.117 Y54.013 Z-2.000
G1 X-31.182 Y53.679 Z-2.000
G1 X-30.267 Y53.292 Z-2.000
G1 X-29.375 Y52.853 Z-2.000
G1 X-28.510 Y52.364 Z-2.000
G1 X-27.675 Y51.827 Z-2.000
G1 X-26.871 Y51.243 Z-2.000
G1 X-26.102 Y50.614 Z-2.000
G1 X-25.371 Y49.942 Z-2.000
G1 X-24.678 Y49.229 Z-2.000
G1 X-24.028 Y48.478 Z-2.000
G1 X-23.421 Y47.691 Z-2.000
G1 X-22.861 Y46.871 Z-2.000
G1 X-22.348 Y46.020 Z-2.000
G1 X-21.884 Y45.142 Z-2.000
G1 X-21.472 Y44.238 Z-2.000
G1 X-21.111 Y43.312 Z-2.000
G1 X-20.804 Y42.367 Z-2.000
G1 X-20.552 Y41.406 Z-2.000
G1 X-20.355 Y40.433 Z-2.000
G1 X-20.213 Y39.449 Z-2.000
G1 X-20.128 Y38.459 Z-2.000
G1 X-20.100 Y37.466 Z-2.000
G1 X-20.100 Y37.436 Z-2.000
(End of step 24.)
G0 Z3.000
G0 X-19.500 Y37.436
(Begin step 25.)
G0 X-19.500 Y37.436
(part 1)
G1 X-19.500 Y37.436 Z-2.000
G1 X-19.529 Y36.445 Z-2.000
G1 X-19.613 Y35.457 Z-2.000
G1 X-19.750 Y34.475 Z-2.000
G1 X-19.942 Y33.502 Z-2.000
G1 X-20.187 Y32.541 Z-2.000
G1 X-20.485 Y31.595 Z-2.000
G1 X-20.834 Y30.667 Z-2.000
G1 X-21.233 Y29.759 Z-2.000
G1 X-21.683 Y28.875 Z-2.000
G1 X-22.180 Y28.017 Z-2.000
G1 X-22.723 Y27.187 Z-2.000
G1 X-23.312 Y26.389 Z-2.000
G1 X-23.944 Y25.625 Z-2.000
G1 X-24.616 Y24.896 Z-2.000
G1 X-25.328 Y24.206 Z-2.000
G1 X-26.077 Y23.555 Z-2.000
G1 X-26.860 Y22.947 Z-2.000
G1 X-27.676 Y22.383 Z-2.000
G1 X-28.522 Y21.865 Z-2.000
G1 X-29.394 Y21.395 Z-2.000
G1 X-30.292 Y20.973 Z-2.000
G1 X-31.211 Y20.601 Z-2.000
G1 X-32.150 Y20.280 Z-2.000
G1 X-33.104 Y20.011 Z-2.000
G1 X-34.072 Y19.796 Z-2.000
G1 X-35.051 Y19.634 Z-2.000
G1 X-36.036 Y19.526 Z-2.000
G1 X-37.027 Y19.472 Z-2.000
G1 X-38.018 Y19.474 Z-2.000
G1 X-39.008 Y19.530 Z-2.000
G1 X-39.994 Y19.640 Z-2.000
G1 X-40.972 Y19.804 Z-2.000
G1 X-41.939 Y20.022 Z-2.000
G1 X-42.893 Y20.293 Z-2.000
G1 X-43.831 Y20.616 Z-2.000
G1 X-44.749 Y20.991 Z-2.000
G1 X-45.646 Y21.415 Z-2.000
G1 X-46.517 Y21.888 Z-2.000
G1 X-47.362 Y22.408 Z-2.000
G1 X-48.176 Y22.974 Z-2.000
G1 X-48.958 Y23.584 Z-2.000
G1 X-49.705 Y24.236 Z-2.000
G1 X-50.415 Y24.928 Z-2.000
G1 X-51.086 Y25.659 Z-2.000
G1 X-51.716 Y26.425 Z-2.000
G1 X-52.302 Y27.224 Z-2.000
G1 X-52.844 Y28.055 Z-2.000
G1 X-53.339 Y28.914 Z-2.000
G1 X-53.786 Y29.800 Z-2.000
G1 X-54.183 Y30.708 Z-2.000
G1 X-54.530 Y31.637 Z-2.000
G1 X-54.825 Y32.584 Z-2.000
G1 X-55.068 Y33.546 Z-2.000
G1 X-55.257 Y34.519 Z-2.000
G1 X-55.392 Y35.502 Z-2.000
G1 X-55.474 Y36.490 Z-2.000
G1 X-55.500 Y37.481 Z-2.000
G1 X-55.472 Y38.473 Z-2.000
G1 X-55.389 Y39.461 Z-2.000
G1 X-55.252 Y40.443 Z-2.000
G1 X-55.061 Y41.416 Z-2.000
G1 X-54.817 Y42.377 Z-2.000
G1 X-54.520 Y43.324 Z-2.000
G1 X-54.172 Y44.252 Z-2.000
G1 X-53.773 Y45.160 Z-2.000
G1 X-53.325 Y46.044 Z-2.000
G1 X-52.828 Y46.903 Z-2.000
G1 X-52.285 Y47.733 Z-2.000
G1 X-51.697 Y48.531 Z-2.000
G1 X-51.066 Y49.297 Z-2.000
G1 X-50.394 Y50.026 Z-2.000
G1 X-49.683 Y50.717 Z-2.000
G1 X-48.935 Y51.368 Z-2.000
G1 X-48.152 Y51.976 Z-2.000
G1 X-47.336 Y52.541 Z-2.000
G1 X-46.491 Y53.060 Z-2.000
G1 X-45.619 Y53.531 Z-2.000
G1 X-44.722 Y53.954 Z-2.000
G1 X-43.803 Y54.327 Z-2.000
G1 X-42.865 Y54.648 Z-2.000
G1 X-41.910 Y54.918 Z-2.000
G1 X-40.943 Y55.134 Z-2.000
G1 X-39.964 Y55.297 Z-2.000
G1 X-38.979 Y55.405 Z-2.000
G1 X-37.988 Y55.460 Z-2.000
G1 X-36.997 Y55.459 Z-2.000
G1 X-36.006 Y55.404 Z-2.000
G1 X-35.021 Y55.295 Z-2.000
G1 X-34.043 Y55.131 Z-2.000
G1 X-33.075 Y54.914 Z-2.000
G1 X-32.121 Y54.644 Z-2.000
G1 X-31.183 Y54.321 Z-2.000
G1 X-30.264 Y53.948 Z-2.000
G1 X-29.368 Y53.524 Z-2.000
G1 X-28.496 Y53.052 Z-2.000
G1 X-27.651 Y52.533 Z-2.000
G1 X-26.836 Y51.967 Z-2.000
G1 X-26.054 Y51.358 Z-2.000
G1 X-25.306 Y50.707 Z-2.000
G1 X-24.595 Y50.015 Z-2.000
G1 X-23.924 Y49.285 Z-2.000
G1 X-23.294 Y48.520 Z-2.000
G1 X-22.706 Y47.720 Z-2.000
G1 X-22.164 Y46.890 Z-2.000
G1 X-21.668 Y46.031 Z-2.000
G1 X-21.221 Y45.146 Z-2.000
G1 X-20.822 Y44.238 Z-2.000
G1 X-20.475 Y43.309 Z-2.000
G1 X-20.179 Y42.363 Z-2.000
G1 X-19.935 Y41.401 Z-2.000
G1 X-19.745 Y40.428 Z-2.000
G1 X-19.609 Y39.446 Z-2.000
G1 X-19.527 Y38.458 Z-2.000
G1 X-19.500 Y37.466 Z-2.000
G1 X-19.500 Y37.436 Z-2.000
(End of step 25.)
G0 Z3.000
G0 X-18.900 Y37.436
(Begin step 26.)
G0 X-18.900 Y37.436
(part 1)
G1 X-18.900 Y37.436 Z-2.000
G1 X-18.928 Y36.438 Z-2.000
G1 X-19.010 Y35.443 Z-2.000
G1 X-19.146 Y34.454 Z-2.000
G1 X-19.334 Y33.473 Z-2.000
G1 X-19.574 Y32.504 Z-2.000
G1 X-19.866 Y31.549 Z-2.000
G1 X-20.209 Y30.611 Z-2.000
G1 X-20.602 Y29.693 Z-2.000
G1 X-21.043 Y28.798 Z-2.000
G1 X-21.532 Y27.927 Z-2.000
G1 X-22.067 Y27.084 Z-2.000
G1 X-22.647 Y26.271 Z-2.000
G1 X-23.269 Y25.490 Z-2.000
G1 X-23.932 Y24.744 Z-2.000
G1 X-24.634 Y24.034 Z-2.000
G1 X-25.374 Y23.363 Z-2.000
G1 X-26.148 Y22.732 Z-2.000
G1 X-26.955 Y22.144 Z-2.000
G1 X-27.792 Y21.601 Z-2.000
G1 X-28.658 Y21.102 Z-2.000
G1 X-29.549 Y20.652 Z-2.000
G1 X-30.462 Y20.249 Z-2.000
G1 X-31.396 Y19.896 Z-2.000
G1 X-32.348 Y19.594 Z-2.000
G1 X-33.315 Y19.343 Z-2.000
G1 X-34.293 Y19.145 Z-2.000
G1 X-35.281 Y18.999 Z-2.000
G1 X-36.275 Y18.907 Z-2.000
G1 X-37.273 Y18.868 Z-2.000
G1 X-38.271 Y18.882 Z-2.000
G1 X-39.267 Y18.950 Z-2.000
G1 X-40.258 Y19.072 Z-2.000
G1 X-41.242 Y19.246 Z-2.000
G1 X-42.214 Y19.474 Z-2.000
G1 X-43.173 Y19.752 Z-2.000
G1 X-44.115 Y20.082 Z-2.000
G1 X-45.038 Y20.462 Z-2.000
G1 X-45.940 Y20.891 Z-2.000
G1 X-46.817 Y21.368 Z-2.000
G1 X-47.668 Y21.891 Z-2.000
G1 X-48.489 Y22.459 Z-2.000
G1 X-49.278 Y23.071 Z-2.000
G1 X-50.034 Y23.724 Z-2.000
G1 X-50.753 Y24.416 Z-2.000
G1 X-51.435 Y25.146 Z-2.000
G1 X-52.076 Y25.912 Z-2.000
G1 X-52.675 Y26.710 Z-2.000
G1 X-53.230 Y27.540 Z-2.000
G1 X-53.740 Y28.399 Z-2.000
G1 X-54.203 Y29.283 Z-2.000
G1 X-54.618 Y30.191 Z-2.000
G1 X-54.984 Y31.120 Z-2.000
G1 X-55.299 Y32.068 Z-2.000
G1 X-55.563 Y33.031 Z-2.000
G1 X-55.775 Y34.006 Z-2.000
G1 X-55.935 Y34.992 Z-2.000
G1 X-56.041 Y35.985 Z-2.000
G1 X-56.094 Y36.982 Z-2.000
G1 X-56.093 Y37.980 Z-2.000
G1 X-56.039 Y38.978 Z-2.000
G1 X-55.931 Y39.970 Z-2.000
G1 X-55.770 Y40.956 Z-2.000
G1 X-55.556 Y41.931 Z-2.000
G1 X-55.291 Y42.893 Z-2.000
G1 X-54.974 Y43.840 Z-2.000
G1 X-54.606 Y44.769 Z-2.000
G1 X-54.190 Y45.676 Z-2.000
G1 X-53.725 Y46.560 Z-2.000
G1 X-53.214 Y47.418 Z-2.000
G1 X-52.657 Y48.247 Z-2.000
G1 X-52.057 Y49.044 Z-2.000
G1 X-51.415 Y49.809 Z-2.000
G1 X-50.732 Y50.538 Z-2.000
G1 X-50.012 Y51.229 Z-2.000
G1 X-49.255 Y51.881 Z-2.000
G1 X-48.465 Y52.491 Z-2.000
G1 X-47.643 Y53.058 Z-2.000
G1 X-46.791 Y53.579 Z-2.000
G1 X-45.913 Y54.055 Z-2.000
G1 X-45.011 Y54.482 Z-2.000
G1 X-44.087 Y54.861 Z-2.000
G1 X-43.144 Y55.189 Z-2.000
G1 X-42.185 Y55.467 Z-2.000
G1 X-41.212 Y55.692 Z-2.000
G1 X-40.229 Y55.865 Z-2.000
G1 X-39.238 Y55.985 Z-2.000
G1 X-38.241 Y56.051 Z-2.000
G1 X-37.243 Y56.064 Z-2.000
G1 X-36.245 Y56.024 Z-2.000
G1 X-35.251 Y55.930 Z-2.000
G1 X-34.264 Y55.783 Z-2.000
G1 X-33.285 Y55.582 Z-2.000
G1 X-32.319 Y55.330 Z-2.000
G1 X-31.368 Y55.026 Z-2.000
G1 X-30.435 Y54.672 Z-2.000
G1 X-29.521 Y54.268 Z-2.000
G1 X-28.631 Y53.816 Z-2.000
G1 X-27.767 Y53.316 Z-2.000
G1 X-26.930 Y52.771 Z-2.000
G1 X-26.124 Y52.182 Z-2.000
G1 X-25.351 Y51.550 Z-2.000
G1 X-24.613 Y50.878 Z-2.000
G1 X-23.911 Y50.167 Z-2.000
G1 X-23.249 Y49.420 Z-2.000
G1 X-22.629 Y48.638 Z-2.000
G1 X-22.050 Y47.823 Z-2.000
G1 X-21.517 Y46.979 Z-2.000
G1 X-21.029 Y46.108 Z-2.000
G1 X-20.589 Y45.212 Z-2.000
G1 X-20.198 Y44.293 Z-2.000
G1 X-19.857 Y43.355 Z-2.000
G1 X-19.566 Y42.400 Z-2.000
G1 X-19.327 Y41.430 Z-2.000
G1 X-19.141 Y40.449 Z-2.000
G1 X-19.007 Y39.460 Z-2.000
G1 X-18.927 Y38.464 Z-2.000
G1 X-18.900 Y37.466 Z-2.000
G1 X-18.900 Y37.436 Z-2.000
(End of step 26.)
G0 Z3.000
G0 X-18.300 Y37.436
(Begin step 27.)
G0 X-18.300 Y37.436
(part 1)
G1 X-18.300 Y37.436 Z-2.000
G1 X-18.327 Y36.440 Z-2.000
G1 X-18.407 Y35.446 Z-2.000
G1 X-18.537 Y34.458 Z-2.000
G1 X-18.719 Y33.478 Z-2.000
G1 X-18.951 Y32.509 Z-2.000
G1 X-19.233 Y31.553 Z-2.000
G1 X-19.565 Y30.614 Z-2.000
G1 X-19.944 Y29.692 Z-2.000
G1 X-20.371 Y28.792 Z-2.000
G1 X-20.845 Y27.914 Z-2.000
G1 X-21.363 Y27.063 Z-2.000
G1 X-21.924 Y26.240 Z-2.000
G1 X-22.528 Y25.447 Z-2.000
G1 X-23.172 Y24.686 Z-2.000
G1 X-23.854 Y23.960 Z-2.000
G1 X-24.573 Y23.270 Z-2.000
G1 X-25.328 Y22.618 Z-2.000
G1 X-26.114 Y22.006 Z-2.000
G1 X-26.932 Y21.436 Z-2.000
G1 X-27.778 Y20.910 Z-2.000
G1 X-28.650 Y20.427 Z-2.000
G1 X-29.546 Y19.991 Z-2.000
G1 X-30.464 Y19.602 Z-2.000
G1 X-31.400 Y19.261 Z-2.000
G1 X-32.353 Y18.969 Z-2.000
G1 X-33.320 Y18.727 Z-2.000
G1 X-34.298 Y18.535 Z-2.000
G1 X-35.285 Y18.394 Z-2.000
G1 X-36.277 Y18.305 Z-2.000
G1 X-37.273 Y18.268 Z-2.000
G1 X-38.270 Y18.282 Z-2.000
G1 X-39.264 Y18.347 Z-2.000
G1 X-40.254 Y18.465 Z-2.000
G1 X-41.236 Y18.633 Z-2.000
G1 X-42.209 Y18.853 Z-2.000
G1 X-43.168 Y19.122 Z-2.000
G1 X-44.112 Y19.441 Z-2.000
G1 X-45.039 Y19.808 Z-2.000
G1 X-45.945 Y20.223 Z-2.000
G1 X-46.828 Y20.685 Z-2.000
G1 X-47.687 Y21.191 Z-2.000
G1 X-48.517 Y21.742 Z-2.000
G1 X-49.318 Y22.335 Z-2.000
G1 X-50.088 Y22.968 Z-2.000
G1 X-50.823 Y23.641 Z-2.000
G1 X-51.523 Y24.351 Z-2.000
G1 X-52.184 Y25.096 Z-2.000
G1 X-52.806 Y25.875 Z-2.000
G1 X-53.387 Y26.685 Z-2.000
G1 X-53.925 Y27.524 Z-2.000
G1 X-54.419 Y28.390 Z-2.000
G1 X-54.867 Y29.280 Z-2.000
G1 X-55.269 Y30.192 Z-2.000
G1 X-55.622 Y31.124 Z-2.000
G1 X-55.927 Y32.073 Z-2.000
G1 X-56.182 Y33.036 Z-2.000
G1 X-56.387 Y34.012 Z-2.000
G1 X-56.540 Y34.996 Z-2.000
G1 X-56.643 Y35.988 Z-2.000
G1 X-56.694 Y36.983 Z-2.000
G1 X-56.693 Y37.980 Z-2.000
G1 X-56.641 Y38.975 Z-2.000
G1 X-56.537 Y39.966 Z-2.000
G1 X-56.381 Y40.950 Z-2.000
G1 X-56.175 Y41.926 Z-2.000
G1 X-55.918 Y42.889 Z-2.000
G1 X-55.612 Y43.837 Z-2.000
G1 X-55.257 Y44.768 Z-2.000
G1 X-54.854 Y45.680 Z-2.000
G1 X-54.405 Y46.569 Z-2.000
G1 X-53.910 Y47.434 Z-2.000
G1 X-53.370 Y48.272 Z-2.000
G1 X-52.788 Y49.081 Z-2.000
G1 X-52.165 Y49.859 Z-2.000
G1 X-51.502 Y50.603 Z-2.000
G1 X-50.801 Y51.312 Z-2.000
G1 X-50.065 Y51.984 Z-2.000
G1 X-49.295 Y52.616 Z-2.000
G1 X-48.493 Y53.208 Z-2.000
G1 X-47.661 Y53.757 Z-2.000
G1 X-46.802 Y54.262 Z-2.000
G1 X-45.918 Y54.722 Z-2.000
G1 X-45.011 Y55.136 Z-2.000
G1 X-44.084 Y55.502 Z-2.000
G1 X-43.139 Y55.819 Z-2.000
G1 X-42.179 Y56.087 Z-2.000
G1 X-41.207 Y56.305 Z-2.000
G1 X-40.224 Y56.472 Z-2.000
G1 X-39.234 Y56.588 Z-2.000
G1 X-38.240 Y56.652 Z-2.000
G1 X-37.243 Y56.665 Z-2.000
G1 X-36.247 Y56.625 Z-2.000
G1 X-35.255 Y56.535 Z-2.000
G1 X-34.269 Y56.392 Z-2.000
G1 X-33.291 Y56.199 Z-2.000
G1 X-32.324 Y55.956 Z-2.000
G1 X-31.372 Y55.662 Z-2.000
G1 X-30.436 Y55.320 Z-2.000
G1 X-29.519 Y54.929 Z-2.000
G1 X-28.624 Y54.491 Z-2.000
G1 X-27.752 Y54.008 Z-2.000
G1 X-26.907 Y53.480 Z-2.000
G1 X-26.090 Y52.908 Z-2.000
G1 X-25.304 Y52.295 Z-2.000
G1 X-24.551 Y51.643 Z-2.000
G1 X-23.833 Y50.952 Z-2.000
G1 X-23.152 Y50.224 Z-2.000
G1 X-22.509 Y49.463 Z-2.000
G1 X-21.907 Y48.669 Z-2.000
G1 X-21.346 Y47.844 Z-2.000
G1 X-20.830 Y46.992 Z-2.000
G1 X-20.358 Y46.114 Z-2.000
G1 X-19.932 Y45.213 Z-2.000
G1 X-19.554 Y44.291 Z-2.000
G1 X-19.224 Y43.351 Z-2.000
G1 X-18.943 Y42.394 Z-2.000
G1 X-18.712 Y41.425 Z-2.000
G1 X-18.532 Y40.444 Z-2.000
G1 X-18.403 Y39.456 Z-2.000
G1 X-18.326 Y38.463 Z-2.000
G1 X-18.300 Y37.466 Z-2.000
G1 X-18.300 Y37.436 Z-2.000
(End of step 27.)
G0 Z3.000
G0 X-17.700 Y37.436
(Begin step 28.)
G0 X-17.700 Y37.436
(part 1)
G1 X-17.700 Y37.436 Z-2.000
G1 X-17.727 Y36.442 Z-2.000
G1 X-17.803 Y35.450 Z-2.000
G1 X-17.929 Y34.463 Z-2.000
G1 X-18.105 Y33.484 Z-2.000
G1 X-18.329 Y32.514 Z-2.000
G1 X-18.602 Y31.558 Z-2.000
G1 X-18.923 Y30.616 Z-2.000
G1 X-19.290 Y29.691 Z-2.000
G1 X-19.704 Y28.786 Z-2.000
G1 X-20.162 Y27.903 Z-2.000
G1 X-20.665 Y27.045 Z-2.000
G1 X-21.209 Y26.212 Z-2.000
G1 X-21.795 Y25.408 Z-2.000
G1 X-22.421 Y24.634 Z-2.000
G1 X-23.085 Y23.893 Z-2.000
G1 X-23.785 Y23.186 Z-2.000
G1 X-24.519 Y22.515 Z-2.000
G1 X-25.287 Y21.882 Z-2.000
G1 X-26.085 Y21.288 Z-2.000
G1 X-26.912 Y20.735 Z-2.000
G1 X-27.766 Y20.224 Z-2.000
G1 X-28.644 Y19.757 Z-2.000
G1 X-29.545 Y19.335 Z-2.000
G1 X-30.466 Y18.958 Z-2.000
G1 X-31.404 Y18.628 Z-2.000
G1 X-32.358 Y18.346 Z-2.000
G1 X-33.325 Y18.111 Z-2.000
G1 X-34.303 Y17.926 Z-2.000
G1 X-35.288 Y17.790 Z-2.000
G1 X-36.280 Y17.704 Z-2.000
G1 X-37.274 Y17.668 Z-2.000
G1 X-38.269 Y17.681 Z-2.000
G1 X-39.261 Y17.745 Z-2.000
G1 X-40.250 Y17.858 Z-2.000
G1 X-41.231 Y18.021 Z-2.000
G1 X-42.203 Y18.233 Z-2.000
G1 X-43.164 Y18.494 Z-2.000
G1 X-44.110 Y18.802 Z-2.000
G1 X-45.039 Y19.158 Z-2.000
G1 X-45.949 Y19.559 Z-2.000
G1 X-46.838 Y20.006 Z-2.000
G1 X-47.703 Y20.497 Z-2.000
G1 X-48.542 Y21.031 Z-2.000
G1 X-49.354 Y21.607 Z-2.000
G1 X-50.136 Y22.222 Z-2.000
G1 X-50.886 Y22.876 Z-2.000
G1 X-51.602 Y23.567 Z-2.000
G1 X-52.282 Y24.293 Z-2.000
G1 X-52.925 Y25.052 Z-2.000
G1 X-53.529 Y25.843 Z-2.000
G1 X-54.093 Y26.663 Z-2.000
G1 X-54.615 Y27.510 Z-2.000
G1 X-55.093 Y28.382 Z-2.000
G1 X-55.527 Y29.277 Z-2.000
G1 X-55.916 Y30.193 Z-2.000
G1 X-56.258 Y31.127 Z-2.000
G1 X-56.553 Y32.078 Z-2.000
G1 X-56.799 Y33.041 Z-2.000
G1 X-56.997 Y34.016 Z-2.000
G1 X-57.146 Y35.000 Z-2.000
G1 X-57.245 Y35.990 Z-2.000
G1 X-57.294 Y36.984 Z-2.000
G1 X-57.293 Y37.979 Z-2.000
G1 X-57.243 Y38.972 Z-2.000
G1 X-57.142 Y39.962 Z-2.000
G1 X-56.992 Y40.946 Z-2.000
G1 X-56.793 Y41.920 Z-2.000
G1 X-56.544 Y42.884 Z-2.000
G1 X-56.248 Y43.834 Z-2.000
G1 X-55.905 Y44.767 Z-2.000
G1 X-55.515 Y45.683 Z-2.000
G1 X-55.079 Y46.577 Z-2.000
G1 X-54.599 Y47.449 Z-2.000
G1 X-54.076 Y48.295 Z-2.000
G1 X-53.511 Y49.114 Z-2.000
G1 X-52.906 Y49.904 Z-2.000
G1 X-52.262 Y50.662 Z-2.000
G1 X-51.580 Y51.387 Z-2.000
G1 X-50.863 Y52.076 Z-2.000
G1 X-50.113 Y52.729 Z-2.000
G1 X-49.330 Y53.344 Z-2.000
G1 X-48.518 Y53.918 Z-2.000
G1 X-47.677 Y54.450 Z-2.000
G1 X-46.811 Y54.940 Z-2.000
G1 X-45.922 Y55.386 Z-2.000
G1 X-45.011 Y55.786 Z-2.000
G1 X-44.081 Y56.141 Z-2.000
G1 X-43.135 Y56.448 Z-2.000
G1 X-42.174 Y56.707 Z-2.000
G1 X-41.202 Y56.917 Z-2.000
G1 X-40.220 Y57.079 Z-2.000
G1 X-39.232 Y57.190 Z-2.000
G1 X-38.239 Y57.252 Z-2.000
G1 X-37.244 Y57.265 Z-2.000
G1 X-36.250 Y57.227 Z-2.000
G1 X-35.259 Y57.139 Z-2.000
G1 X-34.273 Y57.002 Z-2.000
G1 X-33.296 Y56.815 Z-2.000
G1 X-32.329 Y56.579 Z-2.000
G1 X-31.376 Y56.295 Z-2.000
G1 X-30.438 Y55.964 Z-2.000
G1 X-29.517 Y55.586 Z-2.000
G1 X-28.617 Y55.162 Z-2.000
G1 X-27.740 Y54.693 Z-2.000
G1 X-26.887 Y54.181 Z-2.000
G1 X-26.060 Y53.627 Z-2.000
G1 X-25.263 Y53.032 Z-2.000
G1 X-24.497 Y52.398 Z-2.000
G1 X-23.763 Y51.726 Z-2.000
G1 X-23.064 Y51.018 Z-2.000
G1 X-22.401 Y50.275 Z-2.000
G1 X-21.777 Y49.501 Z-2.000
G1 X-21.192 Y48.696 Z-2.000
G1 X-20.649 Y47.862 Z-2.000
G1 X-20.148 Y47.003 Z-2.000
G1 X-19.691 Y46.119 Z-2.000
G1 X-19.279 Y45.214 Z-2.000
G1 X-18.912 Y44.289 Z-2.000
G1 X-18.593 Y43.346 Z-2.000
G1 X-18.322 Y42.389 Z-2.000
G1 X-18.099 Y41.420 Z-2.000
G1 X-17.925 Y40.440 Z-2.000
G1 X-17.800 Y39.453 Z-2.000
G1 X-17.725 Y38.461 Z-2.000
G1 X-17.700 Y37.466 Z-2.000
G1 X-17.700 Y37.436 Z-2.000
(End of step 28.)
G0 Z3.000
G0 X-17.100 Y37.436
(Begin step 29.)
G0 X-17.100 Y37.436
(part 1)
G1 X-17.100 Y37.436 Z-2.000
G1 X-17.126 Y36.443 Z-2.000
G1 X-17.200 Y35.453 Z-2.000
G1 X-17.322 Y34.467 Z-2.000
G1 X-17.492 Y33.488 Z-2.000
G1 X-17.709 Y32.519 Z-2.000
G1 X-17.973 Y31.562 Z-2.000
G1 X-18.284 Y30.618 Z-2.000
G1 X-18.640 Y29.691 Z-2.000
G1 X-19.041 Y28.782 Z-2.000
G1 X-19.485 Y27.894 Z-2.000
G1 X-19.973 Y27.028 Z-2.000
G1 X-20.501 Y26.188 Z-2.000
G1 X-21.071 Y25.373 Z-2.000
G1 X-21.679 Y24.588 Z-2.000
G1 X-22.324 Y23.833 Z-2.000
G1 X-23.006 Y23.111 Z-2.000
G1 X-23.722 Y22.422 Z-2.000
G1 X-24.471 Y21.769 Z-2.000
G1 X-25.250 Y21.154 Z-2.000
G1 X-26.059 Y20.577 Z-2.000
G1 X-26.894 Y20.040 Z-2.000
G1 X-27.755 Y19.544 Z-2.000
G1 X-28.639 Y19.091 Z-2.000
G1 X-29.544 Y18.682 Z-2.000
G1 X-30.468 Y18.317 Z-2.000
G1 X-31.408 Y17.997 Z-2.000
G1 X-32.363 Y17.724 Z-2.000
G1 X-33.330 Y17.497 Z-2.000
G1 X-34.307 Y17.318 Z-2.000
G1 X-35.292 Y17.186 Z-2.000
G1 X-36.281 Y17.103 Z-2.000
G1 X-37.274 Y17.068 Z-2.000
G1 X-38.267 Y17.081 Z-2.000
G1 X-39.259 Y17.142 Z-2.000
G1 X-40.246 Y17.252 Z-2.000
G1 X-41.227 Y17.410 Z-2.000
G1 X-42.199 Y17.615 Z-2.000
G1 X-43.159 Y17.867 Z-2.000
G1 X-44.107 Y18.166 Z-2.000
G1 X-45.038 Y18.510 Z-2.000
G1 X-45.952 Y18.900 Z-2.000
G1 X-46.846 Y19.333 Z-2.000
G1 X-47.717 Y19.809 Z-2.000
G1 X-48.565 Y20.328 Z-2.000
G1 X-49.386 Y20.887 Z-2.000
G1 X-50.179 Y21.485 Z-2.000
G1 X-50.942 Y22.121 Z-2.000
G1 X-51.673 Y22.793 Z-2.000
G1 X-52.370 Y23.501 Z-2.000
G1 X-53.032 Y24.241 Z-2.000
G1 X-53.658 Y25.013 Z-2.000
G1 X-54.245 Y25.814 Z-2.000
G1 X-54.792 Y26.643 Z-2.000
G1 X-55.298 Y27.497 Z-2.000
G1 X-55.762 Y28.376 Z-2.000
G1 X-56.183 Y29.275 Z-2.000
G1 X-56.560 Y30.194 Z-2.000
G1 X-56.891 Y31.131 Z-2.000
G1 X-57.177 Y32.082 Z-2.000
G1 X-57.415 Y33.046 Z-2.000
G1 X-57.607 Y34.021 Z-2.000
G1 X-57.751 Y35.004 Z-2.000
G1 X-57.847 Y35.992 Z-2.000
G1 X-57.894 Y36.985 Z-2.000
G1 X-57.894 Y37.978 Z-2.000
G1 X-57.845 Y38.970 Z-2.000
G1 X-57.747 Y39.958 Z-2.000
G1 X-57.602 Y40.941 Z-2.000
G1 X-57.409 Y41.915 Z-2.000
G1 X-57.169 Y42.879 Z-2.000
G1 X-56.882 Y43.830 Z-2.000
G1 X-56.549 Y44.766 Z-2.000
G1 X-56.171 Y45.685 Z-2.000
G1 X-55.749 Y46.584 Z-2.000
G1 X-55.284 Y47.461 Z-2.000
G1 X-54.776 Y48.315 Z-2.000
G1 X-54.227 Y49.143 Z-2.000
G1 X-53.639 Y49.944 Z-2.000
G1 X-53.013 Y50.714 Z-2.000
G1 X-52.350 Y51.454 Z-2.000
G1 X-51.651 Y52.160 Z-2.000
G1 X-50.919 Y52.831 Z-2.000
G1 X-50.155 Y53.466 Z-2.000
G1 X-49.361 Y54.063 Z-2.000
G1 X-48.539 Y54.621 Z-2.000
G1 X-47.691 Y55.138 Z-2.000
G1 X-46.819 Y55.613 Z-2.000
G1 X-45.925 Y56.045 Z-2.000
G1 X-45.010 Y56.433 Z-2.000
G1 X-44.078 Y56.777 Z-2.000
G1 X-43.130 Y57.074 Z-2.000
G1 X-42.169 Y57.325 Z-2.000
G1 X-41.197 Y57.528 Z-2.000
G1 X-40.216 Y57.685 Z-2.000
G1 X-39.229 Y57.793 Z-2.000
G1 X-38.237 Y57.853 Z-2.000
G1 X-37.244 Y57.865 Z-2.000
G1 X-36.252 Y57.828 Z-2.000
G1 X-35.262 Y57.743 Z-2.000
G1 X-34.278 Y57.610 Z-2.000
G1 X-33.301 Y57.429 Z-2.000
G1 X-32.334 Y57.201 Z-2.000
G1 X-31.380 Y56.926 Z-2.000
G1 X-30.440 Y56.605 Z-2.000
G1 X-29.516 Y56.239 Z-2.000
G1 X-28.612 Y55.828 Z-2.000
G1 X-27.729 Y55.374 Z-2.000
G1 X-26.869 Y54.877 Z-2.000
G1 X-26.034 Y54.339 Z-2.000
G1 X-25.226 Y53.761 Z-2.000
G1 X-24.447 Y53.144 Z-2.000
G1 X-23.700 Y52.490 Z-2.000
G1 X-22.985 Y51.800 Z-2.000
G1 X-22.304 Y51.077 Z-2.000
G1 X-21.660 Y50.321 Z-2.000
G1 X-21.053 Y49.535 Z-2.000
G1 X-20.485 Y48.720 Z-2.000
G1 X-19.957 Y47.878 Z-2.000
G1 X-19.471 Y47.012 Z-2.000
G1 X-19.028 Y46.123 Z-2.000
G1 X-18.628 Y45.214 Z-2.000
G1 X-18.274 Y44.286 Z-2.000
G1 X-17.965 Y43.342 Z-2.000
G1 X-17.702 Y42.384 Z-2.000
G1 X-17.486 Y41.415 Z-2.000
G1 X-17.317 Y40.436 Z-2.000
G1 X-17.197 Y39.450 Z-2.000
G1 X-17.124 Y38.459 Z-2.000
G1 X-17.100 Y37.466 Z-2.000
G1 X-17.100 Y37.436 Z-2.000
(End of step 29.)
G0 Z3.000
G0 X-16.500 Y37.436
(Begin step 30.)
G0 X-16.500 Y37.436
(part 1)
G1 X-16.500 Y37.436 Z-2.000
G1 X-16.525 Y36.437 Z-2.000
G1 X-16.598 Y35.441 Z-2.000
G1 X-16.718 Y34.449 Z-2.000
G1 X-16.885 Y33.463 Z-2.000
G1 X-17.099 Y32.487 Z-2.000
G1 X-17.359 Y31.522 Z-2.000
G1 X-17.664 Y30.571 Z-2.000
G1 X-18.015 Y29.635 Z-2.000
G1 X-18.409 Y28.717 Z-2.000
G1 X-18.847 Y27.819 Z-2.000
G1 X-19.327 Y26.942 Z-2.000
G1 X-19.848 Y26.090 Z-2.000
G1 X-20.410 Y25.263 Z-2.000
G1 X-21.009 Y24.464 Z-2.000
G1 X-21.647 Y23.694 Z-2.000
G1 X-22.320 Y22.956 Z-2.000
G1 X-23.027 Y22.250 Z-2.000
G1 X-23.768 Y21.579 Z-2.000
G1 X-24.539 Y20.943 Z-2.000
G1 X-25.340 Y20.345 Z-2.000
G1 X-26.168 Y19.786 Z-2.000
G1 X-27.022 Y19.267 Z-2.000
G1 X-27.899 Y18.789 Z-2.000
G1 X-28.799 Y18.354 Z-2.000
G1 X-29.718 Y17.962 Z-2.000
G1 X-30.654 Y17.613 Z-2.000
G1 X-31.607 Y17.310 Z-2.000
G1 X-32.572 Y17.053 Z-2.000
G1 X-33.549 Y16.841 Z-2.000
G1 X-34.534 Y16.677 Z-2.000
G1 X-35.527 Y16.559 Z-2.000
G1 X-36.523 Y16.489 Z-2.000
G1 X-37.522 Y16.466 Z-2.000
G1 X-38.521 Y16.491 Z-2.000
G1 X-39.518 Y16.563 Z-2.000
G1 X-40.510 Y16.683 Z-2.000
G1 X-41.495 Y16.850 Z-2.000
G1 X-42.472 Y17.063 Z-2.000
G1 X-43.437 Y17.323 Z-2.000
G1 X-44.388 Y17.628 Z-2.000
G1 X-45.324 Y17.978 Z-2.000
G1 X-46.242 Y18.372 Z-2.000
G1 X-47.141 Y18.810 Z-2.000
G1 X-48.017 Y19.290 Z-2.000
G1 X-48.870 Y19.811 Z-2.000
G1 X-49.697 Y20.372 Z-2.000
G1 X-50.497 Y20.971 Z-2.000
G1 X-51.266 Y21.608 Z-2.000
G1 X-52.005 Y22.281 Z-2.000
G1 X-52.711 Y22.988 Z-2.000
G1 X-53.383 Y23.728 Z-2.000
G1 X-54.018 Y24.499 Z-2.000
G1 X-54.617 Y25.300 Z-2.000
G1 X-55.176 Y26.128 Z-2.000
G1 X-55.695 Y26.981 Z-2.000
G1 X-56.173 Y27.859 Z-2.000
G1 X-56.609 Y28.758 Z-2.000
G1 X-57.002 Y29.677 Z-2.000
G1 X-57.350 Y30.614 Z-2.000
G1 X-57.654 Y31.566 Z-2.000
G1 X-57.912 Y32.531 Z-2.000
G1 X-58.124 Y33.508 Z-2.000
G1 X-58.288 Y34.493 Z-2.000
G1 X-58.406 Y35.485 Z-2.000
G1 X-58.477 Y36.482 Z-2.000
G1 X-58.500 Y37.481 Z-2.000
G1 X-58.476 Y38.480 Z-2.000
G1 X-58.404 Y39.477 Z-2.000
G1 X-58.284 Y40.469 Z-2.000
G1 X-58.118 Y41.454 Z-2.000
G1 X-57.905 Y42.431 Z-2.000
G1 X-57.646 Y43.396 Z-2.000
G1 X-57.341 Y44.347 Z-2.000
G1 X-56.991 Y45.283 Z-2.000
G1 X-56.597 Y46.202 Z-2.000
G1 X-56.160 Y47.100 Z-2.000
G1 X-55.680 Y47.977 Z-2.000
G1 X-55.160 Y48.830 Z-2.000
G1 X-54.599 Y49.657 Z-2.000
G1 X-54.000 Y50.457 Z-2.000
G1 X-53.363 Y51.227 Z-2.000
G1 X-52.691 Y51.966 Z-2.000
G1 X-51.984 Y52.672 Z-2.000
G1 X-51.244 Y53.344 Z-2.000
G1 X-50.473 Y53.980 Z-2.000
G1 X-49.673 Y54.578 Z-2.000
G1 X-48.845 Y55.138 Z-2.000
G1 X-47.991 Y55.658 Z-2.000
G1 X-47.114 Y56.136 Z-2.000
G1 X-46.215 Y56.572 Z-2.000
G1 X-45.296 Y56.965 Z-2.000
G1 X-44.360 Y57.314 Z-2.000
G1 X-43.408 Y57.618 Z-2.000
G1 X-42.443 Y57.876 Z-2.000
G1 X-41.466 Y58.088 Z-2.000
G1 X-40.481 Y58.254 Z-2.000
G1 X-39.488 Y58.372 Z-2.000
G1 X-38.492 Y58.443 Z-2.000
G1 X-37.492 Y58.466 Z-2.000
G1 X-36.494 Y58.442 Z-2.000
G1 X-35.497 Y58.370 Z-2.000
G1 X-34.505 Y58.252 Z-2.000
G1 X-33.519 Y58.086 Z-2.000
G1 X-32.543 Y57.873 Z-2.000
G1 X-31.578 Y57.614 Z-2.000
G1 X-30.626 Y57.309 Z-2.000
G1 X-29.690 Y56.960 Z-2.000
G1 X-28.771 Y56.566 Z-2.000
G1 X-27.873 Y56.129 Z-2.000
G1 X-26.996 Y55.650 Z-2.000
G1 X-26.143 Y55.130 Z-2.000
G1 X-25.315 Y54.570 Z-2.000
G1 X-24.515 Y53.971 Z-2.000
G1 X-23.745 Y53.334 Z-2.000
G1 X-23.006 Y52.662 Z-2.000
G1 X-22.299 Y51.955 Z-2.000
G1 X-21.627 Y51.216 Z-2.000
G1 X-20.991 Y50.445 Z-2.000
G1 X-20.392 Y49.645 Z-2.000
G1 X-19.832 Y48.817 Z-2.000
G1 X-19.312 Y47.964 Z-2.000
G1 X-18.833 Y47.087 Z-2.000
G1 X-18.397 Y46.188 Z-2.000
G1 X-18.004 Y45.269 Z-2.000
G1 X-17.654 Y44.333 Z-2.000
G1 X-17.350 Y43.381 Z-2.000
G1 X-17.092 Y42.416 Z-2.000
G1 X-16.879 Y41.440 Z-2.000
G1 X-16.714 Y40.454 Z-2.000
G1 X-16.595 Y39.462 Z-2.000
G1 X-16.524 Y38.465 Z-2.000
G1 X-16.500 Y37.466 Z-2.000
G1 X-16.500 Y37.436 Z-2.000
(End of step 30.)
G0 Z3.000
G0 X-15.900 Y37.436
(Begin step 31.)
G0 X-15.900 Y37.436
(part 1)
G1 X-15.900 Y37.436 Z-2.000
G1 X-15.924 Y36.439 Z-2.000
G1 X-15.995 Y35.444 Z-2.000
G1 X-16.111 Y34.453 Z-2.000
G1 X-16.273 Y33.469 Z-2.000
G1 X-16.480 Y32.493 Z-2.000
G1 X-16.732 Y31.528 Z-2.000
G1 X-17.029 Y30.575 Z-2.000
G1 X-17.369 Y29.637 Z-2.000
G1 X-17.752 Y28.716 Z-2.000
G1 X-18.177 Y27.813 Z-2.000
G1 X-18.643 Y26.932 Z-2.000
G1 X-19.150 Y26.072 Z-2.000
G1 X-19.695 Y25.237 Z-2.000
G1 X-20.279 Y24.428 Z-2.000
G1 X-20.899 Y23.647 Z-2.000
G1 X-21.555 Y22.895 Z-2.000
G1 X-22.245 Y22.174 Z-2.000
G1 X-22.967 Y21.486 Z-2.000
G1 X-23.721 Y20.832 Z-2.000
G1 X-24.504 Y20.214 Z-2.000
G1 X-25.314 Y19.632 Z-2.000
G1 X-26.150 Y19.088 Z-2.000
G1 X-27.011 Y18.584 Z-2.000
G1 X-27.894 Y18.120 Z-2.000
G1 X-28.798 Y17.697 Z-2.000
G1 X-29.720 Y17.316 Z-2.000
G1 X-30.659 Y16.978 Z-2.000
G1 X-31.612 Y16.684 Z-2.000
G1 X-32.578 Y16.435 Z-2.000
G1 X-33.554 Y16.230 Z-2.000
G1 X-34.539 Y16.070 Z-2.000
G1 X-35.530 Y15.956 Z-2.000
G1 X-36.525 Y15.888 Z-2.000
G1 X-37.522 Y15.866 Z-2.000
G1 X-38.520 Y15.890 Z-2.000
G1 X-39.515 Y15.960 Z-2.000
G1 X-40.506 Y16.076 Z-2.000
G1 X-41.490 Y16.238 Z-2.000
G1 X-42.466 Y16.445 Z-2.000
G1 X-43.431 Y16.697 Z-2.000
G1 X-44.384 Y16.993 Z-2.000
G1 X-45.322 Y17.332 Z-2.000
G1 X-46.243 Y17.715 Z-2.000
G1 X-47.146 Y18.140 Z-2.000
G1 X-48.028 Y18.606 Z-2.000
G1 X-48.888 Y19.112 Z-2.000
G1 X-49.723 Y19.657 Z-2.000
G1 X-50.532 Y20.241 Z-2.000
G1 X-51.314 Y20.861 Z-2.000
G1 X-52.066 Y21.516 Z-2.000
G1 X-52.787 Y22.206 Z-2.000
G1 X-53.475 Y22.928 Z-2.000
G1 X-54.129 Y23.681 Z-2.000
G1 X-54.748 Y24.464 Z-2.000
G1 X-55.330 Y25.274 Z-2.000
G1 X-55.874 Y26.110 Z-2.000
G1 X-56.379 Y26.971 Z-2.000
G1 X-56.843 Y27.854 Z-2.000
G1 X-57.266 Y28.757 Z-2.000
G1 X-57.647 Y29.679 Z-2.000
G1 X-57.986 Y30.618 Z-2.000
G1 X-58.280 Y31.571 Z-2.000
G1 X-58.530 Y32.537 Z-2.000
G1 X-58.735 Y33.513 Z-2.000
G1 X-58.895 Y34.498 Z-2.000
G1 X-59.009 Y35.489 Z-2.000
G1 X-59.078 Y36.484 Z-2.000
G1 X-59.100 Y37.481 Z-2.000
G1 X-59.076 Y38.479 Z-2.000
G1 X-59.007 Y39.474 Z-2.000
G1 X-58.891 Y40.465 Z-2.000
G1 X-58.730 Y41.449 Z-2.000
G1 X-58.523 Y42.425 Z-2.000
G1 X-58.272 Y43.391 Z-2.000
G1 X-57.976 Y44.343 Z-2.000
G1 X-57.637 Y45.281 Z-2.000
G1 X-57.254 Y46.203 Z-2.000
G1 X-56.830 Y47.106 Z-2.000
G1 X-56.364 Y47.988 Z-2.000
G1 X-55.858 Y48.848 Z-2.000
G1 X-55.313 Y49.683 Z-2.000
G1 X-54.730 Y50.493 Z-2.000
G1 X-54.110 Y51.274 Z-2.000
G1 X-53.455 Y52.027 Z-2.000
G1 X-52.766 Y52.748 Z-2.000
G1 X-52.044 Y53.436 Z-2.000
G1 X-51.291 Y54.091 Z-2.000
G1 X-50.508 Y54.710 Z-2.000
G1 X-49.698 Y55.292 Z-2.000
G1 X-48.862 Y55.836 Z-2.000
G1 X-48.002 Y56.341 Z-2.000
G1 X-47.119 Y56.806 Z-2.000
G1 X-46.216 Y57.230 Z-2.000
G1 X-45.294 Y57.611 Z-2.000
G1 X-44.356 Y57.949 Z-2.000
G1 X-43.403 Y58.244 Z-2.000
G1 X-42.437 Y58.494 Z-2.000
G1 X-41.461 Y58.700 Z-2.000
G1 X-40.476 Y58.860 Z-2.000
G1 X-39.485 Y58.975 Z-2.000
G1 X-38.490 Y59.044 Z-2.000
G1 X-37.492 Y59.066 Z-2.000
G1 X-36.495 Y59.043 Z-2.000
G1 X-35.500 Y58.973 Z-2.000
G1 X-34.509 Y58.858 Z-2.000
G1 X-33.525 Y58.697 Z-2.000
G1 X-32.548 Y58.491 Z-2.000
G1 X-31.583 Y58.240 Z-2.000
G1 X-30.630 Y57.945 Z-2.000
G1 X-29.692 Y57.606 Z-2.000
G1 X-28.770 Y57.224 Z-2.000
G1 X-27.867 Y56.799 Z-2.000
G1 X-26.985 Y56.334 Z-2.000
G1 X-26.125 Y55.828 Z-2.000
G1 X-25.289 Y55.284 Z-2.000
G1 X-24.480 Y54.701 Z-2.000
G1 X-23.698 Y54.081 Z-2.000
G1 X-22.945 Y53.426 Z-2.000
G1 X-22.224 Y52.737 Z-2.000
G1 X-21.535 Y52.015 Z-2.000
G1 X-20.880 Y51.263 Z-2.000
G1 X-20.261 Y50.481 Z-2.000
G1 X-19.678 Y49.671 Z-2.000
G1 X-19.134 Y48.835 Z-2.000
G1 X-18.629 Y47.975 Z-2.000
G1 X-18.163 Y47.092 Z-2.000
G1 X-17.740 Y46.189 Z-2.000
G1 X-17.358 Y45.267 Z-2.000
G1 X-17.019 Y44.329 Z-2.000
G1 X-16.724 Y43.376 Z-2.000
G1 X-16.473 Y42.411 Z-2.000
G1 X-16.268 Y41.434 Z-2.000
G1 X-16.107 Y40.450 Z-2.000
G1 X-15.992 Y39.459 Z-2.000
G1 X-15.923 Y38.464 Z-2.000
G1 X-15.900 Y37.466 Z-2.000
G1 X-15.900 Y37.436 Z-2.000
(End of step 31.)
(End of layer 0)
(Layer 1 begins)
(Layer transition)
G0 Z3.000
G0 X-34.500 Y37.436
(Begin step 0.)
G0 X-34.500 Y37.436
(part 1)
G1 X-34.500 Y37.436 Z-4.000
G1 X-34.672 Y36.465 Z-4.000
G1 X-35.149 Y35.603 Z-4.000
G1 X-35.880 Y34.941 Z-4.000
G1 X-36.787 Y34.552 Z-4.000
G1 X-37.770 Y34.478 Z-4.000
G1 X-38.724 Y34.727 Z-4.000
G1 X-39.546 Y35.272 Z-4.000
G1 X-40.147 Y36.054 Z-4.000
G1 X-40.462 Y36.988 Z-4.000
G1 X-40.457 Y37.974 Z-4.000
G1 X-40.132 Y38.905 Z-4.000
G1 X-39.524 Y39.681 Z-4.000
G1 X-38.696 Y40.217 Z-4.000
G1 X-37.740 Y40.457 Z-4.000
G1 X-36.757 Y40.373 Z-4.000
G1 X-35.855 Y39.975 Z-4.000
G1 X-35.131 Y39.306 Z-4.000
G1 X-34.662 Y38.439 Z-4.000
G1 X-34.500 Y37.466 Z-4.000
G1 X-34.500 Y37.436 Z-4.000
(End of step 0.)
G0 Z3.000
G0 X-33.900 Y37.436
(Begin step 1.)
G0 X-33.900 Y37.436
(part 1)
G1 X-33.900 Y37.436 Z-4.000
G1 X-34.041 Y36.467 Z-4.000
G1 X-34.438 Y35.572 Z-4.000
G1 X-35.062 Y34.818 Z-4.000
G1 X-35.866 Y34.259 Z-4.000
G1 X-36.791 Y33.937 Z-4.000
G1 X-37.768 Y33.876 Z-4.000
G1 X-38.725 Y34.081 Z-4.000
G1 X-39.592 Y34.536 Z-4.000
G1 X-40.304 Y35.209 Z-4.000
G1 X-40.809 Y36.048 Z-4.000
G1 X-41.069 Y36.992 Z-4.000
G1 X-41.064 Y37.971 Z-4.000
G1 X-40.797 Y38.912 Z-4.000
G1 X-40.285 Y39.747 Z-4.000
G1 X-39.568 Y40.413 Z-4.000
G1 X-38.697 Y40.861 Z-4.000
G1 X-37.738 Y41.058 Z-4.000
G1 X-36.761 Y40.990 Z-4.000
G1 X-35.839 Y40.660 Z-4.000
G1 X-35.040 Y40.095 Z-4.000
G1 X-34.423 Y39.335 Z-4.000
G1 X-34.033 Y38.436 Z-4.000
G1 X-33.900 Y37.466 Z-4.000
G1 X-33.900 Y37.436 Z-4.000
(End of step 1.)
G0 Z3.000
G0 X-33.300 Y37.436
(Begin step 2.)
G0 X-33.300 Y37.436
(part 1)
G1 X-33.300 Y37.436 Z-4.000
G1 X-33.420 Y36.470 Z-4.000
G1 X-33.759 Y35.557 Z-4.000
G1 X-34.300 Y34.746 Z-4.000
G1 X-35.012 Y34.082 Z-4.000
G1 X-35.859 Y33.600 Z-4.000
G1 X-36.794 Y33.326 Z-4.000
G1 X-37.766 Y33.275 Z-4.000
G1 X-38.725 Y33.449 Z-4.000
G1 X-39.617 Y33.839 Z-4.000
G1 X-40.396 Y34.424 Z-4.000
G1 X-41.019 Y35.173 Z-4.000
G1 X-41.452 Y36.045 Z-4.000
G1 X-41.673 Y36.994 Z-4.000
G1 X-41.670 Y37.968 Z-4.000
G1 X-41.442 Y38.915 Z-4.000
G1 X-41.002 Y39.784 Z-4.000
G1 X-40.374 Y40.529 Z-4.000
G1 X-39.591 Y41.109 Z-4.000
G1 X-38.696 Y41.492 Z-4.000
G1 X-37.736 Y41.660 Z-4.000
G1 X-36.764 Y41.601 Z-4.000
G1 X-35.831 Y41.321 Z-4.000
G1 X-34.988 Y40.833 Z-4.000
G1 X-34.280 Y40.163 Z-4.000
G1 X-33.746 Y39.349 Z-4.000
G1 X-33.413 Y38.434 Z-4.000
G1 X-33.300 Y37.466 Z-4.000
G1 X-33.300 Y37.436 Z-4.000
(End of step 2.)
G0 Z3.000
G0 X-32.700 Y37.436
(Begin step 3.)
G0 X-32.700 Y37.436
(part 1)
G1 X-32.700 Y37.436 Z-4.000
G1 X-32.804 Y36.472 Z-4.000
G1 X-33.100 Y35.548 Z-4.000
G1 X-33.576 Y34.702 Z-4.000
G1 X-34.212 Y33.969 Z-4.000
G1 X-34.982 Y33.380 Z-4.000
G1 X-35.856 Y32.957 Z-4.000
G1 X-36.796 Y32.718 Z-4.000
G1 X-37.765 Y32.674 Z-4.000
G1 X-38.724 Y32.825 Z-4.000
G1 X-39.632 Y33.166 Z-4.000
G1 X-40.453 Y33.682 Z-4.000
G1 X-41.154 Y34.354 Z-4.000
G1 X-41.705 Y35.152 Z-4.000
G1 X-42.085 Y36.045 Z-4.000
G1 X-42.277 Y36.996 Z-4.000
G1 X-42.274 Y37.966 Z-4.000
G1 X-42.076 Y38.916 Z-4.000
G1 X-41.691 Y39.807 Z-4.000
G1 X-41.134 Y40.602 Z-4.000
G1 X-40.430 Y41.268 Z-4.000
G1 X-39.605 Y41.780 Z-4.000
G1 X-38.695 Y42.115 Z-4.000
G1 X-37.735 Y42.260 Z-4.000
G1 X-36.766 Y42.210 Z-4.000
G1 X-35.827 Y41.965 Z-4.000
G1 X-34.957 Y41.537 Z-4.000
G1 X-34.190 Y40.943 Z-4.000
G1 X-33.559 Y40.206 Z-4.000
G1 X-33.088 Y39.357 Z-4.000
G1 X-32.798 Y38.432 Z-4.000
G1 X-32.700 Y37.466 Z-4.000
G1 X-32.700 Y37.436 Z-4.000
(End of step 3.)
G0 Z3.000
G0 X-32.100 Y37.436
(Begin step 4.)
G0 X-32.100 Y37.436
(part 1)
G1 X-32.100 Y37.436 Z-1.692
G1 X-32.197 Y36.445 Z-1.692
G1 X-32.475 Y35.489 Z-1.775
G1 X-32.923 Y34.600 Z-2.484
G1 X-33.527 Y33.809 Z-1.692
G1 X-34.266 Y33.142 Z-1.692
G1 X-35.115 Y32.621 Z-1.692
G1 X-36.045 Y32.266 Z-1.692
G1 X-37.025 Y32.087 Z-2.012
G1 X-38.020 Y32.091 Z-1.967
G1 X-38.998 Y32.278 Z-1.692
G1 X-39.925 Y32.641 Z-1.692
G1 X-40.770 Y33.169 Z-1.692
G1 X-41.503 Y33.842 Z-1.693
G1 X-42.100 Y34.639 Z-2.637
G1 X-42.541 Y35.531 Z-1.755
G1 X-42.811 Y36.490 Z-1.692
G1 X-42.900 Y37.481 Z-1.692
G1 X-42.805 Y38.472 Z-1.692
G1 X-42.531 Y39.429 Z-1.768
G1 X-42.085 Y40.319 Z-2.528
G1 X-41.483 Y41.113 Z-1.692
G1 X-40.746 Y41.782 Z-1.692
G1 X-39.898 Y42.304 Z-1.692
G1 X-38.969 Y42.663 Z-1.692
G1 X-37.990 Y42.844 Z-1.996
G1 X-36.995 Y42.843 Z-1.981
G1 X-36.016 Y42.658 Z-1.692
G1 X-35.088 Y42.298 Z-1.692
G1 X-34.242 Y41.773 Z-1.692
G1 X-33.507 Y41.102 Z-1.692
G1 X-32.907 Y40.307 Z-2.578
G1 X-32.464 Y39.415 Z-1.761
G1 X-32.192 Y38.458 Z-1.692
G1 X-32.100 Y37.466 Z-1.692
G1 X-32.100 Y37.436 Z-1.692
(End of step 4.)
G0 Z3.000
G0 X-31.500 Y37.436
(Begin step 5.)
G0 X-31.500 Y37.436
(part 1)
G1 X-31.500 Y37.436 Z-0.857
G1 X-31.587 Y36.450 Z-0.858
G1 X-31.834 Y35.491 Z-0.868
G1 X-32.236 Y34.586 Z-1.341
G1 X-32.782 Y33.760 Z-0.923
G1 X-33.456 Y33.034 Z-0.858
G1 X-34.239 Y32.429 Z-0.858
G1 X-35.112 Y31.962 Z-0.858
G1 X-36.050 Y31.644 Z-0.858
G1 X-37.027 Y31.485 Z-1.089
G1 X-38.018 Y31.489 Z-1.063
G1 X-38.994 Y31.655 Z-0.858
G1 X-39.929 Y31.980 Z-0.858
G1 X-40.798 Y32.454 Z-0.858
G1 X-41.578 Y33.065 Z-0.858
G1 X-42.246 Y33.795 Z-0.937
G1 X-42.785 Y34.626 Z-1.300
G1 X-43.180 Y35.534 Z-0.863
G1 X-43.421 Y36.494 Z-0.858
G1 X-43.500 Y37.481 Z-0.858
G1 X-43.416 Y38.468 Z-0.858
G1 X-43.171 Y39.427 Z-0.866
G1 X-42.771 Y40.333 Z-1.327
G1 X-42.228 Y41.161 Z-0.928
G1 X-41.556 Y41.888 Z-0.858
G1 X-40.773 Y42.495 Z-0.857
G1 X-39.901 Y42.965 Z-0.857
G1 X-38.964 Y43.285 Z-0.857
G1 X-37.988 Y43.446 Z-1.080
G1 X-36.997 Y43.445 Z-1.071
G1 X-36.021 Y43.281 Z-0.857
G1 X-35.085 Y42.959 Z-0.857
G1 X-34.214 Y42.487 Z-0.857
G1 X-33.433 Y41.878 Z-0.857
G1 X-32.763 Y41.149 Z-0.932
G1 X-32.222 Y40.320 Z-1.314
G1 X-31.825 Y39.413 Z-0.864
G1 X-31.582 Y38.453 Z-0.858
G1 X-31.500 Y37.466 Z-0.858
G1 X-31.500 Y37.436 Z-0.857
(End of step 5.)
G0 Z3.000
G0 X-30.900 Y37.436
(Begin step 6.)
G0 X-30.900 Y37.436
(part 1)
G1 X-30.900 Y37.436 Z-0.402
G1 X-30.978 Y36.454 Z-0.402
G1 X-31.202 Y35.494 Z-0.402
G1 X-31.566 Y34.578 Z-0.635
G1 X-32.062 Y33.726 Z-0.608
G1 X-32.680 Y32.958 Z-0.402
G1 X-33.405 Y32.290 Z-0.402
G1 X-34.222 Y31.738 Z-0.402
G1 X-35.111 Y31.314 Z-0.402
G1 X-36.054 Y31.027 Z-0.402
G1 X-37.030 Y30.883 Z-0.632
G1 X-38.015 Y30.886 Z-0.611
G1 X-38.990 Y31.037 Z-0.402
G1 X-39.931 Y31.330 Z-0.402
G1 X-40.817 Y31.761 Z-0.402
G1 X-41.630 Y32.318 Z-0.402
G1 X-42.351 Y32.991 Z-0.402
G1 X-42.963 Y33.763 Z-0.630
G1 X-43.454 Y34.618 Z-0.613
G1 X-43.812 Y35.537 Z-0.402
G1 X-44.029 Y36.498 Z-0.402
G1 X-44.100 Y37.481 Z-0.402
G1 X-44.024 Y38.464 Z-0.402
G1 X-43.803 Y39.425 Z-0.402
G1 X-43.441 Y40.341 Z-0.627
G1 X-42.946 Y41.194 Z-0.615
G1 X-42.330 Y41.964 Z-0.402
G1 X-41.607 Y42.633 Z-0.402
G1 X-40.791 Y43.187 Z-0.402
G1 X-39.903 Y43.613 Z-0.402
G1 X-38.960 Y43.903 Z-0.402
G1 X-37.985 Y44.048 Z-0.625
G1 X-37.000 Y44.047 Z-0.618
G1 X-36.025 Y43.899 Z-0.402
G1 X-35.083 Y43.608 Z-0.402
G1 X-34.196 Y43.180 Z-0.402
G1 X-33.382 Y42.624 Z-0.402
G1 X-32.659 Y41.953 Z-0.402
G1 X-32.045 Y41.182 Z-0.622
G1 X-31.553 Y40.328 Z-0.620
G1 X-31.193 Y39.410 Z-0.402
G1 X-30.974 Y38.449 Z-0.402
G1 X-30.900 Y37.466 Z-0.402
G1 X-30.900 Y37.436 Z-0.402
(End of step 6.)
G0 Z3.000
G0 X-30.300 Y37.436
(Begin step 7.)
G0 X-30.300 Y37.436
(part 1)
G1 X-30.300 Y37.436 Z-0.138
G1 X-30.371 Y36.457 Z-0.138
G1 X-30.575 Y35.496 Z-0.138
G1 X-30.907 Y34.572 Z-0.259
G1 X-31.362 Y33.702 Z-0.537
G1 X-31.932 Y32.902 Z-0.169
G1 X-32.605 Y32.186 Z-0.138
G1 X-33.369 Y31.569 Z-0.138
G1 X-34.210 Y31.062 Z-0.138
G1 X-35.112 Y30.674 Z-0.138
G1 X-36.058 Y30.412 Z-0.141
G1 X-37.031 Y30.282 Z-0.386
G1 X-38.013 Y30.285 Z-0.365
G1 X-38.986 Y30.421 Z-0.139
G1 X-39.931 Y30.689 Z-0.138
G1 X-40.830 Y31.083 Z-0.138
G1 X-41.668 Y31.595 Z-0.138
G1 X-42.428 Y32.217 Z-0.138
G1 X-43.097 Y32.937 Z-0.176
G1 X-43.661 Y33.740 Z-0.566
G1 X-44.111 Y34.613 Z-0.245
G1 X-44.437 Y35.539 Z-0.138
G1 X-44.635 Y36.501 Z-0.138
G1 X-44.700 Y37.481 Z-0.138
G1 X-44.631 Y38.461 Z-0.138
G1 X-44.429 Y39.422 Z-0.138
G1 X-44.099 Y40.347 Z-0.254
G1 X-43.645 Y41.218 Z-0.547
G1 X-43.078 Y42.019 Z-0.171
G1 X-42.406 Y42.736 Z-0.138
G1 X-41.644 Y43.354 Z-0.138
G1 X-40.804 Y43.864 Z-0.138
G1 X-39.903 Y44.254 Z-0.138
G1 X-38.957 Y44.517 Z-0.140
G1 X-37.984 Y44.650 Z-0.379
G1 X-37.001 Y44.649 Z-0.372
G1 X-36.029 Y44.514 Z-0.140
G1 X-35.083 Y44.249 Z-0.138
G1 X-34.183 Y43.857 Z-0.138
G1 X-33.344 Y43.346 Z-0.138
G1 X-32.583 Y42.726 Z-0.138
G1 X-31.913 Y42.008 Z-0.174
G1 X-31.347 Y41.205 Z-0.556
G1 X-30.895 Y40.333 Z-0.250
G1 X-30.567 Y39.408 Z-0.138
G1 X-30.367 Y38.446 Z-0.138
G1 X-30.300 Y37.466 Z-0.138
G1 X-30.300 Y37.436 Z-0.138
(End of step 7.)
G0 Z3.000
G0 X-29.700 Y37.436
(Begin step 8.)
G0 X-29.700 Y37.436
(part 1)
G1 X-29.700 Y37.436 Z-0.015
G1 X-29.768 Y36.440 Z-0.015
G1 X-29.962 Y35.460 Z-0.015
G1 X-30.281 Y34.513 Z-0.088
G1 X-30.717 Y33.615 Z-0.527
G1 X-31.265 Y32.779 Z-0.116
G1 X-31.915 Y32.021 Z-0.015
G1 X-32.657 Y31.352 Z-0.015
G1 X-33.478 Y30.783 Z-0.015
G1 X-34.365 Y30.324 Z-0.015
G1 X-35.304 Y29.982 Z-0.015
G1 X-36.278 Y29.763 Z-0.054
G1 X-37.273 Y29.670 Z-0.418
G1 X-38.271 Y29.704 Z-0.168
G1 X-39.257 Y29.867 Z-0.015
G1 X-40.213 Y30.153 Z-0.015
G1 X-41.126 Y30.560 Z-0.015
G1 X-41.979 Y31.080 Z-0.015
G1 X-42.758 Y31.705 Z-0.015
G1 X-43.451 Y32.424 Z-0.031
G1 X-44.047 Y33.226 Z-0.324
G1 X-44.535 Y34.097 Z-0.232
G1 X-44.908 Y35.024 Z-0.017
G1 X-45.159 Y35.991 Z-0.015
G1 X-45.285 Y36.982 Z-0.015
G1 X-45.283 Y37.981 Z-0.015
G1 X-45.153 Y38.971 Z-0.015
G1 X-44.898 Y39.937 Z-0.018
G1 X-44.522 Y40.862 Z-0.245
G1 X-44.030 Y41.732 Z-0.309
G1 X-43.432 Y42.531 Z-0.028
G1 X-42.736 Y43.248 Z-0.015
G1 X-41.954 Y43.870 Z-0.015
G1 X-41.099 Y44.386 Z-0.015
G1 X-40.185 Y44.789 Z-0.015
G1 X-39.227 Y45.073 Z-0.015
G1 X-38.241 Y45.231 Z-0.178
G1 X-37.243 Y45.262 Z-0.400
G1 X-36.248 Y45.165 Z-0.049
G1 X-35.275 Y44.942 Z-0.015
G1 X-34.338 Y44.596 Z-0.015
G1 X-33.452 Y44.134 Z-0.015
G1 X-32.633 Y43.562 Z-0.015
G1 X-31.894 Y42.890 Z-0.015
G1 X-31.247 Y42.129 Z-0.124
G1 X-30.703 Y41.292 Z-0.506
G1 X-30.269 Y40.392 Z-0.081
G1 X-29.955 Y39.444 Z-0.015
G1 X-29.764 Y38.463 Z-0.015
G1 X-29.700 Y37.466 Z-0.015
G1 X-29.700 Y37.436 Z-0.015
(End of step 8.)
G0 Z3.000
G0 X-29.100 Y37.436
(Begin step 9.)
G0 X-29.100 Y37.436
(part 1)
G1 X-29.100 Y37.436 Z0.000
G1 X-29.162 Y36.444 Z0.000
G1 X-29.342 Y35.465 Z0.000
G1 X-29.636 Y34.515 Z-0.023
G1 X-30.040 Y33.606 Z-0.327
G1 X-30.548 Y32.751 Z-0.226
G1 X-31.154 Y31.962 Z-0.004
G1 X-31.849 Y31.251 Z0.000
G1 X-32.624 Y30.627 Z0.000
G1 X-33.466 Y30.098 Z0.000
G1 X-34.366 Y29.673 Z0.000
G1 X-35.309 Y29.357 Z0.000
G1 X-36.283 Y29.155 Z-0.048
G1 X-37.274 Y29.069 Z-0.416
G1 X-38.268 Y29.101 Z-0.165
G1 X-39.251 Y29.251 Z0.000
G1 X-40.210 Y29.515 Z0.000
G1 X-41.131 Y29.892 Z0.000
G1 X-42.001 Y30.374 Z0.000
G1 X-42.808 Y30.956 Z0.000
G1 X-43.540 Y31.629 Z0.000
G1 X-44.188 Y32.384 Z-0.081
G1 X-44.742 Y33.210 Z-0.518
G1 X-45.194 Y34.096 Z-0.115
G1 X-45.539 Y35.029 Z0.000
G1 X-45.770 Y35.996 Z0.000
G1 X-45.886 Y36.984 Z0.000
G1 X-45.884 Y37.979 Z0.000
G1 X-45.765 Y38.966 Z0.000
G1 X-45.530 Y39.933 Z0.000
G1 X-45.182 Y40.864 Z-0.124
G1 X-44.726 Y41.749 Z-0.497
G1 X-44.170 Y42.573 Z-0.074
G1 X-43.519 Y43.325 Z0.000
G1 X-42.784 Y43.996 Z0.000
G1 X-41.975 Y44.575 Z0.000
G1 X-41.104 Y45.054 Z0.000
G1 X-40.182 Y45.427 Z0.000
G1 X-39.222 Y45.688 Z-0.000
G1 X-38.238 Y45.834 Z-0.176
G1 X-37.244 Y45.862 Z-0.398
G1 X-36.253 Y45.773 Z-0.042
G1 X-35.280 Y45.568 Z0.000
G1 X-34.338 Y45.248 Z0.000
G1 X-33.440 Y44.820 Z0.000
G1 X-32.599 Y44.289 Z0.000
G1 X-31.827 Y43.661 Z0.000
G1 X-31.135 Y42.947 Z-0.006
G1 X-30.531 Y42.157 Z-0.239
G1 X-30.026 Y41.300 Z-0.312
G1 X-29.625 Y40.390 Z-0.020
G1 X-29.335 Y39.438 Z0.000
G1 X-29.159 Y38.459 Z0.000
G1 X-29.100 Y37.466 Z0.000
G1 X-29.100 Y37.436 Z0.000
(End of step 9.)
G0 Z3.000
G0 X-28.500 Y37.436
(Begin step 10.)
G0 X-28.500 Y37.436
(part 1)
G1 X-28.500 Y37.436 Z0.000
G1 X-28.558 Y36.447 Z0.000
G1 X-28.724 Y35.470 Z0.000
G1 X-28.997 Y34.517 Z-0.000
G1 X-29.373 Y33.600 Z-0.184
G1 X-29.847 Y32.730 Z-0.387
G1 X-30.414 Y31.917 Z-0.040
G1 X-31.067 Y31.172 Z0.000
G1 X-31.798 Y30.503 Z0.000
G1 X-32.599 Y29.918 Z0.000
G1 X-33.458 Y29.425 Z0.000
G1 X-34.367 Y29.029 Z0.000
G1 X-35.314 Y28.736 Z0.000
G1 X-36.287 Y28.548 Z-0.048
G1 X-37.275 Y28.469 Z-0.416
G1 X-38.265 Y28.499 Z-0.166
G1 X-39.247 Y28.637 Z-0.000
G1 X-40.207 Y28.883 Z0.000
G1 X-41.134 Y29.233 Z0.000
G1 X-42.017 Y29.682 Z0.000
G1 X-42.846 Y30.226 Z0.000
G1 X-43.609 Y30.858 Z0.000
G1 X-44.299 Y31.569 Z-0.000
G1 X-44.906 Y32.353 Z-0.180
G1 X-45.424 Y33.198 Z-0.393
G1 X-45.845 Y34.095 Z-0.041
G1 X-46.165 Y35.033 Z0.000
G1 X-46.380 Y36.000 Z0.000
G1 X-46.487 Y36.986 Z0.000
G1 X-46.486 Y37.977 Z0.000
G1 X-46.375 Y38.962 Z0.000
G1 X-46.157 Y39.928 Z0.000
G1 X-45.833 Y40.865 Z-0.047
G1 X-45.409 Y41.761 Z-0.410
G1 X-44.889 Y42.604 Z-0.170
G1 X-44.279 Y43.386 Z-0.000
G1 X-43.587 Y44.095 Z0.000
G1 X-42.822 Y44.724 Z0.000
G1 X-41.991 Y45.265 Z0.000
G1 X-41.107 Y45.712 Z0.000
G1 X-40.178 Y46.059 Z0.000
G1 X-39.217 Y46.301 Z-0.000
G1 X-38.235 Y46.436 Z-0.177
G1 X-37.245 Y46.463 Z-0.399
G1 X-36.257 Y46.380 Z-0.043
G1 X-35.285 Y46.189 Z0.000
G1 X-34.339 Y45.893 Z0.000
G1 X-33.432 Y45.494 Z0.000
G1 X-32.574 Y44.998 Z0.000
G1 X-31.775 Y44.411 Z0.000
G1 X-31.046 Y43.739 Z0.000
G1 X-30.396 Y42.992 Z-0.045
G1 X-29.831 Y42.177 Z-0.405
G1 X-29.360 Y41.305 Z-0.173
G1 X-28.987 Y40.387 Z-0.000
G1 X-28.718 Y39.433 Z0.000
G1 X-28.555 Y38.456 Z0.000
G1 X-28.500 Y37.466 Z0.000
G1 X-28.500 Y37.436 Z0.000
(End of step 10.)
G0 Z3.000
G0 X-27.900 Y37.436
(Begin step 11.)
G0 X-27.900 Y37.436
(part 1)
G1 X-27.900 Y37.436 Z0.000
G1 X-27.954 Y36.450 Z0.000
G1 X-28.109 Y35.474 Z0.000
G1 X-28.363 Y34.520 Z0.000
G1 X-28.715 Y33.596 Z-0.085
G1 X-29.159 Y32.714 Z-0.525
G1 X-29.691 Y31.882 Z-0.114
G1 X-30.307 Y31.109 Z0.000
G1 X-30.998 Y30.403 Z0.000
G1 X-31.758 Y29.772 Z0.000
G1 X-32.580 Y29.223 Z0.000
G1 X-33.453 Y28.761 Z0.000
G1 X-34.369 Y28.391 Z0.000
G1 X-35.318 Y28.118 Z0.000
G1 X-36.290 Y27.943 Z-0.049
G1 X-37.275 Y27.869 Z-0.417
G1 X-38.263 Y27.897 Z-0.167
G1 X-39.242 Y28.026 Z-0.000
G1 X-40.203 Y28.255 Z0.000
G1 X-41.136 Y28.581 Z0.000
G1 X-42.030 Y29.002 Z0.000
G1 X-42.875 Y29.512 Z0.000
G1 X-43.664 Y30.107 Z0.000
G1 X-44.388 Y30.779 Z0.000
G1 X-45.039 Y31.523 Z-0.023
G1 X-45.610 Y32.329 Z-0.324
G1 X-46.095 Y33.190 Z-0.232
G1 X-46.489 Y34.095 Z-0.005
G1 X-46.788 Y35.037 Z0.000
G1 X-46.988 Y36.004 Z0.000
G1 X-47.088 Y36.987 Z0.000
G1 X-47.087 Y37.975 Z0.000
G1 X-46.983 Y38.958 Z0.000
G1 X-46.780 Y39.924 Z0.000
G1 X-46.478 Y40.865 Z-0.007
G1 X-46.081 Y41.770 Z-0.245
G1 X-45.594 Y42.629 Z-0.309
G1 X-45.020 Y43.433 Z-0.020
G1 X-44.367 Y44.175 Z0.000
G1 X-43.641 Y44.845 Z0.000
G1 X-42.851 Y45.437 Z0.000
G1 X-42.003 Y45.945 Z0.000
G1 X-41.108 Y46.362 Z0.000
G1 X-40.175 Y46.686 Z0.000
G1 X-39.213 Y46.912 Z-0.000
G1 X-38.233 Y47.038 Z-0.178
G1 X-37.245 Y47.063 Z-0.399
G1 X-36.261 Y46.986 Z-0.044
G1 X-35.289 Y46.808 Z0.000
G1 X-34.340 Y46.531 Z0.000
G1 X-33.426 Y46.159 Z0.000
G1 X-32.554 Y45.694 Z0.000
G1 X-31.734 Y45.142 Z0.000
G1 X-30.976 Y44.509 Z0.000
G1 X-30.287 Y43.801 Z0.000
G1 X-29.674 Y43.026 Z-0.122
G1 X-29.144 Y42.193 Z-0.505
G1 X-28.703 Y41.309 Z-0.078
G1 X-28.354 Y40.384 Z0.000
G1 X-28.103 Y39.429 Z0.000
G1 X-27.951 Y38.453 Z0.000
G1 X-27.900 Y37.466 Z0.000
G1 X-27.900 Y37.436 Z0.000
(End of step 11.)
G0 Z3.000
G0 X-27.300 Y37.436
(Begin step 12.)
G0 X-27.300 Y37.436
(part 1)
G1 X-27.300 Y37.436 Z-0.029
G1 X-27.351 Y36.452 Z-0.029
G1 X-27.496 Y35.478 Z-0.029
G1 X-27.734 Y34.522 Z-0.029
G1 X-28.064 Y33.594 Z-0.063
G1 X-28.481 Y32.702 Z-0.387
G1 X-28.983 Y31.854 Z-0.282
G1 X-29.564 Y31.058 Z-0.038
G1 X-30.219 Y30.323 Z-0.029
G1 X-30.942 Y29.654 Z-0.029
G1 X-31.727 Y29.057 Z-0.029
G1 X-32.565 Y28.540 Z-0.029
G1 X-33.449 Y28.105 Z-0.029
G1 X-34.371 Y27.758 Z-0.029
G1 X-35.322 Y27.502 Z-0.029
G1 X-36.293 Y27.338 Z-0.091
G1 X-37.276 Y27.269 Z-0.477
G1 X-38.261 Y27.295 Z-0.218
G1 X-39.239 Y27.416 Z-0.030
G1 X-40.200 Y27.630 Z-0.029
G1 X-41.136 Y27.936 Z-0.029
G1 X-42.039 Y28.332 Z-0.029
G1 X-42.899 Y28.812 Z-0.029
G1 X-43.708 Y29.373 Z-0.029
G1 X-44.460 Y30.010 Z-0.029
G1 X-45.147 Y30.716 Z-0.029
G1 X-45.763 Y31.485 Z-0.128
G1 X-46.301 Y32.310 Z-0.581
G1 X-46.757 Y33.183 Z-0.165
G1 X-47.127 Y34.096 Z-0.029
G1 X-47.407 Y35.041 Z-0.029
G1 X-47.595 Y36.008 Z-0.029
G1 X-47.689 Y36.989 Z-0.029
G1 X-47.687 Y37.974 Z-0.029
G1 X-47.591 Y38.954 Z-0.029
G1 X-47.400 Y39.921 Z-0.029
G1 X-47.117 Y40.864 Z-0.029
G1 X-46.745 Y41.776 Z-0.174
G1 X-46.286 Y42.648 Z-0.560
G1 X-45.745 Y43.471 Z-0.121
G1 X-45.127 Y44.239 Z-0.029
G1 X-44.438 Y44.943 Z-0.029
G1 X-43.685 Y45.577 Z-0.029
G1 X-42.873 Y46.136 Z-0.029
G1 X-42.012 Y46.614 Z-0.029
G1 X-41.108 Y47.007 Z-0.029
G1 X-40.171 Y47.310 Z-0.029
G1 X-39.209 Y47.522 Z-0.031
G1 X-38.231 Y47.640 Z-0.230
G1 X-37.246 Y47.663 Z-0.459
G1 X-36.264 Y47.591 Z-0.085
G1 X-35.293 Y47.425 Z-0.029
G1 X-34.342 Y47.165 Z-0.029
G1 X-33.421 Y46.815 Z-0.029
G1 X-32.539 Y46.378 Z-0.029
G1 X-31.702 Y45.858 Z-0.029
G1 X-30.919 Y45.260 Z-0.029
G1 X-30.198 Y44.588 Z-0.029
G1 X-29.545 Y43.851 Z-0.041
G1 X-28.966 Y43.054 Z-0.295
G1 X-28.467 Y42.204 Z-0.371
G1 X-28.052 Y41.311 Z-0.059
G1 X-27.725 Y40.382 Z-0.029
G1 X-27.490 Y39.425 Z-0.029
G1 X-27.348 Y38.450 Z-0.029
G1 X-27.300 Y37.466 Z-0.029
G1 X-27.300 Y37.436 Z-0.029
(End of step 12.)
G0 Z3.000
G0 X-26.700 Y37.436
(Begin step 13.)
G0 X-26.700 Y37.436
(part 1)
G1 X-26.700 Y37.436 Z-0.161
G1 X-26.749 Y36.440 Z-0.161
G1 X-26.889 Y35.453 Z-0.161
G1 X-27.120 Y34.483 Z-0.161
G1 X-27.440 Y33.539 Z-0.174
G1 X-27.845 Y32.627 Z-0.436
G1 X-28.332 Y31.758 Z-0.578
G1 X-28.898 Y30.936 Z-0.212
G1 X-29.537 Y30.171 Z-0.161
G1 X-30.243 Y29.467 Z-0.161
G1 X-31.012 Y28.832 Z-0.161
G1 X-31.836 Y28.271 Z-0.161
G1 X-32.708 Y27.788 Z-0.161
G1 X-33.621 Y27.387 Z-0.161
G1 X-34.567 Y27.072 Z-0.161
G1 X-35.538 Y26.846 Z-0.161
G1 X-36.526 Y26.710 Z-0.307
G1 X-37.522 Y26.666 Z-0.804
G1 X-38.518 Y26.714 Z-0.293
G1 X-39.506 Y26.854 Z-0.161
G1 X-40.476 Y27.084 Z-0.161
G1 X-41.421 Y27.403 Z-0.161
G1 X-42.332 Y27.808 Z-0.161
G1 X-43.202 Y28.294 Z-0.161
G1 X-44.024 Y28.859 Z-0.161
G1 X-44.790 Y29.498 Z-0.161
G1 X-45.494 Y30.204 Z-0.161
G1 X-46.129 Y30.972 Z-0.220
G1 X-46.692 Y31.796 Z-0.605
G1 X-47.175 Y32.668 Z-0.416
G1 X-47.577 Y33.580 Z-0.170
G1 X-47.892 Y34.526 Z-0.161
G1 X-48.119 Y35.497 Z-0.161
G1 X-48.255 Y36.485 Z-0.161
G1 X-48.300 Y37.481 Z-0.161
G1 X-48.253 Y38.477 Z-0.161
G1 X-48.114 Y39.465 Z-0.161
G1 X-47.884 Y40.435 Z-0.161
G1 X-47.566 Y41.380 Z-0.173
G1 X-47.162 Y42.292 Z-0.429
G1 X-46.676 Y43.162 Z-0.587
G1 X-46.111 Y43.984 Z-0.215
G1 X-45.474 Y44.751 Z-0.161
G1 X-44.768 Y45.455 Z-0.161
G1 X-44.000 Y46.091 Z-0.161
G1 X-43.177 Y46.654 Z-0.161
G1 X-42.305 Y47.138 Z-0.161
G1 X-41.393 Y47.540 Z-0.161
G1 X-40.447 Y47.856 Z-0.161
G1 X-39.476 Y48.084 Z-0.161
G1 X-38.489 Y48.221 Z-0.302
G1 X-37.492 Y48.266 Z-0.816
G1 X-36.496 Y48.220 Z-0.298
G1 X-35.509 Y48.081 Z-0.161
G1 X-34.538 Y47.852 Z-0.161
G1 X-33.593 Y47.535 Z-0.161
G1 X-32.681 Y47.132 Z-0.161
G1 X-31.810 Y46.646 Z-0.161
G1 X-30.988 Y46.082 Z-0.161
G1 X-30.221 Y45.445 Z-0.161
G1 X-29.516 Y44.740 Z-0.161
G1 X-28.880 Y43.972 Z-0.218
G1 X-28.316 Y43.149 Z-0.596
G1 X-27.831 Y42.278 Z-0.422
G1 X-27.429 Y41.366 Z-0.172
G1 X-27.112 Y40.421 Z-0.161
G1 X-26.884 Y39.450 Z-0.161
G1 X-26.746 Y38.462 Z-0.161
G1 X-26.700 Y37.466 Z-0.161
G1 X-26.700 Y37.436 Z-0.161
(End of step 13.)
G0 Z3.000
G0 X-26.100 Y37.436
(Begin step 14.)
G0 X-26.100 Y37.436
(part 1)
G1 X-26.100 Y37.436 Z-0.413
G1 X-26.146 Y36.443 Z-0.413
G1 X-26.278 Y35.458 Z-0.413
G1 X-26.496 Y34.488 Z-0.413
G1 X-26.797 Y33.541 Z-0.414
G1 X-27.180 Y32.623 Z-0.598
G1 X-27.641 Y31.742 Z-1.158
G1 X-28.177 Y30.905 Z-0.578
G1 X-28.784 Y30.118 Z-0.413
G1 X-29.458 Y29.387 Z-0.413
G1 X-30.192 Y28.717 Z-0.413
G1 X-30.982 Y28.113 Z-0.413
G1 X-31.822 Y27.581 Z-0.413
G1 X-32.704 Y27.124 Z-0.413
G1 X-33.624 Y26.746 Z-0.413
G1 X-34.572 Y26.449 Z-0.413
G1 X-35.543 Y26.235 Z-0.414
G1 X-36.529 Y26.108 Z-0.596
G1 X-37.522 Y26.066 Z-1.162
G1 X-38.516 Y26.112 Z-0.580
G1 X-39.501 Y26.243 Z-0.413
G1 X-40.471 Y26.460 Z-0.413
G1 X-41.419 Y26.761 Z-0.413
G1 X-42.336 Y27.143 Z-0.413
G1 X-43.217 Y27.604 Z-0.413
G1 X-44.055 Y28.139 Z-0.413
G1 X-44.842 Y28.746 Z-0.413
G1 X-45.574 Y29.419 Z-0.413
G1 X-46.245 Y30.153 Z-0.414
G1 X-46.849 Y30.942 Z-0.594
G1 X-47.381 Y31.781 Z-1.166
G1 X-47.839 Y32.664 Z-0.582
G1 X-48.218 Y33.583 Z-0.413
G1 X-48.516 Y34.531 Z-0.413
G1 X-48.730 Y35.502 Z-0.413
G1 X-48.858 Y36.488 Z-0.413
G1 X-48.900 Y37.481 Z-0.413
G1 X-48.855 Y38.474 Z-0.413
G1 X-48.724 Y39.460 Z-0.413
G1 X-48.508 Y40.430 Z-0.413
G1 X-48.208 Y41.378 Z-0.414
G1 X-47.826 Y42.296 Z-0.593
G1 X-47.366 Y43.177 Z-1.171
G1 X-46.831 Y44.015 Z-0.584
G1 X-46.225 Y44.803 Z-0.413
G1 X-45.553 Y45.535 Z-0.413
G1 X-44.819 Y46.206 Z-0.413
G1 X-44.030 Y46.811 Z-0.413
G1 X-43.191 Y47.344 Z-0.413
G1 X-42.309 Y47.802 Z-0.413
G1 X-41.390 Y48.182 Z-0.413
G1 X-40.442 Y48.480 Z-0.413
G1 X-39.471 Y48.695 Z-0.413
G1 X-38.486 Y48.824 Z-0.591
G1 X-37.492 Y48.866 Z-1.176
G1 X-36.499 Y48.822 Z-0.585
G1 X-35.514 Y48.692 Z-0.413
G1 X-34.543 Y48.476 Z-0.413
G1 X-33.595 Y48.177 Z-0.413
G1 X-32.677 Y47.796 Z-0.413
G1 X-31.796 Y47.336 Z-0.413
G1 X-30.957 Y46.802 Z-0.413
G1 X-30.169 Y46.196 Z-0.413
G1 X-29.436 Y45.525 Z-0.413
G1 X-28.765 Y44.791 Z-0.413
G1 X-28.160 Y44.003 Z-0.589
G1 X-27.626 Y43.164 Z-1.180
G1 X-27.167 Y42.282 Z-0.587
G1 X-26.787 Y41.364 Z-0.413
G1 X-26.488 Y40.416 Z-0.413
G1 X-26.273 Y39.445 Z-0.413
G1 X-26.143 Y38.459 Z-0.413
G1 X-26.100 Y37.466 Z-0.413
G1 X-26.100 Y37.436 Z-0.413
(End of step 14.)
G0 Z3.000
G0 X-25.500 Y37.436
(Begin step 15.)
G0 X-25.500 Y37.436
(part 1)
G1 X-25.500 Y37.436 Z-0.819
G1 X-25.543 Y36.446 Z-0.819
G1 X-25.669 Y35.462 Z-0.819
G1 X-25.874 Y34.493 Z-0.819
G1 X-26.159 Y33.543 Z-0.819
G1 X-26.522 Y32.620 Z-0.938
G1 X-26.959 Y31.731 Z-1.492
G1 X-27.469 Y30.880 Z-1.209
G1 X-28.047 Y30.075 Z-0.851
G1 X-28.689 Y29.319 Z-0.819
G1 X-29.392 Y28.620 Z-0.819
G1 X-30.150 Y27.981 Z-0.819
G1 X-30.958 Y27.406 Z-0.819
G1 X-31.811 Y26.901 Z-0.819
G1 X-32.702 Y26.467 Z-0.819
G1 X-33.626 Y26.109 Z-0.819
G1 X-34.577 Y25.828 Z-0.819
G1 X-35.548 Y25.626 Z-0.822
G1 X-36.532 Y25.505 Z-1.061
G1 X-37.522 Y25.466 Z-1.783
G1 X-38.513 Y25.509 Z-1.041
G1 X-39.497 Y25.634 Z-0.820
G1 X-40.466 Y25.839 Z-0.819
G1 X-41.416 Y26.123 Z-0.819
G1 X-42.339 Y26.485 Z-0.819
G1 X-43.229 Y26.922 Z-0.819
G1 X-44.080 Y27.431 Z-0.819
G1 X-44.886 Y28.008 Z-0.819
G1 X-45.641 Y28.650 Z-0.819
G1 X-46.341 Y29.353 Z-0.819
G1 X-46.981 Y30.110 Z-0.858
G1 X-47.556 Y30.918 Z-1.236
G1 X-48.062 Y31.770 Z-1.453
G1 X-48.496 Y32.661 Z-0.925
G1 X-48.855 Y33.586 Z-0.819
G1 X-49.137 Y34.536 Z-0.819
G1 X-49.339 Y35.507 Z-0.819
G1 X-49.460 Y36.491 Z-0.819
G1 X-49.500 Y37.481 Z-0.819
G1 X-49.458 Y38.472 Z-0.819
G1 X-49.334 Y39.455 Z-0.819
G1 X-49.129 Y40.425 Z-0.819
G1 X-48.845 Y41.375 Z-0.819
G1 X-48.484 Y42.299 Z-0.934
G1 X-48.048 Y43.189 Z-1.479
G1 X-47.539 Y44.040 Z-1.218
G1 X-46.962 Y44.846 Z-0.853
G1 X-46.321 Y45.602 Z-0.819
G1 X-45.619 Y46.302 Z-0.819
G1 X-44.862 Y46.942 Z-0.819
G1 X-44.055 Y47.518 Z-0.819
G1 X-43.203 Y48.025 Z-0.819
G1 X-42.312 Y48.459 Z-0.819
G1 X-41.388 Y48.819 Z-0.819
G1 X-40.437 Y49.101 Z-0.819
G1 X-39.467 Y49.304 Z-0.822
G1 X-38.483 Y49.426 Z-1.054
G1 X-37.492 Y49.466 Z-1.801
G1 X-36.502 Y49.425 Z-1.048
G1 X-35.518 Y49.301 Z-0.821
G1 X-34.548 Y49.098 Z-0.819
G1 X-33.598 Y48.814 Z-0.819
G1 X-32.675 Y48.453 Z-0.819
G1 X-31.784 Y48.018 Z-0.819
G1 X-30.933 Y47.510 Z-0.819
G1 X-30.126 Y46.933 Z-0.819
G1 X-29.370 Y46.292 Z-0.819
G1 X-28.669 Y45.591 Z-0.819
G1 X-28.028 Y44.834 Z-0.855
G1 X-27.452 Y44.027 Z-1.227
G1 X-26.945 Y43.176 Z-1.466
G1 X-26.510 Y42.285 Z-0.929
G1 X-26.150 Y41.361 Z-0.819
G1 X-25.867 Y40.411 Z-0.819
G1 X-25.664 Y39.441 Z-0.819
G1 X-25.541 Y38.457 Z-0.819
G1 X-25.500 Y37.466 Z-0.819
G1 X-25.500 Y37.436 Z-0.819
(End of step 15.)
G0 Z3.000
G0 X-24.900 Y37.436
(Begin step 16.)
G0 X-24.900 Y37.436
(part 1)
G1 X-24.900 Y37.436 Z-1.468
G1 X-24.941 Y36.448 Z-1.469
G1 X-25.060 Y35.466 Z-1.468
G1 X-25.255 Y34.497 Z-1.468
G1 X-25.526 Y33.546 Z-1.468
G1 X-25.870 Y32.618 Z-1.542
G1 X-26.286 Y31.721 Z-2.132
G1 X-26.771 Y30.859 Z-2.504
G1 X-27.322 Y30.038 Z-1.636
G1 X-27.936 Y29.263 Z-1.468
G1 X-28.609 Y28.538 Z-1.468
G1 X-29.337 Y27.868 Z-1.468
G1 X-30.115 Y27.258 Z-1.468
G1 X-30.938 Y26.710 Z-1.468
G1 X-31.802 Y26.228 Z-1.468
G1 X-32.701 Y25.816 Z-1.468
G1 X-33.629 Y25.476 Z-1.468
G1 X-34.582 Y25.209 Z-1.468
G1 X-35.552 Y25.018 Z-1.480
G1 X-36.534 Y24.903 Z-1.844
G1 X-37.522 Y24.866 Z-3.129
G1 X-38.511 Y24.907 Z-1.813
G1 X-39.493 Y25.025 Z-1.476
G1 X-40.462 Y25.219 Z-1.468
G1 X-41.414 Y25.489 Z-1.468
G1 X-42.341 Y25.833 Z-1.468
G1 X-43.238 Y26.249 Z-1.468
G1 X-44.100 Y26.733 Z-1.468
G1 X-44.922 Y27.284 Z-1.468
G1 X-45.698 Y27.898 Z-1.468
G1 X-46.423 Y28.570 Z-1.468
G1 X-47.093 Y29.297 Z-1.468
G1 X-47.704 Y30.075 Z-1.656
G1 X-48.252 Y30.898 Z-2.587
G1 X-48.735 Y31.761 Z-2.085
G1 X-49.147 Y32.660 Z-1.531
G1 X-49.488 Y33.588 Z-1.468
G1 X-49.756 Y34.541 Z-1.468
G1 X-49.947 Y35.511 Z-1.469
G1 X-50.062 Y36.493 Z-1.469
G1 X-50.100 Y37.481 Z-1.469
G1 X-50.060 Y38.469 Z-1.469
G1 X-49.943 Y39.451 Z-1.468
G1 X-49.749 Y40.421 Z-1.468
G1 X-49.479 Y41.373 Z-1.468
G1 X-49.136 Y42.300 Z-1.538
G1 X-48.721 Y43.198 Z-2.116
G1 X-48.237 Y44.060 Z-2.530
G1 X-47.687 Y44.882 Z-1.643
G1 X-47.074 Y45.658 Z-1.469
