(Exported by FreeCAD)
(Post Processor: grbl_post)
(Output Time:2022-05-28 10:37:23.456865)
(Begin preamble)
G17 G90
G21
(Begin operation: TC: 6 ball L24 Q6)
(Path: TC: 6 ball L24 Q6)
(TC: 6 ball L24 Q6)
(Begin toolchange)
( M6 T7.0 )
M3 S8000.0
(Finish operation: TC: 6 ball L24 Q6)
(Begin operation: Fixture)
(Path: Fixture)
G54
G0 Z20.000
(Finish operation: Fixture)
(Begin operation: Surface007)
(Path: Surface007)
(Surface007)
(Surface007)
(Tool type: ballend)
(Compensated Tool Path. Diameter: 6.0)
(Sample interval: 1.0)
(Step over %: 10.0)
()
G0 Z20.000
(Beginning of Single-pass layer.)
G0 X42.999 Y39.970
(Begin step 0.)
(part 1.)
G1 X42.999 Y39.970 Z4.142 F320.000
G1 X42.828 Y38.999 Z4.142 F320.000
G1 X42.350 Y38.136 Z4.142 F320.000
G1 X41.619 Y37.475 Z4.142 F320.000
G1 X40.713 Y37.086 Z4.142 F320.000
G1 X39.730 Y37.012 Z4.142 F320.000
G1 X38.776 Y37.261 Z4.142 F320.000
G1 X37.954 Y37.806 Z4.142 F320.000
G1 X37.353 Y38.587 Z4.142 F320.000
G1 X37.038 Y39.522 Z4.142 F320.000
G1 X37.043 Y40.508 Z4.142 F320.000
G1 X37.367 Y41.439 Z4.142 F320.000
G1 X37.976 Y42.215 Z4.142 F320.000
G1 X38.803 Y42.751 Z4.142 F320.000
G1 X39.760 Y42.990 Z4.142 F320.000
G1 X40.742 Y42.907 Z4.142 F320.000
G1 X41.644 Y42.509 Z4.142 F320.000
G1 X42.369 Y41.840 Z4.142 F320.000
G1 X42.838 Y40.973 Z4.142 F320.000
G1 X43.000 Y40.000 Z4.142 F320.000
G1 X42.999 Y39.970 Z4.142 F320.000
(End of step 0.)
(Begin step 1.)
G1 X43.599 Y39.970 Z4.598 F320.000
(part 1.)
G1 X43.599 Y39.970 Z4.598 F320.000
G1 X43.458 Y39.001 Z4.598 F320.000
G1 X43.061 Y38.106 Z4.598 F320.000
G1 X42.438 Y37.351 Z4.598 F320.000
G1 X41.634 Y36.792 Z4.598 F320.000
G1 X40.709 Y36.471 Z4.598 F320.000
G1 X39.732 Y36.410 Z4.598 F320.000
G1 X38.774 Y36.615 Z4.598 F320.000
G1 X37.908 Y37.070 Z4.598 F320.000
G1 X37.196 Y37.742 Z4.598 F320.000
G1 X36.691 Y38.581 Z4.598 F320.000
G1 X36.431 Y39.525 Z4.598 F320.000
G1 X36.435 Y40.504 Z4.598 F320.000
G1 X36.703 Y41.446 Z4.598 F320.000
G1 X37.214 Y42.281 Z4.598 F320.000
G1 X37.932 Y42.947 Z4.598 F320.000
G1 X38.803 Y43.395 Z4.598 F320.000
G1 X39.762 Y43.592 Z4.598 F320.000
G1 X40.738 Y43.523 Z4.598 F320.000
G1 X41.660 Y43.194 Z4.598 F320.000
G1 X42.460 Y42.628 Z4.598 F320.000
G1 X43.077 Y41.868 Z4.598 F320.000
G1 X43.466 Y40.970 Z4.598 F320.000
G1 X43.600 Y40.000 Z4.598 F320.000
G1 X43.599 Y39.970 Z4.598 F320.000
(End of step 1.)
(Begin step 2.)
G1 X44.200 Y39.970 Z4.862 F320.000
(part 1.)
G1 X44.200 Y39.970 Z4.862 F320.000
G1 X44.080 Y39.003 Z4.862 F320.000
G1 X43.740 Y38.090 Z4.862 F320.000
G1 X43.200 Y37.280 Z4.862 F320.000
G1 X42.487 Y36.616 Z4.862 F320.000
G1 X41.641 Y36.134 Z4.862 F320.000
G1 X40.706 Y35.860 Z4.862 F320.000
G1 X39.733 Y35.808 Z4.862 F320.000
G1 X38.775 Y35.982 Z4.862 F320.000
G1 X37.882 Y36.373 Z4.862 F320.000
G1 X37.104 Y36.958 Z4.862 F320.000
G1 X36.481 Y37.707 Z4.862 F320.000
G1 X36.047 Y38.579 Z4.862 F320.000
G1 X35.826 Y39.528 Z4.862 F320.000
G1 X35.830 Y40.502 Z4.862 F320.000
G1 X36.057 Y41.449 Z4.862 F320.000
G1 X36.497 Y42.318 Z4.862 F320.000
G1 X37.125 Y43.062 Z4.862 F320.000
G1 X37.908 Y43.642 Z4.862 F320.000
G1 X38.804 Y44.026 Z4.862 F320.000
G1 X39.763 Y44.193 Z4.862 F320.000
G1 X40.736 Y44.135 Z4.862 F320.000
G1 X41.668 Y43.854 Z4.862 F320.000
G1 X42.511 Y43.366 Z4.862 F320.000
G1 X43.219 Y42.697 Z4.862 F320.000
G1 X43.754 Y41.883 Z4.862 F320.000
G1 X44.087 Y40.967 Z4.862 F320.000
G1 X44.200 Y40.000 Z4.862 F320.000
G1 X44.200 Y39.970 Z4.862 F320.000
(End of step 2.)
(Begin step 3.)
G1 X44.800 Y39.970 Z4.985 F320.000
(part 1.)
G1 X44.800 Y39.970 Z4.985 F320.000
G1 X44.695 Y39.005 Z4.985 F320.000
G1 X44.399 Y38.081 Z4.985 F320.000
G1 X43.924 Y37.236 Z4.985 F320.000
G1 X43.288 Y36.503 Z4.985 F320.000
G1 X42.517 Y35.913 Z4.985 F320.000
G1 X41.644 Y35.490 Z4.985 F320.000
G1 X40.704 Y35.252 Z4.985 F320.000
G1 X39.734 Y35.207 Z4.985 F320.000
G1 X38.776 Y35.359 Z4.985 F320.000
G1 X37.867 Y35.699 Z4.985 F320.000
G1 X37.046 Y36.216 Z4.985 F320.000
G1 X36.346 Y36.887 Z4.985 F320.000
G1 X35.794 Y37.686 Z4.985 F320.000
G1 X35.415 Y38.579 Z4.985 F320.000
G1 X35.223 Y39.530 Z4.985 F320.000
G1 X35.226 Y40.500 Z4.985 F320.000
G1 X35.424 Y41.450 Z4.985 F320.000
G1 X35.809 Y42.340 Z4.985 F320.000
G1 X36.365 Y43.135 Z4.985 F320.000
G1 X37.070 Y43.802 Z4.985 F320.000
G1 X37.894 Y44.314 Z4.985 F320.000
G1 X38.805 Y44.649 Z4.985 F320.000
G1 X39.764 Y44.794 Z4.985 F320.000
G1 X40.733 Y44.744 Z4.985 F320.000
G1 X41.672 Y44.499 Z4.985 F320.000
G1 X42.543 Y44.071 Z4.985 F320.000
G1 X43.309 Y43.476 Z4.985 F320.000
G1 X43.941 Y42.740 Z4.985 F320.000
G1 X44.411 Y41.891 Z4.985 F320.000
G1 X44.702 Y40.965 Z4.985 F320.000
G1 X44.800 Y40.000 Z4.985 F320.000
G1 X44.800 Y39.970 Z4.985 F320.000
(End of step 3.)
(Begin step 4.)
G1 X45.400 Y39.970 Z5.000 F320.000
(part 1.)
G1 X45.400 Y39.970 Z5.000 F320.000
G1 X45.302 Y38.979 Z13.295 F320.000
G1 X45.025 Y38.023 Z13.308 F320.000
G1 X44.576 Y37.134 Z13.308 F320.000
G1 X43.972 Y36.342 Z13.308 F320.000
G1 X43.233 Y35.675 Z13.131 F320.000
G1 X42.384 Y35.155 Z12.841 F320.000
G1 X41.454 Y34.800 Z13.308 F320.000
G1 X40.475 Y34.621 Z13.308 F320.000
G1 X39.479 Y34.625 Z13.308 F320.000
G1 X38.501 Y34.812 Z13.308 F320.000
G1 X37.574 Y35.175 Z12.771 F320.000
G1 X36.730 Y35.702 Z13.161 F320.000
G1 X35.997 Y36.376 Z13.308 F320.000
G1 X35.399 Y37.172 Z13.308 F320.000
G1 X34.958 Y38.065 Z13.308 F320.000
G1 X34.689 Y39.023 Z13.286 F320.000
G1 X34.600 Y40.015 Z5.000 F320.000
G1 X34.694 Y41.006 Z13.292 F320.000
G1 X34.969 Y41.963 Z13.308 F320.000
G1 X35.415 Y42.853 Z13.308 F320.000
G1 X36.017 Y43.646 Z13.308 F320.000
G1 X36.754 Y44.316 Z13.141 F320.000
G1 X37.601 Y44.838 Z12.818 F320.000
G1 X38.530 Y45.196 Z13.308 F320.000
G1 X39.509 Y45.378 Z13.308 F320.000
G1 X40.505 Y45.376 Z13.308 F320.000
G1 X41.483 Y45.192 Z13.308 F320.000
G1 X42.411 Y44.831 Z12.795 F320.000
G1 X43.257 Y44.307 Z13.151 F320.000
G1 X43.993 Y43.635 Z13.308 F320.000
G1 X44.592 Y42.840 Z13.308 F320.000
G1 X45.036 Y41.949 Z13.308 F320.000
G1 X45.308 Y40.991 Z13.289 F320.000
G1 X45.400 Y40.000 Z5.000 F320.000
G1 X45.400 Y39.970 Z5.000 F320.000
(End of step 4.)
(Begin step 5.)
G0 Z18.000
G0 X46.000 Y39.970
G0 Z16.549
(part 1.)
G1 X46.000 Y39.970 Z13.549 F320.000
G1 X45.913 Y38.984 Z14.117 F320.000
G1 X45.665 Y38.025 Z14.143 F320.000
G1 X45.263 Y37.120 Z14.143 F320.000
G1 X44.718 Y36.293 Z14.142 F320.000
G1 X44.044 Y35.568 Z14.142 F320.000
G1 X43.260 Y34.963 Z13.800 F320.000
G1 X42.387 Y34.495 Z14.017 F320.000
G1 X41.450 Y34.178 Z14.142 F320.000
G1 X40.472 Y34.019 Z14.142 F320.000
G1 X39.482 Y34.022 Z14.142 F320.000
G1 X38.506 Y34.189 Z14.142 F320.000
G1 X37.571 Y34.514 Z13.998 F320.000
G1 X36.701 Y34.988 Z13.833 F320.000
G1 X35.922 Y35.598 Z14.142 F320.000
G1 X35.254 Y36.329 Z14.143 F320.000
G1 X34.715 Y37.160 Z14.143 F320.000
G1 X34.319 Y38.067 Z14.143 F320.000
G1 X34.079 Y39.028 Z14.108 F320.000
G1 X34.000 Y40.015 Z13.532 F320.000
G1 X34.084 Y41.001 Z14.114 F320.000
G1 X34.329 Y41.961 Z14.142 F320.000
G1 X34.729 Y42.867 Z14.142 F320.000
G1 X35.272 Y43.695 Z14.142 F320.000
G1 X35.944 Y44.422 Z14.142 F320.000
G1 X36.727 Y45.029 Z13.811 F320.000
G1 X37.598 Y45.498 Z14.011 F320.000
G1 X38.535 Y45.818 Z14.142 F320.000
G1 X39.512 Y45.980 Z14.142 F320.000
G1 X40.502 Y45.979 Z14.143 F320.000
G1 X41.479 Y45.815 Z14.143 F320.000
G1 X42.415 Y45.492 Z14.005 F320.000
G1 X43.285 Y45.020 Z13.822 F320.000
G1 X44.066 Y44.412 Z14.143 F320.000
G1 X44.736 Y43.683 Z14.142 F320.000
G1 X45.278 Y42.854 Z14.142 F320.000
G1 X45.675 Y41.947 Z14.142 F320.000
G1 X45.918 Y40.987 Z14.111 F320.000
G1 X46.000 Y40.000 Z13.515 F320.000
G1 X46.000 Y39.970 Z13.549 F320.000
(End of step 5.)
(Begin step 6.)
G1 X46.600 Y39.970 Z14.081 F320.000
(part 1.)
G1 X46.600 Y39.970 Z14.081 F320.000
G1 X46.521 Y38.987 Z14.556 F320.000
G1 X46.298 Y38.027 Z14.598 F320.000
G1 X45.934 Y37.111 Z14.598 F320.000
G1 X45.437 Y36.260 Z14.598 F320.000
G1 X44.820 Y35.491 Z14.598 F320.000
G1 X44.095 Y34.824 Z14.544 F320.000
G1 X43.278 Y34.272 Z14.076 F320.000
G1 X42.388 Y33.847 Z14.555 F320.000
G1 X41.445 Y33.560 Z14.598 F320.000
G1 X40.470 Y33.417 Z14.598 F320.000
G1 X39.484 Y33.420 Z14.598 F320.000
G1 X38.510 Y33.570 Z14.598 F320.000
G1 X37.569 Y33.864 Z14.545 F320.000
G1 X36.682 Y34.294 Z14.072 F320.000
G1 X35.870 Y34.852 Z14.554 F320.000
G1 X35.149 Y35.524 Z14.598 F320.000
G1 X34.536 Y36.297 Z14.598 F320.000
G1 X34.046 Y37.152 Z14.598 F320.000
G1 X33.688 Y38.070 Z14.598 F320.000
G1 X33.471 Y39.032 Z14.546 F320.000
G1 X33.400 Y40.015 Z14.068 F320.000
G1 X33.475 Y40.998 Z14.553 F320.000
G1 X33.697 Y41.958 Z14.598 F320.000
G1 X34.059 Y42.875 Z14.598 F320.000
G1 X34.553 Y43.728 Z14.598 F320.000
G1 X35.169 Y44.497 Z14.598 F320.000
G1 X35.893 Y45.167 Z14.547 F320.000
G1 X36.708 Y45.721 Z14.064 F320.000
G1 X37.597 Y46.147 Z14.552 F320.000
G1 X38.539 Y46.436 Z14.598 F320.000
G1 X39.514 Y46.582 Z14.598 F320.000
G1 X40.500 Y46.581 Z14.598 F320.000
G1 X41.475 Y46.433 Z14.598 F320.000
G1 X42.416 Y46.142 Z14.549 F320.000
G1 X43.304 Y45.713 Z14.060 F320.000
G1 X44.118 Y45.157 Z14.551 F320.000
G1 X44.840 Y44.486 Z14.598 F320.000
G1 X45.454 Y43.715 Z14.598 F320.000
G1 X45.947 Y42.862 Z14.598 F320.000
G1 X46.307 Y41.944 Z14.598 F320.000
G1 X46.526 Y40.983 Z14.550 F320.000
G1 X46.600 Y40.000 Z14.055 F320.000
G1 X46.600 Y39.970 Z14.081 F320.000
(End of step 6.)
(Begin step 7.)
G1 X47.200 Y39.970 Z14.354 F320.000
(part 1.)
G1 X47.200 Y39.970 Z14.354 F320.000
G1 X47.129 Y38.990 Z14.801 F320.000
G1 X46.925 Y38.030 Z14.862 F320.000
G1 X46.592 Y37.106 Z14.862 F320.000
G1 X46.137 Y36.236 Z14.862 F320.000
G1 X45.568 Y35.435 Z14.862 F320.000
G1 X44.895 Y34.720 Z14.862 F320.000
G1 X44.131 Y34.103 Z14.684 F320.000
G1 X43.290 Y33.596 Z14.556 F320.000
G1 X42.388 Y33.208 Z14.851 F320.000
G1 X41.442 Y32.946 Z14.862 F320.000
G1 X40.468 Y32.815 Z14.862 F320.000
G1 X39.486 Y32.818 Z14.862 F320.000
G1 X38.514 Y32.955 Z14.862 F320.000
G1 X37.569 Y33.223 Z14.847 F320.000
G1 X36.669 Y33.616 Z14.531 F320.000
G1 X35.832 Y34.129 Z14.701 F320.000
G1 X35.071 Y34.751 Z14.862 F320.000
G1 X34.403 Y35.470 Z14.862 F320.000
G1 X33.839 Y36.274 Z14.862 F320.000
G1 X33.389 Y37.147 Z14.862 F320.000
G1 X33.062 Y38.073 Z14.862 F320.000
G1 X32.865 Y39.035 Z14.790 F320.000
G1 X32.800 Y40.015 Z14.343 F320.000
G1 X32.869 Y40.995 Z14.797 F320.000
G1 X33.070 Y41.956 Z14.862 F320.000
G1 X33.401 Y42.880 Z14.862 F320.000
G1 X33.854 Y43.751 Z14.862 F320.000
G1 X34.422 Y44.553 Z14.862 F320.000
G1 X35.093 Y45.269 Z14.862 F320.000
G1 X35.856 Y45.888 Z14.690 F320.000
G1 X36.696 Y46.397 Z14.548 F320.000
G1 X37.597 Y46.787 Z14.850 F320.000
G1 X38.543 Y47.051 Z14.862 F320.000
G1 X39.516 Y47.184 Z14.862 F320.000
G1 X40.498 Y47.183 Z14.862 F320.000
G1 X41.471 Y47.048 Z14.862 F320.000
G1 X42.416 Y46.782 Z14.848 F320.000
G1 X43.317 Y46.390 Z14.540 F320.000
G1 X44.155 Y45.879 Z14.695 F320.000
G1 X44.917 Y45.259 Z14.862 F320.000
G1 X45.587 Y44.541 Z14.862 F320.000
G1 X46.153 Y43.739 Z14.862 F320.000
G1 X46.604 Y42.867 Z14.862 F320.000
G1 X46.933 Y41.941 Z14.862 F320.000
G1 X47.133 Y40.980 Z14.794 F320.000
G1 X47.200 Y40.000 Z14.331 F320.000
G1 X47.200 Y39.970 Z14.354 F320.000
(End of step 7.)
(Begin step 8.)
G1 X47.800 Y39.970 Z14.456 F320.000
(part 1.)
G1 X47.800 Y39.970 Z14.456 F320.000
G1 X47.732 Y38.973 Z14.906 F320.000
G1 X47.537 Y37.994 Z14.985 F320.000
G1 X47.219 Y37.047 Z14.985 F320.000
G1 X46.782 Y36.148 Z14.985 F320.000
G1 X46.234 Y35.313 Z14.985 F320.000
G1 X45.584 Y34.555 Z14.985 F320.000
G1 X44.843 Y33.886 Z14.930 F320.000
G1 X44.022 Y33.317 Z14.530 F320.000
G1 X43.135 Y32.858 Z14.860 F320.000
G1 X42.196 Y32.516 Z14.985 F320.000
G1 X41.222 Y32.296 Z14.985 F320.000
G1 X40.227 Y32.203 Z14.985 F320.000
G1 X39.229 Y32.238 Z14.985 F320.000
G1 X38.243 Y32.400 Z14.985 F320.000
G1 X37.286 Y32.687 Z14.959 F320.000
G1 X36.374 Y33.094 Z14.631 F320.000
G1 X35.521 Y33.614 Z14.801 F320.000
G1 X34.742 Y34.239 Z14.985 F320.000
G1 X34.048 Y34.958 Z14.985 F320.000
G1 X33.453 Y35.760 Z14.985 F320.000
G1 X32.965 Y36.631 Z14.985 F320.000
G1 X32.592 Y37.558 Z14.985 F320.000
G1 X32.340 Y38.524 Z14.977 F320.000
G1 X32.215 Y39.515 Z14.717 F320.000
G1 X32.217 Y40.514 Z14.731 F320.000
G1 X32.346 Y41.505 Z14.979 F320.000
G1 X32.601 Y42.471 Z14.985 F320.000
G1 X32.978 Y43.396 Z14.985 F320.000
G1 X33.469 Y44.265 Z14.985 F320.000
G1 X34.068 Y45.065 Z14.985 F320.000
G1 X34.764 Y45.781 Z14.985 F320.000
G1 X35.546 Y46.403 Z14.790 F320.000
G1 X36.401 Y46.920 Z14.647 F320.000
G1 X37.314 Y47.323 Z14.963 F320.000
G1 X38.272 Y47.606 Z14.985 F320.000
G1 X39.259 Y47.765 Z14.985 F320.000
G1 X40.257 Y47.796 Z14.985 F320.000
G1 X41.251 Y47.699 Z14.985 F320.000
G1 X42.225 Y47.476 Z14.985 F320.000
G1 X43.162 Y47.130 Z14.850 F320.000
G1 X44.047 Y46.667 Z14.549 F320.000
G1 X44.866 Y46.096 Z14.936 F320.000
G1 X45.605 Y45.424 Z14.985 F320.000
G1 X46.252 Y44.663 Z14.985 F320.000
G1 X46.797 Y43.825 Z14.985 F320.000
G1 X47.230 Y42.925 Z14.985 F320.000
G1 X47.545 Y41.977 Z14.985 F320.000
G1 X47.736 Y40.997 Z14.899 F320.000
G1 X47.800 Y40.000 Z14.434 F320.000
G1 X47.800 Y39.970 Z14.456 F320.000
(End of step 8.)
(Begin step 9.)
G1 X48.400 Y39.970 Z14.458 F320.000
(part 1.)
G1 X48.400 Y39.970 Z14.458 F320.000
G1 X48.337 Y38.977 Z14.911 F320.000
G1 X48.158 Y37.999 Z15.000 F320.000
G1 X47.864 Y37.048 Z15.000 F320.000
G1 X47.460 Y36.140 Z15.000 F320.000
G1 X46.951 Y35.285 Z15.000 F320.000
G1 X46.345 Y34.496 Z15.000 F320.000
G1 X45.650 Y33.785 Z15.000 F320.000
G1 X44.876 Y33.160 Z14.847 F320.000
G1 X44.033 Y32.632 Z14.563 F320.000
G1 X43.134 Y32.207 Z14.946 F320.000
G1 X42.191 Y31.891 Z15.000 F320.000
G1 X41.217 Y31.689 Z15.000 F320.000
G1 X40.226 Y31.603 Z15.000 F320.000
G1 X39.232 Y31.635 Z15.000 F320.000
G1 X38.248 Y31.784 Z15.000 F320.000
G1 X37.290 Y32.049 Z14.998 F320.000
G1 X36.369 Y32.425 Z14.788 F320.000
G1 X35.499 Y32.907 Z14.654 F320.000
G1 X34.692 Y33.489 Z14.972 F320.000
G1 X33.960 Y34.162 Z15.000 F320.000
G1 X33.312 Y34.917 Z15.000 F320.000
G1 X32.758 Y35.743 Z15.000 F320.000
G1 X32.306 Y36.629 Z15.000 F320.000
G1 X31.961 Y37.562 Z15.000 F320.000
G1 X31.729 Y38.530 Z14.987 F320.000
G1 X31.613 Y39.518 Z14.719 F320.000
G1 X31.615 Y40.512 Z14.733 F320.000
G1 X31.735 Y41.500 Z14.990 F320.000
G1 X31.970 Y42.466 Z15.000 F320.000
G1 X32.318 Y43.398 Z15.000 F320.000
G1 X32.773 Y44.282 Z15.000 F320.000
G1 X33.330 Y45.106 Z15.000 F320.000
G1 X33.980 Y45.859 Z15.000 F320.000
G1 X34.715 Y46.529 Z14.968 F320.000
G1 X35.524 Y47.108 Z14.638 F320.000
G1 X36.396 Y47.588 Z14.800 F320.000
G1 X37.318 Y47.960 Z14.999 F320.000
G1 X38.278 Y48.222 Z15.000 F320.000
G1 X39.262 Y48.367 Z15.000 F320.000
G1 X40.256 Y48.396 Z15.000 F320.000
G1 X41.247 Y48.307 Z15.000 F320.000
G1 X42.220 Y48.101 Z15.000 F320.000
G1 X43.162 Y47.782 Z14.940 F320.000
G1 X44.060 Y47.354 Z14.545 F320.000
G1 X44.900 Y46.822 Z14.856 F320.000
G1 X45.672 Y46.195 Z15.000 F320.000
G1 X46.365 Y45.481 Z15.000 F320.000
G1 X46.968 Y44.690 Z15.000 F320.000
G1 X47.474 Y43.834 Z15.000 F320.000
G1 X47.875 Y42.923 Z15.000 F320.000
G1 X48.165 Y41.972 Z15.000 F320.000
G1 X48.341 Y40.993 Z14.903 F320.000
G1 X48.400 Y40.000 Z14.437 F320.000
G1 X48.400 Y39.970 Z14.458 F320.000
(End of step 9.)
(Begin step 10.)
G1 X49.000 Y39.970 Z14.458 F320.000
(part 1.)
G1 X49.000 Y39.970 Z14.458 F320.000
G1 X48.942 Y38.981 Z14.910 F320.000
G1 X48.775 Y38.004 Z15.000 F320.000
G1 X48.503 Y37.051 Z15.000 F320.000
G1 X48.127 Y36.134 Z15.000 F320.000
G1 X47.653 Y35.264 Z15.000 F320.000
G1 X47.085 Y34.451 Z15.000 F320.000
G1 X46.432 Y33.705 Z15.000 F320.000
G1 X45.701 Y33.036 Z14.986 F320.000
G1 X44.901 Y32.452 Z14.713 F320.000
G1 X44.041 Y31.958 Z14.736 F320.000
G1 X43.133 Y31.563 Z14.990 F320.000
G1 X42.186 Y31.270 Z15.000 F320.000
G1 X41.213 Y31.082 Z15.000 F320.000
G1 X40.225 Y31.003 Z15.000 F320.000
G1 X39.234 Y31.032 Z15.000 F320.000
G1 X38.253 Y31.171 Z15.000 F320.000
G1 X37.293 Y31.417 Z15.000 F320.000
G1 X36.366 Y31.766 Z14.897 F320.000
G1 X35.482 Y32.216 Z14.451 F320.000
G1 X34.654 Y32.760 Z14.907 F320.000
G1 X33.890 Y33.391 Z15.000 F320.000
G1 X33.201 Y34.103 Z15.000 F320.000
G1 X32.593 Y34.886 Z15.000 F320.000
G1 X32.076 Y35.732 Z15.000 F320.000
G1 X31.655 Y36.629 Z15.000 F320.000
G1 X31.335 Y37.567 Z15.000 F320.000
G1 X31.120 Y38.534 Z14.987 F320.000
G1 X31.012 Y39.519 Z14.718 F320.000
G1 X31.014 Y40.510 Z14.732 F320.000
G1 X31.125 Y41.495 Z14.989 F320.000
G1 X31.343 Y42.462 Z15.000 F320.000
G1 X31.666 Y43.399 Z15.000 F320.000
G1 X32.090 Y44.295 Z15.000 F320.000
G1 X32.611 Y45.138 Z15.000 F320.000
G1 X33.220 Y45.919 Z15.000 F320.000
G1 X33.912 Y46.629 Z15.000 F320.000
G1 X34.678 Y47.258 Z14.899 F320.000
G1 X35.508 Y47.799 Z14.444 F320.000
G1 X36.393 Y48.246 Z14.905 F320.000
G1 X37.322 Y48.592 Z15.000 F320.000
G1 X38.282 Y48.835 Z15.000 F320.000
G1 X39.264 Y48.970 Z15.000 F320.000
G1 X40.255 Y48.996 Z15.000 F320.000
G1 X41.243 Y48.914 Z15.000 F320.000
G1 X42.215 Y48.723 Z15.000 F320.000
G1 X43.161 Y48.426 Z14.987 F320.000
G1 X44.068 Y48.028 Z14.723 F320.000
G1 X44.926 Y47.532 Z14.727 F320.000
G1 X45.724 Y46.944 Z14.988 F320.000
G1 X46.453 Y46.273 Z15.000 F320.000
G1 X47.104 Y45.525 Z15.000 F320.000
G1 X47.668 Y44.711 Z15.000 F320.000
G1 X48.140 Y43.839 Z15.000 F320.000
G1 X48.512 Y42.921 Z15.000 F320.000
G1 X48.782 Y41.967 Z15.000 F320.000
G1 X48.945 Y40.989 Z14.902 F320.000
G1 X49.000 Y40.000 Z14.437 F320.000
G1 X49.000 Y39.970 Z14.458 F320.000
(End of step 10.)
(Begin step 11.)
G1 X49.600 Y39.970 Z14.458 F320.000
(part 1.)
G1 X49.600 Y39.970 Z14.458 F320.000
G1 X49.546 Y38.983 Z14.909 F320.000
G1 X49.391 Y38.008 Z15.000 F320.000
G1 X49.136 Y37.053 Z15.000 F320.000
G1 X48.785 Y36.130 Z15.000 F320.000
G1 X48.341 Y35.247 Z15.000 F320.000
G1 X47.808 Y34.415 Z15.000 F320.000
G1 X47.193 Y33.643 Z15.000 F320.000
G1 X46.501 Y32.937 Z15.000 F320.000
G1 X45.741 Y32.306 Z14.934 F320.000
G1 X44.920 Y31.757 Z14.531 F320.000
G1 X44.047 Y31.295 Z14.861 F320.000
G1 X43.131 Y30.925 Z15.000 F320.000
G1 X42.182 Y30.651 Z15.000 F320.000
G1 X41.209 Y30.476 Z15.000 F320.000
G1 X40.224 Y30.403 Z15.000 F320.000
G1 X39.237 Y30.430 Z15.000 F320.000
G1 X38.257 Y30.559 Z15.000 F320.000
G1 X37.296 Y30.788 Z15.000 F320.000
G1 X36.364 Y31.115 Z14.965 F320.000
G1 X35.470 Y31.536 Z14.631 F320.000
G1 X34.624 Y32.046 Z14.802 F320.000
G1 X33.835 Y32.641 Z14.999 F320.000
G1 X33.112 Y33.313 Z15.000 F320.000
G1 X32.461 Y34.056 Z15.000 F320.000
G1 X31.890 Y34.863 Z15.000 F320.000
G1 X31.405 Y35.723 Z15.000 F320.000
G1 X31.011 Y36.629 Z15.000 F320.000
G1 X30.712 Y37.571 Z15.000 F320.000
G1 X30.512 Y38.538 Z14.986 F320.000
G1 X30.412 Y39.521 Z14.717 F320.000
G1 X30.413 Y40.509 Z14.731 F320.000
G1 X30.516 Y41.491 Z14.989 F320.000
G1 X30.720 Y42.458 Z15.000 F320.000
G1 X31.021 Y43.399 Z15.000 F320.000
G1 X31.418 Y44.303 Z15.000 F320.000
G1 X31.906 Y45.163 Z15.000 F320.000
G1 X32.479 Y45.967 Z15.000 F320.000
G1 X33.132 Y46.708 Z15.000 F320.000
G1 X33.858 Y47.378 Z14.998 F320.000
G1 X34.649 Y47.971 Z14.790 F320.000
G1 X35.497 Y48.478 Z14.648 F320.000
G1 X36.392 Y48.896 Z14.970 F320.000
G1 X37.325 Y49.220 Z15.000 F320.000
G1 X38.287 Y49.446 Z15.000 F320.000
G1 X39.267 Y49.572 Z15.000 F320.000
G1 X40.254 Y49.597 Z15.000 F320.000
G1 X41.239 Y49.520 Z15.000 F320.000
G1 X42.211 Y49.342 Z15.000 F320.000
G1 X43.159 Y49.065 Z15.000 F320.000
G1 X44.074 Y48.692 Z14.851 F320.000
G1 X44.946 Y48.228 Z14.550 F320.000
G1 X45.765 Y47.676 Z14.940 F320.000
G1 X46.524 Y47.043 Z15.000 F320.000
G1 X47.213 Y46.335 Z15.000 F320.000
G1 X47.826 Y45.560 Z15.000 F320.000
G1 X48.356 Y44.726 Z15.000 F320.000
G1 X48.797 Y43.842 Z15.000 F320.000
G1 X49.145 Y42.918 Z15.000 F320.000
G1 X49.397 Y41.963 Z15.000 F320.000
G1 X49.549 Y40.986 Z14.901 F320.000
G1 X49.600 Y40.000 Z14.437 F320.000
G1 X49.600 Y39.970 Z14.458 F320.000
(End of step 11.)
(Begin step 12.)
G1 X50.200 Y39.970 Z14.458 F320.000
(part 1.)
G1 X50.200 Y39.970 Z14.458 F320.000
G1 X50.149 Y38.986 Z14.908 F320.000
G1 X50.004 Y38.012 Z15.000 F320.000
G1 X49.766 Y37.056 Z15.000 F320.000
G1 X49.436 Y36.127 Z15.000 F320.000
G1 X49.018 Y35.235 Z15.000 F320.000
G1 X48.517 Y34.387 Z15.000 F320.000
G1 X47.936 Y33.592 Z15.000 F320.000
G1 X47.280 Y32.856 Z15.000 F320.000
G1 X46.557 Y32.187 Z15.000 F320.000
G1 X45.773 Y31.591 Z14.844 F320.000
G1 X44.935 Y31.073 Z14.562 F320.000
G1 X44.051 Y30.639 Z14.944 F320.000
G1 X43.129 Y30.292 Z15.000 F320.000
G1 X42.178 Y30.035 Z15.000 F320.000
G1 X41.206 Y29.872 Z15.000 F320.000
G1 X40.223 Y29.802 Z15.000 F320.000
G1 X39.239 Y29.828 Z15.000 F320.000
G1 X38.261 Y29.949 Z15.000 F320.000
G1 X37.300 Y30.164 Z15.000 F320.000
G1 X36.363 Y30.470 Z14.997 F320.000
G1 X35.461 Y30.865 Z14.786 F320.000
G1 X34.601 Y31.346 Z14.652 F320.000
G1 X33.791 Y31.907 Z14.970 F320.000
G1 X33.039 Y32.544 Z15.000 F320.000
G1 X32.353 Y33.250 Z15.000 F320.000
G1 X31.737 Y34.019 Z15.000 F320.000
G1 X31.199 Y34.844 Z15.000 F320.000
G1 X30.742 Y35.717 Z15.000 F320.000
G1 X30.372 Y36.630 Z15.000 F320.000
G1 X30.092 Y37.575 Z15.000 F320.000
G1 X29.904 Y38.542 Z14.986 F320.000
G1 X29.811 Y39.522 Z14.717 F320.000
G1 X29.812 Y40.507 Z14.731 F320.000
G1 X29.909 Y41.488 Z14.989 F320.000
G1 X30.099 Y42.454 Z15.000 F320.000
G1 X30.382 Y43.398 Z15.000 F320.000
G1 X30.755 Y44.310 Z15.000 F320.000
G1 X31.214 Y45.182 Z15.000 F320.000
G1 X31.755 Y46.005 Z15.000 F320.000
G1 X32.372 Y46.772 Z15.000 F320.000
G1 X33.061 Y47.477 Z15.000 F320.000
G1 X33.815 Y48.111 Z14.966 F320.000
G1 X34.626 Y48.670 Z14.636 F320.000
G1 X35.488 Y49.148 Z14.798 F320.000
G1 X36.391 Y49.540 Z14.998 F320.000
G1 X37.328 Y49.844 Z15.000 F320.000
G1 X38.291 Y50.056 Z15.000 F320.000
G1 X39.269 Y50.174 Z15.000 F320.000
G1 X40.253 Y50.197 Z15.000 F320.000
G1 X41.236 Y50.125 Z15.000 F320.000
G1 X42.207 Y49.958 Z15.000 F320.000
G1 X43.157 Y49.699 Z15.000 F320.000
G1 X44.078 Y49.349 Z14.938 F320.000
G1 X44.961 Y48.912 Z14.544 F320.000
G1 X45.798 Y48.392 Z14.854 F320.000
G1 X46.580 Y47.793 Z15.000 F320.000
G1 X47.301 Y47.122 Z15.000 F320.000
G1 X47.954 Y46.384 Z15.000 F320.000
G1 X48.533 Y45.587 Z15.000 F320.000
G1 X49.032 Y44.738 Z15.000 F320.000
G1 X49.447 Y43.845 Z15.000 F320.000
G1 X49.774 Y42.915 Z15.000 F320.000
G1 X50.010 Y41.959 Z15.000 F320.000
G1 X50.152 Y40.984 Z14.901 F320.000
G1 X50.200 Y40.000 Z14.437 F320.000
G1 X50.200 Y39.970 Z14.458 F320.000
(End of step 12.)
(Begin step 13.)
G1 X50.800 Y39.970 Z14.458 F320.000
(part 1.)
G1 X50.800 Y39.970 Z14.458 F320.000
G1 X50.751 Y38.974 Z14.911 F320.000
G1 X50.610 Y37.987 Z15.000 F320.000
G1 X50.379 Y37.017 Z15.000 F320.000
G1 X50.060 Y36.072 Z15.000 F320.000
G1 X49.655 Y35.161 Z15.000 F320.000
G1 X49.168 Y34.291 Z15.000 F320.000
G1 X48.602 Y33.470 Z15.000 F320.000
G1 X47.963 Y32.704 Z15.000 F320.000
G1 X47.256 Y32.001 Z15.000 F320.000
G1 X46.488 Y31.366 Z14.966 F320.000
G1 X45.664 Y30.804 Z14.630 F320.000
G1 X44.791 Y30.321 Z14.806 F320.000
G1 X43.878 Y29.920 Z14.999 F320.000
G1 X42.932 Y29.606 Z15.000 F320.000
G1 X41.961 Y29.380 Z15.000 F320.000
G1 X40.973 Y29.244 Z15.000 F320.000
G1 X39.977 Y29.200 Z15.000 F320.000
G1 X38.981 Y29.248 Z15.000 F320.000
G1 X37.994 Y29.388 Z15.000 F320.000
G1 X37.024 Y29.618 Z15.000 F320.000
G1 X36.079 Y29.937 Z14.998 F320.000
G1 X35.167 Y30.341 Z14.789 F320.000
G1 X34.297 Y30.828 Z14.655 F320.000
G1 X33.476 Y31.393 Z14.973 F320.000
G1 X32.710 Y32.031 Z15.000 F320.000
G1 X32.006 Y32.738 Z15.000 F320.000
G1 X31.370 Y33.506 Z15.000 F320.000
G1 X30.808 Y34.329 Z15.000 F320.000
G1 X30.324 Y35.201 Z15.000 F320.000
G1 X29.923 Y36.114 Z15.000 F320.000
G1 X29.607 Y37.060 Z15.000 F320.000
G1 X29.381 Y38.031 Z15.000 F320.000
G1 X29.244 Y39.019 Z14.900 F320.000
G1 X29.200 Y40.015 Z14.447 F320.000
G1 X29.247 Y41.011 Z14.908 F320.000
G1 X29.386 Y41.998 Z15.000 F320.000
G1 X29.616 Y42.969 Z15.000 F320.000
G1 X29.934 Y43.914 Z15.000 F320.000
G1 X30.338 Y44.825 Z15.000 F320.000
G1 X30.824 Y45.696 Z15.000 F320.000
G1 X31.388 Y46.518 Z15.000 F320.000
G1 X32.026 Y47.284 Z15.000 F320.000
G1 X32.732 Y47.989 Z15.000 F320.000
G1 X33.500 Y48.625 Z14.969 F320.000
G1 X34.323 Y49.188 Z14.639 F320.000
G1 X35.194 Y49.672 Z14.801 F320.000
G1 X36.107 Y50.074 Z14.999 F320.000
G1 X37.053 Y50.390 Z15.000 F320.000
G1 X38.023 Y50.618 Z15.000 F320.000
G1 X39.011 Y50.755 Z15.000 F320.000
G1 X40.007 Y50.800 Z15.000 F320.000
G1 X41.003 Y50.753 Z15.000 F320.000
G1 X41.991 Y50.615 Z15.000 F320.000
G1 X42.961 Y50.386 Z15.000 F320.000
G1 X43.906 Y50.069 Z14.998 F320.000
G1 X44.818 Y49.665 Z14.795 F320.000
G1 X45.689 Y49.180 Z14.647 F320.000
G1 X46.512 Y48.616 Z14.971 F320.000
G1 X47.278 Y47.979 Z15.000 F320.000
G1 X47.983 Y47.273 Z15.000 F320.000
G1 X48.620 Y46.506 Z15.000 F320.000
G1 X49.183 Y45.683 Z15.000 F320.000
G1 X49.668 Y44.812 Z15.000 F320.000
G1 X50.071 Y43.900 Z15.000 F320.000
G1 X50.388 Y42.954 Z15.000 F320.000
G1 X50.616 Y41.984 Z15.000 F320.000
G1 X50.754 Y40.996 Z14.904 F320.000
G1 X50.800 Y40.000 Z14.437 F320.000
G1 X50.800 Y39.970 Z14.458 F320.000
(End of step 13.)
(Begin step 14.)
G1 X51.400 Y39.970 Z14.458 F320.000
(part 1.)
G1 X51.400 Y39.970 Z14.458 F320.000
G1 X51.354 Y38.977 Z14.911 F320.000
G1 X51.221 Y37.992 Z15.000 F320.000
G1 X51.004 Y37.022 Z15.000 F320.000
G1 X50.702 Y36.074 Z15.000 F320.000
G1 X50.320 Y35.157 Z15.000 F320.000
G1 X49.859 Y34.276 Z15.000 F320.000
G1 X49.322 Y33.439 Z15.000 F320.000
G1 X48.715 Y32.652 Z15.000 F320.000
G1 X48.042 Y31.920 Z15.000 F320.000
G1 X47.308 Y31.250 Z15.000 F320.000
G1 X46.518 Y30.647 Z14.896 F320.000
G1 X45.678 Y30.115 Z14.454 F320.000
G1 X44.795 Y29.658 Z14.909 F320.000
G1 X43.876 Y29.279 Z15.000 F320.000
G1 X42.927 Y28.982 Z15.000 F320.000
G1 X41.956 Y28.769 Z15.000 F320.000
G1 X40.970 Y28.641 Z15.000 F320.000
G1 X39.977 Y28.600 Z15.000 F320.000
G1 X38.984 Y28.645 Z15.000 F320.000
G1 X37.999 Y28.777 Z15.000 F320.000
G1 X37.029 Y28.994 Z15.000 F320.000
G1 X36.081 Y29.295 Z15.000 F320.000
G1 X35.163 Y29.677 Z14.898 F320.000
G1 X34.282 Y30.137 Z14.451 F320.000
G1 X33.445 Y30.673 Z14.908 F320.000
G1 X32.657 Y31.279 Z15.000 F320.000
G1 X31.925 Y31.952 Z15.000 F320.000
G1 X31.255 Y32.686 Z15.000 F320.000
G1 X30.651 Y33.476 Z15.000 F320.000
G1 X30.118 Y34.315 Z15.000 F320.000
G1 X29.661 Y35.198 Z15.000 F320.000
G1 X29.281 Y36.117 Z15.000 F320.000
G1 X28.984 Y37.065 Z15.000 F320.000
G1 X28.770 Y38.036 Z15.000 F320.000
G1 X28.642 Y39.022 Z14.899 F320.000
G1 X28.600 Y40.015 Z14.447 F320.000
G1 X28.644 Y41.008 Z14.907 F320.000
G1 X28.775 Y41.993 Z15.000 F320.000
G1 X28.992 Y42.964 Z15.000 F320.000
G1 X29.292 Y43.911 Z15.000 F320.000
G1 X29.673 Y44.829 Z15.000 F320.000
G1 X30.133 Y45.711 Z15.000 F320.000
G1 X30.668 Y46.549 Z15.000 F320.000
G1 X31.274 Y47.337 Z15.000 F320.000
G1 X31.947 Y48.069 Z15.000 F320.000
G1 X32.680 Y48.740 Z15.000 F320.000
G1 X33.469 Y49.344 Z14.900 F320.000
G1 X34.308 Y49.878 Z14.444 F320.000
G1 X35.190 Y50.336 Z14.906 F320.000
G1 X36.109 Y50.716 Z15.000 F320.000
G1 X37.058 Y51.014 Z15.000 F320.000
G1 X38.028 Y51.228 Z15.000 F320.000
G1 X39.014 Y51.357 Z15.000 F320.000
G1 X40.007 Y51.400 Z15.000 F320.000
G1 X41.000 Y51.356 Z15.000 F320.000
G1 X41.986 Y51.226 Z15.000 F320.000
G1 X42.956 Y51.010 Z15.000 F320.000
G1 X43.904 Y50.710 Z15.000 F320.000
G1 X44.822 Y50.330 Z14.902 F320.000
G1 X45.704 Y49.870 Z14.440 F320.000
G1 X46.542 Y49.336 Z14.904 F320.000
G1 X47.331 Y48.730 Z15.000 F320.000
G1 X48.063 Y48.058 Z15.000 F320.000
G1 X48.735 Y47.325 Z15.000 F320.000
G1 X49.340 Y46.536 Z15.000 F320.000
G1 X49.874 Y45.698 Z15.000 F320.000
G1 X50.332 Y44.816 Z15.000 F320.000
G1 X50.713 Y43.897 Z15.000 F320.000
G1 X51.011 Y42.949 Z15.000 F320.000
G1 X51.227 Y41.979 Z15.000 F320.000
G1 X51.356 Y40.993 Z14.903 F320.000
G1 X51.400 Y40.000 Z14.437 F320.000
G1 X51.400 Y39.970 Z14.458 F320.000
(End of step 14.)
(Begin step 15.)
G1 X52.000 Y39.970 Z14.458 F320.000
(part 1.)
G1 X52.000 Y39.970 Z14.458 F320.000
G1 X51.956 Y38.979 Z14.910 F320.000
G1 X51.831 Y37.996 Z15.000 F320.000
G1 X51.625 Y37.026 Z15.000 F320.000
G1 X51.340 Y36.077 Z15.000 F320.000
G1 X50.978 Y35.154 Z15.000 F320.000
G1 X50.540 Y34.264 Z15.000 F320.000
G1 X50.031 Y33.414 Z15.000 F320.000
G1 X49.453 Y32.608 Z15.000 F320.000
G1 X48.810 Y31.853 Z15.000 F320.000
G1 X48.108 Y31.154 Z15.000 F320.000
G1 X47.350 Y30.514 Z14.997 F320.000
G1 X46.542 Y29.940 Z14.785 F320.000
G1 X45.689 Y29.434 Z14.656 F320.000
G1 X44.798 Y29.001 Z14.972 F320.000
G1 X43.873 Y28.642 Z15.000 F320.000
G1 X42.922 Y28.361 Z15.000 F320.000
G1 X41.952 Y28.160 Z15.000 F320.000
G1 X40.968 Y28.039 Z15.000 F320.000
G1 X39.977 Y28.000 Z15.000 F320.000
G1 X38.987 Y28.043 Z15.000 F320.000
G1 X38.003 Y28.167 Z15.000 F320.000
G1 X37.033 Y28.372 Z15.000 F320.000
G1 X36.083 Y28.657 Z15.000 F320.000
G1 X35.160 Y29.019 Z14.966 F320.000
G1 X34.271 Y29.456 Z14.632 F320.000
G1 X33.420 Y29.965 Z14.803 F320.000
G1 X32.614 Y30.542 Z14.999 F320.000
G1 X31.858 Y31.184 Z15.000 F320.000
G1 X31.158 Y31.886 Z15.000 F320.000
G1 X30.519 Y32.644 Z15.000 F320.000
G1 X29.944 Y33.451 Z15.000 F320.000
G1 X29.438 Y34.304 Z15.000 F320.000
G1 X29.004 Y35.195 Z15.000 F320.000
G1 X28.644 Y36.119 Z15.000 F320.000
G1 X28.363 Y37.070 Z15.000 F320.000
G1 X28.161 Y38.040 Z15.000 F320.000
G1 X28.039 Y39.024 Z14.898 F320.000
G1 X28.000 Y40.015 Z14.447 F320.000
G1 X28.042 Y41.005 Z14.906 F320.000
G1 X28.166 Y41.989 Z15.000 F320.000
G1 X28.370 Y42.959 Z15.000 F320.000
G1 X28.654 Y43.909 Z15.000 F320.000
G1 X29.016 Y44.832 Z15.000 F320.000
G1 X29.452 Y45.722 Z15.000 F320.000
G1 X29.960 Y46.574 Z15.000 F320.000
G1 X30.537 Y47.380 Z15.000 F320.000
G1 X31.179 Y48.136 Z15.000 F320.000
G1 X31.880 Y48.836 Z15.000 F320.000
G1 X32.637 Y49.476 Z14.998 F320.000
G1 X33.445 Y50.052 Z14.791 F320.000
G1 X34.297 Y50.558 Z14.648 F320.000
G1 X35.188 Y50.993 Z14.970 F320.000
G1 X36.112 Y51.353 Z15.000 F320.000
G1 X37.062 Y51.635 Z15.000 F320.000
G1 X38.033 Y51.838 Z15.000 F320.000
G1 X39.017 Y51.960 Z15.000 F320.000
G1 X40.007 Y52.000 Z15.000 F320.000
G1 X40.998 Y51.958 Z15.000 F320.000
G1 X41.981 Y51.835 Z15.000 F320.000
G1 X42.952 Y51.631 Z15.000 F320.000
G1 X43.902 Y51.348 Z15.000 F320.000
G1 X44.825 Y50.987 Z14.968 F320.000
G1 X45.715 Y50.551 Z14.640 F320.000
G1 X46.567 Y50.043 Z14.797 F320.000
G1 X47.374 Y49.467 Z14.998 F320.000
G1 X48.130 Y48.826 Z15.000 F320.000
G1 X48.831 Y48.125 Z15.000 F320.000
G1 X49.471 Y47.368 Z15.000 F320.000
G1 X50.047 Y46.561 Z15.000 F320.000
G1 X50.554 Y45.709 Z15.000 F320.000
G1 X50.990 Y44.818 Z15.000 F320.000
G1 X51.350 Y43.895 Z15.000 F320.000
G1 X51.633 Y42.945 Z15.000 F320.000
G1 X51.836 Y41.974 Z15.000 F320.000
G1 X51.959 Y40.990 Z14.902 F320.000
G1 X52.000 Y40.000 Z14.437 F320.000
G1 X52.000 Y39.970 Z14.458 F320.000
(End of step 15.)
(Begin step 16.)
G1 X52.600 Y39.970 Z14.438 F320.000
(part 1.)
G1 X52.600 Y39.970 Z14.438 F320.000
G1 X52.558 Y38.982 Z14.895 F320.000
G1 X52.440 Y38.000 Z14.992 F320.000
G1 X52.245 Y37.030 Z14.992 F320.000
G1 X51.974 Y36.079 Z14.992 F320.000
G1 X51.630 Y35.152 Z14.992 F320.000
G1 X51.214 Y34.255 Z14.992 F320.000
G1 X50.729 Y33.393 Z14.992 F320.000
G1 X50.177 Y32.572 Z14.992 F320.000
G1 X49.563 Y31.797 Z14.992 F320.000
G1 X48.891 Y31.072 Z14.992 F320.000
G1 X48.163 Y30.402 Z14.992 F320.000
G1 X47.385 Y29.791 Z14.953 F320.000
G1 X46.562 Y29.244 Z14.610 F320.000
G1 X45.698 Y28.762 Z14.788 F320.000
G1 X44.799 Y28.350 Z14.990 F320.000
G1 X43.870 Y28.009 Z14.992 F320.000
G1 X42.918 Y27.743 Z14.992 F320.000
G1 X41.948 Y27.551 Z14.992 F320.000
G1 X40.965 Y27.437 Z14.992 F320.000
G1 X39.977 Y27.400 Z14.992 F320.000
G1 X38.989 Y27.441 Z14.992 F320.000
G1 X38.007 Y27.558 Z14.992 F320.000
G1 X37.037 Y27.753 Z14.992 F320.000
G1 X36.086 Y28.023 Z14.992 F320.000
G1 X35.159 Y28.367 Z14.988 F320.000
G1 X34.261 Y28.782 Z14.770 F320.000
G1 X33.399 Y29.267 Z14.635 F320.000
G1 X32.578 Y29.818 Z14.960 F320.000
G1 X31.802 Y30.431 Z14.992 F320.000
G1 X31.077 Y31.104 Z14.992 F320.000
G1 X30.407 Y31.831 Z14.992 F320.000
G1 X29.795 Y32.608 Z14.992 F320.000
G1 X29.247 Y33.431 Z14.992 F320.000
G1 X28.765 Y34.295 Z14.992 F320.000
G1 X28.352 Y35.194 Z14.992 F320.000
G1 X28.011 Y36.122 Z14.992 F320.000
G1 X27.744 Y37.074 Z14.992 F320.000
G1 X27.552 Y38.044 Z14.992 F320.000
G1 X27.437 Y39.027 Z14.883 F320.000
G1 X27.400 Y40.015 Z14.427 F320.000
G1 X27.440 Y41.003 Z14.891 F320.000
G1 X27.557 Y41.985 Z14.992 F320.000
G1 X27.751 Y42.955 Z14.992 F320.000
G1 X28.020 Y43.906 Z14.992 F320.000
G1 X28.364 Y44.834 Z14.992 F320.000
G1 X28.779 Y45.732 Z14.992 F320.000
G1 X29.263 Y46.594 Z14.992 F320.000
G1 X29.813 Y47.416 Z14.992 F320.000
G1 X30.426 Y48.192 Z14.992 F320.000
G1 X31.098 Y48.917 Z14.992 F320.000
G1 X31.825 Y49.588 Z14.992 F320.000
G1 X32.602 Y50.200 Z14.955 F320.000
G1 X33.425 Y50.748 Z14.619 F320.000
G1 X34.288 Y51.231 Z14.782 F320.000
G1 X35.186 Y51.644 Z14.990 F320.000
G1 X36.115 Y51.986 Z14.992 F320.000
G1 X37.067 Y52.254 Z14.992 F320.000
G1 X38.037 Y52.446 Z14.992 F320.000
G1 X39.019 Y52.562 Z14.992 F320.000
G1 X40.007 Y52.600 Z14.992 F320.000
G1 X40.995 Y52.561 Z14.992 F320.000
G1 X41.977 Y52.444 Z14.992 F320.000
G1 X42.947 Y52.250 Z14.992 F320.000
G1 X43.899 Y51.981 Z14.992 F320.000
G1 X44.827 Y51.639 Z14.989 F320.000
G1 X45.725 Y51.224 Z14.776 F320.000
G1 X46.587 Y50.741 Z14.627 F320.000
G1 X47.409 Y50.191 Z14.958 F320.000
G1 X48.186 Y49.578 Z14.992 F320.000
G1 X48.912 Y48.907 Z14.992 F320.000
G1 X49.583 Y48.180 Z14.992 F320.000
G1 X50.195 Y47.404 Z14.992 F320.000
G1 X50.744 Y46.581 Z14.992 F320.000
G1 X51.227 Y45.718 Z14.992 F320.000
G1 X51.641 Y44.820 Z14.992 F320.000
G1 X51.983 Y43.892 Z14.992 F320.000
G1 X52.252 Y42.940 Z14.992 F320.000
G1 X52.445 Y41.970 Z14.992 F320.000
G1 X52.561 Y40.988 Z14.887 F320.000
G1 X52.600 Y40.000 Z14.417 F320.000
G1 X52.600 Y39.970 Z14.438 F320.000
(End of step 16.)
(Begin step 17.)
G1 X53.200 Y39.970 Z14.319 F320.000
(part 1.)
G1 X53.200 Y39.970 Z14.319 F320.000
G1 X53.160 Y38.972 Z14.800 F320.000
G1 X53.044 Y37.980 Z14.909 F320.000
G1 X52.854 Y37.000 Z14.909 F320.000
G1 X52.591 Y36.036 Z14.909 F320.000
G1 X52.255 Y35.096 Z14.909 F320.000
G1 X51.849 Y34.183 Z14.909 F320.000
G1 X51.375 Y33.304 Z14.909 F320.000
G1 X50.837 Y32.463 Z14.909 F320.000
G1 X50.236 Y31.666 Z14.909 F320.000
G1 X49.576 Y30.916 Z14.909 F320.000
G1 X48.862 Y30.218 Z14.909 F320.000
G1 X48.097 Y29.576 Z14.909 F320.000
G1 X47.286 Y28.993 Z14.730 F320.000
G1 X46.433 Y28.474 Z14.429 F320.000
G1 X45.543 Y28.020 Z14.839 F320.000
G1 X44.622 Y27.636 Z14.909 F320.000
G1 X43.674 Y27.322 Z14.909 F320.000
G1 X42.705 Y27.080 Z14.909 F320.000
G1 X41.720 Y26.913 Z14.909 F320.000
G1 X40.726 Y26.820 Z14.909 F320.000
G1 X39.727 Y26.803 Z14.909 F320.000
G1 X38.730 Y26.861 Z14.909 F320.000
G1 X37.741 Y26.995 Z14.909 F320.000
G1 X36.764 Y27.203 Z14.909 F320.000
G1 X35.806 Y27.484 Z14.909 F320.000
G1 X34.872 Y27.837 Z14.903 F320.000
G1 X33.967 Y28.259 Z14.667 F320.000
G1 X33.096 Y28.749 Z14.525 F320.000
G1 X32.266 Y29.303 Z14.870 F320.000
G1 X31.479 Y29.918 Z14.909 F320.000
G1 X30.741 Y30.591 Z14.909 F320.000
G1 X30.056 Y31.318 Z14.909 F320.000
G1 X29.428 Y32.095 Z14.909 F320.000
G1 X28.861 Y32.917 Z14.909 F320.000
G1 X28.357 Y33.779 Z14.909 F320.000
G1 X27.920 Y34.677 Z14.909 F320.000
G1 X27.553 Y35.605 Z14.909 F320.000
G1 X27.256 Y36.559 Z14.909 F320.000
G1 X27.032 Y37.532 Z14.909 F320.000
G1 X26.883 Y38.520 Z14.888 F320.000
G1 X26.809 Y39.516 Z14.594 F320.000
G1 X26.810 Y40.514 Z14.608 F320.000
G1 X26.886 Y41.510 Z14.891 F320.000
G1 X27.038 Y42.497 Z14.909 F320.000
G1 X27.264 Y43.470 Z14.909 F320.000
G1 X27.563 Y44.423 Z14.909 F320.000
G1 X27.933 Y45.350 Z14.909 F320.000
G1 X28.372 Y46.247 Z14.909 F320.000
G1 X28.877 Y47.108 Z14.909 F320.000
G1 X29.446 Y47.929 Z14.909 F320.000
G1 X30.076 Y48.704 Z14.909 F320.000
G1 X30.763 Y49.429 Z14.909 F320.000
G1 X31.502 Y50.101 Z14.909 F320.000
G1 X32.290 Y50.714 Z14.865 F320.000
G1 X33.122 Y51.267 Z14.508 F320.000
G1 X33.993 Y51.754 Z14.680 F320.000
G1 X34.899 Y52.175 Z14.904 F320.000
G1 X35.834 Y52.525 Z14.909 F320.000
G1 X36.793 Y52.805 Z14.909 F320.000
G1 X37.770 Y53.010 Z14.909 F320.000
G1 X38.760 Y53.142 Z14.909 F320.000
G1 X39.757 Y53.198 Z14.909 F320.000
G1 X40.756 Y53.178 Z14.909 F320.000
G1 X41.750 Y53.083 Z14.909 F320.000
G1 X42.734 Y52.914 Z14.909 F320.000
G1 X43.703 Y52.670 Z14.909 F320.000
G1 X44.650 Y52.354 Z14.909 F320.000
G1 X45.571 Y51.967 Z14.833 F320.000
G1 X46.459 Y51.511 Z14.410 F320.000
G1 X47.311 Y50.990 Z14.741 F320.000
G1 X48.121 Y50.406 Z14.909 F320.000
G1 X48.884 Y49.762 Z14.909 F320.000
G1 X49.597 Y49.062 Z14.909 F320.000
G1 X50.255 Y48.311 Z14.909 F320.000
G1 X50.854 Y47.512 Z14.909 F320.000
G1 X51.391 Y46.670 Z14.909 F320.000
G1 X51.862 Y45.789 Z14.909 F320.000
G1 X52.266 Y44.876 Z14.909 F320.000
G1 X52.600 Y43.935 Z14.909 F320.000
G1 X52.861 Y42.971 Z14.909 F320.000
G1 X53.049 Y41.990 Z14.909 F320.000
G1 X53.162 Y40.998 Z14.791 F320.000
G1 X53.200 Y40.000 Z14.297 F320.000
G1 X53.200 Y39.970 Z14.319 F320.000
(End of step 17.)
(Begin step 18.)
G1 X53.800 Y39.970 Z14.082 F320.000
(part 1.)
G1 X53.800 Y39.970 Z14.082 F320.000
G1 X53.761 Y38.975 Z14.599 F320.000
G1 X53.652 Y37.985 Z14.729 F320.000
G1 X53.471 Y37.005 Z14.729 F320.000
G1 X53.220 Y36.041 Z14.729 F320.000
G1 X52.900 Y35.098 Z14.729 F320.000
G1 X52.512 Y34.180 Z14.729 F320.000
G1 X52.060 Y33.293 Z14.729 F320.000
G1 X51.545 Y32.440 Z14.729 F320.000
G1 X50.969 Y31.627 Z14.729 F320.000
G1 X50.337 Y30.858 Z14.729 F320.000
G1 X49.650 Y30.136 Z14.729 F320.000
G1 X48.914 Y29.465 Z14.729 F320.000
G1 X48.131 Y28.850 Z14.697 F320.000
G1 X47.305 Y28.292 Z14.371 F320.000
G1 X46.442 Y27.796 Z14.397 F320.000
G1 X45.545 Y27.363 Z14.704 F320.000
G1 X44.619 Y26.996 Z14.729 F320.000
G1 X43.669 Y26.697 Z14.729 F320.000
G1 X42.699 Y26.467 Z14.729 F320.000
G1 X41.716 Y26.307 Z14.729 F320.000
G1 X40.724 Y26.219 Z14.729 F320.000
G1 X39.728 Y26.203 Z14.729 F320.000
G1 X38.734 Y26.258 Z14.729 F320.000
G1 X37.746 Y26.385 Z14.729 F320.000
G1 X36.769 Y26.583 Z14.729 F320.000
G1 X35.810 Y26.851 Z14.729 F320.000
G1 X34.872 Y27.188 Z14.729 F320.000
G1 X33.962 Y27.591 Z14.584 F320.000
G1 X33.082 Y28.059 Z14.074 F320.000
G1 X32.239 Y28.589 Z14.596 F320.000
G1 X31.436 Y29.178 Z14.729 F320.000
G1 X30.678 Y29.824 Z14.729 F320.000
G1 X29.968 Y30.523 Z14.729 F320.000
G1 X29.311 Y31.271 Z14.729 F320.000
G1 X28.709 Y32.065 Z14.729 F320.000
G1 X28.166 Y32.900 Z14.729 F320.000
G1 X27.685 Y33.772 Z14.729 F320.000
G1 X27.268 Y34.677 Z14.729 F320.000
G1 X26.917 Y35.609 Z14.729 F320.000
G1 X26.634 Y36.564 Z14.729 F320.000
G1 X26.421 Y37.537 Z14.729 F320.000
G1 X26.279 Y38.523 Z14.699 F320.000
G1 X26.208 Y39.517 Z14.377 F320.000
G1 X26.209 Y40.513 Z14.392 F320.000
G1 X26.282 Y41.506 Z14.703 F320.000
G1 X26.426 Y42.492 Z14.729 F320.000
G1 X26.642 Y43.464 Z14.729 F320.000
G1 X26.926 Y44.419 Z14.729 F320.000
G1 X27.279 Y45.351 Z14.729 F320.000
G1 X27.698 Y46.254 Z14.729 F320.000
G1 X28.181 Y47.125 Z14.729 F320.000
G1 X28.726 Y47.959 Z14.729 F320.000
G1 X29.330 Y48.752 Z14.729 F320.000
G1 X29.989 Y49.498 Z14.729 F320.000
G1 X30.700 Y50.196 Z14.729 F320.000
G1 X31.460 Y50.840 Z14.729 F320.000
G1 X32.264 Y51.428 Z14.587 F320.000
G1 X33.108 Y51.956 Z14.066 F320.000
G1 X33.989 Y52.422 Z14.593 F320.000
G1 X34.900 Y52.823 Z14.729 F320.000
G1 X35.839 Y53.158 Z14.729 F320.000
G1 X36.799 Y53.424 Z14.729 F320.000
G1 X37.775 Y53.619 Z14.729 F320.000
G1 X38.763 Y53.744 Z14.729 F320.000
G1 X39.758 Y53.798 Z14.729 F320.000
G1 X40.754 Y53.779 Z14.729 F320.000
G1 X41.746 Y53.689 Z14.729 F320.000
G1 X42.729 Y53.527 Z14.729 F320.000
G1 X43.697 Y53.295 Z14.729 F320.000
G1 X44.647 Y52.994 Z14.729 F320.000
G1 X45.572 Y52.625 Z14.700 F320.000
G1 X46.468 Y52.190 Z14.382 F320.000
G1 X47.331 Y51.692 Z14.387 F320.000
G1 X48.155 Y51.132 Z14.702 F320.000
G1 X48.937 Y50.515 Z14.729 F320.000
G1 X49.672 Y49.843 Z14.729 F320.000
G1 X50.357 Y49.120 Z14.729 F320.000
G1 X50.988 Y48.349 Z14.729 F320.000
G1 X51.561 Y47.534 Z14.729 F320.000
G1 X52.075 Y46.681 Z14.729 F320.000
G1 X52.525 Y45.792 Z14.729 F320.000
G1 X52.910 Y44.874 Z14.729 F320.000
G1 X53.228 Y43.930 Z14.729 F320.000
G1 X53.477 Y42.965 Z14.729 F320.000
G1 X53.656 Y41.986 Z14.729 F320.000
G1 X53.764 Y40.995 Z14.590 F320.000
G1 X53.800 Y40.000 Z14.058 F320.000
G1 X53.800 Y39.970 Z14.082 F320.000
(End of step 18.)
(Begin step 19.)
G1 X54.400 Y39.970 Z13.695 F320.000
(part 1.)
G1 X54.400 Y39.970 Z13.695 F320.000
G1 X54.363 Y38.977 Z14.279 F320.000
G1 X54.258 Y37.989 Z14.436 F320.000
G1 X54.086 Y37.010 Z14.436 F320.000
G1 X53.846 Y36.046 Z14.436 F320.000
G1 X53.540 Y35.100 Z14.436 F320.000
G1 X53.170 Y34.178 Z14.436 F320.000
G1 X52.737 Y33.283 Z14.436 F320.000
G1 X52.244 Y32.421 Z14.436 F320.000
G1 X51.692 Y31.594 Z14.436 F320.000
G1 X51.084 Y30.808 Z14.436 F320.000
G1 X50.424 Y30.065 Z14.436 F320.000
G1 X49.714 Y29.370 Z14.436 F320.000
G1 X48.958 Y28.726 Z14.436 F320.000
G1 X48.159 Y28.135 Z14.315 F320.000
G1 X47.321 Y27.600 Z13.790 F320.000
G1 X46.448 Y27.125 Z14.215 F320.000
G1 X45.545 Y26.711 Z14.434 F320.000
G1 X44.615 Y26.360 Z14.436 F320.000
G1 X43.664 Y26.074 Z14.436 F320.000
G1 X42.694 Y25.854 Z14.436 F320.000
G1 X41.712 Y25.702 Z14.436 F320.000
G1 X40.722 Y25.618 Z14.436 F320.000
G1 X39.729 Y25.602 Z14.436 F320.000
G1 X38.736 Y25.655 Z14.436 F320.000
G1 X37.750 Y25.777 Z14.436 F320.000
G1 X36.774 Y25.966 Z14.436 F320.000
G1 X35.814 Y26.222 Z14.436 F320.000
G1 X34.874 Y26.543 Z14.436 F320.000
G1 X33.958 Y26.929 Z14.360 F320.000
G1 X33.071 Y27.376 Z13.918 F320.000
G1 X32.217 Y27.884 Z14.137 F320.000
G1 X31.400 Y28.450 Z14.422 F320.000
G1 X30.624 Y29.071 Z14.436 F320.000
G1 X29.892 Y29.743 Z14.436 F320.000
G1 X29.209 Y30.465 Z14.436 F320.000
G1 X28.577 Y31.232 Z14.436 F320.000
G1 X27.999 Y32.040 Z14.436 F320.000
G1 X27.479 Y32.887 Z14.436 F320.000
G1 X27.018 Y33.767 Z14.436 F320.000
G1 X26.619 Y34.678 Z14.436 F320.000
G1 X26.284 Y35.613 Z14.436 F320.000
G1 X26.014 Y36.569 Z14.436 F320.000
G1 X25.811 Y37.542 Z14.436 F320.000
G1 X25.675 Y38.527 Z14.395 F320.000
G1 X25.608 Y39.518 Z14.028 F320.000
G1 X25.609 Y40.512 Z14.046 F320.000
G1 X25.678 Y41.503 Z14.400 F320.000
G1 X25.816 Y42.487 Z14.436 F320.000
G1 X26.021 Y43.459 Z14.436 F320.000
G1 X26.293 Y44.415 Z14.436 F320.000
G1 X26.630 Y45.350 Z14.436 F320.000
G1 X27.031 Y46.259 Z14.436 F320.000
G1 X27.494 Y47.139 Z14.436 F320.000
G1 X28.016 Y47.984 Z14.436 F320.000
G1 X28.595 Y48.792 Z14.436 F320.000
G1 X29.229 Y49.558 Z14.436 F320.000
G1 X29.914 Y50.278 Z14.436 F320.000
G1 X30.646 Y50.949 Z14.436 F320.000
G1 X31.424 Y51.568 Z14.419 F320.000
G1 X32.242 Y52.132 Z14.122 F320.000
G1 X33.097 Y52.638 Z13.939 F320.000
G1 X33.985 Y53.084 Z14.367 F320.000
G1 X34.902 Y53.467 Z14.436 F320.000
G1 X35.843 Y53.787 Z14.436 F320.000
G1 X36.804 Y54.041 Z14.436 F320.000
G1 X37.780 Y54.228 Z14.436 F320.000
G1 X38.766 Y54.347 Z14.436 F320.000
G1 X39.759 Y54.398 Z14.436 F320.000
G1 X40.752 Y54.380 Z14.436 F320.000
G1 X41.742 Y54.294 Z14.436 F320.000
G1 X42.724 Y54.140 Z14.436 F320.000
G1 X43.693 Y53.918 Z14.436 F320.000
G1 X44.644 Y53.630 Z14.436 F320.000
G1 X45.573 Y53.278 Z14.432 F320.000
G1 X46.475 Y52.862 Z14.202 F320.000
G1 X47.347 Y52.384 Z13.814 F320.000
G1 X48.184 Y51.848 Z14.323 F320.000
G1 X48.981 Y51.256 Z14.436 F320.000
G1 X49.736 Y50.609 Z14.436 F320.000
G1 X50.445 Y49.913 Z14.436 F320.000
G1 X51.103 Y49.169 Z14.436 F320.000
G1 X51.709 Y48.381 Z14.436 F320.000
G1 X52.259 Y47.553 Z14.436 F320.000
G1 X52.751 Y46.690 Z14.436 F320.000
G1 X53.182 Y45.794 Z14.436 F320.000
G1 X53.551 Y44.872 Z14.436 F320.000
G1 X53.854 Y43.925 Z14.436 F320.000
G1 X54.092 Y42.960 Z14.436 F320.000
G1 X54.263 Y41.981 Z14.436 F320.000
G1 X54.365 Y40.993 Z14.269 F320.000
G1 X54.400 Y40.000 Z13.668 F320.000
G1 X54.400 Y39.970 Z13.695 F320.000
(End of step 19.)
(Begin step 20.)
G1 X55.000 Y39.970 Z13.077 F320.000
(part 1.)
G1 X55.000 Y39.970 Z13.077 F320.000
G1 X54.965 Y38.979 Z13.798 F320.000
G1 X54.865 Y37.992 Z13.998 F320.000
G1 X54.700 Y37.015 Z13.998 F320.000
G1 X54.470 Y36.050 Z13.998 F320.000
G1 X54.178 Y35.103 Z13.998 F320.000
G1 X53.823 Y34.177 Z13.998 F320.000
G1 X53.408 Y33.276 Z13.998 F320.000
G1 X52.935 Y32.405 Z13.998 F320.000
G1 X52.405 Y31.567 Z13.998 F320.000
G1 X51.820 Y30.766 Z13.998 F320.000
G1 X51.184 Y30.005 Z13.998 F320.000
G1 X50.499 Y29.288 Z13.998 F320.000
G1 X49.769 Y28.617 Z13.998 F320.000
G1 X48.995 Y27.997 Z13.988 F320.000
G1 X48.183 Y27.429 Z13.695 F320.000
G1 X47.334 Y26.915 Z13.248 F320.000
G1 X46.454 Y26.459 Z13.859 F320.000
G1 X45.545 Y26.063 Z13.998 F320.000
G1 X44.612 Y25.727 Z13.998 F320.000
G1 X43.659 Y25.453 Z13.998 F320.000
G1 X42.690 Y25.243 Z13.998 F320.000
G1 X41.709 Y25.098 Z13.998 F320.000
G1 X40.721 Y25.017 Z13.998 F320.000
G1 X39.729 Y25.002 Z13.998 F320.000
G1 X38.739 Y25.053 Z13.998 F320.000
G1 X37.754 Y25.169 Z13.998 F320.000
G1 X36.779 Y25.350 Z13.998 F320.000
G1 X35.818 Y25.594 Z13.998 F320.000
G1 X34.876 Y25.902 Z13.998 F320.000
G1 X33.955 Y26.272 Z13.969 F320.000
G1 X33.062 Y26.701 Z13.603 F320.000
G1 X32.198 Y27.188 Z13.393 F320.000
G1 X31.369 Y27.732 Z13.908 F320.000
G1 X30.577 Y28.329 Z13.998 F320.000
G1 X29.826 Y28.977 Z13.998 F320.000
G1 X29.120 Y29.673 Z13.998 F320.000
G1 X28.462 Y30.414 Z13.998 F320.000
G1 X27.854 Y31.198 Z13.998 F320.000
G1 X27.299 Y32.019 Z13.998 F320.000
G1 X26.799 Y32.876 Z13.998 F320.000
G1 X26.357 Y33.764 Z13.998 F320.000
G1 X25.975 Y34.679 Z13.998 F320.000
G1 X25.654 Y35.617 Z13.998 F320.000
G1 X25.396 Y36.574 Z13.998 F320.000
G1 X25.202 Y37.547 Z13.998 F320.000
G1 X25.072 Y38.530 Z13.939 F320.000
G1 X25.007 Y39.519 Z13.494 F320.000
G1 X25.008 Y40.511 Z13.516 F320.000
G1 X25.075 Y41.500 Z13.946 F320.000
G1 X25.207 Y42.483 Z13.998 F320.000
G1 X25.403 Y43.455 Z13.998 F320.000
G1 X25.663 Y44.412 Z13.998 F320.000
G1 X25.986 Y45.349 Z13.998 F320.000
G1 X26.370 Y46.263 Z13.998 F320.000
G1 X26.814 Y47.150 Z13.998 F320.000
G1 X27.315 Y48.006 Z13.998 F320.000
G1 X27.871 Y48.826 Z13.998 F320.000
G1 X28.481 Y49.608 Z13.998 F320.000
G1 X29.141 Y50.348 Z13.998 F320.000
G1 X29.849 Y51.043 Z13.998 F320.000
G1 X30.600 Y51.690 Z13.998 F320.000
G1 X31.393 Y52.285 Z13.900 F320.000
G1 X32.224 Y52.827 Z13.368 F320.000
G1 X33.088 Y53.313 Z13.621 F320.000
G1 X33.983 Y53.740 Z13.973 F320.000
G1 X34.904 Y54.108 Z13.998 F320.000
G1 X35.847 Y54.414 Z13.998 F320.000
G1 X36.808 Y54.657 Z13.998 F320.000
G1 X37.784 Y54.835 Z13.998 F320.000
G1 X38.769 Y54.949 Z13.998 F320.000
G1 X39.759 Y54.998 Z13.998 F320.000
G1 X40.751 Y54.981 Z13.998 F320.000
G1 X41.739 Y54.899 Z13.998 F320.000
G1 X42.719 Y54.751 Z13.998 F320.000
G1 X43.688 Y54.539 Z13.998 F320.000
G1 X44.641 Y54.264 Z13.998 F320.000
G1 X45.573 Y53.926 Z13.998 F320.000
G1 X46.481 Y53.527 Z13.849 F320.000
G1 X47.360 Y53.070 Z13.218 F320.000
G1 X48.208 Y52.555 Z13.710 F320.000
G1 X49.019 Y51.985 Z13.991 F320.000
G1 X49.792 Y51.363 Z13.998 F320.000
G1 X50.521 Y50.691 Z13.998 F320.000
G1 X51.204 Y49.973 Z13.998 F320.000
G1 X51.839 Y49.211 Z13.998 F320.000
G1 X52.421 Y48.408 Z13.998 F320.000
G1 X52.950 Y47.569 Z13.998 F320.000
G1 X53.422 Y46.697 Z13.998 F320.000
G1 X53.835 Y45.796 Z13.998 F320.000
G1 X54.187 Y44.869 Z13.998 F320.000
G1 X54.478 Y43.921 Z13.998 F320.000
G1 X54.706 Y42.956 Z13.998 F320.000
G1 X54.869 Y41.978 Z13.998 F320.000
G1 X54.967 Y40.991 Z13.786 F320.000
G1 X55.000 Y40.000 Z13.042 F320.000
G1 X55.000 Y39.970 Z13.077 F320.000
(End of step 20.)
(Begin step 21.)
G1 X55.600 Y39.970 Z11.848 F320.000
(part 1.)
G1 X55.600 Y39.970 Z11.848 F320.000
G1 X55.566 Y38.971 Z13.053 F320.000
G1 X55.468 Y37.976 Z13.334 F320.000
G1 X55.306 Y36.989 Z13.335 F320.000
G1 X55.082 Y36.015 Z13.335 F320.000
G1 X54.796 Y35.057 Z13.335 F320.000
G1 X54.449 Y34.120 Z13.335 F320.000
G1 X54.043 Y33.206 Z13.335 F320.000
G1 X53.579 Y32.321 Z13.335 F320.000
G1 X53.059 Y31.467 Z13.335 F320.000
G1 X52.486 Y30.648 Z13.335 F320.000
G1 X51.861 Y29.867 Z13.335 F320.000
G1 X51.188 Y29.128 Z13.335 F320.000
G1 X50.468 Y28.434 Z13.335 F320.000
G1 X49.706 Y27.787 Z13.335 F320.000
G1 X48.904 Y27.191 Z13.187 F320.000
G1 X48.065 Y26.647 Z12.375 F320.000
G1 X47.193 Y26.158 Z12.811 F320.000
G1 X46.292 Y25.725 Z13.298 F320.000
G1 X45.365 Y25.351 Z13.335 F320.000
G1 X44.415 Y25.038 Z13.335 F320.000
G1 X43.448 Y24.786 Z13.335 F320.000
G1 X42.466 Y24.596 Z13.335 F320.000
G1 X41.475 Y24.470 Z13.335 F320.000
G1 X40.477 Y24.407 Z13.335 F320.000
G1 X39.477 Y24.409 Z13.335 F320.000
G1 X38.480 Y24.474 Z13.335 F320.000
G1 X37.488 Y24.603 Z13.335 F320.000
G1 X36.507 Y24.796 Z13.335 F320.000
G1 X35.541 Y25.051 Z13.335 F320.000
G1 X34.592 Y25.367 Z13.335 F320.000
G1 X33.666 Y25.743 Z13.289 F320.000
G1 X32.766 Y26.178 Z12.771 F320.000
G1 X31.896 Y26.670 Z12.440 F320.000
G1 X31.059 Y27.216 Z13.205 F320.000
G1 X30.258 Y27.815 Z13.335 F320.000
G1 X29.498 Y28.464 Z13.335 F320.000
G1 X28.780 Y29.161 Z13.335 F320.000
G1 X28.109 Y29.902 Z13.335 F320.000
G1 X27.487 Y30.684 Z13.335 F320.000
G1 X26.916 Y31.504 Z13.335 F320.000
G1 X26.398 Y32.360 Z13.335 F320.000
G1 X25.937 Y33.247 Z13.335 F320.000
G1 X25.533 Y34.161 Z13.335 F320.000
G1 X25.189 Y35.100 Z13.335 F320.000
G1 X24.906 Y36.059 Z13.335 F320.000
G1 X24.684 Y37.033 Z13.335 F320.000
G1 X24.526 Y38.021 Z13.333 F320.000
G1 X24.431 Y39.016 Z13.026 F320.000
G1 X24.400 Y40.015 Z11.817 F320.000
G1 X24.433 Y41.014 Z13.044 F320.000
G1 X24.530 Y42.009 Z13.334 F320.000
G1 X24.690 Y42.996 Z13.335 F320.000
G1 X24.913 Y43.970 Z13.335 F320.000
G1 X25.199 Y44.928 Z13.335 F320.000
G1 X25.545 Y45.866 Z13.335 F320.000
G1 X25.950 Y46.780 Z13.335 F320.000
G1 X26.413 Y47.666 Z13.335 F320.000
G1 X26.932 Y48.521 Z13.335 F320.000
G1 X27.505 Y49.340 Z13.335 F320.000
G1 X28.129 Y50.121 Z13.335 F320.000
G1 X28.801 Y50.861 Z13.335 F320.000
G1 X29.520 Y51.556 Z13.335 F320.000
G1 X30.282 Y52.203 Z13.335 F320.000
G1 X31.083 Y52.801 Z13.193 F320.000
G1 X31.921 Y53.345 Z12.397 F320.000
G1 X32.793 Y53.835 Z12.798 F320.000
G1 X33.694 Y54.269 Z13.296 F320.000
G1 X34.621 Y54.643 Z13.335 F320.000
G1 X35.569 Y54.958 Z13.335 F320.000
G1 X36.537 Y55.211 Z13.335 F320.000
G1 X37.518 Y55.401 Z13.335 F320.000
G1 X38.510 Y55.529 Z13.335 F320.000
G1 X39.507 Y55.592 Z13.335 F320.000
G1 X40.507 Y55.592 Z13.335 F320.000
G1 X41.505 Y55.527 Z13.335 F320.000
G1 X42.496 Y55.399 Z13.335 F320.000
G1 X43.477 Y55.207 Z13.335 F320.000
G1 X44.444 Y54.953 Z13.335 F320.000
G1 X45.393 Y54.638 Z13.335 F320.000
G1 X46.319 Y54.263 Z13.293 F320.000
G1 X47.220 Y53.828 Z12.784 F320.000
G1 X48.091 Y53.338 Z12.418 F320.000
G1 X48.928 Y52.792 Z13.199 F320.000
G1 X49.729 Y52.194 Z13.335 F320.000
G1 X50.490 Y51.546 Z13.335 F320.000
G1 X51.208 Y50.850 Z13.335 F320.000
G1 X51.880 Y50.110 Z13.335 F320.000
G1 X52.504 Y49.328 Z13.335 F320.000
G1 X53.075 Y48.508 Z13.335 F320.000
G1 X53.593 Y47.653 Z13.335 F320.000
G1 X54.056 Y46.767 Z13.335 F320.000
G1 X54.460 Y45.852 Z13.335 F320.000
G1 X54.805 Y44.914 Z13.335 F320.000
G1 X55.090 Y43.956 Z13.335 F320.000
G1 X55.312 Y42.981 Z13.335 F320.000
G1 X55.472 Y41.994 Z13.333 F320.000
G1 X55.568 Y40.999 Z13.035 F320.000
G1 X55.600 Y40.000 Z11.785 F320.000
G1 X55.600 Y39.970 Z11.848 F320.000
(End of step 21.)
(Begin step 22.)
G1 X56.200 Y39.970 Z10.454 F320.000
(part 1.)
G1 X56.200 Y39.970 Z10.454 F320.000
G1 X56.167 Y38.973 Z11.624 F320.000
G1 X56.073 Y37.980 Z12.100 F320.000
G1 X55.918 Y36.995 Z12.104 F320.000
G1 X55.703 Y36.021 Z12.104 F320.000
G1 X55.429 Y35.062 Z12.104 F320.000
G1 X55.095 Y34.121 Z12.104 F320.000
G1 X54.705 Y33.204 Z12.104 F320.000
G1 X54.259 Y32.311 Z12.105 F320.000
G1 X53.759 Y31.448 Z12.105 F320.000
G1 X53.206 Y30.618 Z12.105 F320.000
G1 X52.604 Y29.823 Z12.105 F320.000
G1 X51.954 Y29.066 Z12.103 F320.000
G1 X51.258 Y28.352 Z12.104 F320.000
G1 X50.520 Y27.681 Z12.104 F320.000
G1 X49.742 Y27.057 Z12.094 F320.000
G1 X48.927 Y26.482 Z11.577 F320.000
G1 X48.078 Y25.958 Z10.447 F320.000
G1 X47.198 Y25.487 Z11.620 F320.000
G1 X46.292 Y25.072 Z12.100 F320.000
G1 X45.361 Y24.713 Z12.103 F320.000
G1 X44.410 Y24.412 Z12.105 F320.000
G1 X43.442 Y24.170 Z12.104 F320.000
G1 X42.462 Y23.988 Z12.105 F320.000
G1 X41.472 Y23.867 Z12.104 F320.000
G1 X40.476 Y23.807 Z12.104 F320.000
G1 X39.478 Y23.808 Z12.104 F320.000
G1 X38.483 Y23.871 Z12.104 F320.000
G1 X37.493 Y23.995 Z12.104 F320.000
G1 X36.513 Y24.180 Z12.104 F320.000
G1 X35.546 Y24.424 Z12.104 F320.000
G1 X34.596 Y24.728 Z12.104 F320.000
G1 X33.666 Y25.089 Z12.095 F320.000
G1 X32.760 Y25.507 Z11.581 F320.000
G1 X31.882 Y25.980 Z10.439 F320.000
G1 X31.035 Y26.506 Z11.615 F320.000
G1 X30.221 Y27.084 Z12.099 F320.000
G1 X29.445 Y27.710 Z12.103 F320.000
G1 X28.709 Y28.383 Z12.104 F320.000
G1 X28.015 Y29.100 Z12.104 F320.000
G1 X27.367 Y29.858 Z12.106 F320.000
G1 X26.767 Y30.655 Z12.105 F320.000
G1 X26.217 Y31.487 Z12.104 F320.000
G1 X25.719 Y32.351 Z12.104 F320.000
G1 X25.275 Y33.244 Z12.104 F320.000
G1 X24.888 Y34.163 Z12.106 F320.000
G1 X24.557 Y35.105 Z12.105 F320.000
G1 X24.285 Y36.064 Z12.105 F320.000
G1 X24.073 Y37.039 Z12.105 F320.000
G1 X23.920 Y38.025 Z12.095 F320.000
G1 X23.829 Y39.018 Z11.585 F320.000
G1 X23.800 Y40.015 Z10.431 F320.000
G1 X23.831 Y41.012 Z11.611 F320.000
G1 X23.924 Y42.005 Z12.099 F320.000
G1 X24.078 Y42.991 Z12.104 F320.000
G1 X24.292 Y43.965 Z12.104 F320.000
G1 X24.566 Y44.924 Z12.105 F320.000
G1 X24.898 Y45.864 Z12.103 F320.000
G1 X25.288 Y46.783 Z12.104 F320.000
G1 X25.733 Y47.675 Z12.104 F320.000
G1 X26.233 Y48.539 Z12.106 F320.000
G1 X26.784 Y49.370 Z12.105 F320.000
G1 X27.386 Y50.165 Z12.104 F320.000
G1 X28.035 Y50.922 Z12.104 F320.000
G1 X28.730 Y51.638 Z12.104 F320.000
G1 X29.468 Y52.309 Z12.106 F320.000
G1 X30.245 Y52.934 Z12.096 F320.000
G1 X31.060 Y53.510 Z11.590 F320.000
G1 X31.908 Y54.035 Z10.424 F320.000
G1 X32.787 Y54.506 Z11.607 F320.000
G1 X33.694 Y54.922 Z12.098 F320.000
G1 X34.624 Y55.282 Z12.104 F320.000
G1 X35.575 Y55.584 Z12.104 F320.000
G1 X36.542 Y55.827 Z12.104 F320.000
G1 X37.523 Y56.009 Z12.104 F320.000
G1 X38.513 Y56.132 Z12.104 F320.000
G1 X39.508 Y56.192 Z12.104 F320.000
G1 X40.506 Y56.192 Z12.105 F320.000
G1 X41.501 Y56.130 Z12.104 F320.000
G1 X42.491 Y56.007 Z12.104 F320.000
G1 X43.472 Y55.823 Z12.104 F320.000
G1 X44.439 Y55.580 Z12.104 F320.000
G1 X45.389 Y55.277 Z12.104 F320.000
G1 X46.319 Y54.916 Z12.096 F320.000
G1 X47.225 Y54.499 Z11.594 F320.000
G1 X48.104 Y54.027 Z10.416 F320.000
G1 X48.952 Y53.502 Z11.603 F320.000
G1 X49.766 Y52.925 Z12.098 F320.000
G1 X50.543 Y52.300 Z12.104 F320.000
G1 X51.280 Y51.627 Z12.104 F320.000
G1 X51.974 Y50.911 Z12.106 F320.000
G1 X52.623 Y50.154 Z12.104 F320.000
G1 X53.224 Y49.357 Z12.104 F320.000
G1 X53.775 Y48.526 Z12.104 F320.000
G1 X54.273 Y47.662 Z12.105 F320.000
G1 X54.718 Y46.769 Z12.104 F320.000
G1 X55.106 Y45.850 Z12.104 F320.000
G1 X55.438 Y44.910 Z12.104 F320.000
G1 X55.711 Y43.950 Z12.104 F320.000
G1 X55.924 Y42.976 Z12.104 F320.000
G1 X56.077 Y41.990 Z12.097 F320.000
G1 X56.169 Y40.997 Z11.598 F320.000
G1 X56.200 Y40.000 Z10.408 F320.000
G1 X56.200 Y39.970 Z10.454 F320.000
(End of step 22.)
(Begin step 23.)
G1 X56.800 Y39.970 Z9.429 F320.000
(part 1.)
G1 X56.800 Y39.970 Z9.429 F320.000
G1 X56.768 Y38.975 Z10.352 F320.000
G1 X56.678 Y37.984 Z10.683 F320.000
G1 X56.530 Y36.999 Z10.684 F320.000
G1 X56.323 Y36.026 Z10.684 F320.000
G1 X56.059 Y35.066 Z10.684 F320.000
G1 X55.738 Y34.124 Z10.684 F320.000
G1 X55.363 Y33.202 Z10.683 F320.000
G1 X54.933 Y32.304 Z10.682 F320.000
G1 X54.451 Y31.433 Z10.684 F320.000
G1 X53.918 Y30.592 Z10.684 F320.000
G1 X53.337 Y29.784 Z10.683 F320.000
G1 X52.708 Y29.012 Z10.682 F320.000
G1 X52.035 Y28.279 Z10.682 F320.000
G1 X51.320 Y27.587 Z10.684 F320.000
G1 X50.565 Y26.938 Z10.684 F320.000
G1 X49.773 Y26.335 Z10.623 F320.000
G1 X48.947 Y25.780 Z10.069 F320.000
G1 X48.089 Y25.276 Z9.804 F320.000
G1 X47.202 Y24.822 Z10.524 F320.000
G1 X46.291 Y24.422 Z10.684 F320.000
G1 X45.357 Y24.077 Z10.684 F320.000
G1 X44.405 Y23.788 Z10.684 F320.000
G1 X43.437 Y23.555 Z10.684 F320.000
G1 X42.457 Y23.381 Z10.683 F320.000
G1 X41.469 Y23.264 Z10.684 F320.000
G1 X40.475 Y23.207 Z10.684 F320.000
G1 X39.479 Y23.208 Z10.684 F320.000
G1 X38.486 Y23.268 Z10.684 F320.000
G1 X37.498 Y23.387 Z10.683 F320.000
G1 X36.518 Y23.565 Z10.682 F320.000
G1 X35.551 Y23.800 Z10.684 F320.000
G1 X34.599 Y24.092 Z10.684 F320.000
G1 X33.667 Y24.439 Z10.684 F320.000
G1 X32.756 Y24.842 Z10.504 F320.000
G1 X31.871 Y25.297 Z9.757 F320.000
G1 X31.015 Y25.804 Z10.106 F320.000
G1 X30.190 Y26.362 Z10.635 F320.000
G1 X29.399 Y26.966 Z10.682 F320.000
G1 X28.646 Y27.617 Z10.682 F320.000
G1 X27.932 Y28.311 Z10.684 F320.000
G1 X27.261 Y29.046 Z10.682 F320.000
G1 X26.635 Y29.820 Z10.684 F320.000
G1 X26.056 Y30.629 Z10.684 F320.000
G1 X25.525 Y31.472 Z10.684 F320.000
G1 X25.046 Y32.344 Z10.684 F320.000
G1 X24.618 Y33.243 Z10.682 F320.000
G1 X24.245 Y34.166 Z10.682 F320.000
G1 X23.927 Y35.109 Z10.684 F320.000
G1 X23.666 Y36.070 Z10.684 F320.000
G1 X23.462 Y37.044 Z10.684 F320.000
G1 X23.316 Y38.028 Z10.681 F320.000
G1 X23.228 Y39.020 Z10.324 F320.000
G1 X23.200 Y40.015 Z9.410 F320.000
G1 X23.230 Y41.010 Z10.343 F320.000
G1 X23.319 Y42.001 Z10.682 F320.000
G1 X23.467 Y42.986 Z10.684 F320.000
G1 X23.673 Y43.959 Z10.684 F320.000
G1 X23.936 Y44.919 Z10.683 F320.000
G1 X24.256 Y45.862 Z10.684 F320.000
G1 X24.630 Y46.784 Z10.684 F320.000
G1 X25.059 Y47.683 Z10.684 F320.000
G1 X25.540 Y48.554 Z10.684 F320.000
G1 X26.072 Y49.395 Z10.682 F320.000
G1 X26.653 Y50.204 Z10.682 F320.000
G1 X27.281 Y50.976 Z10.684 F320.000
G1 X27.953 Y51.710 Z10.682 F320.000
G1 X28.668 Y52.403 Z10.682 F320.000
G1 X29.422 Y53.052 Z10.684 F320.000
G1 X30.214 Y53.656 Z10.627 F320.000
G1 X31.040 Y54.211 Z10.082 F320.000
G1 X31.897 Y54.717 Z9.789 F320.000
G1 X32.783 Y55.171 Z10.518 F320.000
G1 X33.694 Y55.572 Z10.684 F320.000
G1 X34.628 Y55.918 Z10.684 F320.000
G1 X35.580 Y56.208 Z10.684 F320.000
G1 X36.547 Y56.441 Z10.684 F320.000
G1 X37.527 Y56.617 Z10.684 F320.000
G1 X38.516 Y56.734 Z10.684 F320.000
G1 X39.509 Y56.793 Z10.683 F320.000
G1 X40.505 Y56.792 Z10.684 F320.000
G1 X41.498 Y56.733 Z10.684 F320.000
G1 X42.487 Y56.615 Z10.684 F320.000
G1 X43.466 Y56.438 Z10.684 F320.000
G1 X44.434 Y56.204 Z10.684 F320.000
G1 X45.386 Y55.913 Z10.684 F320.000
G1 X46.319 Y55.566 Z10.684 F320.000
G1 X47.230 Y55.165 Z10.511 F320.000
G1 X48.115 Y54.710 Z9.773 F320.000
G1 X48.972 Y54.203 Z10.094 F320.000
G1 X49.797 Y53.647 Z10.631 F320.000
G1 X50.588 Y53.043 Z10.684 F320.000
G1 X51.342 Y52.393 Z10.682 F320.000
G1 X52.056 Y51.699 Z10.683 F320.000
G1 X52.728 Y50.965 Z10.684 F320.000
G1 X53.355 Y50.192 Z10.684 F320.000
G1 X53.935 Y49.383 Z10.684 F320.000
G1 X54.466 Y48.541 Z10.684 F320.000
G1 X54.947 Y47.669 Z10.683 F320.000
G1 X55.375 Y46.771 Z10.684 F320.000
G1 X55.749 Y45.848 Z10.684 F320.000
G1 X56.068 Y44.905 Z10.684 F320.000
G1 X56.330 Y43.945 Z10.684 F320.000
G1 X56.535 Y42.971 Z10.684 F320.000
G1 X56.682 Y41.986 Z10.682 F320.000
G1 X56.770 Y40.995 Z10.334 F320.000
G1 X56.800 Y40.000 Z9.391 F320.000
G1 X56.800 Y39.970 Z9.429 F320.000
(End of step 23.)
(Begin step 24.)
G1 X57.400 Y39.970 Z8.606 F320.000
(part 1.)
G1 X57.400 Y39.970 Z8.606 F320.000
G1 X57.370 Y38.977 Z9.398 F320.000
G1 X57.283 Y37.987 Z9.661 F320.000
G1 X57.140 Y37.004 Z9.661 F320.000
G1 X56.941 Y36.031 Z9.661 F320.000
G1 X56.687 Y35.070 Z9.661 F320.000
G1 X56.378 Y34.126 Z9.661 F320.000
G1 X56.016 Y33.201 Z9.659 F320.000
G1 X55.602 Y32.298 Z9.659 F320.000
G1 X55.137 Y31.420 Z9.661 F320.000
G1 X54.623 Y30.570 Z9.661 F320.000
G1 X54.061 Y29.751 Z9.661 F320.000
G1 X53.453 Y28.965 Z9.659 F320.000
G1 X52.801 Y28.215 Z9.659 F320.000
G1 X52.108 Y27.504 Z9.659 F320.000
G1 X51.375 Y26.833 Z9.661 F320.000
G1 X50.605 Y26.205 Z9.661 F320.000
G1 X49.800 Y25.622 Z9.520 F320.000
G1 X48.963 Y25.086 Z8.887 F320.000
G1 X48.098 Y24.599 Z9.195 F320.000
G1 X47.206 Y24.162 Z9.627 F320.000
G1 X46.290 Y23.777 Z9.659 F320.000
G1 X45.354 Y23.444 Z9.661 F320.000
G1 X44.400 Y23.166 Z9.661 F320.000
G1 X43.432 Y22.942 Z9.660 F320.000
G1 X42.453 Y22.774 Z9.659 F320.000
G1 X41.466 Y22.662 Z9.661 F320.000
G1 X40.474 Y22.606 Z9.661 F320.000
G1 X39.480 Y22.608 Z9.661 F320.000
G1 X38.489 Y22.666 Z9.661 F320.000
G1 X37.502 Y22.780 Z9.661 F320.000
G1 X36.523 Y22.951 Z9.660 F320.000
G1 X35.556 Y23.177 Z9.661 F320.000
G1 X34.603 Y23.458 Z9.661 F320.000
G1 X33.667 Y23.793 Z9.661 F320.000
G1 X32.753 Y24.181 Z9.618 F320.000
G1 X31.862 Y24.620 Z9.163 F320.000
G1 X30.997 Y25.110 Z8.928 F320.000
G1 X30.162 Y25.648 Z9.537 F320.000
G1 X29.359 Y26.233 Z9.661 F320.000
G1 X28.591 Y26.862 Z9.659 F320.000
G1 X27.859 Y27.535 Z9.661 F320.000
G1 X27.168 Y28.248 Z9.661 F320.000
G1 X26.518 Y29.000 Z9.659 F320.000
G1 X25.912 Y29.787 Z9.660 F320.000
G1 X25.352 Y30.608 Z9.660 F320.000
G1 X24.840 Y31.459 Z9.661 F320.000
G1 X24.377 Y32.338 Z9.660 F320.000
G1 X23.965 Y33.242 Z9.660 F320.000
G1 X23.606 Y34.168 Z9.661 F320.000
G1 X23.300 Y35.113 Z9.661 F320.000
G1 X23.048 Y36.075 Z9.661 F320.000
G1 X22.852 Y37.048 Z9.661 F320.000
G1 X22.711 Y38.032 Z9.660 F320.000
G1 X22.627 Y39.022 Z9.374 F320.000
G1 X22.600 Y40.015 Z8.589 F320.000
G1 X22.629 Y41.008 Z9.390 F320.000
G1 X22.715 Y41.998 Z9.661 F320.000
G1 X22.857 Y42.981 Z9.661 F320.000
G1 X23.055 Y43.954 Z9.661 F320.000
G1 X23.308 Y44.915 Z9.659 F320.000
G1 X23.616 Y45.860 Z9.659 F320.000
G1 X23.977 Y46.785 Z9.659 F320.000
G1 X24.391 Y47.689 Z9.661 F320.000
G1 X24.855 Y48.567 Z9.659 F320.000
G1 X25.368 Y49.417 Z9.659 F320.000
G1 X25.930 Y50.237 Z9.659 F320.000
G1 X26.537 Y51.023 Z9.661 F320.000
G1 X27.188 Y51.774 Z9.661 F320.000
G1 X27.881 Y52.486 Z9.659 F320.000
G1 X28.613 Y53.157 Z9.660 F320.000
G1 X29.383 Y53.785 Z9.661 F320.000
G1 X30.187 Y54.369 Z9.526 F320.000
G1 X31.023 Y54.906 Z8.901 F320.000
G1 X31.888 Y55.394 Z9.184 F320.000
G1 X32.780 Y55.831 Z9.624 F320.000
G1 X33.695 Y56.218 Z9.660 F320.000
G1 X34.631 Y56.551 Z9.659 F320.000
G1 X35.585 Y56.830 Z9.659 F320.000
G1 X36.552 Y57.055 Z9.661 F320.000
G1 X37.531 Y57.224 Z9.661 F320.000
G1 X38.518 Y57.337 Z9.661 F320.000
G1 X39.510 Y57.393 Z9.660 F320.000
G1 X40.504 Y57.393 Z9.661 F320.000
G1 X41.496 Y57.335 Z9.661 F320.000
G1 X42.483 Y57.222 Z9.661 F320.000
G1 X43.462 Y57.052 Z9.661 F320.000
G1 X44.429 Y56.827 Z9.661 F320.000
G1 X45.382 Y56.546 Z9.659 F320.000
G1 X46.318 Y56.212 Z9.660 F320.000
G1 X47.233 Y55.825 Z9.621 F320.000
G1 X48.124 Y55.387 Z9.174 F320.000
G1 X48.989 Y54.898 Z8.915 F320.000
G1 X49.825 Y54.360 Z9.531 F320.000
G1 X50.628 Y53.776 Z9.661 F320.000
G1 X51.397 Y53.147 Z9.659 F320.000
G1 X52.129 Y52.475 Z9.660 F320.000
G1 X52.821 Y51.763 Z9.660 F320.000
G1 X53.472 Y51.012 Z9.661 F320.000
G1 X54.078 Y50.225 Z9.661 F320.000
G1 X54.639 Y49.405 Z9.661 F320.000
G1 X55.152 Y48.554 Z9.660 F320.000
G1 X55.615 Y47.675 Z9.659 F320.000
G1 X56.028 Y46.771 Z9.659 F320.000
G1 X56.388 Y45.846 Z9.661 F320.000
G1 X56.695 Y44.901 Z9.661 F320.000
G1 X56.948 Y43.940 Z9.661 F320.000
G1 X57.145 Y42.966 Z9.661 F320.000
G1 X57.286 Y41.983 Z9.660 F320.000
G1 X57.371 Y40.993 Z9.382 F320.000
G1 X57.400 Y40.000 Z8.572 F320.000
G1 X57.400 Y39.970 Z8.606 F320.000
(End of step 24.)
(Begin step 25.)
G1 X58.000 Y39.970 Z7.918 F320.000
(part 1.)
G1 X58.000 Y39.970 Z7.918 F320.000
G1 X57.971 Y38.979 Z8.626 F320.000
G1 X57.887 Y37.990 Z8.848 F320.000
G1 X57.749 Y37.008 Z8.847 F320.000
G1 X57.558 Y36.035 Z8.848 F320.000
G1 X57.313 Y35.074 Z8.847 F320.000
G1 X57.015 Y34.128 Z8.848 F320.000
G1 X56.666 Y33.200 Z8.848 F320.000
G1 X56.266 Y32.293 Z8.847 F320.000
G1 X55.817 Y31.409 Z8.847 F320.000
G1 X55.320 Y30.550 Z8.847 F320.000
G1 X54.776 Y29.721 Z8.847 F320.000
G1 X54.188 Y28.923 Z8.846 F320.000
G1 X53.556 Y28.158 Z8.846 F320.000
G1 X52.883 Y27.430 Z8.846 F320.000
G1 X52.172 Y26.739 Z8.847 F320.000
G1 X51.423 Y26.089 Z8.847 F320.000
G1 X50.639 Y25.481 Z8.847 F320.000
G1 X49.824 Y24.917 Z8.600 F320.000
G1 X48.978 Y24.399 Z7.913 F320.000
G1 X48.105 Y23.928 Z8.623 F320.000
G1 X47.208 Y23.506 Z8.848 F320.000
G1 X46.288 Y23.134 Z8.847 F320.000
G1 X45.350 Y22.813 Z8.847 F320.000
G1 X44.395 Y22.545 Z8.848 F320.000
G1 X43.427 Y22.329 Z8.846 F320.000
G1 X42.449 Y22.167 Z8.846 F320.000
G1 X41.463 Y22.060 Z8.848 F320.000
G1 X40.473 Y22.006 Z8.847 F320.000
G1 X39.481 Y22.007 Z8.848 F320.000
G1 X38.491 Y22.063 Z8.847 F320.000
G1 X37.506 Y22.174 Z8.847 F320.000
G1 X36.528 Y22.338 Z8.847 F320.000
G1 X35.560 Y22.556 Z8.847 F320.000
G1 X34.606 Y22.827 Z8.847 F320.000
G1 X33.669 Y23.150 Z8.848 F320.000
G1 X32.750 Y23.524 Z8.847 F320.000
G1 X31.854 Y23.948 Z8.602 F320.000
G1 X30.982 Y24.421 Z7.908 F320.000
G1 X30.138 Y24.942 Z8.621 F320.000
G1 X29.324 Y25.508 Z8.848 F320.000
G1 X28.542 Y26.118 Z8.846 F320.000
G1 X27.795 Y26.770 Z8.847 F320.000
G1 X27.085 Y27.462 Z8.847 F320.000
G1 X26.414 Y28.192 Z8.846 F320.000
G1 X25.784 Y28.958 Z8.846 F320.000
G1 X25.197 Y29.758 Z8.846 F320.000
G1 X24.656 Y30.589 Z8.848 F320.000
G1 X24.161 Y31.448 Z8.847 F320.000
G1 X23.714 Y32.333 Z8.846 F320.000
G1 X23.316 Y33.242 Z8.846 F320.000
G1 X22.970 Y34.171 Z8.847 F320.000
G1 X22.674 Y35.118 Z8.847 F320.000
G1 X22.432 Y36.079 Z8.847 F320.000
G1 X22.243 Y37.053 Z8.847 F320.000
G1 X22.107 Y38.035 Z8.847 F320.000
G1 X22.026 Y39.024 Z8.605 F320.000
G1 X22.000 Y40.015 Z7.903 F320.000
G1 X22.028 Y41.006 Z8.619 F320.000
G1 X22.110 Y41.994 Z8.848 F320.000
G1 X22.247 Y42.977 Z8.847 F320.000
G1 X22.438 Y43.950 Z8.848 F320.000
G1 X22.683 Y44.911 Z8.848 F320.000
G1 X22.979 Y45.857 Z8.848 F320.000
G1 X23.328 Y46.786 Z8.848 F320.000
G1 X23.727 Y47.694 Z8.848 F320.000
G1 X24.175 Y48.578 Z8.847 F320.000
G1 X24.672 Y49.437 Z8.847 F320.000
G1 X25.215 Y50.266 Z8.847 F320.000
G1 X25.802 Y51.065 Z8.847 F320.000
G1 X26.433 Y51.830 Z8.847 F320.000
G1 X27.105 Y52.559 Z8.846 F320.000
G1 X27.817 Y53.250 Z8.846 F320.000
G1 X28.565 Y53.901 Z8.846 F320.000
G1 X29.348 Y54.510 Z8.847 F320.000
G1 X30.163 Y55.075 Z8.607 F320.000
G1 X31.008 Y55.593 Z7.898 F320.000
G1 X31.881 Y56.065 Z8.616 F320.000
G1 X32.778 Y56.488 Z8.848 F320.000
G1 X33.697 Y56.860 Z8.846 F320.000
G1 X34.635 Y57.182 Z8.846 F320.000
G1 X35.589 Y57.451 Z8.846 F320.000
G1 X36.557 Y57.668 Z8.848 F320.000
G1 X37.535 Y57.830 Z8.847 F320.000
G1 X38.521 Y57.939 Z8.847 F320.000
G1 X39.511 Y57.993 Z8.847 F320.000
G1 X40.503 Y57.993 Z8.848 F320.000
G1 X41.493 Y57.938 Z8.848 F320.000
G1 X42.479 Y57.828 Z8.847 F320.000
G1 X43.457 Y57.665 Z8.847 F320.000
G1 X44.424 Y57.448 Z8.847 F320.000
G1 X45.379 Y57.177 Z8.847 F320.000
G1 X46.317 Y56.855 Z8.846 F320.000
G1 X47.235 Y56.482 Z8.847 F320.000
G1 X48.132 Y56.058 Z8.609 F320.000
G1 X49.004 Y55.586 Z7.892 F320.000
G1 X49.849 Y55.066 Z8.614 F320.000
G1 X50.663 Y54.501 Z8.848 F320.000
G1 X51.446 Y53.892 Z8.847 F320.000
G1 X52.194 Y53.240 Z8.846 F320.000
G1 X52.904 Y52.549 Z8.846 F320.000
G1 X53.576 Y51.819 Z8.847 F320.000
G1 X54.206 Y51.053 Z8.848 F320.000
G1 X54.793 Y50.254 Z8.847 F320.000
G1 X55.336 Y49.424 Z8.848 F320.000
G1 X55.831 Y48.565 Z8.848 F320.000
G1 X56.279 Y47.680 Z8.848 F320.000
G1 X56.677 Y46.772 Z8.848 F320.000
G1 X57.025 Y45.843 Z8.847 F320.000
G1 X57.321 Y44.897 Z8.847 F320.000
G1 X57.564 Y43.935 Z8.847 F320.000
G1 X57.754 Y42.962 Z8.846 F320.000
G1 X57.890 Y41.980 Z8.847 F320.000
G1 X57.972 Y40.991 Z8.612 F320.000
G1 X58.000 Y40.000 Z7.887 F320.000
G1 X58.000 Y39.970 Z7.918 F320.000
(End of step 25.)
(Begin step 26.)
G1 X58.600 Y39.970 Z7.331 F320.000
(part 1.)
G1 X58.600 Y39.970 Z7.331 F320.000
G1 X58.571 Y38.972 Z7.983 F320.000
G1 X58.489 Y37.977 Z8.173 F320.000
G1 X58.354 Y36.987 Z8.173 F320.000
G1 X58.166 Y36.007 Z8.173 F320.000
G1 X57.925 Y35.038 Z8.173 F320.000
G1 X57.633 Y34.083 Z8.173 F320.000
G1 X57.290 Y33.145 Z8.172 F320.000
G1 X56.898 Y32.227 Z8.172 F320.000
G1 X56.456 Y31.332 Z8.172 F320.000
G1 X55.967 Y30.461 Z8.173 F320.000
G1 X55.432 Y29.618 Z8.173 F320.000
G1 X54.853 Y28.805 Z8.173 F320.000
G1 X54.231 Y28.024 Z8.173 F320.000
G1 X53.568 Y27.277 Z8.173 F320.000
G1 X52.865 Y26.567 Z8.173 F320.000
G1 X52.126 Y25.896 Z8.173 F320.000
G1 X51.352 Y25.266 Z8.173 F320.000
G1 X50.545 Y24.678 Z8.119 F320.000
G1 X49.707 Y24.134 Z7.687 F320.000
G1 X48.842 Y23.636 Z7.720 F320.000
G1 X47.951 Y23.185 Z8.129 F320.000
G1 X47.037 Y22.783 Z8.173 F320.000
G1 X46.103 Y22.430 Z8.172 F320.000
G1 X45.152 Y22.128 Z8.173 F320.000
G1 X44.185 Y21.877 Z8.173 F320.000
G1 X43.206 Y21.678 Z8.172 F320.000
G1 X42.219 Y21.533 Z8.172 F320.000
G1 X41.224 Y21.440 Z8.173 F320.000
G1 X40.227 Y21.401 Z8.173 F320.000
G1 X39.228 Y21.416 Z8.173 F320.000
G1 X38.232 Y21.484 Z8.173 F320.000
G1 X37.241 Y21.606 Z8.173 F320.000
G1 X36.258 Y21.780 Z8.172 F320.000
G1 X35.286 Y22.007 Z8.173 F320.000
G1 X34.327 Y22.286 Z8.173 F320.000
G1 X33.385 Y22.616 Z8.173 F320.000
G1 X32.461 Y22.996 Z8.173 F320.000
G1 X31.560 Y23.425 Z7.962 F320.000
G1 X30.682 Y23.902 Z7.322 F320.000
G1 X29.832 Y24.425 Z7.979 F320.000
G1 X29.011 Y24.993 Z8.173 F320.000
G1 X28.221 Y25.604 Z8.172 F320.000
G1 X27.466 Y26.257 Z8.172 F320.000
G1 X26.746 Y26.950 Z8.173 F320.000
G1 X26.065 Y27.680 Z8.173 F320.000
G1 X25.424 Y28.445 Z8.172 F320.000
G1 X24.825 Y29.244 Z8.173 F320.000
G1 X24.270 Y30.074 Z8.173 F320.000
G1 X23.760 Y30.932 Z8.173 F320.000
G1 X23.296 Y31.817 Z8.172 F320.000
G1 X22.881 Y32.725 Z8.172 F320.000
G1 X22.516 Y33.654 Z8.172 F320.000
G1 X22.200 Y34.601 Z8.173 F320.000
G1 X21.936 Y35.564 Z8.173 F320.000
G1 X21.724 Y36.540 Z8.173 F320.000
G1 X21.565 Y37.526 Z8.173 F320.000
G1 X21.459 Y38.519 Z8.121 F320.000
G1 X21.406 Y39.516 Z7.694 F320.000
G1 X21.407 Y40.514 Z7.714 F320.000
G1 X21.461 Y41.511 Z8.127 F320.000
G1 X21.569 Y42.504 Z8.173 F320.000
G1 X21.730 Y43.489 Z8.173 F320.000
G1 X21.943 Y44.465 Z8.173 F320.000
G1 X22.209 Y45.427 Z8.172 F320.000
G1 X22.526 Y46.374 Z8.172 F320.000
G1 X22.893 Y47.303 Z8.172 F320.000
G1 X23.310 Y48.210 Z8.173 F320.000
G1 X23.774 Y49.094 Z8.172 F320.000
G1 X24.286 Y49.951 Z8.172 F320.000
G1 X24.842 Y50.780 Z8.172 F320.000
G1 X25.443 Y51.578 Z8.173 F320.000
G1 X26.085 Y52.343 Z8.173 F320.000
G1 X26.767 Y53.072 Z8.172 F320.000
G1 X27.488 Y53.763 Z8.172 F320.000
G1 X28.244 Y54.414 Z8.172 F320.000
G1 X29.035 Y55.024 Z8.173 F320.000
G1 X29.857 Y55.591 Z7.966 F320.000
G1 X30.708 Y56.113 Z7.312 F320.000
G1 X31.586 Y56.588 Z7.975 F320.000
G1 X32.489 Y57.016 Z8.173 F320.000
G1 X33.413 Y57.394 Z8.172 F320.000
G1 X34.356 Y57.723 Z8.172 F320.000
G1 X35.315 Y58.000 Z8.172 F320.000
G1 X36.287 Y58.226 Z8.173 F320.000
G1 X37.271 Y58.399 Z8.173 F320.000
G1 X38.262 Y58.519 Z8.173 F320.000
G1 X39.258 Y58.585 Z8.172 F320.000
G1 X40.257 Y58.598 Z8.172 F320.000
G1 X41.254 Y58.558 Z8.172 F320.000
G1 X42.248 Y58.463 Z8.173 F320.000
G1 X43.236 Y58.316 Z8.173 F320.000
G1 X44.214 Y58.116 Z8.173 F320.000
G1 X45.180 Y57.864 Z8.173 F320.000
G1 X46.132 Y57.560 Z8.172 F320.000
G1 X47.065 Y57.206 Z8.173 F320.000
G1 X47.978 Y56.802 Z8.123 F320.000
G1 X48.868 Y56.349 Z7.701 F320.000
G1 X49.733 Y55.850 Z7.707 F320.000
G1 X50.569 Y55.305 Z8.125 F320.000
G1 X51.375 Y54.716 Z8.173 F320.000
G1 X52.149 Y54.084 Z8.172 F320.000
G1 X52.887 Y53.412 Z8.172 F320.000
G1 X53.588 Y52.701 Z8.172 F320.000
G1 X54.250 Y51.953 Z8.173 F320.000
G1 X54.871 Y51.171 Z8.173 F320.000
G1 X55.449 Y50.357 Z8.173 F320.000
G1 X55.983 Y49.513 Z8.173 F320.000
G1 X56.470 Y48.642 Z8.172 F320.000
G1 X56.910 Y47.745 Z8.172 F320.000
G1 X57.301 Y46.827 Z8.173 F320.000
G1 X57.643 Y45.888 Z8.173 F320.000
G1 X57.933 Y44.933 Z8.173 F320.000
G1 X58.172 Y43.964 Z8.173 F320.000
G1 X58.359 Y42.983 Z8.172 F320.000
G1 X58.492 Y41.993 Z8.173 F320.000
G1 X58.573 Y40.998 Z7.971 F320.000
G1 X58.600 Y40.000 Z7.302 F320.000
G1 X58.600 Y39.970 Z7.331 F320.000
(End of step 26.)
(Begin step 27.)
G1 X59.200 Y39.970 Z6.825 F320.000
(part 1.)
G1 X59.200 Y39.970 Z6.825 F320.000
G1 X59.172 Y38.974 Z7.432 F320.000
G1 X59.093 Y37.980 Z7.602 F320.000
G1 X58.963 Y36.992 Z7.602 F320.000
G1 X58.781 Y36.012 Z7.602 F320.000
G1 X58.549 Y35.043 Z7.602 F320.000
G1 X58.266 Y34.087 Z7.602 F320.000
G1 X57.935 Y33.147 Z7.601 F320.000
G1 X57.555 Y32.226 Z7.601 F320.000
G1 X57.128 Y31.325 Z7.602 F320.000
G1 X56.655 Y30.448 Z7.602 F320.000
G1 X56.137 Y29.597 Z7.602 F320.000
G1 X55.575 Y28.773 Z7.602 F320.000
G1 X54.972 Y27.980 Z7.602 F320.000
G1 X54.328 Y27.219 Z7.602 F320.000
G1 X53.645 Y26.493 Z7.602 F320.000
G1 X52.926 Y25.803 Z7.602 F320.000
G1 X52.172 Y25.152 Z7.602 F320.000
G1 X51.385 Y24.540 Z7.602 F320.000
G1 X50.568 Y23.970 Z7.471 F320.000
G1 X49.722 Y23.443 Z6.919 F320.000
G1 X48.849 Y22.961 Z7.362 F320.000
G1 X47.953 Y22.525 Z7.600 F320.000
G1 X47.036 Y22.136 Z7.602 F320.000
G1 X46.099 Y21.795 Z7.602 F320.000
G1 X45.146 Y21.503 Z7.602 F320.000
G1 X44.180 Y21.260 Z7.601 F320.000
G1 X43.202 Y21.069 Z7.601 F320.000
G1 X42.215 Y20.928 Z7.601 F320.000
G1 X41.222 Y20.839 Z7.602 F320.000
G1 X40.226 Y20.801 Z7.602 F320.000
G1 X39.230 Y20.815 Z7.602 F320.000
G1 X38.235 Y20.881 Z7.602 F320.000
G1 X37.246 Y20.998 Z7.602 F320.000
G1 X36.263 Y21.167 Z7.602 F320.000
G1 X35.291 Y21.386 Z7.601 F320.000
G1 X34.332 Y21.656 Z7.602 F320.000
G1 X33.387 Y21.974 Z7.602 F320.000
G1 X32.461 Y22.342 Z7.602 F320.000
G1 X31.555 Y22.757 Z7.520 F320.000
G1 X30.671 Y23.218 Z7.050 F320.000
G1 X29.813 Y23.725 Z7.280 F320.000
G1 X28.982 Y24.275 Z7.587 F320.000
G1 X28.181 Y24.868 Z7.602 F320.000
G1 X27.412 Y25.502 Z7.601 F320.000
G1 X26.677 Y26.175 Z7.602 F320.000
G1 X25.977 Y26.885 Z7.602 F320.000
G1 X25.315 Y27.630 Z7.602 F320.000
G1 X24.693 Y28.409 Z7.602 F320.000
G1 X24.112 Y29.219 Z7.601 F320.000
G1 X23.574 Y30.057 Z7.602 F320.000
G1 X23.081 Y30.923 Z7.602 F320.000
G1 X22.632 Y31.813 Z7.601 F320.000
G1 X22.231 Y32.726 Z7.601 F320.000
G1 X21.877 Y33.657 Z7.602 F320.000
G1 X21.573 Y34.606 Z7.602 F320.000
G1 X21.318 Y35.570 Z7.602 F320.000
G1 X21.113 Y36.545 Z7.602 F320.000
G1 X20.959 Y37.530 Z7.602 F320.000
G1 X20.857 Y38.521 Z7.558 F320.000
G1 X20.806 Y39.517 Z7.164 F320.000
G1 X20.806 Y40.513 Z7.183 F320.000
G1 X20.859 Y41.508 Z7.563 F320.000
G1 X20.963 Y42.500 Z7.602 F320.000
G1 X21.118 Y43.484 Z7.602 F320.000
G1 X21.325 Y44.459 Z7.602 F320.000
G1 X21.581 Y45.422 Z7.601 F320.000
G1 X21.887 Y46.371 Z7.601 F320.000
G1 X22.242 Y47.302 Z7.601 F320.000
G1 X22.645 Y48.214 Z7.602 F320.000
G1 X23.095 Y49.103 Z7.602 F320.000
G1 X23.590 Y49.968 Z7.601 F320.000
G1 X24.129 Y50.806 Z7.601 F320.000
G1 X24.711 Y51.615 Z7.601 F320.000
G1 X25.335 Y52.393 Z7.602 F320.000
G1 X25.998 Y53.137 Z7.602 F320.000
G1 X26.698 Y53.846 Z7.601 F320.000
G1 X27.435 Y54.517 Z7.601 F320.000
G1 X28.205 Y55.150 Z7.602 F320.000
G1 X29.007 Y55.742 Z7.584 F320.000
G1 X29.838 Y56.291 Z7.264 F320.000
G1 X30.698 Y56.796 Z7.071 F320.000
G1 X31.582 Y57.256 Z7.528 F320.000
G1 X32.488 Y57.670 Z7.602 F320.000
G1 X33.415 Y58.036 Z7.602 F320.000
G1 X34.360 Y58.353 Z7.602 F320.000
G1 X35.320 Y58.621 Z7.601 F320.000
G1 X36.293 Y58.839 Z7.602 F320.000
G1 X37.275 Y59.006 Z7.602 F320.000
G1 X38.265 Y59.121 Z7.602 F320.000
G1 X39.260 Y59.186 Z7.601 F320.000
G1 X40.256 Y59.198 Z7.601 F320.000
G1 X41.252 Y59.159 Z7.601 F320.000
G1 X42.245 Y59.068 Z7.602 F320.000
G1 X43.231 Y58.926 Z7.602 F320.000
G1 X44.209 Y58.733 Z7.602 F320.000
G1 X45.175 Y58.489 Z7.602 F320.000
G1 X46.128 Y58.196 Z7.602 F320.000
G1 X47.064 Y57.853 Z7.602 F320.000
G1 X47.981 Y57.463 Z7.599 F320.000
G1 X48.876 Y57.025 Z7.349 F320.000
G1 X49.747 Y56.541 Z6.944 F320.000
G1 X50.593 Y56.013 Z7.480 F320.000
G1 X51.409 Y55.442 Z7.602 F320.000
G1 X52.195 Y54.829 Z7.602 F320.000
G1 X52.948 Y54.176 Z7.601 F320.000
G1 X53.667 Y53.485 Z7.601 F320.000
G1 X54.348 Y52.758 Z7.602 F320.000
G1 X54.991 Y51.996 Z7.602 F320.000
G1 X55.593 Y51.202 Z7.602 F320.000
G1 X56.153 Y50.378 Z7.602 F320.000
G1 X56.670 Y49.526 Z7.602 F320.000
G1 X57.142 Y48.648 Z7.602 F320.000
G1 X57.567 Y47.747 Z7.602 F320.000
G1 X57.946 Y46.825 Z7.601 F320.000
G1 X58.276 Y45.884 Z7.602 F320.000
G1 X58.556 Y44.928 Z7.602 F320.000
G1 X58.787 Y43.958 Z7.602 F320.000
G1 X58.967 Y42.978 Z7.601 F320.000
G1 X59.096 Y41.990 Z7.602 F320.000
G1 X59.174 Y40.996 Z7.421 F320.000
G1 X59.200 Y40.000 Z6.798 F320.000
G1 X59.200 Y39.970 Z6.825 F320.000
(End of step 27.)
(Begin step 28.)
G1 X59.800 Y39.970 Z6.385 F320.000
(part 1.)
G1 X59.800 Y39.970 Z6.385 F320.000
G1 X59.773 Y38.975 Z6.958 F320.000
G1 X59.697 Y37.983 Z7.113 F320.000
G1 X59.571 Y36.996 Z7.112 F320.000
G1 X59.395 Y36.017 Z7.112 F320.000
G1 X59.170 Y35.048 Z7.113 F320.000
G1 X58.897 Y34.091 Z7.112 F320.000
G1 X58.577 Y33.149 Z7.112 F320.000
G1 X58.209 Y32.225 Z7.112 F320.000
G1 X57.796 Y31.320 Z7.111 F320.000
G1 X57.337 Y30.437 Z7.112 F320.000
G1 X56.835 Y29.578 Z7.112 F320.000
G1 X56.290 Y28.746 Z7.113 F320.000
G1 X55.704 Y27.942 Z7.112 F320.000
G1 X55.079 Y27.168 Z7.112 F320.000
G1 X54.415 Y26.427 Z7.113 F320.000
G1 X53.715 Y25.720 Z7.112 F320.000
G1 X52.980 Y25.049 Z7.113 F320.000
G1 X52.213 Y24.416 Z7.112 F320.000
G1 X51.415 Y23.822 Z7.109 F320.000
G1 X50.588 Y23.269 Z6.872 F320.000
G1 X49.734 Y22.758 Z6.513 F320.000
G1 X48.856 Y22.291 Z7.009 F320.000
G1 X47.955 Y21.868 Z7.112 F320.000
G1 X47.034 Y21.492 Z7.111 F320.000
G1 X46.095 Y21.162 Z7.112 F320.000
G1 X45.141 Y20.879 Z7.113 F320.000
G1 X44.174 Y20.645 Z7.112 F320.000
G1 X43.197 Y20.460 Z7.111 F320.000
G1 X42.211 Y20.324 Z7.111 F320.000
G1 X41.220 Y20.238 Z7.112 F320.000
G1 X40.226 Y20.201 Z7.112 F320.000
G1 X39.231 Y20.215 Z7.112 F320.000
G1 X38.238 Y20.278 Z7.113 F320.000
G1 X37.250 Y20.392 Z7.112 F320.000
G1 X36.268 Y20.555 Z7.112 F320.000
G1 X35.296 Y20.767 Z7.111 F320.000
G1 X34.336 Y21.027 Z7.112 F320.000
G1 X33.390 Y21.336 Z7.112 F320.000
G1 X32.461 Y21.691 Z7.113 F320.000
G1 X31.551 Y22.093 Z7.097 F320.000
G1 X30.662 Y22.540 Z6.795 F320.000
G1 X29.797 Y23.031 Z6.626 F320.000
G1 X28.957 Y23.565 Z7.049 F320.000
G1 X28.146 Y24.141 Z7.113 F320.000
G1 X27.364 Y24.756 Z7.112 F320.000
G1 X26.614 Y25.410 Z7.112 F320.000
G1 X25.898 Y26.101 Z7.112 F320.000
G1 X25.218 Y26.827 Z7.113 F320.000
G1 X24.575 Y27.586 Z7.112 F320.000
G1 X23.971 Y28.376 Z7.112 F320.000
G1 X23.407 Y29.196 Z7.111 F320.000
G1 X22.885 Y30.043 Z7.112 F320.000
G1 X22.407 Y30.916 Z7.112 F320.000
G1 X21.972 Y31.811 Z7.112 F320.000
G1 X21.584 Y32.727 Z7.112 F320.000
G1 X21.242 Y33.661 Z7.112 F320.000
G1 X20.947 Y34.611 Z7.112 F320.000
G1 X20.700 Y35.575 Z7.112 F320.000
G1 X20.502 Y36.550 Z7.112 F320.000
G1 X20.354 Y37.534 Z7.113 F320.000
G1 X20.255 Y38.524 Z7.074 F320.000
G1 X20.205 Y39.517 Z6.707 F320.000
G1 X20.206 Y40.512 Z6.725 F320.000
G1 X20.257 Y41.506 Z7.079 F320.000
G1 X20.358 Y42.496 Z7.112 F320.000
G1 X20.508 Y43.479 Z7.112 F320.000
G1 X20.707 Y44.454 Z7.112 F320.000
G1 X20.955 Y45.418 Z7.113 F320.000
G1 X21.251 Y46.367 Z7.112 F320.000
G1 X21.595 Y47.301 Z7.112 F320.000
G1 X21.985 Y48.216 Z7.113 F320.000
G1 X22.420 Y49.111 Z7.112 F320.000
G1 X22.900 Y49.982 Z7.112 F320.000
G1 X23.423 Y50.829 Z7.112 F320.000
G1 X23.988 Y51.648 Z7.111 F320.000
G1 X24.593 Y52.437 Z7.112 F320.000
G1 X25.238 Y53.196 Z7.113 F320.000
G1 X25.919 Y53.920 Z7.112 F320.000
G1 X26.636 Y54.610 Z7.112 F320.000
G1 X27.387 Y55.263 Z7.111 F320.000
G1 X28.170 Y55.877 Z7.112 F320.000
G1 X28.982 Y56.451 Z7.042 F320.000
G1 X29.822 Y56.984 Z6.606 F320.000
G1 X30.688 Y57.474 Z6.811 F320.000
G1 X31.578 Y57.920 Z7.100 F320.000
G1 X32.489 Y58.320 Z7.112 F320.000
G1 X33.418 Y58.674 Z7.112 F320.000
G1 X34.365 Y58.981 Z7.112 F320.000
G1 X35.325 Y59.240 Z7.112 F320.000
G1 X36.298 Y59.451 Z7.112 F320.000
G1 X37.279 Y59.612 Z7.112 F320.000
G1 X38.268 Y59.724 Z7.113 F320.000
G1 X39.261 Y59.786 Z7.112 F320.000
G1 X40.256 Y59.798 Z7.111 F320.000
G1 X41.250 Y59.760 Z7.112 F320.000
G1 X42.241 Y59.673 Z7.113 F320.000
G1 X43.226 Y59.535 Z7.112 F320.000
G1 X44.204 Y59.348 Z7.112 F320.000
G1 X45.170 Y59.113 Z7.112 F320.000
G1 X46.124 Y58.829 Z7.112 F320.000
G1 X47.062 Y58.498 Z7.111 F320.000
G1 X47.982 Y58.119 Z7.112 F320.000
G1 X48.882 Y57.696 Z7.000 F320.000
G1 X49.760 Y57.227 Z6.490 F320.000
G1 X50.613 Y56.715 Z6.885 F320.000
G1 X51.439 Y56.161 Z7.111 F320.000
G1 X52.237 Y55.566 Z7.112 F320.000
G1 X53.003 Y54.931 Z7.112 F320.000
G1 X53.737 Y54.259 Z7.111 F320.000
G1 X54.436 Y53.551 Z7.111 F320.000
G1 X55.098 Y52.809 Z7.112 F320.000
G1 X55.723 Y52.034 Z7.112 F320.000
G1 X56.307 Y51.229 Z7.112 F320.000
G1 X56.851 Y50.396 Z7.113 F320.000
G1 X57.352 Y49.537 Z7.112 F320.000
G1 X57.809 Y48.653 Z7.111 F320.000
G1 X58.221 Y47.747 Z7.111 F320.000
G1 X58.587 Y46.822 Z7.112 F320.000
G1 X58.906 Y45.880 Z7.112 F320.000
G1 X59.178 Y44.923 Z7.112 F320.000
G1 X59.401 Y43.953 Z7.113 F320.000
G1 X59.575 Y42.974 Z7.112 F320.000
G1 X59.700 Y41.987 Z7.113 F320.000
G1 X59.775 Y40.995 Z6.948 F320.000
G1 X59.800 Y40.000 Z6.359 F320.000
G1 X59.800 Y39.970 Z6.385 F320.000
(End of step 28.)
(Begin step 29.)
G1 X60.400 Y39.970 Z6.003 F320.000
(part 1.)
G1 X60.400 Y39.970 Z6.003 F320.000
G1 X60.374 Y38.977 Z6.550 F320.000
G1 X60.300 Y37.986 Z6.691 F320.000
G1 X60.178 Y37.001 Z6.691 F320.000
G1 X60.008 Y36.022 Z6.691 F320.000
G1 X59.791 Y35.053 Z6.691 F320.000
G1 X59.526 Y34.095 Z6.691 F320.000
G1 X59.216 Y33.152 Z6.691 F320.000
G1 X58.860 Y32.225 Z6.691 F320.000
G1 X58.459 Y31.316 Z6.691 F320.000
G1 X58.014 Y30.427 Z6.691 F320.000
G1 X57.527 Y29.562 Z6.691 F320.000
G1 X56.998 Y28.721 Z6.691 F320.000
G1 X56.429 Y27.907 Z6.691 F320.000
G1 X55.821 Y27.122 Z6.691 F320.000
G1 X55.175 Y26.367 Z6.691 F320.000
G1 X54.494 Y25.644 Z6.691 F320.000
G1 X53.778 Y24.956 Z6.691 F320.000
G1 X53.029 Y24.303 Z6.691 F320.000
G1 X52.250 Y23.687 Z6.691 F320.000
G1 X51.441 Y23.110 Z6.656 F320.000
G1 X50.605 Y22.574 Z6.306 F320.000
G1 X49.745 Y22.078 Z6.333 F320.000
G1 X48.861 Y21.625 Z6.664 F320.000
G1 X47.956 Y21.215 Z6.691 F320.000
G1 X47.032 Y20.850 Z6.691 F320.000
G1 X46.091 Y20.531 Z6.691 F320.000
G1 X45.137 Y20.257 Z6.691 F320.000
G1 X44.169 Y20.031 Z6.691 F320.000
G1 X43.192 Y19.851 Z6.691 F320.000
G1 X42.208 Y19.720 Z6.690 F320.000
G1 X41.218 Y19.636 Z6.691 F320.000
G1 X40.225 Y19.601 Z6.691 F320.000
G1 X39.232 Y19.614 Z6.691 F320.000
G1 X38.241 Y19.676 Z6.691 F320.000
G1 X37.254 Y19.786 Z6.691 F320.000
G1 X36.273 Y19.943 Z6.690 F320.000
G1 X35.301 Y20.148 Z6.691 F320.000
G1 X34.340 Y20.401 Z6.691 F320.000
G1 X33.393 Y20.699 Z6.691 F320.000
G1 X32.461 Y21.044 Z6.691 F320.000
G1 X31.548 Y21.433 Z6.691 F320.000
G1 X30.654 Y21.867 Z6.533 F320.000
G1 X29.782 Y22.343 Z5.995 F320.000
G1 X28.935 Y22.861 Z6.546 F320.000
G1 X28.114 Y23.420 Z6.691 F320.000
G1 X27.321 Y24.018 Z6.691 F320.000
G1 X26.558 Y24.654 Z6.691 F320.000
G1 X25.827 Y25.327 Z6.691 F320.000
G1 X25.130 Y26.034 Z6.691 F320.000
G1 X24.467 Y26.775 Z6.691 F320.000
G1 X23.842 Y27.546 Z6.691 F320.000
G1 X23.255 Y28.348 Z6.690 F320.000
G1 X22.708 Y29.176 Z6.691 F320.000
G1 X22.201 Y30.031 Z6.691 F320.000
G1 X21.737 Y30.909 Z6.690 F320.000
G1 X21.316 Y31.809 Z6.691 F320.000
G1 X20.940 Y32.728 Z6.691 F320.000
G1 X20.608 Y33.664 Z6.691 F320.000
G1 X20.323 Y34.616 Z6.691 F320.000
G1 X20.084 Y35.580 Z6.691 F320.000
G1 X19.893 Y36.555 Z6.691 F320.000
G1 X19.749 Y37.537 Z6.691 F320.000
G1 X19.653 Y38.526 Z6.658 F320.000
G1 X19.605 Y39.518 Z6.311 F320.000
G1 X19.606 Y40.512 Z6.328 F320.000
G1 X19.655 Y41.504 Z6.662 F320.000
G1 X19.752 Y42.492 Z6.691 F320.000
G1 X19.898 Y43.475 Z6.691 F320.000
G1 X20.091 Y44.449 Z6.691 F320.000
G1 X20.331 Y45.413 Z6.691 F320.000
G1 X20.618 Y46.364 Z6.690 F320.000
G1 X20.950 Y47.300 Z6.691 F320.000
G1 X21.328 Y48.218 Z6.691 F320.000
G1 X21.751 Y49.117 Z6.691 F320.000
G1 X22.216 Y49.995 Z6.691 F320.000
G1 X22.724 Y50.849 Z6.691 F320.000
G1 X23.272 Y51.677 Z6.691 F320.000
G1 X23.860 Y52.477 Z6.691 F320.000
G1 X24.487 Y53.248 Z6.691 F320.000
G1 X25.150 Y53.987 Z6.691 F320.000
G1 X25.849 Y54.694 Z6.691 F320.000
G1 X26.581 Y55.365 Z6.690 F320.000
G1 X27.344 Y56.000 Z6.691 F320.000
G1 X28.138 Y56.597 Z6.691 F320.000
G1 X28.960 Y57.155 Z6.536 F320.000
G1 X29.808 Y57.672 Z5.987 F320.000
G1 X30.681 Y58.147 Z6.543 F320.000
G1 X31.575 Y58.579 Z6.691 F320.000
G1 X32.489 Y58.967 Z6.691 F320.000
G1 X33.421 Y59.310 Z6.691 F320.000
G1 X34.369 Y59.608 Z6.690 F320.000
G1 X35.330 Y59.858 Z6.691 F320.000
G1 X36.302 Y60.062 Z6.691 F320.000
G1 X37.283 Y60.218 Z6.691 F320.000
G1 X38.271 Y60.327 Z6.691 F320.000
G1 X39.262 Y60.387 Z6.691 F320.000
G1 X40.255 Y60.398 Z6.690 F320.000
G1 X41.248 Y60.362 Z6.691 F320.000
G1 X42.238 Y60.277 Z6.691 F320.000
G1 X43.222 Y60.144 Z6.691 F320.000
G1 X44.199 Y59.963 Z6.691 F320.000
G1 X45.166 Y59.735 Z6.691 F320.000
G1 X46.120 Y59.460 Z6.691 F320.000
G1 X47.060 Y59.139 Z6.691 F320.000
G1 X47.983 Y58.773 Z6.691 F320.000
G1 X48.888 Y58.362 Z6.660 F320.000
G1 X49.771 Y57.908 Z6.317 F320.000
G1 X50.631 Y57.411 Z6.322 F320.000
G1 X51.466 Y56.873 Z6.661 F320.000
G1 X52.274 Y56.294 Z6.691 F320.000
G1 X53.052 Y55.678 Z6.691 F320.000
G1 X53.800 Y55.024 Z6.691 F320.000
G1 X54.515 Y54.334 Z6.690 F320.000
G1 X55.195 Y53.611 Z6.691 F320.000
G1 X55.840 Y52.855 Z6.691 F320.000
G1 X56.447 Y52.069 Z6.691 F320.000
G1 X57.015 Y51.254 Z6.691 F320.000
G1 X57.542 Y50.412 Z6.691 F320.000
G1 X58.028 Y49.546 Z6.691 F320.000
G1 X58.472 Y48.657 Z6.691 F320.000
G1 X58.871 Y47.748 Z6.691 F320.000
G1 X59.226 Y46.820 Z6.691 F320.000
G1 X59.535 Y45.876 Z6.691 F320.000
G1 X59.798 Y44.918 Z6.691 F320.000
G1 X60.014 Y43.948 Z6.691 F320.000
G1 X60.182 Y42.969 Z6.691 F320.000
G1 X60.303 Y41.984 Z6.691 F320.000
G1 X60.375 Y40.993 Z6.540 F320.000
G1 X60.400 Y40.000 Z5.979 F320.000
G1 X60.400 Y39.970 Z6.003 F320.000
(End of step 29.)
(Begin step 30.)
G1 X61.000 Y39.970 Z5.673 F320.000
(part 1.)
G1 X61.000 Y39.970 Z5.673 F320.000
G1 X60.974 Y38.971 Z6.199 F320.000
G1 X60.902 Y37.974 Z6.329 F320.000
G1 X60.782 Y36.982 Z6.329 F320.000
G1 X60.615 Y35.997 Z6.329 F320.000
G1 X60.401 Y35.021 Z6.329 F320.000
G1 X60.141 Y34.056 Z6.329 F320.000
G1 X59.835 Y33.105 Z6.329 F320.000
G1 X59.485 Y32.169 Z6.329 F320.000
G1 X59.090 Y31.251 Z6.328 F320.000
G1 X58.652 Y30.353 Z6.328 F320.000
G1 X58.172 Y29.476 Z6.329 F320.000
G1 X57.651 Y28.624 Z6.329 F320.000
G1 X57.090 Y27.797 Z6.329 F320.000
G1 X56.490 Y26.997 Z6.328 F320.000
G1 X55.853 Y26.228 Z6.328 F320.000
G1 X55.180 Y25.489 Z6.328 F320.000
G1 X54.472 Y24.783 Z6.329 F320.000
G1 X53.732 Y24.112 Z6.329 F320.000
G1 X52.961 Y23.477 Z6.329 F320.000
G1 X52.160 Y22.879 Z6.329 F320.000
G1 X51.332 Y22.320 Z6.182 F320.000
G1 X50.478 Y21.801 Z5.669 F320.000
G1 X49.600 Y21.323 Z6.198 F320.000
G1 X48.701 Y20.887 Z6.329 F320.000
G1 X47.782 Y20.495 Z6.329 F320.000
G1 X46.845 Y20.147 Z6.328 F320.000
G1 X45.893 Y19.844 Z6.329 F320.000
G1 X44.928 Y19.586 Z6.329 F320.000
G1 X43.951 Y19.375 Z6.328 F320.000
G1 X42.965 Y19.210 Z6.328 F320.000
G1 X41.973 Y19.093 Z6.329 F320.000
G1 X40.976 Y19.023 Z6.329 F320.000
G1 X39.977 Y19.000 Z6.329 F320.000
G1 X38.978 Y19.025 Z6.329 F320.000
G1 X37.981 Y19.097 Z6.329 F320.000
G1 X36.989 Y19.217 Z6.329 F320.000
G1 X36.004 Y19.383 Z6.328 F320.000
G1 X35.028 Y19.597 Z6.328 F320.000
G1 X34.063 Y19.857 Z6.329 F320.000
G1 X33.111 Y20.162 Z6.329 F320.000
G1 X32.176 Y20.512 Z6.329 F320.000
G1 X31.257 Y20.906 Z6.329 F320.000
G1 X30.359 Y21.344 Z6.184 F320.000
G1 X29.482 Y21.823 Z5.665 F320.000
G1 X28.630 Y22.344 Z6.196 F320.000
G1 X27.803 Y22.905 Z6.329 F320.000
G1 X27.003 Y23.505 Z6.329 F320.000
G1 X26.233 Y24.142 Z6.328 F320.000
G1 X25.494 Y24.815 Z6.329 F320.000
G1 X24.788 Y25.522 Z6.329 F320.000
G1 X24.117 Y26.262 Z6.328 F320.000
G1 X23.481 Y27.033 Z6.328 F320.000
G1 X22.883 Y27.833 Z6.329 F320.000
G1 X22.324 Y28.661 Z6.329 F320.000
G1 X21.804 Y29.515 Z6.329 F320.000
G1 X21.326 Y30.393 Z6.329 F320.000
G1 X20.890 Y31.292 Z6.328 F320.000
G1 X20.498 Y32.211 Z6.328 F320.000
G1 X20.149 Y33.147 Z6.329 F320.000
G1 X19.846 Y34.099 Z6.329 F320.000
G1 X19.588 Y35.065 Z6.329 F320.000
G1 X19.376 Y36.041 Z6.329 F320.000
G1 X19.211 Y37.027 Z6.329 F320.000
G1 X19.093 Y38.019 Z6.329 F320.000
G1 X19.023 Y39.016 Z6.185 F320.000
G1 X19.000 Y40.015 Z5.661 F320.000
G1 X19.024 Y41.014 Z6.195 F320.000
G1 X19.096 Y42.011 Z6.329 F320.000
G1 X19.215 Y43.003 Z6.328 F320.000
G1 X19.382 Y43.988 Z6.329 F320.000
G1 X19.595 Y44.964 Z6.329 F320.000
G1 X19.854 Y45.929 Z6.328 F320.000
G1 X20.159 Y46.881 Z6.329 F320.000
G1 X20.509 Y47.817 Z6.329 F320.000
G1 X20.903 Y48.735 Z6.329 F320.000
G1 X21.340 Y49.634 Z6.329 F320.000
G1 X21.819 Y50.511 Z6.328 F320.000
G1 X22.340 Y51.364 Z6.328 F320.000
G1 X22.901 Y52.191 Z6.328 F320.000
G1 X23.500 Y52.991 Z6.329 F320.000
G1 X24.136 Y53.761 Z6.329 F320.000
G1 X24.809 Y54.500 Z6.329 F320.000
G1 X25.516 Y55.206 Z6.329 F320.000
G1 X26.256 Y55.878 Z6.328 F320.000
G1 X27.027 Y56.514 Z6.329 F320.000
G1 X27.827 Y57.112 Z6.329 F320.000
G1 X28.655 Y57.672 Z6.187 F320.000
G1 X29.508 Y58.191 Z5.657 F320.000
G1 X30.386 Y58.670 Z6.193 F320.000
G1 X31.285 Y59.106 Z6.329 F320.000
G1 X32.203 Y59.499 Z6.329 F320.000
G1 X33.140 Y59.848 Z6.328 F320.000
G1 X34.092 Y60.152 Z6.328 F320.000
G1 X35.057 Y60.410 Z6.329 F320.000
G1 X36.034 Y60.622 Z6.329 F320.000
G1 X37.019 Y60.787 Z6.329 F320.000
G1 X38.011 Y60.906 Z6.329 F320.000
G1 X39.008 Y60.976 Z6.328 F320.000
G1 X40.007 Y61.000 Z6.329 F320.000
G1 X41.006 Y60.976 Z6.328 F320.000
G1 X42.003 Y60.904 Z6.329 F320.000
G1 X42.995 Y60.785 Z6.329 F320.000
G1 X43.980 Y60.619 Z6.329 F320.000
G1 X44.957 Y60.406 Z6.329 F320.000
G1 X45.922 Y60.148 Z6.329 F320.000
G1 X46.874 Y59.843 Z6.328 F320.000
G1 X47.810 Y59.494 Z6.329 F320.000
G1 X48.728 Y59.100 Z6.329 F320.000
G1 X49.627 Y58.663 Z6.188 F320.000
G1 X50.504 Y58.184 Z5.653 F320.000
G1 X51.357 Y57.664 Z6.192 F320.000
G1 X52.185 Y57.103 Z6.329 F320.000
G1 X52.984 Y56.504 Z6.329 F320.000
G1 X53.755 Y55.868 Z6.328 F320.000
G1 X54.494 Y55.196 Z6.328 F320.000
G1 X55.201 Y54.489 Z6.329 F320.000
G1 X55.873 Y53.749 Z6.329 F320.000
G1 X56.509 Y52.979 Z6.329 F320.000
G1 X57.107 Y52.179 Z6.329 F320.000
G1 X57.667 Y51.351 Z6.329 F320.000
G1 X58.187 Y50.498 Z6.329 F320.000
G1 X58.666 Y49.621 Z6.328 F320.000
G1 X59.103 Y48.722 Z6.328 F320.000
G1 X59.496 Y47.803 Z6.329 F320.000
G1 X59.845 Y46.867 Z6.329 F320.000
G1 X60.149 Y45.915 Z6.329 F320.000
G1 X60.408 Y44.950 Z6.329 F320.000
G1 X60.620 Y43.973 Z6.329 F320.000
G1 X60.786 Y42.988 Z6.329 F320.000
G1 X60.905 Y41.996 Z6.329 F320.000
G1 X60.976 Y40.999 Z6.190 F320.000
G1 X61.000 Y40.000 Z5.649 F320.000
G1 X61.000 Y39.970 Z5.673 F320.000
(End of step 30.)
(Begin step 31.)
G1 X61.600 Y39.970 Z5.388 F320.000
(part 1.)
G1 X61.600 Y39.970 Z5.388 F320.000
G1 X61.575 Y38.973 Z5.897 F320.000
G1 X61.505 Y37.977 Z6.018 F320.000
G1 X61.388 Y36.987 Z6.018 F320.000
G1 X61.226 Y36.002 Z6.018 F320.000
G1 X61.019 Y35.026 Z6.018 F320.000
G1 X60.767 Y34.061 Z6.018 F320.000
G1 X60.471 Y33.109 Z6.018 F320.000
G1 X60.131 Y32.171 Z6.018 F320.000
G1 X59.748 Y31.250 Z6.018 F320.000
G1 X59.323 Y30.347 Z6.018 F320.000
G1 X58.856 Y29.465 Z6.018 F320.000
G1 X58.350 Y28.606 Z6.019 F320.000
G1 X57.804 Y27.771 Z6.019 F320.000
G1 X57.221 Y26.962 Z6.019 F320.000
G1 X56.600 Y26.180 Z6.018 F320.000
G1 X55.944 Y25.429 Z6.018 F320.000
G1 X55.255 Y24.708 Z6.018 F320.000
G1 X54.532 Y24.020 Z6.018 F320.000
G1 X53.779 Y23.366 Z6.018 F320.000
G1 X52.996 Y22.747 Z6.018 F320.000
G1 X52.186 Y22.166 Z6.010 F320.000
G1 X51.349 Y21.622 Z5.753 F320.000
G1 X50.488 Y21.118 Z5.608 F320.000
G1 X49.605 Y20.653 Z5.974 F320.000
G1 X48.702 Y20.230 Z6.018 F320.000
G1 X47.780 Y19.850 Z6.018 F320.000
G1 X46.841 Y19.512 Z6.019 F320.000
G1 X45.888 Y19.218 Z6.019 F320.000
G1 X44.922 Y18.968 Z6.018 F320.000
G1 X43.946 Y18.763 Z6.018 F320.000
G1 X42.961 Y18.604 Z6.018 F320.000
G1 X41.970 Y18.490 Z6.018 F320.000
G1 X40.974 Y18.422 Z6.018 F320.000
G1 X39.977 Y18.400 Z6.018 F320.000
G1 X38.980 Y18.424 Z6.018 F320.000
G1 X37.985 Y18.494 Z6.018 F320.000
G1 X36.994 Y18.610 Z6.018 F320.000
G1 X36.009 Y18.772 Z6.018 F320.000
G1 X35.033 Y18.979 Z6.018 F320.000
G1 X34.068 Y19.230 Z6.018 F320.000
G1 X33.115 Y19.526 Z6.018 F320.000
G1 X32.177 Y19.866 Z6.018 F320.000
G1 X31.256 Y20.249 Z6.018 F320.000
G1 X30.354 Y20.673 Z5.966 F320.000
G1 X29.471 Y21.139 Z5.581 F320.000
G1 X28.612 Y21.646 Z5.773 F320.000
G1 X27.776 Y22.191 Z6.013 F320.000
G1 X26.967 Y22.774 Z6.018 F320.000
G1 X26.186 Y23.395 Z6.018 F320.000
G1 X25.434 Y24.050 Z6.018 F320.000
G1 X24.713 Y24.740 Z6.018 F320.000
G1 X24.025 Y25.462 Z6.018 F320.000
G1 X23.370 Y26.215 Z6.018 F320.000
G1 X22.752 Y26.997 Z6.018 F320.000
G1 X22.170 Y27.808 Z6.018 F320.000
G1 X21.626 Y28.644 Z6.018 F320.000
G1 X21.121 Y29.504 Z6.018 F320.000
G1 X20.656 Y30.387 Z6.018 F320.000
G1 X20.233 Y31.291 Z6.018 F320.000
G1 X19.852 Y32.213 Z6.018 F320.000
G1 X19.514 Y33.151 Z6.019 F320.000
G1 X19.220 Y34.104 Z6.019 F320.000
G1 X18.970 Y35.070 Z6.019 F320.000
G1 X18.764 Y36.047 Z6.018 F320.000
G1 X18.605 Y37.031 Z6.019 F320.000
G1 X18.490 Y38.022 Z6.019 F320.000
G1 X18.422 Y39.018 Z5.883 F320.000
G1 X18.400 Y40.015 Z5.377 F320.000
G1 X18.423 Y41.012 Z5.893 F320.000
G1 X18.493 Y42.007 Z6.018 F320.000
G1 X18.609 Y42.998 Z6.018 F320.000
G1 X18.770 Y43.983 Z6.018 F320.000
G1 X18.977 Y44.959 Z6.018 F320.000
G1 X19.228 Y45.924 Z6.019 F320.000
G1 X19.524 Y46.877 Z6.018 F320.000
G1 X19.863 Y47.815 Z6.018 F320.000
G1 X20.245 Y48.737 Z6.018 F320.000
G1 X20.670 Y49.639 Z6.018 F320.000
G1 X21.135 Y50.522 Z6.018 F320.000
G1 X21.641 Y51.381 Z6.018 F320.000
G1 X22.187 Y52.217 Z6.018 F320.000
G1 X22.770 Y53.026 Z6.018 F320.000
G1 X23.389 Y53.808 Z6.018 F320.000
G1 X24.045 Y54.560 Z6.018 F320.000
G1 X24.734 Y55.281 Z6.018 F320.000
G1 X25.456 Y55.970 Z6.018 F320.000
G1 X26.209 Y56.624 Z6.018 F320.000
G1 X26.991 Y57.243 Z6.019 F320.000
G1 X27.801 Y57.826 Z6.011 F320.000
G1 X28.637 Y58.370 Z5.760 F320.000
G1 X29.498 Y58.875 Z5.599 F320.000
G1 X30.380 Y59.340 Z5.971 F320.000
G1 X31.284 Y59.763 Z6.018 F320.000
G1 X32.205 Y60.145 Z6.018 F320.000
G1 X33.144 Y60.483 Z6.019 F320.000
G1 X34.097 Y60.778 Z6.018 F320.000
G1 X35.063 Y61.028 Z6.018 F320.000
G1 X36.039 Y61.234 Z6.018 F320.000
G1 X37.024 Y61.394 Z6.018 F320.000
G1 X38.015 Y61.508 Z6.018 F320.000
G1 X39.010 Y61.577 Z6.018 F320.000
G1 X40.007 Y61.600 Z6.019 F320.000
G1 X41.004 Y61.577 Z6.018 F320.000
G1 X42.000 Y61.507 Z6.018 F320.000
G1 X42.991 Y61.392 Z6.018 F320.000
G1 X43.975 Y61.231 Z6.018 F320.000
G1 X44.951 Y61.025 Z6.018 F320.000
G1 X45.917 Y60.774 Z6.018 F320.000
G1 X46.870 Y60.478 Z6.019 F320.000
G1 X47.808 Y60.139 Z6.018 F320.000
G1 X48.729 Y59.757 Z6.018 F320.000
G1 X49.632 Y59.333 Z5.969 F320.000
G1 X50.515 Y58.868 Z5.590 F320.000
G1 X51.375 Y58.362 Z5.766 F320.000
G1 X52.210 Y57.817 Z6.012 F320.000
G1 X53.020 Y57.234 Z6.018 F320.000
G1 X53.802 Y56.615 Z6.018 F320.000
G1 X54.554 Y55.960 Z6.018 F320.000
G1 X55.276 Y55.271 Z6.018 F320.000
G1 X55.965 Y54.549 Z6.018 F320.000
G1 X56.619 Y53.796 Z6.018 F320.000
G1 X57.239 Y53.014 Z6.018 F320.000
G1 X57.821 Y52.204 Z6.018 F320.000
G1 X58.366 Y51.369 Z6.018 F320.000
G1 X58.871 Y50.508 Z6.018 F320.000
G1 X59.336 Y49.626 Z6.018 F320.000
G1 X59.760 Y48.723 Z6.019 F320.000
G1 X60.142 Y47.801 Z6.018 F320.000
G1 X60.480 Y46.863 Z6.018 F320.000
G1 X60.775 Y45.910 Z6.018 F320.000
G1 X61.026 Y44.944 Z6.018 F320.000
G1 X61.232 Y43.968 Z6.018 F320.000
G1 X61.393 Y42.983 Z6.018 F320.000
G1 X61.508 Y41.992 Z6.018 F320.000
G1 X61.577 Y40.997 Z5.888 F320.000
G1 X61.600 Y40.000 Z5.365 F320.000
G1 X61.600 Y39.970 Z5.388 F320.000
(End of step 31.)
(Begin step 32.)
G1 X62.200 Y39.970 Z5.146 F320.000
(part 1.)
G1 X62.200 Y39.970 Z5.146 F320.000
G1 X62.176 Y38.974 Z5.640 F320.000
G1 X62.108 Y37.980 Z5.755 F320.000
G1 X61.995 Y36.991 Z5.755 F320.000
G1 X61.838 Y36.007 Z5.755 F320.000
G1 X61.637 Y35.032 Z5.755 F320.000
G1 X61.392 Y34.066 Z5.755 F320.000
G1 X61.104 Y33.113 Z5.755 F320.000
G1 X60.774 Y32.173 Z5.755 F320.000
G1 X60.402 Y31.249 Z5.755 F320.000
G1 X59.989 Y30.343 Z5.754 F320.000
G1 X59.536 Y29.456 Z5.755 F320.000
G1 X59.043 Y28.590 Z5.755 F320.000
G1 X58.512 Y27.747 Z5.755 F320.000
G1 X57.944 Y26.929 Z5.755 F320.000
G1 X57.340 Y26.137 Z5.755 F320.000
G1 X56.700 Y25.374 Z5.754 F320.000
G1 X56.027 Y24.639 Z5.754 F320.000
G1 X55.322 Y23.936 Z5.755 F320.000
G1 X54.586 Y23.265 Z5.755 F320.000
G1 X53.821 Y22.627 Z5.755 F320.000
G1 X53.028 Y22.025 Z5.755 F320.000
G1 X52.208 Y21.458 Z5.705 F320.000
G1 X51.364 Y20.929 Z5.331 F320.000
G1 X50.498 Y20.439 Z5.522 F320.000
G1 X49.610 Y19.988 Z5.751 F320.000
G1 X48.702 Y19.577 Z5.755 F320.000
G1 X47.777 Y19.207 Z5.754 F320.000
G1 X46.837 Y18.879 Z5.755 F320.000
G1 X45.883 Y18.594 Z5.755 F320.000
G1 X44.917 Y18.351 Z5.754 F320.000
G1 X43.941 Y18.153 Z5.755 F320.000
G1 X42.957 Y17.998 Z5.754 F320.000
G1 X41.967 Y17.887 Z5.755 F320.000
G1 X40.973 Y17.821 Z5.755 F320.000
G1 X39.977 Y17.800 Z5.755 F320.000
G1 X38.981 Y17.823 Z5.755 F320.000
G1 X37.988 Y17.891 Z5.755 F320.000
G1 X36.998 Y18.004 Z5.754 F320.000
G1 X36.014 Y18.161 Z5.754 F320.000
G1 X35.039 Y18.361 Z5.755 F320.000
G1 X34.073 Y18.606 Z5.755 F320.000
G1 X33.119 Y18.893 Z5.755 F320.000
G1 X32.180 Y19.223 Z5.755 F320.000
G1 X31.256 Y19.594 Z5.755 F320.000
G1 X30.349 Y20.007 Z5.748 F320.000
G1 X29.462 Y20.460 Z5.503 F320.000
G1 X28.596 Y20.953 Z5.357 F320.000
G1 X27.753 Y21.483 Z5.713 F320.000
G1 X26.935 Y22.051 Z5.755 F320.000
G1 X26.143 Y22.655 Z5.755 F320.000
G1 X25.379 Y23.294 Z5.755 F320.000
G1 X24.644 Y23.967 Z5.755 F320.000
G1 X23.941 Y24.672 Z5.755 F320.000
G1 X23.269 Y25.408 Z5.754 F320.000
G1 X22.632 Y26.173 Z5.755 F320.000
G1 X22.029 Y26.966 Z5.755 F320.000
G1 X21.462 Y27.785 Z5.754 F320.000
G1 X20.933 Y28.629 Z5.755 F320.000
G1 X20.442 Y29.495 Z5.755 F320.000
G1 X19.991 Y30.383 Z5.755 F320.000
G1 X19.579 Y31.290 Z5.754 F320.000
G1 X19.209 Y32.215 Z5.754 F320.000
G1 X18.881 Y33.155 Z5.755 F320.000
G1 X18.595 Y34.110 Z5.755 F320.000
G1 X18.353 Y35.076 Z5.755 F320.000
G1 X18.154 Y36.052 Z5.755 F320.000
G1 X17.998 Y37.035 Z5.755 F320.000
G1 X17.888 Y38.025 Z5.755 F320.000
G1 X17.821 Y39.019 Z5.627 F320.000
G1 X17.800 Y40.015 Z5.135 F320.000
G1 X17.823 Y41.011 Z5.636 F320.000
G1 X17.890 Y42.004 Z5.755 F320.000
G1 X18.002 Y42.994 Z5.755 F320.000
G1 X18.159 Y43.978 Z5.755 F320.000
G1 X18.359 Y44.953 Z5.755 F320.000
G1 X18.603 Y45.919 Z5.755 F320.000
G1 X18.890 Y46.873 Z5.754 F320.000
G1 X19.220 Y47.813 Z5.755 F320.000
G1 X19.591 Y48.737 Z5.754 F320.000
G1 X20.004 Y49.644 Z5.755 F320.000
G1 X20.456 Y50.531 Z5.755 F320.000
G1 X20.948 Y51.397 Z5.755 F320.000
G1 X21.479 Y52.240 Z5.755 F320.000
G1 X22.046 Y53.058 Z5.754 F320.000
G1 X22.650 Y53.851 Z5.755 F320.000
G1 X23.289 Y54.615 Z5.755 F320.000
G1 X23.961 Y55.350 Z5.755 F320.000
G1 X24.666 Y56.054 Z5.755 F320.000
G1 X25.402 Y56.725 Z5.754 F320.000
G1 X26.167 Y57.363 Z5.755 F320.000
G1 X26.959 Y57.966 Z5.755 F320.000
G1 X27.778 Y58.533 Z5.708 F320.000
G1 X28.622 Y59.063 Z5.340 F320.000
G1 X29.488 Y59.554 Z5.516 F320.000
G1 X30.376 Y60.006 Z5.750 F320.000
G1 X31.283 Y60.417 Z5.755 F320.000
G1 X32.208 Y60.788 Z5.754 F320.000
G1 X33.148 Y61.116 Z5.754 F320.000
G1 X34.102 Y61.402 Z5.755 F320.000
G1 X35.068 Y61.645 Z5.755 F320.000
G1 X36.044 Y61.845 Z5.755 F320.000
G1 X37.028 Y62.000 Z5.755 F320.000
G1 X38.018 Y62.111 Z5.755 F320.000
G1 X39.011 Y62.178 Z5.754 F320.000
G1 X40.007 Y62.200 Z5.755 F320.000
G1 X41.003 Y62.177 Z5.754 F320.000
G1 X41.997 Y62.110 Z5.755 F320.000
G1 X42.986 Y61.998 Z5.755 F320.000
G1 X43.970 Y61.842 Z5.755 F320.000
G1 X44.946 Y61.642 Z5.755 F320.000
G1 X45.912 Y61.398 Z5.755 F320.000
G1 X46.866 Y61.112 Z5.754 F320.000
G1 X47.806 Y60.782 Z5.754 F320.000
G1 X48.730 Y60.411 Z5.755 F320.000
G1 X49.637 Y59.999 Z5.749 F320.000
G1 X50.524 Y59.547 Z5.510 F320.000
G1 X51.390 Y59.055 Z5.348 F320.000
G1 X52.233 Y58.525 Z5.711 F320.000
G1 X53.052 Y57.957 Z5.755 F320.000
G1 X53.844 Y57.354 Z5.755 F320.000
G1 X54.609 Y56.715 Z5.755 F320.000
G1 X55.344 Y56.043 Z5.754 F320.000
G1 X56.048 Y55.339 Z5.755 F320.000
G1 X56.720 Y54.604 Z5.755 F320.000
G1 X57.358 Y53.839 Z5.755 F320.000
G1 X57.962 Y53.046 Z5.755 F320.000
G1 X58.529 Y52.227 Z5.755 F320.000
G1 X59.059 Y51.384 Z5.755 F320.000
G1 X59.550 Y50.518 Z5.755 F320.000
G1 X60.002 Y49.630 Z5.755 F320.000
G1 X60.414 Y48.723 Z5.754 F320.000
G1 X60.785 Y47.799 Z5.755 F320.000
G1 X61.114 Y46.859 Z5.755 F320.000
G1 X61.400 Y45.905 Z5.755 F320.000
G1 X61.643 Y44.939 Z5.755 F320.000
G1 X61.843 Y43.963 Z5.755 F320.000
G1 X61.999 Y42.979 Z5.755 F320.000
G1 X62.110 Y41.989 Z5.755 F320.000
G1 X62.177 Y40.996 Z5.632 F320.000
G1 X62.200 Y40.000 Z5.124 F320.000
G1 X62.200 Y39.970 Z5.146 F320.000
(End of step 32.)
(Begin step 33.)
G1 X62.800 Y39.970 Z5.000 F320.000
(part 1.)
G1 X62.800 Y39.970 Z5.000 F320.000
G1 X62.777 Y38.976 Z5.426 F320.000
G1 X62.710 Y37.983 Z5.535 F320.000
G1 X62.601 Y36.995 Z5.535 F320.000
G1 X62.448 Y36.012 Z5.535 F320.000
G1 X62.253 Y35.037 Z5.535 F320.000
G1 X62.015 Y34.071 Z5.535 F320.000
G1 X61.736 Y33.117 Z5.535 F320.000
G1 X61.415 Y32.175 Z5.535 F320.000
G1 X61.053 Y31.249 Z5.534 F320.000
G1 X60.652 Y30.339 Z5.535 F320.000
G1 X60.211 Y29.447 Z5.534 F320.000
G1 X59.731 Y28.576 Z5.535 F320.000
G1 X59.214 Y27.726 Z5.535 F320.000
G1 X58.661 Y26.900 Z5.535 F320.000
G1 X58.072 Y26.099 Z5.534 F320.000
G1 X57.448 Y25.324 Z5.535 F320.000
G1 X56.792 Y24.577 Z5.534 F320.000
G1 X56.103 Y23.859 Z5.535 F320.000
G1 X55.384 Y23.172 Z5.535 F320.000
G1 X54.635 Y22.517 Z5.535 F320.000
G1 X53.859 Y21.896 Z5.535 F320.000
G1 X53.056 Y21.309 Z5.535 F320.000
G1 X52.229 Y20.757 Z5.410 F320.000
G1 X51.378 Y20.242 Z5.000 F320.000
G1 X50.505 Y19.765 Z5.424 F320.000
G1 X49.613 Y19.326 Z5.535 F320.000
G1 X48.702 Y18.926 Z5.535 F320.000
G1 X47.775 Y18.567 Z5.535 F320.000
