(Exported by FreeCAD)
(Post Processor: grbl_post)
(Output Time:2021-12-22 11:48:51.873354)
(Begin preamble)
G17 G90
G21
(Begin operation: Fixture)
(Path: Fixture)
G54
G0 Z5.000
(Finish operation: Fixture)
(Begin operation: TC: 12.7 ball Q8)
(Path: TC: 12.7 ball Q8)
(TC: 12.7 ball Q8)
(Begin toolchange)
( M6 T11.0 )
M3 S12000.0
(Finish operation: TC: 12.7 ball Q8)
(Begin operation: Surface)
(Path: Surface)
(Surface)
(Surface)
(Tool type: ballend)
(Compensated Tool Path. Diameter: 12.3)
(Sample interval: 1.0)
(Step over %: 10.0)
()
G0 Z5.000
(Beginning of Multi-pass layers.)
(Layer 0 begins)
(Begin step 0.)
G0 X6.150 Y-0.061
(part 1)
G1 X6.150 Y-0.061 Z-0.317 F2500.000
G1 X6.061 Y-1.046 Z-0.317 F2500.000
G1 X5.815 Y-2.003 Z-0.320 F2500.000
G1 X5.419 Y-2.908 Z-0.468 F2500.000
G1 X4.883 Y-3.738 Z-0.350 F2500.000
G1 X4.222 Y-4.472 Z-0.317 F2500.000
G1 X3.451 Y-5.091 Z-0.317 F2500.000
G1 X2.591 Y-5.578 Z-0.317 F2500.000
G1 X1.664 Y-5.921 Z-0.317 F2500.000
G1 X0.695 Y-6.111 Z-0.364 F2500.000
G1 X-0.293 Y-6.143 Z-0.442 F2500.000
G1 X-1.273 Y-6.017 Z-0.318 F2500.000
G1 X-2.220 Y-5.735 Z-0.317 F2500.000
G1 X-3.110 Y-5.305 Z-0.317 F2500.000
G1 X-3.920 Y-4.739 Z-0.317 F2500.000
G1 X-4.628 Y-4.050 Z-0.320 F2500.000
G1 X-5.217 Y-3.256 Z-0.462 F2500.000
G1 X-5.671 Y-2.379 Z-0.353 F2500.000
G1 X-5.979 Y-1.440 Z-0.317 F2500.000
G1 X-6.132 Y-0.463 Z-0.317 F2500.000
G1 X-6.127 Y0.525 Z-0.317 F2500.000
G1 X-5.964 Y1.499 Z-0.317 F2500.000
G1 X-5.647 Y2.435 Z-0.361 F2500.000
G1 X-5.184 Y3.308 Z-0.447 F2500.000
G1 X-4.587 Y4.096 Z-0.318 F2500.000
G1 X-3.872 Y4.778 Z-0.317 F2500.000
G1 X-3.057 Y5.336 Z-0.317 F2500.000
G1 X-2.163 Y5.757 Z-0.317 F2500.000
G1 X-1.213 Y6.029 Z-0.319 F2500.000
G1 X-0.232 Y6.146 Z-0.457 F2500.000
G1 X0.756 Y6.103 Z-0.356 F2500.000
G1 X1.723 Y5.904 Z-0.317 F2500.000
G1 X2.647 Y5.552 Z-0.317 F2500.000
G1 X3.502 Y5.056 Z-0.317 F2500.000
G1 X4.266 Y4.430 Z-0.317 F2500.000
G1 X4.921 Y3.690 Z-0.358 F2500.000
G1 X5.448 Y2.854 Z-0.452 F2500.000
G1 X5.835 Y1.945 Z-0.318 F2500.000
G1 X6.071 Y0.985 Z-0.317 F2500.000
G1 X6.150 Y0.000 Z-0.317 F2500.000
G1 X6.150 Y-0.061 Z-0.317 F2500.000
(End of step 0.)
G0 Z3.000
G0 X7.380 Y-0.061
(Begin step 1.)
G0 X7.380 Y-0.061
(part 1)
G1 X7.380 Y-0.061 Z-0.042 F2500.000
G1 X7.306 Y-1.043 Z-0.042 F2500.000
G1 X7.102 Y-2.006 Z-0.042 F2500.000
G1 X6.772 Y-2.934 Z-0.094 F2500.000
G1 X6.321 Y-3.809 Z-0.239 F2500.000
G1 X5.758 Y-4.617 Z-0.063 F2500.000
G1 X5.092 Y-5.342 Z-0.042 F2500.000
G1 X4.336 Y-5.972 Z-0.042 F2500.000
G1 X3.502 Y-6.496 Z-0.042 F2500.000
G1 X2.606 Y-6.905 Z-0.042 F2500.000
G1 X1.664 Y-7.190 Z-0.042 F2500.000
G1 X0.692 Y-7.347 Z-0.118 F2500.000
G1 X-0.292 Y-7.374 Z-0.199 F2500.000
G1 X-1.271 Y-7.270 Z-0.052 F2500.000
G1 X-2.228 Y-7.036 Z-0.042 F2500.000
G1 X-3.144 Y-6.677 Z-0.042 F2500.000
G1 X-4.005 Y-6.199 Z-0.042 F2500.000
G1 X-4.794 Y-5.610 Z-0.042 F2500.000
G1 X-5.499 Y-4.922 Z-0.043 F2500.000
G1 X-6.105 Y-4.146 Z-0.146 F2500.000
G1 X-6.602 Y-3.297 Z-0.164 F2500.000
G1 X-6.983 Y-2.389 Z-0.045 F2500.000
G1 X-7.238 Y-1.438 Z-0.042 F2500.000
G1 X-7.365 Y-0.462 Z-0.042 F2500.000
G1 X-7.361 Y0.523 Z-0.042 F2500.000
G1 X-7.226 Y1.498 Z-0.042 F2500.000
G1 X-6.962 Y2.447 Z-0.047 F2500.000
G1 X-6.575 Y3.352 Z-0.178 F2500.000
G1 X-6.070 Y4.197 Z-0.134 F2500.000
G1 X-5.457 Y4.968 Z-0.042 F2500.000
G1 X-4.748 Y5.650 Z-0.042 F2500.000
G1 X-3.953 Y6.232 Z-0.042 F2500.000
G1 X-3.088 Y6.703 Z-0.042 F2500.000
G1 X-2.169 Y7.054 Z-0.042 F2500.000
G1 X-1.211 Y7.280 Z-0.056 F2500.000
G1 X-0.231 Y7.376 Z-0.214 F2500.000
G1 X0.753 Y7.342 Z-0.108 F2500.000
G1 X1.724 Y7.176 Z-0.042 F2500.000
G1 X2.664 Y6.883 Z-0.042 F2500.000
G1 X3.556 Y6.467 Z-0.042 F2500.000
G1 X4.385 Y5.936 Z-0.042 F2500.000
G1 X5.136 Y5.300 Z-0.042 F2500.000
G1 X5.796 Y4.569 Z-0.069 F2500.000
G1 X6.353 Y3.757 Z-0.256 F2500.000
G1 X6.796 Y2.878 Z-0.086 F2500.000
G1 X7.119 Y1.947 Z-0.042 F2500.000
G1 X7.315 Y0.982 Z-0.042 F2500.000
G1 X7.380 Y0.000 Z-0.042 F2500.000
G1 X7.380 Y-0.061 Z-0.042 F2500.000
(End of step 1.)
G0 Z3.000
G0 X8.610 Y-0.061
(Begin step 2.)
G0 X8.610 Y-0.061
(part 1)
G1 X8.610 Y-0.061 Z0.000 F2500.000
G1 X8.547 Y-1.041 Z0.000 F2500.000
G1 X8.373 Y-2.008 Z0.000 F2500.000
G1 X8.090 Y-2.948 Z-0.005 F2500.000
G1 X7.701 Y-3.850 Z-0.125 F2500.000
G1 X7.213 Y-4.702 Z-0.136 F2500.000
G1 X6.631 Y-5.492 Z-0.008 F2500.000
G1 X5.962 Y-6.212 Z0.000 F2500.000
G1 X5.216 Y-6.850 Z0.000 F2500.000
G1 X4.402 Y-7.400 Z0.000 F2500.000
G1 X3.531 Y-7.853 Z0.000 F2500.000
G1 X2.614 Y-8.204 Z0.000 F2500.000
G1 X1.663 Y-8.448 Z-0.001 F2500.000
G1 X0.690 Y-8.582 Z-0.092 F2500.000
G1 X-0.291 Y-8.605 Z-0.175 F2500.000
G1 X-1.269 Y-8.516 Z-0.019 F2500.000
G1 X-2.231 Y-8.316 Z0.000 F2500.000
G1 X-3.163 Y-8.008 Z0.000 F2500.000
G1 X-4.054 Y-7.596 Z0.000 F2500.000
G1 X-4.893 Y-7.084 Z0.000 F2500.000
G1 X-5.668 Y-6.481 Z0.000 F2500.000
G1 X-6.369 Y-5.794 Z0.000 F2500.000
G1 X-6.987 Y-5.031 Z-0.064 F2500.000
G1 X-7.514 Y-4.203 Z-0.221 F2500.000
G1 X-7.944 Y-3.320 Z-0.035 F2500.000
G1 X-8.270 Y-2.393 Z0.000 F2500.000
G1 X-8.489 Y-1.436 Z0.000 F2500.000
G1 X-8.597 Y-0.460 Z0.000 F2500.000
G1 X-8.594 Y0.522 Z0.000 F2500.000
G1 X-8.479 Y1.497 Z0.000 F2500.000
G1 X-8.253 Y2.453 Z0.000 F2500.000
G1 X-7.920 Y3.376 Z-0.042 F2500.000
G1 X-7.484 Y4.256 Z-0.238 F2500.000
G1 X-6.951 Y5.081 Z-0.056 F2500.000
G1 X-6.327 Y5.839 Z0.000 F2500.000
G1 X-5.621 Y6.522 Z0.000 F2500.000
G1 X-4.842 Y7.119 Z0.000 F2500.000
G1 X-4.000 Y7.624 Z0.000 F2500.000
G1 X-3.106 Y8.030 Z0.000 F2500.000
G1 X-2.171 Y8.332 Z0.000 F2500.000
G1 X-1.209 Y8.525 Z-0.024 F2500.000
G1 X-0.230 Y8.607 Z-0.191 F2500.000
G1 X0.751 Y8.577 Z-0.082 F2500.000
G1 X1.723 Y8.436 Z-0.000 F2500.000
G1 X2.673 Y8.185 Z0.000 F2500.000
G1 X3.587 Y7.827 Z0.000 F2500.000
G1 X4.455 Y7.368 Z0.000 F2500.000
G1 X5.265 Y6.813 Z0.000 F2500.000
G1 X6.006 Y6.169 Z0.000 F2500.000
G1 X6.670 Y5.445 Z-0.011 F2500.000
G1 X7.246 Y4.650 Z-0.149 F2500.000
G1 X7.729 Y3.795 Z-0.113 F2500.000
G1 X8.111 Y2.890 Z-0.003 F2500.000
G1 X8.387 Y1.948 Z0.000 F2500.000
G1 X8.554 Y0.980 Z0.000 F2500.000
G1 X8.610 Y0.000 Z0.000 F2500.000
G1 X8.610 Y-0.061 Z0.000 F2500.000
(End of step 2.)
G0 Z3.000
G0 X9.840 Y-0.061
(Begin step 3.)
G0 X9.840 Y-0.061
(part 1)
G1 X9.840 Y-0.061 Z-0.001 F2500.000
G1 X9.783 Y-1.056 Z-0.001 F2500.000
G1 X9.627 Y-2.039 Z-0.001 F2500.000
G1 X9.371 Y-3.001 Z-0.001 F2500.000
G1 X9.020 Y-3.933 Z-0.037 F2500.000
G1 X8.576 Y-4.825 Z-0.228 F2500.000
G1 X8.045 Y-5.667 Z-0.064 F2500.000
G1 X7.431 Y-6.451 Z-0.001 F2500.000
G1 X6.741 Y-7.169 Z-0.001 F2500.000
G1 X5.982 Y-7.813 Z-0.001 F2500.000
G1 X5.161 Y-8.378 Z-0.001 F2500.000
G1 X4.288 Y-8.857 Z-0.001 F2500.000
G1 X3.371 Y-9.245 Z-0.001 F2500.000
G1 X2.420 Y-9.538 Z-0.001 F2500.000
G1 X1.443 Y-9.734 Z-0.009 F2500.000
G1 X0.452 Y-9.830 Z-0.143 F2500.000
G1 X-0.544 Y-9.825 Z-0.124 F2500.000
G1 X-1.534 Y-9.720 Z-0.005 F2500.000
G1 X-2.508 Y-9.515 Z-0.001 F2500.000
G1 X-3.457 Y-9.213 Z-0.001 F2500.000
G1 X-4.371 Y-8.816 Z-0.001 F2500.000
G1 X-5.239 Y-8.329 Z-0.001 F2500.000
G1 X-6.054 Y-7.757 Z-0.001 F2500.000
G1 X-6.807 Y-7.105 Z-0.001 F2500.000
G1 X-7.490 Y-6.381 Z-0.001 F2500.000
G1 X-8.097 Y-5.591 Z-0.078 F2500.000
G1 X-8.621 Y-4.744 Z-0.203 F2500.000
G1 X-9.056 Y-3.848 Z-0.027 F2500.000
G1 X-9.399 Y-2.913 Z-0.001 F2500.000
G1 X-9.645 Y-1.949 Z-0.001 F2500.000
G1 X-9.792 Y-0.964 Z-0.001 F2500.000
G1 X-9.840 Y0.031 Z-0.001 F2500.000
G1 X-9.786 Y1.025 Z-0.001 F2500.000
G1 X-9.633 Y2.009 Z-0.001 F2500.000
G1 X-9.380 Y2.972 Z-0.001 F2500.000
G1 X-9.032 Y3.905 Z-0.033 F2500.000
G1 X-8.591 Y4.798 Z-0.219 F2500.000
G1 X-8.062 Y5.642 Z-0.069 F2500.000
G1 X-7.450 Y6.428 Z-0.001 F2500.000
G1 X-6.763 Y7.148 Z-0.001 F2500.000
G1 X-6.006 Y7.795 Z-0.001 F2500.000
G1 X-5.187 Y8.362 Z-0.001 F2500.000
G1 X-4.315 Y8.843 Z-0.001 F2500.000
G1 X-3.400 Y9.234 Z-0.001 F2500.000
G1 X-2.449 Y9.530 Z-0.001 F2500.000
G1 X-1.473 Y9.729 Z-0.008 F2500.000
G1 X-0.482 Y9.828 Z-0.136 F2500.000
G1 X0.513 Y9.827 Z-0.130 F2500.000
G1 X1.504 Y9.724 Z-0.006 F2500.000
G1 X2.479 Y9.523 Z-0.001 F2500.000
G1 X3.429 Y9.223 Z-0.001 F2500.000
G1 X4.343 Y8.830 Z-0.001 F2500.000
G1 X5.214 Y8.345 Z-0.001 F2500.000
G1 X6.030 Y7.776 Z-0.001 F2500.000
G1 X6.785 Y7.127 Z-0.001 F2500.000
G1 X7.471 Y6.404 Z-0.001 F2500.000
G1 X8.080 Y5.616 Z-0.074 F2500.000
G1 X8.606 Y4.771 Z-0.211 F2500.000
G1 X9.044 Y3.877 Z-0.030 F2500.000
G1 X9.390 Y2.943 Z-0.001 F2500.000
G1 X9.639 Y1.979 Z-0.001 F2500.000
G1 X9.790 Y0.995 Z-0.001 F2500.000
G1 X9.840 Y0.000 Z-0.001 F2500.000
G1 X9.840 Y-0.061 Z-0.001 F2500.000
(End of step 3.)
G0 Z3.000
G0 X11.070 Y-0.061
(Begin step 4.)
G0 X11.070 Y-0.061
(part 1)
G1 X11.070 Y-0.061 Z-0.132 F2500.000
G1 X11.020 Y-1.053 Z-0.132 F2500.000
G1 X10.881 Y-2.035 Z-0.132 F2500.000
G1 X10.655 Y-3.002 Z-0.132 F2500.000
G1 X10.344 Y-3.944 Z-0.136 F2500.000
G1 X9.949 Y-4.854 Z-0.240 F2500.000
G1 X9.474 Y-5.726 Z-0.363 F2500.000
G1 X8.923 Y-6.551 Z-0.175 F2500.000
G1 X8.301 Y-7.324 Z-0.132 F2500.000
G1 X7.611 Y-8.038 Z-0.132 F2500.000
G1 X6.861 Y-8.688 Z-0.132 F2500.000
G1 X6.055 Y-9.267 Z-0.132 F2500.000
G1 X5.201 Y-9.772 Z-0.132 F2500.000
G1 X4.305 Y-10.199 Z-0.132 F2500.000
G1 X3.374 Y-10.543 Z-0.132 F2500.000
G1 X2.416 Y-10.803 Z-0.132 F2500.000
G1 X1.439 Y-10.976 Z-0.153 F2500.000
G1 X0.450 Y-11.061 Z-0.306 F2500.000
G1 X-0.542 Y-11.057 Z-0.286 F2500.000
G1 X-1.530 Y-10.964 Z-0.147 F2500.000
G1 X-2.506 Y-10.783 Z-0.132 F2500.000
G1 X-3.462 Y-10.515 Z-0.132 F2500.000
G1 X-4.389 Y-10.162 Z-0.132 F2500.000
G1 X-5.282 Y-9.729 Z-0.132 F2500.000
G1 X-6.132 Y-9.216 Z-0.132 F2500.000
G1 X-6.933 Y-8.630 Z-0.132 F2500.000
G1 X-7.678 Y-7.975 Z-0.132 F2500.000
G1 X-8.361 Y-7.255 Z-0.132 F2500.000
G1 X-8.977 Y-6.477 Z-0.186 F2500.000
G1 X-9.521 Y-5.647 Z-0.389 F2500.000
G1 X-9.989 Y-4.771 Z-0.224 F2500.000
G1 X-10.376 Y-3.858 Z-0.133 F2500.000
G1 X-10.680 Y-2.913 Z-0.132 F2500.000
G1 X-10.898 Y-1.945 Z-0.132 F2500.000
G1 X-11.028 Y-0.961 Z-0.132 F2500.000
G1 X-11.070 Y0.031 Z-0.132 F2500.000
G1 X-11.023 Y1.022 Z-0.132 F2500.000
G1 X-10.887 Y2.005 Z-0.132 F2500.000
G1 X-10.663 Y2.972 Z-0.132 F2500.000
G1 X-10.354 Y3.915 Z-0.135 F2500.000
G1 X-9.962 Y4.827 Z-0.235 F2500.000
G1 X-9.490 Y5.700 Z-0.372 F2500.000
G1 X-8.941 Y6.527 Z-0.179 F2500.000
G1 X-8.321 Y7.301 Z-0.132 F2500.000
G1 X-7.633 Y8.017 Z-0.132 F2500.000
G1 X-6.885 Y8.669 Z-0.132 F2500.000
G1 X-6.081 Y9.250 Z-0.132 F2500.000
G1 X-5.228 Y9.758 Z-0.132 F2500.000
G1 X-4.333 Y10.187 Z-0.132 F2500.000
G1 X-3.403 Y10.534 Z-0.132 F2500.000
G1 X-2.446 Y10.796 Z-0.132 F2500.000
G1 X-1.469 Y10.972 Z-0.151 F2500.000
G1 X-0.481 Y11.060 Z-0.299 F2500.000
G1 X0.512 Y11.058 Z-0.293 F2500.000
G1 X1.500 Y10.968 Z-0.149 F2500.000
G1 X2.476 Y10.790 Z-0.132 F2500.000
G1 X3.433 Y10.524 Z-0.132 F2500.000
G1 X4.361 Y10.175 Z-0.132 F2500.000
G1 X5.255 Y9.743 Z-0.132 F2500.000
G1 X6.107 Y9.233 Z-0.132 F2500.000
G1 X6.909 Y8.649 Z-0.132 F2500.000
G1 X7.656 Y7.996 Z-0.132 F2500.000
G1 X8.341 Y7.278 Z-0.132 F2500.000
G1 X8.960 Y6.502 Z-0.183 F2500.000
G1 X9.506 Y5.673 Z-0.380 F2500.000
G1 X9.976 Y4.799 Z-0.230 F2500.000
G1 X10.366 Y3.886 Z-0.134 F2500.000
G1 X10.672 Y2.943 Z-0.132 F2500.000
G1 X10.893 Y1.975 Z-0.132 F2500.000
G1 X11.026 Y0.991 Z-0.132 F2500.000
G1 X11.070 Y0.000 Z-0.132 F2500.000
G1 X11.070 Y-0.061 Z-0.132 F2500.000
(End of step 4.)
G0 Z3.000
G0 X12.300 Y-0.061
(Begin step 5.)
G0 X12.300 Y-0.061
(part 1)
G1 X12.300 Y-0.061 Z-0.508 F2500.000
G1 X12.255 Y-1.050 Z-0.508 F2500.000
G1 X12.131 Y-2.032 Z-0.508 F2500.000
G1 X11.928 Y-3.001 Z-0.508 F2500.000
G1 X11.649 Y-3.950 Z-0.508 F2500.000
G1 X11.293 Y-4.874 Z-0.548 F2500.000
G1 X10.865 Y-5.766 Z-0.727 F2500.000
G1 X10.366 Y-6.621 Z-0.699 F2500.000
G1 X9.800 Y-7.433 Z-0.537 F2500.000
G1 X9.171 Y-8.197 Z-0.508 F2500.000
G1 X8.482 Y-8.908 Z-0.508 F2500.000
G1 X7.738 Y-9.561 Z-0.508 F2500.000
G1 X6.944 Y-10.152 Z-0.508 F2500.000
G1 X6.106 Y-10.678 Z-0.508 F2500.000
G1 X5.227 Y-11.134 Z-0.508 F2500.000
G1 X4.315 Y-11.518 Z-0.508 F2500.000
G1 X3.375 Y-11.828 Z-0.508 F2500.000
G1 X2.413 Y-12.061 Z-0.508 F2500.000
G1 X1.436 Y-12.216 Z-0.547 F2500.000
G1 X0.449 Y-12.292 Z-0.724 F2500.000
G1 X-0.541 Y-12.288 Z-0.701 F2500.000
G1 X-1.527 Y-12.205 Z-0.538 F2500.000
G1 X-2.503 Y-12.042 Z-0.508 F2500.000
G1 X-3.464 Y-11.802 Z-0.508 F2500.000
G1 X-4.401 Y-11.485 Z-0.508 F2500.000
G1 X-5.310 Y-11.094 Z-0.508 F2500.000
G1 X-6.185 Y-10.631 Z-0.508 F2500.000
G1 X-7.020 Y-10.100 Z-0.508 F2500.000
G1 X-7.809 Y-9.503 Z-0.508 F2500.000
G1 X-8.548 Y-8.844 Z-0.508 F2500.000
G1 X-9.232 Y-8.128 Z-0.508 F2500.000
G1 X-9.855 Y-7.359 Z-0.546 F2500.000
G1 X-10.415 Y-6.543 Z-0.721 F2500.000
G1 X-10.907 Y-5.685 Z-0.704 F2500.000
G1 X-11.329 Y-4.789 Z-0.539 F2500.000
G1 X-11.677 Y-3.863 Z-0.508 F2500.000
G1 X-11.950 Y-2.911 Z-0.508 F2500.000
G1 X-12.146 Y-1.941 Z-0.508 F2500.000
G1 X-12.262 Y-0.958 Z-0.508 F2500.000
G1 X-12.300 Y0.031 Z-0.508 F2500.000
G1 X-12.257 Y1.020 Z-0.508 F2500.000
G1 X-12.136 Y2.002 Z-0.508 F2500.000
G1 X-11.936 Y2.971 Z-0.508 F2500.000
G1 X-11.658 Y3.921 Z-0.508 F2500.000
G1 X-11.305 Y4.846 Z-0.545 F2500.000
G1 X-10.879 Y5.739 Z-0.719 F2500.000
G1 X-10.382 Y6.595 Z-0.706 F2500.000
G1 X-9.818 Y7.409 Z-0.540 F2500.000
G1 X-9.191 Y8.174 Z-0.508 F2500.000
G1 X-8.504 Y8.887 Z-0.508 F2500.000
G1 X-7.762 Y9.542 Z-0.508 F2500.000
G1 X-6.969 Y10.135 Z-0.508 F2500.000
G1 X-6.132 Y10.662 Z-0.508 F2500.000
G1 X-5.255 Y11.121 Z-0.508 F2500.000
G1 X-4.344 Y11.507 Z-0.508 F2500.000
G1 X-3.404 Y11.819 Z-0.508 F2500.000
G1 X-2.443 Y12.055 Z-0.508 F2500.000
G1 X-1.466 Y12.212 Z-0.544 F2500.000
G1 X-0.479 Y12.291 Z-0.716 F2500.000
G1 X0.510 Y12.289 Z-0.709 F2500.000
G1 X1.497 Y12.209 Z-0.541 F2500.000
G1 X2.474 Y12.049 Z-0.508 F2500.000
G1 X3.434 Y11.811 Z-0.508 F2500.000
G1 X4.373 Y11.497 Z-0.508 F2500.000
G1 X5.283 Y11.108 Z-0.508 F2500.000
G1 X6.159 Y10.647 Z-0.508 F2500.000
G1 X6.995 Y10.117 Z-0.508 F2500.000
G1 X7.786 Y9.522 Z-0.508 F2500.000
G1 X8.526 Y8.865 Z-0.508 F2500.000
G1 X9.212 Y8.151 Z-0.508 F2500.000
G1 X9.837 Y7.384 Z-0.543 F2500.000
G1 X10.399 Y6.569 Z-0.714 F2500.000
G1 X10.893 Y5.712 Z-0.711 F2500.000
G1 X11.317 Y4.818 Z-0.542 F2500.000
G1 X11.668 Y3.892 Z-0.508 F2500.000
G1 X11.943 Y2.941 Z-0.508 F2500.000
G1 X12.141 Y1.972 Z-0.508 F2500.000
G1 X12.260 Y0.989 Z-0.508 F2500.000
G1 X12.300 Y0.000 Z-0.508 F2500.000
G1 X12.300 Y-0.061 Z-0.508 F2500.000
(End of step 5.)
G0 Z3.000
G0 X13.530 Y-0.061
(Begin step 6.)
G0 X13.530 Y-0.061
(part 1)
G1 X13.530 Y-0.061 Z-1.179 F2500.000
G1 X13.489 Y-1.060 Z-1.179 F2500.000
G1 X13.374 Y-2.052 Z-1.179 F2500.000
G1 X13.186 Y-3.034 Z-1.179 F2500.000
G1 X12.926 Y-3.998 Z-1.179 F2500.000
G1 X12.596 Y-4.941 Z-1.188 F2500.000
G1 X12.196 Y-5.858 Z-1.313 F2500.000
G1 X11.731 Y-6.742 Z-1.597 F2500.000
G1 X11.201 Y-7.589 Z-1.324 F2500.000
G1 X10.611 Y-8.395 Z-1.190 F2500.000
G1 X9.962 Y-9.155 Z-1.179 F2500.000
G1 X9.260 Y-9.865 Z-1.179 F2500.000
G1 X8.506 Y-10.522 Z-1.179 F2500.000
G1 X7.707 Y-11.121 Z-1.179 F2500.000
G1 X6.865 Y-11.659 Z-1.179 F2500.000
G1 X5.986 Y-12.134 Z-1.179 F2500.000
G1 X5.074 Y-12.543 Z-1.179 F2500.000
G1 X4.134 Y-12.883 Z-1.179 F2500.000
G1 X3.172 Y-13.153 Z-1.179 F2500.000
G1 X2.193 Y-13.351 Z-1.181 F2500.000
G1 X1.202 Y-13.476 Z-1.280 F2500.000
G1 X0.204 Y-13.528 Z-1.534 F2500.000
G1 X-0.795 Y-13.507 Z-1.363 F2500.000
G1 X-1.790 Y-13.411 Z-1.203 F2500.000
G1 X-2.774 Y-13.242 Z-1.179 F2500.000
G1 X-3.744 Y-13.001 Z-1.179 F2500.000
G1 X-4.693 Y-12.690 Z-1.179 F2500.000
G1 X-5.617 Y-12.309 Z-1.179 F2500.000
G1 X-6.510 Y-11.861 Z-1.179 F2500.000
G1 X-7.368 Y-11.348 Z-1.179 F2500.000
G1 X-8.185 Y-10.773 Z-1.179 F2500.000
G1 X-8.958 Y-10.140 Z-1.179 F2500.000
G1 X-9.682 Y-9.451 Z-1.179 F2500.000
G1 X-10.353 Y-8.711 Z-1.179 F2500.000
G1 X-10.967 Y-7.923 Z-1.251 F2500.000
G1 X-11.522 Y-7.092 Z-1.477 F2500.000
G1 X-12.014 Y-6.222 Z-1.408 F2500.000
G1 X-12.441 Y-5.318 Z-1.220 F2500.000
G1 X-12.799 Y-4.386 Z-1.179 F2500.000
G1 X-13.088 Y-3.429 Z-1.179 F2500.000
G1 X-13.305 Y-2.454 Z-1.179 F2500.000
G1 X-13.450 Y-1.465 Z-1.179 F2500.000
G1 X-13.522 Y-0.469 Z-1.179 F2500.000
G1 X-13.519 Y0.530 Z-1.179 F2500.000
G1 X-13.443 Y1.527 Z-1.179 F2500.000
G1 X-13.294 Y2.515 Z-1.179 F2500.000
G1 X-13.072 Y3.489 Z-1.179 F2500.000
G1 X-12.779 Y4.444 Z-1.179 F2500.000
G1 X-12.416 Y5.375 Z-1.228 F2500.000
G1 X-11.986 Y6.277 Z-1.425 F2500.000
G1 X-11.490 Y7.144 Z-1.458 F2500.000
G1 X-10.931 Y7.973 Z-1.242 F2500.000
G1 X-10.313 Y8.758 Z-1.179 F2500.000
G1 X-9.639 Y9.495 Z-1.179 F2500.000
G1 X-8.912 Y10.180 Z-1.179 F2500.000
G1 X-8.136 Y10.810 Z-1.179 F2500.000
G1 X-7.316 Y11.381 Z-1.179 F2500.000
G1 X-6.456 Y11.890 Z-1.179 F2500.000
G1 X-5.561 Y12.334 Z-1.179 F2500.000
G1 X-4.636 Y12.711 Z-1.179 F2500.000
G1 X-3.685 Y13.018 Z-1.179 F2500.000
G1 X-2.714 Y13.255 Z-1.179 F2500.000
G1 X-1.729 Y13.419 Z-1.209 F2500.000
G1 X-0.734 Y13.510 Z-1.379 F2500.000
G1 X0.265 Y13.527 Z-1.513 F2500.000
G1 X1.263 Y13.471 Z-1.269 F2500.000
G1 X2.254 Y13.341 Z-1.180 F2500.000
G1 X3.232 Y13.138 Z-1.179 F2500.000
G1 X4.193 Y12.864 Z-1.179 F2500.000
G1 X5.131 Y12.520 Z-1.179 F2500.000
G1 X6.041 Y12.107 Z-1.179 F2500.000
G1 X6.918 Y11.628 Z-1.179 F2500.000
G1 X7.757 Y11.086 Z-1.179 F2500.000
G1 X8.554 Y10.483 Z-1.179 F2500.000
G1 X9.304 Y9.823 Z-1.179 F2500.000
G1 X10.004 Y9.110 Z-1.179 F2500.000
G1 X10.649 Y8.347 Z-1.194 F2500.000
G1 X11.236 Y7.538 Z-1.337 F2500.000
G1 X11.761 Y6.688 Z-1.574 F2500.000
G1 X12.223 Y5.802 Z-1.301 F2500.000
G1 X12.618 Y4.884 Z-1.185 F2500.000
G1 X12.944 Y3.940 Z-1.179 F2500.000
G1 X13.199 Y2.974 Z-1.179 F2500.000
G1 X13.383 Y1.992 Z-1.179 F2500.000
G1 X13.493 Y0.999 Z-1.179 F2500.000
G1 X13.530 Y0.000 Z-1.179 F2500.000
G1 X13.530 Y-0.061 Z-1.179 F2500.000
(End of step 6.)
G0 Z3.000
G0 X14.760 Y-0.061
(Begin step 7.)
G0 X14.760 Y-0.061
(part 1)
G1 X14.760 Y-0.061 Z-2.277 F2500.000
G1 X14.722 Y-1.057 Z-2.277 F2500.000
G1 X14.617 Y-2.048 Z-2.277 F2500.000
G1 X14.446 Y-3.029 Z-2.277 F2500.000
G1 X14.209 Y-3.997 Z-2.277 F2500.000
G1 X13.907 Y-4.947 Z-2.277 F2500.000
G1 X13.541 Y-5.873 Z-2.342 F2500.000
G1 X13.114 Y-6.774 Z-2.584 F2500.000
G1 X12.627 Y-7.643 Z-2.732 F2500.000
G1 X12.083 Y-8.477 Z-2.414 F2500.000
G1 X11.483 Y-9.273 Z-2.283 F2500.000
G1 X10.832 Y-10.027 Z-2.277 F2500.000
G1 X10.130 Y-10.735 Z-2.277 F2500.000
G1 X9.383 Y-11.394 Z-2.277 F2500.000
G1 X8.593 Y-12.001 Z-2.277 F2500.000
G1 X7.764 Y-12.553 Z-2.277 F2500.000
G1 X6.899 Y-13.048 Z-2.277 F2500.000
G1 X6.003 Y-13.484 Z-2.277 F2500.000
G1 X5.080 Y-13.858 Z-2.277 F2500.000
G1 X4.133 Y-14.169 Z-2.277 F2500.000
G1 X3.168 Y-14.416 Z-2.277 F2500.000
G1 X2.188 Y-14.597 Z-2.288 F2500.000
G1 X1.198 Y-14.711 Z-2.437 F2500.000
G1 X0.203 Y-14.759 Z-2.777 F2500.000
G1 X-0.793 Y-14.739 Z-2.551 F2500.000
G1 X-1.785 Y-14.652 Z-2.328 F2500.000
G1 X-2.770 Y-14.498 Z-2.277 F2500.000
G1 X-3.742 Y-14.278 Z-2.277 F2500.000
G1 X-4.696 Y-13.993 Z-2.277 F2500.000
G1 X-5.630 Y-13.644 Z-2.277 F2500.000
G1 X-6.537 Y-13.233 Z-2.277 F2500.000
G1 X-7.415 Y-12.762 Z-2.277 F2500.000
G1 X-8.259 Y-12.233 Z-2.277 F2500.000
G1 X-9.066 Y-11.647 Z-2.277 F2500.000
G1 X-9.831 Y-11.009 Z-2.277 F2500.000
G1 X-10.551 Y-10.321 Z-2.277 F2500.000
G1 X-11.224 Y-9.586 Z-2.277 F2500.000
G1 X-11.845 Y-8.807 Z-2.339 F2500.000
G1 X-12.412 Y-7.987 Z-2.578 F2500.000
G1 X-12.922 Y-7.132 Z-2.741 F2500.000
G1 X-13.374 Y-6.244 Z-2.418 F2500.000
G1 X-13.765 Y-5.327 Z-2.284 F2500.000
G1 X-14.093 Y-4.386 Z-2.277 F2500.000
G1 X-14.357 Y-3.426 Z-2.277 F2500.000
G1 X-14.555 Y-2.449 Z-2.277 F2500.000
G1 X-14.687 Y-1.462 Z-2.277 F2500.000
G1 X-14.752 Y-0.467 Z-2.277 F2500.000
G1 X-14.750 Y0.529 Z-2.277 F2500.000
G1 X-14.681 Y1.523 Z-2.277 F2500.000
G1 X-14.545 Y2.510 Z-2.277 F2500.000
G1 X-14.342 Y3.485 Z-2.277 F2500.000
G1 X-14.075 Y4.445 Z-2.277 F2500.000
G1 X-13.743 Y5.385 Z-2.287 F2500.000
G1 X-13.348 Y6.299 Z-2.433 F2500.000
G1 X-12.893 Y7.186 Z-2.768 F2500.000
G1 X-12.378 Y8.039 Z-2.557 F2500.000
G1 X-11.808 Y8.856 Z-2.331 F2500.000
G1 X-11.184 Y9.632 Z-2.277 F2500.000
G1 X-10.508 Y10.365 Z-2.277 F2500.000
G1 X-9.785 Y11.050 Z-2.277 F2500.000
G1 X-9.017 Y11.685 Z-2.277 F2500.000
G1 X-8.208 Y12.267 Z-2.277 F2500.000
G1 X-7.362 Y12.793 Z-2.277 F2500.000
G1 X-6.482 Y13.260 Z-2.277 F2500.000
G1 X-5.573 Y13.668 Z-2.277 F2500.000
G1 X-4.638 Y14.012 Z-2.277 F2500.000
G1 X-3.682 Y14.293 Z-2.277 F2500.000
G1 X-2.709 Y14.509 Z-2.277 F2500.000
G1 X-1.724 Y14.659 Z-2.337 F2500.000
G1 X-0.732 Y14.742 Z-2.571 F2500.000
G1 X0.265 Y14.758 Z-2.750 F2500.000
G1 X1.260 Y14.706 Z-2.423 F2500.000
G1 X2.249 Y14.588 Z-2.285 F2500.000
G1 X3.228 Y14.403 Z-2.277 F2500.000
G1 X4.192 Y14.152 Z-2.277 F2500.000
G1 X5.138 Y13.837 Z-2.277 F2500.000
G1 X6.059 Y13.459 Z-2.277 F2500.000
G1 X6.954 Y13.020 Z-2.277 F2500.000
G1 X7.816 Y12.521 Z-2.277 F2500.000
G1 X8.643 Y11.965 Z-2.277 F2500.000
G1 X9.431 Y11.355 Z-2.277 F2500.000
G1 X10.175 Y10.693 Z-2.277 F2500.000
G1 X10.873 Y9.982 Z-2.277 F2500.000
G1 X11.522 Y9.225 Z-2.286 F2500.000
G1 X12.118 Y8.427 Z-2.428 F2500.000
G1 X12.659 Y7.590 Z-2.759 F2500.000
G1 X13.142 Y6.719 Z-2.564 F2500.000
G1 X13.566 Y5.817 Z-2.334 F2500.000
G1 X13.927 Y4.889 Z-2.277 F2500.000
G1 X14.225 Y3.938 Z-2.277 F2500.000
G1 X14.458 Y2.969 Z-2.277 F2500.000
G1 X14.626 Y1.987 Z-2.277 F2500.000
G1 X14.727 Y0.996 Z-2.277 F2500.000
G1 X14.760 Y0.000 Z-2.277 F2500.000
G1 X14.760 Y-0.061 Z-2.277 F2500.000
(End of step 7.)
G0 Z3.000
G0 X15.990 Y-0.061
(Begin step 8.)
G0 X15.990 Y-0.061
(part 1)
G1 X15.990 Y-0.061 Z-4.351 F2500.000
G1 X15.955 Y-1.055 Z-4.351 F2500.000
G1 X15.859 Y-2.044 Z-4.351 F2500.000
G1 X15.701 Y-3.025 Z-4.351 F2500.000
G1 X15.483 Y-3.995 Z-4.351 F2500.000
G1 X15.205 Y-4.949 Z-4.351 F2500.000
G1 X14.868 Y-5.885 Z-4.376 F2500.000
G1 X14.474 Y-6.797 Z-4.655 F2500.000
G1 X14.023 Y-7.683 Z-4.995 F2500.000
G1 X13.519 Y-8.540 Z-4.881 F2500.000
G1 X12.962 Y-9.363 Z-4.548 F2500.000
G1 X12.355 Y-10.150 Z-4.353 F2500.000
G1 X11.701 Y-10.898 Z-4.351 F2500.000
G1 X11.001 Y-11.604 Z-4.351 F2500.000
G1 X10.259 Y-12.265 Z-4.351 F2500.000
G1 X9.477 Y-12.879 Z-4.351 F2500.000
G1 X8.659 Y-13.443 Z-4.351 F2500.000
G1 X7.807 Y-13.955 Z-4.351 F2500.000
G1 X6.924 Y-14.413 Z-4.351 F2500.000
G1 X6.016 Y-14.815 Z-4.351 F2500.000
G1 X5.083 Y-15.160 Z-4.351 F2500.000
G1 X4.132 Y-15.447 Z-4.351 F2500.000
G1 X3.164 Y-15.674 Z-4.351 F2500.000
G1 X2.184 Y-15.840 Z-4.399 F2500.000
G1 X1.196 Y-15.945 Z-4.696 F2500.000
G1 X0.203 Y-15.989 Z-5.066 F2500.000
G1 X-0.791 Y-15.970 Z-4.823 F2500.000
G1 X-1.782 Y-15.890 Z-4.495 F2500.000
G1 X-2.766 Y-15.749 Z-4.351 F2500.000
G1 X-3.739 Y-15.547 Z-4.351 F2500.000
G1 X-4.698 Y-15.284 Z-4.351 F2500.000
G1 X-5.638 Y-14.963 Z-4.351 F2500.000
G1 X-6.557 Y-14.584 Z-4.351 F2500.000
G1 X-7.450 Y-14.148 Z-4.351 F2500.000
G1 X-8.315 Y-13.658 Z-4.351 F2500.000
G1 X-9.148 Y-13.115 Z-4.351 F2500.000
G1 X-9.945 Y-12.521 Z-4.351 F2500.000
G1 X-10.704 Y-11.879 Z-4.351 F2500.000
G1 X-11.421 Y-11.191 Z-4.351 F2500.000
G1 X-12.094 Y-10.460 Z-4.351 F2500.000
G1 X-12.721 Y-9.688 Z-4.429 F2500.000
G1 X-13.298 Y-8.879 Z-4.741 F2500.000
G1 X-13.824 Y-8.036 Z-5.142 F2500.000
G1 X-14.297 Y-7.161 Z-4.771 F2500.000
G1 X-14.714 Y-6.259 Z-4.452 F2500.000
G1 X-15.074 Y-5.333 Z-4.351 F2500.000
G1 X-15.377 Y-4.386 Z-4.351 F2500.000
G1 X-15.619 Y-3.422 Z-4.351 F2500.000
G1 X-15.802 Y-2.445 Z-4.351 F2500.000
G1 X-15.923 Y-1.458 Z-4.351 F2500.000
G1 X-15.983 Y-0.466 Z-4.351 F2500.000
G1 X-15.981 Y0.528 Z-4.351 F2500.000
G1 X-15.917 Y1.520 Z-4.351 F2500.000
G1 X-15.792 Y2.506 Z-4.351 F2500.000
G1 X-15.606 Y3.482 Z-4.351 F2500.000
G1 X-15.360 Y4.445 Z-4.351 F2500.000
G1 X-15.054 Y5.391 Z-4.351 F2500.000
G1 X-14.690 Y6.316 Z-4.468 F2500.000
G1 X-14.269 Y7.216 Z-4.791 F2500.000
G1 X-13.793 Y8.089 Z-5.111 F2500.000
G1 X-13.264 Y8.930 Z-4.723 F2500.000
G1 X-12.683 Y9.737 Z-4.417 F2500.000
G1 X-12.054 Y10.506 Z-4.351 F2500.000
G1 X-11.378 Y11.235 Z-4.351 F2500.000
G1 X-10.658 Y11.920 Z-4.351 F2500.000
G1 X-9.897 Y12.559 Z-4.351 F2500.000
G1 X-9.097 Y13.150 Z-4.351 F2500.000
G1 X-8.263 Y13.690 Z-4.351 F2500.000
G1 X-7.396 Y14.177 Z-4.351 F2500.000
G1 X-6.501 Y14.609 Z-4.351 F2500.000
G1 X-5.581 Y14.985 Z-4.351 F2500.000
G1 X-4.639 Y15.302 Z-4.351 F2500.000
G1 X-3.679 Y15.561 Z-4.351 F2500.000
G1 X-2.705 Y15.760 Z-4.351 F2500.000
G1 X-1.721 Y15.897 Z-4.515 F2500.000
G1 X-0.730 Y15.973 Z-4.846 F2500.000
G1 X0.264 Y15.988 Z-5.038 F2500.000
G1 X1.257 Y15.941 Z-4.679 F2500.000
G1 X2.245 Y15.832 Z-4.389 F2500.000
G1 X3.224 Y15.662 Z-4.351 F2500.000
G1 X4.191 Y15.431 Z-4.351 F2500.000
G1 X5.142 Y15.141 Z-4.351 F2500.000
G1 X6.073 Y14.792 Z-4.351 F2500.000
G1 X6.980 Y14.386 Z-4.351 F2500.000
G1 X7.860 Y13.925 Z-4.351 F2500.000
G1 X8.710 Y13.410 Z-4.351 F2500.000
G1 X9.527 Y12.843 Z-4.351 F2500.000
G1 X10.306 Y12.226 Z-4.351 F2500.000
G1 X11.046 Y11.562 Z-4.351 F2500.000
G1 X11.743 Y10.853 Z-4.351 F2500.000
G1 X12.394 Y10.103 Z-4.357 F2500.000
G1 X12.998 Y9.313 Z-4.572 F2500.000
G1 X13.552 Y8.488 Z-4.905 F2500.000
G1 X14.053 Y7.629 Z-4.969 F2500.000
G1 X14.500 Y6.741 Z-4.638 F2500.000
G1 X14.891 Y5.827 Z-4.369 F2500.000
G1 X15.224 Y4.891 Z-4.351 F2500.000
G1 X15.498 Y3.936 Z-4.351 F2500.000
G1 X15.713 Y2.965 Z-4.351 F2500.000
G1 X15.867 Y1.983 Z-4.351 F2500.000
G1 X15.959 Y0.994 Z-4.351 F2500.000
G1 X15.990 Y0.000 Z-4.351 F2500.000
G1 X15.990 Y-0.061 Z-4.351 F2500.000
(End of step 8.)
G0 Z3.000
G0 X17.220 Y-0.061
(Begin step 9.)
G0 X17.220 Y-0.061
(part 1)
G1 X17.220 Y-0.061 Z-6.134 F2500.000
G1 X17.188 Y-1.053 Z-6.134 F2500.000
G1 X17.099 Y-2.041 Z-6.133 F2500.000
G1 X16.953 Y-3.022 Z-6.134 F2500.000
G1 X16.751 Y-3.993 Z-6.134 F2500.000
G1 X16.493 Y-4.951 Z-6.133 F2500.000
G1 X16.181 Y-5.892 Z-6.133 F2500.000
G1 X15.815 Y-6.814 Z-6.147 F2500.000
G1 X15.396 Y-7.713 Z-6.297 F2500.000
G1 X14.926 Y-8.587 Z-6.621 F2500.000
G1 X14.407 Y-9.432 Z-6.310 F2500.000
G1 X13.840 Y-10.246 Z-6.150 F2500.000
G1 X13.227 Y-11.026 Z-6.133 F2500.000
G1 X12.570 Y-11.769 Z-6.133 F2500.000
G1 X11.872 Y-12.474 Z-6.133 F2500.000
G1 X11.134 Y-13.137 Z-6.134 F2500.000
G1 X10.359 Y-13.756 Z-6.133 F2500.000
G1 X9.550 Y-14.329 Z-6.133 F2500.000
G1 X8.709 Y-14.856 Z-6.134 F2500.000
G1 X7.839 Y-15.332 Z-6.133 F2500.000
G1 X6.943 Y-15.758 Z-6.133 F2500.000
G1 X6.024 Y-16.132 Z-6.134 F2500.000
G1 X5.085 Y-16.452 Z-6.134 F2500.000
G1 X4.130 Y-16.717 Z-6.134 F2500.000
G1 X3.160 Y-16.928 Z-6.133 F2500.000
G1 X2.180 Y-17.081 Z-6.138 F2500.000
G1 X1.193 Y-17.179 Z-6.258 F2500.000
G1 X0.202 Y-17.219 Z-6.551 F2500.000
G1 X-0.790 Y-17.202 Z-6.356 F2500.000
G1 X-1.779 Y-17.128 Z-6.166 F2500.000
G1 X-2.762 Y-16.997 Z-6.134 F2500.000
G1 X-3.736 Y-16.810 Z-6.134 F2500.000
G1 X-4.698 Y-16.567 Z-6.133 F2500.000
G1 X-5.644 Y-16.269 Z-6.133 F2500.000
G1 X-6.571 Y-15.917 Z-6.134 F2500.000
G1 X-7.477 Y-15.512 Z-6.133 F2500.000
G1 X-8.358 Y-15.056 Z-6.133 F2500.000
G1 X-9.211 Y-14.549 Z-6.134 F2500.000
G1 X-10.033 Y-13.995 Z-6.134 F2500.000
G1 X-10.822 Y-13.394 Z-6.133 F2500.000
G1 X-11.576 Y-12.749 Z-6.134 F2500.000
G1 X-12.291 Y-12.061 Z-6.134 F2500.000
G1 X-12.965 Y-11.333 Z-6.133 F2500.000
G1 X-13.596 Y-10.568 Z-6.134 F2500.000
G1 X-14.182 Y-9.768 Z-6.224 F2500.000
G1 X-14.720 Y-8.935 Z-6.486 F2500.000
G1 X-15.210 Y-8.072 Z-6.408 F2500.000
G1 X-15.650 Y-7.183 Z-6.188 F2500.000
G1 X-16.038 Y-6.270 Z-6.134 F2500.000
G1 X-16.372 Y-5.336 Z-6.134 F2500.000
G1 X-16.652 Y-4.385 Z-6.134 F2500.000
G1 X-16.877 Y-3.419 Z-6.133 F2500.000
G1 X-17.046 Y-2.441 Z-6.133 F2500.000
G1 X-17.158 Y-1.456 Z-6.134 F2500.000
G1 X-17.214 Y-0.465 Z-6.134 F2500.000
G1 X-17.212 Y0.527 Z-6.133 F2500.000
G1 X-17.153 Y1.517 Z-6.134 F2500.000
G1 X-17.037 Y2.502 Z-6.134 F2500.000
G1 X-16.865 Y3.479 Z-6.133 F2500.000
G1 X-16.636 Y4.444 Z-6.134 F2500.000
G1 X-16.353 Y5.395 Z-6.134 F2500.000
G1 X-16.015 Y6.327 Z-6.133 F2500.000
G1 X-15.624 Y7.239 Z-6.196 F2500.000
G1 X-15.182 Y8.127 Z-6.427 F2500.000
G1 X-14.688 Y8.987 Z-6.465 F2500.000
G1 X-14.147 Y9.818 Z-6.214 F2500.000
G1 X-13.558 Y10.617 Z-6.134 F2500.000
G1 X-12.924 Y11.380 Z-6.133 F2500.000
G1 X-12.247 Y12.105 Z-6.133 F2500.000
G1 X-11.530 Y12.790 Z-6.134 F2500.000
G1 X-10.774 Y13.433 Z-6.134 F2500.000
G1 X-9.983 Y14.031 Z-6.133 F2500.000
G1 X-9.159 Y14.582 Z-6.134 F2500.000
G1 X-8.304 Y15.085 Z-6.134 F2500.000
G1 X-7.422 Y15.539 Z-6.133 F2500.000
G1 X-6.515 Y15.940 Z-6.134 F2500.000
G1 X-5.586 Y16.289 Z-6.134 F2500.000
G1 X-4.639 Y16.583 Z-6.133 F2500.000
G1 X-3.676 Y16.823 Z-6.134 F2500.000
G1 X-2.701 Y17.007 Z-6.134 F2500.000
G1 X-1.718 Y17.134 Z-6.173 F2500.000
G1 X-0.728 Y17.205 Z-6.373 F2500.000
G1 X0.264 Y17.218 Z-6.527 F2500.000
G1 X1.255 Y17.174 Z-6.246 F2500.000
G1 X2.241 Y17.074 Z-6.136 F2500.000
G1 X3.221 Y16.916 Z-6.134 F2500.000
G1 X4.189 Y16.703 Z-6.133 F2500.000
G1 X5.144 Y16.434 Z-6.133 F2500.000
G1 X6.082 Y16.110 Z-6.134 F2500.000
G1 X6.999 Y15.733 Z-6.134 F2500.000
G1 X7.894 Y15.304 Z-6.133 F2500.000
G1 X8.762 Y14.824 Z-6.134 F2500.000
G1 X9.601 Y14.295 Z-6.134 F2500.000
G1 X10.408 Y13.719 Z-6.133 F2500.000
G1 X11.181 Y13.097 Z-6.134 F2500.000
G1 X11.916 Y12.431 Z-6.134 F2500.000
G1 X12.612 Y11.725 Z-6.133 F2500.000
G1 X13.266 Y10.979 Z-6.134 F2500.000
G1 X13.877 Y10.197 Z-6.155 F2500.000
G1 X14.441 Y9.381 Z-6.325 F2500.000
G1 X14.957 Y8.534 Z-6.596 F2500.000
G1 X15.423 Y7.659 Z-6.283 F2500.000
G1 X15.839 Y6.758 Z-6.143 F2500.000
G1 X16.202 Y5.835 Z-6.134 F2500.000
G1 X16.511 Y4.892 Z-6.133 F2500.000
G1 X16.765 Y3.933 Z-6.134 F2500.000
G1 X16.964 Y2.961 Z-6.134 F2500.000
G1 X17.106 Y1.980 Z-6.133 F2500.000
G1 X17.192 Y0.992 Z-6.133 F2500.000
G1 X17.220 Y0.000 Z-6.133 F2500.000
G1 X17.220 Y-0.061 Z-6.134 F2500.000
(End of step 9.)
G0 Z3.000
G0 X18.450 Y-0.061
(Begin step 10.)
G0 X18.450 Y-0.061
(part 1)
G1 X18.450 Y-0.061 Z-7.317 F2500.000
G1 X18.420 Y-1.060 Z-7.317 F2500.000
G1 X18.335 Y-2.055 Z-7.317 F2500.000
G1 X18.197 Y-3.044 Z-7.317 F2500.000
G1 X18.006 Y-4.024 Z-7.317 F2500.000
G1 X17.762 Y-4.993 Z-7.317 F2500.000
G1 X17.466 Y-5.946 Z-7.317 F2500.000
G1 X17.118 Y-6.883 Z-7.317 F2500.000
G1 X16.721 Y-7.799 Z-7.348 F2500.000
G1 X16.274 Y-8.692 Z-7.531 F2500.000
G1 X15.780 Y-9.560 Z-7.594 F2500.000
G1 X15.240 Y-10.400 Z-7.374 F2500.000
G1 X14.655 Y-11.209 Z-7.317 F2500.000
G1 X14.027 Y-11.986 Z-7.317 F2500.000
G1 X13.358 Y-12.727 Z-7.317 F2500.000
G1 X12.649 Y-13.431 Z-7.317 F2500.000
G1 X11.904 Y-14.096 Z-7.317 F2500.000
G1 X11.124 Y-14.720 Z-7.317 F2500.000
G1 X10.311 Y-15.300 Z-7.317 F2500.000
G1 X9.468 Y-15.835 Z-7.317 F2500.000
G1 X8.597 Y-16.325 Z-7.317 F2500.000
G1 X7.701 Y-16.766 Z-7.317 F2500.000
G1 X6.783 Y-17.158 Z-7.317 F2500.000
G1 X5.845 Y-17.500 Z-7.317 F2500.000
G1 X4.889 Y-17.790 Z-7.317 F2500.000
G1 X3.919 Y-18.029 Z-7.317 F2500.000
G1 X2.938 Y-18.215 Z-7.317 F2500.000
G1 X1.948 Y-18.347 Z-7.323 F2500.000
G1 X0.952 Y-18.425 Z-7.449 F2500.000
G1 X-0.046 Y-18.450 Z-7.709 F2500.000
G1 X-1.044 Y-18.420 Z-7.431 F2500.000
G1 X-2.039 Y-18.337 Z-7.320 F2500.000
G1 X-3.029 Y-18.200 Z-7.317 F2500.000
G1 X-4.009 Y-18.009 Z-7.317 F2500.000
G1 X-4.978 Y-17.766 Z-7.317 F2500.000
G1 X-5.932 Y-17.470 Z-7.317 F2500.000
G1 X-6.868 Y-17.124 Z-7.317 F2500.000
G1 X-7.785 Y-16.727 Z-7.317 F2500.000
G1 X-8.678 Y-16.281 Z-7.317 F2500.000
G1 X-9.547 Y-15.788 Z-7.317 F2500.000
G1 X-10.387 Y-15.248 Z-7.317 F2500.000
G1 X-11.197 Y-14.664 Z-7.317 F2500.000
G1 X-11.974 Y-14.036 Z-7.317 F2500.000
G1 X-12.716 Y-13.368 Z-7.317 F2500.000
G1 X-13.421 Y-12.660 Z-7.317 F2500.000
G1 X-14.086 Y-11.916 Z-7.317 F2500.000
G1 X-14.710 Y-11.136 Z-7.317 F2500.000
G1 X-15.291 Y-10.324 Z-7.388 F2500.000
G1 X-15.827 Y-9.481 Z-7.623 F2500.000
G1 X-16.317 Y-8.611 Z-7.507 F2500.000
G1 X-16.759 Y-7.715 Z-7.340 F2500.000
G1 X-17.152 Y-6.797 Z-7.317 F2500.000
G1 X-17.495 Y-5.859 Z-7.317 F2500.000
G1 X-17.786 Y-4.904 Z-7.317 F2500.000
G1 X-18.025 Y-3.934 Z-7.317 F2500.000
G1 X-18.212 Y-2.953 Z-7.317 F2500.000
G1 X-18.345 Y-1.963 Z-7.317 F2500.000
G1 X-18.424 Y-0.968 Z-7.317 F2500.000
G1 X-18.450 Y0.031 Z-7.317 F2500.000
G1 X-18.421 Y1.029 Z-7.317 F2500.000
G1 X-18.338 Y2.024 Z-7.317 F2500.000
G1 X-18.202 Y3.014 Z-7.317 F2500.000
G1 X-18.012 Y3.994 Z-7.317 F2500.000
G1 X-17.770 Y4.963 Z-7.317 F2500.000
G1 X-17.475 Y5.917 Z-7.317 F2500.000
G1 X-17.129 Y6.854 Z-7.317 F2500.000
G1 X-16.733 Y7.771 Z-7.345 F2500.000
G1 X-16.288 Y8.665 Z-7.523 F2500.000
G1 X-15.796 Y9.534 Z-7.604 F2500.000
G1 X-15.257 Y10.375 Z-7.379 F2500.000
G1 X-14.673 Y11.185 Z-7.317 F2500.000
G1 X-14.046 Y11.963 Z-7.317 F2500.000
G1 X-13.378 Y12.705 Z-7.317 F2500.000
G1 X-12.671 Y13.410 Z-7.317 F2500.000
G1 X-11.927 Y14.076 Z-7.317 F2500.000
G1 X-11.148 Y14.701 Z-7.317 F2500.000
G1 X-10.336 Y15.283 Z-7.317 F2500.000
G1 X-9.494 Y15.820 Z-7.317 F2500.000
G1 X-8.624 Y16.310 Z-7.317 F2500.000
G1 X-7.729 Y16.753 Z-7.317 F2500.000
G1 X-6.811 Y17.147 Z-7.317 F2500.000
G1 X-5.873 Y17.490 Z-7.317 F2500.000
G1 X-4.918 Y17.782 Z-7.317 F2500.000
G1 X-3.949 Y18.022 Z-7.317 F2500.000
G1 X-2.968 Y18.210 Z-7.317 F2500.000
G1 X-1.978 Y18.344 Z-7.322 F2500.000
G1 X-0.983 Y18.424 Z-7.443 F2500.000
G1 X0.016 Y18.450 Z-7.721 F2500.000
G1 X1.014 Y18.422 Z-7.437 F2500.000
G1 X2.009 Y18.340 Z-7.321 F2500.000
G1 X2.999 Y18.205 Z-7.318 F2500.000
G1 X3.979 Y18.016 Z-7.317 F2500.000
G1 X4.948 Y17.774 Z-7.317 F2500.000
G1 X5.903 Y17.480 Z-7.317 F2500.000
G1 X6.840 Y17.135 Z-7.317 F2500.000
G1 X7.757 Y16.740 Z-7.317 F2500.000
G1 X8.652 Y16.296 Z-7.317 F2500.000
G1 X9.521 Y15.804 Z-7.317 F2500.000
G1 X10.362 Y15.266 Z-7.317 F2500.000
G1 X11.173 Y14.683 Z-7.317 F2500.000
G1 X11.951 Y14.056 Z-7.317 F2500.000
G1 X12.694 Y13.389 Z-7.317 F2500.000
G1 X13.400 Y12.683 Z-7.317 F2500.000
G1 X14.067 Y11.939 Z-7.317 F2500.000
G1 X14.692 Y11.160 Z-7.317 F2500.000
G1 X15.274 Y10.349 Z-7.383 F2500.000
G1 X15.812 Y9.507 Z-7.613 F2500.000
G1 X16.303 Y8.638 Z-7.515 F2500.000
G1 X16.747 Y7.743 Z-7.342 F2500.000
G1 X17.141 Y6.826 Z-7.317 F2500.000
G1 X17.485 Y5.888 Z-7.317 F2500.000
G1 X17.778 Y4.933 Z-7.317 F2500.000
G1 X18.019 Y3.964 Z-7.317 F2500.000
G1 X18.207 Y2.983 Z-7.317 F2500.000
G1 X18.342 Y1.994 Z-7.317 F2500.000
G1 X18.423 Y0.998 Z-7.317 F2500.000
G1 X18.450 Y0.000 Z-7.317 F2500.000
G1 X18.450 Y-0.061 Z-7.317 F2500.000
(End of step 10.)
(End of layer 0)
G0 Z5.000
(Finish operation: Surface)
(Begin postamble)
M5
G17 G90
M2
