(Exported by FreeCAD)
(Post Processor: grbl_post)
(Output Time:2021-12-22 11:47:45.996789)
(Begin preamble)
G17 G90
G21
(Begin operation: Fixture)
(Path: Fixture)
G54
G0 Z5.000
(Finish operation: Fixture)
(Begin operation: TC: 6.35 Z2 Q6.036)
(Path: TC: 6.35 Z2 Q6.036)
(TC: 6.35 Z2 Q6.036)
(Begin toolchange)
( M6 T7.0 )
M3 S24000.0
(Finish operation: TC: 6.35 Z2 Q6.036)
(Begin operation: Helix009)
(Path: Helix009)
(Helix009)
(helix cut operation)
G0 Z5.000
G0 X1.925 Y0.000
G0 Z3.000
G1 Z0.000 F500.000
G2 X-1.925 Y0.000 Z-2.500 I-1.925 J0.000 F2500.000
G2 X1.925 Y0.000 Z-5.000 I1.925 J0.000 F2500.000
G2 X-1.925 Y0.000 Z-7.500 I-1.925 J0.000 F2500.000
G2 X1.925 Y0.000 Z-10.000 I1.925 J0.000 F2500.000
G2 X-1.925 Y0.000 Z-12.500 I-1.925 J0.000 F2500.000
G2 X1.925 Y0.000 Z-15.000 I1.925 J0.000 F2500.000
G2 X-1.925 Y0.000 Z-15.000 I-1.925 J0.000 F2500.000
G2 X1.925 Y0.000 Z-15.000 I1.925 J0.000 F2500.000
G0 Z3.000
G0 X0.325 Y-30.000
G0 Z3.000
G1 Z0.000 F500.000
G2 X-0.325 Y-30.000 Z-2.500 I-0.325 J0.000 F2500.000
G2 X0.325 Y-30.000 Z-5.000 I0.325 J0.000 F2500.000
G2 X-0.325 Y-30.000 Z-7.500 I-0.325 J0.000 F2500.000
G2 X0.325 Y-30.000 Z-10.000 I0.325 J0.000 F2500.000
G2 X-0.325 Y-30.000 Z-12.500 I-0.325 J0.000 F2500.000
G2 X0.325 Y-30.000 Z-15.000 I0.325 J0.000 F2500.000
G2 X-0.325 Y-30.000 Z-15.000 I-0.325 J0.000 F2500.000
G2 X0.325 Y-30.000 Z-15.000 I0.325 J0.000 F2500.000
G0 Z3.000
G0 X-25.656 Y-15.000
G0 Z3.000
G1 Z0.000 F500.000
G2 X-26.306 Y-15.000 Z-2.500 I-0.325 J0.000 F2500.000
G2 X-25.656 Y-15.000 Z-5.000 I0.325 J0.000 F2500.000
G2 X-26.306 Y-15.000 Z-7.500 I-0.325 J0.000 F2500.000
G2 X-25.656 Y-15.000 Z-10.000 I0.325 J0.000 F2500.000
G2 X-26.306 Y-15.000 Z-12.500 I-0.325 J0.000 F2500.000
G2 X-25.656 Y-15.000 Z-15.000 I0.325 J0.000 F2500.000
G2 X-26.306 Y-15.000 Z-15.000 I-0.325 J0.000 F2500.000
G2 X-25.656 Y-15.000 Z-15.000 I0.325 J0.000 F2500.000
G0 Z3.000
G0 X-25.656 Y15.000
G0 Z3.000
G1 Z0.000 F500.000
G2 X-26.306 Y15.000 Z-2.500 I-0.325 J0.000 F2500.000
G2 X-25.656 Y15.000 Z-5.000 I0.325 J0.000 F2500.000
G2 X-26.306 Y15.000 Z-7.500 I-0.325 J0.000 F2500.000
G2 X-25.656 Y15.000 Z-10.000 I0.325 J0.000 F2500.000
G2 X-26.306 Y15.000 Z-12.500 I-0.325 J0.000 F2500.000
G2 X-25.656 Y15.000 Z-15.000 I0.325 J0.000 F2500.000
G2 X-26.306 Y15.000 Z-15.000 I-0.325 J0.000 F2500.000
G2 X-25.656 Y15.000 Z-15.000 I0.325 J0.000 F2500.000
G0 Z3.000
G0 X0.325 Y30.000
G0 Z3.000
G1 Z0.000 F500.000
G2 X-0.325 Y30.000 Z-2.500 I-0.325 J0.000 F2500.000
G2 X0.325 Y30.000 Z-5.000 I0.325 J0.000 F2500.000
G2 X-0.325 Y30.000 Z-7.500 I-0.325 J0.000 F2500.000
G2 X0.325 Y30.000 Z-10.000 I0.325 J0.000 F2500.000
G2 X-0.325 Y30.000 Z-12.500 I-0.325 J0.000 F2500.000
G2 X0.325 Y30.000 Z-15.000 I0.325 J0.000 F2500.000
G2 X-0.325 Y30.000 Z-15.000 I-0.325 J0.000 F2500.000
G2 X0.325 Y30.000 Z-15.000 I0.325 J0.000 F2500.000
G0 Z3.000
G0 X26.306 Y15.000
G0 Z3.000
G1 Z0.000 F500.000
G2 X25.656 Y15.000 Z-2.500 I-0.325 J0.000 F2500.000
G2 X26.306 Y15.000 Z-5.000 I0.325 J0.000 F2500.000
G2 X25.656 Y15.000 Z-7.500 I-0.325 J0.000 F2500.000
G2 X26.306 Y15.000 Z-10.000 I0.325 J0.000 F2500.000
G2 X25.656 Y15.000 Z-12.500 I-0.325 J0.000 F2500.000
G2 X26.306 Y15.000 Z-15.000 I0.325 J0.000 F2500.000
G2 X25.656 Y15.000 Z-15.000 I-0.325 J0.000 F2500.000
G2 X26.306 Y15.000 Z-15.000 I0.325 J0.000 F2500.000
G0 Z3.000
G0 X26.306 Y-15.000
G0 Z3.000
G1 Z0.000 F500.000
G2 X25.656 Y-15.000 Z-2.500 I-0.325 J0.000 F2500.000
G2 X26.306 Y-15.000 Z-5.000 I0.325 J0.000 F2500.000
G2 X25.656 Y-15.000 Z-7.500 I-0.325 J0.000 F2500.000
G2 X26.306 Y-15.000 Z-10.000 I0.325 J0.000 F2500.000
G2 X25.656 Y-15.000 Z-12.500 I-0.325 J0.000 F2500.000
G2 X26.306 Y-15.000 Z-15.000 I0.325 J0.000 F2500.000
G2 X25.656 Y-15.000 Z-15.000 I-0.325 J0.000 F2500.000
G2 X26.306 Y-15.000 Z-15.000 I0.325 J0.000 F2500.000
G0 Z3.000
G0 Z5.000
(Finish operation: Helix009)
(Begin postamble)
M5
G17 G90
M2
