(Exported by FreeCAD)
(Post Processor: grbl_post)
(Output Time:2022-05-24 00:50:54.768005)
(Begin preamble)
G17 G90
G21
(Begin operation: 3.175 Z1 UP Helicoidale002)
(Path: 3.175 Z1 UP Helicoidale002)
(3.175 Z1 UP Helicoidale002)
(Begin toolchange)
( M6 T3.0 )
M3 S10000.0
(Finish operation: 3.175 Z1 UP Helicoidale002)
(Begin operation: Fixture)
(Path: Fixture)
G54
G0 Z20.000
(Finish operation: Fixture)
(Begin operation: Pocket_Shape001)
(Path: Pocket_Shape001)
(Pocket_Shape001)
G0 Z20.000
G0 X50.889 Y59.191
G0 Z18.000
G1 X50.889 Y59.191 Z14.472 F500.000
G1 X51.791 Y60.093 Z14.472 F200.000
G1 X51.850 Y60.195 Z14.472 F200.000
G1 X51.564 Y60.360 Z14.472 F200.000
G1 X50.889 Y59.191 Z14.472 F200.000
G1 X47.827 Y53.887 Z14.472 F200.000
G1 X48.729 Y54.789 Z14.472 F200.000
G1 X45.667 Y49.486 Z14.472 F200.000
G1 X44.765 Y48.584 Z14.472 F200.000
G1 X43.811 Y46.932 Z14.472 F200.000
G2 X42.605 Y46.156 Z14.472 I-1.347 J0.769 K0.000 F200.000
G2 X43.869 Y45.446 Z14.472 I-2.587 J-6.087 K0.000 F200.000
G1 X43.955 Y45.533 Z14.472 F200.000
G3 X44.028 Y45.334 Z14.472 I0.485 J0.065 K0.000 F200.000
G3 X43.869 Y45.446 Z14.472 I-1.167 J-1.492 K0.000 F200.000
G0 Z20.000
G0 X47.589 Y40.200 Z20.000
G0 X47.589 Y40.200 Z18.000
G1 X47.589 Y40.200 Z14.472 F500.000
G2 X46.628 Y40.830 Z14.472 I0.288 J1.487 K0.000 F200.000
G2 X46.639 Y39.250 Z14.472 I-6.079 J-0.831 K0.000 F200.000
G1 X47.589 Y40.200 Z14.472 F200.000
G1 X47.908 Y40.165 Z14.472 F200.000
G1 X49.795 Y40.165 Z14.472 F200.000
G1 X49.465 Y39.835 Z14.472 F200.000
G1 X51.707 Y39.835 Z14.472 F200.000
G1 X52.037 Y40.165 Z14.472 F200.000
G1 X54.278 Y40.165 Z14.472 F200.000
G1 X53.948 Y39.835 Z14.472 F200.000
G1 X56.190 Y39.835 Z14.472 F200.000
G1 X56.520 Y40.165 Z14.472 F200.000
G1 X58.761 Y40.165 Z14.472 F200.000
G1 X58.431 Y39.835 Z14.472 F200.000
G1 X60.673 Y39.835 Z14.472 F200.000
G1 X61.003 Y40.165 Z14.472 F200.000
G1 X63.244 Y40.165 Z14.472 F200.000
G1 X62.914 Y39.835 Z14.472 F200.000
G1 X63.415 Y39.835 Z14.472 F200.000
G1 X63.415 Y40.165 Z14.472 F200.000
G1 X63.244 Y40.165 Z14.472 F200.000
G0 Z20.000
G0 X43.255 Y33.625 Z20.000
G0 X43.255 Y33.625 Z18.000
G1 X43.255 Y33.625 Z14.472 F500.000
G1 X43.909 Y34.279 Z14.472 F200.000
G2 X44.028 Y34.666 Z14.472 I0.932 J-0.075 K0.000 F200.000
G2 X42.605 Y33.844 Z14.472 I-3.997 J5.278 K0.000 F200.000
G2 X43.255 Y33.625 Z14.472 I-0.070 J-1.283 K0.000 F200.000
G2 X43.607 Y33.347 Z14.472 I-0.451 J-0.932 K0.000 F200.000
G2 X44.224 Y32.352 Z14.472 I-4.229 J-3.315 K0.000 F200.000
G1 X44.466 Y32.594 Z14.472 F200.000
G1 X45.286 Y31.173 Z14.472 F200.000
G1 X45.045 Y30.931 Z14.472 F200.000
G1 X45.865 Y29.510 Z14.472 F200.000
G1 X46.107 Y29.752 Z14.472 F200.000
G1 X46.927 Y28.331 Z14.472 F200.000
G1 X46.686 Y28.089 Z14.472 F200.000
G1 X47.506 Y26.668 Z14.472 F200.000
G1 X47.748 Y26.910 Z14.472 F200.000
G1 X48.568 Y25.489 Z14.472 F200.000
G1 X48.327 Y25.247 Z14.472 F200.000
G1 X49.147 Y23.826 Z14.472 F200.000
G1 X49.389 Y24.068 Z14.472 F200.000
G1 X50.209 Y22.647 Z14.472 F200.000
G1 X49.968 Y22.405 Z14.472 F200.000
G1 X50.788 Y20.984 Z14.472 F200.000
G1 X51.030 Y21.225 Z14.472 F200.000
G1 X51.850 Y19.804 Z14.472 F200.000
G0 Z20.000
G0 X36.961 Y34.055 Z20.000
G0 X36.961 Y34.055 Z18.000
G1 X36.961 Y34.055 Z14.472 F500.000
G2 X35.971 Y34.666 Z14.472 I2.328 J4.880 K0.000 F200.000
G2 X36.041 Y33.549 Z14.472 I-1.365 J-0.647 K0.000 F200.000
G2 X35.579 Y32.673 Z14.472 I-4.229 J1.672 K0.000 F200.000
G1 X36.961 Y34.055 Z14.472 F200.000
G3 X37.395 Y33.844 Z14.472 I2.092 J3.747 K0.000 F200.000
G3 X36.188 Y33.068 Z14.472 I0.126 J-1.522 K0.000 F200.000
G1 X33.419 Y28.271 Z14.472 F200.000
G1 X32.517 Y27.370 Z14.472 F200.000
G1 X29.455 Y22.066 Z14.472 F200.000
G1 X30.357 Y22.968 Z14.472 F200.000
G1 X28.435 Y19.639 Z14.472 F200.000
G1 X28.149 Y19.804 Z14.472 F200.000
G1 X29.455 Y22.066 Z14.472 F200.000
G0 Z20.000
G0 X33.256 Y39.316 Z20.000
G0 X33.256 Y39.316 Z18.000
G1 X33.256 Y39.316 Z14.472 F500.000
G2 X33.366 Y39.178 Z14.472 I-0.257 J-0.318 K0.000 F200.000
G2 X33.347 Y39.407 Z14.472 I2.144 J0.296 K0.000 F200.000
G1 X33.256 Y39.316 Z14.472 F200.000
G3 X32.091 Y39.835 Z14.472 I-1.157 J-1.030 K0.000 F200.000
G1 X31.533 Y39.835 Z14.472 F200.000
G1 X31.863 Y40.165 Z14.472 F200.000
G1 X29.621 Y40.165 Z14.472 F200.000
G1 X29.291 Y39.835 Z14.472 F200.000
G1 X27.050 Y39.835 Z14.472 F200.000
G1 X27.380 Y40.165 Z14.472 F200.000
G1 X25.138 Y40.165 Z14.472 F200.000
G1 X24.808 Y39.835 Z14.472 F200.000
G1 X22.567 Y39.835 Z14.472 F200.000
G1 X22.897 Y40.165 Z14.472 F200.000
G1 X20.655 Y40.165 Z14.472 F200.000
G1 X20.325 Y39.835 Z14.472 F200.000
G1 X18.084 Y39.835 Z14.472 F200.000
G1 X16.585 Y39.835 Z14.472 F200.000
G1 X16.585 Y40.165 Z14.472 F200.000
G1 X18.414 Y40.165 Z14.472 F200.000
G1 X18.084 Y39.835 Z14.472 F200.000
G0 Z20.000
G0 X36.000 Y46.544 Z20.000
G0 X36.000 Y46.544 Z18.000
G1 X36.000 Y46.544 Z14.472 F500.000
G2 X35.971 Y45.334 Z14.472 I-1.365 J-0.572 K0.000 F200.000
G2 X37.394 Y46.156 Z14.472 I3.997 J-5.278 K0.000 F200.000
G2 X36.273 Y46.816 Z14.472 I0.120 J1.486 K0.000 F200.000
G1 X36.000 Y46.544 Z14.472 F200.000
G1 X35.902 Y46.767 Z14.472 F200.000
G1 X35.199 Y47.984 Z14.472 F200.000
G1 X35.441 Y48.226 Z14.472 F200.000
G1 X34.620 Y49.647 Z14.472 F200.000
G1 X34.379 Y49.405 Z14.472 F200.000
G1 X33.558 Y50.826 Z14.472 F200.000
G1 X33.800 Y51.068 Z14.472 F200.000
G1 X32.980 Y52.489 Z14.472 F200.000
G1 X32.738 Y52.248 Z14.472 F200.000
G1 X31.917 Y53.669 Z14.472 F200.000
G1 X32.159 Y53.910 Z14.472 F200.000
G1 X31.339 Y55.331 Z14.472 F200.000
G1 X31.097 Y55.090 Z14.472 F200.000
G1 X30.277 Y56.511 Z14.472 F200.000
G1 X30.518 Y56.752 Z14.472 F200.000
G1 X29.698 Y58.173 Z14.472 F200.000
G1 X29.456 Y57.932 Z14.472 F200.000
G1 X28.636 Y59.353 Z14.472 F200.000
G1 X28.149 Y60.195 Z14.472 F200.000
G1 X28.435 Y60.360 Z14.472 F200.000
G1 X28.877 Y59.594 Z14.472 F200.000
G1 X28.636 Y59.353 Z14.472 F200.000
G1 X28.636 Y59.353 Z13.943 F500.000
G1 X28.877 Y59.594 Z13.943 F200.000
G1 X28.435 Y60.360 Z13.943 F200.000
G1 X28.149 Y60.195 Z13.943 F200.000
G1 X28.636 Y59.353 Z13.943 F200.000
G1 X29.456 Y57.932 Z13.943 F200.000
G1 X29.698 Y58.173 Z13.943 F200.000
G1 X30.518 Y56.752 Z13.943 F200.000
G1 X30.277 Y56.511 Z13.943 F200.000
G1 X31.097 Y55.090 Z13.943 F200.000
G1 X31.339 Y55.331 Z13.943 F200.000
G1 X32.159 Y53.910 Z13.943 F200.000
G1 X31.917 Y53.669 Z13.943 F200.000
G1 X32.738 Y52.248 Z13.943 F200.000
G1 X32.980 Y52.489 Z13.943 F200.000
G1 X33.800 Y51.068 Z13.943 F200.000
G1 X33.558 Y50.826 Z13.943 F200.000
G1 X34.379 Y49.405 Z13.943 F200.000
G1 X34.620 Y49.647 Z13.943 F200.000
G1 X35.441 Y48.226 Z13.943 F200.000
G1 X35.199 Y47.984 Z13.943 F200.000
G1 X35.902 Y46.767 Z13.943 F200.000
G1 X36.000 Y46.544 Z13.943 F200.000
G1 X36.273 Y46.816 Z13.943 F200.000
G3 X37.394 Y46.156 Z13.943 I1.241 J0.825 K0.000 F200.000
G3 X35.971 Y45.334 Z13.943 I2.573 J-6.100 K0.000 F200.000
G3 X36.000 Y46.544 Z13.943 I-1.335 J0.638 K0.000 F200.000
G0 Z20.000
G0 X33.256 Y39.316 Z20.000
G0 X33.256 Y39.316 Z18.000
G1 X33.256 Y39.316 Z13.943 F500.000
G2 X33.366 Y39.178 Z13.943 I-0.257 J-0.318 K0.000 F200.000
G2 X33.347 Y39.407 Z13.943 I2.144 J0.296 K0.000 F200.000
G1 X33.256 Y39.316 Z13.943 F200.000
G3 X32.091 Y39.835 Z13.943 I-1.157 J-1.030 K0.000 F200.000
G1 X31.533 Y39.835 Z13.943 F200.000
G1 X31.863 Y40.165 Z13.943 F200.000
G1 X29.621 Y40.165 Z13.943 F200.000
G1 X29.291 Y39.835 Z13.943 F200.000
G1 X27.050 Y39.835 Z13.943 F200.000
G1 X27.380 Y40.165 Z13.943 F200.000
G1 X25.138 Y40.165 Z13.943 F200.000
G1 X24.808 Y39.835 Z13.943 F200.000
G1 X22.567 Y39.835 Z13.943 F200.000
G1 X22.897 Y40.165 Z13.943 F200.000
G1 X20.655 Y40.165 Z13.943 F200.000
G1 X20.325 Y39.835 Z13.943 F200.000
G1 X18.084 Y39.835 Z13.943 F200.000
G1 X16.585 Y39.835 Z13.943 F200.000
G1 X16.585 Y40.165 Z13.943 F200.000
G1 X18.414 Y40.165 Z13.943 F200.000
G1 X18.084 Y39.835 Z13.943 F200.000
G0 Z20.000
G0 X36.961 Y34.055 Z20.000
G0 X36.961 Y34.055 Z18.000
G1 X36.961 Y34.055 Z13.943 F500.000
G2 X35.971 Y34.666 Z13.943 I2.328 J4.880 K0.000 F200.000
G2 X36.041 Y33.549 Z13.943 I-1.365 J-0.647 K0.000 F200.000
G2 X35.579 Y32.673 Z13.943 I-4.229 J1.672 K0.000 F200.000
G1 X36.961 Y34.055 Z13.943 F200.000
G3 X37.395 Y33.844 Z13.943 I2.092 J3.747 K0.000 F200.000
G3 X36.188 Y33.068 Z13.943 I0.126 J-1.522 K0.000 F200.000
G1 X33.419 Y28.271 Z13.943 F200.000
G1 X32.517 Y27.370 Z13.943 F200.000
G1 X29.455 Y22.066 Z13.943 F200.000
G1 X30.357 Y22.968 Z13.943 F200.000
G1 X28.435 Y19.639 Z13.943 F200.000
G1 X28.149 Y19.804 Z13.943 F200.000
G1 X29.455 Y22.066 Z13.943 F200.000
G0 Z20.000
G0 X43.255 Y33.625 Z20.000
G0 X43.255 Y33.625 Z18.000
G1 X43.255 Y33.625 Z13.943 F500.000
G1 X43.909 Y34.279 Z13.943 F200.000
G2 X44.028 Y34.666 Z13.943 I0.932 J-0.075 K0.000 F200.000
G2 X42.605 Y33.844 Z13.943 I-3.997 J5.278 K0.000 F200.000
G2 X43.255 Y33.625 Z13.943 I-0.070 J-1.283 K0.000 F200.000
G2 X43.607 Y33.347 Z13.943 I-0.451 J-0.932 K0.000 F200.000
G2 X44.224 Y32.352 Z13.943 I-4.229 J-3.315 K0.000 F200.000
G1 X44.466 Y32.594 Z13.943 F200.000
G1 X45.286 Y31.173 Z13.943 F200.000
G1 X45.045 Y30.931 Z13.943 F200.000
G1 X45.865 Y29.510 Z13.943 F200.000
G1 X46.107 Y29.752 Z13.943 F200.000
G1 X46.927 Y28.331 Z13.943 F200.000
G1 X46.686 Y28.089 Z13.943 F200.000
G1 X47.506 Y26.668 Z13.943 F200.000
G1 X47.748 Y26.910 Z13.943 F200.000
G1 X48.568 Y25.489 Z13.943 F200.000
G1 X48.327 Y25.247 Z13.943 F200.000
G1 X49.147 Y23.826 Z13.943 F200.000
G1 X49.389 Y24.068 Z13.943 F200.000
G1 X50.209 Y22.647 Z13.943 F200.000
G1 X49.968 Y22.405 Z13.943 F200.000
G1 X50.788 Y20.984 Z13.943 F200.000
G1 X51.030 Y21.225 Z13.943 F200.000
G1 X51.850 Y19.804 Z13.943 F200.000
G0 Z20.000
G0 X47.589 Y40.200 Z20.000
G0 X47.589 Y40.200 Z18.000
G1 X47.589 Y40.200 Z13.943 F500.000
G2 X46.628 Y40.830 Z13.943 I0.288 J1.487 K0.000 F200.000
G2 X46.639 Y39.250 Z13.943 I-6.079 J-0.831 K0.000 F200.000
G1 X47.589 Y40.200 Z13.943 F200.000
G1 X47.908 Y40.165 Z13.943 F200.000
G1 X49.795 Y40.165 Z13.943 F200.000
G1 X49.465 Y39.835 Z13.943 F200.000
G1 X51.707 Y39.835 Z13.943 F200.000
G1 X52.037 Y40.165 Z13.943 F200.000
G1 X54.278 Y40.165 Z13.943 F200.000
G1 X53.948 Y39.835 Z13.943 F200.000
G1 X56.190 Y39.835 Z13.943 F200.000
G1 X56.520 Y40.165 Z13.943 F200.000
G1 X58.761 Y40.165 Z13.943 F200.000
G1 X58.431 Y39.835 Z13.943 F200.000
G1 X60.673 Y39.835 Z13.943 F200.000
G1 X61.003 Y40.165 Z13.943 F200.000
G1 X63.244 Y40.165 Z13.943 F200.000
G1 X62.914 Y39.835 Z13.943 F200.000
G1 X63.415 Y39.835 Z13.943 F200.000
G1 X63.415 Y40.165 Z13.943 F200.000
G1 X63.244 Y40.165 Z13.943 F200.000
G0 Z20.000
G0 X43.869 Y45.446 Z20.000
G0 X43.869 Y45.446 Z18.000
G1 X43.869 Y45.446 Z13.943 F500.000
G2 X44.028 Y45.334 Z13.943 I-1.007 J-1.604 K0.000 F200.000
G2 X43.955 Y45.533 Z13.943 I0.412 J0.264 K0.000 F200.000
G1 X43.869 Y45.446 Z13.943 F200.000
G3 X42.605 Y46.156 Z13.943 I-3.851 J-5.377 K0.000 F200.000
G3 X43.811 Y46.932 Z13.943 I-0.141 J1.545 K0.000 F200.000
G1 X44.765 Y48.584 Z13.943 F200.000
G1 X45.667 Y49.486 Z13.943 F200.000
G1 X48.729 Y54.789 Z13.943 F200.000
G1 X47.827 Y53.887 Z13.943 F200.000
G1 X50.889 Y59.191 Z13.943 F200.000
G1 X51.564 Y60.360 Z13.943 F200.000
G1 X51.850 Y60.195 Z13.943 F200.000
G1 X51.791 Y60.093 Z13.943 F200.000
G1 X50.889 Y59.191 Z13.943 F200.000
G1 X50.889 Y59.191 Z13.415 F500.000
G1 X51.791 Y60.093 Z13.415 F200.000
G1 X51.850 Y60.195 Z13.415 F200.000
G1 X51.564 Y60.360 Z13.415 F200.000
G1 X50.889 Y59.191 Z13.415 F200.000
G1 X47.827 Y53.887 Z13.415 F200.000
G1 X48.729 Y54.789 Z13.415 F200.000
G1 X45.667 Y49.486 Z13.415 F200.000
G1 X44.765 Y48.584 Z13.415 F200.000
G1 X43.811 Y46.932 Z13.415 F200.000
G2 X42.605 Y46.156 Z13.415 I-1.347 J0.769 K0.000 F200.000
G2 X43.869 Y45.446 Z13.415 I-2.587 J-6.087 K0.000 F200.000
G1 X43.955 Y45.533 Z13.415 F200.000
G3 X44.028 Y45.334 Z13.415 I0.485 J0.065 K0.000 F200.000
G3 X43.869 Y45.446 Z13.415 I-1.167 J-1.492 K0.000 F200.000
G0 Z20.000
G0 X47.589 Y40.200 Z20.000
G0 X47.589 Y40.200 Z18.000
G1 X47.589 Y40.200 Z13.415 F500.000
G2 X46.628 Y40.830 Z13.415 I0.288 J1.487 K0.000 F200.000
G2 X46.639 Y39.250 Z13.415 I-6.079 J-0.831 K0.000 F200.000
G1 X47.589 Y40.200 Z13.415 F200.000
G1 X47.908 Y40.165 Z13.415 F200.000
G1 X49.795 Y40.165 Z13.415 F200.000
G1 X49.465 Y39.835 Z13.415 F200.000
G1 X51.707 Y39.835 Z13.415 F200.000
G1 X52.037 Y40.165 Z13.415 F200.000
G1 X54.278 Y40.165 Z13.415 F200.000
G1 X53.948 Y39.835 Z13.415 F200.000
G1 X56.190 Y39.835 Z13.415 F200.000
G1 X56.520 Y40.165 Z13.415 F200.000
G1 X58.761 Y40.165 Z13.415 F200.000
G1 X58.431 Y39.835 Z13.415 F200.000
G1 X60.673 Y39.835 Z13.415 F200.000
G1 X61.003 Y40.165 Z13.415 F200.000
G1 X63.244 Y40.165 Z13.415 F200.000
G1 X62.914 Y39.835 Z13.415 F200.000
G1 X63.415 Y39.835 Z13.415 F200.000
G1 X63.415 Y40.165 Z13.415 F200.000
G1 X63.244 Y40.165 Z13.415 F200.000
G0 Z20.000
G0 X43.255 Y33.625 Z20.000
G0 X43.255 Y33.625 Z18.000
G1 X43.255 Y33.625 Z13.415 F500.000
G1 X43.909 Y34.279 Z13.415 F200.000
G2 X44.028 Y34.666 Z13.415 I0.932 J-0.075 K0.000 F200.000
G2 X42.605 Y33.844 Z13.415 I-3.997 J5.278 K0.000 F200.000
G2 X43.255 Y33.625 Z13.415 I-0.070 J-1.283 K0.000 F200.000
G2 X43.607 Y33.347 Z13.415 I-0.451 J-0.932 K0.000 F200.000
G2 X44.224 Y32.352 Z13.415 I-4.229 J-3.315 K0.000 F200.000
G1 X44.466 Y32.594 Z13.415 F200.000
G1 X45.286 Y31.173 Z13.415 F200.000
G1 X45.045 Y30.931 Z13.415 F200.000
G1 X45.865 Y29.510 Z13.415 F200.000
G1 X46.107 Y29.752 Z13.415 F200.000
G1 X46.927 Y28.331 Z13.415 F200.000
G1 X46.686 Y28.089 Z13.415 F200.000
G1 X47.506 Y26.668 Z13.415 F200.000
G1 X47.748 Y26.910 Z13.415 F200.000
G1 X48.568 Y25.489 Z13.415 F200.000
G1 X48.327 Y25.247 Z13.415 F200.000
G1 X49.147 Y23.826 Z13.415 F200.000
G1 X49.389 Y24.068 Z13.415 F200.000
G1 X50.209 Y22.647 Z13.415 F200.000
G1 X49.968 Y22.405 Z13.415 F200.000
G1 X50.788 Y20.984 Z13.415 F200.000
G1 X51.030 Y21.225 Z13.415 F200.000
G1 X51.850 Y19.804 Z13.415 F200.000
G0 Z20.000
G0 X36.961 Y34.055 Z20.000
G0 X36.961 Y34.055 Z18.000
G1 X36.961 Y34.055 Z13.415 F500.000
G2 X35.971 Y34.666 Z13.415 I2.328 J4.880 K0.000 F200.000
G2 X36.041 Y33.549 Z13.415 I-1.365 J-0.647 K0.000 F200.000
G2 X35.579 Y32.673 Z13.415 I-4.229 J1.672 K0.000 F200.000
G1 X36.961 Y34.055 Z13.415 F200.000
G3 X37.395 Y33.844 Z13.415 I2.092 J3.747 K0.000 F200.000
G3 X36.188 Y33.068 Z13.415 I0.126 J-1.522 K0.000 F200.000
G1 X33.419 Y28.271 Z13.415 F200.000
G1 X32.517 Y27.370 Z13.415 F200.000
G1 X29.455 Y22.066 Z13.415 F200.000
G1 X30.357 Y22.968 Z13.415 F200.000
G1 X28.435 Y19.639 Z13.415 F200.000
G1 X28.149 Y19.804 Z13.415 F200.000
G1 X29.455 Y22.066 Z13.415 F200.000
G0 Z20.000
G0 X33.256 Y39.316 Z20.000
G0 X33.256 Y39.316 Z18.000
G1 X33.256 Y39.316 Z13.415 F500.000
G2 X33.366 Y39.178 Z13.415 I-0.257 J-0.318 K0.000 F200.000
G2 X33.347 Y39.407 Z13.415 I2.144 J0.296 K0.000 F200.000
G1 X33.256 Y39.316 Z13.415 F200.000
G3 X32.091 Y39.835 Z13.415 I-1.157 J-1.030 K0.000 F200.000
G1 X31.533 Y39.835 Z13.415 F200.000
G1 X31.863 Y40.165 Z13.415 F200.000
G1 X29.621 Y40.165 Z13.415 F200.000
G1 X29.291 Y39.835 Z13.415 F200.000
G1 X27.050 Y39.835 Z13.415 F200.000
G1 X27.380 Y40.165 Z13.415 F200.000
G1 X25.138 Y40.165 Z13.415 F200.000
G1 X24.808 Y39.835 Z13.415 F200.000
G1 X22.567 Y39.835 Z13.415 F200.000
G1 X22.897 Y40.165 Z13.415 F200.000
G1 X20.655 Y40.165 Z13.415 F200.000
G1 X20.325 Y39.835 Z13.415 F200.000
G1 X18.084 Y39.835 Z13.415 F200.000
G1 X16.585 Y39.835 Z13.415 F200.000
G1 X16.585 Y40.165 Z13.415 F200.000
G1 X18.414 Y40.165 Z13.415 F200.000
G1 X18.084 Y39.835 Z13.415 F200.000
G0 Z20.000
G0 X36.000 Y46.544 Z20.000
G0 X36.000 Y46.544 Z18.000
G1 X36.000 Y46.544 Z13.415 F500.000
G2 X35.971 Y45.334 Z13.415 I-1.365 J-0.572 K0.000 F200.000
G2 X37.394 Y46.156 Z13.415 I3.997 J-5.278 K0.000 F200.000
G2 X36.273 Y46.816 Z13.415 I0.120 J1.486 K0.000 F200.000
G1 X36.000 Y46.544 Z13.415 F200.000
G1 X35.902 Y46.767 Z13.415 F200.000
G1 X35.199 Y47.984 Z13.415 F200.000
G1 X35.441 Y48.226 Z13.415 F200.000
G1 X34.620 Y49.647 Z13.415 F200.000
G1 X34.379 Y49.405 Z13.415 F200.000
G1 X33.558 Y50.826 Z13.415 F200.000
G1 X33.800 Y51.068 Z13.415 F200.000
G1 X32.980 Y52.489 Z13.415 F200.000
G1 X32.738 Y52.248 Z13.415 F200.000
G1 X31.917 Y53.669 Z13.415 F200.000
G1 X32.159 Y53.910 Z13.415 F200.000
G1 X31.339 Y55.331 Z13.415 F200.000
G1 X31.097 Y55.090 Z13.415 F200.000
G1 X30.277 Y56.511 Z13.415 F200.000
G1 X30.518 Y56.752 Z13.415 F200.000
G1 X29.698 Y58.173 Z13.415 F200.000
G1 X29.456 Y57.932 Z13.415 F200.000
G1 X28.636 Y59.353 Z13.415 F200.000
G1 X28.149 Y60.195 Z13.415 F200.000
G1 X28.435 Y60.360 Z13.415 F200.000
G1 X28.877 Y59.594 Z13.415 F200.000
G1 X28.636 Y59.353 Z13.415 F200.000
G1 X28.636 Y59.353 Z12.887 F500.000
G1 X28.877 Y59.594 Z12.887 F200.000
G1 X28.435 Y60.360 Z12.887 F200.000
G1 X28.149 Y60.195 Z12.887 F200.000
G1 X28.636 Y59.353 Z12.887 F200.000
G1 X29.456 Y57.932 Z12.887 F200.000
G1 X29.698 Y58.173 Z12.887 F200.000
G1 X30.518 Y56.752 Z12.887 F200.000
G1 X30.277 Y56.511 Z12.887 F200.000
G1 X31.097 Y55.090 Z12.887 F200.000
G1 X31.339 Y55.331 Z12.887 F200.000
G1 X32.159 Y53.910 Z12.887 F200.000
G1 X31.917 Y53.669 Z12.887 F200.000
G1 X32.738 Y52.248 Z12.887 F200.000
G1 X32.980 Y52.489 Z12.887 F200.000
G1 X33.800 Y51.068 Z12.887 F200.000
G1 X33.558 Y50.826 Z12.887 F200.000
G1 X34.379 Y49.405 Z12.887 F200.000
G1 X34.620 Y49.647 Z12.887 F200.000
G1 X35.441 Y48.226 Z12.887 F200.000
G1 X35.199 Y47.984 Z12.887 F200.000
G1 X35.902 Y46.767 Z12.887 F200.000
G1 X36.000 Y46.544 Z12.887 F200.000
G1 X36.273 Y46.816 Z12.887 F200.000
G3 X37.394 Y46.156 Z12.887 I1.241 J0.825 K0.000 F200.000
G3 X35.971 Y45.334 Z12.887 I2.573 J-6.100 K0.000 F200.000
G3 X36.000 Y46.544 Z12.887 I-1.335 J0.638 K0.000 F200.000
G0 Z20.000
G0 X33.256 Y39.316 Z20.000
G0 X33.256 Y39.316 Z18.000
G1 X33.256 Y39.316 Z12.887 F500.000
G2 X33.366 Y39.178 Z12.887 I-0.257 J-0.318 K0.000 F200.000
G2 X33.347 Y39.407 Z12.887 I2.144 J0.296 K0.000 F200.000
G1 X33.256 Y39.316 Z12.887 F200.000
G3 X32.091 Y39.835 Z12.887 I-1.157 J-1.030 K0.000 F200.000
G1 X31.533 Y39.835 Z12.887 F200.000
G1 X31.863 Y40.165 Z12.887 F200.000
G1 X29.621 Y40.165 Z12.887 F200.000
G1 X29.291 Y39.835 Z12.887 F200.000
G1 X27.050 Y39.835 Z12.887 F200.000
G1 X27.380 Y40.165 Z12.887 F200.000
G1 X25.138 Y40.165 Z12.887 F200.000
G1 X24.808 Y39.835 Z12.887 F200.000
G1 X22.567 Y39.835 Z12.887 F200.000
G1 X22.897 Y40.165 Z12.887 F200.000
G1 X20.655 Y40.165 Z12.887 F200.000
G1 X20.325 Y39.835 Z12.887 F200.000
G1 X18.084 Y39.835 Z12.887 F200.000
G1 X16.585 Y39.835 Z12.887 F200.000
G1 X16.585 Y40.165 Z12.887 F200.000
G1 X18.414 Y40.165 Z12.887 F200.000
G1 X18.084 Y39.835 Z12.887 F200.000
G0 Z20.000
G0 X36.961 Y34.055 Z20.000
G0 X36.961 Y34.055 Z18.000
G1 X36.961 Y34.055 Z12.887 F500.000
G2 X35.971 Y34.666 Z12.887 I2.328 J4.880 K0.000 F200.000
G2 X36.041 Y33.549 Z12.887 I-1.365 J-0.647 K0.000 F200.000
G2 X35.579 Y32.673 Z12.887 I-4.229 J1.672 K0.000 F200.000
G1 X36.961 Y34.055 Z12.887 F200.000
G3 X37.395 Y33.844 Z12.887 I2.092 J3.747 K0.000 F200.000
G3 X36.188 Y33.068 Z12.887 I0.126 J-1.522 K0.000 F200.000
G1 X33.419 Y28.271 Z12.887 F200.000
G1 X32.517 Y27.370 Z12.887 F200.000
G1 X29.455 Y22.066 Z12.887 F200.000
G1 X30.357 Y22.968 Z12.887 F200.000
G1 X28.435 Y19.639 Z12.887 F200.000
G1 X28.149 Y19.804 Z12.887 F200.000
G1 X29.455 Y22.066 Z12.887 F200.000
G0 Z20.000
G0 X43.255 Y33.625 Z20.000
G0 X43.255 Y33.625 Z18.000
G1 X43.255 Y33.625 Z12.887 F500.000
G1 X43.909 Y34.279 Z12.887 F200.000
G2 X44.028 Y34.666 Z12.887 I0.932 J-0.075 K0.000 F200.000
G2 X42.605 Y33.844 Z12.887 I-3.997 J5.278 K0.000 F200.000
G2 X43.255 Y33.625 Z12.887 I-0.070 J-1.283 K0.000 F200.000
G2 X43.607 Y33.347 Z12.887 I-0.451 J-0.932 K0.000 F200.000
G2 X44.224 Y32.352 Z12.887 I-4.229 J-3.315 K0.000 F200.000
G1 X44.466 Y32.594 Z12.887 F200.000
G1 X45.286 Y31.173 Z12.887 F200.000
G1 X45.045 Y30.931 Z12.887 F200.000
G1 X45.865 Y29.510 Z12.887 F200.000
G1 X46.107 Y29.752 Z12.887 F200.000
G1 X46.927 Y28.331 Z12.887 F200.000
G1 X46.686 Y28.089 Z12.887 F200.000
G1 X47.506 Y26.668 Z12.887 F200.000
G1 X47.748 Y26.910 Z12.887 F200.000
G1 X48.568 Y25.489 Z12.887 F200.000
G1 X48.327 Y25.247 Z12.887 F200.000
G1 X49.147 Y23.826 Z12.887 F200.000
G1 X49.389 Y24.068 Z12.887 F200.000
G1 X50.209 Y22.647 Z12.887 F200.000
G1 X49.968 Y22.405 Z12.887 F200.000
G1 X50.788 Y20.984 Z12.887 F200.000
G1 X51.030 Y21.225 Z12.887 F200.000
G1 X51.850 Y19.804 Z12.887 F200.000
G0 Z20.000
G0 X47.589 Y40.200 Z20.000
G0 X47.589 Y40.200 Z18.000
G1 X47.589 Y40.200 Z12.887 F500.000
G2 X46.628 Y40.830 Z12.887 I0.288 J1.487 K0.000 F200.000
G2 X46.639 Y39.250 Z12.887 I-6.079 J-0.831 K0.000 F200.000
G1 X47.589 Y40.200 Z12.887 F200.000
G1 X47.908 Y40.165 Z12.887 F200.000
G1 X49.795 Y40.165 Z12.887 F200.000
G1 X49.465 Y39.835 Z12.887 F200.000
G1 X51.707 Y39.835 Z12.887 F200.000
G1 X52.037 Y40.165 Z12.887 F200.000
G1 X54.278 Y40.165 Z12.887 F200.000
G1 X53.948 Y39.835 Z12.887 F200.000
G1 X56.190 Y39.835 Z12.887 F200.000
G1 X56.520 Y40.165 Z12.887 F200.000
G1 X58.761 Y40.165 Z12.887 F200.000
G1 X58.431 Y39.835 Z12.887 F200.000
G1 X60.673 Y39.835 Z12.887 F200.000
G1 X61.003 Y40.165 Z12.887 F200.000
G1 X63.244 Y40.165 Z12.887 F200.000
G1 X62.914 Y39.835 Z12.887 F200.000
G1 X63.415 Y39.835 Z12.887 F200.000
G1 X63.415 Y40.165 Z12.887 F200.000
G1 X63.244 Y40.165 Z12.887 F200.000
G0 Z20.000
G0 X43.869 Y45.446 Z20.000
G0 X43.869 Y45.446 Z18.000
G1 X43.869 Y45.446 Z12.887 F500.000
G2 X44.028 Y45.334 Z12.887 I-1.007 J-1.604 K0.000 F200.000
G2 X43.955 Y45.533 Z12.887 I0.412 J0.264 K0.000 F200.000
G1 X43.869 Y45.446 Z12.887 F200.000
G3 X42.605 Y46.156 Z12.887 I-3.851 J-5.377 K0.000 F200.000
G3 X43.811 Y46.932 Z12.887 I-0.141 J1.545 K0.000 F200.000
G1 X44.765 Y48.584 Z12.887 F200.000
G1 X45.667 Y49.486 Z12.887 F200.000
G1 X48.729 Y54.789 Z12.887 F200.000
G1 X47.827 Y53.887 Z12.887 F200.000
G1 X50.889 Y59.191 Z12.887 F200.000
G1 X51.564 Y60.360 Z12.887 F200.000
G1 X51.850 Y60.195 Z12.887 F200.000
G1 X51.791 Y60.093 Z12.887 F200.000
G1 X50.889 Y59.191 Z12.887 F200.000
G1 X50.889 Y59.191 Z12.358 F500.000
G1 X51.791 Y60.093 Z12.358 F200.000
G1 X51.850 Y60.195 Z12.358 F200.000
G1 X51.564 Y60.360 Z12.358 F200.000
G1 X50.889 Y59.191 Z12.358 F200.000
G1 X47.827 Y53.887 Z12.358 F200.000
G1 X48.729 Y54.789 Z12.358 F200.000
G1 X45.667 Y49.486 Z12.358 F200.000
G1 X44.765 Y48.584 Z12.358 F200.000
G1 X43.811 Y46.932 Z12.358 F200.000
G2 X42.605 Y46.156 Z12.358 I-1.347 J0.769 K0.000 F200.000
G2 X43.869 Y45.446 Z12.358 I-2.587 J-6.087 K0.000 F200.000
G1 X43.955 Y45.533 Z12.358 F200.000
G3 X44.028 Y45.334 Z12.358 I0.485 J0.065 K0.000 F200.000
G3 X43.869 Y45.446 Z12.358 I-1.167 J-1.492 K0.000 F200.000
G0 Z20.000
G0 X47.589 Y40.200 Z20.000
G0 X47.589 Y40.200 Z18.000
G1 X47.589 Y40.200 Z12.358 F500.000
G2 X46.628 Y40.830 Z12.358 I0.288 J1.487 K0.000 F200.000
G2 X46.639 Y39.250 Z12.358 I-6.079 J-0.831 K0.000 F200.000
G1 X47.589 Y40.200 Z12.358 F200.000
G1 X47.908 Y40.165 Z12.358 F200.000
G1 X49.795 Y40.165 Z12.358 F200.000
G1 X49.465 Y39.835 Z12.358 F200.000
G1 X51.707 Y39.835 Z12.358 F200.000
G1 X52.037 Y40.165 Z12.358 F200.000
G1 X54.278 Y40.165 Z12.358 F200.000
G1 X53.948 Y39.835 Z12.358 F200.000
G1 X56.190 Y39.835 Z12.358 F200.000
G1 X56.520 Y40.165 Z12.358 F200.000
G1 X58.761 Y40.165 Z12.358 F200.000
G1 X58.431 Y39.835 Z12.358 F200.000
G1 X60.673 Y39.835 Z12.358 F200.000
G1 X61.003 Y40.165 Z12.358 F200.000
G1 X63.244 Y40.165 Z12.358 F200.000
G1 X62.914 Y39.835 Z12.358 F200.000
G1 X63.415 Y39.835 Z12.358 F200.000
G1 X63.415 Y40.165 Z12.358 F200.000
G1 X63.244 Y40.165 Z12.358 F200.000
G0 Z20.000
G0 X43.255 Y33.625 Z20.000
G0 X43.255 Y33.625 Z18.000
G1 X43.255 Y33.625 Z12.358 F500.000
G1 X43.909 Y34.279 Z12.358 F200.000
G2 X44.028 Y34.666 Z12.358 I0.932 J-0.075 K0.000 F200.000
G2 X42.605 Y33.844 Z12.358 I-3.997 J5.278 K0.000 F200.000
G2 X43.255 Y33.625 Z12.358 I-0.070 J-1.283 K0.000 F200.000
G2 X43.607 Y33.347 Z12.358 I-0.451 J-0.932 K0.000 F200.000
G2 X44.224 Y32.352 Z12.358 I-4.229 J-3.315 K0.000 F200.000
G1 X44.466 Y32.594 Z12.358 F200.000
G1 X45.286 Y31.173 Z12.358 F200.000
G1 X45.045 Y30.931 Z12.358 F200.000
G1 X45.865 Y29.510 Z12.358 F200.000
G1 X46.107 Y29.752 Z12.358 F200.000
G1 X46.927 Y28.331 Z12.358 F200.000
G1 X46.686 Y28.089 Z12.358 F200.000
G1 X47.506 Y26.668 Z12.358 F200.000
G1 X47.748 Y26.910 Z12.358 F200.000
G1 X48.568 Y25.489 Z12.358 F200.000
G1 X48.327 Y25.247 Z12.358 F200.000
G1 X49.147 Y23.826 Z12.358 F200.000
G1 X49.389 Y24.068 Z12.358 F200.000
G1 X50.209 Y22.647 Z12.358 F200.000
G1 X49.968 Y22.405 Z12.358 F200.000
G1 X50.788 Y20.984 Z12.358 F200.000
G1 X51.030 Y21.225 Z12.358 F200.000
G1 X51.850 Y19.804 Z12.358 F200.000
G0 Z20.000
G0 X36.961 Y34.055 Z20.000
G0 X36.961 Y34.055 Z18.000
G1 X36.961 Y34.055 Z12.358 F500.000
G2 X35.971 Y34.666 Z12.358 I2.328 J4.880 K0.000 F200.000
G2 X36.041 Y33.549 Z12.358 I-1.365 J-0.647 K0.000 F200.000
G2 X35.579 Y32.673 Z12.358 I-4.229 J1.672 K0.000 F200.000
G1 X36.961 Y34.055 Z12.358 F200.000
G3 X37.395 Y33.844 Z12.358 I2.092 J3.747 K0.000 F200.000
G3 X36.188 Y33.068 Z12.358 I0.126 J-1.522 K0.000 F200.000
G1 X33.419 Y28.271 Z12.358 F200.000
G1 X32.517 Y27.370 Z12.358 F200.000
G1 X29.455 Y22.066 Z12.358 F200.000
G1 X30.357 Y22.968 Z12.358 F200.000
G1 X28.435 Y19.639 Z12.358 F200.000
G1 X28.149 Y19.804 Z12.358 F200.000
G1 X29.455 Y22.066 Z12.358 F200.000
G0 Z20.000
G0 X33.256 Y39.316 Z20.000
G0 X33.256 Y39.316 Z18.000
G1 X33.256 Y39.316 Z12.358 F500.000
G2 X33.366 Y39.178 Z12.358 I-0.257 J-0.318 K0.000 F200.000
G2 X33.347 Y39.407 Z12.358 I2.144 J0.296 K0.000 F200.000
G1 X33.256 Y39.316 Z12.358 F200.000
G3 X32.091 Y39.835 Z12.358 I-1.157 J-1.030 K0.000 F200.000
G1 X31.533 Y39.835 Z12.358 F200.000
G1 X31.863 Y40.165 Z12.358 F200.000
G1 X29.621 Y40.165 Z12.358 F200.000
G1 X29.291 Y39.835 Z12.358 F200.000
G1 X27.050 Y39.835 Z12.358 F200.000
G1 X27.380 Y40.165 Z12.358 F200.000
G1 X25.138 Y40.165 Z12.358 F200.000
G1 X24.808 Y39.835 Z12.358 F200.000
G1 X22.567 Y39.835 Z12.358 F200.000
G1 X22.897 Y40.165 Z12.358 F200.000
G1 X20.655 Y40.165 Z12.358 F200.000
G1 X20.325 Y39.835 Z12.358 F200.000
G1 X18.084 Y39.835 Z12.358 F200.000
G1 X16.585 Y39.835 Z12.358 F200.000
G1 X16.585 Y40.165 Z12.358 F200.000
G1 X18.414 Y40.165 Z12.358 F200.000
G1 X18.084 Y39.835 Z12.358 F200.000
G0 Z20.000
G0 X36.000 Y46.544 Z20.000
G0 X36.000 Y46.544 Z18.000
G1 X36.000 Y46.544 Z12.358 F500.000
G2 X35.971 Y45.334 Z12.358 I-1.365 J-0.572 K0.000 F200.000
G2 X37.394 Y46.156 Z12.358 I3.997 J-5.278 K0.000 F200.000
G2 X36.273 Y46.816 Z12.358 I0.120 J1.486 K0.000 F200.000
G1 X36.000 Y46.544 Z12.358 F200.000
G1 X35.902 Y46.767 Z12.358 F200.000
G1 X35.199 Y47.984 Z12.358 F200.000
G1 X35.441 Y48.226 Z12.358 F200.000
G1 X34.620 Y49.647 Z12.358 F200.000
G1 X34.379 Y49.405 Z12.358 F200.000
G1 X33.558 Y50.826 Z12.358 F200.000
G1 X33.800 Y51.068 Z12.358 F200.000
G1 X32.980 Y52.489 Z12.358 F200.000
G1 X32.738 Y52.248 Z12.358 F200.000
G1 X31.917 Y53.669 Z12.358 F200.000
G1 X32.159 Y53.910 Z12.358 F200.000
G1 X31.339 Y55.331 Z12.358 F200.000
G1 X31.097 Y55.090 Z12.358 F200.000
G1 X30.277 Y56.511 Z12.358 F200.000
G1 X30.518 Y56.752 Z12.358 F200.000
G1 X29.698 Y58.173 Z12.358 F200.000
G1 X29.456 Y57.932 Z12.358 F200.000
G1 X28.636 Y59.353 Z12.358 F200.000
G1 X28.149 Y60.195 Z12.358 F200.000
G1 X28.435 Y60.360 Z12.358 F200.000
G1 X28.877 Y59.594 Z12.358 F200.000
G1 X28.636 Y59.353 Z12.358 F200.000
G1 X28.636 Y59.353 Z11.830 F500.000
G1 X28.877 Y59.594 Z11.830 F200.000
G1 X28.435 Y60.360 Z11.830 F200.000
G1 X28.149 Y60.195 Z11.830 F200.000
G1 X28.636 Y59.353 Z11.830 F200.000
G1 X29.456 Y57.932 Z11.830 F200.000
G1 X29.698 Y58.173 Z11.830 F200.000
G1 X30.518 Y56.752 Z11.830 F200.000
G1 X30.277 Y56.511 Z11.830 F200.000
G1 X31.097 Y55.090 Z11.830 F200.000
G1 X31.339 Y55.331 Z11.830 F200.000
G1 X32.159 Y53.910 Z11.830 F200.000
G1 X31.917 Y53.669 Z11.830 F200.000
G1 X32.738 Y52.248 Z11.830 F200.000
G1 X32.980 Y52.489 Z11.830 F200.000
G1 X33.800 Y51.068 Z11.830 F200.000
G1 X33.558 Y50.826 Z11.830 F200.000
G1 X34.379 Y49.405 Z11.830 F200.000
G1 X34.620 Y49.647 Z11.830 F200.000
G1 X35.441 Y48.226 Z11.830 F200.000
G1 X35.199 Y47.984 Z11.830 F200.000
G1 X35.902 Y46.767 Z11.830 F200.000
G1 X36.000 Y46.544 Z11.830 F200.000
G1 X36.273 Y46.816 Z11.830 F200.000
G3 X37.394 Y46.156 Z11.830 I1.241 J0.825 K0.000 F200.000
G3 X35.971 Y45.334 Z11.830 I2.573 J-6.100 K0.000 F200.000
G3 X36.000 Y46.544 Z11.830 I-1.335 J0.638 K0.000 F200.000
G0 Z20.000
G0 X33.256 Y39.316 Z20.000
G0 X33.256 Y39.316 Z18.000
G1 X33.256 Y39.316 Z11.830 F500.000
G2 X33.366 Y39.178 Z11.830 I-0.257 J-0.318 K0.000 F200.000
G2 X33.347 Y39.407 Z11.830 I2.144 J0.296 K0.000 F200.000
G1 X33.256 Y39.316 Z11.830 F200.000
G3 X32.091 Y39.835 Z11.830 I-1.157 J-1.030 K0.000 F200.000
G1 X31.533 Y39.835 Z11.830 F200.000
G1 X31.863 Y40.165 Z11.830 F200.000
G1 X29.621 Y40.165 Z11.830 F200.000
G1 X29.291 Y39.835 Z11.830 F200.000
G1 X27.050 Y39.835 Z11.830 F200.000
G1 X27.380 Y40.165 Z11.830 F200.000
G1 X25.138 Y40.165 Z11.830 F200.000
G1 X24.808 Y39.835 Z11.830 F200.000
G1 X22.567 Y39.835 Z11.830 F200.000
G1 X22.897 Y40.165 Z11.830 F200.000
G1 X20.655 Y40.165 Z11.830 F200.000
G1 X20.325 Y39.835 Z11.830 F200.000
G1 X18.084 Y39.835 Z11.830 F200.000
G1 X16.585 Y39.835 Z11.830 F200.000
G1 X16.585 Y40.165 Z11.830 F200.000
G1 X18.414 Y40.165 Z11.830 F200.000
G1 X18.084 Y39.835 Z11.830 F200.000
G0 Z20.000
G0 X36.961 Y34.055 Z20.000
G0 X36.961 Y34.055 Z18.000
G1 X36.961 Y34.055 Z11.830 F500.000
G2 X35.971 Y34.666 Z11.830 I2.328 J4.880 K0.000 F200.000
G2 X36.041 Y33.549 Z11.830 I-1.365 J-0.647 K0.000 F200.000
G2 X35.579 Y32.673 Z11.830 I-4.229 J1.672 K0.000 F200.000
G1 X36.961 Y34.055 Z11.830 F200.000
G3 X37.395 Y33.844 Z11.830 I2.092 J3.747 K0.000 F200.000
G3 X36.188 Y33.068 Z11.830 I0.126 J-1.522 K0.000 F200.000
G1 X33.419 Y28.271 Z11.830 F200.000
G1 X32.517 Y27.370 Z11.830 F200.000
G1 X29.455 Y22.066 Z11.830 F200.000
G1 X30.357 Y22.968 Z11.830 F200.000
G1 X28.435 Y19.639 Z11.830 F200.000
G1 X28.149 Y19.804 Z11.830 F200.000
G1 X29.455 Y22.066 Z11.830 F200.000
G0 Z20.000
G0 X43.255 Y33.625 Z20.000
G0 X43.255 Y33.625 Z18.000
G1 X43.255 Y33.625 Z11.830 F500.000
G1 X43.909 Y34.279 Z11.830 F200.000
G2 X44.028 Y34.666 Z11.830 I0.932 J-0.075 K0.000 F200.000
G2 X42.605 Y33.844 Z11.830 I-3.997 J5.278 K0.000 F200.000
G2 X43.255 Y33.625 Z11.830 I-0.070 J-1.283 K0.000 F200.000
G2 X43.607 Y33.347 Z11.830 I-0.451 J-0.932 K0.000 F200.000
G2 X44.224 Y32.352 Z11.830 I-4.229 J-3.315 K0.000 F200.000
G1 X44.466 Y32.594 Z11.830 F200.000
G1 X45.286 Y31.173 Z11.830 F200.000
G1 X45.045 Y30.931 Z11.830 F200.000
G1 X45.865 Y29.510 Z11.830 F200.000
G1 X46.107 Y29.752 Z11.830 F200.000
G1 X46.927 Y28.331 Z11.830 F200.000
G1 X46.686 Y28.089 Z11.830 F200.000
G1 X47.506 Y26.668 Z11.830 F200.000
G1 X47.748 Y26.910 Z11.830 F200.000
G1 X48.568 Y25.489 Z11.830 F200.000
G1 X48.327 Y25.247 Z11.830 F200.000
G1 X49.147 Y23.826 Z11.830 F200.000
G1 X49.389 Y24.068 Z11.830 F200.000
G1 X50.209 Y22.647 Z11.830 F200.000
G1 X49.968 Y22.405 Z11.830 F200.000
G1 X50.788 Y20.984 Z11.830 F200.000
G1 X51.030 Y21.225 Z11.830 F200.000
G1 X51.850 Y19.804 Z11.830 F200.000
G0 Z20.000
G0 X47.589 Y40.200 Z20.000
G0 X47.589 Y40.200 Z18.000
G1 X47.589 Y40.200 Z11.830 F500.000
G2 X46.628 Y40.830 Z11.830 I0.288 J1.487 K0.000 F200.000
G2 X46.639 Y39.250 Z11.830 I-6.079 J-0.831 K0.000 F200.000
G1 X47.589 Y40.200 Z11.830 F200.000
G1 X47.908 Y40.165 Z11.830 F200.000
G1 X49.795 Y40.165 Z11.830 F200.000
G1 X49.465 Y39.835 Z11.830 F200.000
G1 X51.707 Y39.835 Z11.830 F200.000
G1 X52.037 Y40.165 Z11.830 F200.000
G1 X54.278 Y40.165 Z11.830 F200.000
G1 X53.948 Y39.835 Z11.830 F200.000
G1 X56.190 Y39.835 Z11.830 F200.000
G1 X56.520 Y40.165 Z11.830 F200.000
G1 X58.761 Y40.165 Z11.830 F200.000
G1 X58.431 Y39.835 Z11.830 F200.000
G1 X60.673 Y39.835 Z11.830 F200.000
G1 X61.003 Y40.165 Z11.830 F200.000
G1 X63.244 Y40.165 Z11.830 F200.000
G1 X62.914 Y39.835 Z11.830 F200.000
G1 X63.415 Y39.835 Z11.830 F200.000
G1 X63.415 Y40.165 Z11.830 F200.000
G1 X63.244 Y40.165 Z11.830 F200.000
G0 Z20.000
G0 X43.869 Y45.446 Z20.000
G0 X43.869 Y45.446 Z18.000
G1 X43.869 Y45.446 Z11.830 F500.000
G2 X44.028 Y45.334 Z11.830 I-1.007 J-1.604 K0.000 F200.000
G2 X43.955 Y45.533 Z11.830 I0.412 J0.264 K0.000 F200.000
G1 X43.869 Y45.446 Z11.830 F200.000
G3 X42.605 Y46.156 Z11.830 I-3.851 J-5.377 K0.000 F200.000
G3 X43.811 Y46.932 Z11.830 I-0.141 J1.545 K0.000 F200.000
G1 X44.765 Y48.584 Z11.830 F200.000
G1 X45.667 Y49.486 Z11.830 F200.000
G1 X48.729 Y54.789 Z11.830 F200.000
G1 X47.827 Y53.887 Z11.830 F200.000
G1 X50.889 Y59.191 Z11.830 F200.000
G1 X51.564 Y60.360 Z11.830 F200.000
G1 X51.850 Y60.195 Z11.830 F200.000
G1 X51.791 Y60.093 Z11.830 F200.000
G1 X50.889 Y59.191 Z11.830 F200.000
G1 X50.889 Y59.191 Z11.302 F500.000
G1 X51.791 Y60.093 Z11.302 F200.000
G1 X51.850 Y60.195 Z11.302 F200.000
G1 X51.564 Y60.360 Z11.302 F200.000
G1 X50.889 Y59.191 Z11.302 F200.000
G1 X47.827 Y53.887 Z11.302 F200.000
G1 X48.729 Y54.789 Z11.302 F200.000
G1 X45.667 Y49.486 Z11.302 F200.000
G1 X44.765 Y48.584 Z11.302 F200.000
G1 X43.811 Y46.932 Z11.302 F200.000
G2 X42.605 Y46.156 Z11.302 I-1.347 J0.769 K0.000 F200.000
G2 X43.869 Y45.446 Z11.302 I-2.587 J-6.087 K0.000 F200.000
G1 X43.955 Y45.533 Z11.302 F200.000
G3 X44.028 Y45.334 Z11.302 I0.485 J0.065 K0.000 F200.000
G3 X43.869 Y45.446 Z11.302 I-1.167 J-1.492 K0.000 F200.000
G0 Z20.000
G0 X47.589 Y40.200 Z20.000
G0 X47.589 Y40.200 Z18.000
G1 X47.589 Y40.200 Z11.302 F500.000
G2 X46.628 Y40.830 Z11.302 I0.288 J1.487 K0.000 F200.000
G2 X46.639 Y39.250 Z11.302 I-6.079 J-0.831 K0.000 F200.000
G1 X47.589 Y40.200 Z11.302 F200.000
G1 X47.908 Y40.165 Z11.302 F200.000
G1 X49.795 Y40.165 Z11.302 F200.000
G1 X49.465 Y39.835 Z11.302 F200.000
G1 X51.707 Y39.835 Z11.302 F200.000
G1 X52.037 Y40.165 Z11.302 F200.000
G1 X54.278 Y40.165 Z11.302 F200.000
G1 X53.948 Y39.835 Z11.302 F200.000
G1 X56.190 Y39.835 Z11.302 F200.000
G1 X56.520 Y40.165 Z11.302 F200.000
G1 X58.761 Y40.165 Z11.302 F200.000
G1 X58.431 Y39.835 Z11.302 F200.000
G1 X60.673 Y39.835 Z11.302 F200.000
G1 X61.003 Y40.165 Z11.302 F200.000
G1 X63.244 Y40.165 Z11.302 F200.000
G1 X62.914 Y39.835 Z11.302 F200.000
G1 X63.415 Y39.835 Z11.302 F200.000
G1 X63.415 Y40.165 Z11.302 F200.000
G1 X63.244 Y40.165 Z11.302 F200.000
G0 Z20.000
G0 X43.255 Y33.625 Z20.000
G0 X43.255 Y33.625 Z18.000
G1 X43.255 Y33.625 Z11.302 F500.000
G1 X43.909 Y34.279 Z11.302 F200.000
G2 X44.028 Y34.666 Z11.302 I0.932 J-0.075 K0.000 F200.000
G2 X42.605 Y33.844 Z11.302 I-3.997 J5.278 K0.000 F200.000
G2 X43.255 Y33.625 Z11.302 I-0.070 J-1.283 K0.000 F200.000
G2 X43.607 Y33.347 Z11.302 I-0.451 J-0.932 K0.000 F200.000
G2 X44.224 Y32.352 Z11.302 I-4.229 J-3.315 K0.000 F200.000
G1 X44.466 Y32.594 Z11.302 F200.000
G1 X45.286 Y31.173 Z11.302 F200.000
G1 X45.045 Y30.931 Z11.302 F200.000
G1 X45.865 Y29.510 Z11.302 F200.000
G1 X46.107 Y29.752 Z11.302 F200.000
G1 X46.927 Y28.331 Z11.302 F200.000
G1 X46.686 Y28.089 Z11.302 F200.000
G1 X47.506 Y26.668 Z11.302 F200.000
G1 X47.748 Y26.910 Z11.302 F200.000
G1 X48.568 Y25.489 Z11.302 F200.000
G1 X48.327 Y25.247 Z11.302 F200.000
G1 X49.147 Y23.826 Z11.302 F200.000
G1 X49.389 Y24.068 Z11.302 F200.000
G1 X50.209 Y22.647 Z11.302 F200.000
G1 X49.968 Y22.405 Z11.302 F200.000
G1 X50.788 Y20.984 Z11.302 F200.000
G1 X51.030 Y21.225 Z11.302 F200.000
G1 X51.850 Y19.804 Z11.302 F200.000
G0 Z20.000
G0 X36.961 Y34.055 Z20.000
G0 X36.961 Y34.055 Z18.000
G1 X36.961 Y34.055 Z11.302 F500.000
G2 X35.971 Y34.666 Z11.302 I2.328 J4.880 K0.000 F200.000
G2 X36.041 Y33.549 Z11.302 I-1.365 J-0.647 K0.000 F200.000
G2 X35.579 Y32.673 Z11.302 I-4.229 J1.672 K0.000 F200.000
G1 X36.961 Y34.055 Z11.302 F200.000
G3 X37.395 Y33.844 Z11.302 I2.092 J3.747 K0.000 F200.000
G3 X36.188 Y33.068 Z11.302 I0.126 J-1.522 K0.000 F200.000
G1 X33.419 Y28.271 Z11.302 F200.000
G1 X32.517 Y27.370 Z11.302 F200.000
G1 X29.455 Y22.066 Z11.302 F200.000
G1 X30.357 Y22.968 Z11.302 F200.000
G1 X28.435 Y19.639 Z11.302 F200.000
G1 X28.149 Y19.804 Z11.302 F200.000
G1 X29.455 Y22.066 Z11.302 F200.000
G0 Z20.000
G0 X33.256 Y39.316 Z20.000
G0 X33.256 Y39.316 Z18.000
G1 X33.256 Y39.316 Z11.302 F500.000
G2 X33.366 Y39.178 Z11.302 I-0.257 J-0.318 K0.000 F200.000
G2 X33.347 Y39.407 Z11.302 I2.144 J0.296 K0.000 F200.000
G1 X33.256 Y39.316 Z11.302 F200.000
G3 X32.091 Y39.835 Z11.302 I-1.157 J-1.030 K0.000 F200.000
G1 X31.533 Y39.835 Z11.302 F200.000
G1 X31.863 Y40.165 Z11.302 F200.000
G1 X29.621 Y40.165 Z11.302 F200.000
G1 X29.291 Y39.835 Z11.302 F200.000
G1 X27.050 Y39.835 Z11.302 F200.000
G1 X27.380 Y40.165 Z11.302 F200.000
G1 X25.138 Y40.165 Z11.302 F200.000
G1 X24.808 Y39.835 Z11.302 F200.000
G1 X22.567 Y39.835 Z11.302 F200.000
G1 X22.897 Y40.165 Z11.302 F200.000
G1 X20.655 Y40.165 Z11.302 F200.000
G1 X20.325 Y39.835 Z11.302 F200.000
G1 X18.084 Y39.835 Z11.302 F200.000
G1 X16.585 Y39.835 Z11.302 F200.000
G1 X16.585 Y40.165 Z11.302 F200.000
G1 X18.414 Y40.165 Z11.302 F200.000
G1 X18.084 Y39.835 Z11.302 F200.000
G0 Z20.000
G0 X36.000 Y46.544 Z20.000
G0 X36.000 Y46.544 Z18.000
G1 X36.000 Y46.544 Z11.302 F500.000
G2 X35.971 Y45.334 Z11.302 I-1.365 J-0.572 K0.000 F200.000
G2 X37.394 Y46.156 Z11.302 I3.997 J-5.278 K0.000 F200.000
G2 X36.273 Y46.816 Z11.302 I0.120 J1.486 K0.000 F200.000
G1 X36.000 Y46.544 Z11.302 F200.000
G1 X35.902 Y46.767 Z11.302 F200.000
G1 X35.199 Y47.984 Z11.302 F200.000
G1 X35.441 Y48.226 Z11.302 F200.000
G1 X34.620 Y49.647 Z11.302 F200.000
G1 X34.379 Y49.405 Z11.302 F200.000
G1 X33.558 Y50.826 Z11.302 F200.000
G1 X33.800 Y51.068 Z11.302 F200.000
G1 X32.980 Y52.489 Z11.302 F200.000
G1 X32.738 Y52.248 Z11.302 F200.000
G1 X31.917 Y53.669 Z11.302 F200.000
G1 X32.159 Y53.910 Z11.302 F200.000
G1 X31.339 Y55.331 Z11.302 F200.000
G1 X31.097 Y55.090 Z11.302 F200.000
G1 X30.277 Y56.511 Z11.302 F200.000
G1 X30.518 Y56.752 Z11.302 F200.000
G1 X29.698 Y58.173 Z11.302 F200.000
G1 X29.456 Y57.932 Z11.302 F200.000
G1 X28.636 Y59.353 Z11.302 F200.000
G1 X28.149 Y60.195 Z11.302 F200.000
G1 X28.435 Y60.360 Z11.302 F200.000
G1 X28.877 Y59.594 Z11.302 F200.000
G1 X28.636 Y59.353 Z11.302 F200.000
G1 X28.636 Y59.353 Z10.773 F500.000
G1 X28.877 Y59.594 Z10.773 F200.000
G1 X28.435 Y60.360 Z10.773 F200.000
G1 X28.149 Y60.195 Z10.773 F200.000
G1 X28.636 Y59.353 Z10.773 F200.000
G1 X29.456 Y57.932 Z10.773 F200.000
G1 X29.698 Y58.173 Z10.773 F200.000
G1 X30.518 Y56.752 Z10.773 F200.000
G1 X30.277 Y56.511 Z10.773 F200.000
G1 X31.097 Y55.090 Z10.773 F200.000
G1 X31.339 Y55.331 Z10.773 F200.000
G1 X32.159 Y53.910 Z10.773 F200.000
G1 X31.917 Y53.669 Z10.773 F200.000
G1 X32.738 Y52.248 Z10.773 F200.000
G1 X32.980 Y52.489 Z10.773 F200.000
G1 X33.800 Y51.068 Z10.773 F200.000
G1 X33.558 Y50.826 Z10.773 F200.000
G1 X34.379 Y49.405 Z10.773 F200.000
G1 X34.620 Y49.647 Z10.773 F200.000
G1 X35.441 Y48.226 Z10.773 F200.000
G1 X35.199 Y47.984 Z10.773 F200.000
G1 X35.902 Y46.767 Z10.773 F200.000
G1 X36.000 Y46.544 Z10.773 F200.000
G1 X36.273 Y46.816 Z10.773 F200.000
G3 X37.394 Y46.156 Z10.773 I1.241 J0.825 K0.000 F200.000
G3 X35.971 Y45.334 Z10.773 I2.573 J-6.100 K0.000 F200.000
G3 X36.000 Y46.544 Z10.773 I-1.335 J0.638 K0.000 F200.000
G0 Z20.000
G0 X33.256 Y39.316 Z20.000
G0 X33.256 Y39.316 Z18.000
G1 X33.256 Y39.316 Z10.773 F500.000
G2 X33.366 Y39.178 Z10.773 I-0.257 J-0.318 K0.000 F200.000
G2 X33.347 Y39.407 Z10.773 I2.144 J0.296 K0.000 F200.000
G1 X33.256 Y39.316 Z10.773 F200.000
G3 X32.091 Y39.835 Z10.773 I-1.157 J-1.030 K0.000 F200.000
G1 X31.533 Y39.835 Z10.773 F200.000
G1 X31.863 Y40.165 Z10.773 F200.000
G1 X29.621 Y40.165 Z10.773 F200.000
G1 X29.291 Y39.835 Z10.773 F200.000
G1 X27.050 Y39.835 Z10.773 F200.000
G1 X27.380 Y40.165 Z10.773 F200.000
G1 X25.138 Y40.165 Z10.773 F200.000
G1 X24.808 Y39.835 Z10.773 F200.000
G1 X22.567 Y39.835 Z10.773 F200.000
G1 X22.897 Y40.165 Z10.773 F200.000
G1 X20.655 Y40.165 Z10.773 F200.000
G1 X20.325 Y39.835 Z10.773 F200.000
G1 X18.084 Y39.835 Z10.773 F200.000
G1 X16.585 Y39.835 Z10.773 F200.000
G1 X16.585 Y40.165 Z10.773 F200.000
G1 X18.414 Y40.165 Z10.773 F200.000
G1 X18.084 Y39.835 Z10.773 F200.000
G0 Z20.000
G0 X36.961 Y34.055 Z20.000
G0 X36.961 Y34.055 Z18.000
G1 X36.961 Y34.055 Z10.773 F500.000
G2 X35.971 Y34.666 Z10.773 I2.328 J4.880 K0.000 F200.000
G2 X36.041 Y33.549 Z10.773 I-1.365 J-0.647 K0.000 F200.000
G2 X35.579 Y32.673 Z10.773 I-4.229 J1.672 K0.000 F200.000
G1 X36.961 Y34.055 Z10.773 F200.000
G3 X37.395 Y33.844 Z10.773 I2.092 J3.747 K0.000 F200.000
G3 X36.188 Y33.068 Z10.773 I0.126 J-1.522 K0.000 F200.000
G1 X33.419 Y28.271 Z10.773 F200.000
G1 X32.517 Y27.370 Z10.773 F200.000
G1 X29.455 Y22.066 Z10.773 F200.000
G1 X30.357 Y22.968 Z10.773 F200.000
G1 X28.435 Y19.639 Z10.773 F200.000
G1 X28.149 Y19.804 Z10.773 F200.000
G1 X29.455 Y22.066 Z10.773 F200.000
G0 Z20.000
G0 X43.255 Y33.625 Z20.000
G0 X43.255 Y33.625 Z18.000
G1 X43.255 Y33.625 Z10.773 F500.000
G1 X43.909 Y34.279 Z10.773 F200.000
G2 X44.028 Y34.666 Z10.773 I0.932 J-0.075 K0.000 F200.000
G2 X42.605 Y33.844 Z10.773 I-3.997 J5.278 K0.000 F200.000
G2 X43.255 Y33.625 Z10.773 I-0.070 J-1.283 K0.000 F200.000
G2 X43.607 Y33.347 Z10.773 I-0.451 J-0.932 K0.000 F200.000
G2 X44.224 Y32.352 Z10.773 I-4.229 J-3.315 K0.000 F200.000
G1 X44.466 Y32.594 Z10.773 F200.000
G1 X45.286 Y31.173 Z10.773 F200.000
G1 X45.045 Y30.931 Z10.773 F200.000
G1 X45.865 Y29.510 Z10.773 F200.000
G1 X46.107 Y29.752 Z10.773 F200.000
G1 X46.927 Y28.331 Z10.773 F200.000
G1 X46.686 Y28.089 Z10.773 F200.000
G1 X47.506 Y26.668 Z10.773 F200.000
G1 X47.748 Y26.910 Z10.773 F200.000
G1 X48.568 Y25.489 Z10.773 F200.000
G1 X48.327 Y25.247 Z10.773 F200.000
G1 X49.147 Y23.826 Z10.773 F200.000
G1 X49.389 Y24.068 Z10.773 F200.000
G1 X50.209 Y22.647 Z10.773 F200.000
G1 X49.968 Y22.405 Z10.773 F200.000
G1 X50.788 Y20.984 Z10.773 F200.000
G1 X51.030 Y21.225 Z10.773 F200.000
G1 X51.850 Y19.804 Z10.773 F200.000
G0 Z20.000
G0 X47.589 Y40.200 Z20.000
G0 X47.589 Y40.200 Z18.000
G1 X47.589 Y40.200 Z10.773 F500.000
G2 X46.628 Y40.830 Z10.773 I0.288 J1.487 K0.000 F200.000
G2 X46.639 Y39.250 Z10.773 I-6.079 J-0.831 K0.000 F200.000
G1 X47.589 Y40.200 Z10.773 F200.000
G1 X47.908 Y40.165 Z10.773 F200.000
G1 X49.795 Y40.165 Z10.773 F200.000
G1 X49.465 Y39.835 Z10.773 F200.000
G1 X51.707 Y39.835 Z10.773 F200.000
G1 X52.037 Y40.165 Z10.773 F200.000
G1 X54.278 Y40.165 Z10.773 F200.000
G1 X53.948 Y39.835 Z10.773 F200.000
G1 X56.190 Y39.835 Z10.773 F200.000
G1 X56.520 Y40.165 Z10.773 F200.000
G1 X58.761 Y40.165 Z10.773 F200.000
G1 X58.431 Y39.835 Z10.773 F200.000
G1 X60.673 Y39.835 Z10.773 F200.000
G1 X61.003 Y40.165 Z10.773 F200.000
G1 X63.244 Y40.165 Z10.773 F200.000
G1 X62.914 Y39.835 Z10.773 F200.000
G1 X63.415 Y39.835 Z10.773 F200.000
G1 X63.415 Y40.165 Z10.773 F200.000
G1 X63.244 Y40.165 Z10.773 F200.000
G0 Z20.000
G0 X43.869 Y45.446 Z20.000
G0 X43.869 Y45.446 Z18.000
G1 X43.869 Y45.446 Z10.773 F500.000
G2 X44.028 Y45.334 Z10.773 I-1.007 J-1.604 K0.000 F200.000
G2 X43.955 Y45.533 Z10.773 I0.412 J0.264 K0.000 F200.000
G1 X43.869 Y45.446 Z10.773 F200.000
G3 X42.605 Y46.156 Z10.773 I-3.851 J-5.377 K0.000 F200.000
G3 X43.811 Y46.932 Z10.773 I-0.141 J1.545 K0.000 F200.000
G1 X44.765 Y48.584 Z10.773 F200.000
G1 X45.667 Y49.486 Z10.773 F200.000
G1 X48.729 Y54.789 Z10.773 F200.000
G1 X47.827 Y53.887 Z10.773 F200.000
G1 X50.889 Y59.191 Z10.773 F200.000
G1 X51.564 Y60.360 Z10.773 F200.000
G1 X51.850 Y60.195 Z10.773 F200.000
G1 X51.791 Y60.093 Z10.773 F200.000
G1 X50.889 Y59.191 Z10.773 F200.000
G1 X50.889 Y59.191 Z10.245 F500.000
G1 X51.791 Y60.093 Z10.245 F200.000
G1 X51.850 Y60.195 Z10.245 F200.000
G1 X51.564 Y60.360 Z10.245 F200.000
G1 X50.889 Y59.191 Z10.245 F200.000
G1 X47.827 Y53.887 Z10.245 F200.000
G1 X48.729 Y54.789 Z10.245 F200.000
G1 X45.667 Y49.486 Z10.245 F200.000
G1 X44.765 Y48.584 Z10.245 F200.000
G1 X43.811 Y46.932 Z10.245 F200.000
G2 X42.605 Y46.156 Z10.245 I-1.347 J0.769 K0.000 F200.000
G2 X43.869 Y45.446 Z10.245 I-2.587 J-6.087 K0.000 F200.000
G1 X43.955 Y45.533 Z10.245 F200.000
G3 X44.028 Y45.334 Z10.245 I0.485 J0.065 K0.000 F200.000
G3 X43.869 Y45.446 Z10.245 I-1.167 J-1.492 K0.000 F200.000
G0 Z20.000
G0 X47.589 Y40.200 Z20.000
G0 X47.589 Y40.200 Z18.000
G1 X47.589 Y40.200 Z10.245 F500.000
G2 X46.628 Y40.830 Z10.245 I0.288 J1.487 K0.000 F200.000
G2 X46.639 Y39.250 Z10.245 I-6.079 J-0.831 K0.000 F200.000
G1 X47.589 Y40.200 Z10.245 F200.000
G1 X47.908 Y40.165 Z10.245 F200.000
G1 X49.795 Y40.165 Z10.245 F200.000
G1 X49.465 Y39.835 Z10.245 F200.000
G1 X51.707 Y39.835 Z10.245 F200.000
G1 X52.037 Y40.165 Z10.245 F200.000
G1 X54.278 Y40.165 Z10.245 F200.000
G1 X53.948 Y39.835 Z10.245 F200.000
G1 X56.190 Y39.835 Z10.245 F200.000
G1 X56.520 Y40.165 Z10.245 F200.000
G1 X58.761 Y40.165 Z10.245 F200.000
G1 X58.431 Y39.835 Z10.245 F200.000
G1 X60.673 Y39.835 Z10.245 F200.000
G1 X61.003 Y40.165 Z10.245 F200.000
G1 X63.244 Y40.165 Z10.245 F200.000
G1 X62.914 Y39.835 Z10.245 F200.000
G1 X63.415 Y39.835 Z10.245 F200.000
G1 X63.415 Y40.165 Z10.245 F200.000
G1 X63.244 Y40.165 Z10.245 F200.000
G0 Z20.000
G0 X43.255 Y33.625 Z20.000
G0 X43.255 Y33.625 Z18.000
G1 X43.255 Y33.625 Z10.245 F500.000
G1 X43.909 Y34.279 Z10.245 F200.000
G2 X44.028 Y34.666 Z10.245 I0.932 J-0.075 K0.000 F200.000
G2 X42.605 Y33.844 Z10.245 I-3.997 J5.278 K0.000 F200.000
G2 X43.255 Y33.625 Z10.245 I-0.070 J-1.283 K0.000 F200.000
G2 X43.607 Y33.347 Z10.245 I-0.451 J-0.932 K0.000 F200.000
G2 X44.224 Y32.352 Z10.245 I-4.229 J-3.315 K0.000 F200.000
G1 X44.466 Y32.594 Z10.245 F200.000
G1 X45.286 Y31.173 Z10.245 F200.000
G1 X45.045 Y30.931 Z10.245 F200.000
G1 X45.865 Y29.510 Z10.245 F200.000
G1 X46.107 Y29.752 Z10.245 F200.000
G1 X46.927 Y28.331 Z10.245 F200.000
G1 X46.686 Y28.089 Z10.245 F200.000
G1 X47.506 Y26.668 Z10.245 F200.000
G1 X47.748 Y26.910 Z10.245 F200.000
G1 X48.568 Y25.489 Z10.245 F200.000
G1 X48.327 Y25.247 Z10.245 F200.000
G1 X49.147 Y23.826 Z10.245 F200.000
G1 X49.389 Y24.068 Z10.245 F200.000
G1 X50.209 Y22.647 Z10.245 F200.000
G1 X49.968 Y22.405 Z10.245 F200.000
G1 X50.788 Y20.984 Z10.245 F200.000
G1 X51.030 Y21.225 Z10.245 F200.000
G1 X51.850 Y19.804 Z10.245 F200.000
G0 Z20.000
G0 X36.961 Y34.055 Z20.000
G0 X36.961 Y34.055 Z18.000
G1 X36.961 Y34.055 Z10.245 F500.000
G2 X35.971 Y34.666 Z10.245 I2.328 J4.880 K0.000 F200.000
G2 X36.041 Y33.549 Z10.245 I-1.365 J-0.647 K0.000 F200.000
G2 X35.579 Y32.673 Z10.245 I-4.229 J1.672 K0.000 F200.000
G1 X36.961 Y34.055 Z10.245 F200.000
G3 X37.395 Y33.844 Z10.245 I2.092 J3.747 K0.000 F200.000
G3 X36.188 Y33.068 Z10.245 I0.126 J-1.522 K0.000 F200.000
G1 X33.419 Y28.271 Z10.245 F200.000
G1 X32.517 Y27.370 Z10.245 F200.000
G1 X29.455 Y22.066 Z10.245 F200.000
G1 X30.357 Y22.968 Z10.245 F200.000
G1 X28.435 Y19.639 Z10.245 F200.000
G1 X28.149 Y19.804 Z10.245 F200.000
G1 X29.455 Y22.066 Z10.245 F200.000
G0 Z20.000
G0 X33.256 Y39.316 Z20.000
G0 X33.256 Y39.316 Z18.000
G1 X33.256 Y39.316 Z10.245 F500.000
G2 X33.366 Y39.178 Z10.245 I-0.257 J-0.318 K0.000 F200.000
G2 X33.347 Y39.407 Z10.245 I2.144 J0.296 K0.000 F200.000
G1 X33.256 Y39.316 Z10.245 F200.000
G3 X32.091 Y39.835 Z10.245 I-1.157 J-1.030 K0.000 F200.000
G1 X31.533 Y39.835 Z10.245 F200.000
G1 X31.863 Y40.165 Z10.245 F200.000
G1 X29.621 Y40.165 Z10.245 F200.000
G1 X29.291 Y39.835 Z10.245 F200.000
G1 X27.050 Y39.835 Z10.245 F200.000
G1 X27.380 Y40.165 Z10.245 F200.000
G1 X25.138 Y40.165 Z10.245 F200.000
G1 X24.808 Y39.835 Z10.245 F200.000
G1 X22.567 Y39.835 Z10.245 F200.000
G1 X22.897 Y40.165 Z10.245 F200.000
G1 X20.655 Y40.165 Z10.245 F200.000
G1 X20.325 Y39.835 Z10.245 F200.000
G1 X18.084 Y39.835 Z10.245 F200.000
G1 X16.585 Y39.835 Z10.245 F200.000
G1 X16.585 Y40.165 Z10.245 F200.000
G1 X18.414 Y40.165 Z10.245 F200.000
G1 X18.084 Y39.835 Z10.245 F200.000
G0 Z20.000
G0 X36.000 Y46.544 Z20.000
G0 X36.000 Y46.544 Z18.000
G1 X36.000 Y46.544 Z10.245 F500.000
G2 X35.971 Y45.334 Z10.245 I-1.365 J-0.572 K0.000 F200.000
G2 X37.394 Y46.156 Z10.245 I3.997 J-5.278 K0.000 F200.000
G2 X36.273 Y46.816 Z10.245 I0.120 J1.486 K0.000 F200.000
G1 X36.000 Y46.544 Z10.245 F200.000
G1 X35.902 Y46.767 Z10.245 F200.000
G1 X35.199 Y47.984 Z10.245 F200.000
G1 X35.441 Y48.226 Z10.245 F200.000
G1 X34.620 Y49.647 Z10.245 F200.000
G1 X34.379 Y49.405 Z10.245 F200.000
G1 X33.558 Y50.826 Z10.245 F200.000
G1 X33.800 Y51.068 Z10.245 F200.000
G1 X32.980 Y52.489 Z10.245 F200.000
G1 X32.738 Y52.248 Z10.245 F200.000
G1 X31.917 Y53.669 Z10.245 F200.000
G1 X32.159 Y53.910 Z10.245 F200.000
G1 X31.339 Y55.331 Z10.245 F200.000
G1 X31.097 Y55.090 Z10.245 F200.000
G1 X30.277 Y56.511 Z10.245 F200.000
G1 X30.518 Y56.752 Z10.245 F200.000
G1 X29.698 Y58.173 Z10.245 F200.000
G1 X29.456 Y57.932 Z10.245 F200.000
G1 X28.636 Y59.353 Z10.245 F200.000
G1 X28.149 Y60.195 Z10.245 F200.000
G1 X28.435 Y60.360 Z10.245 F200.000
G1 X28.877 Y59.594 Z10.245 F200.000
G1 X28.636 Y59.353 Z10.245 F200.000
G1 X28.636 Y59.353 Z9.717 F500.000
G1 X28.877 Y59.594 Z9.717 F200.000
G1 X28.435 Y60.360 Z9.717 F200.000
G1 X28.149 Y60.195 Z9.717 F200.000
G1 X28.636 Y59.353 Z9.717 F200.000
G1 X29.456 Y57.932 Z9.717 F200.000
G1 X29.698 Y58.173 Z9.717 F200.000
G1 X30.518 Y56.752 Z9.717 F200.000
G1 X30.277 Y56.511 Z9.717 F200.000
G1 X31.097 Y55.090 Z9.717 F200.000
G1 X31.339 Y55.331 Z9.717 F200.000
G1 X32.159 Y53.910 Z9.717 F200.000
G1 X31.917 Y53.669 Z9.717 F200.000
G1 X32.738 Y52.248 Z9.717 F200.000
G1 X32.980 Y52.489 Z9.717 F200.000
G1 X33.800 Y51.068 Z9.717 F200.000
G1 X33.558 Y50.826 Z9.717 F200.000
G1 X34.379 Y49.405 Z9.717 F200.000
G1 X34.620 Y49.647 Z9.717 F200.000
G1 X35.441 Y48.226 Z9.717 F200.000
G1 X35.199 Y47.984 Z9.717 F200.000
G1 X35.902 Y46.767 Z9.717 F200.000
G1 X36.000 Y46.544 Z9.717 F200.000
G1 X36.273 Y46.816 Z9.717 F200.000
G3 X37.394 Y46.156 Z9.717 I1.241 J0.825 K0.000 F200.000
G3 X35.971 Y45.334 Z9.717 I2.573 J-6.100 K0.000 F200.000
G3 X36.000 Y46.544 Z9.717 I-1.335 J0.638 K0.000 F200.000
G0 Z20.000
G0 X33.256 Y39.316 Z20.000
G0 X33.256 Y39.316 Z18.000
G1 X33.256 Y39.316 Z9.717 F500.000
G2 X33.366 Y39.178 Z9.717 I-0.257 J-0.318 K0.000 F200.000
G2 X33.347 Y39.407 Z9.717 I2.144 J0.296 K0.000 F200.000
G1 X33.256 Y39.316 Z9.717 F200.000
G3 X32.091 Y39.835 Z9.717 I-1.157 J-1.030 K0.000 F200.000
G1 X31.533 Y39.835 Z9.717 F200.000
G1 X31.863 Y40.165 Z9.717 F200.000
G1 X29.621 Y40.165 Z9.717 F200.000
G1 X29.291 Y39.835 Z9.717 F200.000
G1 X27.050 Y39.835 Z9.717 F200.000
G1 X27.380 Y40.165 Z9.717 F200.000
G1 X25.138 Y40.165 Z9.717 F200.000
G1 X24.808 Y39.835 Z9.717 F200.000
G1 X22.567 Y39.835 Z9.717 F200.000
G1 X22.897 Y40.165 Z9.717 F200.000
G1 X20.655 Y40.165 Z9.717 F200.000
G1 X20.325 Y39.835 Z9.717 F200.000
G1 X18.084 Y39.835 Z9.717 F200.000
G1 X16.585 Y39.835 Z9.717 F200.000
G1 X16.585 Y40.165 Z9.717 F200.000
G1 X18.414 Y40.165 Z9.717 F200.000
G1 X18.084 Y39.835 Z9.717 F200.000
G0 Z20.000
G0 X36.961 Y34.055 Z20.000
G0 X36.961 Y34.055 Z18.000
G1 X36.961 Y34.055 Z9.717 F500.000
G2 X35.971 Y34.666 Z9.717 I2.328 J4.880 K0.000 F200.000
G2 X36.041 Y33.549 Z9.717 I-1.365 J-0.647 K0.000 F200.000
G2 X35.579 Y32.673 Z9.717 I-4.229 J1.672 K0.000 F200.000
G1 X36.961 Y34.055 Z9.717 F200.000
G3 X37.395 Y33.844 Z9.717 I2.092 J3.747 K0.000 F200.000
G3 X36.188 Y33.068 Z9.717 I0.126 J-1.522 K0.000 F200.000
G1 X33.419 Y28.271 Z9.717 F200.000
G1 X32.517 Y27.370 Z9.717 F200.000
G1 X29.455 Y22.066 Z9.717 F200.000
G1 X30.357 Y22.968 Z9.717 F200.000
G1 X28.435 Y19.639 Z9.717 F200.000
G1 X28.149 Y19.804 Z9.717 F200.000
G1 X29.455 Y22.066 Z9.717 F200.000
G0 Z20.000
G0 X43.255 Y33.625 Z20.000
G0 X43.255 Y33.625 Z18.000
G1 X43.255 Y33.625 Z9.717 F500.000
G1 X43.909 Y34.279 Z9.717 F200.000
G2 X44.028 Y34.666 Z9.717 I0.932 J-0.075 K0.000 F200.000
G2 X42.605 Y33.844 Z9.717 I-3.997 J5.278 K0.000 F200.000
G2 X43.255 Y33.625 Z9.717 I-0.070 J-1.283 K0.000 F200.000
G2 X43.607 Y33.347 Z9.717 I-0.451 J-0.932 K0.000 F200.000
G2 X44.224 Y32.352 Z9.717 I-4.229 J-3.315 K0.000 F200.000
G1 X44.466 Y32.594 Z9.717 F200.000
G1 X45.286 Y31.173 Z9.717 F200.000
G1 X45.045 Y30.931 Z9.717 F200.000
G1 X45.865 Y29.510 Z9.717 F200.000
G1 X46.107 Y29.752 Z9.717 F200.000
G1 X46.927 Y28.331 Z9.717 F200.000
G1 X46.686 Y28.089 Z9.717 F200.000
G1 X47.506 Y26.668 Z9.717 F200.000
G1 X47.748 Y26.910 Z9.717 F200.000
G1 X48.568 Y25.489 Z9.717 F200.000
G1 X48.327 Y25.247 Z9.717 F200.000
G1 X49.147 Y23.826 Z9.717 F200.000
G1 X49.389 Y24.068 Z9.717 F200.000
G1 X50.209 Y22.647 Z9.717 F200.000
G1 X49.968 Y22.405 Z9.717 F200.000
G1 X50.788 Y20.984 Z9.717 F200.000
G1 X51.030 Y21.225 Z9.717 F200.000
G1 X51.850 Y19.804 Z9.717 F200.000
G0 Z20.000
G0 X47.589 Y40.200 Z20.000
G0 X47.589 Y40.200 Z18.000
G1 X47.589 Y40.200 Z9.717 F500.000
G2 X46.628 Y40.830 Z9.717 I0.288 J1.487 K0.000 F200.000
G2 X46.639 Y39.250 Z9.717 I-6.079 J-0.831 K0.000 F200.000
G1 X47.589 Y40.200 Z9.717 F200.000
G1 X47.908 Y40.165 Z9.717 F200.000
G1 X49.795 Y40.165 Z9.717 F200.000
G1 X49.465 Y39.835 Z9.717 F200.000
G1 X51.707 Y39.835 Z9.717 F200.000
G1 X52.037 Y40.165 Z9.717 F200.000
G1 X54.278 Y40.165 Z9.717 F200.000
G1 X53.948 Y39.835 Z9.717 F200.000
G1 X56.190 Y39.835 Z9.717 F200.000
G1 X56.520 Y40.165 Z9.717 F200.000
G1 X58.761 Y40.165 Z9.717 F200.000
G1 X58.431 Y39.835 Z9.717 F200.000
G1 X60.673 Y39.835 Z9.717 F200.000
G1 X61.003 Y40.165 Z9.717 F200.000
G1 X63.244 Y40.165 Z9.717 F200.000
G1 X62.914 Y39.835 Z9.717 F200.000
G1 X63.415 Y39.835 Z9.717 F200.000
G1 X63.415 Y40.165 Z9.717 F200.000
G1 X63.244 Y40.165 Z9.717 F200.000
G0 Z20.000
G0 X43.869 Y45.446 Z20.000
G0 X43.869 Y45.446 Z18.000
G1 X43.869 Y45.446 Z9.717 F500.000
G2 X44.028 Y45.334 Z9.717 I-1.007 J-1.604 K0.000 F200.000
G2 X43.955 Y45.533 Z9.717 I0.412 J0.264 K0.000 F200.000
G1 X43.869 Y45.446 Z9.717 F200.000
G3 X42.605 Y46.156 Z9.717 I-3.851 J-5.377 K0.000 F200.000
G3 X43.811 Y46.932 Z9.717 I-0.141 J1.545 K0.000 F200.000
G1 X44.765 Y48.584 Z9.717 F200.000
G1 X45.667 Y49.486 Z9.717 F200.000
G1 X48.729 Y54.789 Z9.717 F200.000
G1 X47.827 Y53.887 Z9.717 F200.000
G1 X50.889 Y59.191 Z9.717 F200.000
G1 X51.564 Y60.360 Z9.717 F200.000
G1 X51.850 Y60.195 Z9.717 F200.000
G1 X51.791 Y60.093 Z9.717 F200.000
G1 X50.889 Y59.191 Z9.717 F200.000
G1 X50.889 Y59.191 Z9.188 F500.000
G1 X51.791 Y60.093 Z9.188 F200.000
G1 X51.850 Y60.195 Z9.188 F200.000
G1 X51.564 Y60.360 Z9.188 F200.000
G1 X50.889 Y59.191 Z9.188 F200.000
G1 X47.827 Y53.887 Z9.188 F200.000
G1 X48.729 Y54.789 Z9.188 F200.000
G1 X45.667 Y49.486 Z9.188 F200.000
G1 X44.765 Y48.584 Z9.188 F200.000
G1 X43.811 Y46.932 Z9.188 F200.000
G2 X42.605 Y46.156 Z9.188 I-1.347 J0.769 K0.000 F200.000
G2 X43.869 Y45.446 Z9.188 I-2.587 J-6.087 K0.000 F200.000
G1 X43.955 Y45.533 Z9.188 F200.000
G3 X44.028 Y45.334 Z9.188 I0.485 J0.065 K0.000 F200.000
G3 X43.869 Y45.446 Z9.188 I-1.167 J-1.492 K0.000 F200.000
G0 Z20.000
G0 X47.589 Y40.200 Z20.000
G0 X47.589 Y40.200 Z18.000
G1 X47.589 Y40.200 Z9.188 F500.000
G2 X46.628 Y40.830 Z9.188 I0.288 J1.487 K0.000 F200.000
G2 X46.639 Y39.250 Z9.188 I-6.079 J-0.831 K0.000 F200.000
G1 X47.589 Y40.200 Z9.188 F200.000
G1 X47.908 Y40.165 Z9.188 F200.000
G1 X49.795 Y40.165 Z9.188 F200.000
G1 X49.465 Y39.835 Z9.188 F200.000
G1 X51.707 Y39.835 Z9.188 F200.000
G1 X52.037 Y40.165 Z9.188 F200.000
G1 X54.278 Y40.165 Z9.188 F200.000
G1 X53.948 Y39.835 Z9.188 F200.000
G1 X56.190 Y39.835 Z9.188 F200.000
G1 X56.520 Y40.165 Z9.188 F200.000
G1 X58.761 Y40.165 Z9.188 F200.000
G1 X58.431 Y39.835 Z9.188 F200.000
G1 X60.673 Y39.835 Z9.188 F200.000
G1 X61.003 Y40.165 Z9.188 F200.000
G1 X63.244 Y40.165 Z9.188 F200.000
G1 X62.914 Y39.835 Z9.188 F200.000
G1 X63.415 Y39.835 Z9.188 F200.000
G1 X63.415 Y40.165 Z9.188 F200.000
G1 X63.244 Y40.165 Z9.188 F200.000
G0 Z20.000
G0 X43.255 Y33.625 Z20.000
G0 X43.255 Y33.625 Z18.000
G1 X43.255 Y33.625 Z9.188 F500.000
G1 X43.909 Y34.279 Z9.188 F200.000
G2 X44.028 Y34.666 Z9.188 I0.932 J-0.075 K0.000 F200.000
G2 X42.605 Y33.844 Z9.188 I-3.997 J5.278 K0.000 F200.000
G2 X43.255 Y33.625 Z9.188 I-0.070 J-1.283 K0.000 F200.000
G2 X43.607 Y33.347 Z9.188 I-0.451 J-0.932 K0.000 F200.000
G2 X44.224 Y32.352 Z9.188 I-4.229 J-3.315 K0.000 F200.000
G1 X44.466 Y32.594 Z9.188 F200.000
G1 X45.286 Y31.173 Z9.188 F200.000
G1 X45.045 Y30.931 Z9.188 F200.000
G1 X45.865 Y29.510 Z9.188 F200.000
G1 X46.107 Y29.752 Z9.188 F200.000
G1 X46.927 Y28.331 Z9.188 F200.000
G1 X46.686 Y28.089 Z9.188 F200.000
G1 X47.506 Y26.668 Z9.188 F200.000
G1 X47.748 Y26.910 Z9.188 F200.000
G1 X48.568 Y25.489 Z9.188 F200.000
G1 X48.327 Y25.247 Z9.188 F200.000
G1 X49.147 Y23.826 Z9.188 F200.000
G1 X49.389 Y24.068 Z9.188 F200.000
G1 X50.209 Y22.647 Z9.188 F200.000
G1 X49.968 Y22.405 Z9.188 F200.000
G1 X50.788 Y20.984 Z9.188 F200.000
G1 X51.030 Y21.225 Z9.188 F200.000
G1 X51.850 Y19.804 Z9.188 F200.000
G0 Z20.000
G0 X36.961 Y34.055 Z20.000
G0 X36.961 Y34.055 Z18.000
G1 X36.961 Y34.055 Z9.188 F500.000
G2 X35.971 Y34.666 Z9.188 I2.328 J4.880 K0.000 F200.000
G2 X36.041 Y33.549 Z9.188 I-1.365 J-0.647 K0.000 F200.000
G2 X35.579 Y32.673 Z9.188 I-4.229 J1.672 K0.000 F200.000
G1 X36.961 Y34.055 Z9.188 F200.000
G3 X37.395 Y33.844 Z9.188 I2.092 J3.747 K0.000 F200.000
G3 X36.188 Y33.068 Z9.188 I0.126 J-1.522 K0.000 F200.000
G1 X33.419 Y28.271 Z9.188 F200.000
G1 X32.517 Y27.370 Z9.188 F200.000
G1 X29.455 Y22.066 Z9.188 F200.000
G1 X30.357 Y22.968 Z9.188 F200.000
G1 X28.435 Y19.639 Z9.188 F200.000
G1 X28.149 Y19.804 Z9.188 F200.000
G1 X29.455 Y22.066 Z9.188 F200.000
G0 Z20.000
G0 X33.256 Y39.316 Z20.000
G0 X33.256 Y39.316 Z18.000
G1 X33.256 Y39.316 Z9.188 F500.000
G2 X33.366 Y39.178 Z9.188 I-0.257 J-0.318 K0.000 F200.000
G2 X33.347 Y39.407 Z9.188 I2.144 J0.296 K0.000 F200.000
G1 X33.256 Y39.316 Z9.188 F200.000
G3 X32.091 Y39.835 Z9.188 I-1.157 J-1.030 K0.000 F200.000
G1 X31.533 Y39.835 Z9.188 F200.000
G1 X31.863 Y40.165 Z9.188 F200.000
G1 X29.621 Y40.165 Z9.188 F200.000
G1 X29.291 Y39.835 Z9.188 F200.000
G1 X27.050 Y39.835 Z9.188 F200.000
G1 X27.380 Y40.165 Z9.188 F200.000
G1 X25.138 Y40.165 Z9.188 F200.000
G1 X24.808 Y39.835 Z9.188 F200.000
G1 X22.567 Y39.835 Z9.188 F200.000
G1 X22.897 Y40.165 Z9.188 F200.000
G1 X20.655 Y40.165 Z9.188 F200.000
G1 X20.325 Y39.835 Z9.188 F200.000
G1 X18.084 Y39.835 Z9.188 F200.000
G1 X16.585 Y39.835 Z9.188 F200.000
G1 X16.585 Y40.165 Z9.188 F200.000
G1 X18.414 Y40.165 Z9.188 F200.000
G1 X18.084 Y39.835 Z9.188 F200.000
G0 Z20.000
G0 X36.000 Y46.544 Z20.000
G0 X36.000 Y46.544 Z18.000
G1 X36.000 Y46.544 Z9.188 F500.000
G2 X35.971 Y45.334 Z9.188 I-1.365 J-0.572 K0.000 F200.000
G2 X37.394 Y46.156 Z9.188 I3.997 J-5.278 K0.000 F200.000
G2 X36.273 Y46.816 Z9.188 I0.120 J1.486 K0.000 F200.000
G1 X36.000 Y46.544 Z9.188 F200.000
G1 X35.902 Y46.767 Z9.188 F200.000
G1 X35.199 Y47.984 Z9.188 F200.000
G1 X35.441 Y48.226 Z9.188 F200.000
G1 X34.620 Y49.647 Z9.188 F200.000
G1 X34.379 Y49.405 Z9.188 F200.000
G1 X33.558 Y50.826 Z9.188 F200.000
G1 X33.800 Y51.068 Z9.188 F200.000
G1 X32.980 Y52.489 Z9.188 F200.000
G1 X32.738 Y52.248 Z9.188 F200.000
G1 X31.917 Y53.669 Z9.188 F200.000
G1 X32.159 Y53.910 Z9.188 F200.000
G1 X31.339 Y55.331 Z9.188 F200.000
G1 X31.097 Y55.090 Z9.188 F200.000
G1 X30.277 Y56.511 Z9.188 F200.000
G1 X30.518 Y56.752 Z9.188 F200.000
G1 X29.698 Y58.173 Z9.188 F200.000
G1 X29.456 Y57.932 Z9.188 F200.000
G1 X28.636 Y59.353 Z9.188 F200.000
G1 X28.149 Y60.195 Z9.188 F200.000
G1 X28.435 Y60.360 Z9.188 F200.000
G1 X28.877 Y59.594 Z9.188 F200.000
G1 X28.636 Y59.353 Z9.188 F200.000
G1 X28.636 Y59.353 Z8.660 F500.000
G1 X28.877 Y59.594 Z8.660 F200.000
G1 X28.435 Y60.360 Z8.660 F200.000
G1 X28.149 Y60.195 Z8.660 F200.000
G1 X28.636 Y59.353 Z8.660 F200.000
G1 X29.456 Y57.932 Z8.660 F200.000
G1 X29.698 Y58.173 Z8.660 F200.000
G1 X30.518 Y56.752 Z8.660 F200.000
G1 X30.277 Y56.511 Z8.660 F200.000
G1 X31.097 Y55.090 Z8.660 F200.000
G1 X31.339 Y55.331 Z8.660 F200.000
G1 X32.159 Y53.910 Z8.660 F200.000
G1 X31.917 Y53.669 Z8.660 F200.000
G1 X32.738 Y52.248 Z8.660 F200.000
G1 X32.980 Y52.489 Z8.660 F200.000
G1 X33.800 Y51.068 Z8.660 F200.000
G1 X33.558 Y50.826 Z8.660 F200.000
G1 X34.379 Y49.405 Z8.660 F200.000
G1 X34.620 Y49.647 Z8.660 F200.000
G1 X35.441 Y48.226 Z8.660 F200.000
G1 X35.199 Y47.984 Z8.660 F200.000
G1 X35.902 Y46.767 Z8.660 F200.000
G1 X36.000 Y46.544 Z8.660 F200.000
G1 X36.273 Y46.816 Z8.660 F200.000
G3 X37.394 Y46.156 Z8.660 I1.241 J0.825 K0.000 F200.000
G3 X35.971 Y45.334 Z8.660 I2.573 J-6.100 K0.000 F200.000
G3 X36.000 Y46.544 Z8.660 I-1.335 J0.638 K0.000 F200.000
G0 Z20.000
G0 X33.256 Y39.316 Z20.000
G0 X33.256 Y39.316 Z18.000
G1 X33.256 Y39.316 Z8.660 F500.000
G2 X33.366 Y39.178 Z8.660 I-0.257 J-0.318 K0.000 F200.000
G2 X33.347 Y39.407 Z8.660 I2.144 J0.296 K0.000 F200.000
G1 X33.256 Y39.316 Z8.660 F200.000
G3 X32.091 Y39.835 Z8.660 I-1.157 J-1.030 K0.000 F200.000
G1 X31.533 Y39.835 Z8.660 F200.000
G1 X31.863 Y40.165 Z8.660 F200.000
G1 X29.621 Y40.165 Z8.660 F200.000
G1 X29.291 Y39.835 Z8.660 F200.000
G1 X27.050 Y39.835 Z8.660 F200.000
G1 X27.380 Y40.165 Z8.660 F200.000
G1 X25.138 Y40.165 Z8.660 F200.000
G1 X24.808 Y39.835 Z8.660 F200.000
G1 X22.567 Y39.835 Z8.660 F200.000
G1 X22.897 Y40.165 Z8.660 F200.000
G1 X20.655 Y40.165 Z8.660 F200.000
G1 X20.325 Y39.835 Z8.660 F200.000
G1 X18.084 Y39.835 Z8.660 F200.000
G1 X16.585 Y39.835 Z8.660 F200.000
G1 X16.585 Y40.165 Z8.660 F200.000
G1 X18.414 Y40.165 Z8.660 F200.000
G1 X18.084 Y39.835 Z8.660 F200.000
G0 Z20.000
G0 X36.961 Y34.055 Z20.000
G0 X36.961 Y34.055 Z18.000
G1 X36.961 Y34.055 Z8.660 F500.000
G2 X35.971 Y34.666 Z8.660 I2.328 J4.880 K0.000 F200.000
G2 X36.041 Y33.549 Z8.660 I-1.365 J-0.647 K0.000 F200.000
G2 X35.579 Y32.673 Z8.660 I-4.229 J1.672 K0.000 F200.000
G1 X36.961 Y34.055 Z8.660 F200.000
G3 X37.395 Y33.844 Z8.660 I2.092 J3.747 K0.000 F200.000
G3 X36.188 Y33.068 Z8.660 I0.126 J-1.522 K0.000 F200.000
G1 X33.419 Y28.271 Z8.660 F200.000
G1 X32.517 Y27.370 Z8.660 F200.000
G1 X29.455 Y22.066 Z8.660 F200.000
G1 X30.357 Y22.968 Z8.660 F200.000
G1 X28.435 Y19.639 Z8.660 F200.000
G1 X28.149 Y19.804 Z8.660 F200.000
G1 X29.455 Y22.066 Z8.660 F200.000
G0 Z20.000
G0 X43.255 Y33.625 Z20.000
G0 X43.255 Y33.625 Z18.000
G1 X43.255 Y33.625 Z8.660 F500.000
G1 X43.909 Y34.279 Z8.660 F200.000
G2 X44.028 Y34.666 Z8.660 I0.932 J-0.075 K0.000 F200.000
G2 X42.605 Y33.844 Z8.660 I-3.997 J5.278 K0.000 F200.000
G2 X43.255 Y33.625 Z8.660 I-0.070 J-1.283 K0.000 F200.000
G2 X43.607 Y33.347 Z8.660 I-0.451 J-0.932 K0.000 F200.000
G2 X44.224 Y32.352 Z8.660 I-4.229 J-3.315 K0.000 F200.000
G1 X44.466 Y32.594 Z8.660 F200.000
G1 X45.286 Y31.173 Z8.660 F200.000
G1 X45.045 Y30.931 Z8.660 F200.000
G1 X45.865 Y29.510 Z8.660 F200.000
G1 X46.107 Y29.752 Z8.660 F200.000
G1 X46.927 Y28.331 Z8.660 F200.000
G1 X46.686 Y28.089 Z8.660 F200.000
G1 X47.506 Y26.668 Z8.660 F200.000
G1 X47.748 Y26.910 Z8.660 F200.000
G1 X48.568 Y25.489 Z8.660 F200.000
G1 X48.327 Y25.247 Z8.660 F200.000
G1 X49.147 Y23.826 Z8.660 F200.000
G1 X49.389 Y24.068 Z8.660 F200.000
G1 X50.209 Y22.647 Z8.660 F200.000
G1 X49.968 Y22.405 Z8.660 F200.000
G1 X50.788 Y20.984 Z8.660 F200.000
G1 X51.030 Y21.225 Z8.660 F200.000
G1 X51.850 Y19.804 Z8.660 F200.000
G0 Z20.000
G0 X47.589 Y40.200 Z20.000
G0 X47.589 Y40.200 Z18.000
G1 X47.589 Y40.200 Z8.660 F500.000
G2 X46.628 Y40.830 Z8.660 I0.288 J1.487 K0.000 F200.000
G2 X46.639 Y39.250 Z8.660 I-6.079 J-0.831 K0.000 F200.000
G1 X47.589 Y40.200 Z8.660 F200.000
G1 X47.908 Y40.165 Z8.660 F200.000
G1 X49.795 Y40.165 Z8.660 F200.000
G1 X49.465 Y39.835 Z8.660 F200.000
G1 X51.707 Y39.835 Z8.660 F200.000
G1 X52.037 Y40.165 Z8.660 F200.000
G1 X54.278 Y40.165 Z8.660 F200.000
G1 X53.948 Y39.835 Z8.660 F200.000
G1 X56.190 Y39.835 Z8.660 F200.000
G1 X56.520 Y40.165 Z8.660 F200.000
G1 X58.761 Y40.165 Z8.660 F200.000
G1 X58.431 Y39.835 Z8.660 F200.000
G1 X60.673 Y39.835 Z8.660 F200.000
G1 X61.003 Y40.165 Z8.660 F200.000
G1 X63.244 Y40.165 Z8.660 F200.000
G1 X62.914 Y39.835 Z8.660 F200.000
G1 X63.415 Y39.835 Z8.660 F200.000
G1 X63.415 Y40.165 Z8.660 F200.000
G1 X63.244 Y40.165 Z8.660 F200.000
G0 Z20.000
G0 X43.869 Y45.446 Z20.000
G0 X43.869 Y45.446 Z18.000
G1 X43.869 Y45.446 Z8.660 F500.000
G2 X44.028 Y45.334 Z8.660 I-1.007 J-1.604 K0.000 F200.000
G2 X43.955 Y45.533 Z8.660 I0.412 J0.264 K0.000 F200.000
G1 X43.869 Y45.446 Z8.660 F200.000
G3 X42.605 Y46.156 Z8.660 I-3.851 J-5.377 K0.000 F200.000
G3 X43.811 Y46.932 Z8.660 I-0.141 J1.545 K0.000 F200.000
G1 X44.765 Y48.584 Z8.660 F200.000
G1 X45.667 Y49.486 Z8.660 F200.000
G1 X48.729 Y54.789 Z8.660 F200.000
G1 X47.827 Y53.887 Z8.660 F200.000
G1 X50.889 Y59.191 Z8.660 F200.000
G1 X51.564 Y60.360 Z8.660 F200.000
G1 X51.850 Y60.195 Z8.660 F200.000
G1 X51.791 Y60.093 Z8.660 F200.000
G1 X50.889 Y59.191 Z8.660 F200.000
G1 X50.889 Y59.191 Z8.132 F500.000
G1 X51.791 Y60.093 Z8.132 F200.000
G1 X51.850 Y60.195 Z8.132 F200.000
G1 X51.564 Y60.360 Z8.132 F200.000
G1 X50.889 Y59.191 Z8.132 F200.000
G1 X47.827 Y53.887 Z8.132 F200.000
G1 X48.729 Y54.789 Z8.132 F200.000
G1 X45.667 Y49.486 Z8.132 F200.000
G1 X44.765 Y48.584 Z8.132 F200.000
G1 X43.811 Y46.932 Z8.132 F200.000
G2 X42.605 Y46.156 Z8.132 I-1.347 J0.769 K0.000 F200.000
G2 X43.869 Y45.446 Z8.132 I-2.587 J-6.087 K0.000 F200.000
G1 X43.955 Y45.533 Z8.132 F200.000
G3 X44.028 Y45.334 Z8.132 I0.485 J0.065 K0.000 F200.000
G3 X43.869 Y45.446 Z8.132 I-1.167 J-1.492 K0.000 F200.000
G0 Z20.000
G0 X47.589 Y40.200 Z20.000
G0 X47.589 Y40.200 Z18.000
G1 X47.589 Y40.200 Z8.132 F500.000
G2 X46.628 Y40.830 Z8.132 I0.288 J1.487 K0.000 F200.000
G2 X46.639 Y39.250 Z8.132 I-6.079 J-0.831 K0.000 F200.000
G1 X47.589 Y40.200 Z8.132 F200.000
G1 X47.908 Y40.165 Z8.132 F200.000
G1 X49.795 Y40.165 Z8.132 F200.000
G1 X49.465 Y39.835 Z8.132 F200.000
G1 X51.707 Y39.835 Z8.132 F200.000
G1 X52.037 Y40.165 Z8.132 F200.000
G1 X54.278 Y40.165 Z8.132 F200.000
G1 X53.948 Y39.835 Z8.132 F200.000
G1 X56.190 Y39.835 Z8.132 F200.000
G1 X56.520 Y40.165 Z8.132 F200.000
G1 X58.761 Y40.165 Z8.132 F200.000
G1 X58.431 Y39.835 Z8.132 F200.000
G1 X60.673 Y39.835 Z8.132 F200.000
G1 X61.003 Y40.165 Z8.132 F200.000
G1 X63.244 Y40.165 Z8.132 F200.000
G1 X62.914 Y39.835 Z8.132 F200.000
G1 X63.415 Y39.835 Z8.132 F200.000
G1 X63.415 Y40.165 Z8.132 F200.000
G1 X63.244 Y40.165 Z8.132 F200.000
G0 Z20.000
G0 X43.255 Y33.625 Z20.000
G0 X43.255 Y33.625 Z18.000
G1 X43.255 Y33.625 Z8.132 F500.000
G1 X43.909 Y34.279 Z8.132 F200.000
G2 X44.028 Y34.666 Z8.132 I0.932 J-0.075 K0.000 F200.000
G2 X42.605 Y33.844 Z8.132 I-3.997 J5.278 K0.000 F200.000
G2 X43.255 Y33.625 Z8.132 I-0.070 J-1.283 K0.000 F200.000
G2 X43.607 Y33.347 Z8.132 I-0.451 J-0.932 K0.000 F200.000
G2 X44.224 Y32.352 Z8.132 I-4.229 J-3.315 K0.000 F200.000
G1 X44.466 Y32.594 Z8.132 F200.000
G1 X45.286 Y31.173 Z8.132 F200.000
G1 X45.045 Y30.931 Z8.132 F200.000
G1 X45.865 Y29.510 Z8.132 F200.000
G1 X46.107 Y29.752 Z8.132 F200.000
G1 X46.927 Y28.331 Z8.132 F200.000
G1 X46.686 Y28.089 Z8.132 F200.000
G1 X47.506 Y26.668 Z8.132 F200.000
G1 X47.748 Y26.910 Z8.132 F200.000
G1 X48.568 Y25.489 Z8.132 F200.000
G1 X48.327 Y25.247 Z8.132 F200.000
G1 X49.147 Y23.826 Z8.132 F200.000
G1 X49.389 Y24.068 Z8.132 F200.000
G1 X50.209 Y22.647 Z8.132 F200.000
G1 X49.968 Y22.405 Z8.132 F200.000
G1 X50.788 Y20.984 Z8.132 F200.000
G1 X51.030 Y21.225 Z8.132 F200.000
G1 X51.850 Y19.804 Z8.132 F200.000
G0 Z20.000
G0 X36.961 Y34.055 Z20.000
G0 X36.961 Y34.055 Z18.000
G1 X36.961 Y34.055 Z8.132 F500.000
G2 X35.971 Y34.666 Z8.132 I2.328 J4.880 K0.000 F200.000
G2 X36.041 Y33.549 Z8.132 I-1.365 J-0.647 K0.000 F200.000
G2 X35.579 Y32.673 Z8.132 I-4.229 J1.672 K0.000 F200.000
G1 X36.961 Y34.055 Z8.132 F200.000
G3 X37.395 Y33.844 Z8.132 I2.092 J3.747 K0.000 F200.000
G3 X36.188 Y33.068 Z8.132 I0.126 J-1.522 K0.000 F200.000
G1 X33.419 Y28.271 Z8.132 F200.000
G1 X32.517 Y27.370 Z8.132 F200.000
G1 X29.455 Y22.066 Z8.132 F200.000
G1 X30.357 Y22.968 Z8.132 F200.000
G1 X28.435 Y19.639 Z8.132 F200.000
G1 X28.149 Y19.804 Z8.132 F200.000
G1 X29.455 Y22.066 Z8.132 F200.000
G0 Z20.000
G0 X33.256 Y39.316 Z20.000
G0 X33.256 Y39.316 Z18.000
G1 X33.256 Y39.316 Z8.132 F500.000
G2 X33.366 Y39.178 Z8.132 I-0.257 J-0.318 K0.000 F200.000
G2 X33.347 Y39.407 Z8.132 I2.144 J0.296 K0.000 F200.000
G1 X33.256 Y39.316 Z8.132 F200.000
G3 X32.091 Y39.835 Z8.132 I-1.157 J-1.030 K0.000 F200.000
G1 X31.533 Y39.835 Z8.132 F200.000
G1 X31.863 Y40.165 Z8.132 F200.000
G1 X29.621 Y40.165 Z8.132 F200.000
G1 X29.291 Y39.835 Z8.132 F200.000
G1 X27.050 Y39.835 Z8.132 F200.000
G1 X27.380 Y40.165 Z8.132 F200.000
G1 X25.138 Y40.165 Z8.132 F200.000
G1 X24.808 Y39.835 Z8.132 F200.000
G1 X22.567 Y39.835 Z8.132 F200.000
G1 X22.897 Y40.165 Z8.132 F200.000
G1 X20.655 Y40.165 Z8.132 F200.000
G1 X20.325 Y39.835 Z8.132 F200.000
G1 X18.084 Y39.835 Z8.132 F200.000
G1 X16.585 Y39.835 Z8.132 F200.000
G1 X16.585 Y40.165 Z8.132 F200.000
G1 X18.414 Y40.165 Z8.132 F200.000
G1 X18.084 Y39.835 Z8.132 F200.000
G0 Z20.000
G0 X36.000 Y46.544 Z20.000
G0 X36.000 Y46.544 Z18.000
G1 X36.000 Y46.544 Z8.132 F500.000
G2 X35.971 Y45.334 Z8.132 I-1.365 J-0.572 K0.000 F200.000
G2 X37.394 Y46.156 Z8.132 I3.997 J-5.278 K0.000 F200.000
G2 X36.273 Y46.816 Z8.132 I0.120 J1.486 K0.000 F200.000
G1 X36.000 Y46.544 Z8.132 F200.000
G1 X35.902 Y46.767 Z8.132 F200.000
G1 X35.199 Y47.984 Z8.132 F200.000
G1 X35.441 Y48.226 Z8.132 F200.000
G1 X34.620 Y49.647 Z8.132 F200.000
G1 X34.379 Y49.405 Z8.132 F200.000
G1 X33.558 Y50.826 Z8.132 F200.000
G1 X33.800 Y51.068 Z8.132 F200.000
G1 X32.980 Y52.489 Z8.132 F200.000
G1 X32.738 Y52.248 Z8.132 F200.000
G1 X31.917 Y53.669 Z8.132 F200.000
G1 X32.159 Y53.910 Z8.132 F200.000
G1 X31.339 Y55.331 Z8.132 F200.000
G1 X31.097 Y55.090 Z8.132 F200.000
G1 X30.277 Y56.511 Z8.132 F200.000
G1 X30.518 Y56.752 Z8.132 F200.000
G1 X29.698 Y58.173 Z8.132 F200.000
G1 X29.456 Y57.932 Z8.132 F200.000
G1 X28.636 Y59.353 Z8.132 F200.000
G1 X28.149 Y60.195 Z8.132 F200.000
G1 X28.435 Y60.360 Z8.132 F200.000
G1 X28.877 Y59.594 Z8.132 F200.000
G1 X28.636 Y59.353 Z8.132 F200.000
G1 X28.636 Y59.353 Z7.603 F500.000
G1 X28.877 Y59.594 Z7.603 F200.000
G1 X28.435 Y60.360 Z7.603 F200.000
G1 X28.149 Y60.195 Z7.603 F200.000
G1 X28.636 Y59.353 Z7.603 F200.000
G1 X29.456 Y57.932 Z7.603 F200.000
G1 X29.698 Y58.173 Z7.603 F200.000
G1 X30.518 Y56.752 Z7.603 F200.000
G1 X30.277 Y56.511 Z7.603 F200.000
G1 X31.097 Y55.090 Z7.603 F200.000
G1 X31.339 Y55.331 Z7.603 F200.000
G1 X32.159 Y53.910 Z7.603 F200.000
G1 X31.917 Y53.669 Z7.603 F200.000
G1 X32.738 Y52.248 Z7.603 F200.000
G1 X32.980 Y52.489 Z7.603 F200.000
G1 X33.800 Y51.068 Z7.603 F200.000
G1 X33.558 Y50.826 Z7.603 F200.000
G1 X34.379 Y49.405 Z7.603 F200.000
G1 X34.620 Y49.647 Z7.603 F200.000
G1 X35.441 Y48.226 Z7.603 F200.000
G1 X35.199 Y47.984 Z7.603 F200.000
G1 X35.902 Y46.767 Z7.603 F200.000
G1 X36.000 Y46.544 Z7.603 F200.000
G1 X36.273 Y46.816 Z7.603 F200.000
G3 X37.394 Y46.156 Z7.603 I1.241 J0.825 K0.000 F200.000
G3 X35.971 Y45.334 Z7.603 I2.573 J-6.100 K0.000 F200.000
G3 X36.000 Y46.544 Z7.603 I-1.335 J0.638 K0.000 F200.000
G0 Z20.000
G0 X33.256 Y39.316 Z20.000
G0 X33.256 Y39.316 Z18.000
G1 X33.256 Y39.316 Z7.603 F500.000
G2 X33.366 Y39.178 Z7.603 I-0.257 J-0.318 K0.000 F200.000
G2 X33.347 Y39.407 Z7.603 I2.144 J0.296 K0.000 F200.000
G1 X33.256 Y39.316 Z7.603 F200.000
G3 X32.091 Y39.835 Z7.603 I-1.157 J-1.030 K0.000 F200.000
G1 X31.533 Y39.835 Z7.603 F200.000
G1 X31.863 Y40.165 Z7.603 F200.000
G1 X29.621 Y40.165 Z7.603 F200.000
G1 X29.291 Y39.835 Z7.603 F200.000
G1 X27.050 Y39.835 Z7.603 F200.000
G1 X27.380 Y40.165 Z7.603 F200.000
G1 X25.138 Y40.165 Z7.603 F200.000
G1 X24.808 Y39.835 Z7.603 F200.000
G1 X22.567 Y39.835 Z7.603 F200.000
G1 X22.897 Y40.165 Z7.603 F200.000
G1 X20.655 Y40.165 Z7.603 F200.000
G1 X20.325 Y39.835 Z7.603 F200.000
G1 X18.084 Y39.835 Z7.603 F200.000
G1 X16.585 Y39.835 Z7.603 F200.000
G1 X16.585 Y40.165 Z7.603 F200.000
G1 X18.414 Y40.165 Z7.603 F200.000
G1 X18.084 Y39.835 Z7.603 F200.000
G0 Z20.000
G0 X36.961 Y34.055 Z20.000
G0 X36.961 Y34.055 Z18.000
G1 X36.961 Y34.055 Z7.603 F500.000
G2 X35.971 Y34.666 Z7.603 I2.328 J4.880 K0.000 F200.000
G2 X36.041 Y33.549 Z7.603 I-1.365 J-0.647 K0.000 F200.000
G2 X35.579 Y32.673 Z7.603 I-4.229 J1.672 K0.000 F200.000
G1 X36.961 Y34.055 Z7.603 F200.000
G3 X37.395 Y33.844 Z7.603 I2.092 J3.747 K0.000 F200.000
G3 X36.188 Y33.068 Z7.603 I0.126 J-1.522 K0.000 F200.000
G1 X33.419 Y28.271 Z7.603 F200.000
G1 X32.517 Y27.370 Z7.603 F200.000
G1 X29.455 Y22.066 Z7.603 F200.000
G1 X30.357 Y22.968 Z7.603 F200.000
G1 X28.435 Y19.639 Z7.603 F200.000
G1 X28.149 Y19.804 Z7.603 F200.000
G1 X29.455 Y22.066 Z7.603 F200.000
G0 Z20.000
G0 X43.255 Y33.625 Z20.000
G0 X43.255 Y33.625 Z18.000
G1 X43.255 Y33.625 Z7.603 F500.000
G1 X43.909 Y34.279 Z7.603 F200.000
G2 X44.028 Y34.666 Z7.603 I0.932 J-0.075 K0.000 F200.000
G2 X42.605 Y33.844 Z7.603 I-3.997 J5.278 K0.000 F200.000
G2 X43.255 Y33.625 Z7.603 I-0.070 J-1.283 K0.000 F200.000
G2 X43.607 Y33.347 Z7.603 I-0.451 J-0.932 K0.000 F200.000
G2 X44.224 Y32.352 Z7.603 I-4.229 J-3.315 K0.000 F200.000
G1 X44.466 Y32.594 Z7.603 F200.000
G1 X45.286 Y31.173 Z7.603 F200.000
G1 X45.045 Y30.931 Z7.603 F200.000
G1 X45.865 Y29.510 Z7.603 F200.000
G1 X46.107 Y29.752 Z7.603 F200.000
G1 X46.927 Y28.331 Z7.603 F200.000
G1 X46.686 Y28.089 Z7.603 F200.000
G1 X47.506 Y26.668 Z7.603 F200.000
G1 X47.748 Y26.910 Z7.603 F200.000
G1 X48.568 Y25.489 Z7.603 F200.000
G1 X48.327 Y25.247 Z7.603 F200.000
G1 X49.147 Y23.826 Z7.603 F200.000
G1 X49.389 Y24.068 Z7.603 F200.000
G1 X50.209 Y22.647 Z7.603 F200.000
G1 X49.968 Y22.405 Z7.603 F200.000
G1 X50.788 Y20.984 Z7.603 F200.000
G1 X51.030 Y21.225 Z7.603 F200.000
G1 X51.850 Y19.804 Z7.603 F200.000
G0 Z20.000
G0 X47.589 Y40.200 Z20.000
G0 X47.589 Y40.200 Z18.000
G1 X47.589 Y40.200 Z7.603 F500.000
G2 X46.628 Y40.830 Z7.603 I0.288 J1.487 K0.000 F200.000
G2 X46.639 Y39.250 Z7.603 I-6.079 J-0.831 K0.000 F200.000
G1 X47.589 Y40.200 Z7.603 F200.000
G1 X47.908 Y40.165 Z7.603 F200.000
G1 X49.795 Y40.165 Z7.603 F200.000
G1 X49.465 Y39.835 Z7.603 F200.000
G1 X51.707 Y39.835 Z7.603 F200.000
G1 X52.037 Y40.165 Z7.603 F200.000
G1 X54.278 Y40.165 Z7.603 F200.000
G1 X53.948 Y39.835 Z7.603 F200.000
G1 X56.190 Y39.835 Z7.603 F200.000
G1 X56.520 Y40.165 Z7.603 F200.000
G1 X58.761 Y40.165 Z7.603 F200.000
G1 X58.431 Y39.835 Z7.603 F200.000
G1 X60.673 Y39.835 Z7.603 F200.000
G1 X61.003 Y40.165 Z7.603 F200.000
G1 X63.244 Y40.165 Z7.603 F200.000
G1 X62.914 Y39.835 Z7.603 F200.000
G1 X63.415 Y39.835 Z7.603 F200.000
G1 X63.415 Y40.165 Z7.603 F200.000
G1 X63.244 Y40.165 Z7.603 F200.000
G0 Z20.000
G0 X43.869 Y45.446 Z20.000
G0 X43.869 Y45.446 Z18.000
G1 X43.869 Y45.446 Z7.603 F500.000
G2 X44.028 Y45.334 Z7.603 I-1.007 J-1.604 K0.000 F200.000
G2 X43.955 Y45.533 Z7.603 I0.412 J0.264 K0.000 F200.000
G1 X43.869 Y45.446 Z7.603 F200.000
G3 X42.605 Y46.156 Z7.603 I-3.851 J-5.377 K0.000 F200.000
G3 X43.811 Y46.932 Z7.603 I-0.141 J1.545 K0.000 F200.000
G1 X44.765 Y48.584 Z7.603 F200.000
G1 X45.667 Y49.486 Z7.603 F200.000
G1 X48.729 Y54.789 Z7.603 F200.000
G1 X47.827 Y53.887 Z7.603 F200.000
G1 X50.889 Y59.191 Z7.603 F200.000
G1 X51.564 Y60.360 Z7.603 F200.000
G1 X51.850 Y60.195 Z7.603 F200.000
G1 X51.791 Y60.093 Z7.603 F200.000
G1 X50.889 Y59.191 Z7.603 F200.000
G1 X50.889 Y59.191 Z7.075 F500.000
G1 X51.791 Y60.093 Z7.075 F200.000
G1 X51.850 Y60.195 Z7.075 F200.000
G1 X51.564 Y60.360 Z7.075 F200.000
G1 X50.889 Y59.191 Z7.075 F200.000
G1 X47.827 Y53.887 Z7.075 F200.000
G1 X48.729 Y54.789 Z7.075 F200.000
G1 X45.667 Y49.486 Z7.075 F200.000
G1 X44.765 Y48.584 Z7.075 F200.000
G1 X43.811 Y46.932 Z7.075 F200.000
G2 X42.605 Y46.156 Z7.075 I-1.347 J0.769 K0.000 F200.000
G2 X43.869 Y45.446 Z7.075 I-2.587 J-6.087 K0.000 F200.000
G1 X43.955 Y45.533 Z7.075 F200.000
G3 X44.028 Y45.334 Z7.075 I0.485 J0.065 K0.000 F200.000
G3 X43.869 Y45.446 Z7.075 I-1.167 J-1.492 K0.000 F200.000
G0 Z20.000
G0 X47.589 Y40.200 Z20.000
G0 X47.589 Y40.200 Z18.000
G1 X47.589 Y40.200 Z7.075 F500.000
G2 X46.628 Y40.830 Z7.075 I0.288 J1.487 K0.000 F200.000
G2 X46.639 Y39.250 Z7.075 I-6.079 J-0.831 K0.000 F200.000
G1 X47.589 Y40.200 Z7.075 F200.000
G1 X47.908 Y40.165 Z7.075 F200.000
G1 X49.795 Y40.165 Z7.075 F200.000
G1 X49.465 Y39.835 Z7.075 F200.000
G1 X51.707 Y39.835 Z7.075 F200.000
G1 X52.037 Y40.165 Z7.075 F200.000
G1 X54.278 Y40.165 Z7.075 F200.000
G1 X53.948 Y39.835 Z7.075 F200.000
G1 X56.190 Y39.835 Z7.075 F200.000
G1 X56.520 Y40.165 Z7.075 F200.000
G1 X58.761 Y40.165 Z7.075 F200.000
G1 X58.431 Y39.835 Z7.075 F200.000
G1 X60.673 Y39.835 Z7.075 F200.000
G1 X61.003 Y40.165 Z7.075 F200.000
G1 X63.244 Y40.165 Z7.075 F200.000
G1 X62.914 Y39.835 Z7.075 F200.000
G1 X63.415 Y39.835 Z7.075 F200.000
G1 X63.415 Y40.165 Z7.075 F200.000
G1 X63.244 Y40.165 Z7.075 F200.000
G0 Z20.000
G0 X43.255 Y33.625 Z20.000
G0 X43.255 Y33.625 Z18.000
G1 X43.255 Y33.625 Z7.075 F500.000
G1 X43.909 Y34.279 Z7.075 F200.000
G2 X44.028 Y34.666 Z7.075 I0.932 J-0.075 K0.000 F200.000
G2 X42.605 Y33.844 Z7.075 I-3.997 J5.278 K0.000 F200.000
G2 X43.255 Y33.625 Z7.075 I-0.070 J-1.283 K0.000 F200.000
G2 X43.607 Y33.347 Z7.075 I-0.451 J-0.932 K0.000 F200.000
G2 X44.224 Y32.352 Z7.075 I-4.229 J-3.315 K0.000 F200.000
G1 X44.466 Y32.594 Z7.075 F200.000
G1 X45.286 Y31.173 Z7.075 F200.000
G1 X45.045 Y30.931 Z7.075 F200.000
G1 X45.865 Y29.510 Z7.075 F200.000
G1 X46.107 Y29.752 Z7.075 F200.000
G1 X46.927 Y28.331 Z7.075 F200.000
G1 X46.686 Y28.089 Z7.075 F200.000
G1 X47.506 Y26.668 Z7.075 F200.000
G1 X47.748 Y26.910 Z7.075 F200.000
G1 X48.568 Y25.489 Z7.075 F200.000
G1 X48.327 Y25.247 Z7.075 F200.000
G1 X49.147 Y23.826 Z7.075 F200.000
G1 X49.389 Y24.068 Z7.075 F200.000
G1 X50.209 Y22.647 Z7.075 F200.000
G1 X49.968 Y22.405 Z7.075 F200.000
G1 X50.788 Y20.984 Z7.075 F200.000
G1 X51.030 Y21.225 Z7.075 F200.000
G1 X51.850 Y19.804 Z7.075 F200.000
G0 Z20.000
G0 X36.961 Y34.055 Z20.000
G0 X36.961 Y34.055 Z18.000
G1 X36.961 Y34.055 Z7.075 F500.000
G2 X35.971 Y34.666 Z7.075 I2.328 J4.880 K0.000 F200.000
G2 X36.041 Y33.549 Z7.075 I-1.365 J-0.647 K0.000 F200.000
G2 X35.579 Y32.673 Z7.075 I-4.229 J1.672 K0.000 F200.000
G1 X36.961 Y34.055 Z7.075 F200.000
G3 X37.395 Y33.844 Z7.075 I2.092 J3.747 K0.000 F200.000
G3 X36.188 Y33.068 Z7.075 I0.126 J-1.522 K0.000 F200.000
G1 X33.419 Y28.271 Z7.075 F200.000
G1 X32.517 Y27.370 Z7.075 F200.000
G1 X29.455 Y22.066 Z7.075 F200.000
G1 X30.357 Y22.968 Z7.075 F200.000
G1 X28.435 Y19.639 Z7.075 F200.000
G1 X28.149 Y19.804 Z7.075 F200.000
G1 X29.455 Y22.066 Z7.075 F200.000
G0 Z20.000
G0 X33.256 Y39.316 Z20.000
G0 X33.256 Y39.316 Z18.000
G1 X33.256 Y39.316 Z7.075 F500.000
G2 X33.366 Y39.178 Z7.075 I-0.257 J-0.318 K0.000 F200.000
G2 X33.347 Y39.407 Z7.075 I2.144 J0.296 K0.000 F200.000
G1 X33.256 Y39.316 Z7.075 F200.000
G3 X32.091 Y39.835 Z7.075 I-1.157 J-1.030 K0.000 F200.000
G1 X31.533 Y39.835 Z7.075 F200.000
G1 X31.863 Y40.165 Z7.075 F200.000
G1 X29.621 Y40.165 Z7.075 F200.000
G1 X29.291 Y39.835 Z7.075 F200.000
G1 X27.050 Y39.835 Z7.075 F200.000
G1 X27.380 Y40.165 Z7.075 F200.000
G1 X25.138 Y40.165 Z7.075 F200.000
G1 X24.808 Y39.835 Z7.075 F200.000
G1 X22.567 Y39.835 Z7.075 F200.000
G1 X22.897 Y40.165 Z7.075 F200.000
G1 X20.655 Y40.165 Z7.075 F200.000
G1 X20.325 Y39.835 Z7.075 F200.000
G1 X18.084 Y39.835 Z7.075 F200.000
G1 X16.585 Y39.835 Z7.075 F200.000
G1 X16.585 Y40.165 Z7.075 F200.000
G1 X18.414 Y40.165 Z7.075 F200.000
G1 X18.084 Y39.835 Z7.075 F200.000
G0 Z20.000
G0 X36.000 Y46.544 Z20.000
G0 X36.000 Y46.544 Z18.000
G1 X36.000 Y46.544 Z7.075 F500.000
G2 X35.971 Y45.334 Z7.075 I-1.365 J-0.572 K0.000 F200.000
G2 X37.394 Y46.156 Z7.075 I3.997 J-5.278 K0.000 F200.000
G2 X36.273 Y46.816 Z7.075 I0.120 J1.486 K0.000 F200.000
G1 X36.000 Y46.544 Z7.075 F200.000
G1 X35.902 Y46.767 Z7.075 F200.000
G1 X35.199 Y47.984 Z7.075 F200.000
G1 X35.441 Y48.226 Z7.075 F200.000
G1 X34.620 Y49.647 Z7.075 F200.000
G1 X34.379 Y49.405 Z7.075 F200.000
G1 X33.558 Y50.826 Z7.075 F200.000
G1 X33.800 Y51.068 Z7.075 F200.000
G1 X32.980 Y52.489 Z7.075 F200.000
G1 X32.738 Y52.248 Z7.075 F200.000
G1 X31.917 Y53.669 Z7.075 F200.000
G1 X32.159 Y53.910 Z7.075 F200.000
G1 X31.339 Y55.331 Z7.075 F200.000
G1 X31.097 Y55.090 Z7.075 F200.000
G1 X30.277 Y56.511 Z7.075 F200.000
G1 X30.518 Y56.752 Z7.075 F200.000
G1 X29.698 Y58.173 Z7.075 F200.000
G1 X29.456 Y57.932 Z7.075 F200.000
G1 X28.636 Y59.353 Z7.075 F200.000
G1 X28.149 Y60.195 Z7.075 F200.000
G1 X28.435 Y60.360 Z7.075 F200.000
G1 X28.877 Y59.594 Z7.075 F200.000
G1 X28.636 Y59.353 Z7.075 F200.000
G1 X28.636 Y59.353 Z6.547 F500.000
G1 X28.877 Y59.594 Z6.547 F200.000
G1 X28.435 Y60.360 Z6.547 F200.000
G1 X28.149 Y60.195 Z6.547 F200.000
G1 X28.636 Y59.353 Z6.547 F200.000
G1 X29.456 Y57.932 Z6.547 F200.000
G1 X29.698 Y58.173 Z6.547 F200.000
G1 X30.518 Y56.752 Z6.547 F200.000
G1 X30.277 Y56.511 Z6.547 F200.000
G1 X31.097 Y55.090 Z6.547 F200.000
G1 X31.339 Y55.331 Z6.547 F200.000
G1 X32.159 Y53.910 Z6.547 F200.000
G1 X31.917 Y53.669 Z6.547 F200.000
G1 X32.738 Y52.248 Z6.547 F200.000
G1 X32.980 Y52.489 Z6.547 F200.000
G1 X33.800 Y51.068 Z6.547 F200.000
G1 X33.558 Y50.826 Z6.547 F200.000
G1 X34.379 Y49.405 Z6.547 F200.000
G1 X34.620 Y49.647 Z6.547 F200.000
G1 X35.441 Y48.226 Z6.547 F200.000
G1 X35.199 Y47.984 Z6.547 F200.000
G1 X35.902 Y46.767 Z6.547 F200.000
G1 X36.000 Y46.544 Z6.547 F200.000
G1 X36.273 Y46.816 Z6.547 F200.000
G3 X37.394 Y46.156 Z6.547 I1.241 J0.825 K0.000 F200.000
G3 X35.971 Y45.334 Z6.547 I2.573 J-6.100 K0.000 F200.000
G3 X36.000 Y46.544 Z6.547 I-1.335 J0.638 K0.000 F200.000
G0 Z20.000
G0 X33.256 Y39.316 Z20.000
G0 X33.256 Y39.316 Z18.000
G1 X33.256 Y39.316 Z6.547 F500.000
G2 X33.366 Y39.178 Z6.547 I-0.257 J-0.318 K0.000 F200.000
G2 X33.347 Y39.407 Z6.547 I2.144 J0.296 K0.000 F200.000
G1 X33.256 Y39.316 Z6.547 F200.000
G3 X32.091 Y39.835 Z6.547 I-1.157 J-1.030 K0.000 F200.000
G1 X31.533 Y39.835 Z6.547 F200.000
G1 X31.863 Y40.165 Z6.547 F200.000
G1 X29.621 Y40.165 Z6.547 F200.000
G1 X29.291 Y39.835 Z6.547 F200.000
G1 X27.050 Y39.835 Z6.547 F200.000
G1 X27.380 Y40.165 Z6.547 F200.000
G1 X25.138 Y40.165 Z6.547 F200.000
G1 X24.808 Y39.835 Z6.547 F200.000
G1 X22.567 Y39.835 Z6.547 F200.000
G1 X22.897 Y40.165 Z6.547 F200.000
G1 X20.655 Y40.165 Z6.547 F200.000
G1 X20.325 Y39.835 Z6.547 F200.000
G1 X18.084 Y39.835 Z6.547 F200.000
G1 X16.585 Y39.835 Z6.547 F200.000
G1 X16.585 Y40.165 Z6.547 F200.000
G1 X18.414 Y40.165 Z6.547 F200.000
G1 X18.084 Y39.835 Z6.547 F200.000
G0 Z20.000
G0 X36.961 Y34.055 Z20.000
G0 X36.961 Y34.055 Z18.000
G1 X36.961 Y34.055 Z6.547 F500.000
G2 X35.971 Y34.666 Z6.547 I2.328 J4.880 K0.000 F200.000
G2 X36.041 Y33.549 Z6.547 I-1.365 J-0.647 K0.000 F200.000
G2 X35.579 Y32.673 Z6.547 I-4.229 J1.672 K0.000 F200.000
G1 X36.961 Y34.055 Z6.547 F200.000
G3 X37.395 Y33.844 Z6.547 I2.092 J3.747 K0.000 F200.000
G3 X36.188 Y33.068 Z6.547 I0.126 J-1.522 K0.000 F200.000
G1 X33.419 Y28.271 Z6.547 F200.000
G1 X32.517 Y27.370 Z6.547 F200.000
G1 X29.455 Y22.066 Z6.547 F200.000
G1 X30.357 Y22.968 Z6.547 F200.000
G1 X28.435 Y19.639 Z6.547 F200.000
G1 X28.149 Y19.804 Z6.547 F200.000
G1 X29.455 Y22.066 Z6.547 F200.000
G0 Z20.000
G0 X43.255 Y33.625 Z20.000
G0 X43.255 Y33.625 Z18.000
G1 X43.255 Y33.625 Z6.547 F500.000
G1 X43.909 Y34.279 Z6.547 F200.000
G2 X44.028 Y34.666 Z6.547 I0.932 J-0.075 K0.000 F200.000
G2 X42.605 Y33.844 Z6.547 I-3.997 J5.278 K0.000 F200.000
G2 X43.255 Y33.625 Z6.547 I-0.070 J-1.283 K0.000 F200.000
G2 X43.607 Y33.347 Z6.547 I-0.451 J-0.932 K0.000 F200.000
G2 X44.224 Y32.352 Z6.547 I-4.229 J-3.315 K0.000 F200.000
G1 X44.466 Y32.594 Z6.547 F200.000
G1 X45.286 Y31.173 Z6.547 F200.000
G1 X45.045 Y30.931 Z6.547 F200.000
G1 X45.865 Y29.510 Z6.547 F200.000
G1 X46.107 Y29.752 Z6.547 F200.000
G1 X46.927 Y28.331 Z6.547 F200.000
G1 X46.686 Y28.089 Z6.547 F200.000
G1 X47.506 Y26.668 Z6.547 F200.000
G1 X47.748 Y26.910 Z6.547 F200.000
G1 X48.568 Y25.489 Z6.547 F200.000
G1 X48.327 Y25.247 Z6.547 F200.000
G1 X49.147 Y23.826 Z6.547 F200.000
G1 X49.389 Y24.068 Z6.547 F200.000
G1 X50.209 Y22.647 Z6.547 F200.000
G1 X49.968 Y22.405 Z6.547 F200.000
G1 X50.788 Y20.984 Z6.547 F200.000
G1 X51.030 Y21.225 Z6.547 F200.000
G1 X51.850 Y19.804 Z6.547 F200.000
G0 Z20.000
G0 X47.589 Y40.200 Z20.000
G0 X47.589 Y40.200 Z18.000
G1 X47.589 Y40.200 Z6.547 F500.000
G2 X46.628 Y40.830 Z6.547 I0.288 J1.487 K0.000 F200.000
G2 X46.639 Y39.250 Z6.547 I-6.079 J-0.831 K0.000 F200.000
G1 X47.589 Y40.200 Z6.547 F200.000
G1 X47.908 Y40.165 Z6.547 F200.000
G1 X49.795 Y40.165 Z6.547 F200.000
G1 X49.465 Y39.835 Z6.547 F200.000
G1 X51.707 Y39.835 Z6.547 F200.000
G1 X52.037 Y40.165 Z6.547 F200.000
G1 X54.278 Y40.165 Z6.547 F200.000
G1 X53.948 Y39.835 Z6.547 F200.000
G1 X56.190 Y39.835 Z6.547 F200.000
G1 X56.520 Y40.165 Z6.547 F200.000
G1 X58.761 Y40.165 Z6.547 F200.000
G1 X58.431 Y39.835 Z6.547 F200.000
G1 X60.673 Y39.835 Z6.547 F200.000
G1 X61.003 Y40.165 Z6.547 F200.000
G1 X63.244 Y40.165 Z6.547 F200.000
G1 X62.914 Y39.835 Z6.547 F200.000
G1 X63.415 Y39.835 Z6.547 F200.000
G1 X63.415 Y40.165 Z6.547 F200.000
G1 X63.244 Y40.165 Z6.547 F200.000
G0 Z20.000
G0 X43.869 Y45.446 Z20.000
G0 X43.869 Y45.446 Z18.000
G1 X43.869 Y45.446 Z6.547 F500.000
G2 X44.028 Y45.334 Z6.547 I-1.007 J-1.604 K0.000 F200.000
G2 X43.955 Y45.533 Z6.547 I0.412 J0.264 K0.000 F200.000
G1 X43.869 Y45.446 Z6.547 F200.000
G3 X42.605 Y46.156 Z6.547 I-3.851 J-5.377 K0.000 F200.000
G3 X43.811 Y46.932 Z6.547 I-0.141 J1.545 K0.000 F200.000
G1 X44.765 Y48.584 Z6.547 F200.000
G1 X45.667 Y49.486 Z6.547 F200.000
G1 X48.729 Y54.789 Z6.547 F200.000
G1 X47.827 Y53.887 Z6.547 F200.000
G1 X50.889 Y59.191 Z6.547 F200.000
G1 X51.564 Y60.360 Z6.547 F200.000
G1 X51.850 Y60.195 Z6.547 F200.000
G1 X51.791 Y60.093 Z6.547 F200.000
G1 X50.889 Y59.191 Z6.547 F200.000
G1 X50.889 Y59.191 Z6.018 F500.000
G1 X51.791 Y60.093 Z6.018 F200.000
G1 X51.850 Y60.195 Z6.018 F200.000
G1 X51.564 Y60.360 Z6.018 F200.000
G1 X50.889 Y59.191 Z6.018 F200.000
G1 X47.827 Y53.887 Z6.018 F200.000
G1 X48.729 Y54.789 Z6.018 F200.000
G1 X45.667 Y49.486 Z6.018 F200.000
G1 X44.765 Y48.584 Z6.018 F200.000
G1 X43.811 Y46.932 Z6.018 F200.000
G2 X42.605 Y46.156 Z6.018 I-1.347 J0.769 K0.000 F200.000
G2 X43.869 Y45.446 Z6.018 I-2.587 J-6.087 K0.000 F200.000
G1 X43.955 Y45.533 Z6.018 F200.000
G3 X44.028 Y45.334 Z6.018 I0.485 J0.065 K0.000 F200.000
G3 X43.869 Y45.446 Z6.018 I-1.167 J-1.492 K0.000 F200.000
G0 Z20.000
G0 X47.589 Y40.200 Z20.000
G0 X47.589 Y40.200 Z18.000
G1 X47.589 Y40.200 Z6.018 F500.000
G2 X46.628 Y40.830 Z6.018 I0.288 J1.487 K0.000 F200.000
G2 X46.639 Y39.250 Z6.018 I-6.079 J-0.831 K0.000 F200.000
G1 X47.589 Y40.200 Z6.018 F200.000
G1 X47.908 Y40.165 Z6.018 F200.000
G1 X49.795 Y40.165 Z6.018 F200.000
G1 X49.465 Y39.835 Z6.018 F200.000
G1 X51.707 Y39.835 Z6.018 F200.000
G1 X52.037 Y40.165 Z6.018 F200.000
G1 X54.278 Y40.165 Z6.018 F200.000
G1 X53.948 Y39.835 Z6.018 F200.000
G1 X56.190 Y39.835 Z6.018 F200.000
G1 X56.520 Y40.165 Z6.018 F200.000
G1 X58.761 Y40.165 Z6.018 F200.000
G1 X58.431 Y39.835 Z6.018 F200.000
G1 X60.673 Y39.835 Z6.018 F200.000
G1 X61.003 Y40.165 Z6.018 F200.000
G1 X63.244 Y40.165 Z6.018 F200.000
G1 X62.914 Y39.835 Z6.018 F200.000
G1 X63.415 Y39.835 Z6.018 F200.000
G1 X63.415 Y40.165 Z6.018 F200.000
G1 X63.244 Y40.165 Z6.018 F200.000
G0 Z20.000
G0 X43.255 Y33.625 Z20.000
G0 X43.255 Y33.625 Z18.000
G1 X43.255 Y33.625 Z6.018 F500.000
G1 X43.909 Y34.279 Z6.018 F200.000
G2 X44.028 Y34.666 Z6.018 I0.932 J-0.075 K0.000 F200.000
G2 X42.605 Y33.844 Z6.018 I-3.997 J5.278 K0.000 F200.000
G2 X43.255 Y33.625 Z6.018 I-0.070 J-1.283 K0.000 F200.000
G2 X43.607 Y33.347 Z6.018 I-0.451 J-0.932 K0.000 F200.000
G2 X44.224 Y32.352 Z6.018 I-4.229 J-3.315 K0.000 F200.000
G1 X44.466 Y32.594 Z6.018 F200.000
G1 X45.286 Y31.173 Z6.018 F200.000
G1 X45.045 Y30.931 Z6.018 F200.000
G1 X45.865 Y29.510 Z6.018 F200.000
G1 X46.107 Y29.752 Z6.018 F200.000
G1 X46.927 Y28.331 Z6.018 F200.000
G1 X46.686 Y28.089 Z6.018 F200.000
G1 X47.506 Y26.668 Z6.018 F200.000
G1 X47.748 Y26.910 Z6.018 F200.000
G1 X48.568 Y25.489 Z6.018 F200.000
G1 X48.327 Y25.247 Z6.018 F200.000
G1 X49.147 Y23.826 Z6.018 F200.000
G1 X49.389 Y24.068 Z6.018 F200.000
G1 X50.209 Y22.647 Z6.018 F200.000
G1 X49.968 Y22.405 Z6.018 F200.000
G1 X50.788 Y20.984 Z6.018 F200.000
G1 X51.030 Y21.225 Z6.018 F200.000
G1 X51.850 Y19.804 Z6.018 F200.000
G0 Z20.000
G0 X36.961 Y34.055 Z20.000
G0 X36.961 Y34.055 Z18.000
G1 X36.961 Y34.055 Z6.018 F500.000
G2 X35.971 Y34.666 Z6.018 I2.328 J4.880 K0.000 F200.000
G2 X36.041 Y33.549 Z6.018 I-1.365 J-0.647 K0.000 F200.000
G2 X35.579 Y32.673 Z6.018 I-4.229 J1.672 K0.000 F200.000
G1 X36.961 Y34.055 Z6.018 F200.000
G3 X37.395 Y33.844 Z6.018 I2.092 J3.747 K0.000 F200.000
G3 X36.188 Y33.068 Z6.018 I0.126 J-1.522 K0.000 F200.000
G1 X33.419 Y28.271 Z6.018 F200.000
G1 X32.517 Y27.370 Z6.018 F200.000
G1 X29.455 Y22.066 Z6.018 F200.000
G1 X30.357 Y22.968 Z6.018 F200.000
G1 X28.435 Y19.639 Z6.018 F200.000
G1 X28.149 Y19.804 Z6.018 F200.000
G1 X29.455 Y22.066 Z6.018 F200.000
G0 Z20.000
G0 X33.256 Y39.316 Z20.000
G0 X33.256 Y39.316 Z18.000
G1 X33.256 Y39.316 Z6.018 F500.000
G2 X33.366 Y39.178 Z6.018 I-0.257 J-0.318 K0.000 F200.000
G2 X33.347 Y39.407 Z6.018 I2.144 J0.296 K0.000 F200.000
G1 X33.256 Y39.316 Z6.018 F200.000
G3 X32.091 Y39.835 Z6.018 I-1.157 J-1.030 K0.000 F200.000
G1 X31.533 Y39.835 Z6.018 F200.000
G1 X31.863 Y40.165 Z6.018 F200.000
G1 X29.621 Y40.165 Z6.018 F200.000
G1 X29.291 Y39.835 Z6.018 F200.000
G1 X27.050 Y39.835 Z6.018 F200.000
G1 X27.380 Y40.165 Z6.018 F200.000
G1 X25.138 Y40.165 Z6.018 F200.000
G1 X24.808 Y39.835 Z6.018 F200.000
G1 X22.567 Y39.835 Z6.018 F200.000
G1 X22.897 Y40.165 Z6.018 F200.000
G1 X20.655 Y40.165 Z6.018 F200.000
G1 X20.325 Y39.835 Z6.018 F200.000
G1 X18.084 Y39.835 Z6.018 F200.000
G1 X16.585 Y39.835 Z6.018 F200.000
G1 X16.585 Y40.165 Z6.018 F200.000
G1 X18.414 Y40.165 Z6.018 F200.000
G1 X18.084 Y39.835 Z6.018 F200.000
G0 Z20.000
G0 X36.000 Y46.544 Z20.000
G0 X36.000 Y46.544 Z18.000
G1 X36.000 Y46.544 Z6.018 F500.000
G2 X35.971 Y45.334 Z6.018 I-1.365 J-0.572 K0.000 F200.000
G2 X37.394 Y46.156 Z6.018 I3.997 J-5.278 K0.000 F200.000
G2 X36.273 Y46.816 Z6.018 I0.120 J1.486 K0.000 F200.000
G1 X36.000 Y46.544 Z6.018 F200.000
G1 X35.902 Y46.767 Z6.018 F200.000
G1 X35.199 Y47.984 Z6.018 F200.000
G1 X35.441 Y48.226 Z6.018 F200.000
G1 X34.620 Y49.647 Z6.018 F200.000
G1 X34.379 Y49.405 Z6.018 F200.000
G1 X33.558 Y50.826 Z6.018 F200.000
G1 X33.800 Y51.068 Z6.018 F200.000
G1 X32.980 Y52.489 Z6.018 F200.000
G1 X32.738 Y52.248 Z6.018 F200.000
G1 X31.917 Y53.669 Z6.018 F200.000
G1 X32.159 Y53.910 Z6.018 F200.000
G1 X31.339 Y55.331 Z6.018 F200.000
G1 X31.097 Y55.090 Z6.018 F200.000
G1 X30.277 Y56.511 Z6.018 F200.000
G1 X30.518 Y56.752 Z6.018 F200.000
G1 X29.698 Y58.173 Z6.018 F200.000
G1 X29.456 Y57.932 Z6.018 F200.000
G1 X28.636 Y59.353 Z6.018 F200.000
G1 X28.149 Y60.195 Z6.018 F200.000
G1 X28.435 Y60.360 Z6.018 F200.000
G1 X28.877 Y59.594 Z6.018 F200.000
G1 X28.636 Y59.353 Z6.018 F200.000
G1 X28.636 Y59.353 Z5.490 F500.000
G1 X28.877 Y59.594 Z5.490 F200.000
G1 X28.435 Y60.360 Z5.490 F200.000
G1 X28.149 Y60.195 Z5.490 F200.000
G1 X28.636 Y59.353 Z5.490 F200.000
G1 X29.456 Y57.932 Z5.490 F200.000
G1 X29.698 Y58.173 Z5.490 F200.000
G1 X30.518 Y56.752 Z5.490 F200.000
G1 X30.277 Y56.511 Z5.490 F200.000
G1 X31.097 Y55.090 Z5.490 F200.000
G1 X31.339 Y55.331 Z5.490 F200.000
G1 X32.159 Y53.910 Z5.490 F200.000
G1 X31.917 Y53.669 Z5.490 F200.000
G1 X32.738 Y52.248 Z5.490 F200.000
G1 X32.980 Y52.489 Z5.490 F200.000
G1 X33.800 Y51.068 Z5.490 F200.000
G1 X33.558 Y50.826 Z5.490 F200.000
G1 X34.379 Y49.405 Z5.490 F200.000
G1 X34.620 Y49.647 Z5.490 F200.000
G1 X35.441 Y48.226 Z5.490 F200.000
G1 X35.199 Y47.984 Z5.490 F200.000
G1 X35.902 Y46.767 Z5.490 F200.000
G1 X36.000 Y46.544 Z5.490 F200.000
G1 X36.273 Y46.816 Z5.490 F200.000
G3 X37.394 Y46.156 Z5.490 I1.241 J0.825 K0.000 F200.000
G3 X35.971 Y45.334 Z5.490 I2.573 J-6.100 K0.000 F200.000
G3 X36.000 Y46.544 Z5.490 I-1.335 J0.638 K0.000 F200.000
G0 Z20.000
G0 X33.256 Y39.316 Z20.000
G0 X33.256 Y39.316 Z18.000
G1 X33.256 Y39.316 Z5.490 F500.000
G2 X33.366 Y39.178 Z5.490 I-0.257 J-0.318 K0.000 F200.000
G2 X33.347 Y39.407 Z5.490 I2.144 J0.296 K0.000 F200.000
G1 X33.256 Y39.316 Z5.490 F200.000
G3 X32.091 Y39.835 Z5.490 I-1.157 J-1.030 K0.000 F200.000
G1 X31.533 Y39.835 Z5.490 F200.000
G1 X31.863 Y40.165 Z5.490 F200.000
G1 X29.621 Y40.165 Z5.490 F200.000
G1 X29.291 Y39.835 Z5.490 F200.000
G1 X27.050 Y39.835 Z5.490 F200.000
G1 X27.380 Y40.165 Z5.490 F200.000
G1 X25.138 Y40.165 Z5.490 F200.000
G1 X24.808 Y39.835 Z5.490 F200.000
G1 X22.567 Y39.835 Z5.490 F200.000
G1 X22.897 Y40.165 Z5.490 F200.000
G1 X20.655 Y40.165 Z5.490 F200.000
G1 X20.325 Y39.835 Z5.490 F200.000
G1 X18.084 Y39.835 Z5.490 F200.000
G1 X16.585 Y39.835 Z5.490 F200.000
G1 X16.585 Y40.165 Z5.490 F200.000
G1 X18.414 Y40.165 Z5.490 F200.000
G1 X18.084 Y39.835 Z5.490 F200.000
G0 Z20.000
G0 X36.961 Y34.055 Z20.000
G0 X36.961 Y34.055 Z18.000
G1 X36.961 Y34.055 Z5.490 F500.000
G2 X35.971 Y34.666 Z5.490 I2.328 J4.880 K0.000 F200.000
G2 X36.041 Y33.549 Z5.490 I-1.365 J-0.647 K0.000 F200.000
G2 X35.579 Y32.673 Z5.490 I-4.229 J1.672 K0.000 F200.000
G1 X36.961 Y34.055 Z5.490 F200.000
G3 X37.395 Y33.844 Z5.490 I2.092 J3.747 K0.000 F200.000
G3 X36.188 Y33.068 Z5.490 I0.126 J-1.522 K0.000 F200.000
G1 X33.419 Y28.271 Z5.490 F200.000
G1 X32.517 Y27.370 Z5.490 F200.000
G1 X29.455 Y22.066 Z5.490 F200.000
G1 X30.357 Y22.968 Z5.490 F200.000
G1 X28.435 Y19.639 Z5.490 F200.000
G1 X28.149 Y19.804 Z5.490 F200.000
G1 X29.455 Y22.066 Z5.490 F200.000
G0 Z20.000
G0 X43.255 Y33.625 Z20.000
G0 X43.255 Y33.625 Z18.000
G1 X43.255 Y33.625 Z5.490 F500.000
G1 X43.909 Y34.279 Z5.490 F200.000
G2 X44.028 Y34.666 Z5.490 I0.932 J-0.075 K0.000 F200.000
G2 X42.605 Y33.844 Z5.490 I-3.997 J5.278 K0.000 F200.000
G2 X43.255 Y33.625 Z5.490 I-0.070 J-1.283 K0.000 F200.000
G2 X43.607 Y33.347 Z5.490 I-0.451 J-0.932 K0.000 F200.000
G2 X44.224 Y32.352 Z5.490 I-4.229 J-3.315 K0.000 F200.000
G1 X44.466 Y32.594 Z5.490 F200.000
G1 X45.286 Y31.173 Z5.490 F200.000
G1 X45.045 Y30.931 Z5.490 F200.000
G1 X45.865 Y29.510 Z5.490 F200.000
G1 X46.107 Y29.752 Z5.490 F200.000
G1 X46.927 Y28.331 Z5.490 F200.000
G1 X46.686 Y28.089 Z5.490 F200.000
G1 X47.506 Y26.668 Z5.490 F200.000
G1 X47.748 Y26.910 Z5.490 F200.000
G1 X48.568 Y25.489 Z5.490 F200.000
G1 X48.327 Y25.247 Z5.490 F200.000
G1 X49.147 Y23.826 Z5.490 F200.000
G1 X49.389 Y24.068 Z5.490 F200.000
G1 X50.209 Y22.647 Z5.490 F200.000
G1 X49.968 Y22.405 Z5.490 F200.000
G1 X50.788 Y20.984 Z5.490 F200.000
G1 X51.030 Y21.225 Z5.490 F200.000
G1 X51.850 Y19.804 Z5.490 F200.000
G0 Z20.000
G0 X47.589 Y40.200 Z20.000
G0 X47.589 Y40.200 Z18.000
G1 X47.589 Y40.200 Z5.490 F500.000
G2 X46.628 Y40.830 Z5.490 I0.288 J1.487 K0.000 F200.000
G2 X46.639 Y39.250 Z5.490 I-6.079 J-0.831 K0.000 F200.000
G1 X47.589 Y40.200 Z5.490 F200.000
G1 X47.908 Y40.165 Z5.490 F200.000
G1 X49.795 Y40.165 Z5.490 F200.000
G1 X49.465 Y39.835 Z5.490 F200.000
G1 X51.707 Y39.835 Z5.490 F200.000
G1 X52.037 Y40.165 Z5.490 F200.000
G1 X54.278 Y40.165 Z5.490 F200.000
G1 X53.948 Y39.835 Z5.490 F200.000
G1 X56.190 Y39.835 Z5.490 F200.000
G1 X56.520 Y40.165 Z5.490 F200.000
G1 X58.761 Y40.165 Z5.490 F200.000
G1 X58.431 Y39.835 Z5.490 F200.000
G1 X60.673 Y39.835 Z5.490 F200.000
G1 X61.003 Y40.165 Z5.490 F200.000
G1 X63.244 Y40.165 Z5.490 F200.000
G1 X62.914 Y39.835 Z5.490 F200.000
G1 X63.415 Y39.835 Z5.490 F200.000
G1 X63.415 Y40.165 Z5.490 F200.000
G1 X63.244 Y40.165 Z5.490 F200.000
G0 Z20.000
G0 X43.869 Y45.446 Z20.000
G0 X43.869 Y45.446 Z18.000
G1 X43.869 Y45.446 Z5.490 F500.000
G2 X44.028 Y45.334 Z5.490 I-1.007 J-1.604 K0.000 F200.000
G2 X43.955 Y45.533 Z5.490 I0.412 J0.264 K0.000 F200.000
G1 X43.869 Y45.446 Z5.490 F200.000
G3 X42.605 Y46.156 Z5.490 I-3.851 J-5.377 K0.000 F200.000
G3 X43.811 Y46.932 Z5.490 I-0.141 J1.545 K0.000 F200.000
G1 X44.765 Y48.584 Z5.490 F200.000
G1 X45.667 Y49.486 Z5.490 F200.000
G1 X48.729 Y54.789 Z5.490 F200.000
G1 X47.827 Y53.887 Z5.490 F200.000
G1 X50.889 Y59.191 Z5.490 F200.000
G1 X51.564 Y60.360 Z5.490 F200.000
G1 X51.850 Y60.195 Z5.490 F200.000
G1 X51.791 Y60.093 Z5.490 F200.000
G1 X50.889 Y59.191 Z5.490 F200.000
G1 X50.889 Y59.191 Z5.100 F500.000
G1 X51.791 Y60.093 Z5.100 F200.000
G1 X51.850 Y60.195 Z5.100 F200.000
G1 X51.564 Y60.360 Z5.100 F200.000
G1 X50.889 Y59.191 Z5.100 F200.000
G1 X47.827 Y53.887 Z5.100 F200.000
G1 X48.729 Y54.789 Z5.100 F200.000
G1 X45.667 Y49.486 Z5.100 F200.000
G1 X44.765 Y48.584 Z5.100 F200.000
G1 X43.811 Y46.932 Z5.100 F200.000
G2 X42.605 Y46.156 Z5.100 I-1.347 J0.769 K0.000 F200.000
G2 X43.869 Y45.446 Z5.100 I-2.587 J-6.087 K0.000 F200.000
G1 X43.955 Y45.533 Z5.100 F200.000
G3 X44.028 Y45.334 Z5.100 I0.485 J0.065 K0.000 F200.000
G3 X43.869 Y45.446 Z5.100 I-1.167 J-1.492 K0.000 F200.000
G0 Z20.000
G0 X47.589 Y40.200 Z20.000
G0 X47.589 Y40.200 Z18.000
G1 X47.589 Y40.200 Z5.100 F500.000
G2 X46.628 Y40.830 Z5.100 I0.288 J1.487 K0.000 F200.000
G2 X46.639 Y39.250 Z5.100 I-6.079 J-0.831 K0.000 F200.000
G1 X47.589 Y40.200 Z5.100 F200.000
G1 X47.908 Y40.165 Z5.100 F200.000
G1 X49.795 Y40.165 Z5.100 F200.000
G1 X49.465 Y39.835 Z5.100 F200.000
G1 X51.707 Y39.835 Z5.100 F200.000
G1 X52.037 Y40.165 Z5.100 F200.000
G1 X54.278 Y40.165 Z5.100 F200.000
G1 X53.948 Y39.835 Z5.100 F200.000
G1 X56.190 Y39.835 Z5.100 F200.000
G1 X56.520 Y40.165 Z5.100 F200.000
G1 X58.761 Y40.165 Z5.100 F200.000
G1 X58.431 Y39.835 Z5.100 F200.000
G1 X60.673 Y39.835 Z5.100 F200.000
G1 X61.003 Y40.165 Z5.100 F200.000
G1 X63.244 Y40.165 Z5.100 F200.000
G1 X62.914 Y39.835 Z5.100 F200.000
G1 X63.415 Y39.835 Z5.100 F200.000
G1 X63.415 Y40.165 Z5.100 F200.000
G1 X63.244 Y40.165 Z5.100 F200.000
G0 Z20.000
G0 X43.255 Y33.625 Z20.000
G0 X43.255 Y33.625 Z18.000
G1 X43.255 Y33.625 Z5.100 F500.000
G1 X43.909 Y34.279 Z5.100 F200.000
G2 X44.028 Y34.666 Z5.100 I0.932 J-0.075 K0.000 F200.000
G2 X42.605 Y33.844 Z5.100 I-3.997 J5.278 K0.000 F200.000
G2 X43.255 Y33.625 Z5.100 I-0.070 J-1.283 K0.000 F200.000
G2 X43.607 Y33.347 Z5.100 I-0.451 J-0.932 K0.000 F200.000
G2 X44.224 Y32.352 Z5.100 I-4.229 J-3.315 K0.000 F200.000
G1 X44.466 Y32.594 Z5.100 F200.000
G1 X45.286 Y31.173 Z5.100 F200.000
G1 X45.045 Y30.931 Z5.100 F200.000
G1 X45.865 Y29.510 Z5.100 F200.000
G1 X46.107 Y29.752 Z5.100 F200.000
G1 X46.927 Y28.331 Z5.100 F200.000
G1 X46.686 Y28.089 Z5.100 F200.000
G1 X47.506 Y26.668 Z5.100 F200.000
G1 X47.748 Y26.910 Z5.100 F200.000
G1 X48.568 Y25.489 Z5.100 F200.000
G1 X48.327 Y25.247 Z5.100 F200.000
G1 X49.147 Y23.826 Z5.100 F200.000
G1 X49.389 Y24.068 Z5.100 F200.000
G1 X50.209 Y22.647 Z5.100 F200.000
G1 X49.968 Y22.405 Z5.100 F200.000
G1 X50.788 Y20.984 Z5.100 F200.000
G1 X51.030 Y21.225 Z5.100 F200.000
G1 X51.850 Y19.804 Z5.100 F200.000
G0 Z20.000
G0 X36.961 Y34.055 Z20.000
G0 X36.961 Y34.055 Z18.000
G1 X36.961 Y34.055 Z5.100 F500.000
G2 X35.971 Y34.666 Z5.100 I2.328 J4.880 K0.000 F200.000
G2 X36.041 Y33.549 Z5.100 I-1.365 J-0.647 K0.000 F200.000
G2 X35.579 Y32.673 Z5.100 I-4.229 J1.672 K0.000 F200.000
G1 X36.961 Y34.055 Z5.100 F200.000
G3 X37.395 Y33.844 Z5.100 I2.092 J3.747 K0.000 F200.000
G3 X36.188 Y33.068 Z5.100 I0.126 J-1.522 K0.000 F200.000
G1 X33.419 Y28.271 Z5.100 F200.000
G1 X32.517 Y27.370 Z5.100 F200.000
G1 X29.455 Y22.066 Z5.100 F200.000
G1 X30.357 Y22.968 Z5.100 F200.000
G1 X28.435 Y19.639 Z5.100 F200.000
G1 X28.149 Y19.804 Z5.100 F200.000
G1 X29.455 Y22.066 Z5.100 F200.000
G0 Z20.000
G0 X33.256 Y39.316 Z20.000
G0 X33.256 Y39.316 Z18.000
G1 X33.256 Y39.316 Z5.100 F500.000
G2 X33.366 Y39.178 Z5.100 I-0.257 J-0.318 K0.000 F200.000
G2 X33.347 Y39.407 Z5.100 I2.144 J0.296 K0.000 F200.000
G1 X33.256 Y39.316 Z5.100 F200.000
G3 X32.091 Y39.835 Z5.100 I-1.157 J-1.030 K0.000 F200.000
G1 X31.533 Y39.835 Z5.100 F200.000
G1 X31.863 Y40.165 Z5.100 F200.000
G1 X29.621 Y40.165 Z5.100 F200.000
G1 X29.291 Y39.835 Z5.100 F200.000
G1 X27.050 Y39.835 Z5.100 F200.000
G1 X27.380 Y40.165 Z5.100 F200.000
G1 X25.138 Y40.165 Z5.100 F200.000
G1 X24.808 Y39.835 Z5.100 F200.000
G1 X22.567 Y39.835 Z5.100 F200.000
G1 X22.897 Y40.165 Z5.100 F200.000
G1 X20.655 Y40.165 Z5.100 F200.000
G1 X20.325 Y39.835 Z5.100 F200.000
G1 X18.084 Y39.835 Z5.100 F200.000
G1 X16.585 Y39.835 Z5.100 F200.000
G1 X16.585 Y40.165 Z5.100 F200.000
G1 X18.414 Y40.165 Z5.100 F200.000
G1 X18.084 Y39.835 Z5.100 F200.000
G0 Z20.000
G0 X36.000 Y46.544 Z20.000
G0 X36.000 Y46.544 Z18.000
G1 X36.000 Y46.544 Z5.100 F500.000
G2 X35.971 Y45.334 Z5.100 I-1.365 J-0.572 K0.000 F200.000
G2 X37.394 Y46.156 Z5.100 I3.997 J-5.278 K0.000 F200.000
G2 X36.273 Y46.816 Z5.100 I0.120 J1.486 K0.000 F200.000
G1 X36.000 Y46.544 Z5.100 F200.000
G1 X35.902 Y46.767 Z5.100 F200.000
G1 X35.199 Y47.984 Z5.100 F200.000
G1 X35.441 Y48.226 Z5.100 F200.000
G1 X34.620 Y49.647 Z5.100 F200.000
G1 X34.379 Y49.405 Z5.100 F200.000
G1 X33.558 Y50.826 Z5.100 F200.000
G1 X33.800 Y51.068 Z5.100 F200.000
G1 X32.980 Y52.489 Z5.100 F200.000
G1 X32.738 Y52.248 Z5.100 F200.000
G1 X31.917 Y53.669 Z5.100 F200.000
G1 X32.159 Y53.910 Z5.100 F200.000
G1 X31.339 Y55.331 Z5.100 F200.000
G1 X31.097 Y55.090 Z5.100 F200.000
G1 X30.277 Y56.511 Z5.100 F200.000
G1 X30.518 Y56.752 Z5.100 F200.000
