(Exported by FreeCAD)
(Post Processor: grbl_post)
(Output Time:2022-05-22 18:04:32.395140)
(Begin preamble)
G17 G90
G21
(Begin operation: Fixture)
(Path: Fixture)
G54
G0 Z5.000
(Finish operation: Fixture)
(Begin operation: 6 Z1 UP Alu Q012)
(Path: 6 Z1 UP Alu Q012)
(6 Z1 UP Alu Q012)
(Begin toolchange)
( M6 T4.0 )
M3 S0.0
(Finish operation: 6 Z1 UP Alu Q012)
(Begin operation: MillFace001)
(Path: MillFace001)
(MillFace001)
G0 Z5.000
G0 X-34.055 Y41.223
G0 Z3.000
G1 X-34.055 Y41.223 Z-6.000
G3 X-32.753 Y40.207 Z-6.000 I2.772 J2.211 K0.000
G3 X-32.673 Y39.128 Z-6.000 I2.474 J-0.361 K0.000
G2 X-32.524 Y36.362 Z-6.000 I-4.923 J-1.653 K0.000
G3 X-32.753 Y34.725 Z-6.000 I3.300 J-1.295 K0.000
G3 X-33.648 Y34.117 Z-6.000 I0.924 J-2.323 K0.000
G2 X-35.969 Y32.605 Z-6.000 I-3.893 J3.437 K0.000
G3 X-37.500 Y31.984 Z-6.000 I0.528 J-3.506 K0.000
G3 X-38.475 Y32.456 Z-6.000 I-1.550 J-1.962 K0.000
G1 X-37.673 Y35.346 Z-6.000
G2 X-39.230 Y36.238 Z-6.000 I0.369 J2.450 K0.000
G2 X-39.403 Y36.476 Z-6.000 I0.189 J0.319 K0.000
G2 X-39.429 Y38.350 Z-6.000 I2.444 J0.971 K0.000
G2 X-39.309 Y38.619 Z-6.000 I0.371 J-0.005 K0.000
G2 X-37.699 Y39.579 Z-6.000 I2.063 J-1.631 K0.000
G2 X-37.406 Y39.609 Z-6.000 I0.181 J-0.323 K0.000
G2 X-35.770 Y38.695 Z-6.000 I-0.381 J-2.602 K0.000
G2 X-35.597 Y38.456 Z-6.000 I-0.189 J-0.319 K0.000
G2 X-35.571 Y36.582 Z-6.000 I-2.444 J-0.971 K0.000
G2 X-35.691 Y36.313 Z-6.000 I-0.371 J0.005 K0.000
G2 X-37.301 Y35.354 Z-6.000 I-2.063 J1.631 K0.000
G2 X-37.673 Y35.346 Z-6.000 I-0.191 J0.270 K0.000
G1 X-38.475 Y32.456 Z-6.000
G2 X-40.945 Y33.709 Z-6.000 I1.030 J5.090 K0.000
G3 X-42.247 Y34.725 Z-6.000 I-2.772 J-2.211 K0.000
G3 X-42.327 Y35.805 Z-6.000 I-2.474 J0.361 K0.000
G2 X-42.476 Y38.571 Z-6.000 I4.923 J1.653 K0.000
G3 X-42.247 Y40.207 Z-6.000 I-3.300 J1.295 K0.000
G3 X-41.352 Y40.816 Z-6.000 I-0.924 J2.323 K0.000
G2 X-39.031 Y42.328 Z-6.000 I3.893 J-3.437 K0.000
G3 X-37.500 Y42.948 Z-6.000 I-0.528 J3.506 K0.000
G3 X-36.525 Y42.477 Z-6.000 I1.550 J1.962 K0.000
G2 X-34.055 Y41.223 Z-6.000 I-1.030 J-5.090 K0.000
G1 X-34.055 Y41.223 Z-10.000
G3 X-32.753 Y40.207 Z-10.000 I2.772 J2.211 K0.000
G3 X-32.673 Y39.128 Z-10.000 I2.474 J-0.361 K0.000
G2 X-32.524 Y36.362 Z-10.000 I-4.923 J-1.653 K0.000
G3 X-32.753 Y34.725 Z-10.000 I3.300 J-1.295 K0.000
G3 X-33.648 Y34.117 Z-10.000 I0.924 J-2.323 K0.000
G2 X-35.969 Y32.605 Z-10.000 I-3.893 J3.437 K0.000
G3 X-37.500 Y31.984 Z-10.000 I0.528 J-3.506 K0.000
G3 X-38.475 Y32.456 Z-10.000 I-1.550 J-1.962 K0.000
G1 X-37.673 Y35.346 Z-10.000
G2 X-39.230 Y36.238 Z-10.000 I0.369 J2.450 K0.000
G2 X-39.403 Y36.476 Z-10.000 I0.189 J0.319 K0.000
G2 X-39.429 Y38.350 Z-10.000 I2.444 J0.971 K0.000
G2 X-39.309 Y38.619 Z-10.000 I0.371 J-0.005 K0.000
G2 X-37.699 Y39.579 Z-10.000 I2.063 J-1.631 K0.000
G2 X-37.406 Y39.609 Z-10.000 I0.181 J-0.323 K0.000
G2 X-35.770 Y38.695 Z-10.000 I-0.381 J-2.602 K0.000
G2 X-35.597 Y38.456 Z-10.000 I-0.189 J-0.319 K0.000
G2 X-35.571 Y36.582 Z-10.000 I-2.444 J-0.971 K0.000
G2 X-35.691 Y36.313 Z-10.000 I-0.371 J0.005 K0.000
G2 X-37.301 Y35.354 Z-10.000 I-2.063 J1.631 K0.000
G2 X-37.673 Y35.346 Z-10.000 I-0.191 J0.270 K0.000
G1 X-38.475 Y32.456 Z-10.000
G2 X-40.945 Y33.709 Z-10.000 I1.030 J5.090 K0.000
G3 X-42.247 Y34.725 Z-10.000 I-2.772 J-2.211 K0.000
G3 X-42.327 Y35.805 Z-10.000 I-2.474 J0.361 K0.000
G2 X-42.476 Y38.571 Z-10.000 I4.923 J1.653 K0.000
G3 X-42.247 Y40.207 Z-10.000 I-3.300 J1.295 K0.000
G3 X-41.352 Y40.816 Z-10.000 I-0.924 J2.323 K0.000
G2 X-39.031 Y42.328 Z-10.000 I3.893 J-3.437 K0.000
G3 X-37.500 Y42.948 Z-10.000 I-0.528 J3.506 K0.000
G3 X-36.525 Y42.477 Z-10.000 I1.550 J1.962 K0.000
G2 X-34.055 Y41.223 Z-10.000 I-1.030 J-5.090 K0.000
G0 Z5.000
G0 Z5.000
(Finish operation: MillFace001)
(Begin postamble)
M5
G17 G90
M2
