(Exported by FreeCAD)
(Post Processor: grbl_post)
(Output Time:2022-05-22 18:05:05.961325)
(Begin preamble)
G17 G90
G21
(Begin operation: Fixture)
(Path: Fixture)
G54
G0 Z5.000
(Finish operation: Fixture)
(Begin operation: TC: 3.2 ball Q3.2)
(Path: TC: 3.2 ball Q3.2)
(TC: 3.2 ball Q3.2)
(Begin toolchange)
( M6 T9.0 )
M3 S0.0
(Finish operation: TC: 3.2 ball Q3.2)
(Begin operation: Surface003)
(Path: Surface003)
(Surface003)
(Surface003)
(Tool type: ballend)
(Compensated Tool Path. Diameter: 3.2)
(Sample interval: 1.0)
(Step over %: 15.0)
()
G0 Z5.000
(Beginning of Multi-pass layers.)
(Layer 0 begins)
(Begin step 0.)
G0 X-35.580 Y37.450
(part 1)
G1 X-35.580 Y37.450 Z-0.533
G1 X-35.807 Y36.561 Z-0.533
G1 X-36.420 Y35.878 Z-0.533
G1 X-37.281 Y35.559 Z-0.533
G1 X-38.191 Y35.675 Z-0.533
G1 X-38.944 Y36.200 Z-0.533
G1 X-39.366 Y37.015 Z-0.533
G1 X-39.362 Y37.933 Z-0.533
G1 X-38.933 Y38.744 Z-0.533
G1 X-38.176 Y39.263 Z-0.533
G1 X-37.265 Y39.372 Z-0.533
G1 X-36.407 Y39.045 Z-0.533
G1 X-35.799 Y38.357 Z-0.533
G1 X-35.580 Y37.466 Z-0.533
G1 X-35.580 Y37.450 Z-0.533
(End of step 0.)
G0 Z3.000
G0 X-35.100 Y37.450
(Begin step 1.)
G0 X-35.100 Y37.450
(part 1)
G1 X-35.100 Y37.450 Z-0.533
G1 X-35.288 Y36.534 Z-0.533
G1 X-35.813 Y35.759 Z-0.533
G1 X-36.594 Y35.244 Z-0.533
G1 X-37.512 Y35.066 Z-0.533
G1 X-38.429 Y35.253 Z-0.533
G1 X-39.204 Y35.776 Z-0.533
G1 X-39.721 Y36.556 Z-0.533
G1 X-39.900 Y37.474 Z-0.533
G1 X-39.715 Y38.391 Z-0.533
G1 X-39.193 Y39.168 Z-0.533
G1 X-38.414 Y39.685 Z-0.533
G1 X-37.496 Y39.866 Z-0.533
G1 X-36.579 Y39.682 Z-0.533
G1 X-35.802 Y39.162 Z-0.533
G1 X-35.282 Y38.384 Z-0.533
G1 X-35.100 Y37.466 Z-0.533
G1 X-35.100 Y37.450 Z-0.533
(End of step 1.)
G0 Z3.000
G0 X-34.620 Y37.450
(Begin step 2.)
G0 X-34.620 Y37.450
(part 1)
G1 X-34.620 Y37.450 Z-0.533
G1 X-34.781 Y36.517 Z-0.533
G1 X-35.236 Y35.686 Z-0.533
G1 X-35.936 Y35.048 Z-0.533
G1 X-36.805 Y34.671 Z-0.533
G1 X-37.750 Y34.597 Z-0.533
G1 X-38.667 Y34.833 Z-0.533
G1 X-39.458 Y35.354 Z-0.533
G1 X-40.037 Y36.104 Z-0.533
G1 X-40.342 Y37.001 Z-0.533
G1 X-40.339 Y37.948 Z-0.533
G1 X-40.030 Y38.843 Z-0.533
G1 X-39.446 Y39.589 Z-0.533
G1 X-38.652 Y40.106 Z-0.533
G1 X-37.734 Y40.337 Z-0.533
G1 X-36.790 Y40.257 Z-0.533
G1 X-35.923 Y39.876 Z-0.533
G1 X-35.226 Y39.234 Z-0.533
G1 X-34.776 Y38.401 Z-0.533
G1 X-34.620 Y37.466 Z-0.533
G1 X-34.620 Y37.450 Z-0.533
(End of step 2.)
G0 Z3.000
G0 X-34.140 Y37.450
(Begin step 3.)
G0 X-34.140 Y37.450
(part 1)
G1 X-34.140 Y37.450 Z-0.533
G1 X-34.280 Y36.505 Z-0.533
G1 X-34.681 Y35.637 Z-0.533
G1 X-35.310 Y34.918 Z-0.533
G1 X-36.116 Y34.404 Z-0.533
G1 X-37.034 Y34.139 Z-0.533
G1 X-37.990 Y34.142 Z-0.533
G1 X-38.906 Y34.414 Z-0.533
G1 X-39.708 Y34.934 Z-0.533
G1 X-40.332 Y35.658 Z-0.533
G1 X-40.726 Y36.528 Z-0.533
G1 X-40.860 Y37.474 Z-0.533
G1 X-40.722 Y38.420 Z-0.533
G1 X-40.323 Y39.288 Z-0.533
G1 X-39.696 Y40.009 Z-0.533
G1 X-38.891 Y40.525 Z-0.533
G1 X-37.974 Y40.793 Z-0.533
G1 X-37.018 Y40.792 Z-0.533
G1 X-36.102 Y40.521 Z-0.533
G1 X-35.298 Y40.004 Z-0.533
G1 X-34.673 Y39.282 Z-0.533
G1 X-34.276 Y38.412 Z-0.533
G1 X-34.140 Y37.466 Z-0.533
G1 X-34.140 Y37.450 Z-0.533
(End of step 3.)
G0 Z3.000
G0 X-33.660 Y37.450
(Begin step 4.)
G0 X-33.660 Y37.450
(part 1)
G1 X-33.660 Y37.450 Z-0.533
G1 X-33.784 Y36.496 Z-0.533
G1 X-34.142 Y35.603 Z-0.533
G1 X-34.710 Y34.827 Z-0.533
G1 X-35.454 Y34.217 Z-0.533
G1 X-36.326 Y33.810 Z-0.533
G1 X-37.271 Y33.633 Z-0.533
G1 X-38.231 Y33.696 Z-0.533
G1 X-39.145 Y33.996 Z-0.533
G1 X-39.956 Y34.514 Z-0.533
G1 X-40.612 Y35.217 Z-0.533
G1 X-41.074 Y36.061 Z-0.533
G1 X-41.311 Y36.993 Z-0.533
G1 X-41.309 Y37.955 Z-0.533
G1 X-41.068 Y38.886 Z-0.533
G1 X-40.603 Y39.729 Z-0.533
G1 X-39.943 Y40.429 Z-0.533
G1 X-39.130 Y40.943 Z-0.533
G1 X-38.215 Y41.239 Z-0.533
G1 X-37.255 Y41.298 Z-0.533
G1 X-36.310 Y41.117 Z-0.533
G1 X-35.440 Y40.707 Z-0.533
G1 X-34.699 Y40.094 Z-0.533
G1 X-34.134 Y39.315 Z-0.533
G1 X-33.780 Y38.421 Z-0.533
G1 X-33.660 Y37.466 Z-0.533
G1 X-33.660 Y37.450 Z-0.533
(End of step 4.)
G0 Z3.000
G0 X-33.180 Y37.450
(Begin step 5.)
G0 X-33.180 Y37.450
(part 1)
G1 X-33.180 Y37.450 Z-0.533
G1 X-33.292 Y36.490 Z-0.533
G1 X-33.614 Y35.579 Z-0.533
G1 X-34.131 Y34.762 Z-0.533
G1 X-34.817 Y34.080 Z-0.533
G1 X-35.637 Y33.568 Z-0.533
G1 X-36.551 Y33.252 Z-0.533
G1 X-37.512 Y33.146 Z-0.533
G1 X-38.472 Y33.257 Z-0.533
G1 X-39.384 Y33.579 Z-0.533
G1 X-40.202 Y34.095 Z-0.533
G1 X-40.884 Y34.780 Z-0.533
G1 X-41.396 Y35.600 Z-0.533
G1 X-41.714 Y36.513 Z-0.533
G1 X-41.820 Y37.474 Z-0.533
G1 X-41.710 Y38.435 Z-0.533
G1 X-41.389 Y39.347 Z-0.533
G1 X-40.874 Y40.165 Z-0.533
G1 X-40.189 Y40.847 Z-0.533
G1 X-39.370 Y41.361 Z-0.533
G1 X-38.457 Y41.679 Z-0.533
G1 X-37.496 Y41.786 Z-0.533
G1 X-36.535 Y41.677 Z-0.533
G1 X-35.623 Y41.357 Z-0.533
G1 X-34.805 Y40.842 Z-0.533
G1 X-34.121 Y40.158 Z-0.533
G1 X-33.607 Y39.340 Z-0.533
G1 X-33.288 Y38.427 Z-0.533
G1 X-33.180 Y37.466 Z-0.533
G1 X-33.180 Y37.450 Z-0.533
(End of step 5.)
G0 Z3.000
G0 X-32.700 Y37.450
(Begin step 6.)
G0 X-32.700 Y37.450
(part 1)
G1 X-32.700 Y37.450 Z-0.533
G1 X-32.801 Y36.485 Z-0.533
G1 X-33.095 Y35.560 Z-0.533
G1 X-33.569 Y34.712 Z-0.533
G1 X-34.203 Y33.978 Z-0.533
G1 X-34.972 Y33.386 Z-0.533
G1 X-35.845 Y32.961 Z-0.533
G1 X-36.785 Y32.720 Z-0.533
G1 X-37.755 Y32.673 Z-0.533
G1 X-38.714 Y32.822 Z-0.533
G1 X-39.624 Y33.162 Z-0.533
G1 X-40.446 Y33.677 Z-0.533
G1 X-41.148 Y34.347 Z-0.533
G1 X-41.701 Y35.145 Z-0.533
G1 X-42.082 Y36.038 Z-0.533
G1 X-42.276 Y36.989 Z-0.533
G1 X-42.275 Y37.960 Z-0.533
G1 X-42.078 Y38.910 Z-0.533
G1 X-41.694 Y39.802 Z-0.533
G1 X-41.138 Y40.598 Z-0.533
G1 X-40.434 Y41.265 Z-0.533
G1 X-39.609 Y41.778 Z-0.533
G1 X-38.699 Y42.114 Z-0.533
G1 X-37.739 Y42.260 Z-0.533
G1 X-36.770 Y42.210 Z-0.533
G1 X-35.830 Y41.966 Z-0.533
G1 X-34.959 Y41.538 Z-0.533
G1 X-34.191 Y40.944 Z-0.533
G1 X-33.559 Y40.207 Z-0.533
G1 X-33.089 Y39.358 Z-0.533
G1 X-32.798 Y38.432 Z-0.533
G1 X-32.700 Y37.466 Z-0.533
G1 X-32.700 Y37.450 Z-0.533
(End of step 6.)
G0 Z3.000
G0 X-32.220 Y37.450
(Begin step 7.)
G0 X-32.220 Y37.450
(part 1)
G1 X-32.220 Y37.450 Z-0.533
G1 X-32.313 Y36.481 Z-0.533
G1 X-32.582 Y35.545 Z-0.533
G1 X-33.019 Y34.674 Z-0.533
G1 X-33.608 Y33.899 Z-0.533
G1 X-34.329 Y33.245 Z-0.533
G1 X-35.158 Y32.734 Z-0.533
G1 X-36.067 Y32.384 Z-0.533
G1 X-37.025 Y32.208 Z-0.533
G1 X-37.999 Y32.210 Z-0.533
G1 X-38.956 Y32.391 Z-0.533
G1 X-39.863 Y32.745 Z-0.533
G1 X-40.690 Y33.259 Z-0.533
G1 X-41.409 Y33.916 Z-0.533
G1 X-41.994 Y34.695 Z-0.533
G1 X-42.427 Y35.567 Z-0.533
G1 X-42.692 Y36.504 Z-0.533
G1 X-42.780 Y37.474 Z-0.533
G1 X-42.689 Y38.444 Z-0.533
G1 X-42.421 Y39.380 Z-0.533
G1 X-41.986 Y40.251 Z-0.533
G1 X-41.398 Y41.028 Z-0.533
G1 X-40.677 Y41.683 Z-0.533
G1 X-39.849 Y42.195 Z-0.533
G1 X-38.940 Y42.546 Z-0.533
G1 X-37.983 Y42.724 Z-0.533
G1 X-37.009 Y42.723 Z-0.533
G1 X-36.052 Y42.544 Z-0.533
G1 X-35.144 Y42.191 Z-0.533
G1 X-34.316 Y41.678 Z-0.533
G1 X-33.597 Y41.022 Z-0.533
G1 X-33.010 Y40.245 Z-0.533
G1 X-32.576 Y39.373 Z-0.533
G1 X-32.310 Y38.436 Z-0.533
G1 X-32.220 Y37.466 Z-0.533
G1 X-32.220 Y37.450 Z-0.533
(End of step 7.)
G0 Z3.000
G0 X-31.740 Y37.450
(Begin step 8.)
G0 X-31.740 Y37.450
(part 1)
G1 X-31.740 Y37.450 Z-0.533
G1 X-31.826 Y36.477 Z-0.533
G1 X-32.074 Y35.533 Z-0.533
G1 X-32.479 Y34.644 Z-0.533
G1 X-33.027 Y33.837 Z-0.533
G1 X-33.705 Y33.133 Z-0.533
G1 X-34.491 Y32.554 Z-0.533
G1 X-35.364 Y32.117 Z-0.533
G1 X-36.299 Y31.833 Z-0.533
G1 X-37.268 Y31.711 Z-0.533
G1 X-38.243 Y31.754 Z-0.533
G1 X-39.197 Y31.962 Z-0.533
G1 X-40.103 Y32.328 Z-0.533
G1 X-40.933 Y32.841 Z-0.533
G1 X-41.665 Y33.488 Z-0.533
G1 X-42.278 Y34.249 Z-0.533
G1 X-42.752 Y35.102 Z-0.533
G1 X-43.076 Y36.023 Z-0.533
G1 X-43.240 Y36.986 Z-0.533
G1 X-43.239 Y37.962 Z-0.533
G1 X-43.072 Y38.925 Z-0.533
G1 X-42.746 Y39.845 Z-0.533
G1 X-42.269 Y40.697 Z-0.533
G1 X-41.654 Y41.456 Z-0.533
G1 X-40.921 Y42.101 Z-0.533
G1 X-40.089 Y42.612 Z-0.533
G1 X-39.182 Y42.975 Z-0.533
G1 X-38.227 Y43.180 Z-0.533
G1 X-37.252 Y43.221 Z-0.533
G1 X-36.283 Y43.096 Z-0.533
G1 X-35.350 Y42.810 Z-0.533
G1 X-34.478 Y42.370 Z-0.533
G1 X-33.693 Y41.789 Z-0.533
G1 X-33.017 Y41.083 Z-0.533
G1 X-32.471 Y40.274 Z-0.533
G1 X-32.069 Y39.384 Z-0.533
G1 X-31.823 Y38.439 Z-0.533
G1 X-31.740 Y37.466 Z-0.533
G1 X-31.740 Y37.450 Z-0.533
(End of step 8.)
G0 Z3.000
G0 X-31.260 Y37.450
(Begin step 9.)
G0 X-31.260 Y37.450
(part 1)
G1 X-31.260 Y37.450 Z-0.533
G1 X-31.339 Y36.475 Z-0.533
G1 X-31.570 Y35.524 Z-0.533
G1 X-31.947 Y34.620 Z-0.533
G1 X-32.460 Y33.787 Z-0.533
G1 X-33.098 Y33.044 Z-0.533
G1 X-33.843 Y32.410 Z-0.533
G1 X-34.679 Y31.900 Z-0.533
G1 X-35.584 Y31.528 Z-0.533
G1 X-36.536 Y31.301 Z-0.533
G1 X-37.512 Y31.226 Z-0.533
G1 X-38.488 Y31.305 Z-0.533
G1 X-39.439 Y31.535 Z-0.533
G1 X-40.343 Y31.911 Z-0.533
G1 X-41.176 Y32.424 Z-0.533
G1 X-41.919 Y33.061 Z-0.533
G1 X-42.554 Y33.806 Z-0.533
G1 X-43.064 Y34.642 Z-0.533
G1 X-43.437 Y35.546 Z-0.533
G1 X-43.664 Y36.498 Z-0.533
G1 X-43.740 Y37.474 Z-0.533
G1 X-43.662 Y38.450 Z-0.533
G1 X-43.432 Y39.401 Z-0.533
G1 X-43.057 Y40.305 Z-0.533
G1 X-42.545 Y41.139 Z-0.533
G1 X-41.908 Y41.883 Z-0.533
G1 X-41.163 Y42.518 Z-0.533
G1 X-40.328 Y43.028 Z-0.533
G1 X-39.424 Y43.402 Z-0.533
G1 X-38.472 Y43.630 Z-0.533
G1 X-37.496 Y43.706 Z-0.533
G1 X-36.520 Y43.629 Z-0.533
G1 X-35.569 Y43.400 Z-0.533
G1 X-34.665 Y43.025 Z-0.533
G1 X-33.830 Y42.513 Z-0.533
G1 X-33.086 Y41.877 Z-0.533
G1 X-32.451 Y41.133 Z-0.533
G1 X-31.940 Y40.298 Z-0.533
G1 X-31.565 Y39.394 Z-0.533
G1 X-31.337 Y38.442 Z-0.533
G1 X-31.260 Y37.466 Z-0.533
G1 X-31.260 Y37.450 Z-0.533
(End of step 9.)
G0 Z3.000
G0 X-30.780 Y37.450
(Begin step 10.)
G0 X-30.780 Y37.450
(part 1)
G1 X-30.780 Y37.450 Z-0.533
G1 X-30.854 Y36.472 Z-0.533
G1 X-31.069 Y35.516 Z-0.533
G1 X-31.422 Y34.600 Z-0.533
G1 X-31.904 Y33.746 Z-0.533
G1 X-32.505 Y32.971 Z-0.533
G1 X-33.212 Y32.292 Z-0.533
G1 X-34.011 Y31.723 Z-0.533
G1 X-34.884 Y31.276 Z-0.533
G1 X-35.813 Y30.962 Z-0.533
G1 X-36.777 Y30.785 Z-0.533
G1 X-37.757 Y30.751 Z-0.533
G1 X-38.732 Y30.860 Z-0.533
G1 X-39.680 Y31.110 Z-0.533
G1 X-40.582 Y31.495 Z-0.533
G1 X-41.419 Y32.007 Z-0.533
G1 X-42.171 Y32.635 Z-0.533
G1 X-42.825 Y33.367 Z-0.533
G1 X-43.365 Y34.185 Z-0.533
G1 X-43.780 Y35.074 Z-0.533
G1 X-44.061 Y36.013 Z-0.533
G1 X-44.203 Y36.984 Z-0.533
G1 X-44.201 Y37.965 Z-0.533
G1 X-44.058 Y38.935 Z-0.533
G1 X-43.774 Y39.873 Z-0.533
G1 X-43.357 Y40.761 Z-0.533
G1 X-42.815 Y41.578 Z-0.533
G1 X-42.160 Y42.308 Z-0.533
G1 X-41.406 Y42.935 Z-0.533
G1 X-40.568 Y43.445 Z-0.533
G1 X-39.665 Y43.828 Z-0.533
G1 X-38.716 Y44.075 Z-0.533
G1 X-37.741 Y44.182 Z-0.533
G1 X-36.761 Y44.146 Z-0.533
G1 X-35.797 Y43.967 Z-0.533
G1 X-34.869 Y43.650 Z-0.533
G1 X-33.997 Y43.201 Z-0.533
G1 X-33.200 Y42.630 Z-0.533
G1 X-32.494 Y41.949 Z-0.533
G1 X-31.895 Y41.173 Z-0.533
G1 X-31.415 Y40.318 Z-0.533
G1 X-31.065 Y39.402 Z-0.533
G1 X-30.852 Y38.444 Z-0.533
G1 X-30.780 Y37.466 Z-0.533
G1 X-30.780 Y37.450 Z-0.533
(End of step 10.)
G0 Z3.000
G0 X-30.300 Y37.450
(Begin step 11.)
G0 X-30.300 Y37.450
(part 1)
G1 X-30.300 Y37.450 Z-0.277
G1 X-30.369 Y36.470 Z-0.277
G1 X-30.571 Y35.509 Z-0.277
G1 X-30.902 Y34.584 Z-0.533
G1 X-31.356 Y33.713 Z-0.533
G1 X-31.924 Y32.911 Z-0.349
G1 X-32.596 Y32.195 Z-0.277
G1 X-33.359 Y31.576 Z-0.277
G1 X-34.199 Y31.067 Z-0.277
G1 X-35.101 Y30.678 Z-0.277
G1 X-36.047 Y30.414 Z-0.282
G1 X-37.021 Y30.282 Z-0.533
G1 X-38.003 Y30.284 Z-0.533
G1 X-38.976 Y30.419 Z-0.280
G1 X-39.922 Y30.686 Z-0.277
G1 X-40.822 Y31.078 Z-0.277
G1 X-41.661 Y31.590 Z-0.277
G1 X-42.422 Y32.211 Z-0.277
G1 X-43.091 Y32.930 Z-0.358
G1 X-43.657 Y33.733 Z-0.533
G1 X-44.108 Y34.606 Z-0.533
G1 X-44.435 Y35.532 Z-0.277
G1 X-44.634 Y36.494 Z-0.277
G1 X-44.700 Y37.474 Z-0.277
G1 X-44.632 Y38.454 Z-0.277
G1 X-44.431 Y39.416 Z-0.277
G1 X-44.101 Y40.341 Z-0.533
G1 X-43.648 Y41.213 Z-0.533
G1 X-43.081 Y42.015 Z-0.352
G1 X-42.410 Y42.732 Z-0.277
G1 X-41.648 Y43.352 Z-0.277
G1 X-40.808 Y43.861 Z-0.277
G1 X-39.907 Y44.252 Z-0.277
G1 X-38.960 Y44.517 Z-0.281
G1 X-37.987 Y44.650 Z-0.533
G1 X-37.005 Y44.649 Z-0.533
G1 X-36.032 Y44.515 Z-0.280
G1 X-35.086 Y44.249 Z-0.277
G1 X-34.185 Y43.858 Z-0.277
G1 X-33.346 Y43.347 Z-0.277
G1 X-32.584 Y42.727 Z-0.277
G1 X-31.914 Y42.009 Z-0.355
G1 X-31.347 Y41.206 Z-0.533
G1 X-30.896 Y40.334 Z-0.533
G1 X-30.567 Y39.408 Z-0.277
G1 X-30.367 Y38.446 Z-0.277
G1 X-30.300 Y37.466 Z-0.277
G1 X-30.300 Y37.450 Z-0.277
(End of step 11.)
G0 Z3.000
G0 X-29.820 Y37.450
(Begin step 12.)
G0 X-29.820 Y37.450
(part 1)
G1 X-29.820 Y37.450 Z-0.056
G1 X-29.885 Y36.469 Z-0.056
G1 X-30.075 Y35.503 Z-0.056
G1 X-30.387 Y34.570 Z-0.194
G1 X-30.815 Y33.685 Z-0.533
G1 X-31.354 Y32.861 Z-0.265
G1 X-31.993 Y32.113 Z-0.056
G1 X-32.722 Y31.453 Z-0.056
G1 X-33.530 Y30.892 Z-0.056
G1 X-34.403 Y30.438 Z-0.056
G1 X-35.327 Y30.100 Z-0.056
G1 X-36.287 Y29.883 Z-0.128
G1 X-37.266 Y29.790 Z-0.533
G1 X-38.249 Y29.823 Z-0.380
G1 X-39.220 Y29.981 Z-0.056
G1 X-40.163 Y30.263 Z-0.056
G1 X-41.062 Y30.662 Z-0.056
G1 X-41.902 Y31.173 Z-0.056
G1 X-42.671 Y31.788 Z-0.056
G1 X-43.354 Y32.495 Z-0.085
G1 X-43.942 Y33.284 Z-0.533
G1 X-44.423 Y34.142 Z-0.533
G1 X-44.792 Y35.055 Z-0.060
G1 X-45.040 Y36.006 Z-0.056
G1 X-45.165 Y36.982 Z-0.056
G1 X-45.164 Y37.966 Z-0.056
G1 X-45.037 Y38.942 Z-0.056
G1 X-44.786 Y39.893 Z-0.061
G1 X-44.416 Y40.805 Z-0.533
G1 X-43.933 Y41.661 Z-0.533
G1 X-43.344 Y42.449 Z-0.081
G1 X-42.659 Y43.156 Z-0.056
G1 X-41.889 Y43.768 Z-0.056
G1 X-41.048 Y44.278 Z-0.056
G1 X-40.148 Y44.675 Z-0.056
G1 X-39.205 Y44.955 Z-0.056
G1 X-38.233 Y45.111 Z-0.393
G1 X-37.250 Y45.142 Z-0.533
G1 X-36.271 Y45.047 Z-0.123
G1 X-35.312 Y44.828 Z-0.056
G1 X-34.389 Y44.488 Z-0.056
G1 X-33.517 Y44.032 Z-0.056
G1 X-32.710 Y43.469 Z-0.056
G1 X-31.982 Y42.808 Z-0.056
G1 X-31.344 Y42.058 Z-0.275
G1 X-30.808 Y41.234 Z-0.533
G1 X-30.381 Y40.347 Z-0.186
G1 X-30.071 Y39.414 Z-0.056
G1 X-29.883 Y38.448 Z-0.056
G1 X-29.820 Y37.466 Z-0.056
G1 X-29.820 Y37.450 Z-0.056
(End of step 12.)
G0 Z3.000
G0 X-29.340 Y37.450
(Begin step 13.)
G0 X-29.340 Y37.450
(part 1)
G1 X-29.340 Y37.450 Z0.000
G1 X-29.401 Y36.467 Z0.000
G1 X-29.581 Y35.499 Z0.000
G1 X-29.876 Y34.559 Z-0.066
G1 X-30.282 Y33.661 Z-0.533
G1 X-30.793 Y32.819 Z-0.419
G1 X-31.402 Y32.045 Z-0.003
G1 X-32.099 Y31.349 Z0.000
G1 X-32.876 Y30.743 Z0.000
G1 X-33.720 Y30.235 Z0.000
G1 X-34.619 Y29.832 Z0.000
G1 X-35.559 Y29.540 Z0.000
G1 X-36.529 Y29.364 Z-0.202
G1 X-37.512 Y29.306 Z-0.533
G1 X-38.495 Y29.367 Z-0.189
G1 X-39.464 Y29.546 Z0.000
G1 X-40.404 Y29.840 Z0.000
G1 X-41.302 Y30.246 Z0.000
G1 X-42.144 Y30.757 Z0.000
G1 X-42.919 Y31.365 Z0.000
G1 X-43.614 Y32.063 Z-0.005
G1 X-44.221 Y32.839 Z-0.441
G1 X-44.730 Y33.682 Z-0.533
G1 X-45.133 Y34.581 Z-0.059
G1 X-45.425 Y35.522 Z0.000
G1 X-45.602 Y36.491 Z0.000
G1 X-45.660 Y37.474 Z0.000
G1 X-45.600 Y38.457 Z0.000
G1 X-45.421 Y39.426 Z0.000
G1 X-45.127 Y40.366 Z-0.064
G1 X-44.722 Y41.264 Z-0.533
G1 X-44.212 Y42.107 Z-0.426
G1 X-43.604 Y42.882 Z-0.004
G1 X-42.907 Y43.578 Z0.000
G1 X-42.131 Y44.185 Z0.000
G1 X-41.288 Y44.694 Z0.000
G1 X-40.389 Y45.098 Z0.000
G1 X-39.448 Y45.390 Z0.000
G1 X-38.479 Y45.567 Z-0.198
G1 X-37.496 Y45.626 Z-0.533
G1 X-36.513 Y45.566 Z-0.194
G1 X-35.544 Y45.388 Z0.000
G1 X-34.604 Y45.095 Z0.000
G1 X-33.705 Y44.690 Z0.000
G1 X-32.863 Y44.180 Z0.000
G1 X-32.087 Y43.573 Z0.000
G1 X-31.391 Y42.876 Z-0.004
G1 X-30.784 Y42.100 Z-0.433
G1 X-30.274 Y41.257 Z-0.533
G1 X-29.870 Y40.359 Z-0.062
G1 X-29.577 Y39.418 Z0.000
G1 X-29.399 Y38.450 Z0.000
G1 X-29.340 Y37.466 Z0.000
G1 X-29.340 Y37.450 Z0.000
(End of step 13.)
G0 Z3.000
G0 X-28.860 Y37.450
(Begin step 14.)
G0 X-28.860 Y37.450
(part 1)
G1 X-28.860 Y37.450 Z0.000
G1 X-28.918 Y36.466 Z0.000
G1 X-29.088 Y35.494 Z0.000
G1 X-29.368 Y34.549 Z-0.014
G1 X-29.753 Y33.641 Z-0.530
G1 X-30.239 Y32.783 Z-0.533
G1 X-30.820 Y31.986 Z-0.037
G1 X-31.488 Y31.261 Z0.000
G1 X-32.235 Y30.616 Z0.000
G1 X-33.050 Y30.060 Z0.000
G1 X-33.923 Y29.602 Z0.000
G1 X-34.842 Y29.245 Z0.000
G1 X-35.796 Y28.996 Z-0.001
G1 X-36.773 Y28.857 Z-0.370
G1 X-37.759 Y28.830 Z-0.533
G1 X-38.741 Y28.916 Z-0.083
G1 X-39.707 Y29.113 Z0.000
G1 X-40.645 Y29.419 Z0.000
G1 X-41.542 Y29.830 Z0.000
G1 X-42.385 Y30.340 Z0.000
G1 X-43.166 Y30.943 Z0.000
G1 X-43.872 Y31.631 Z0.000
G1 X-44.496 Y32.396 Z-0.249
G1 X-45.028 Y33.226 Z-0.533
G1 X-45.462 Y34.111 Z-0.149
G1 X-45.792 Y35.040 Z0.000
G1 X-46.015 Y36.001 Z0.000
G1 X-46.126 Y36.981 Z0.000
G1 X-46.125 Y37.967 Z0.000
G1 X-46.012 Y38.947 Z0.000
G1 X-45.788 Y39.907 Z0.000
G1 X-45.456 Y40.836 Z-0.157
G1 X-45.020 Y41.721 Z-0.533
G1 X-44.486 Y42.550 Z-0.239
G1 X-43.861 Y43.313 Z0.000
G1 X-43.154 Y44.000 Z0.000
G1 X-42.372 Y44.601 Z0.000
G1 X-41.527 Y45.110 Z0.000
G1 X-40.630 Y45.519 Z0.000
G1 X-39.692 Y45.824 Z0.000
G1 X-38.725 Y46.019 Z-0.088
G1 X-37.743 Y46.103 Z-0.533
G1 X-36.757 Y46.074 Z-0.357
G1 X-35.781 Y45.933 Z-0.000
G1 X-34.827 Y45.682 Z0.000
G1 X-33.908 Y45.324 Z0.000
G1 X-33.036 Y44.864 Z0.000
G1 X-32.222 Y44.307 Z0.000
G1 X-31.477 Y43.661 Z0.000
G1 X-30.810 Y42.934 Z-0.041
G1 X-30.231 Y42.136 Z-0.533
G1 X-29.746 Y41.277 Z-0.512
G1 X-29.362 Y40.369 Z-0.012
G1 X-29.084 Y39.423 Z0.000
G1 X-28.916 Y38.451 Z0.000
G1 X-28.860 Y37.466 Z0.000
G1 X-28.860 Y37.450 Z0.000
(End of step 14.)
G0 Z3.000
G0 X-28.380 Y37.450
(Begin step 15.)
G0 X-28.380 Y37.450
(part 1)
G1 X-28.380 Y37.450 Z0.000
G1 X-28.435 Y36.465 Z0.000
G1 X-28.597 Y35.491 Z0.000
G1 X-28.862 Y34.540 Z0.000
G1 X-29.229 Y33.623 Z-0.307
G1 X-29.693 Y32.752 Z-0.533
G1 X-30.248 Y31.936 Z-0.111
G1 X-30.889 Y31.184 Z0.000
G1 X-31.606 Y30.506 Z0.000
G1 X-32.393 Y29.910 Z0.000
G1 X-33.240 Y29.402 Z0.000
G1 X-34.136 Y28.989 Z0.000
G1 X-35.072 Y28.675 Z0.000
G1 X-36.037 Y28.464 Z-0.026
G1 X-37.018 Y28.359 Z-0.533
G1 X-38.006 Y28.360 Z-0.533
G1 X-38.987 Y28.468 Z-0.022
G1 X-39.951 Y28.682 Z0.000
G1 X-40.886 Y28.998 Z0.000
G1 X-41.781 Y29.414 Z0.000
G1 X-42.627 Y29.924 Z0.000
G1 X-43.412 Y30.522 Z0.000
G1 X-44.128 Y31.202 Z0.000
G1 X-44.766 Y31.955 Z-0.121
G1 X-45.319 Y32.772 Z-0.533
G1 X-45.781 Y33.645 Z-0.290
G1 X-46.145 Y34.563 Z0.000
G1 X-46.409 Y35.514 Z0.000
G1 X-46.567 Y36.488 Z0.000
G1 X-46.620 Y37.474 Z0.000
G1 X-46.566 Y38.460 Z0.000
G1 X-46.405 Y39.434 Z0.000
G1 X-46.140 Y40.385 Z0.000
G1 X-45.774 Y41.302 Z-0.301
G1 X-45.311 Y42.174 Z-0.533
G1 X-44.757 Y42.990 Z-0.114
G1 X-44.117 Y43.742 Z0.000
G1 X-43.400 Y44.421 Z0.000
G1 X-42.613 Y45.018 Z0.000
G1 X-41.767 Y45.526 Z0.000
G1 X-40.871 Y45.940 Z0.000
G1 X-39.935 Y46.255 Z0.000
G1 X-38.971 Y46.467 Z-0.024
G1 X-37.990 Y46.573 Z-0.533
G1 X-37.002 Y46.573 Z-0.533
G1 X-36.021 Y46.466 Z-0.023
G1 X-35.057 Y46.253 Z0.000
G1 X-34.122 Y45.937 Z0.000
G1 X-33.226 Y45.523 Z0.000
G1 X-32.380 Y45.013 Z0.000
G1 X-31.594 Y44.416 Z0.000
G1 X-30.878 Y43.737 Z0.000
G1 X-30.239 Y42.984 Z-0.118
G1 X-29.685 Y42.167 Z-0.533
G1 X-29.222 Y41.295 Z-0.296
G1 X-28.857 Y40.378 Z0.000
G1 X-28.593 Y39.426 Z0.000
G1 X-28.433 Y38.452 Z0.000
G1 X-28.380 Y37.466 Z0.000
G1 X-28.380 Y37.450 Z0.000
(End of step 15.)
G0 Z3.000
G0 X-27.900 Y37.450
(Begin step 16.)
G0 X-27.900 Y37.450
(part 1)
G1 X-27.900 Y37.450 Z0.000
G1 X-27.953 Y36.464 Z0.000
G1 X-28.106 Y35.487 Z0.000
G1 X-28.359 Y34.532 Z0.000
G1 X-28.709 Y33.608 Z-0.159
G1 X-29.153 Y32.725 Z-0.533
G1 X-29.684 Y31.892 Z-0.232
G1 X-30.298 Y31.118 Z0.000
G1 X-30.989 Y30.412 Z0.000
G1 X-31.749 Y29.780 Z0.000
G1 X-32.569 Y29.229 Z0.000
G1 X-33.442 Y28.766 Z0.000
G1 X-34.358 Y28.395 Z0.000
G1 X-35.307 Y28.120 Z0.000
G1 X-36.280 Y27.944 Z-0.090
G1 X-37.265 Y27.869 Z-0.533
G1 X-38.253 Y27.896 Z-0.349
G1 X-39.232 Y28.024 Z-0.000
G1 X-40.194 Y28.252 Z0.000
G1 X-41.127 Y28.578 Z0.000
G1 X-42.021 Y28.998 Z0.000
G1 X-42.868 Y29.507 Z0.000
G1 X-43.658 Y30.101 Z0.000
G1 X-44.382 Y30.773 Z0.000
G1 X-45.034 Y31.516 Z-0.042
G1 X-45.605 Y32.322 Z-0.533
G1 X-46.091 Y33.182 Z-0.503
G1 X-46.486 Y34.088 Z-0.010
G1 X-46.786 Y35.030 Z0.000
G1 X-46.987 Y35.997 Z0.000
G1 X-47.088 Y36.980 Z0.000
G1 X-47.087 Y37.968 Z0.000
G1 X-46.984 Y38.951 Z0.000
G1 X-46.782 Y39.918 Z0.000
G1 X-46.480 Y40.859 Z-0.012
G1 X-46.084 Y41.764 Z-0.520
G1 X-45.597 Y42.624 Z-0.533
G1 X-45.024 Y43.429 Z-0.038
G1 X-44.371 Y44.171 Z0.000
G1 X-43.645 Y44.842 Z0.000
G1 X-42.855 Y45.434 Z0.000
G1 X-42.007 Y45.942 Z0.000
G1 X-41.112 Y46.361 Z0.000
G1 X-40.179 Y46.685 Z0.000
G1 X-39.217 Y46.912 Z-0.000
G1 X-38.237 Y47.038 Z-0.362
G1 X-37.249 Y47.063 Z-0.533
G1 X-36.264 Y46.986 Z-0.085
G1 X-35.292 Y46.809 Z0.000
G1 X-34.343 Y46.532 Z0.000
G1 X-33.428 Y46.160 Z0.000
G1 X-32.556 Y45.695 Z0.000
G1 X-31.736 Y45.143 Z0.000
G1 X-30.977 Y44.510 Z0.000
G1 X-30.288 Y43.802 Z0.000
G1 X-29.675 Y43.027 Z-0.242
G1 X-29.145 Y42.194 Z-0.533
G1 X-28.703 Y41.310 Z-0.152
G1 X-28.354 Y40.385 Z0.000
G1 X-28.103 Y39.429 Z0.000
G1 X-27.951 Y38.453 Z0.000
G1 X-27.900 Y37.466 Z0.000
G1 X-27.900 Y37.450 Z0.000
(End of step 16.)
G0 Z3.000
G0 X-27.420 Y37.450
(Begin step 17.)
G0 X-27.420 Y37.450
(part 1)
G1 X-27.420 Y37.450 Z-0.026
G1 X-27.470 Y36.463 Z-0.026
G1 X-27.617 Y35.485 Z-0.026
G1 X-27.858 Y34.526 Z-0.026
G1 X-28.193 Y33.595 Z-0.105
G1 X-28.617 Y32.702 Z-0.533
G1 X-29.127 Y31.854 Z-0.481
G1 X-29.717 Y31.061 Z-0.032
G1 X-30.382 Y30.329 Z-0.026
G1 X-31.116 Y29.666 Z-0.026
G1 X-31.911 Y29.078 Z-0.026
G1 X-32.760 Y28.570 Z-0.026
G1 X-33.655 Y28.149 Z-0.026
G1 X-34.586 Y27.817 Z-0.026
G1 X-35.546 Y27.578 Z-0.026
G1 X-36.524 Y27.434 Z-0.251
G1 X-37.512 Y27.386 Z-0.533
G1 X-38.500 Y27.436 Z-0.237
G1 X-39.478 Y27.582 Z-0.026
G1 X-40.437 Y27.824 Z-0.026
G1 X-41.368 Y28.158 Z-0.026
G1 X-42.261 Y28.582 Z-0.026
G1 X-43.109 Y29.091 Z-0.026
G1 X-43.903 Y29.681 Z-0.026
G1 X-44.635 Y30.346 Z-0.026
G1 X-45.298 Y31.079 Z-0.034
G1 X-45.886 Y31.874 Z-0.505
G1 X-46.394 Y32.723 Z-0.533
G1 X-46.816 Y33.617 Z-0.097
G1 X-47.148 Y34.549 Z-0.026
G1 X-47.388 Y35.508 Z-0.026
G1 X-47.532 Y36.486 Z-0.026
G1 X-47.580 Y37.474 Z-0.026
G1 X-47.531 Y38.462 Z-0.026
G1 X-47.385 Y39.440 Z-0.026
G1 X-47.144 Y40.399 Z-0.026
G1 X-46.810 Y41.330 Z-0.102
G1 X-46.387 Y42.224 Z-0.533
G1 X-45.878 Y43.072 Z-0.489
G1 X-45.288 Y43.866 Z-0.033
G1 X-44.623 Y44.598 Z-0.026
G1 X-43.890 Y45.262 Z-0.026
G1 X-43.096 Y45.851 Z-0.026
G1 X-42.247 Y46.358 Z-0.026
G1 X-41.353 Y46.781 Z-0.026
G1 X-40.422 Y47.114 Z-0.026
G1 X-39.462 Y47.353 Z-0.026
G1 X-38.484 Y47.498 Z-0.247
G1 X-37.496 Y47.546 Z-0.533
G1 X-36.508 Y47.497 Z-0.242
G1 X-35.530 Y47.352 Z-0.026
G1 X-34.571 Y47.111 Z-0.026
G1 X-33.640 Y46.778 Z-0.026
G1 X-32.746 Y46.355 Z-0.026
G1 X-31.898 Y45.846 Z-0.026
G1 X-31.104 Y45.257 Z-0.026
G1 X-30.371 Y44.592 Z-0.026
G1 X-29.707 Y43.860 Z-0.034
G1 X-29.118 Y43.065 Z-0.497
G1 X-28.610 Y42.217 Z-0.533
G1 X-28.187 Y41.323 Z-0.099
G1 X-27.854 Y40.392 Z-0.026
G1 X-27.614 Y39.432 Z-0.026
G1 X-27.469 Y38.454 Z-0.026
G1 X-27.420 Y37.466 Z-0.026
G1 X-27.420 Y37.450 Z-0.026
(End of step 17.)
G0 Z3.000
G0 X-26.940 Y37.450
(Begin step 18.)
G0 X-26.940 Y37.450
(part 1)
G1 X-26.940 Y37.450 Z-0.163
G1 X-26.988 Y36.462 Z-0.163
G1 X-27.128 Y35.482 Z-0.163
G1 X-27.359 Y34.520 Z-0.163
G1 X-27.680 Y33.583 Z-0.194
G1 X-28.086 Y32.681 Z-0.533
G1 X-28.576 Y31.821 Z-0.533
G1 X-29.144 Y31.010 Z-0.228
G1 X-29.785 Y30.256 Z-0.163
G1 X-30.494 Y29.565 Z-0.163
G1 X-31.264 Y28.944 Z-0.162
G1 X-32.089 Y28.398 Z-0.163
G1 X-32.962 Y27.931 Z-0.163
G1 X-33.875 Y27.548 Z-0.163
G1 X-34.819 Y27.252 Z-0.163
G1 X-35.787 Y27.046 Z-0.169
G1 X-36.770 Y26.932 Z-0.533
G1 X-37.759 Y26.909 Z-0.533
G1 X-38.747 Y26.980 Z-0.288
G1 X-39.723 Y27.143 Z-0.163
G1 X-40.680 Y27.396 Z-0.163
G1 X-41.608 Y27.738 Z-0.163
G1 X-42.501 Y28.166 Z-0.162
G1 X-43.350 Y28.675 Z-0.163
G1 X-44.147 Y29.261 Z-0.163
G1 X-44.886 Y29.919 Z-0.163
G1 X-45.560 Y30.644 Z-0.162
G1 X-46.164 Y31.428 Z-0.494
G1 X-46.691 Y32.266 Z-0.533
G1 X-47.137 Y33.149 Z-0.372
G1 X-47.499 Y34.070 Z-0.163
G1 X-47.773 Y35.021 Z-0.163
G1 X-47.957 Y35.994 Z-0.163
G1 X-48.049 Y36.979 Z-0.163
G1 X-48.048 Y37.969 Z-0.163
G1 X-47.955 Y38.954 Z-0.163
G1 X-47.769 Y39.927 Z-0.163
G1 X-47.494 Y40.877 Z-0.163
G1 X-47.131 Y41.798 Z-0.381
G1 X-46.683 Y42.680 Z-0.533
G1 X-46.154 Y43.517 Z-0.482
G1 X-45.550 Y44.301 Z-0.163
G1 X-44.875 Y45.024 Z-0.163
G1 X-44.135 Y45.682 Z-0.163
G1 X-43.336 Y46.267 Z-0.163
G1 X-42.487 Y46.775 Z-0.163
G1 X-41.594 Y47.201 Z-0.163
G1 X-40.664 Y47.541 Z-0.163
G1 X-39.707 Y47.793 Z-0.163
G1 X-38.731 Y47.954 Z-0.295
G1 X-37.743 Y48.023 Z-0.533
G1 X-36.754 Y48.000 Z-0.533
G1 X-35.771 Y47.884 Z-0.168
G1 X-34.804 Y47.676 Z-0.163
G1 X-33.860 Y47.379 Z-0.163
G1 X-32.947 Y46.995 Z-0.163
G1 X-32.075 Y46.526 Z-0.163
G1 X-31.251 Y45.979 Z-0.163
G1 X-30.482 Y45.356 Z-0.163
G1 X-29.774 Y44.665 Z-0.163
G1 X-29.134 Y43.910 Z-0.233
G1 X-28.567 Y43.098 Z-0.533
G1 X-28.079 Y42.237 Z-0.533
G1 X-27.674 Y41.334 Z-0.191
G1 X-27.355 Y40.397 Z-0.163
G1 X-27.125 Y39.435 Z-0.163
G1 X-26.986 Y38.455 Z-0.163
G1 X-26.940 Y37.466 Z-0.163
G1 X-26.940 Y37.450 Z-0.163
(End of step 18.)
G0 Z3.000
G0 X-26.460 Y37.450
(Begin step 19.)
G0 X-26.460 Y37.450
(part 1)
G1 X-26.460 Y37.450 Z-0.443
G1 X-26.506 Y36.461 Z-0.443
G1 X-26.640 Y35.480 Z-0.443
G1 X-26.862 Y34.514 Z-0.443
G1 X-27.169 Y33.573 Z-0.449
G1 X-27.560 Y32.663 Z-0.533
G1 X-28.030 Y31.791 Z-0.533
G1 X-28.577 Y30.965 Z-0.533
G1 X-29.195 Y30.192 Z-0.443
G1 X-29.881 Y29.477 Z-0.443
G1 X-30.627 Y28.826 Z-0.443
G1 X-31.429 Y28.245 Z-0.443
G1 X-32.280 Y27.738 Z-0.443
G1 X-33.173 Y27.310 Z-0.443
G1 X-34.101 Y26.963 Z-0.443
G1 X-35.056 Y26.700 Z-0.443
G1 X-36.030 Y26.525 Z-0.519
G1 X-37.017 Y26.437 Z-0.533
G1 X-38.007 Y26.438 Z-0.533
G1 X-38.993 Y26.528 Z-0.511
G1 X-39.968 Y26.706 Z-0.443
G1 X-40.922 Y26.970 Z-0.443
G1 X-41.849 Y27.319 Z-0.443
G1 X-42.741 Y27.750 Z-0.443
G1 X-43.591 Y28.258 Z-0.443
G1 X-44.391 Y28.841 Z-0.443
G1 X-45.137 Y29.494 Z-0.443
G1 X-45.820 Y30.210 Z-0.443
G1 X-46.437 Y30.985 Z-0.533
G1 X-46.982 Y31.812 Z-0.533
G1 X-47.451 Y32.684 Z-0.533
G1 X-47.839 Y33.595 Z-0.447
G1 X-48.144 Y34.538 Z-0.443
G1 X-48.364 Y35.503 Z-0.443
G1 X-48.496 Y36.485 Z-0.443
G1 X-48.540 Y37.474 Z-0.443
G1 X-48.495 Y38.464 Z-0.443
G1 X-48.361 Y39.445 Z-0.443
G1 X-48.140 Y40.410 Z-0.443
G1 X-47.834 Y41.352 Z-0.448
G1 X-47.444 Y42.263 Z-0.533
G1 X-46.974 Y43.134 Z-0.533
G1 X-46.428 Y43.961 Z-0.533
G1 X-45.810 Y44.735 Z-0.443
G1 X-45.125 Y45.450 Z-0.443
G1 X-44.379 Y46.101 Z-0.443
G1 X-43.577 Y46.683 Z-0.443
G1 X-42.727 Y47.191 Z-0.443
G1 X-41.834 Y47.620 Z-0.443
G1 X-40.907 Y47.967 Z-0.443
G1 X-39.952 Y48.230 Z-0.443
G1 X-38.978 Y48.407 Z-0.517
G1 X-37.991 Y48.495 Z-0.533
G1 X-37.001 Y48.495 Z-0.533
G1 X-36.014 Y48.406 Z-0.514
G1 X-35.040 Y48.229 Z-0.443
G1 X-34.085 Y47.965 Z-0.443
G1 X-33.158 Y47.617 Z-0.443
G1 X-32.266 Y47.187 Z-0.443
G1 X-31.416 Y46.679 Z-0.443
G1 X-30.615 Y46.096 Z-0.443
G1 X-29.869 Y45.444 Z-0.443
G1 X-29.185 Y44.729 Z-0.443
G1 X-28.568 Y43.954 Z-0.533
G1 X-28.022 Y43.127 Z-0.533
G1 X-27.553 Y42.255 Z-0.533
G1 X-27.164 Y41.345 Z-0.448
G1 X-26.858 Y40.403 Z-0.443
G1 X-26.637 Y39.437 Z-0.443
G1 X-26.504 Y38.456 Z-0.443
G1 X-26.460 Y37.466 Z-0.443
G1 X-26.460 Y37.450 Z-0.443
(End of step 19.)
G0 Z3.000
G0 X-25.980 Y37.450
(Begin step 20.)
G0 X-25.980 Y37.450
(part 1)
G1 X-25.980 Y37.450 Z-0.533
G1 X-26.024 Y36.460 Z-0.533
G1 X-26.153 Y35.478 Z-0.533
G1 X-26.366 Y34.510 Z-0.533
G1 X-26.661 Y33.564 Z-0.533
G1 X-27.037 Y32.647 Z-0.533
G1 X-27.490 Y31.765 Z-0.533
G1 X-28.017 Y30.926 Z-0.533
G1 X-28.614 Y30.135 Z-0.533
G1 X-29.277 Y29.398 Z-0.533
G1 X-30.001 Y28.722 Z-0.533
G1 X-30.780 Y28.109 Z-0.533
G1 X-31.609 Y27.566 Z-0.533
G1 X-32.482 Y27.097 Z-0.533
G1 X-33.391 Y26.704 Z-0.533
G1 X-34.332 Y26.391 Z-0.533
G1 X-35.295 Y26.159 Z-0.533
G1 X-36.275 Y26.012 Z-0.533
G1 X-37.264 Y25.949 Z-0.533
G1 X-38.255 Y25.971 Z-0.533
G1 X-39.240 Y26.078 Z-0.533
G1 X-40.212 Y26.270 Z-0.533
G1 X-41.165 Y26.545 Z-0.533
G1 X-42.090 Y26.900 Z-0.533
G1 X-42.981 Y27.334 Z-0.533
G1 X-43.831 Y27.842 Z-0.533
G1 X-44.635 Y28.422 Z-0.533
G1 X-45.386 Y29.069 Z-0.533
G1 X-46.079 Y29.778 Z-0.533
G1 X-46.708 Y30.543 Z-0.533
G1 X-47.269 Y31.360 Z-0.533
G1 X-47.757 Y32.222 Z-0.533
G1 X-48.170 Y33.123 Z-0.533
G1 X-48.504 Y34.056 Z-0.533
G1 X-48.756 Y35.015 Z-0.533
G1 X-48.925 Y35.991 Z-0.533
G1 X-49.010 Y36.979 Z-0.533
G1 X-49.009 Y37.970 Z-0.533
G1 X-48.923 Y38.957 Z-0.533
G1 X-48.753 Y39.933 Z-0.533
G1 X-48.499 Y40.891 Z-0.533
G1 X-48.164 Y41.824 Z-0.533
G1 X-47.750 Y42.724 Z-0.533
G1 X-47.260 Y43.586 Z-0.533
G1 X-46.698 Y44.402 Z-0.533
G1 X-46.068 Y45.167 Z-0.533
G1 X-45.374 Y45.875 Z-0.533
G1 X-44.623 Y46.520 Z-0.533
G1 X-43.818 Y47.099 Z-0.533
G1 X-42.967 Y47.606 Z-0.533
G1 X-42.075 Y48.039 Z-0.533
G1 X-41.149 Y48.393 Z-0.533
G1 X-40.197 Y48.666 Z-0.533
G1 X-39.224 Y48.856 Z-0.533
G1 X-38.239 Y48.963 Z-0.533
G1 X-37.248 Y48.984 Z-0.533
G1 X-36.259 Y48.919 Z-0.533
G1 X-35.280 Y48.770 Z-0.533
G1 X-34.316 Y48.538 Z-0.533
G1 X-33.376 Y48.223 Z-0.533
G1 X-32.467 Y47.829 Z-0.533
G1 X-31.595 Y47.358 Z-0.533
G1 X-30.767 Y46.814 Z-0.533
G1 X-29.988 Y46.201 Z-0.533
G1 X-29.266 Y45.523 Z-0.533
G1 X-28.604 Y44.785 Z-0.533
G1 X-28.008 Y43.993 Z-0.533
G1 X-27.482 Y43.153 Z-0.533
G1 X-27.030 Y42.271 Z-0.533
G1 X-26.656 Y41.354 Z-0.533
G1 X-26.362 Y40.407 Z-0.533
G1 X-26.150 Y39.439 Z-0.533
G1 X-26.023 Y38.456 Z-0.533
G1 X-25.980 Y37.466 Z-0.533
G1 X-25.980 Y37.450 Z-0.533
(End of step 20.)
G0 Z3.000
G0 X-25.500 Y37.450
(Begin step 21.)
G0 X-25.500 Y37.450
(part 1)
G1 X-25.500 Y37.450 Z-0.533
G1 X-25.542 Y36.460 Z-0.533
G1 X-25.666 Y35.476 Z-0.533
G1 X-25.871 Y34.506 Z-0.533
G1 X-26.155 Y33.556 Z-0.533
G1 X-26.517 Y32.632 Z-0.533
G1 X-26.953 Y31.742 Z-0.533
G1 X-27.462 Y30.891 Z-0.533
G1 X-28.039 Y30.084 Z-0.533
G1 X-28.681 Y29.329 Z-0.533
G1 X-29.383 Y28.628 Z-0.533
G1 X-30.140 Y27.988 Z-0.533
G1 X-30.948 Y27.413 Z-0.533
G1 X-31.800 Y26.906 Z-0.533
G1 X-32.692 Y26.472 Z-0.533
G1 X-33.616 Y26.112 Z-0.533
G1 X-34.566 Y25.830 Z-0.533
G1 X-35.537 Y25.628 Z-0.533
G1 X-36.521 Y25.506 Z-0.533
G1 X-37.512 Y25.466 Z-0.533
G1 X-38.503 Y25.508 Z-0.533
G1 X-39.487 Y25.632 Z-0.533
G1 X-40.457 Y25.836 Z-0.533
G1 X-41.407 Y26.120 Z-0.533
G1 X-42.330 Y26.481 Z-0.533
G1 X-43.221 Y26.918 Z-0.533
G1 X-44.072 Y27.426 Z-0.533
G1 X-44.879 Y28.003 Z-0.533
G1 X-45.635 Y28.644 Z-0.533
G1 X-46.335 Y29.346 Z-0.533
G1 X-46.976 Y30.103 Z-0.533
G1 X-47.551 Y30.911 Z-0.533
G1 X-48.058 Y31.763 Z-0.533
G1 X-48.493 Y32.654 Z-0.533
G1 X-48.853 Y33.578 Z-0.533
G1 X-49.135 Y34.529 Z-0.533
G1 X-49.338 Y35.499 Z-0.533
G1 X-49.460 Y36.483 Z-0.533
G1 X-49.500 Y37.474 Z-0.533
G1 X-49.458 Y38.465 Z-0.533
G1 X-49.335 Y39.449 Z-0.533
G1 X-49.131 Y40.419 Z-0.533
G1 X-48.847 Y41.369 Z-0.533
G1 X-48.486 Y42.293 Z-0.533
G1 X-48.050 Y43.184 Z-0.533
G1 X-47.542 Y44.035 Z-0.533
G1 X-46.966 Y44.842 Z-0.533
G1 X-46.325 Y45.598 Z-0.533
G1 X-45.623 Y46.299 Z-0.533
G1 X-44.866 Y46.939 Z-0.533
G1 X-44.059 Y47.515 Z-0.533
G1 X-43.207 Y48.022 Z-0.533
G1 X-42.316 Y48.458 Z-0.533
G1 X-41.392 Y48.818 Z-0.533
G1 X-40.441 Y49.100 Z-0.533
G1 X-39.471 Y49.303 Z-0.533
G1 X-38.487 Y49.426 Z-0.533
G1 X-37.496 Y49.466 Z-0.533
G1 X-36.505 Y49.425 Z-0.533
G1 X-35.521 Y49.302 Z-0.533
G1 X-34.551 Y49.098 Z-0.533
G1 X-33.601 Y48.815 Z-0.533
G1 X-32.677 Y48.454 Z-0.533
G1 X-31.786 Y48.019 Z-0.533
G1 X-30.935 Y47.511 Z-0.533
G1 X-30.128 Y46.935 Z-0.533
G1 X-29.371 Y46.294 Z-0.533
G1 X-28.670 Y45.592 Z-0.533
G1 X-28.029 Y44.835 Z-0.533
G1 X-27.453 Y44.028 Z-0.533
G1 X-26.946 Y43.177 Z-0.533
G1 X-26.510 Y42.286 Z-0.533
G1 X-26.150 Y41.362 Z-0.533
G1 X-25.867 Y40.411 Z-0.533
G1 X-25.664 Y39.441 Z-0.533
G1 X-25.541 Y38.457 Z-0.533
G1 X-25.500 Y37.466 Z-0.533
G1 X-25.500 Y37.450 Z-0.533
(End of step 21.)
G0 Z3.000
G0 X-25.020 Y37.450
(Begin step 22.)
G0 X-25.020 Y37.450
(part 1)
G1 X-25.020 Y37.450 Z-0.533
G1 X-25.061 Y36.459 Z-0.533
G1 X-25.180 Y35.474 Z-0.533
G1 X-25.377 Y34.502 Z-0.533
G1 X-25.651 Y33.548 Z-0.533
G1 X-26.000 Y32.619 Z-0.533
G1 X-26.421 Y31.721 Z-0.533
G1 X-26.912 Y30.859 Z-0.533
G1 X-27.471 Y30.039 Z-0.533
G1 X-28.092 Y29.266 Z-0.533
G1 X-28.773 Y28.544 Z-0.533
G1 X-29.510 Y27.879 Z-0.533
G1 X-30.296 Y27.275 Z-0.533
G1 X-31.129 Y26.735 Z-0.533
G1 X-32.001 Y26.263 Z-0.533
G1 X-32.909 Y25.862 Z-0.533
G1 X-33.845 Y25.533 Z-0.533
G1 X-34.804 Y25.281 Z-0.533
G1 X-35.781 Y25.105 Z-0.533
G1 X-36.768 Y25.008 Z-0.533
G1 X-37.760 Y24.989 Z-0.533
G1 X-38.750 Y25.049 Z-0.533
G1 X-39.733 Y25.188 Z-0.533
G1 X-40.701 Y25.404 Z-0.533
G1 X-41.649 Y25.696 Z-0.533
G1 X-42.571 Y26.063 Z-0.533
G1 X-43.461 Y26.502 Z-0.533
G1 X-44.313 Y27.010 Z-0.533
G1 X-45.122 Y27.584 Z-0.533
G1 X-45.883 Y28.221 Z-0.533
G1 X-46.591 Y28.916 Z-0.533
G1 X-47.241 Y29.665 Z-0.533
G1 X-47.830 Y30.463 Z-0.533
G1 X-48.354 Y31.306 Z-0.533
G1 X-48.809 Y32.188 Z-0.533
G1 X-49.192 Y33.103 Z-0.533
G1 X-49.502 Y34.045 Z-0.533
G1 X-49.736 Y35.009 Z-0.533
G1 X-49.892 Y35.989 Z-0.533
G1 X-49.970 Y36.978 Z-0.533
G1 X-49.970 Y37.970 Z-0.533
G1 X-49.890 Y38.959 Z-0.533
G1 X-49.733 Y39.939 Z-0.533
G1 X-49.498 Y40.903 Z-0.533
G1 X-49.187 Y41.845 Z-0.533
G1 X-48.802 Y42.759 Z-0.533
G1 X-48.346 Y43.640 Z-0.533
G1 X-47.821 Y44.482 Z-0.533
G1 X-47.231 Y45.280 Z-0.533
G1 X-46.580 Y46.028 Z-0.533
G1 X-45.871 Y46.722 Z-0.533
G1 X-45.109 Y47.358 Z-0.533
G1 X-44.299 Y47.931 Z-0.533
G1 X-43.447 Y48.438 Z-0.533
G1 X-42.556 Y48.876 Z-0.533
G1 X-41.634 Y49.242 Z-0.533
G1 X-40.686 Y49.533 Z-0.533
G1 X-39.717 Y49.748 Z-0.533
G1 X-38.734 Y49.885 Z-0.533
G1 X-37.744 Y49.944 Z-0.533
G1 X-36.752 Y49.924 Z-0.533
G1 X-35.765 Y49.825 Z-0.533
G1 X-34.789 Y49.648 Z-0.533
G1 X-33.830 Y49.394 Z-0.533
G1 X-32.894 Y49.065 Z-0.533
G1 X-31.987 Y48.663 Z-0.533
G1 X-31.115 Y48.189 Z-0.533
G1 X-30.283 Y47.648 Z-0.533
G1 X-29.497 Y47.043 Z-0.533
G1 X-28.762 Y46.377 Z-0.533
G1 X-28.082 Y45.655 Z-0.533
G1 X-27.461 Y44.881 Z-0.533
G1 X-26.904 Y44.060 Z-0.533
G1 X-26.414 Y43.197 Z-0.533
G1 X-25.993 Y42.298 Z-0.533
G1 X-25.646 Y41.369 Z-0.533
G1 X-25.373 Y40.415 Z-0.533
G1 X-25.177 Y39.443 Z-0.533
G1 X-25.059 Y38.458 Z-0.533
G1 X-25.020 Y37.466 Z-0.533
G1 X-25.020 Y37.450 Z-0.533
(End of step 22.)
G0 Z3.000
G0 X-24.540 Y37.450
(Begin step 23.)
G0 X-24.540 Y37.450
(part 1)
G1 X-24.540 Y37.450 Z-0.533
G1 X-24.579 Y36.458 Z-0.533
G1 X-24.694 Y35.472 Z-0.533
G1 X-24.884 Y34.498 Z-0.533
G1 X-25.149 Y33.541 Z-0.533
G1 X-25.485 Y32.608 Z-0.533
G1 X-25.892 Y31.702 Z-0.533
G1 X-26.367 Y30.831 Z-0.533
G1 X-26.908 Y29.998 Z-0.533
G1 X-27.511 Y29.210 Z-0.533
G1 X-28.172 Y28.469 Z-0.533
G1 X-28.888 Y27.782 Z-0.533
G1 X-29.654 Y27.151 Z-0.533
G1 X-30.467 Y26.581 Z-0.533
G1 X-31.320 Y26.074 Z-0.533
G1 X-32.210 Y25.635 Z-0.533
G1 X-33.131 Y25.265 Z-0.533
G1 X-34.078 Y24.966 Z-0.533
G1 X-35.045 Y24.741 Z-0.533
G1 X-36.026 Y24.590 Z-0.533
G1 X-37.016 Y24.515 Z-0.533
G1 X-38.008 Y24.516 Z-0.533
G1 X-38.998 Y24.593 Z-0.533
G1 X-39.979 Y24.746 Z-0.533
G1 X-40.945 Y24.973 Z-0.533
G1 X-41.891 Y25.273 Z-0.533
G1 X-42.811 Y25.645 Z-0.533
G1 X-43.701 Y26.086 Z-0.533
G1 X-44.553 Y26.594 Z-0.533
G1 X-45.365 Y27.166 Z-0.533
G1 X-46.130 Y27.798 Z-0.533
G1 X-46.845 Y28.487 Z-0.533
G1 X-47.505 Y29.228 Z-0.533
G1 X-48.106 Y30.018 Z-0.533
G1 X-48.645 Y30.852 Z-0.533
G1 X-49.118 Y31.724 Z-0.533
G1 X-49.524 Y32.630 Z-0.533
G1 X-49.859 Y33.564 Z-0.533
G1 X-50.121 Y34.522 Z-0.533
G1 X-50.309 Y35.496 Z-0.533
G1 X-50.423 Y36.482 Z-0.533
G1 X-50.460 Y37.474 Z-0.533
G1 X-50.421 Y38.466 Z-0.533
G1 X-50.307 Y39.452 Z-0.533
G1 X-50.117 Y40.426 Z-0.533
G1 X-49.854 Y41.383 Z-0.533
G1 X-49.518 Y42.317 Z-0.533
G1 X-49.111 Y43.223 Z-0.533
G1 X-48.637 Y44.095 Z-0.533
G1 X-48.097 Y44.928 Z-0.533
G1 X-47.495 Y45.717 Z-0.533
G1 X-46.834 Y46.457 Z-0.533
G1 X-46.118 Y47.145 Z-0.533
G1 X-45.352 Y47.777 Z-0.533
G1 X-44.540 Y48.347 Z-0.533
G1 X-43.687 Y48.854 Z-0.533
G1 X-42.797 Y49.294 Z-0.533
G1 X-41.876 Y49.665 Z-0.533
G1 X-40.930 Y49.964 Z-0.533
G1 X-39.963 Y50.190 Z-0.533
G1 X-38.982 Y50.341 Z-0.533
G1 X-37.992 Y50.417 Z-0.533
G1 X-37.000 Y50.417 Z-0.533
G1 X-36.010 Y50.340 Z-0.533
G1 X-35.029 Y50.189 Z-0.533
G1 X-34.063 Y49.962 Z-0.533
G1 X-33.116 Y49.662 Z-0.533
G1 X-32.196 Y49.291 Z-0.533
G1 X-31.306 Y48.850 Z-0.533
G1 X-30.453 Y48.343 Z-0.533
G1 X-29.641 Y47.772 Z-0.533
G1 X-28.876 Y47.140 Z-0.533
G1 X-28.161 Y46.452 Z-0.533
G1 X-27.500 Y45.711 Z-0.533
G1 X-26.899 Y44.921 Z-0.533
G1 X-26.359 Y44.088 Z-0.533
G1 X-25.885 Y43.216 Z-0.533
G1 X-25.479 Y42.310 Z-0.533
G1 X-25.144 Y41.376 Z-0.533
G1 X-24.881 Y40.419 Z-0.533
G1 X-24.692 Y39.444 Z-0.533
G1 X-24.578 Y38.458 Z-0.533
G1 X-24.540 Y37.466 Z-0.533
G1 X-24.540 Y37.450 Z-0.533
(End of step 23.)
G0 Z3.000
G0 X-24.060 Y37.450
(Begin step 24.)
G0 X-24.060 Y37.450
(part 1)
G1 X-24.060 Y37.450 Z-0.533
G1 X-24.098 Y36.458 Z-0.533
G1 X-24.209 Y35.471 Z-0.533
G1 X-24.393 Y34.495 Z-0.533
G1 X-24.648 Y33.535 Z-0.533
G1 X-24.973 Y32.597 Z-0.533
G1 X-25.367 Y31.685 Z-0.533
G1 X-25.827 Y30.805 Z-0.533
G1 X-26.350 Y29.962 Z-0.533
G1 X-26.935 Y29.159 Z-0.533
G1 X-27.577 Y28.401 Z-0.533
G1 X-28.274 Y27.693 Z-0.533
G1 X-29.020 Y27.039 Z-0.533
G1 X-29.814 Y26.441 Z-0.533
G1 X-30.649 Y25.904 Z-0.533
G1 X-31.521 Y25.429 Z-0.533
G1 X-32.426 Y25.021 Z-0.533
G1 X-33.359 Y24.680 Z-0.533
G1 X-34.314 Y24.409 Z-0.533
G1 X-35.287 Y24.210 Z-0.533
G1 X-36.272 Y24.082 Z-0.533
G1 X-37.264 Y24.028 Z-0.533
G1 X-38.257 Y24.048 Z-0.533
G1 X-39.245 Y24.140 Z-0.533
G1 X-40.225 Y24.305 Z-0.533
G1 X-41.189 Y24.542 Z-0.533
G1 X-42.133 Y24.850 Z-0.533
G1 X-43.052 Y25.227 Z-0.533
G1 X-43.941 Y25.670 Z-0.533
G1 X-44.794 Y26.178 Z-0.533
G1 X-45.608 Y26.747 Z-0.533
G1 X-46.377 Y27.375 Z-0.533
G1 X-47.098 Y28.058 Z-0.533
G1 X-47.766 Y28.792 Z-0.533
G1 X-48.379 Y29.574 Z-0.533
G1 X-48.932 Y30.399 Z-0.533
G1 X-49.422 Y31.262 Z-0.533
G1 X-49.848 Y32.160 Z-0.533
G1 X-50.206 Y33.086 Z-0.533
G1 X-50.495 Y34.036 Z-0.533
G1 X-50.713 Y35.005 Z-0.533
G1 X-50.858 Y35.987 Z-0.533
G1 X-50.931 Y36.978 Z-0.533
G1 X-50.931 Y37.971 Z-0.533
G1 X-50.857 Y38.961 Z-0.533
G1 X-50.710 Y39.943 Z-0.533
G1 X-50.491 Y40.912 Z-0.533
G1 X-50.201 Y41.862 Z-0.533
G1 X-49.842 Y42.788 Z-0.533
G1 X-49.415 Y43.684 Z-0.533
G1 X-48.923 Y44.547 Z-0.533
G1 X-48.369 Y45.371 Z-0.533
G1 X-47.756 Y46.152 Z-0.533
G1 X-47.087 Y46.886 Z-0.533
G1 X-46.365 Y47.568 Z-0.533
G1 X-45.595 Y48.195 Z-0.533
G1 X-44.781 Y48.763 Z-0.533
G1 X-43.927 Y49.270 Z-0.533
G1 X-43.037 Y49.712 Z-0.533
G1 X-42.118 Y50.088 Z-0.533
G1 X-41.174 Y50.394 Z-0.533
G1 X-40.209 Y50.630 Z-0.533
G1 X-39.229 Y50.795 Z-0.533
G1 X-38.241 Y50.886 Z-0.533
G1 X-37.248 Y50.904 Z-0.533
G1 X-36.256 Y50.849 Z-0.533
G1 X-35.271 Y50.720 Z-0.533
G1 X-34.299 Y50.519 Z-0.533
G1 X-33.344 Y50.247 Z-0.533
G1 X-32.411 Y49.906 Z-0.533
G1 X-31.507 Y49.496 Z-0.533
G1 X-30.635 Y49.021 Z-0.533
G1 X-29.800 Y48.482 Z-0.533
G1 X-29.008 Y47.884 Z-0.533
G1 X-28.262 Y47.228 Z-0.533
G1 X-27.566 Y46.519 Z-0.533
G1 X-26.925 Y45.761 Z-0.533
G1 X-26.341 Y44.958 Z-0.533
G1 X-25.819 Y44.113 Z-0.533
G1 X-25.360 Y43.233 Z-0.533
G1 X-24.967 Y42.320 Z-0.533
G1 X-24.643 Y41.382 Z-0.533
G1 X-24.389 Y40.422 Z-0.533
G1 X-24.207 Y39.446 Z-0.533
G1 X-24.097 Y38.459 Z-0.533
G1 X-24.060 Y37.466 Z-0.533
G1 X-24.060 Y37.450 Z-0.533
(End of step 24.)
G0 Z3.000
G0 X-23.580 Y37.450
(Begin step 25.)
G0 X-23.580 Y37.450
(part 1)
G1 X-23.580 Y37.450 Z-0.533
G1 X-23.617 Y36.457 Z-0.533
G1 X-23.724 Y35.470 Z-0.533
G1 X-23.901 Y34.492 Z-0.533
G1 X-24.148 Y33.530 Z-0.533
G1 X-24.463 Y32.588 Z-0.533
G1 X-24.844 Y31.670 Z-0.533
G1 X-25.290 Y30.782 Z-0.533
G1 X-25.798 Y29.928 Z-0.533
G1 X-26.365 Y29.113 Z-0.533
G1 X-26.989 Y28.340 Z-0.533
G1 X-27.667 Y27.613 Z-0.533
G1 X-28.395 Y26.937 Z-0.533
G1 X-29.169 Y26.315 Z-0.533
G1 X-29.986 Y25.749 Z-0.533
G1 X-30.841 Y25.243 Z-0.533
G1 X-31.729 Y24.799 Z-0.533
G1 X-32.648 Y24.419 Z-0.533
G1 X-33.590 Y24.107 Z-0.533
G1 X-34.553 Y23.862 Z-0.533
G1 X-35.531 Y23.686 Z-0.533
G1 X-36.519 Y23.581 Z-0.533
G1 X-37.512 Y23.546 Z-0.533
G1 X-38.505 Y23.583 Z-0.533
G1 X-39.493 Y23.690 Z-0.533
G1 X-40.470 Y23.867 Z-0.533
G1 X-41.433 Y24.113 Z-0.533
G1 X-42.375 Y24.428 Z-0.533
G1 X-43.292 Y24.809 Z-0.533
G1 X-44.181 Y25.254 Z-0.533
G1 X-45.035 Y25.762 Z-0.533
G1 X-45.850 Y26.329 Z-0.533
G1 X-46.623 Y26.953 Z-0.533
G1 X-47.350 Y27.630 Z-0.533
G1 X-48.026 Y28.358 Z-0.533
G1 X-48.649 Y29.132 Z-0.533
G1 X-49.215 Y29.948 Z-0.533
G1 X-49.722 Y30.803 Z-0.533
G1 X-50.166 Y31.692 Z-0.533
G1 X-50.545 Y32.610 Z-0.533
G1 X-50.859 Y33.553 Z-0.533
G1 X-51.104 Y34.516 Z-0.533
G1 X-51.280 Y35.494 Z-0.533
G1 X-51.385 Y36.481 Z-0.533
G1 X-51.420 Y37.474 Z-0.533
G1 X-51.384 Y38.467 Z-0.533
G1 X-51.277 Y39.455 Z-0.533
G1 X-51.100 Y40.432 Z-0.533
G1 X-50.854 Y41.395 Z-0.533
G1 X-50.540 Y42.337 Z-0.533
G1 X-50.159 Y43.255 Z-0.533
G1 X-49.714 Y44.143 Z-0.533
G1 X-49.207 Y44.997 Z-0.533
G1 X-48.640 Y45.813 Z-0.533
G1 X-48.016 Y46.587 Z-0.533
G1 X-47.339 Y47.313 Z-0.533
G1 X-46.611 Y47.990 Z-0.533
G1 X-45.837 Y48.613 Z-0.533
G1 X-45.021 Y49.179 Z-0.533
G1 X-44.167 Y49.686 Z-0.533
G1 X-43.278 Y50.130 Z-0.533
G1 X-42.360 Y50.510 Z-0.533
G1 X-41.417 Y50.824 Z-0.533
G1 X-40.454 Y51.069 Z-0.533
G1 X-39.477 Y51.245 Z-0.533
G1 X-38.489 Y51.351 Z-0.533
G1 X-37.496 Y51.386 Z-0.533
G1 X-36.503 Y51.351 Z-0.533
G1 X-35.515 Y51.244 Z-0.533
G1 X-34.538 Y51.067 Z-0.533
G1 X-33.575 Y50.821 Z-0.533
G1 X-32.633 Y50.508 Z-0.533
G1 X-31.715 Y50.127 Z-0.533
G1 X-30.826 Y49.682 Z-0.533
G1 X-29.972 Y49.175 Z-0.533
G1 X-29.156 Y48.608 Z-0.533
G1 X-28.383 Y47.985 Z-0.533
G1 X-27.656 Y47.308 Z-0.533
G1 X-26.979 Y46.581 Z-0.533
G1 X-26.355 Y45.807 Z-0.533
G1 X-25.789 Y44.991 Z-0.533
G1 X-25.282 Y44.136 Z-0.533
G1 X-24.837 Y43.248 Z-0.533
G1 X-24.457 Y42.330 Z-0.533
G1 X-24.144 Y41.387 Z-0.533
G1 X-23.898 Y40.425 Z-0.533
G1 X-23.722 Y39.447 Z-0.533
G1 X-23.615 Y38.459 Z-0.533
G1 X-23.580 Y37.466 Z-0.533
G1 X-23.580 Y37.450 Z-0.533
(End of step 25.)
G0 Z3.000
G0 X-23.100 Y37.450
(Begin step 26.)
G0 X-23.100 Y37.450
(part 1)
G1 X-23.100 Y37.450 Z-0.533
G1 X-23.135 Y36.457 Z-0.533
G1 X-23.239 Y35.469 Z-0.533
G1 X-23.411 Y34.490 Z-0.533
G1 X-23.650 Y33.525 Z-0.533
G1 X-23.955 Y32.579 Z-0.533
G1 X-24.324 Y31.656 Z-0.533
G1 X-24.756 Y30.761 Z-0.533
G1 X-25.249 Y29.898 Z-0.533
G1 X-25.800 Y29.071 Z-0.533
G1 X-26.407 Y28.284 Z-0.533
G1 X-27.067 Y27.541 Z-0.533
G1 X-27.777 Y26.845 Z-0.533
G1 X-28.532 Y26.199 Z-0.533
G1 X-29.331 Y25.608 Z-0.533
G1 X-30.168 Y25.072 Z-0.533
G1 X-31.041 Y24.596 Z-0.533
G1 X-31.944 Y24.181 Z-0.533
G1 X-32.874 Y23.830 Z-0.533
G1 X-33.825 Y23.543 Z-0.533
G1 X-34.794 Y23.323 Z-0.533
G1 X-35.776 Y23.170 Z-0.533
G1 X-36.767 Y23.085 Z-0.533
G1 X-37.761 Y23.069 Z-0.533
G1 X-38.753 Y23.121 Z-0.533
G1 X-39.740 Y23.241 Z-0.533
G1 X-40.715 Y23.430 Z-0.533
G1 X-41.676 Y23.685 Z-0.533
G1 X-42.617 Y24.006 Z-0.533
G1 X-43.533 Y24.391 Z-0.533
G1 X-44.421 Y24.838 Z-0.533
G1 X-45.275 Y25.346 Z-0.533
G1 X-46.093 Y25.911 Z-0.533
G1 X-46.869 Y26.531 Z-0.533
G1 X-47.601 Y27.203 Z-0.533
G1 X-48.285 Y27.925 Z-0.533
G1 X-48.918 Y28.691 Z-0.533
G1 X-49.496 Y29.500 Z-0.533
G1 X-50.017 Y30.346 Z-0.533
G1 X-50.478 Y31.227 Z-0.533
G1 X-50.877 Y32.137 Z-0.533
G1 X-51.213 Y33.072 Z-0.533
G1 X-51.484 Y34.028 Z-0.533
G1 X-51.687 Y35.001 Z-0.533
G1 X-51.824 Y35.986 Z-0.533
G1 X-51.892 Y36.977 Z-0.533
G1 X-51.891 Y37.971 Z-0.533
G1 X-51.822 Y38.963 Z-0.533
G1 X-51.685 Y39.947 Z-0.533
G1 X-51.480 Y40.920 Z-0.533
G1 X-51.208 Y41.876 Z-0.533
G1 X-50.871 Y42.811 Z-0.533
G1 X-50.471 Y43.720 Z-0.533
G1 X-50.009 Y44.600 Z-0.533
G1 X-49.487 Y45.446 Z-0.533
G1 X-48.908 Y46.254 Z-0.533
G1 X-48.274 Y47.020 Z-0.533
G1 X-47.590 Y47.740 Z-0.533
G1 X-46.857 Y48.412 Z-0.533
G1 X-46.080 Y49.031 Z-0.533
G1 X-45.262 Y49.595 Z-0.533
G1 X-44.406 Y50.102 Z-0.533
G1 X-43.518 Y50.548 Z-0.533
G1 X-42.602 Y50.932 Z-0.533
G1 X-41.661 Y51.252 Z-0.533
G1 X-40.700 Y51.506 Z-0.533
G1 X-39.724 Y51.694 Z-0.533
G1 X-38.737 Y51.813 Z-0.533
G1 X-37.745 Y51.864 Z-0.533
G1 X-36.751 Y51.847 Z-0.533
G1 X-35.761 Y51.761 Z-0.533
G1 X-34.779 Y51.607 Z-0.533
G1 X-33.810 Y51.385 Z-0.533
G1 X-32.858 Y51.098 Z-0.533
G1 X-31.929 Y50.745 Z-0.533
G1 X-31.027 Y50.329 Z-0.533
G1 X-30.155 Y49.852 Z-0.533
G1 X-29.318 Y49.316 Z-0.533
G1 X-28.520 Y48.723 Z-0.533
G1 X-27.765 Y48.077 Z-0.533
G1 X-27.056 Y47.380 Z-0.533
G1 X-26.397 Y46.636 Z-0.533
G1 X-25.791 Y45.848 Z-0.533
G1 X-25.241 Y45.021 Z-0.533
G1 X-24.749 Y44.157 Z-0.533
G1 X-24.318 Y43.262 Z-0.533
G1 X-23.949 Y42.339 Z-0.533
G1 X-23.646 Y41.392 Z-0.533
G1 X-23.408 Y40.427 Z-0.533
G1 X-23.237 Y39.448 Z-0.533
G1 X-23.134 Y38.460 Z-0.533
G1 X-23.100 Y37.466 Z-0.533
G1 X-23.100 Y37.450 Z-0.533
(End of step 26.)
G0 Z3.000
G0 X-22.620 Y37.450
(Begin step 27.)
G0 X-22.620 Y37.450
(part 1)
G1 X-22.620 Y37.450 Z-0.533
G1 X-22.654 Y36.457 Z-0.533
G1 X-22.755 Y35.467 Z-0.533
G1 X-22.921 Y34.487 Z-0.533
G1 X-23.153 Y33.520 Z-0.533
G1 X-23.448 Y32.571 Z-0.533
G1 X-23.807 Y31.643 Z-0.533
G1 X-24.226 Y30.742 Z-0.533
G1 X-24.705 Y29.871 Z-0.533
G1 X-25.241 Y29.033 Z-0.533
G1 X-25.831 Y28.233 Z-0.533
G1 X-26.474 Y27.475 Z-0.533
G1 X-27.166 Y26.760 Z-0.533
G1 X-27.904 Y26.094 Z-0.533
G1 X-28.684 Y25.479 Z-0.533
G1 X-29.505 Y24.917 Z-0.533
G1 X-30.361 Y24.411 Z-0.533
G1 X-31.248 Y23.963 Z-0.533
G1 X-32.164 Y23.576 Z-0.533
G1 X-33.104 Y23.251 Z-0.533
G1 X-34.063 Y22.989 Z-0.533
G1 X-35.037 Y22.791 Z-0.533
G1 X-36.023 Y22.660 Z-0.533
G1 X-37.015 Y22.594 Z-0.533
G1 X-38.009 Y22.595 Z-0.533
G1 X-39.001 Y22.662 Z-0.533
G1 X-39.986 Y22.795 Z-0.533
G1 X-40.961 Y22.994 Z-0.533
G1 X-41.919 Y23.258 Z-0.533
G1 X-42.858 Y23.585 Z-0.533
G1 X-43.773 Y23.973 Z-0.533
G1 X-44.660 Y24.422 Z-0.533
G1 X-45.516 Y24.930 Z-0.533
G1 X-46.335 Y25.493 Z-0.533
G1 X-47.115 Y26.110 Z-0.533
G1 X-47.852 Y26.777 Z-0.533
G1 X-48.542 Y27.492 Z-0.533
G1 X-49.184 Y28.252 Z-0.533
G1 X-49.773 Y29.053 Z-0.533
G1 X-50.308 Y29.891 Z-0.533
G1 X-50.785 Y30.763 Z-0.533
G1 X-51.203 Y31.666 Z-0.533
G1 X-51.560 Y32.594 Z-0.533
G1 X-51.854 Y33.543 Z-0.533
G1 X-52.084 Y34.511 Z-0.533
G1 X-52.248 Y35.491 Z-0.533
G1 X-52.347 Y36.481 Z-0.533
G1 X-52.380 Y37.474 Z-0.533
G1 X-52.346 Y38.468 Z-0.533
G1 X-52.246 Y39.457 Z-0.533
G1 X-52.080 Y40.437 Z-0.533
G1 X-51.849 Y41.405 Z-0.533
G1 X-51.554 Y42.354 Z-0.533
G1 X-51.197 Y43.282 Z-0.533
G1 X-50.778 Y44.183 Z-0.533
G1 X-50.299 Y45.055 Z-0.533
G1 X-49.764 Y45.893 Z-0.533
G1 X-49.174 Y46.693 Z-0.533
G1 X-48.532 Y47.452 Z-0.533
G1 X-47.840 Y48.166 Z-0.533
G1 X-47.103 Y48.833 Z-0.533
G1 X-46.322 Y49.449 Z-0.533
G1 X-45.502 Y50.011 Z-0.533
G1 X-44.646 Y50.518 Z-0.533
G1 X-43.759 Y50.966 Z-0.533
G1 X-42.843 Y51.354 Z-0.533
G1 X-41.904 Y51.680 Z-0.533
G1 X-40.945 Y51.942 Z-0.533
G1 X-39.971 Y52.140 Z-0.533
G1 X-38.985 Y52.272 Z-0.533
G1 X-37.993 Y52.338 Z-0.533
G1 X-36.999 Y52.338 Z-0.533
G1 X-36.007 Y52.271 Z-0.533
G1 X-35.021 Y52.138 Z-0.533
G1 X-34.047 Y51.940 Z-0.533
G1 X-33.088 Y51.677 Z-0.533
G1 X-32.149 Y51.351 Z-0.533
G1 X-31.234 Y50.963 Z-0.533
G1 X-30.347 Y50.514 Z-0.533
G1 X-29.491 Y50.007 Z-0.533
G1 X-28.672 Y49.444 Z-0.533
G1 X-27.891 Y48.828 Z-0.533
G1 X-27.154 Y48.161 Z-0.533
G1 X-26.463 Y47.446 Z-0.533
G1 X-25.821 Y46.687 Z-0.533
G1 X-25.231 Y45.886 Z-0.533
G1 X-24.697 Y45.048 Z-0.533
G1 X-24.219 Y44.176 Z-0.533
G1 X-23.800 Y43.274 Z-0.533
G1 X-23.443 Y42.346 Z-0.533
G1 X-23.149 Y41.397 Z-0.533
G1 X-22.918 Y40.430 Z-0.533
G1 X-22.753 Y39.449 Z-0.533
G1 X-22.653 Y38.460 Z-0.533
G1 X-22.620 Y37.466 Z-0.533
G1 X-22.620 Y37.450 Z-0.533
(End of step 27.)
G0 Z3.000
G0 X-22.140 Y37.450
(Begin step 28.)
G0 X-22.140 Y37.450
(part 1)
G1 X-22.140 Y37.450 Z-0.533
G1 X-22.173 Y36.456 Z-0.533
G1 X-22.271 Y35.466 Z-0.533
G1 X-22.432 Y34.485 Z-0.533
G1 X-22.657 Y33.516 Z-0.533
G1 X-22.943 Y32.564 Z-0.533
G1 X-23.291 Y31.632 Z-0.533
G1 X-23.699 Y30.725 Z-0.533
G1 X-24.164 Y29.845 Z-0.533
G1 X-24.685 Y28.998 Z-0.533
G1 X-25.260 Y28.187 Z-0.533
G1 X-25.886 Y27.414 Z-0.533
G1 X-26.561 Y26.683 Z-0.533
G1 X-27.282 Y25.998 Z-0.533
G1 X-28.046 Y25.361 Z-0.533
G1 X-28.849 Y24.774 Z-0.533
G1 X-29.688 Y24.241 Z-0.533
G1 X-30.561 Y23.763 Z-0.533
G1 X-31.462 Y23.343 Z-0.533
G1 X-32.389 Y22.982 Z-0.533
G1 X-33.337 Y22.681 Z-0.533
G1 X-34.303 Y22.443 Z-0.533
G1 X-35.282 Y22.267 Z-0.533
G1 X-36.270 Y22.156 Z-0.533
G1 X-37.263 Y22.108 Z-0.533
G1 X-38.258 Y22.125 Z-0.533
G1 X-39.249 Y22.206 Z-0.533
G1 X-40.233 Y22.351 Z-0.533
G1 X-41.206 Y22.560 Z-0.533
G1 X-42.162 Y22.831 Z-0.533
G1 X-43.100 Y23.163 Z-0.533
G1 X-44.014 Y23.556 Z-0.533
G1 X-44.900 Y24.007 Z-0.533
G1 X-45.756 Y24.514 Z-0.533
G1 X-46.577 Y25.075 Z-0.533
G1 X-47.360 Y25.689 Z-0.533
G1 X-48.101 Y26.351 Z-0.533
G1 X-48.799 Y27.061 Z-0.533
G1 X-49.448 Y27.814 Z-0.533
G1 X-50.048 Y28.607 Z-0.533
G1 X-50.595 Y29.438 Z-0.533
G1 X-51.087 Y30.302 Z-0.533
G1 X-51.522 Y31.197 Z-0.533
G1 X-51.899 Y32.117 Z-0.533
G1 X-52.215 Y33.061 Z-0.533
G1 X-52.469 Y34.022 Z-0.533
G1 X-52.660 Y34.998 Z-0.533
G1 X-52.788 Y35.984 Z-0.533
G1 X-52.852 Y36.977 Z-0.533
G1 X-52.852 Y37.972 Z-0.533
G1 X-52.787 Y38.964 Z-0.533
G1 X-52.658 Y39.950 Z-0.533
G1 X-52.465 Y40.926 Z-0.533
G1 X-52.210 Y41.887 Z-0.533
G1 X-51.893 Y42.830 Z-0.533
G1 X-51.516 Y43.750 Z-0.533
G1 X-51.080 Y44.644 Z-0.533
G1 X-50.587 Y45.508 Z-0.533
G1 X-50.039 Y46.338 Z-0.533
G1 X-49.438 Y47.131 Z-0.533
G1 X-48.788 Y47.883 Z-0.533
G1 X-48.090 Y48.592 Z-0.533
G1 X-47.348 Y49.254 Z-0.533
G1 X-46.564 Y49.867 Z-0.533
G1 X-45.743 Y50.427 Z-0.533
G1 X-44.886 Y50.934 Z-0.533
G1 X-43.999 Y51.383 Z-0.533
G1 X-43.085 Y51.775 Z-0.533
G1 X-42.147 Y52.106 Z-0.533
G1 X-41.190 Y52.376 Z-0.533
G1 X-40.217 Y52.584 Z-0.533
G1 X-39.233 Y52.728 Z-0.533
G1 X-38.242 Y52.808 Z-0.533
G1 X-37.247 Y52.824 Z-0.533
G1 X-36.254 Y52.776 Z-0.533
G1 X-35.266 Y52.663 Z-0.533
G1 X-34.287 Y52.486 Z-0.533
G1 X-33.322 Y52.247 Z-0.533
G1 X-32.374 Y51.946 Z-0.533
G1 X-31.447 Y51.583 Z-0.533
G1 X-30.546 Y51.162 Z-0.533
G1 X-29.675 Y50.683 Z-0.533
G1 X-28.836 Y50.149 Z-0.533
G1 X-28.033 Y49.562 Z-0.533
G1 X-27.270 Y48.924 Z-0.533
G1 X-26.550 Y48.238 Z-0.533
G1 X-25.876 Y47.506 Z-0.533
G1 X-25.250 Y46.733 Z-0.533
G1 X-24.676 Y45.921 Z-0.533
G1 X-24.156 Y45.073 Z-0.533
G1 X-23.692 Y44.194 Z-0.533
G1 X-23.285 Y43.286 Z-0.533
G1 X-22.938 Y42.354 Z-0.533
G1 X-22.653 Y41.401 Z-0.533
G1 X-22.429 Y40.432 Z-0.533
G1 X-22.269 Y39.450 Z-0.533
G1 X-22.172 Y38.460 Z-0.533
G1 X-22.140 Y37.466 Z-0.533
G1 X-22.140 Y37.450 Z-0.533
(End of step 28.)
G0 Z3.000
G0 X-21.660 Y37.450
(Begin step 29.)
G0 X-21.660 Y37.450
(part 1)
G1 X-21.660 Y37.450 Z-0.533
G1 X-21.692 Y36.456 Z-0.533
G1 X-21.787 Y35.465 Z-0.533
G1 X-21.943 Y34.483 Z-0.533
G1 X-22.161 Y33.512 Z-0.533
G1 X-22.440 Y32.557 Z-0.533
G1 X-22.778 Y31.621 Z-0.533
G1 X-23.174 Y30.708 Z-0.533
G1 X-23.626 Y29.822 Z-0.533
G1 X-24.134 Y28.966 Z-0.533
G1 X-24.694 Y28.144 Z-0.533
G1 X-25.304 Y27.358 Z-0.533
G1 X-25.963 Y26.613 Z-0.533
G1 X-26.667 Y25.910 Z-0.533
G1 X-27.414 Y25.253 Z-0.533
G1 X-28.200 Y24.643 Z-0.533
G1 X-29.024 Y24.085 Z-0.533
G1 X-29.881 Y23.579 Z-0.533
G1 X-30.768 Y23.128 Z-0.533
G1 X-31.681 Y22.734 Z-0.533
G1 X-32.617 Y22.398 Z-0.533
G1 X-33.573 Y22.121 Z-0.533
G1 X-34.544 Y21.904 Z-0.533
G1 X-35.527 Y21.750 Z-0.533
G1 X-36.518 Y21.657 Z-0.533
G1 X-37.512 Y21.626 Z-0.533
G1 X-38.506 Y21.658 Z-0.533
G1 X-39.497 Y21.753 Z-0.533
G1 X-40.479 Y21.909 Z-0.533
G1 X-41.450 Y22.127 Z-0.533
G1 X-42.405 Y22.405 Z-0.533
G1 X-43.341 Y22.743 Z-0.533
G1 X-44.254 Y23.138 Z-0.533
G1 X-45.140 Y23.591 Z-0.533
G1 X-45.996 Y24.098 Z-0.533
G1 X-46.819 Y24.658 Z-0.533
G1 X-47.605 Y25.268 Z-0.533
G1 X-48.351 Y25.926 Z-0.533
G1 X-49.054 Y26.630 Z-0.533
G1 X-49.711 Y27.377 Z-0.533
G1 X-50.320 Y28.164 Z-0.533
G1 X-50.879 Y28.987 Z-0.533
G1 X-51.385 Y29.843 Z-0.533
G1 X-51.836 Y30.730 Z-0.533
G1 X-52.231 Y31.643 Z-0.533
G1 X-52.567 Y32.580 Z-0.533
G1 X-52.845 Y33.535 Z-0.533
G1 X-53.061 Y34.506 Z-0.533
G1 X-53.216 Y35.489 Z-0.533
G1 X-53.309 Y36.480 Z-0.533
G1 X-53.340 Y37.474 Z-0.533
G1 X-53.308 Y38.469 Z-0.533
G1 X-53.214 Y39.459 Z-0.533
G1 X-53.058 Y40.442 Z-0.533
G1 X-52.841 Y41.413 Z-0.533
G1 X-52.563 Y42.368 Z-0.533
G1 X-52.225 Y43.304 Z-0.533
G1 X-51.830 Y44.217 Z-0.533
G1 X-51.377 Y45.103 Z-0.533
G1 X-50.871 Y45.959 Z-0.533
G1 X-50.311 Y46.782 Z-0.533
G1 X-49.701 Y47.568 Z-0.533
G1 X-49.043 Y48.314 Z-0.533
G1 X-48.339 Y49.017 Z-0.533
G1 X-47.592 Y49.675 Z-0.533
G1 X-46.806 Y50.284 Z-0.533
G1 X-45.983 Y50.843 Z-0.533
G1 X-45.126 Y51.349 Z-0.533
G1 X-44.240 Y51.801 Z-0.533
G1 X-43.326 Y52.196 Z-0.533
G1 X-42.390 Y52.532 Z-0.533
G1 X-41.435 Y52.810 Z-0.533
G1 X-40.464 Y53.027 Z-0.533
G1 X-39.481 Y53.182 Z-0.533
G1 X-38.490 Y53.275 Z-0.533
G1 X-37.496 Y53.306 Z-0.533
G1 X-36.502 Y53.275 Z-0.533
G1 X-35.511 Y53.181 Z-0.533
G1 X-34.528 Y53.025 Z-0.533
G1 X-33.557 Y52.808 Z-0.533
G1 X-32.602 Y52.530 Z-0.533
G1 X-31.666 Y52.193 Z-0.533
G1 X-30.753 Y51.797 Z-0.533
G1 X-29.867 Y51.346 Z-0.533
G1 X-29.010 Y50.839 Z-0.533
G1 X-28.188 Y50.280 Z-0.533
G1 X-27.401 Y49.670 Z-0.533
G1 X-26.655 Y49.012 Z-0.533
G1 X-25.952 Y48.308 Z-0.533
G1 X-25.294 Y47.562 Z-0.533
G1 X-24.684 Y46.775 Z-0.533
G1 X-24.125 Y45.953 Z-0.533
G1 X-23.619 Y45.096 Z-0.533
G1 X-23.167 Y44.210 Z-0.533
G1 X-22.772 Y43.296 Z-0.533
G1 X-22.435 Y42.360 Z-0.533
G1 X-22.157 Y41.405 Z-0.533
G1 X-21.940 Y40.434 Z-0.533
G1 X-21.785 Y39.451 Z-0.533
G1 X-21.691 Y38.461 Z-0.533
G1 X-21.660 Y37.466 Z-0.533
G1 X-21.660 Y37.450 Z-0.533
(End of step 29.)
G0 Z3.000
G0 X-21.180 Y37.450
(Begin step 30.)
G0 X-21.180 Y37.450
(part 1)
G1 X-21.180 Y37.450 Z-0.533
G1 X-21.211 Y36.456 Z-0.533
G1 X-21.303 Y35.465 Z-0.533
G1 X-21.455 Y34.481 Z-0.533
G1 X-21.667 Y33.509 Z-0.533
G1 X-21.938 Y32.551 Z-0.533
G1 X-22.266 Y31.611 Z-0.533
G1 X-22.652 Y30.694 Z-0.533
G1 X-23.092 Y29.801 Z-0.533
G1 X-23.586 Y28.937 Z-0.533
G1 X-24.132 Y28.105 Z-0.533
G1 X-24.727 Y27.308 Z-0.533
G1 X-25.370 Y26.548 Z-0.533
G1 X-26.058 Y25.829 Z-0.533
G1 X-26.789 Y25.153 Z-0.533
G1 X-27.559 Y24.523 Z-0.533
G1 X-28.367 Y23.941 Z-0.533
G1 X-29.208 Y23.410 Z-0.533
G1 X-30.080 Y22.930 Z-0.533
G1 X-30.980 Y22.505 Z-0.533
G1 X-31.904 Y22.136 Z-0.533
G1 X-32.849 Y21.823 Z-0.533
G1 X-33.811 Y21.569 Z-0.533
G1 X-34.787 Y21.373 Z-0.533
G1 X-35.773 Y21.238 Z-0.533
G1 X-36.766 Y21.163 Z-0.533
G1 X-37.761 Y21.148 Z-0.533
G1 X-38.755 Y21.195 Z-0.533
G1 X-39.744 Y21.301 Z-0.533
G1 X-40.726 Y21.468 Z-0.533
G1 X-41.695 Y21.695 Z-0.533
G1 X-42.648 Y21.980 Z-0.533
G1 X-43.583 Y22.322 Z-0.533
G1 X-44.495 Y22.721 Z-0.533
G1 X-45.380 Y23.175 Z-0.533
G1 X-46.237 Y23.682 Z-0.533
G1 X-47.061 Y24.240 Z-0.533
G1 X-47.849 Y24.847 Z-0.533
G1 X-48.599 Y25.502 Z-0.533
G1 X-49.308 Y26.200 Z-0.533
G1 X-49.973 Y26.941 Z-0.533
G1 X-50.591 Y27.721 Z-0.533
G1 X-51.161 Y28.537 Z-0.533
G1 X-51.679 Y29.386 Z-0.533
G1 X-52.146 Y30.266 Z-0.533
G1 X-52.557 Y31.172 Z-0.533
G1 X-52.913 Y32.101 Z-0.533
G1 X-53.211 Y33.051 Z-0.533
G1 X-53.451 Y34.017 Z-0.533
G1 X-53.632 Y34.995 Z-0.533
G1 X-53.752 Y35.983 Z-0.533
G1 X-53.813 Y36.977 Z-0.533
G1 X-53.812 Y37.972 Z-0.533
G1 X-53.751 Y38.965 Z-0.533
G1 X-53.629 Y39.953 Z-0.533
G1 X-53.448 Y40.932 Z-0.533
G1 X-53.207 Y41.897 Z-0.533
G1 X-52.908 Y42.846 Z-0.533
G1 X-52.551 Y43.776 Z-0.533
G1 X-52.139 Y44.681 Z-0.533
G1 X-51.672 Y45.560 Z-0.533
G1 X-51.152 Y46.409 Z-0.533
G1 X-50.581 Y47.224 Z-0.533
G1 X-49.962 Y48.004 Z-0.533
G1 X-49.297 Y48.744 Z-0.533
G1 X-48.587 Y49.442 Z-0.533
G1 X-47.837 Y50.095 Z-0.533
G1 X-47.048 Y50.702 Z-0.533
G1 X-46.223 Y51.259 Z-0.533
G1 X-45.366 Y51.765 Z-0.533
G1 X-44.480 Y52.218 Z-0.533
G1 X-43.568 Y52.616 Z-0.533
G1 X-42.633 Y52.958 Z-0.533
G1 X-41.679 Y53.242 Z-0.533
G1 X-40.710 Y53.467 Z-0.533
G1 X-39.729 Y53.633 Z-0.533
G1 X-38.739 Y53.739 Z-0.533
G1 X-37.745 Y53.784 Z-0.533
G1 X-36.750 Y53.769 Z-0.533
G1 X-35.757 Y53.693 Z-0.533
G1 X-34.772 Y53.557 Z-0.533
G1 X-33.796 Y53.360 Z-0.533
G1 X-32.834 Y53.105 Z-0.533
G1 X-31.889 Y52.791 Z-0.533
G1 X-30.966 Y52.421 Z-0.533
G1 X-30.066 Y51.995 Z-0.533
G1 X-29.194 Y51.515 Z-0.533
G1 X-28.354 Y50.982 Z-0.533
G1 X-27.547 Y50.400 Z-0.533
G1 X-26.777 Y49.769 Z-0.533
G1 X-26.047 Y49.092 Z-0.533
G1 X-25.360 Y48.373 Z-0.533
G1 X-24.717 Y47.612 Z-0.533
G1 X-24.123 Y46.814 Z-0.533
G1 X-23.578 Y45.982 Z-0.533
G1 X-23.085 Y45.117 Z-0.533
G1 X-22.645 Y44.224 Z-0.533
G1 X-22.261 Y43.306 Z-0.533
G1 X-21.933 Y42.366 Z-0.533
G1 X-21.663 Y41.408 Z-0.533
G1 X-21.452 Y40.436 Z-0.533
G1 X-21.301 Y39.452 Z-0.533
G1 X-21.210 Y38.461 Z-0.533
G1 X-21.180 Y37.466 Z-0.533
G1 X-21.180 Y37.450 Z-0.533
(End of step 30.)
G0 Z3.000
G0 X-20.700 Y37.450
(Begin step 31.)
G0 X-20.700 Y37.450
(part 1)
G1 X-20.700 Y37.450 Z-0.533
G1 X-20.730 Y36.455 Z-0.533
G1 X-20.820 Y35.464 Z-0.533
G1 X-20.968 Y34.479 Z-0.533
G1 X-21.174 Y33.505 Z-0.533
G1 X-21.437 Y32.545 Z-0.533
G1 X-21.757 Y31.602 Z-0.533
G1 X-22.132 Y30.680 Z-0.533
G1 X-22.561 Y29.782 Z-0.533
G1 X-23.042 Y28.910 Z-0.533
G1 X-23.574 Y28.069 Z-0.533
G1 X-24.155 Y27.261 Z-0.533
G1 X-24.783 Y26.488 Z-0.533
G1 X-25.456 Y25.754 Z-0.533
G1 X-26.171 Y25.061 Z-0.533
G1 X-26.925 Y24.412 Z-0.533
G1 X-27.717 Y23.809 Z-0.533
G1 X-28.543 Y23.253 Z-0.533
G1 X-29.401 Y22.748 Z-0.533
G1 X-30.287 Y22.294 Z-0.533
G1 X-31.198 Y21.893 Z-0.533
G1 X-32.132 Y21.547 Z-0.533
G1 X-33.084 Y21.257 Z-0.533
G1 X-34.052 Y21.024 Z-0.533
G1 X-35.032 Y20.849 Z-0.533
G1 X-36.020 Y20.732 Z-0.533
G1 X-37.014 Y20.673 Z-0.533
G1 X-38.010 Y20.674 Z-0.533
G1 X-39.003 Y20.734 Z-0.533
G1 X-39.992 Y20.852 Z-0.533
G1 X-40.972 Y21.029 Z-0.533
G1 X-41.939 Y21.263 Z-0.533
G1 X-42.891 Y21.555 Z-0.533
G1 X-43.824 Y21.902 Z-0.533
G1 X-44.735 Y22.304 Z-0.533
G1 X-45.620 Y22.759 Z-0.533
G1 X-46.477 Y23.266 Z-0.533
G1 X-47.303 Y23.823 Z-0.533
G1 X-48.093 Y24.427 Z-0.533
G1 X-48.847 Y25.077 Z-0.533
G1 X-49.561 Y25.771 Z-0.533
G1 X-50.233 Y26.506 Z-0.533
G1 X-50.859 Y27.280 Z-0.533
G1 X-51.439 Y28.089 Z-0.533
G1 X-51.970 Y28.931 Z-0.533
G1 X-52.450 Y29.803 Z-0.533
G1 X-52.878 Y30.702 Z-0.533
G1 X-53.252 Y31.625 Z-0.533
G1 X-53.570 Y32.568 Z-0.533
G1 X-53.832 Y33.529 Z-0.533
G1 X-54.037 Y34.503 Z-0.533
G1 X-54.183 Y35.488 Z-0.533
G1 X-54.271 Y36.479 Z-0.533
G1 X-54.300 Y37.474 Z-0.533
G1 X-54.270 Y38.469 Z-0.533
G1 X-54.181 Y39.461 Z-0.533
G1 X-54.034 Y40.445 Z-0.533
G1 X-53.828 Y41.420 Z-0.533
G1 X-53.565 Y42.380 Z-0.533
G1 X-53.246 Y43.323 Z-0.533
G1 X-52.872 Y44.245 Z-0.533
G1 X-52.443 Y45.144 Z-0.533
G1 X-51.962 Y46.015 Z-0.533
G1 X-51.430 Y46.857 Z-0.533
G1 X-50.850 Y47.666 Z-0.533
G1 X-50.222 Y48.438 Z-0.533
G1 X-49.550 Y49.173 Z-0.533
G1 X-48.835 Y49.866 Z-0.533
G1 X-48.081 Y50.515 Z-0.533
G1 X-47.290 Y51.119 Z-0.533
G1 X-46.464 Y51.675 Z-0.533
G1 X-45.606 Y52.181 Z-0.533
G1 X-44.720 Y52.635 Z-0.533
G1 X-43.809 Y53.037 Z-0.533
G1 X-42.876 Y53.383 Z-0.533
G1 X-41.924 Y53.673 Z-0.533
G1 X-40.956 Y53.907 Z-0.533
G1 X-39.976 Y54.083 Z-0.533
G1 X-38.988 Y54.200 Z-0.533
G1 X-37.994 Y54.259 Z-0.533
G1 X-36.998 Y54.259 Z-0.533
G1 X-36.004 Y54.200 Z-0.533
G1 X-35.016 Y54.082 Z-0.533
G1 X-34.036 Y53.905 Z-0.533
G1 X-33.069 Y53.671 Z-0.533
G1 X-32.116 Y53.380 Z-0.533
G1 X-31.183 Y53.034 Z-0.533
G1 X-30.272 Y52.632 Z-0.533
G1 X-29.387 Y52.177 Z-0.533
G1 X-28.530 Y51.671 Z-0.533
G1 X-27.704 Y51.115 Z-0.533
G1 X-26.913 Y50.510 Z-0.533
G1 X-26.159 Y49.860 Z-0.533
G1 X-25.445 Y49.167 Z-0.533
G1 X-24.773 Y48.432 Z-0.533
G1 X-24.145 Y47.659 Z-0.533
G1 X-23.565 Y46.850 Z-0.533
G1 X-23.034 Y46.008 Z-0.533
G1 X-22.553 Y45.137 Z-0.533
G1 X-22.125 Y44.238 Z-0.533
G1 X-21.751 Y43.315 Z-0.533
G1 X-21.432 Y42.372 Z-0.533
G1 X-21.170 Y41.412 Z-0.533
G1 X-20.965 Y40.438 Z-0.533
G1 X-20.818 Y39.453 Z-0.533
G1 X-20.729 Y38.461 Z-0.533
G1 X-20.700 Y37.466 Z-0.533
G1 X-20.700 Y37.450 Z-0.533
(End of step 31.)
G0 Z3.000
G0 X-20.220 Y37.450
(Begin step 32.)
G0 X-20.220 Y37.450
(part 1)
G1 X-20.220 Y37.450 Z-0.533
G1 X-20.250 Y36.455 Z-0.533
G1 X-20.337 Y35.463 Z-0.533
G1 X-20.480 Y34.478 Z-0.533
G1 X-20.681 Y33.502 Z-0.533
G1 X-20.937 Y32.540 Z-0.533
G1 X-21.248 Y31.594 Z-0.533
G1 X-21.614 Y30.668 Z-0.533
G1 X-22.032 Y29.764 Z-0.533
G1 X-22.501 Y28.885 Z-0.533
G1 X-23.020 Y28.036 Z-0.533
G1 X-23.587 Y27.217 Z-0.533
G1 X-24.201 Y26.433 Z-0.533
G1 X-24.859 Y25.685 Z-0.533
G1 X-25.558 Y24.977 Z-0.533
G1 X-26.298 Y24.309 Z-0.533
G1 X-27.074 Y23.686 Z-0.533
G1 X-27.885 Y23.108 Z-0.533
G1 X-28.728 Y22.578 Z-0.533
G1 X-29.600 Y22.098 Z-0.533
G1 X-30.499 Y21.668 Z-0.533
G1 X-31.420 Y21.291 Z-0.533
G1 X-32.362 Y20.968 Z-0.533
G1 X-33.321 Y20.699 Z-0.533
G1 X-34.294 Y20.486 Z-0.533
G1 X-35.277 Y20.330 Z-0.533
G1 X-36.268 Y20.230 Z-0.533
G1 X-37.263 Y20.188 Z-0.533
G1 X-38.259 Y20.203 Z-0.533
G1 X-39.252 Y20.275 Z-0.533
G1 X-40.239 Y20.405 Z-0.533
G1 X-41.217 Y20.591 Z-0.533
G1 X-42.183 Y20.833 Z-0.533
G1 X-43.134 Y21.130 Z-0.533
G1 X-44.065 Y21.482 Z-0.533
G1 X-44.975 Y21.887 Z-0.533
G1 X-45.860 Y22.343 Z-0.533
G1 X-46.718 Y22.850 Z-0.533
G1 X-47.544 Y23.405 Z-0.533
G1 X-48.337 Y24.007 Z-0.533
G1 X-49.095 Y24.654 Z-0.533
G1 X-49.814 Y25.343 Z-0.533
G1 X-50.491 Y26.072 Z-0.533
G1 X-51.126 Y26.840 Z-0.533
G1 X-51.716 Y27.642 Z-0.533
G1 X-52.258 Y28.477 Z-0.533
G1 X-52.751 Y29.342 Z-0.533
G1 X-53.194 Y30.234 Z-0.533
G1 X-53.584 Y31.150 Z-0.533
G1 X-53.922 Y32.087 Z-0.533
G1 X-54.204 Y33.042 Z-0.533
G1 X-54.431 Y34.012 Z-0.533
G1 X-54.602 Y34.993 Z-0.533
G1 X-54.716 Y35.982 Z-0.533
G1 X-54.773 Y36.976 Z-0.533
G1 X-54.773 Y37.972 Z-0.533
G1 X-54.715 Y38.966 Z-0.533
G1 X-54.600 Y39.955 Z-0.533
G1 X-54.428 Y40.936 Z-0.533
G1 X-54.200 Y41.906 Z-0.533
G1 X-53.917 Y42.860 Z-0.533
G1 X-53.579 Y43.797 Z-0.533
G1 X-53.187 Y44.713 Z-0.533
G1 X-52.744 Y45.604 Z-0.533
G1 X-52.250 Y46.469 Z-0.533
G1 X-51.707 Y47.303 Z-0.533
G1 X-51.116 Y48.105 Z-0.533
G1 X-50.481 Y48.872 Z-0.533
G1 X-49.802 Y49.601 Z-0.533
G1 X-49.083 Y50.289 Z-0.533
G1 X-48.325 Y50.935 Z-0.533
G1 X-47.531 Y51.537 Z-0.533
G1 X-46.704 Y52.091 Z-0.533
G1 X-45.846 Y52.597 Z-0.533
G1 X-44.961 Y53.053 Z-0.533
G1 X-44.051 Y53.457 Z-0.533
G1 X-43.119 Y53.807 Z-0.533
G1 X-42.168 Y54.104 Z-0.533
G1 X-41.202 Y54.345 Z-0.533
G1 X-40.223 Y54.530 Z-0.533
G1 X-39.236 Y54.659 Z-0.533
G1 X-38.243 Y54.730 Z-0.533
G1 X-37.247 Y54.744 Z-0.533
G1 X-36.252 Y54.701 Z-0.533
G1 X-35.261 Y54.601 Z-0.533
G1 X-34.278 Y54.443 Z-0.533
G1 X-33.306 Y54.229 Z-0.533
G1 X-32.347 Y53.960 Z-0.533
G1 X-31.405 Y53.636 Z-0.533
G1 X-30.484 Y53.258 Z-0.533
G1 X-29.586 Y52.828 Z-0.533
G1 X-28.714 Y52.346 Z-0.533
G1 X-27.872 Y51.815 Z-0.533
G1 X-27.061 Y51.237 Z-0.533
G1 X-26.285 Y50.613 Z-0.533
G1 X-25.547 Y49.945 Z-0.533
G1 X-24.848 Y49.236 Z-0.533
G1 X-24.191 Y48.487 Z-0.533
G1 X-23.578 Y47.702 Z-0.533
G1 X-23.011 Y46.883 Z-0.533
G1 X-22.493 Y46.033 Z-0.533
G1 X-22.025 Y45.154 Z-0.533
G1 X-21.607 Y44.250 Z-0.533
G1 X-21.243 Y43.324 Z-0.533
G1 X-20.933 Y42.377 Z-0.533
G1 X-20.677 Y41.415 Z-0.533
G1 X-20.478 Y40.439 Z-0.533
G1 X-20.335 Y39.454 Z-0.533
G1 X-20.249 Y38.462 Z-0.533
G1 X-20.220 Y37.466 Z-0.533
G1 X-20.220 Y37.450 Z-0.533
(End of step 32.)
G0 Z3.000
G0 X-19.740 Y37.450
(Begin step 33.)
G0 X-19.740 Y37.450
(part 1)
G1 X-19.740 Y37.450 Z-0.533
G1 X-19.769 Y36.455 Z-0.533
G1 X-19.853 Y35.462 Z-0.533
G1 X-19.994 Y34.476 Z-0.533
G1 X-20.189 Y33.499 Z-0.533
G1 X-20.438 Y32.535 Z-0.533
G1 X-20.742 Y31.586 Z-0.533
G1 X-21.098 Y30.656 Z-0.533
G1 X-21.505 Y29.747 Z-0.533
G1 X-21.963 Y28.863 Z-0.533
G1 X-22.470 Y28.005 Z-0.533
G1 X-23.024 Y27.177 Z-0.533
G1 X-23.624 Y26.382 Z-0.533
G1 X-24.267 Y25.621 Z-0.533
G1 X-24.952 Y24.898 Z-0.533
G1 X-25.676 Y24.214 Z-0.533
G1 X-26.438 Y23.572 Z-0.533
G1 X-27.234 Y22.974 Z-0.533
G1 X-28.062 Y22.421 Z-0.533
G1 X-28.921 Y21.916 Z-0.533
G1 X-29.806 Y21.459 Z-0.533
G1 X-30.716 Y21.053 Z-0.533
G1 X-31.646 Y20.699 Z-0.533
G1 X-32.596 Y20.397 Z-0.533
G1 X-33.560 Y20.149 Z-0.533
G1 X-34.537 Y19.955 Z-0.533
G1 X-35.524 Y19.817 Z-0.533
G1 X-36.516 Y19.734 Z-0.533
G1 X-37.512 Y19.706 Z-0.533
G1 X-38.508 Y19.735 Z-0.533
G1 X-39.500 Y19.819 Z-0.533
G1 X-40.486 Y19.959 Z-0.533
G1 X-41.463 Y20.154 Z-0.533
G1 X-42.427 Y20.403 Z-0.533
G1 X-43.376 Y20.707 Z-0.533
G1 X-44.307 Y21.062 Z-0.533
G1 X-45.216 Y21.470 Z-0.533
G1 X-46.100 Y21.927 Z-0.533
G1 X-46.958 Y22.434 Z-0.533
G1 X-47.786 Y22.988 Z-0.533
G1 X-48.581 Y23.587 Z-0.533
G1 X-49.342 Y24.230 Z-0.533
G1 X-50.065 Y24.915 Z-0.533
G1 X-50.749 Y25.639 Z-0.533
G1 X-51.391 Y26.401 Z-0.533
G1 X-51.990 Y27.197 Z-0.533
G1 X-52.543 Y28.025 Z-0.533
G1 X-53.048 Y28.884 Z-0.533
G1 X-53.505 Y29.769 Z-0.533
G1 X-53.912 Y30.678 Z-0.533
G1 X-54.266 Y31.609 Z-0.533
G1 X-54.568 Y32.558 Z-0.533
G1 X-54.817 Y33.523 Z-0.533
G1 X-55.010 Y34.500 Z-0.533
G1 X-55.149 Y35.486 Z-0.533
G1 X-55.233 Y36.479 Z-0.533
G1 X-55.260 Y37.474 Z-0.533
G1 X-55.232 Y38.470 Z-0.533
G1 X-55.147 Y39.462 Z-0.533
G1 X-55.008 Y40.449 Z-0.533
G1 X-54.813 Y41.425 Z-0.533
G1 X-54.564 Y42.390 Z-0.533
G1 X-54.261 Y43.339 Z-0.533
G1 X-53.905 Y44.269 Z-0.533
G1 X-53.498 Y45.178 Z-0.533
G1 X-53.041 Y46.063 Z-0.533
G1 X-52.534 Y46.921 Z-0.533
G1 X-51.981 Y47.749 Z-0.533
G1 X-51.381 Y48.544 Z-0.533
G1 X-50.739 Y49.305 Z-0.533
G1 X-50.054 Y50.029 Z-0.533
G1 X-49.330 Y50.713 Z-0.533
G1 X-48.569 Y51.355 Z-0.533
G1 X-47.773 Y51.954 Z-0.533
G1 X-46.944 Y52.507 Z-0.533
G1 X-46.086 Y53.013 Z-0.533
G1 X-45.201 Y53.470 Z-0.533
G1 X-44.292 Y53.876 Z-0.533
G1 X-43.361 Y54.231 Z-0.533
G1 X-42.412 Y54.533 Z-0.533
G1 X-41.448 Y54.782 Z-0.533
G1 X-40.471 Y54.976 Z-0.533
G1 X-39.484 Y55.115 Z-0.533
G1 X-38.492 Y55.199 Z-0.533
G1 X-37.496 Y55.226 Z-0.533
G1 X-36.500 Y55.198 Z-0.533
G1 X-35.508 Y55.114 Z-0.533
G1 X-34.522 Y54.975 Z-0.533
G1 X-33.545 Y54.780 Z-0.533
G1 X-32.580 Y54.531 Z-0.533
G1 X-31.631 Y54.229 Z-0.533
G1 X-30.701 Y53.873 Z-0.533
G1 X-29.792 Y53.466 Z-0.533
G1 X-28.907 Y53.009 Z-0.533
G1 X-28.049 Y52.503 Z-0.533
G1 X-27.221 Y51.949 Z-0.533
G1 X-26.425 Y51.350 Z-0.533
G1 X-25.664 Y50.707 Z-0.533
G1 X-24.940 Y50.023 Z-0.533
G1 X-24.256 Y49.299 Z-0.533
G1 X-23.614 Y48.538 Z-0.533
G1 X-23.015 Y47.742 Z-0.533
G1 X-22.461 Y46.914 Z-0.533
G1 X-21.955 Y46.056 Z-0.533
G1 X-21.498 Y45.171 Z-0.533
G1 X-21.092 Y44.262 Z-0.533
G1 X-20.736 Y43.331 Z-0.533
G1 X-20.434 Y42.382 Z-0.533
G1 X-20.185 Y41.418 Z-0.533
G1 X-19.991 Y40.441 Z-0.533
G1 X-19.852 Y39.454 Z-0.533
G1 X-19.768 Y38.462 Z-0.533
G1 X-19.740 Y37.466 Z-0.533
G1 X-19.740 Y37.450 Z-0.533
(End of step 33.)
G0 Z3.000
G0 X-19.260 Y37.450
(Begin step 34.)
G0 X-19.260 Y37.450
(part 1)
G1 X-19.260 Y37.450 Z-0.533
G1 X-19.288 Y36.454 Z-0.533
G1 X-19.371 Y35.461 Z-0.533
G1 X-19.507 Y34.475 Z-0.533
G1 X-19.697 Y33.497 Z-0.533
G1 X-19.941 Y32.530 Z-0.533
G1 X-20.236 Y31.579 Z-0.533
G1 X-20.583 Y30.645 Z-0.533
G1 X-20.981 Y29.732 Z-0.533
G1 X-21.428 Y28.841 Z-0.533
G1 X-21.923 Y27.977 Z-0.533
G1 X-22.464 Y27.140 Z-0.533
G1 X-23.051 Y26.335 Z-0.533
G1 X-23.680 Y25.562 Z-0.533
G1 X-24.351 Y24.825 Z-0.533
G1 X-25.060 Y24.126 Z-0.533
G1 X-25.807 Y23.467 Z-0.533
G1 X-26.589 Y22.849 Z-0.533
G1 X-27.404 Y22.275 Z-0.533
G1 X-28.248 Y21.747 Z-0.533
G1 X-29.120 Y21.265 Z-0.533
G1 X-30.017 Y20.832 Z-0.533
G1 X-30.937 Y20.448 Z-0.533
G1 X-31.876 Y20.115 Z-0.533
G1 X-32.831 Y19.834 Z-0.533
G1 X-33.801 Y19.605 Z-0.533
G1 X-34.782 Y19.430 Z-0.533
G1 X-35.771 Y19.308 Z-0.533
G1 X-36.765 Y19.241 Z-0.533
G1 X-37.761 Y19.228 Z-0.533
G1 X-38.757 Y19.270 Z-0.533
G1 X-39.748 Y19.365 Z-0.533
G1 X-40.733 Y19.515 Z-0.533
G1 X-41.709 Y19.718 Z-0.533
G1 X-42.671 Y19.975 Z-0.533
G1 X-43.619 Y20.283 Z-0.533
G1 X-44.548 Y20.643 Z-0.533
G1 X-45.456 Y21.053 Z-0.533
G1 X-46.340 Y21.512 Z-0.533
G1 X-47.198 Y22.018 Z-0.533
G1 X-48.027 Y22.571 Z-0.533
G1 X-48.825 Y23.168 Z-0.533
G1 X-49.589 Y23.807 Z-0.533
G1 X-50.316 Y24.488 Z-0.533
G1 X-51.006 Y25.207 Z-0.533
G1 X-51.655 Y25.963 Z-0.533
G1 X-52.262 Y26.753 Z-0.533
G1 X-52.825 Y27.575 Z-0.533
G1 X-53.342 Y28.426 Z-0.533
G1 X-53.812 Y29.305 Z-0.533
G1 X-54.234 Y30.208 Z-0.533
G1 X-54.605 Y31.132 Z-0.533
G1 X-54.925 Y32.076 Z-0.533
G1 X-55.194 Y33.035 Z-0.533
G1 X-55.409 Y34.008 Z-0.533
G1 X-55.571 Y34.991 Z-0.533
G1 X-55.679 Y35.981 Z-0.533
G1 X-55.733 Y36.976 Z-0.533
G1 X-55.733 Y37.972 Z-0.533
G1 X-55.678 Y38.967 Z-0.533
G1 X-55.569 Y39.958 Z-0.533
G1 X-55.406 Y40.940 Z-0.533
G1 X-55.190 Y41.913 Z-0.533
G1 X-54.920 Y42.872 Z-0.533
G1 X-54.599 Y43.815 Z-0.533
G1 X-54.227 Y44.739 Z-0.533
G1 X-53.805 Y45.642 Z-0.533
G1 X-53.334 Y46.520 Z-0.533
G1 X-52.816 Y47.371 Z-0.533
G1 X-52.253 Y48.193 Z-0.533
G1 X-51.645 Y48.982 Z-0.533
G1 X-50.995 Y49.737 Z-0.533
G1 X-50.305 Y50.456 Z-0.533
G1 X-49.577 Y51.136 Z-0.533
G1 X-48.812 Y51.775 Z-0.533
G1 X-48.014 Y52.371 Z-0.533
G1 X-47.185 Y52.923 Z-0.533
G1 X-46.326 Y53.429 Z-0.533
G1 X-45.441 Y53.887 Z-0.533
G1 X-44.533 Y54.296 Z-0.533
G1 X-43.604 Y54.655 Z-0.533
G1 X-42.656 Y54.962 Z-0.533
G1 X-41.693 Y55.218 Z-0.533
G1 X-40.717 Y55.420 Z-0.533
G1 X-39.732 Y55.569 Z-0.533
G1 X-38.741 Y55.664 Z-0.533
G1 X-37.745 Y55.705 Z-0.533
G1 X-36.749 Y55.691 Z-0.533
G1 X-35.755 Y55.623 Z-0.533
G1 X-34.766 Y55.500 Z-0.533
G1 X-33.786 Y55.324 Z-0.533
G1 X-32.816 Y55.095 Z-0.533
G1 X-31.860 Y54.813 Z-0.533
G1 X-30.922 Y54.479 Z-0.533
G1 X-30.003 Y54.094 Z-0.533
G1 X-29.106 Y53.660 Z-0.533
G1 X-28.234 Y53.178 Z-0.533
G1 X-27.390 Y52.648 Z-0.533
G1 X-26.576 Y52.073 Z-0.533
G1 X-25.795 Y51.455 Z-0.533
G1 X-25.049 Y50.795 Z-0.533
G1 X-24.339 Y50.096 Z-0.533
G1 X-23.670 Y49.358 Z-0.533
G1 X-23.041 Y48.585 Z-0.533
G1 X-22.455 Y47.779 Z-0.533
G1 X-21.915 Y46.942 Z-0.533
G1 X-21.421 Y46.077 Z-0.533
G1 X-20.974 Y45.186 Z-0.533
G1 X-20.577 Y44.273 Z-0.533
G1 X-20.231 Y43.338 Z-0.533
G1 X-19.936 Y42.387 Z-0.533
G1 X-19.694 Y41.420 Z-0.533
G1 X-19.504 Y40.442 Z-0.533
G1 X-19.369 Y39.455 Z-0.533
G1 X-19.287 Y38.462 Z-0.533
G1 X-19.260 Y37.466 Z-0.533
G1 X-19.260 Y37.450 Z-0.533
(End of step 34.)
G0 Z3.000
G0 X-18.780 Y37.450
(Begin step 35.)
G0 X-18.780 Y37.450
(part 1)
G1 X-18.780 Y37.450 Z-0.533
G1 X-18.807 Y36.454 Z-0.533
G1 X-18.888 Y35.461 Z-0.533
G1 X-19.021 Y34.473 Z-0.533
G1 X-19.206 Y33.494 Z-0.533
G1 X-19.444 Y32.526 Z-0.533
G1 X-19.732 Y31.572 Z-0.533
G1 X-20.071 Y30.635 Z-0.533
G1 X-20.459 Y29.717 Z-0.533
G1 X-20.896 Y28.821 Z-0.533
G1 X-21.379 Y27.950 Z-0.533
G1 X-21.908 Y27.106 Z-0.533
G1 X-22.482 Y26.291 Z-0.533
G1 X-23.098 Y25.507 Z-0.533
G1 X-23.755 Y24.758 Z-0.533
G1 X-24.450 Y24.044 Z-0.533
G1 X-25.183 Y23.369 Z-0.533
G1 X-25.951 Y22.734 Z-0.533
G1 X-26.751 Y22.140 Z-0.533
G1 X-27.582 Y21.590 Z-0.533
G1 X-28.441 Y21.084 Z-0.533
G1 X-29.325 Y20.625 Z-0.533
G1 X-30.233 Y20.214 Z-0.533
G1 X-31.162 Y19.852 Z-0.533
G1 X-32.108 Y19.540 Z-0.533
G1 X-33.069 Y19.278 Z-0.533
G1 X-34.044 Y19.068 Z-0.533
G1 X-35.028 Y18.910 Z-0.533
G1 X-36.019 Y18.805 Z-0.533
G1 X-37.014 Y18.753 Z-0.533
G1 X-38.010 Y18.753 Z-0.533
G1 X-39.005 Y18.807 Z-0.533
G1 X-39.996 Y18.913 Z-0.533
G1 X-40.980 Y19.073 Z-0.533
G1 X-41.954 Y19.284 Z-0.533
G1 X-42.915 Y19.547 Z-0.533
G1 X-43.861 Y19.860 Z-0.533
G1 X-44.789 Y20.224 Z-0.533
G1 X-45.696 Y20.636 Z-0.533
G1 X-46.580 Y21.096 Z-0.533
G1 X-47.438 Y21.602 Z-0.533
G1 X-48.269 Y22.154 Z-0.533
G1 X-49.068 Y22.748 Z-0.533
G1 X-49.835 Y23.385 Z-0.533
G1 X-50.567 Y24.061 Z-0.533
G1 X-51.262 Y24.776 Z-0.533
G1 X-51.918 Y25.526 Z-0.533
G1 X-52.533 Y26.310 Z-0.533
G1 X-53.105 Y27.126 Z-0.533
G1 X-53.633 Y27.971 Z-0.533
G1 X-54.115 Y28.843 Z-0.533
G1 X-54.551 Y29.739 Z-0.533
G1 X-54.938 Y30.658 Z-0.533
G1 X-55.275 Y31.595 Z-0.533
G1 X-55.563 Y32.549 Z-0.533
G1 X-55.799 Y33.518 Z-0.533
G1 X-55.983 Y34.497 Z-0.533
G1 X-56.115 Y35.485 Z-0.533
G1 X-56.194 Y36.478 Z-0.533
G1 X-56.220 Y37.474 Z-0.533
G1 X-56.193 Y38.470 Z-0.533
G1 X-56.113 Y39.464 Z-0.533
G1 X-55.980 Y40.451 Z-0.533
G1 X-55.795 Y41.431 Z-0.533
G1 X-55.559 Y42.399 Z-0.533
G1 X-55.270 Y43.353 Z-0.533
G1 X-54.932 Y44.290 Z-0.533
G1 X-54.544 Y45.208 Z-0.533
G1 X-54.108 Y46.104 Z-0.533
G1 X-53.625 Y46.975 Z-0.533
G1 X-53.096 Y47.820 Z-0.533
G1 X-52.523 Y48.635 Z-0.533
G1 X-51.907 Y49.419 Z-0.533
G1 X-51.251 Y50.169 Z-0.533
G1 X-50.555 Y50.882 Z-0.533
G1 X-49.823 Y51.558 Z-0.533
G1 X-49.056 Y52.194 Z-0.533
G1 X-48.255 Y52.788 Z-0.533
G1 X-47.425 Y53.339 Z-0.533
G1 X-46.566 Y53.844 Z-0.533
G1 X-45.682 Y54.304 Z-0.533
G1 X-44.774 Y54.715 Z-0.533
G1 X-43.846 Y55.078 Z-0.533
G1 X-42.900 Y55.391 Z-0.533
G1 X-41.938 Y55.653 Z-0.533
G1 X-40.964 Y55.863 Z-0.533
G1 X-39.980 Y56.021 Z-0.533
G1 X-38.989 Y56.127 Z-0.533
G1 X-37.994 Y56.180 Z-0.533
G1 X-36.998 Y56.180 Z-0.533
G1 X-36.003 Y56.126 Z-0.533
G1 X-35.012 Y56.020 Z-0.533
G1 X-34.028 Y55.861 Z-0.533
G1 X-33.054 Y55.651 Z-0.533
G1 X-32.093 Y55.388 Z-0.533
G1 X-31.147 Y55.075 Z-0.533
G1 X-30.218 Y54.712 Z-0.533
G1 X-29.311 Y54.300 Z-0.533
G1 X-28.427 Y53.841 Z-0.533
G1 X-27.568 Y53.334 Z-0.533
G1 X-26.738 Y52.783 Z-0.533
G1 X-25.938 Y52.189 Z-0.533
G1 X-25.171 Y51.553 Z-0.533
G1 X-24.439 Y50.877 Z-0.533
G1 X-23.744 Y50.163 Z-0.533
G1 X-23.088 Y49.413 Z-0.533
G1 X-22.472 Y48.629 Z-0.533
G1 X-21.900 Y47.813 Z-0.533
G1 X-21.371 Y46.969 Z-0.533
G1 X-20.888 Y46.097 Z-0.533
G1 X-20.452 Y45.201 Z-0.533
G1 X-20.065 Y44.282 Z-0.533
G1 X-19.727 Y43.345 Z-0.533
G1 X-19.439 Y42.391 Z-0.533
G1 X-19.203 Y41.423 Z-0.533
G1 X-19.018 Y40.444 Z-0.533
G1 X-18.886 Y39.456 Z-0.533
G1 X-18.807 Y38.462 Z-0.533
G1 X-18.780 Y37.466 Z-0.533
G1 X-18.780 Y37.450 Z-0.533
(End of step 35.)
G0 Z3.000
G0 X-18.300 Y37.450
(Begin step 36.)
G0 X-18.300 Y37.450
(part 1)
G1 X-18.300 Y37.450 Z-0.533
G1 X-18.327 Y36.454 Z-0.533
G1 X-18.405 Y35.460 Z-0.533
G1 X-18.535 Y34.472 Z-0.533
G1 X-18.716 Y33.492 Z-0.533
G1 X-18.947 Y32.522 Z-0.533
G1 X-19.229 Y31.566 Z-0.533
G1 X-19.560 Y30.626 Z-0.533
G1 X-19.939 Y29.704 Z-0.533
G1 X-20.366 Y28.803 Z-0.533
G1 X-20.838 Y27.926 Z-0.533
G1 X-21.356 Y27.074 Z-0.533
G1 X-21.917 Y26.250 Z-0.533
G1 X-22.520 Y25.456 Z-0.533
G1 X-23.163 Y24.695 Z-0.533
G1 X-23.846 Y23.968 Z-0.533
G1 X-24.564 Y23.278 Z-0.533
G1 X-25.318 Y22.626 Z-0.533
G1 X-26.105 Y22.013 Z-0.533
G1 X-26.922 Y21.443 Z-0.533
G1 X-27.768 Y20.915 Z-0.533
G1 X-28.640 Y20.433 Z-0.533
G1 X-29.536 Y19.996 Z-0.533
G1 X-30.453 Y19.606 Z-0.533
G1 X-31.390 Y19.264 Z-0.533
G1 X-32.343 Y18.972 Z-0.533
G1 X-33.309 Y18.729 Z-0.533
G1 X-34.287 Y18.537 Z-0.533
G1 X-35.274 Y18.396 Z-0.533
G1 X-36.267 Y18.306 Z-0.533
G1 X-37.263 Y18.268 Z-0.533
G1 X-38.259 Y18.281 Z-0.533
G1 X-39.254 Y18.347 Z-0.533
G1 X-40.244 Y18.463 Z-0.533
G1 X-41.226 Y18.631 Z-0.533
G1 X-42.199 Y18.850 Z-0.533
G1 X-43.159 Y19.119 Z-0.533
G1 X-44.103 Y19.437 Z-0.533
G1 X-45.030 Y19.804 Z-0.533
G1 X-45.936 Y20.219 Z-0.533
G1 X-46.820 Y20.680 Z-0.533
G1 X-47.679 Y21.186 Z-0.533
G1 X-48.510 Y21.737 Z-0.533
G1 X-49.311 Y22.329 Z-0.533
G1 X-50.081 Y22.963 Z-0.533
G1 X-50.817 Y23.635 Z-0.533
G1 X-51.517 Y24.345 Z-0.533
G1 X-52.179 Y25.090 Z-0.533
G1 X-52.801 Y25.868 Z-0.533
G1 X-53.382 Y26.678 Z-0.533
G1 X-53.921 Y27.517 Z-0.533
G1 X-54.415 Y28.382 Z-0.533
G1 X-54.864 Y29.272 Z-0.533
G1 X-55.266 Y30.185 Z-0.533
G1 X-55.620 Y31.116 Z-0.533
G1 X-55.925 Y32.065 Z-0.533
G1 X-56.180 Y33.029 Z-0.533
G1 X-56.385 Y34.004 Z-0.533
G1 X-56.540 Y34.989 Z-0.533
G1 X-56.642 Y35.980 Z-0.533
G1 X-56.694 Y36.976 Z-0.533
G1 X-56.693 Y37.973 Z-0.533
G1 X-56.641 Y38.968 Z-0.533
G1 X-56.537 Y39.959 Z-0.533
G1 X-56.382 Y40.944 Z-0.533
G1 X-56.176 Y41.919 Z-0.533
G1 X-55.920 Y42.882 Z-0.533
G1 X-55.614 Y43.831 Z-0.533
G1 X-55.260 Y44.763 Z-0.533
G1 X-54.857 Y45.674 Z-0.533
G1 X-54.408 Y46.564 Z-0.533
G1 X-53.913 Y47.429 Z-0.533
G1 X-53.374 Y48.268 Z-0.533
G1 X-52.792 Y49.077 Z-0.533
G1 X-52.168 Y49.855 Z-0.533
G1 X-51.506 Y50.599 Z-0.533
G1 X-50.805 Y51.309 Z-0.533
G1 X-50.069 Y51.980 Z-0.533
G1 X-49.299 Y52.613 Z-0.533
G1 X-48.497 Y53.205 Z-0.533
G1 X-47.665 Y53.755 Z-0.533
G1 X-46.806 Y54.260 Z-0.533
G1 X-45.922 Y54.721 Z-0.533
G1 X-45.015 Y55.134 Z-0.533
G1 X-44.088 Y55.501 Z-0.533
G1 X-43.143 Y55.818 Z-0.533
G1 X-42.183 Y56.086 Z-0.533
G1 X-41.211 Y56.304 Z-0.533
G1 X-40.228 Y56.471 Z-0.533
G1 X-39.238 Y56.587 Z-0.533
G1 X-38.243 Y56.652 Z-0.533
G1 X-37.247 Y56.665 Z-0.533
G1 X-36.251 Y56.626 Z-0.533
G1 X-35.258 Y56.535 Z-0.533
G1 X-34.272 Y56.393 Z-0.533
G1 X-33.294 Y56.200 Z-0.533
G1 X-32.327 Y55.956 Z-0.533
G1 X-31.375 Y55.663 Z-0.533
G1 X-30.438 Y55.321 Z-0.533
G1 X-29.521 Y54.930 Z-0.533
G1 X-28.626 Y54.492 Z-0.533
G1 X-27.754 Y54.009 Z-0.533
G1 X-26.909 Y53.481 Z-0.533
G1 X-26.092 Y52.910 Z-0.533
G1 X-25.306 Y52.297 Z-0.533
G1 X-24.553 Y51.644 Z-0.533
G1 X-23.834 Y50.953 Z-0.533
G1 X-23.153 Y50.226 Z-0.533
G1 X-22.510 Y49.464 Z-0.533
G1 X-21.908 Y48.670 Z-0.533
G1 X-21.347 Y47.845 Z-0.533
G1 X-20.830 Y46.993 Z-0.533
G1 X-20.358 Y46.115 Z-0.533
G1 X-19.933 Y45.214 Z-0.533
G1 X-19.554 Y44.292 Z-0.533
G1 X-19.224 Y43.351 Z-0.533
G1 X-18.943 Y42.395 Z-0.533
G1 X-18.713 Y41.425 Z-0.533
G1 X-18.532 Y40.445 Z-0.533
G1 X-18.403 Y39.456 Z-0.533
G1 X-18.326 Y38.463 Z-0.533
G1 X-18.300 Y37.466 Z-0.533
G1 X-18.300 Y37.450 Z-0.533
(End of step 36.)
G0 Z3.000
G0 X-17.820 Y37.450
(Begin step 37.)
G0 X-17.820 Y37.450
(part 1)
G1 X-17.820 Y37.450 Z-0.533
G1 X-17.846 Y36.454 Z-0.533
G1 X-17.923 Y35.460 Z-0.533
G1 X-18.049 Y34.471 Z-0.533
G1 X-18.226 Y33.490 Z-0.533
G1 X-18.452 Y32.519 Z-0.533
G1 X-18.727 Y31.560 Z-0.533
G1 X-19.050 Y30.617 Z-0.533
G1 X-19.421 Y29.692 Z-0.533
G1 X-19.838 Y28.786 Z-0.533
G1 X-20.300 Y27.903 Z-0.533
G1 X-20.806 Y27.044 Z-0.533
G1 X-21.356 Y26.212 Z-0.533
G1 X-21.946 Y25.409 Z-0.533
G1 X-22.577 Y24.636 Z-0.533
G1 X-23.246 Y23.897 Z-0.533
G1 X-23.951 Y23.193 Z-0.533
G1 X-24.691 Y22.525 Z-0.533
G1 X-25.465 Y21.895 Z-0.533
G1 X-26.269 Y21.306 Z-0.533
G1 X-27.101 Y20.758 Z-0.533
G1 X-27.961 Y20.253 Z-0.533
G1 X-28.845 Y19.792 Z-0.533
G1 X-29.751 Y19.376 Z-0.533
G1 X-30.677 Y19.007 Z-0.533
G1 X-31.621 Y18.685 Z-0.533
G1 X-32.579 Y18.411 Z-0.533
G1 X-33.551 Y18.187 Z-0.533
G1 X-34.532 Y18.011 Z-0.533
G1 X-35.521 Y17.886 Z-0.533
G1 X-36.515 Y17.811 Z-0.533
G1 X-37.512 Y17.786 Z-0.533
G1 X-38.509 Y17.812 Z-0.533
G1 X-39.503 Y17.888 Z-0.533
G1 X-40.492 Y18.015 Z-0.533
G1 X-41.473 Y18.191 Z-0.533
G1 X-42.444 Y18.417 Z-0.533
G1 X-43.402 Y18.692 Z-0.533
G1 X-44.345 Y19.015 Z-0.533
G1 X-45.271 Y19.385 Z-0.533
G1 X-46.177 Y19.802 Z-0.533
G1 X-47.060 Y20.264 Z-0.533
G1 X-47.919 Y20.771 Z-0.533
G1 X-48.751 Y21.320 Z-0.533
G1 X-49.554 Y21.910 Z-0.533
G1 X-50.327 Y22.541 Z-0.533
G1 X-51.066 Y23.209 Z-0.533
G1 X-51.771 Y23.915 Z-0.533
G1 X-52.439 Y24.655 Z-0.533
G1 X-53.068 Y25.428 Z-0.533
G1 X-53.658 Y26.232 Z-0.533
G1 X-54.206 Y27.064 Z-0.533
G1 X-54.712 Y27.924 Z-0.533
G1 X-55.173 Y28.808 Z-0.533
G1 X-55.589 Y29.714 Z-0.533
G1 X-55.958 Y30.640 Z-0.533
G1 X-56.280 Y31.583 Z-0.533
G1 X-56.554 Y32.542 Z-0.533
G1 X-56.779 Y33.513 Z-0.533
G1 X-56.954 Y34.494 Z-0.533
G1 X-57.080 Y35.483 Z-0.533
G1 X-57.155 Y36.478 Z-0.533
G1 X-57.180 Y37.474 Z-0.533
G1 X-57.154 Y38.471 Z-0.533
G1 X-57.078 Y39.465 Z-0.533
G1 X-56.952 Y40.454 Z-0.533
G1 X-56.776 Y41.435 Z-0.533
G1 X-56.550 Y42.406 Z-0.533
G1 X-56.275 Y43.365 Z-0.533
G1 X-55.952 Y44.308 Z-0.533
G1 X-55.582 Y45.234 Z-0.533
G1 X-55.166 Y46.139 Z-0.533
G1 X-54.704 Y47.023 Z-0.533
G1 X-54.198 Y47.882 Z-0.533
G1 X-53.649 Y48.714 Z-0.533
G1 X-53.059 Y49.518 Z-0.533
G1 X-52.428 Y50.290 Z-0.533
G1 X-51.760 Y51.030 Z-0.533
G1 X-51.055 Y51.734 Z-0.533
G1 X-50.315 Y52.402 Z-0.533
G1 X-49.542 Y53.032 Z-0.533
G1 X-48.738 Y53.622 Z-0.533
G1 X-47.905 Y54.170 Z-0.533
G1 X-47.046 Y54.676 Z-0.533
G1 X-46.162 Y55.137 Z-0.533
G1 X-45.256 Y55.553 Z-0.533
G1 X-44.330 Y55.923 Z-0.533
G1 X-43.387 Y56.245 Z-0.533
G1 X-42.428 Y56.519 Z-0.533
G1 X-41.457 Y56.744 Z-0.533
G1 X-40.476 Y56.920 Z-0.533
G1 X-39.487 Y57.046 Z-0.533
G1 X-38.493 Y57.121 Z-0.533
G1 X-37.496 Y57.146 Z-0.533
G1 X-36.499 Y57.121 Z-0.533
G1 X-35.505 Y57.045 Z-0.533
G1 X-34.516 Y56.919 Z-0.533
G1 X-33.535 Y56.743 Z-0.533
G1 X-32.564 Y56.517 Z-0.533
G1 X-31.605 Y56.243 Z-0.533
G1 X-30.662 Y55.920 Z-0.533
G1 X-29.736 Y55.550 Z-0.533
G1 X-28.830 Y55.134 Z-0.533
G1 X-27.947 Y54.672 Z-0.533
G1 X-27.088 Y54.166 Z-0.533
G1 X-26.255 Y53.617 Z-0.533
G1 X-25.452 Y53.027 Z-0.533
G1 X-24.679 Y52.397 Z-0.533
G1 X-23.940 Y51.729 Z-0.533
G1 X-23.235 Y51.024 Z-0.533
G1 X-22.566 Y50.284 Z-0.533
G1 X-21.937 Y49.511 Z-0.533
G1 X-21.346 Y48.708 Z-0.533
G1 X-20.798 Y47.875 Z-0.533
G1 X-20.292 Y47.016 Z-0.533
G1 X-19.831 Y46.132 Z-0.533
G1 X-19.415 Y45.226 Z-0.533
G1 X-19.045 Y44.300 Z-0.533
G1 X-18.722 Y43.357 Z-0.533
G1 X-18.448 Y42.398 Z-0.533
G1 X-18.223 Y41.427 Z-0.533
G1 X-18.047 Y40.446 Z-0.533
G1 X-17.921 Y39.457 Z-0.533
G1 X-17.845 Y38.463 Z-0.533
G1 X-17.820 Y37.466 Z-0.533
G1 X-17.820 Y37.450 Z-0.533
(End of step 37.)
G0 Z3.000
G0 X-17.340 Y37.450
(Begin step 38.)
G0 X-17.340 Y37.450
(part 1)
G1 X-17.340 Y37.450 Z-0.533
G1 X-17.365 Y36.453 Z-0.533
G1 X-17.440 Y35.459 Z-0.533
G1 X-17.564 Y34.470 Z-0.533
G1 X-17.737 Y33.487 Z-0.533
G1 X-17.957 Y32.515 Z-0.533
G1 X-18.226 Y31.555 Z-0.533
G1 X-18.542 Y30.609 Z-0.533
G1 X-18.904 Y29.680 Z-0.533
G1 X-19.312 Y28.770 Z-0.533
G1 X-19.764 Y27.881 Z-0.533
G1 X-20.260 Y27.016 Z-0.533
G1 X-20.798 Y26.176 Z-0.533
G1 X-21.377 Y25.364 Z-0.533
G1 X-21.995 Y24.582 Z-0.533
G1 X-22.651 Y23.831 Z-0.533
G1 X-23.343 Y23.113 Z-0.533
G1 X-24.070 Y22.431 Z-0.533
G1 X-24.830 Y21.785 Z-0.533
G1 X-25.621 Y21.178 Z-0.533
G1 X-26.441 Y20.610 Z-0.533
G1 X-27.288 Y20.084 Z-0.533
G1 X-28.160 Y19.600 Z-0.533
G1 X-29.055 Y19.160 Z-0.533
G1 X-29.970 Y18.765 Z-0.533
G1 X-30.904 Y18.416 Z-0.533
G1 X-31.854 Y18.113 Z-0.533
G1 X-32.818 Y17.857 Z-0.533
G1 X-33.793 Y17.650 Z-0.533
G1 X-34.778 Y17.491 Z-0.533
G1 X-35.769 Y17.381 Z-0.533
G1 X-36.764 Y17.320 Z-0.533
G1 X-37.761 Y17.308 Z-0.533
G1 X-38.758 Y17.346 Z-0.533
G1 X-39.751 Y17.432 Z-0.533
G1 X-40.739 Y17.568 Z-0.533
G1 X-41.719 Y17.753 Z-0.533
G1 X-42.689 Y17.985 Z-0.533
G1 X-43.646 Y18.266 Z-0.533
G1 X-44.587 Y18.593 Z-0.533
G1 X-45.512 Y18.967 Z-0.533
G1 X-46.417 Y19.385 Z-0.533
G1 X-47.300 Y19.849 Z-0.533
G1 X-48.159 Y20.355 Z-0.533
G1 X-48.992 Y20.903 Z-0.533
G1 X-49.797 Y21.491 Z-0.533
G1 X-50.572 Y22.119 Z-0.533
G1 X-51.315 Y22.784 Z-0.533
G1 X-52.024 Y23.485 Z-0.533
G1 X-52.698 Y24.220 Z-0.533
G1 X-53.334 Y24.988 Z-0.533
G1 X-53.932 Y25.786 Z-0.533
G1 X-54.489 Y26.613 Z-0.533
G1 X-55.005 Y27.466 Z-0.533
G1 X-55.478 Y28.344 Z-0.533
G1 X-55.907 Y29.244 Z-0.533
G1 X-56.291 Y30.165 Z-0.533
G1 X-56.629 Y31.103 Z-0.533
G1 X-56.921 Y32.056 Z-0.533
G1 X-57.164 Y33.023 Z-0.533
G1 X-57.360 Y34.001 Z-0.533
G1 X-57.507 Y34.987 Z-0.533
G1 X-57.605 Y35.980 Z-0.533
G1 X-57.654 Y36.976 Z-0.533
G1 X-57.654 Y37.973 Z-0.533
G1 X-57.604 Y38.969 Z-0.533
G1 X-57.505 Y39.961 Z-0.533
G1 X-57.357 Y40.947 Z-0.533
G1 X-57.161 Y41.925 Z-0.533
G1 X-56.916 Y42.892 Z-0.533
G1 X-56.624 Y43.845 Z-0.533
G1 X-56.285 Y44.783 Z-0.533
G1 X-55.901 Y45.703 Z-0.533
G1 X-55.471 Y46.603 Z-0.533
G1 X-54.997 Y47.480 Z-0.533
G1 X-54.481 Y48.333 Z-0.533
G1 X-53.923 Y49.159 Z-0.533
G1 X-53.324 Y49.957 Z-0.533
G1 X-52.687 Y50.724 Z-0.533
G1 X-52.013 Y51.459 Z-0.533
G1 X-51.303 Y52.159 Z-0.533
G1 X-50.560 Y52.824 Z-0.533
G1 X-49.785 Y53.451 Z-0.533
G1 X-48.979 Y54.039 Z-0.533
G1 X-48.146 Y54.586 Z-0.533
G1 X-47.286 Y55.092 Z-0.533
G1 X-46.403 Y55.554 Z-0.533
G1 X-45.497 Y55.972 Z-0.533
G1 X-44.572 Y56.345 Z-0.533
G1 X-43.630 Y56.672 Z-0.533
G1 X-42.673 Y56.951 Z-0.533
G1 X-41.703 Y57.183 Z-0.533
G1 X-40.723 Y57.367 Z-0.533
G1 X-39.735 Y57.502 Z-0.533
G1 X-38.742 Y57.588 Z-0.533
G1 X-37.745 Y57.625 Z-0.533
G1 X-36.748 Y57.612 Z-0.533
G1 X-35.753 Y57.550 Z-0.533
G1 X-34.762 Y57.439 Z-0.533
G1 X-33.778 Y57.280 Z-0.533
G1 X-32.803 Y57.071 Z-0.533
G1 X-31.839 Y56.815 Z-0.533
G1 X-30.889 Y56.511 Z-0.533
G1 X-29.955 Y56.161 Z-0.533
G1 X-29.040 Y55.765 Z-0.533
G1 X-28.146 Y55.325 Z-0.533
G1 X-27.274 Y54.840 Z-0.533
G1 X-26.428 Y54.313 Z-0.533
G1 X-25.608 Y53.745 Z-0.533
G1 X-24.818 Y53.137 Z-0.533
G1 X-24.058 Y52.491 Z-0.533
G1 X-23.332 Y51.808 Z-0.533
G1 X-22.640 Y51.090 Z-0.533
G1 X-21.984 Y50.338 Z-0.533
G1 X-21.367 Y49.555 Z-0.533
G1 X-20.789 Y48.743 Z-0.533
G1 X-20.252 Y47.903 Z-0.533
G1 X-19.757 Y47.037 Z-0.533
G1 X-19.305 Y46.148 Z-0.533
G1 X-18.898 Y45.238 Z-0.533
G1 X-18.537 Y44.308 Z-0.533
G1 X-18.221 Y43.362 Z-0.533
G1 X-17.954 Y42.402 Z-0.533
G1 X-17.733 Y41.429 Z-0.533
G1 X-17.562 Y40.447 Z-0.533
G1 X-17.439 Y39.458 Z-0.533
G1 X-17.365 Y38.463 Z-0.533
G1 X-17.340 Y37.466 Z-0.533
G1 X-17.340 Y37.450 Z-0.533
(End of step 38.)
G0 Z3.000
G0 X-16.860 Y37.450
(Begin step 39.)
G0 X-16.860 Y37.450
(part 1)
G1 X-16.860 Y37.450 Z-0.533
G1 X-16.885 Y36.453 Z-0.533
G1 X-16.958 Y35.459 Z-0.533
G1 X-17.079 Y34.469 Z-0.533
G1 X-17.248 Y33.486 Z-0.533
G1 X-17.463 Y32.512 Z-0.533
G1 X-17.726 Y31.550 Z-0.533
G1 X-18.035 Y30.601 Z-0.533
G1 X-18.389 Y29.669 Z-0.533
G1 X-18.788 Y28.755 Z-0.533
G1 X-19.231 Y27.861 Z-0.533
G1 X-19.716 Y26.990 Z-0.533
G1 X-20.243 Y26.143 Z-0.533
G1 X-20.810 Y25.323 Z-0.533
G1 X-21.416 Y24.531 Z-0.533
G1 X-22.060 Y23.769 Z-0.533
G1 X-22.740 Y23.039 Z-0.533
G1 X-23.454 Y22.343 Z-0.533
G1 X-24.201 Y21.682 Z-0.533
G1 X-24.979 Y21.058 Z-0.533
G1 X-25.786 Y20.472 Z-0.533
G1 X-26.621 Y19.926 Z-0.533
G1 X-27.481 Y19.421 Z-0.533
G1 X-28.364 Y18.958 Z-0.533
G1 X-29.269 Y18.538 Z-0.533
G1 X-30.193 Y18.163 Z-0.533
G1 X-31.134 Y17.832 Z-0.533
G1 X-32.090 Y17.548 Z-0.533
G1 X-33.058 Y17.310 Z-0.533
G1 X-34.037 Y17.119 Z-0.533
G1 X-35.024 Y16.975 Z-0.533
G1 X-36.017 Y16.880 Z-0.533
G1 X-37.013 Y16.832 Z-0.533
G1 X-38.011 Y16.833 Z-0.533
G1 X-39.007 Y16.881 Z-0.533
G1 X-39.999 Y16.978 Z-0.533
G1 X-40.986 Y17.123 Z-0.533
G1 X-41.965 Y17.315 Z-0.533
G1 X-42.933 Y17.554 Z-0.533
G1 X-43.889 Y17.840 Z-0.533
G1 X-44.829 Y18.171 Z-0.533
G1 X-45.753 Y18.548 Z-0.533
G1 X-46.657 Y18.969 Z-0.533
G1 X-47.540 Y19.433 Z-0.533
G1 X-48.399 Y19.939 Z-0.533
G1 X-49.233 Y20.486 Z-0.533
G1 X-50.040 Y21.072 Z-0.533
G1 X-50.817 Y21.697 Z-0.533
G1 X-51.564 Y22.359 Z-0.533
G1 X-52.277 Y23.056 Z-0.533
G1 X-52.956 Y23.787 Z-0.533
G1 X-53.599 Y24.549 Z-0.533
G1 X-54.204 Y25.342 Z-0.533
G1 X-54.770 Y26.163 Z-0.533
G1 X-55.296 Y27.011 Z-0.533
G1 X-55.780 Y27.883 Z-0.533
G1 X-56.222 Y28.777 Z-0.533
G1 X-56.620 Y29.691 Z-0.533
G1 X-56.973 Y30.624 Z-0.533
G1 X-57.281 Y31.573 Z-0.533
G1 X-57.542 Y32.535 Z-0.533
G1 X-57.757 Y33.509 Z-0.533
G1 X-57.925 Y34.492 Z-0.533
G1 X-58.044 Y35.482 Z-0.533
G1 X-58.116 Y36.477 Z-0.533
G1 X-58.140 Y37.474 Z-0.533
G1 X-58.116 Y38.471 Z-0.533
G1 X-58.043 Y39.466 Z-0.533
G1 X-57.922 Y40.456 Z-0.533
G1 X-57.754 Y41.439 Z-0.533
G1 X-57.538 Y42.413 Z-0.533
G1 X-57.276 Y43.375 Z-0.533
G1 X-56.968 Y44.324 Z-0.533
G1 X-56.614 Y45.256 Z-0.533
G1 X-56.215 Y46.170 Z-0.533
G1 X-55.773 Y47.064 Z-0.533
G1 X-55.288 Y47.936 Z-0.533
G1 X-54.761 Y48.783 Z-0.533
G1 X-54.194 Y49.603 Z-0.533
G1 X-53.589 Y50.396 Z-0.533
G1 X-52.945 Y51.158 Z-0.533
G1 X-52.266 Y51.888 Z-0.533
G1 X-51.552 Y52.584 Z-0.533
G1 X-50.805 Y53.245 Z-0.533
G1 X-50.027 Y53.870 Z-0.533
G1 X-49.220 Y54.456 Z-0.533
G1 X-48.386 Y55.002 Z-0.533
G1 X-47.526 Y55.508 Z-0.533
G1 X-46.643 Y55.971 Z-0.533
G1 X-45.738 Y56.391 Z-0.533
G1 X-44.814 Y56.767 Z-0.533
G1 X-43.874 Y57.098 Z-0.533
G1 X-42.918 Y57.383 Z-0.533
G1 X-41.949 Y57.621 Z-0.533
G1 X-40.971 Y57.812 Z-0.533
G1 X-39.984 Y57.956 Z-0.533
G1 X-38.991 Y58.052 Z-0.533
G1 X-37.995 Y58.100 Z-0.533
G1 X-36.997 Y58.100 Z-0.533
G1 X-36.001 Y58.052 Z-0.533
G1 X-35.008 Y57.955 Z-0.533
G1 X-34.022 Y57.811 Z-0.533
G1 X-33.043 Y57.619 Z-0.533
G1 X-32.075 Y57.380 Z-0.533
G1 X-31.119 Y57.095 Z-0.533
G1 X-30.178 Y56.764 Z-0.533
G1 X-29.254 Y56.388 Z-0.533
G1 X-28.350 Y55.967 Z-0.533
G1 X-27.467 Y55.504 Z-0.533
G1 X-26.607 Y54.998 Z-0.533
G1 X-25.773 Y54.451 Z-0.533
G1 X-24.966 Y53.865 Z-0.533
G1 X-24.189 Y53.240 Z-0.533
G1 X-23.442 Y52.579 Z-0.533
G1 X-22.729 Y51.882 Z-0.533
G1 X-22.050 Y51.152 Z-0.533
G1 X-21.406 Y50.389 Z-0.533
G1 X-20.801 Y49.597 Z-0.533
G1 X-20.234 Y48.776 Z-0.533
G1 X-19.708 Y47.929 Z-0.533
G1 X-19.224 Y47.057 Z-0.533
G1 X-18.782 Y46.163 Z-0.533
G1 X-18.383 Y45.249 Z-0.533
G1 X-18.030 Y44.316 Z-0.533
G1 X-17.722 Y43.367 Z-0.533
G1 X-17.460 Y42.405 Z-0.533
G1 X-17.244 Y41.431 Z-0.533
G1 X-17.077 Y40.448 Z-0.533
G1 X-16.956 Y39.458 Z-0.533
G1 X-16.884 Y38.463 Z-0.533
G1 X-16.860 Y37.466 Z-0.533
G1 X-16.860 Y37.450 Z-0.533
(End of step 39.)
G0 Z3.000
G0 X-16.380 Y37.450
(Begin step 40.)
G0 X-16.380 Y37.450
(part 1)
G1 X-16.380 Y37.450 Z-0.533
G1 X-16.404 Y36.453 Z-0.533
G1 X-16.476 Y35.458 Z-0.533
G1 X-16.594 Y34.468 Z-0.533
G1 X-16.759 Y33.484 Z-0.533
G1 X-16.970 Y32.509 Z-0.533
G1 X-17.227 Y31.545 Z-0.533
G1 X-17.529 Y30.594 Z-0.533
G1 X-17.876 Y29.659 Z-0.533
G1 X-18.267 Y28.741 Z-0.533
G1 X-18.700 Y27.843 Z-0.533
G1 X-19.175 Y26.966 Z-0.533
G1 X-19.692 Y26.112 Z-0.533
G1 X-20.248 Y25.284 Z-0.533
G1 X-20.842 Y24.483 Z-0.533
G1 X-21.474 Y23.711 Z-0.533
G1 X-22.141 Y22.969 Z-0.533
G1 X-22.843 Y22.260 Z-0.533
G1 X-23.577 Y21.585 Z-0.533
G1 X-24.343 Y20.945 Z-0.533
G1 X-25.137 Y20.343 Z-0.533
G1 X-25.960 Y19.778 Z-0.533
G1 X-26.808 Y19.253 Z-0.533
G1 X-27.680 Y18.768 Z-0.533
G1 X-28.574 Y18.325 Z-0.533
G1 X-29.487 Y17.925 Z-0.533
G1 X-30.419 Y17.569 Z-0.533
G1 X-31.366 Y17.256 Z-0.533
G1 X-32.328 Y16.989 Z-0.533
G1 X-33.300 Y16.768 Z-0.533
G1 X-34.282 Y16.593 Z-0.533
G1 X-35.271 Y16.464 Z-0.533
G1 X-36.266 Y16.382 Z-0.533
G1 X-37.263 Y16.348 Z-0.533
G1 X-38.260 Y16.360 Z-0.533
G1 X-39.256 Y16.419 Z-0.533
G1 X-40.248 Y16.526 Z-0.533
G1 X-41.233 Y16.679 Z-0.533
G1 X-42.211 Y16.878 Z-0.533
G1 X-43.178 Y17.124 Z-0.533
G1 X-44.132 Y17.415 Z-0.533
G1 X-45.071 Y17.750 Z-0.533
G1 X-45.994 Y18.130 Z-0.533
G1 X-46.897 Y18.552 Z-0.533
G1 X-47.780 Y19.017 Z-0.533
G1 X-48.640 Y19.523 Z-0.533
G1 X-49.475 Y20.069 Z-0.533
G1 X-50.283 Y20.654 Z-0.533
G1 X-51.062 Y21.276 Z-0.533
G1 X-51.812 Y21.935 Z-0.533
G1 X-52.529 Y22.628 Z-0.533
G1 X-53.213 Y23.354 Z-0.533
G1 X-53.862 Y24.112 Z-0.533
G1 X-54.474 Y24.899 Z-0.533
G1 X-55.049 Y25.715 Z-0.533
G1 X-55.584 Y26.556 Z-0.533
G1 X-56.079 Y27.422 Z-0.533
G1 X-56.532 Y28.311 Z-0.533
G1 X-56.944 Y29.220 Z-0.533
G1 X-57.311 Y30.147 Z-0.533
G1 X-57.635 Y31.091 Z-0.533
G1 X-57.913 Y32.049 Z-0.533
G1 X-58.146 Y33.018 Z-0.533
G1 X-58.333 Y33.998 Z-0.533
G1 X-58.474 Y34.986 Z-0.533
G1 X-58.568 Y35.979 Z-0.533
G1 X-58.614 Y36.975 Z-0.533
G1 X-58.614 Y37.973 Z-0.533
G1 X-58.566 Y38.969 Z-0.533
G1 X-58.472 Y39.962 Z-0.533
G1 X-58.331 Y40.950 Z-0.533
G1 X-58.143 Y41.930 Z-0.533
G1 X-57.909 Y42.899 Z-0.533
G1 X-57.630 Y43.857 Z-0.533
G1 X-57.306 Y44.800 Z-0.533
G1 X-56.937 Y45.727 Z-0.533
G1 X-56.525 Y46.636 Z-0.533
G1 X-56.071 Y47.524 Z-0.533
G1 X-55.576 Y48.390 Z-0.533
G1 X-55.040 Y49.231 Z-0.533
G1 X-54.465 Y50.046 Z-0.533
G1 X-53.852 Y50.833 Z-0.533
G1 X-53.202 Y51.590 Z-0.533
G1 X-52.518 Y52.316 Z-0.533
G1 X-51.800 Y53.009 Z-0.533
G1 X-51.050 Y53.667 Z-0.533
G1 X-50.270 Y54.288 Z-0.533
G1 X-49.461 Y54.873 Z-0.533
G1 X-48.626 Y55.418 Z-0.533
G1 X-47.766 Y55.923 Z-0.533
G1 X-46.883 Y56.387 Z-0.533
G1 X-45.979 Y56.809 Z-0.533
G1 X-45.056 Y57.188 Z-0.533
G1 X-44.117 Y57.523 Z-0.533
G1 X-43.162 Y57.813 Z-0.533
G1 X-42.195 Y58.058 Z-0.533
G1 X-41.218 Y58.256 Z-0.533
G1 X-40.232 Y58.409 Z-0.533
G1 X-39.240 Y58.514 Z-0.533
G1 X-38.244 Y58.573 Z-0.533
G1 X-37.247 Y58.585 Z-0.533
G1 X-36.250 Y58.549 Z-0.533
G1 X-35.256 Y58.467 Z-0.533
G1 X-34.266 Y58.337 Z-0.533
G1 X-33.285 Y58.161 Z-0.533
G1 X-32.312 Y57.939 Z-0.533
G1 X-31.351 Y57.671 Z-0.533
G1 X-30.404 Y57.358 Z-0.533
G1 X-29.473 Y57.001 Z-0.533
G1 X-28.559 Y56.600 Z-0.533
G1 X-27.666 Y56.157 Z-0.533
G1 X-26.794 Y55.672 Z-0.533
G1 X-25.946 Y55.146 Z-0.533
G1 X-25.124 Y54.581 Z-0.533
G1 X-24.330 Y53.977 Z-0.533
G1 X-23.565 Y53.337 Z-0.533
G1 X-22.831 Y52.661 Z-0.533
G1 X-22.130 Y51.952 Z-0.533
G1 X-21.463 Y51.210 Z-0.533
G1 X-20.832 Y50.437 Z-0.533
G1 X-20.238 Y49.636 Z-0.533
G1 X-19.683 Y48.807 Z-0.533
G1 X-19.167 Y47.953 Z-0.533
G1 X-18.693 Y47.076 Z-0.533
G1 X-18.260 Y46.177 Z-0.533
G1 X-17.870 Y45.259 Z-0.533
G1 X-17.524 Y44.323 Z-0.533
G1 X-17.223 Y43.372 Z-0.533
G1 X-16.966 Y42.408 Z-0.533
G1 X-16.756 Y41.433 Z-0.533
G1 X-16.592 Y40.449 Z-0.533
G1 X-16.474 Y39.459 Z-0.533
G1 X-16.404 Y38.464 Z-0.533
G1 X-16.380 Y37.466 Z-0.533
G1 X-16.380 Y37.450 Z-0.533
(End of step 40.)
G0 Z3.000
G0 X-15.900 Y37.450
(Begin step 41.)
G0 X-15.900 Y37.450
(part 1)
G1 X-15.900 Y37.450 Z-0.533
G1 X-15.924 Y36.453 Z-0.533
G1 X-15.994 Y35.458 Z-0.533
G1 X-16.109 Y34.467 Z-0.533
G1 X-16.271 Y33.482 Z-0.533
G1 X-16.477 Y32.506 Z-0.533
G1 X-16.729 Y31.540 Z-0.533
G1 X-17.025 Y30.588 Z-0.533
G1 X-17.364 Y29.649 Z-0.533
G1 X-17.746 Y28.728 Z-0.533
G1 X-18.171 Y27.825 Z-0.533
G1 X-18.637 Y26.943 Z-0.533
G1 X-19.143 Y26.083 Z-0.533
G1 X-19.688 Y25.247 Z-0.533
G1 X-20.271 Y24.438 Z-0.533
G1 X-20.891 Y23.656 Z-0.533
G1 X-21.547 Y22.904 Z-0.533
G1 X-22.236 Y22.183 Z-0.533
G1 X-22.958 Y21.494 Z-0.533
G1 X-23.712 Y20.840 Z-0.533
G1 X-24.494 Y20.221 Z-0.533
G1 X-25.304 Y19.639 Z-0.533
G1 X-26.140 Y19.095 Z-0.533
G1 X-27.001 Y18.590 Z-0.533
G1 X-27.884 Y18.125 Z-0.533
G1 X-28.787 Y17.701 Z-0.533
G1 X-29.709 Y17.320 Z-0.533
G1 X-30.648 Y16.982 Z-0.533
G1 X-31.601 Y16.687 Z-0.533
G1 X-32.567 Y16.437 Z-0.533
G1 X-33.543 Y16.232 Z-0.533
G1 X-34.528 Y16.072 Z-0.533
G1 X-35.519 Y15.957 Z-0.533
G1 X-36.515 Y15.889 Z-0.533
G1 X-37.512 Y15.866 Z-0.533
G1 X-38.509 Y15.890 Z-0.533
G1 X-39.505 Y15.959 Z-0.533
G1 X-40.496 Y16.075 Z-0.533
G1 X-41.480 Y16.236 Z-0.533
G1 X-42.456 Y16.443 Z-0.533
G1 X-43.422 Y16.694 Z-0.533
G1 X-44.375 Y16.990 Z-0.533
G1 X-45.313 Y17.329 Z-0.533
G1 X-46.235 Y17.711 Z-0.533
G1 X-47.138 Y18.136 Z-0.533
G1 X-48.020 Y18.601 Z-0.533
G1 X-48.880 Y19.107 Z-0.533
G1 X-49.716 Y19.652 Z-0.533
G1 X-50.525 Y20.235 Z-0.533
G1 X-51.307 Y20.855 Z-0.533
G1 X-52.059 Y21.510 Z-0.533
G1 X-52.781 Y22.200 Z-0.533
G1 X-53.469 Y22.922 Z-0.533
G1 X-54.124 Y23.675 Z-0.533
G1 X-54.743 Y24.457 Z-0.533
G1 X-55.325 Y25.267 Z-0.533
G1 X-55.870 Y26.103 Z-0.533
G1 X-56.375 Y26.964 Z-0.533
G1 X-56.840 Y27.847 Z-0.533
G1 X-57.263 Y28.750 Z-0.533
G1 X-57.645 Y29.672 Z-0.533
G1 X-57.983 Y30.610 Z-0.533
G1 X-58.278 Y31.564 Z-0.533
G1 X-58.528 Y32.529 Z-0.533
G1 X-58.734 Y33.506 Z-0.533
G1 X-58.894 Y34.490 Z-0.533
G1 X-59.009 Y35.481 Z-0.533
G1 X-59.077 Y36.477 Z-0.533
G1 X-59.100 Y37.474 Z-0.533
G1 X-59.077 Y38.472 Z-0.533
G1 X-59.007 Y39.467 Z-0.533
G1 X-58.892 Y40.458 Z-0.533
G1 X-58.731 Y41.443 Z-0.533
G1 X-58.525 Y42.419 Z-0.533
G1 X-58.273 Y43.384 Z-0.533
G1 X-57.978 Y44.337 Z-0.533
G1 X-57.639 Y45.276 Z-0.533
G1 X-57.257 Y46.197 Z-0.533
G1 X-56.832 Y47.100 Z-0.533
G1 X-56.367 Y47.983 Z-0.533
G1 X-55.861 Y48.843 Z-0.533
G1 X-55.316 Y49.679 Z-0.533
G1 X-54.733 Y50.488 Z-0.533
G1 X-54.114 Y51.270 Z-0.533
G1 X-53.458 Y52.023 Z-0.533
G1 X-52.769 Y52.744 Z-0.533
G1 X-52.047 Y53.433 Z-0.533
G1 X-51.295 Y54.088 Z-0.533
G1 X-50.512 Y54.707 Z-0.533
G1 X-49.702 Y55.289 Z-0.533
G1 X-48.866 Y55.834 Z-0.533
G1 X-48.006 Y56.339 Z-0.533
G1 X-47.123 Y56.804 Z-0.533
G1 X-46.220 Y57.228 Z-0.533
G1 X-45.298 Y57.609 Z-0.533
G1 X-44.360 Y57.948 Z-0.533
G1 X-43.407 Y58.243 Z-0.533
G1 X-42.441 Y58.494 Z-0.533
G1 X-41.465 Y58.699 Z-0.533
G1 X-40.480 Y58.860 Z-0.533
G1 X-39.489 Y58.975 Z-0.533
G1 X-38.493 Y59.043 Z-0.533
G1 X-37.496 Y59.066 Z-0.533
G1 X-36.499 Y59.043 Z-0.533
G1 X-35.503 Y58.974 Z-0.533
G1 X-34.512 Y58.859 Z-0.533
G1 X-33.528 Y58.698 Z-0.533
G1 X-32.551 Y58.492 Z-0.533
G1 X-31.586 Y58.241 Z-0.533
G1 X-30.633 Y57.946 Z-0.533
G1 X-29.694 Y57.607 Z-0.533
G1 X-28.773 Y57.225 Z-0.533
G1 X-27.870 Y56.801 Z-0.533
G1 X-26.987 Y56.335 Z-0.533
G1 X-26.127 Y55.830 Z-0.533
G1 X-25.291 Y55.285 Z-0.533
G1 X-24.481 Y54.702 Z-0.533
G1 X-23.699 Y54.082 Z-0.533
G1 X-22.947 Y53.427 Z-0.533
G1 X-22.225 Y52.738 Z-0.533
G1 X-21.536 Y52.017 Z-0.533
G1 X-20.881 Y51.264 Z-0.533
G1 X-20.262 Y50.482 Z-0.533
G1 X-19.679 Y49.672 Z-0.533
G1 X-19.135 Y48.836 Z-0.533
G1 X-18.629 Y47.976 Z-0.533
G1 X-18.164 Y47.093 Z-0.533
G1 X-17.740 Y46.190 Z-0.533
G1 X-17.358 Y45.268 Z-0.533
G1 X-17.019 Y44.330 Z-0.533
G1 X-16.724 Y43.377 Z-0.533
G1 X-16.474 Y42.411 Z-0.533
G1 X-16.268 Y41.435 Z-0.533
G1 X-16.107 Y40.450 Z-0.533
G1 X-15.992 Y39.459 Z-0.533
G1 X-15.923 Y38.464 Z-0.533
G1 X-15.900 Y37.466 Z-0.533
G1 X-15.900 Y37.450 Z-0.533
(End of step 41.)
G0 Z3.000
G0 X-15.420 Y37.450
(Begin step 42.)
G0 X-15.420 Y37.450
(part 1)
G1 X-15.420 Y37.450 Z-0.533
G1 X-15.443 Y36.453 Z-0.533
G1 X-15.512 Y35.457 Z-0.533
G1 X-15.625 Y34.466 Z-0.533
G1 X-15.783 Y33.480 Z-0.533
G1 X-15.985 Y32.503 Z-0.533
G1 X-16.231 Y31.536 Z-0.533
G1 X-16.521 Y30.581 Z-0.533
G1 X-16.853 Y29.640 Z-0.533
G1 X-17.228 Y28.716 Z-0.533
G1 X-17.644 Y27.809 Z-0.533
G1 X-18.101 Y26.921 Z-0.533
G1 X-18.597 Y26.056 Z-0.533
G1 X-19.132 Y25.213 Z-0.533
G1 X-19.704 Y24.396 Z-0.533
G1 X-20.313 Y23.605 Z-0.533
G1 X-20.957 Y22.843 Z-0.533
G1 X-21.634 Y22.110 Z-0.533
G1 X-22.344 Y21.409 Z-0.533
G1 X-23.085 Y20.741 Z-0.533
G1 X-23.856 Y20.106 Z-0.533
G1 X-24.654 Y19.508 Z-0.533
G1 X-25.479 Y18.946 Z-0.533
G1 X-26.328 Y18.421 Z-0.533
G1 X-27.200 Y17.936 Z-0.533
G1 X-28.093 Y17.491 Z-0.533
G1 X-29.005 Y17.086 Z-0.533
G1 X-29.934 Y16.723 Z-0.533
G1 X-30.879 Y16.402 Z-0.533
G1 X-31.838 Y16.125 Z-0.533
G1 X-32.808 Y15.891 Z-0.533
G1 X-33.787 Y15.701 Z-0.533
G1 X-34.775 Y15.555 Z-0.533
G1 X-35.767 Y15.454 Z-0.533
G1 X-36.764 Y15.399 Z-0.533
G1 X-37.761 Y15.388 Z-0.533
G1 X-38.759 Y15.422 Z-0.533
G1 X-39.753 Y15.502 Z-0.533
G1 X-40.744 Y15.626 Z-0.533
G1 X-41.727 Y15.795 Z-0.533
G1 X-42.702 Y16.008 Z-0.533
G1 X-43.666 Y16.265 Z-0.533
G1 X-44.618 Y16.565 Z-0.533
G1 X-45.555 Y16.908 Z-0.533
G1 X-46.476 Y17.293 Z-0.533
G1 X-47.378 Y17.719 Z-0.533
G1 X-48.260 Y18.185 Z-0.533
G1 X-49.120 Y18.691 Z-0.533
G1 X-49.957 Y19.236 Z-0.533
G1 X-50.768 Y19.817 Z-0.533
G1 X-51.551 Y20.434 Z-0.533
G1 X-52.307 Y21.087 Z-0.533
G1 X-53.032 Y21.772 Z-0.533
G1 X-53.725 Y22.490 Z-0.533
G1 X-54.385 Y23.239 Z-0.533
G1 X-55.010 Y24.016 Z-0.533
G1 X-55.600 Y24.821 Z-0.533
G1 X-56.153 Y25.652 Z-0.533
G1 X-56.668 Y26.506 Z-0.533
G1 X-57.144 Y27.384 Z-0.533
G1 X-57.579 Y28.282 Z-0.533
G1 X-57.974 Y29.198 Z-0.533
G1 X-58.326 Y30.132 Z-0.533
G1 X-58.636 Y31.080 Z-0.533
G1 X-58.903 Y32.042 Z-0.533
G1 X-59.126 Y33.014 Z-0.533
G1 X-59.306 Y33.996 Z-0.533
G1 X-59.440 Y34.985 Z-0.533
G1 X-59.530 Y35.978 Z-0.533
G1 X-59.575 Y36.975 Z-0.533
G1 X-59.574 Y37.973 Z-0.533
G1 X-59.529 Y38.970 Z-0.533
G1 X-59.438 Y39.964 Z-0.533
G1 X-59.303 Y40.952 Z-0.533
G1 X-59.123 Y41.934 Z-0.533
G1 X-58.899 Y42.906 Z-0.533
G1 X-58.632 Y43.868 Z-0.533
G1 X-58.321 Y44.816 Z-0.533
G1 X-57.968 Y45.749 Z-0.533
G1 X-57.572 Y46.666 Z-0.533
G1 X-57.136 Y47.563 Z-0.533
G1 X-56.660 Y48.440 Z-0.533
G1 X-56.145 Y49.294 Z-0.533
G1 X-55.591 Y50.125 Z-0.533
G1 X-55.001 Y50.929 Z-0.533
G1 X-54.375 Y51.706 Z-0.533
G1 X-53.714 Y52.454 Z-0.533
G1 X-53.020 Y53.171 Z-0.533
G1 X-52.295 Y53.857 Z-0.533
G1 X-51.539 Y54.508 Z-0.533
G1 X-50.755 Y55.125 Z-0.533
G1 X-49.943 Y55.706 Z-0.533
G1 X-49.107 Y56.250 Z-0.533
G1 X-48.246 Y56.755 Z-0.533
G1 X-47.364 Y57.221 Z-0.533
G1 X-46.461 Y57.646 Z-0.533
G1 X-45.540 Y58.030 Z-0.533
G1 X-44.603 Y58.373 Z-0.533
G1 X-43.651 Y58.672 Z-0.533
G1 X-42.686 Y58.928 Z-0.533
G1 X-41.711 Y59.141 Z-0.533
G1 X-40.728 Y59.309 Z-0.533
G1 X-39.738 Y59.433 Z-0.533
G1 X-38.743 Y59.511 Z-0.533
G1 X-37.745 Y59.545 Z-0.533
G1 X-36.748 Y59.533 Z-0.533
G1 X-35.751 Y59.477 Z-0.533
G1 X-34.759 Y59.375 Z-0.533
G1 X-33.772 Y59.229 Z-0.533
G1 X-32.792 Y59.039 Z-0.533
G1 X-31.822 Y58.804 Z-0.533
G1 X-30.864 Y58.525 Z-0.533
G1 X-29.919 Y58.204 Z-0.533
G1 X-28.990 Y57.840 Z-0.533
G1 X-28.078 Y57.435 Z-0.533
G1 X-27.186 Y56.989 Z-0.533
G1 X-26.314 Y56.503 Z-0.533
G1 X-25.465 Y55.978 Z-0.533
G1 X-24.641 Y55.416 Z-0.533
G1 X-23.843 Y54.816 Z-0.533
G1 X-23.073 Y54.181 Z-0.533
G1 X-22.333 Y53.513 Z-0.533
G1 X-21.623 Y52.811 Z-0.533
G1 X-20.946 Y52.078 Z-0.533
G1 X-20.303 Y51.315 Z-0.533
G1 X-19.695 Y50.524 Z-0.533
G1 X-19.123 Y49.706 Z-0.533
G1 X-18.589 Y48.863 Z-0.533
G1 X-18.093 Y47.997 Z-0.533
G1 X-17.637 Y47.110 Z-0.533
G1 X-17.222 Y46.202 Z-0.533
G1 X-16.848 Y45.277 Z-0.533
G1 X-16.516 Y44.336 Z-0.533
G1 X-16.227 Y43.381 Z-0.533
G1 X-15.981 Y42.414 Z-0.533
G1 X-15.780 Y41.436 Z-0.533
G1 X-15.623 Y40.451 Z-0.533
G1 X-15.510 Y39.459 Z-0.533
G1 X-15.443 Y38.464 Z-0.533
G1 X-15.420 Y37.466 Z-0.533
G1 X-15.420 Y37.450 Z-0.533
(End of step 42.)
G0 Z3.000
G0 X-14.940 Y37.450
(Begin step 43.)
G0 X-14.940 Y37.450
(part 1)
G1 X-14.940 Y37.450 Z-0.533
G1 X-14.963 Y36.452 Z-0.533
G1 X-15.030 Y35.457 Z-0.533
G1 X-15.141 Y34.465 Z-0.533
G1 X-15.295 Y33.479 Z-0.533
G1 X-15.493 Y32.501 Z-0.533
G1 X-15.734 Y31.532 Z-0.533
G1 X-16.018 Y30.575 Z-0.533
G1 X-16.344 Y29.632 Z-0.533
G1 X-16.711 Y28.704 Z-0.533
G1 X-17.119 Y27.793 Z-0.533
G1 X-17.567 Y26.901 Z-0.533
G1 X-18.054 Y26.030 Z-0.533
G1 X-18.578 Y25.181 Z-0.533
G1 X-19.140 Y24.356 Z-0.533
G1 X-19.738 Y23.557 Z-0.533
G1 X-20.371 Y22.785 Z-0.533
G1 X-21.037 Y22.042 Z-0.533
G1 X-21.735 Y21.329 Z-0.533
G1 X-22.464 Y20.647 Z-0.533
G1 X-23.223 Y19.999 Z-0.533
G1 X-24.009 Y19.384 Z-0.533
G1 X-24.822 Y18.805 Z-0.533
G1 X-25.660 Y18.263 Z-0.533
G1 X-26.521 Y17.758 Z-0.533
G1 X-27.403 Y17.292 Z-0.533
G1 X-28.306 Y16.865 Z-0.533
G1 X-29.226 Y16.478 Z-0.533
G1 X-30.162 Y16.133 Z-0.533
G1 X-31.113 Y15.829 Z-0.533
G1 X-32.076 Y15.568 Z-0.533
G1 X-33.050 Y15.350 Z-0.533
G1 X-34.032 Y15.174 Z-0.533
G1 X-35.022 Y15.043 Z-0.533
G1 X-36.016 Y14.955 Z-0.533
G1 X-37.013 Y14.912 Z-0.533
G1 X-38.011 Y14.912 Z-0.533
G1 X-39.008 Y14.957 Z-0.533
G1 X-40.002 Y15.045 Z-0.533
G1 X-40.991 Y15.178 Z-0.533
G1 X-41.974 Y15.354 Z-0.533
G1 X-42.947 Y15.574 Z-0.533
G1 X-43.910 Y15.836 Z-0.533
G1 X-44.861 Y16.141 Z-0.533
G1 X-45.797 Y16.487 Z-0.533
G1 X-46.716 Y16.875 Z-0.533
G1 X-47.618 Y17.302 Z-0.533
G1 X-48.500 Y17.770 Z-0.533
G1 X-49.360 Y18.275 Z-0.533
G1 X-50.198 Y18.819 Z-0.533
G1 X-51.010 Y19.399 Z-0.533
G1 X-51.796 Y20.014 Z-0.533
G1 X-52.554 Y20.663 Z-0.533
G1 X-53.282 Y21.345 Z-0.533
G1 X-53.980 Y22.059 Z-0.533
