(Exported by FreeCAD)
(Post Processor: grbl_post)
(Output Time:2022-05-22 20:43:14.436431)
(Begin preamble)
G17 G90
G21
(Begin operation: TC: 3.2 ball Q3.2)
(Path: TC: 3.2 ball Q3.2)
(TC: 3.2 ball Q3.2)
(Begin toolchange)
( M6 T9.0 )
M3 S24000.0
(Finish operation: TC: 3.2 ball Q3.2)
(Begin operation: Fixture)
(Path: Fixture)
G54
G0 Z20.000
(Finish operation: Fixture)
(Begin operation: Surface003)
(Path: Surface003)
(Surface003)
(Surface003)
(Tool type: ballend)
(Compensated Tool Path. Diameter: 3.2)
(Sample interval: 1.0)
(Step over %: 15.0)
()
G0 Z20.000
(Beginning of Single-pass layer.)
G0 X39.285 Y37.450
(Begin step 0.)
(part 1.)
G1 X39.285 Y37.450 Z5.000 F1999.998
G1 X39.058 Y36.561 Z5.000 F1999.998
G1 X38.444 Y35.878 Z5.000 F1999.998
G1 X37.584 Y35.559 Z5.000 F1999.998
G1 X36.674 Y35.675 Z5.000 F1999.998
G1 X35.921 Y36.200 Z5.000 F1999.998
G1 X35.499 Y37.015 Z5.000 F1999.998
G1 X35.502 Y37.933 Z5.000 F1999.998
G1 X35.932 Y38.744 Z5.000 F1999.998
G1 X36.689 Y39.263 Z5.000 F1999.998
G1 X37.600 Y39.372 Z5.000 F1999.998
G1 X38.458 Y39.045 Z5.000 F1999.998
G1 X39.066 Y38.357 Z5.000 F1999.998
G1 X39.285 Y37.466 Z5.000 F1999.998
G1 X39.285 Y37.450 Z5.000 F1999.998
(End of step 0.)
(Begin step 1.)
G1 X39.765 Y37.450 Z5.000 F1999.998
(part 1.)
G1 X39.765 Y37.450 Z5.000 F1999.998
G1 X39.576 Y36.534 Z5.000 F1999.998
G1 X39.052 Y35.759 Z5.000 F1999.998
G1 X38.271 Y35.244 Z5.000 F1999.998
G1 X37.353 Y35.066 Z5.000 F1999.998
G1 X36.436 Y35.253 Z5.000 F1999.998
G1 X35.661 Y35.776 Z5.000 F1999.998
G1 X35.144 Y36.556 Z5.000 F1999.998
G1 X34.965 Y37.474 Z5.000 F1999.998
G1 X35.150 Y38.391 Z5.000 F1999.998
G1 X35.672 Y39.168 Z5.000 F1999.998
G1 X36.451 Y39.685 Z5.000 F1999.998
G1 X37.369 Y39.866 Z5.000 F1999.998
G1 X38.286 Y39.682 Z5.000 F1999.998
G1 X39.063 Y39.162 Z5.000 F1999.998
G1 X39.583 Y38.384 Z5.000 F1999.998
G1 X39.765 Y37.466 Z5.000 F1999.998
G1 X39.765 Y37.450 Z5.000 F1999.998
(End of step 1.)
(Begin step 2.)
G1 X40.245 Y37.450 Z5.000 F1999.998
(part 1.)
G1 X40.245 Y37.450 Z5.000 F1999.998
G1 X40.084 Y36.517 Z5.000 F1999.998
G1 X39.629 Y35.686 Z5.000 F1999.998
G1 X38.929 Y35.048 Z5.000 F1999.998
G1 X38.060 Y34.671 Z5.000 F1999.998
G1 X37.115 Y34.597 Z5.000 F1999.998
G1 X36.198 Y34.833 Z5.000 F1999.998
G1 X35.407 Y35.354 Z5.000 F1999.998
G1 X34.828 Y36.104 Z5.000 F1999.998
G1 X34.523 Y37.001 Z5.000 F1999.998
G1 X34.525 Y37.948 Z5.000 F1999.998
G1 X34.835 Y38.843 Z5.000 F1999.998
G1 X35.419 Y39.589 Z5.000 F1999.998
G1 X36.213 Y40.106 Z5.000 F1999.998
G1 X37.131 Y40.337 Z5.000 F1999.998
G1 X38.075 Y40.257 Z5.000 F1999.998
G1 X38.942 Y39.876 Z5.000 F1999.998
G1 X39.639 Y39.234 Z5.000 F1999.998
G1 X40.089 Y38.401 Z5.000 F1999.998
G1 X40.245 Y37.466 Z5.000 F1999.998
G1 X40.245 Y37.450 Z5.000 F1999.998
(End of step 2.)
(Begin step 3.)
G1 X40.725 Y37.450 Z5.000 F1999.998
(part 1.)
G1 X40.725 Y37.450 Z5.000 F1999.998
G1 X40.584 Y36.505 Z5.000 F1999.998
G1 X40.184 Y35.637 Z5.000 F1999.998
G1 X39.555 Y34.918 Z5.000 F1999.998
G1 X38.749 Y34.404 Z5.000 F1999.998
G1 X37.831 Y34.139 Z5.000 F1999.998
G1 X36.875 Y34.142 Z5.000 F1999.998
G1 X35.959 Y34.414 Z5.000 F1999.998
G1 X35.157 Y34.934 Z5.000 F1999.998
G1 X34.533 Y35.658 Z5.000 F1999.998
G1 X34.139 Y36.528 Z5.000 F1999.998
G1 X34.005 Y37.474 Z5.000 F1999.998
G1 X34.143 Y38.420 Z5.000 F1999.998
G1 X34.542 Y39.288 Z5.000 F1999.998
G1 X35.169 Y40.009 Z5.000 F1999.998
G1 X35.974 Y40.525 Z5.000 F1999.998
G1 X36.891 Y40.793 Z5.000 F1999.998
G1 X37.847 Y40.792 Z5.000 F1999.998
G1 X38.763 Y40.521 Z5.000 F1999.998
G1 X39.567 Y40.004 Z5.000 F1999.998
G1 X40.192 Y39.282 Z5.000 F1999.998
G1 X40.589 Y38.412 Z5.000 F1999.998
G1 X40.725 Y37.466 Z5.000 F1999.998
G1 X40.725 Y37.450 Z5.000 F1999.998
(End of step 3.)
(Begin step 4.)
G1 X41.205 Y37.450 Z5.000 F1999.998
(part 1.)
G1 X41.205 Y37.450 Z5.000 F1999.998
G1 X41.080 Y36.496 Z5.000 F1999.998
G1 X40.723 Y35.603 Z5.000 F1999.998
G1 X40.154 Y34.827 Z5.000 F1999.998
G1 X39.411 Y34.217 Z5.000 F1999.998
G1 X38.539 Y33.810 Z5.000 F1999.998
G1 X37.594 Y33.633 Z5.000 F1999.998
G1 X36.634 Y33.696 Z5.000 F1999.998
G1 X35.720 Y33.996 Z5.000 F1999.998
G1 X34.909 Y34.514 Z5.000 F1999.998
G1 X34.253 Y35.217 Z5.000 F1999.998
G1 X33.791 Y36.061 Z5.000 F1999.998
G1 X33.554 Y36.993 Z5.000 F1999.998
G1 X33.556 Y37.955 Z5.000 F1999.998
G1 X33.797 Y38.886 Z5.000 F1999.998
G1 X34.262 Y39.729 Z5.000 F1999.998
G1 X34.922 Y40.429 Z5.000 F1999.998
G1 X35.735 Y40.943 Z5.000 F1999.998
G1 X36.650 Y41.239 Z5.000 F1999.998
G1 X37.610 Y41.298 Z5.000 F1999.998
G1 X38.555 Y41.117 Z5.000 F1999.998
G1 X39.425 Y40.707 Z5.000 F1999.998
G1 X40.165 Y40.094 Z5.000 F1999.998
G1 X40.731 Y39.315 Z5.000 F1999.998
G1 X41.084 Y38.421 Z5.000 F1999.998
G1 X41.205 Y37.466 Z5.000 F1999.998
G1 X41.205 Y37.450 Z5.000 F1999.998
(End of step 4.)
(Begin step 5.)
G1 X41.685 Y37.450 Z5.000 F1999.998
(part 1.)
G1 X41.685 Y37.450 Z5.000 F1999.998
G1 X41.573 Y36.490 Z5.000 F1999.998
G1 X41.251 Y35.579 Z5.000 F1999.998
G1 X40.733 Y34.762 Z5.000 F1999.998
G1 X40.048 Y34.080 Z5.000 F1999.998
G1 X39.227 Y33.568 Z5.000 F1999.998
G1 X38.314 Y33.252 Z5.000 F1999.998
G1 X37.353 Y33.146 Z5.000 F1999.998
G1 X36.392 Y33.257 Z5.000 F1999.998
G1 X35.481 Y33.579 Z5.000 F1999.998
G1 X34.663 Y34.095 Z5.000 F1999.998
G1 X33.981 Y34.780 Z5.000 F1999.998
G1 X33.469 Y35.600 Z5.000 F1999.998
G1 X33.151 Y36.513 Z5.000 F1999.998
G1 X33.045 Y37.474 Z5.000 F1999.998
G1 X33.155 Y38.435 Z5.000 F1999.998
G1 X33.476 Y39.347 Z5.000 F1999.998
G1 X33.991 Y40.165 Z5.000 F1999.998
G1 X34.676 Y40.847 Z5.000 F1999.998
G1 X35.495 Y41.361 Z5.000 F1999.998
G1 X36.408 Y41.679 Z5.000 F1999.998
G1 X37.369 Y41.786 Z5.000 F1999.998
G1 X38.330 Y41.677 Z5.000 F1999.998
G1 X39.242 Y41.357 Z5.000 F1999.998
G1 X40.060 Y40.842 Z5.000 F1999.998
G1 X40.743 Y40.158 Z5.000 F1999.998
G1 X41.258 Y39.340 Z5.000 F1999.998
G1 X41.577 Y38.427 Z5.000 F1999.998
G1 X41.685 Y37.466 Z5.000 F1999.998
G1 X41.685 Y37.450 Z5.000 F1999.998
(End of step 5.)
(Begin step 6.)
G1 X42.165 Y37.450 Z5.000 F1999.998
(part 1.)
G1 X42.165 Y37.450 Z5.000 F1999.998
G1 X42.064 Y36.485 Z5.000 F1999.998
G1 X41.770 Y35.560 Z5.000 F1999.998
G1 X41.296 Y34.712 Z5.000 F1999.998
G1 X40.662 Y33.978 Z5.000 F1999.998
G1 X39.893 Y33.386 Z5.000 F1999.998
G1 X39.020 Y32.961 Z5.000 F1999.998
G1 X38.080 Y32.720 Z5.000 F1999.998
G1 X37.110 Y32.673 Z5.000 F1999.998
G1 X36.151 Y32.822 Z5.000 F1999.998
G1 X35.241 Y33.162 Z5.000 F1999.998
G1 X34.419 Y33.677 Z5.000 F1999.998
G1 X33.716 Y34.347 Z5.000 F1999.998
G1 X33.164 Y35.145 Z5.000 F1999.998
G1 X32.782 Y36.038 Z5.000 F1999.998
G1 X32.589 Y36.989 Z5.000 F1999.998
G1 X32.590 Y37.960 Z5.000 F1999.998
G1 X32.787 Y38.910 Z5.000 F1999.998
G1 X33.171 Y39.802 Z5.000 F1999.998
G1 X33.727 Y40.598 Z5.000 F1999.998
G1 X34.431 Y41.265 Z5.000 F1999.998
G1 X35.256 Y41.778 Z5.000 F1999.998
G1 X36.166 Y42.114 Z5.000 F1999.998
G1 X37.126 Y42.260 Z5.000 F1999.998
G1 X38.095 Y42.210 Z5.000 F1999.998
G1 X39.035 Y41.966 Z5.000 F1999.998
G1 X39.906 Y41.538 Z5.000 F1999.998
G1 X40.673 Y40.944 Z5.000 F1999.998
G1 X41.305 Y40.207 Z5.000 F1999.998
G1 X41.776 Y39.358 Z5.000 F1999.998
G1 X42.067 Y38.432 Z5.000 F1999.998
G1 X42.165 Y37.466 Z5.000 F1999.998
G1 X42.165 Y37.450 Z5.000 F1999.998
(End of step 6.)
(Begin step 7.)
G1 X42.645 Y37.450 Z5.000 F1999.998
(part 1.)
G1 X42.645 Y37.450 Z5.000 F1999.998
G1 X42.552 Y36.481 Z5.000 F1999.998
G1 X42.283 Y35.545 Z5.000 F1999.998
G1 X41.846 Y34.674 Z5.000 F1999.998
G1 X41.257 Y33.899 Z5.000 F1999.998
G1 X40.536 Y33.245 Z5.000 F1999.998
G1 X39.707 Y32.734 Z5.000 F1999.998
G1 X38.798 Y32.384 Z5.000 F1999.998
G1 X37.840 Y32.208 Z5.000 F1999.998
G1 X36.866 Y32.210 Z5.000 F1999.998
G1 X35.909 Y32.391 Z5.000 F1999.998
G1 X35.002 Y32.745 Z5.000 F1999.998
G1 X34.175 Y33.259 Z5.000 F1999.998
G1 X33.456 Y33.916 Z5.000 F1999.998
G1 X32.871 Y34.695 Z5.000 F1999.998
G1 X32.438 Y35.567 Z5.000 F1999.998
G1 X32.173 Y36.504 Z5.000 F1999.998
G1 X32.085 Y37.474 Z5.000 F1999.998
G1 X32.176 Y38.444 Z5.000 F1999.998
G1 X32.444 Y39.380 Z5.000 F1999.998
G1 X32.879 Y40.251 Z5.000 F1999.998
G1 X33.467 Y41.028 Z5.000 F1999.998
G1 X34.188 Y41.683 Z5.000 F1999.998
G1 X35.016 Y42.195 Z5.000 F1999.998
G1 X35.924 Y42.546 Z5.000 F1999.998
G1 X36.882 Y42.724 Z5.000 F1999.998
G1 X37.856 Y42.723 Z5.000 F1999.998
G1 X38.813 Y42.544 Z5.000 F1999.998
G1 X39.721 Y42.191 Z5.000 F1999.998
G1 X40.549 Y41.678 Z5.000 F1999.998
G1 X41.268 Y41.022 Z5.000 F1999.998
G1 X41.855 Y40.245 Z5.000 F1999.998
G1 X42.289 Y39.373 Z5.000 F1999.998
G1 X42.555 Y38.436 Z5.000 F1999.998
G1 X42.645 Y37.466 Z5.000 F1999.998
G1 X42.645 Y37.450 Z5.000 F1999.998
(End of step 7.)
(Begin step 8.)
G1 X43.125 Y37.450 Z5.000 F1999.998
(part 1.)
G1 X43.125 Y37.450 Z5.000 F1999.998
G1 X43.039 Y36.477 Z5.000 F1999.998
G1 X42.791 Y35.533 Z5.000 F1999.998
G1 X42.386 Y34.644 Z5.000 F1999.998
G1 X41.837 Y33.837 Z5.000 F1999.998
G1 X41.160 Y33.133 Z5.000 F1999.998
G1 X40.373 Y32.554 Z5.000 F1999.998
G1 X39.501 Y32.117 Z5.000 F1999.998
G1 X38.566 Y31.833 Z5.000 F1999.998
G1 X37.597 Y31.711 Z5.000 F1999.998
G1 X36.622 Y31.754 Z5.000 F1999.998
G1 X35.667 Y31.962 Z5.000 F1999.998
G1 X34.762 Y32.328 Z5.000 F1999.998
G1 X33.931 Y32.841 Z5.000 F1999.998
G1 X33.200 Y33.488 Z5.000 F1999.998
G1 X32.587 Y34.249 Z5.000 F1999.998
G1 X32.112 Y35.102 Z5.000 F1999.998
G1 X31.789 Y36.023 Z5.000 F1999.998
G1 X31.625 Y36.986 Z5.000 F1999.998
G1 X31.626 Y37.962 Z5.000 F1999.998
G1 X31.793 Y38.925 Z5.000 F1999.998
G1 X32.119 Y39.845 Z5.000 F1999.998
G1 X32.596 Y40.697 Z5.000 F1999.998
G1 X33.211 Y41.456 Z5.000 F1999.998
G1 X33.944 Y42.101 Z5.000 F1999.998
G1 X34.776 Y42.612 Z5.000 F1999.998
G1 X35.683 Y42.975 Z5.000 F1999.998
G1 X36.638 Y43.180 Z5.000 F1999.998
G1 X37.613 Y43.221 Z5.000 F1999.998
G1 X38.582 Y43.096 Z5.000 F1999.998
G1 X39.515 Y42.810 Z5.000 F1999.998
G1 X40.387 Y42.370 Z5.000 F1999.998
G1 X41.172 Y41.789 Z5.000 F1999.998
G1 X41.847 Y41.083 Z5.000 F1999.998
G1 X42.394 Y40.274 Z5.000 F1999.998
G1 X42.796 Y39.384 Z5.000 F1999.998
G1 X43.042 Y38.439 Z5.000 F1999.998
G1 X43.125 Y37.466 Z5.000 F1999.998
G1 X43.125 Y37.450 Z5.000 F1999.998
(End of step 8.)
(Begin step 9.)
G1 X43.605 Y37.450 Z5.000 F1999.998
(part 1.)
G1 X43.605 Y37.450 Z5.000 F1999.998
G1 X43.526 Y36.475 Z5.000 F1999.998
G1 X43.295 Y35.524 Z5.000 F1999.998
G1 X42.918 Y34.620 Z5.000 F1999.998
G1 X42.405 Y33.787 Z5.000 F1999.998
G1 X41.767 Y33.044 Z5.000 F1999.998
G1 X41.022 Y32.410 Z5.000 F1999.998
G1 X40.186 Y31.900 Z5.000 F1999.998
G1 X39.281 Y31.528 Z5.000 F1999.998
G1 X38.329 Y31.301 Z5.000 F1999.998
G1 X37.353 Y31.226 Z5.000 F1999.998
G1 X36.377 Y31.305 Z5.000 F1999.998
G1 X35.426 Y31.535 Z5.000 F1999.998
G1 X34.522 Y31.911 Z5.000 F1999.998
G1 X33.689 Y32.424 Z5.000 F1999.998
G1 X32.945 Y33.061 Z5.000 F1999.998
G1 X32.311 Y33.806 Z5.000 F1999.998
G1 X31.801 Y34.642 Z5.000 F1999.998
G1 X31.428 Y35.546 Z5.000 F1999.998
G1 X31.200 Y36.498 Z5.000 F1999.998
G1 X31.125 Y37.474 Z5.000 F1999.998
G1 X31.203 Y38.450 Z5.000 F1999.998
G1 X31.433 Y39.401 Z5.000 F1999.998
G1 X31.808 Y40.305 Z5.000 F1999.998
G1 X32.320 Y41.139 Z5.000 F1999.998
G1 X32.957 Y41.883 Z5.000 F1999.998
G1 X33.702 Y42.518 Z5.000 F1999.998
G1 X34.537 Y43.028 Z5.000 F1999.998
G1 X35.441 Y43.402 Z5.000 F1999.998
G1 X36.393 Y43.630 Z5.000 F1999.998
G1 X37.369 Y43.706 Z5.000 F1999.998
G1 X38.345 Y43.629 Z5.000 F1999.998
G1 X39.296 Y43.400 Z5.000 F1999.998
G1 X40.200 Y43.025 Z5.000 F1999.998
G1 X41.035 Y42.513 Z5.000 F1999.998
G1 X41.779 Y41.877 Z5.000 F1999.998
G1 X42.414 Y41.133 Z5.000 F1999.998
G1 X42.925 Y40.298 Z5.000 F1999.998
G1 X43.300 Y39.394 Z5.000 F1999.998
G1 X43.528 Y38.442 Z5.000 F1999.998
G1 X43.605 Y37.466 Z5.000 F1999.998
G1 X43.605 Y37.450 Z5.000 F1999.998
(End of step 9.)
(Begin step 10.)
G0 Z18.000
G0 X44.085 Y37.450
G0 Z16.743
(part 1.)
G1 X44.085 Y37.450 Z14.210 F1999.998
G1 X44.011 Y36.472 Z14.210 F1999.998
G1 X43.796 Y35.516 Z14.210 F1999.998
G1 X43.443 Y34.600 Z5.000 F1999.998
G1 X42.961 Y33.746 Z5.000 F1999.998
G1 X42.360 Y32.971 Z14.207 F1999.998
G1 X41.653 Y32.292 Z14.210 F1999.998
G1 X40.854 Y31.723 Z14.210 F1999.998
G1 X39.981 Y31.276 Z14.210 F1999.998
G1 X39.052 Y30.962 Z14.210 F1999.998
G1 X38.088 Y30.785 Z5.000 F1999.998
G1 X37.108 Y30.751 Z5.000 F1999.998
G1 X36.133 Y30.860 Z14.171 F1999.998
G1 X35.185 Y31.110 Z14.210 F1999.998
G1 X34.283 Y31.495 Z14.210 F1999.998
G1 X33.446 Y32.007 Z14.210 F1999.998
G1 X32.693 Y32.635 Z14.210 F1999.998
G1 X32.040 Y33.367 Z13.910 F1999.998
G1 X31.500 Y34.185 Z5.000 F1999.998
G1 X31.085 Y35.074 Z14.087 F1999.998
G1 X30.804 Y36.013 Z14.210 F1999.998
G1 X30.662 Y36.984 Z14.210 F1999.998
G1 X30.663 Y37.965 Z14.210 F1999.998
G1 X30.807 Y38.935 Z14.210 F1999.998
G1 X31.091 Y39.873 Z14.075 F1999.998
G1 X31.508 Y40.761 Z5.000 F1999.998
G1 X32.050 Y41.578 Z13.931 F1999.998
G1 X32.705 Y42.308 Z14.210 F1999.998
G1 X33.459 Y42.935 Z14.210 F1999.998
G1 X34.297 Y43.445 Z14.210 F1999.998
G1 X35.200 Y43.828 Z14.210 F1999.998
G1 X36.149 Y44.075 Z14.166 F1999.998
G1 X37.124 Y44.182 Z5.000 F1999.998
G1 X38.104 Y44.146 Z13.561 F1999.998
G1 X39.068 Y43.967 Z14.210 F1999.998
G1 X39.996 Y43.650 Z14.210 F1999.998
G1 X40.868 Y43.201 Z14.210 F1999.998
G1 X41.665 Y42.630 Z14.210 F1999.998
G1 X42.371 Y41.949 Z14.206 F1999.998
G1 X42.970 Y41.173 Z5.000 F1999.998
G1 X43.450 Y40.318 Z5.000 F1999.998
G1 X43.800 Y39.402 Z14.210 F1999.998
G1 X44.013 Y38.444 Z14.210 F1999.998
G1 X44.085 Y37.466 Z14.210 F1999.998
G1 X44.085 Y37.450 Z14.210 F1999.998
(End of step 10.)
(Begin step 11.)
G1 X44.565 Y37.450 Z14.723 F1999.998
(part 1.)
G1 X44.565 Y37.450 Z14.723 F1999.998
G1 X44.496 Y36.470 Z14.723 F1999.998
G1 X44.294 Y35.509 Z14.723 F1999.998
G1 X43.963 Y34.584 Z14.446 F1999.998
G1 X43.509 Y33.713 Z5.000 F1999.998
G1 X42.941 Y32.911 Z14.651 F1999.998
G1 X42.269 Y32.195 Z14.723 F1999.998
G1 X41.506 Y31.576 Z14.723 F1999.998
G1 X40.666 Y31.067 Z14.723 F1999.998
G1 X39.764 Y30.678 Z14.723 F1999.998
G1 X38.818 Y30.414 Z14.718 F1999.998
G1 X37.844 Y30.282 Z14.048 F1999.998
G1 X36.862 Y30.284 Z14.091 F1999.998
G1 X35.889 Y30.419 Z14.720 F1999.998
G1 X34.943 Y30.686 Z14.723 F1999.998
G1 X34.043 Y31.078 Z14.723 F1999.998
G1 X33.204 Y31.590 Z14.723 F1999.998
G1 X32.443 Y32.211 Z14.723 F1999.998
G1 X31.774 Y32.930 Z14.642 F1999.998
G1 X31.208 Y33.733 Z5.000 F1999.998
G1 X30.757 Y34.606 Z14.466 F1999.998
G1 X30.430 Y35.532 Z14.723 F1999.998
G1 X30.231 Y36.494 Z14.723 F1999.998
G1 X30.165 Y37.474 Z14.723 F1999.998
G1 X30.233 Y38.454 Z14.723 F1999.998
G1 X30.434 Y39.416 Z14.723 F1999.998
G1 X30.764 Y40.341 Z14.453 F1999.998
G1 X31.217 Y41.213 Z5.000 F1999.998
G1 X31.784 Y42.015 Z14.648 F1999.998
G1 X32.455 Y42.732 Z14.723 F1999.998
G1 X33.217 Y43.352 Z14.723 F1999.998
G1 X34.057 Y43.861 Z14.723 F1999.998
G1 X34.958 Y44.252 Z14.723 F1999.998
G1 X35.904 Y44.517 Z14.719 F1999.998
G1 X36.878 Y44.650 Z14.063 F1999.998
G1 X37.860 Y44.649 Z14.077 F1999.998
G1 X38.833 Y44.515 Z14.720 F1999.998
G1 X39.779 Y44.249 Z14.723 F1999.998
G1 X40.680 Y43.858 Z14.723 F1999.998
G1 X41.519 Y43.347 Z14.723 F1999.998
G1 X42.281 Y42.727 Z14.723 F1999.998
G1 X42.951 Y42.009 Z14.645 F1999.998
G1 X43.517 Y41.206 Z5.000 F1999.998
G1 X43.969 Y40.334 Z14.459 F1999.998
G1 X44.298 Y39.408 Z14.723 F1999.998
G1 X44.498 Y38.446 Z14.723 F1999.998
G1 X44.565 Y37.466 Z14.723 F1999.998
G1 X44.565 Y37.450 Z14.723 F1999.998
(End of step 11.)
(Begin step 12.)
G1 X45.045 Y37.450 Z14.944 F1999.998
(part 1.)
G1 X45.045 Y37.450 Z14.944 F1999.998
G1 X44.980 Y36.469 Z14.944 F1999.998
G1 X44.790 Y35.503 Z14.944 F1999.998
G1 X44.478 Y34.570 Z14.806 F1999.998
G1 X44.049 Y33.685 Z5.000 F1999.998
G1 X43.511 Y32.861 Z14.735 F1999.998
G1 X42.872 Y32.113 Z14.944 F1999.998
G1 X42.143 Y31.453 Z14.944 F1999.998
G1 X41.335 Y30.892 Z14.944 F1999.998
G1 X40.462 Y30.438 Z14.944 F1999.998
G1 X39.538 Y30.100 Z14.944 F1999.998
G1 X38.578 Y29.883 Z14.872 F1999.998
G1 X37.599 Y29.790 Z13.856 F1999.998
G1 X36.616 Y29.823 Z14.620 F1999.998
G1 X35.645 Y29.981 Z14.944 F1999.998
G1 X34.702 Y30.263 Z14.944 F1999.998
G1 X33.803 Y30.662 Z14.944 F1999.998
G1 X32.962 Y31.173 Z14.944 F1999.998
G1 X32.194 Y31.788 Z14.944 F1999.998
G1 X31.511 Y32.495 Z14.915 F1999.998
G1 X30.923 Y33.284 Z14.226 F1999.998
G1 X30.442 Y34.142 Z14.466 F1999.998
G1 X30.073 Y35.055 Z14.940 F1999.998
G1 X29.825 Y36.006 Z14.944 F1999.998
G1 X29.700 Y36.982 Z14.944 F1999.998
G1 X29.701 Y37.966 Z14.944 F1999.998
G1 X29.828 Y38.942 Z14.944 F1999.998
G1 X30.078 Y39.893 Z14.939 F1999.998
G1 X30.448 Y40.805 Z14.448 F1999.998
G1 X30.932 Y41.661 Z14.251 F1999.998
G1 X31.521 Y42.449 Z14.919 F1999.998
G1 X32.206 Y43.156 Z14.944 F1999.998
G1 X32.976 Y43.768 Z14.944 F1999.998
G1 X33.817 Y44.278 Z14.944 F1999.998
G1 X34.717 Y44.675 Z14.944 F1999.998
G1 X35.660 Y44.955 Z14.944 F1999.998
G1 X36.632 Y45.111 Z14.607 F1999.998
G1 X37.615 Y45.142 Z13.906 F1999.998
G1 X38.594 Y45.047 Z14.877 F1999.998
G1 X39.553 Y44.828 Z14.944 F1999.998
G1 X40.476 Y44.488 Z14.944 F1999.998
G1 X41.348 Y44.032 Z14.944 F1999.998
G1 X42.155 Y43.469 Z14.944 F1999.998
G1 X42.883 Y42.808 Z14.944 F1999.998
G1 X43.521 Y42.058 Z14.725 F1999.998
G1 X44.057 Y41.234 Z5.000 F1999.998
G1 X44.484 Y40.347 Z14.814 F1999.998
G1 X44.794 Y39.414 Z14.944 F1999.998
G1 X44.982 Y38.448 Z14.944 F1999.998
G1 X45.045 Y37.466 Z14.944 F1999.998
G1 X45.045 Y37.450 Z14.944 F1999.998
(End of step 12.)
(Begin step 13.)
G1 X45.525 Y37.450 Z15.000 F1999.998
(part 1.)
G1 X45.525 Y37.450 Z15.000 F1999.998
G1 X45.464 Y36.467 Z15.000 F1999.998
G1 X45.284 Y35.499 Z15.000 F1999.998
G1 X44.989 Y34.559 Z14.934 F1999.998
G1 X44.583 Y33.661 Z14.105 F1999.998
G1 X44.072 Y32.819 Z14.581 F1999.998
G1 X43.463 Y32.045 Z14.997 F1999.998
G1 X42.766 Y31.349 Z15.000 F1999.998
G1 X41.989 Y30.743 Z15.000 F1999.998
G1 X41.145 Y30.235 Z15.000 F1999.998
G1 X40.246 Y29.832 Z15.000 F1999.998
G1 X39.305 Y29.540 Z15.000 F1999.998
G1 X38.336 Y29.364 Z14.798 F1999.998
G1 X37.353 Y29.306 Z5.000 F1999.998
G1 X36.370 Y29.367 Z14.811 F1999.998
G1 X35.401 Y29.546 Z15.000 F1999.998
G1 X34.461 Y29.840 Z15.000 F1999.998
G1 X33.563 Y30.246 Z15.000 F1999.998
G1 X32.721 Y30.757 Z15.000 F1999.998
G1 X31.946 Y31.365 Z15.000 F1999.998
G1 X31.251 Y32.063 Z14.995 F1999.998
G1 X30.644 Y32.839 Z14.559 F1999.998
G1 X30.135 Y33.682 Z14.152 F1999.998
G1 X29.732 Y34.581 Z14.941 F1999.998
G1 X29.440 Y35.522 Z15.000 F1999.998
G1 X29.263 Y36.491 Z15.000 F1999.998
G1 X29.205 Y37.474 Z15.000 F1999.998
G1 X29.265 Y38.457 Z15.000 F1999.998
G1 X29.444 Y39.426 Z15.000 F1999.998
G1 X29.738 Y40.366 Z14.936 F1999.998
G1 X30.143 Y41.264 Z14.121 F1999.998
G1 X30.653 Y42.107 Z14.574 F1999.998
G1 X31.261 Y42.882 Z14.996 F1999.998
G1 X31.958 Y43.578 Z15.000 F1999.998
G1 X32.734 Y44.185 Z15.000 F1999.998
G1 X33.577 Y44.694 Z15.000 F1999.998
G1 X34.476 Y45.098 Z15.000 F1999.998
G1 X35.417 Y45.390 Z15.000 F1999.998
G1 X36.386 Y45.567 Z14.802 F1999.998
G1 X37.369 Y45.626 Z5.000 F1999.998
G1 X38.352 Y45.566 Z14.806 F1999.998
G1 X39.321 Y45.388 Z15.000 F1999.998
G1 X40.261 Y45.095 Z15.000 F1999.998
G1 X41.159 Y44.690 Z15.000 F1999.998
G1 X42.002 Y44.180 Z15.000 F1999.998
G1 X42.778 Y43.573 Z15.000 F1999.998
G1 X43.474 Y42.876 Z14.996 F1999.998
G1 X44.081 Y42.100 Z14.567 F1999.998
G1 X44.591 Y41.257 Z14.137 F1999.998
G1 X44.995 Y40.359 Z14.938 F1999.998
G1 X45.288 Y39.418 Z15.000 F1999.998
G1 X45.465 Y38.450 Z15.000 F1999.998
G1 X45.525 Y37.466 Z15.000 F1999.998
G1 X45.525 Y37.450 Z15.000 F1999.998
(End of step 13.)
(Begin step 14.)
G1 X46.005 Y37.450 Z15.000 F1999.998
(part 1.)
G1 X46.005 Y37.450 Z15.000 F1999.998
G1 X45.947 Y36.466 Z15.000 F1999.998
G1 X45.777 Y35.494 Z15.000 F1999.998
G1 X45.497 Y34.549 Z14.986 F1999.998
G1 X45.112 Y33.641 Z14.470 F1999.998
G1 X44.625 Y32.783 Z14.298 F1999.998
G1 X44.044 Y31.986 Z14.963 F1999.998
G1 X43.376 Y31.261 Z15.000 F1999.998
G1 X42.630 Y30.616 Z15.000 F1999.998
G1 X41.815 Y30.060 Z15.000 F1999.998
G1 X40.942 Y29.602 Z15.000 F1999.998
G1 X40.023 Y29.245 Z15.000 F1999.998
G1 X39.068 Y28.996 Z14.999 F1999.998
G1 X38.092 Y28.857 Z14.630 F1999.998
G1 X37.106 Y28.830 Z13.980 F1999.998
G1 X36.124 Y28.916 Z14.917 F1999.998
G1 X35.157 Y29.113 Z15.000 F1999.998
G1 X34.220 Y29.419 Z15.000 F1999.998
G1 X33.323 Y29.830 Z15.000 F1999.998
G1 X32.479 Y30.340 Z15.000 F1999.998
G1 X31.699 Y30.943 Z15.000 F1999.998
G1 X30.993 Y31.631 Z15.000 F1999.998
G1 X30.369 Y32.396 Z14.751 F1999.998
G1 X29.837 Y33.226 Z5.000 F1999.998
G1 X29.403 Y34.111 Z14.851 F1999.998
G1 X29.072 Y35.040 Z15.000 F1999.998
G1 X28.850 Y36.001 Z15.000 F1999.998
G1 X28.739 Y36.981 Z15.000 F1999.998
G1 X28.739 Y37.967 Z15.000 F1999.998
G1 X28.853 Y38.947 Z15.000 F1999.998
G1 X29.077 Y39.907 Z15.000 F1999.998
G1 X29.409 Y40.836 Z14.843 F1999.998
G1 X29.845 Y41.721 Z5.000 F1999.998
G1 X30.379 Y42.550 Z14.761 F1999.998
G1 X31.004 Y43.313 Z15.000 F1999.998
G1 X31.711 Y44.000 Z15.000 F1999.998
G1 X32.493 Y44.601 Z15.000 F1999.998
G1 X33.338 Y45.110 Z15.000 F1999.998
G1 X34.235 Y45.519 Z15.000 F1999.998
G1 X35.173 Y45.824 Z15.000 F1999.998
G1 X36.140 Y46.019 Z14.912 F1999.998
G1 X37.122 Y46.103 Z13.937 F1999.998
G1 X38.108 Y46.074 Z14.643 F1999.998
G1 X39.084 Y45.933 Z15.000 F1999.998
G1 X40.038 Y45.682 Z15.000 F1999.998
G1 X40.957 Y45.324 Z15.000 F1999.998
G1 X41.829 Y44.864 Z15.000 F1999.998
G1 X42.643 Y44.307 Z15.000 F1999.998
G1 X43.388 Y43.661 Z15.000 F1999.998
G1 X44.055 Y42.934 Z14.959 F1999.998
G1 X44.634 Y42.136 Z14.274 F1999.998
G1 X45.119 Y41.277 Z14.488 F1999.998
G1 X45.503 Y40.369 Z14.988 F1999.998
G1 X45.781 Y39.423 Z15.000 F1999.998
G1 X45.949 Y38.451 Z15.000 F1999.998
G1 X46.005 Y37.466 Z15.000 F1999.998
G1 X46.005 Y37.450 Z15.000 F1999.998
(End of step 14.)
(Begin step 15.)
G1 X46.485 Y37.450 Z15.000 F1999.998
(part 1.)
G1 X46.485 Y37.450 Z15.000 F1999.998
G1 X46.430 Y36.465 Z15.000 F1999.998
G1 X46.268 Y35.491 Z15.000 F1999.998
G1 X46.003 Y34.540 Z15.000 F1999.998
G1 X45.636 Y33.623 Z14.693 F1999.998
G1 X45.172 Y32.752 Z13.704 F1999.998
G1 X44.617 Y31.936 Z14.889 F1999.998
G1 X43.976 Y31.184 Z15.000 F1999.998
G1 X43.259 Y30.506 Z15.000 F1999.998
G1 X42.472 Y29.910 Z15.000 F1999.998
G1 X41.625 Y29.402 Z15.000 F1999.998
G1 X40.729 Y28.989 Z15.000 F1999.998
G1 X39.793 Y28.675 Z15.000 F1999.998
G1 X38.828 Y28.464 Z14.974 F1999.998
G1 X37.847 Y28.359 Z14.375 F1999.998
G1 X36.859 Y28.360 Z14.406 F1999.998
G1 X35.878 Y28.468 Z14.978 F1999.998
G1 X34.914 Y28.682 Z15.000 F1999.998
G1 X33.979 Y28.998 Z15.000 F1999.998
G1 X33.084 Y29.414 Z15.000 F1999.998
G1 X32.238 Y29.924 Z15.000 F1999.998
G1 X31.453 Y30.522 Z15.000 F1999.998
G1 X30.737 Y31.202 Z15.000 F1999.998
G1 X30.099 Y31.955 Z14.879 F1999.998
G1 X29.546 Y32.772 Z13.529 F1999.998
G1 X29.084 Y33.645 Z14.710 F1999.998
G1 X28.719 Y34.563 Z15.000 F1999.998
G1 X28.456 Y35.514 Z15.000 F1999.998
G1 X28.297 Y36.488 Z15.000 F1999.998
G1 X28.245 Y37.474 Z15.000 F1999.998
G1 X28.299 Y38.460 Z15.000 F1999.998
G1 X28.460 Y39.434 Z15.000 F1999.998
G1 X28.725 Y40.385 Z15.000 F1999.998
G1 X29.091 Y41.302 Z14.699 F1999.998
G1 X29.554 Y42.174 Z13.660 F1999.998
G1 X30.108 Y42.990 Z14.886 F1999.998
G1 X30.748 Y43.742 Z15.000 F1999.998
G1 X31.465 Y44.421 Z15.000 F1999.998
G1 X32.251 Y45.018 Z15.000 F1999.998
G1 X33.098 Y45.526 Z15.000 F1999.998
G1 X33.994 Y45.940 Z15.000 F1999.998
G1 X34.930 Y46.255 Z15.000 F1999.998
G1 X35.894 Y46.467 Z14.976 F1999.998
G1 X36.875 Y46.573 Z14.386 F1999.998
G1 X37.863 Y46.573 Z14.396 F1999.998
G1 X38.844 Y46.466 Z14.977 F1999.998
G1 X39.808 Y46.253 Z15.000 F1999.998
G1 X40.743 Y45.937 Z15.000 F1999.998
G1 X41.639 Y45.523 Z15.000 F1999.998
G1 X42.485 Y45.013 Z15.000 F1999.998
G1 X43.271 Y44.416 Z15.000 F1999.998
G1 X43.987 Y43.737 Z15.000 F1999.998
G1 X44.626 Y42.984 Z14.882 F1999.998
G1 X45.180 Y42.167 Z13.606 F1999.998
G1 X45.642 Y41.295 Z14.704 F1999.998
G1 X46.008 Y40.378 Z15.000 F1999.998
G1 X46.272 Y39.426 Z15.000 F1999.998
G1 X46.431 Y38.452 Z15.000 F1999.998
G1 X46.485 Y37.466 Z15.000 F1999.998
G1 X46.485 Y37.450 Z15.000 F1999.998
(End of step 15.)
(Begin step 16.)
G1 X46.965 Y37.450 Z15.000 F1999.998
(part 1.)
G1 X46.965 Y37.450 Z15.000 F1999.998
G1 X46.912 Y36.464 Z15.000 F1999.998
G1 X46.759 Y35.487 Z15.000 F1999.998
G1 X46.506 Y34.532 Z15.000 F1999.998
G1 X46.156 Y33.608 Z14.841 F1999.998
G1 X45.712 Y32.725 Z5.000 F1999.998
G1 X45.181 Y31.892 Z14.768 F1999.998
G1 X44.566 Y31.118 Z15.000 F1999.998
G1 X43.876 Y30.412 Z15.000 F1999.998
G1 X43.116 Y29.780 Z15.000 F1999.998
G1 X42.295 Y29.229 Z15.000 F1999.998
G1 X41.423 Y28.766 Z15.000 F1999.998
G1 X40.507 Y28.395 Z15.000 F1999.998
G1 X39.558 Y28.120 Z15.000 F1999.998
G1 X38.585 Y27.944 Z14.910 F1999.998
G1 X37.600 Y27.869 Z13.915 F1999.998
G1 X36.612 Y27.896 Z14.651 F1999.998
G1 X35.632 Y28.024 Z15.000 F1999.998
G1 X34.671 Y28.252 Z15.000 F1999.998
G1 X33.738 Y28.578 Z15.000 F1999.998
G1 X32.844 Y28.998 Z15.000 F1999.998
G1 X31.997 Y29.507 Z15.000 F1999.998
G1 X31.207 Y30.101 Z15.000 F1999.998
G1 X30.483 Y30.773 Z15.000 F1999.998
G1 X29.831 Y31.516 Z14.958 F1999.998
G1 X29.260 Y32.322 Z14.263 F1999.998
G1 X28.774 Y33.182 Z14.497 F1999.998
G1 X28.379 Y34.088 Z14.990 F1999.998
G1 X28.079 Y35.030 Z15.000 F1999.998
G1 X27.878 Y35.997 Z15.000 F1999.998
G1 X27.777 Y36.980 Z15.000 F1999.998
G1 X27.778 Y37.968 Z15.000 F1999.998
G1 X27.880 Y38.951 Z15.000 F1999.998
G1 X28.083 Y39.918 Z15.000 F1999.998
G1 X28.385 Y40.859 Z14.988 F1999.998
G1 X28.781 Y41.764 Z14.480 F1999.998
G1 X29.268 Y42.624 Z14.287 F1999.998
G1 X29.841 Y43.429 Z14.962 F1999.998
G1 X30.494 Y44.171 Z15.000 F1999.998
G1 X31.220 Y44.842 Z15.000 F1999.998
G1 X32.010 Y45.434 Z15.000 F1999.998
G1 X32.858 Y45.942 Z15.000 F1999.998
G1 X33.753 Y46.361 Z15.000 F1999.998
G1 X34.686 Y46.685 Z15.000 F1999.998
G1 X35.648 Y46.912 Z15.000 F1999.998
G1 X36.628 Y47.038 Z14.638 F1999.998
G1 X37.616 Y47.063 Z13.960 F1999.998
G1 X38.601 Y46.986 Z14.915 F1999.998
G1 X39.573 Y46.809 Z15.000 F1999.998
G1 X40.522 Y46.532 Z15.000 F1999.998
G1 X41.437 Y46.160 Z15.000 F1999.998
G1 X42.309 Y45.695 Z15.000 F1999.998
G1 X43.129 Y45.143 Z15.000 F1999.998
G1 X43.887 Y44.510 Z15.000 F1999.998
G1 X44.577 Y43.802 Z15.000 F1999.998
G1 X45.190 Y43.027 Z14.758 F1999.998
G1 X45.720 Y42.194 Z5.000 F1999.998
G1 X46.162 Y41.310 Z14.848 F1999.998
G1 X46.510 Y40.385 Z15.000 F1999.998
G1 X46.762 Y39.429 Z15.000 F1999.998
G1 X46.914 Y38.453 Z15.000 F1999.998
G1 X46.965 Y37.466 Z15.000 F1999.998
G1 X46.965 Y37.450 Z15.000 F1999.998
(End of step 16.)
(Begin step 17.)
G1 X47.445 Y37.450 Z14.974 F1999.998
(part 1.)
G1 X47.445 Y37.450 Z14.974 F1999.998
G1 X47.395 Y36.463 Z14.974 F1999.998
G1 X47.248 Y35.485 Z14.974 F1999.998
G1 X47.006 Y34.526 Z14.974 F1999.998
G1 X46.672 Y33.595 Z14.895 F1999.998
G1 X46.248 Y32.702 Z14.008 F1999.998
G1 X45.738 Y31.854 Z14.519 F1999.998
G1 X45.148 Y31.061 Z14.968 F1999.998
G1 X44.483 Y30.329 Z14.974 F1999.998
G1 X43.749 Y29.666 Z14.974 F1999.998
G1 X42.954 Y29.078 Z14.974 F1999.998
G1 X42.105 Y28.570 Z14.974 F1999.998
G1 X41.210 Y28.149 Z14.974 F1999.998
G1 X40.279 Y27.817 Z14.974 F1999.998
G1 X39.319 Y27.578 Z14.974 F1999.998
G1 X38.341 Y27.434 Z14.749 F1999.998
G1 X37.353 Y27.386 Z5.000 F1999.998
G1 X36.365 Y27.436 Z14.763 F1999.998
G1 X35.387 Y27.582 Z14.974 F1999.998
G1 X34.428 Y27.824 Z14.974 F1999.998
G1 X33.497 Y28.158 Z14.974 F1999.998
G1 X32.604 Y28.582 Z14.974 F1999.998
G1 X31.756 Y29.091 Z14.974 F1999.998
G1 X30.962 Y29.681 Z14.974 F1999.998
G1 X30.230 Y30.346 Z14.974 F1999.998
G1 X29.567 Y31.079 Z14.966 F1999.998
G1 X28.978 Y31.874 Z14.495 F1999.998
G1 X28.471 Y32.723 Z14.059 F1999.998
G1 X28.049 Y33.617 Z14.903 F1999.998
G1 X27.716 Y34.549 Z14.974 F1999.998
G1 X27.477 Y35.508 Z14.974 F1999.998
G1 X27.333 Y36.486 Z14.974 F1999.998
G1 X27.285 Y37.474 Z14.974 F1999.998
G1 X27.334 Y38.462 Z14.974 F1999.998
G1 X27.480 Y39.440 Z14.974 F1999.998
G1 X27.721 Y40.399 Z14.974 F1999.998
G1 X28.055 Y41.330 Z14.898 F1999.998
G1 X28.478 Y42.224 Z14.026 F1999.998
G1 X28.987 Y43.072 Z14.511 F1999.998
G1 X29.577 Y43.866 Z14.967 F1999.998
G1 X30.242 Y44.598 Z14.974 F1999.998
G1 X30.975 Y45.262 Z14.974 F1999.998
G1 X31.769 Y45.851 Z14.974 F1999.998
G1 X32.618 Y46.358 Z14.974 F1999.998
G1 X33.512 Y46.781 Z14.974 F1999.998
G1 X34.443 Y47.114 Z14.974 F1999.998
G1 X35.403 Y47.353 Z14.974 F1999.998
G1 X36.381 Y47.498 Z14.753 F1999.998
G1 X37.369 Y47.546 Z5.000 F1999.998
G1 X38.357 Y47.497 Z14.758 F1999.998
G1 X39.335 Y47.352 Z14.974 F1999.998
G1 X40.294 Y47.111 Z14.974 F1999.998
G1 X41.225 Y46.778 Z14.974 F1999.998
G1 X42.119 Y46.355 Z14.974 F1999.998
G1 X42.967 Y45.846 Z14.974 F1999.998
G1 X43.761 Y45.257 Z14.974 F1999.998
G1 X44.494 Y44.592 Z14.974 F1999.998
G1 X45.158 Y43.860 Z14.966 F1999.998
G1 X45.747 Y43.065 Z14.503 F1999.998
G1 X46.255 Y42.217 Z14.043 F1999.998
G1 X46.678 Y41.323 Z14.901 F1999.998
G1 X47.011 Y40.392 Z14.974 F1999.998
G1 X47.251 Y39.432 Z14.974 F1999.998
G1 X47.396 Y38.454 Z14.974 F1999.998
G1 X47.445 Y37.466 Z14.974 F1999.998
G1 X47.445 Y37.450 Z14.974 F1999.998
(End of step 17.)
(Begin step 18.)
G1 X47.925 Y37.450 Z14.837 F1999.998
(part 1.)
G1 X47.925 Y37.450 Z14.837 F1999.998
G1 X47.877 Y36.462 Z14.837 F1999.998
G1 X47.737 Y35.482 Z14.837 F1999.998
G1 X47.505 Y34.520 Z14.837 F1999.998
G1 X47.185 Y33.583 Z14.806 F1999.998
G1 X46.778 Y32.681 Z14.154 F1999.998
G1 X46.289 Y31.821 Z13.924 F1999.998
G1 X45.721 Y31.010 Z14.772 F1999.998
G1 X45.080 Y30.256 Z14.837 F1999.998
G1 X44.371 Y29.565 Z14.837 F1999.998
G1 X43.601 Y28.944 Z14.838 F1999.998
G1 X42.776 Y28.398 Z14.837 F1999.998
G1 X41.903 Y27.931 Z14.837 F1999.998
G1 X40.990 Y27.548 Z14.837 F1999.998
G1 X40.046 Y27.252 Z14.837 F1999.998
G1 X39.078 Y27.046 Z14.831 F1999.998
G1 X38.095 Y26.932 Z14.356 F1999.998
G1 X37.105 Y26.909 Z13.402 F1999.998
G1 X36.118 Y26.980 Z14.712 F1999.998
G1 X35.142 Y27.143 Z14.837 F1999.998
G1 X34.185 Y27.396 Z14.837 F1999.998
G1 X33.257 Y27.738 Z14.837 F1999.998
G1 X32.364 Y28.166 Z14.838 F1999.998
G1 X31.515 Y28.675 Z14.837 F1999.998
G1 X30.718 Y29.261 Z14.837 F1999.998
G1 X29.979 Y29.919 Z14.837 F1999.998
G1 X29.305 Y30.644 Z14.838 F1999.998
G1 X28.701 Y31.428 Z14.506 F1999.998
G1 X28.174 Y32.266 Z5.000 F1999.998
G1 X27.728 Y33.149 Z14.628 F1999.998
G1 X27.366 Y34.070 Z14.837 F1999.998
G1 X27.092 Y35.021 Z14.837 F1999.998
G1 X26.908 Y35.994 Z14.837 F1999.998
G1 X26.816 Y36.979 Z14.837 F1999.998
G1 X26.817 Y37.969 Z14.837 F1999.998
G1 X26.910 Y38.954 Z14.837 F1999.998
G1 X27.096 Y39.927 Z14.837 F1999.998
G1 X27.371 Y40.877 Z14.837 F1999.998
G1 X27.734 Y41.798 Z14.619 F1999.998
G1 X28.182 Y42.680 Z5.000 F1999.998
G1 X28.710 Y43.517 Z14.518 F1999.998
G1 X29.315 Y44.301 Z14.837 F1999.998
G1 X29.990 Y45.024 Z14.837 F1999.998
G1 X30.730 Y45.682 Z14.837 F1999.998
G1 X31.528 Y46.267 Z14.837 F1999.998
G1 X32.378 Y46.775 Z14.837 F1999.998
G1 X33.271 Y47.201 Z14.837 F1999.998
G1 X34.201 Y47.541 Z14.837 F1999.998
G1 X35.158 Y47.793 Z14.837 F1999.998
G1 X36.134 Y47.954 Z14.705 F1999.998
G1 X37.121 Y48.023 Z13.301 F1999.998
G1 X38.111 Y48.000 Z14.373 F1999.998
G1 X39.094 Y47.884 Z14.832 F1999.998
G1 X40.061 Y47.676 Z14.837 F1999.998
G1 X41.005 Y47.379 Z14.837 F1999.998
G1 X41.917 Y46.995 Z14.837 F1999.998
G1 X42.789 Y46.526 Z14.837 F1999.998
G1 X43.614 Y45.979 Z14.837 F1999.998
G1 X44.383 Y45.356 Z14.837 F1999.998
G1 X45.091 Y44.665 Z14.837 F1999.998
G1 X45.731 Y43.910 Z14.767 F1999.998
G1 X46.298 Y43.098 Z13.891 F1999.998
G1 X46.786 Y42.237 Z14.176 F1999.998
G1 X47.191 Y41.334 Z14.809 F1999.998
G1 X47.510 Y40.397 Z14.837 F1999.998
G1 X47.740 Y39.435 Z14.837 F1999.998
G1 X47.879 Y38.455 Z14.837 F1999.998
G1 X47.925 Y37.466 Z14.837 F1999.998
G1 X47.925 Y37.450 Z14.837 F1999.998
(End of step 18.)
(Begin step 19.)
G1 X48.405 Y37.450 Z14.557 F1999.998
(part 1.)
G1 X48.405 Y37.450 Z14.557 F1999.998
G1 X48.359 Y36.461 Z14.557 F1999.998
G1 X48.225 Y35.480 Z14.557 F1999.998
G1 X48.003 Y34.514 Z14.557 F1999.998
G1 X47.696 Y33.573 Z14.551 F1999.998
G1 X47.305 Y32.663 Z14.008 F1999.998
G1 X46.835 Y31.791 Z11.727 F1999.998
G1 X46.288 Y30.965 Z14.334 F1999.998
G1 X45.669 Y30.192 Z14.557 F1999.998
G1 X44.984 Y29.477 Z14.557 F1999.998
G1 X44.238 Y28.826 Z14.557 F1999.998
G1 X43.436 Y28.245 Z14.557 F1999.998
G1 X42.585 Y27.738 Z14.557 F1999.998
G1 X41.692 Y27.310 Z14.557 F1999.998
G1 X40.764 Y26.963 Z14.557 F1999.998
G1 X39.809 Y26.700 Z14.557 F1999.998
G1 X38.835 Y26.525 Z14.481 F1999.998
G1 X37.848 Y26.437 Z13.271 F1999.998
G1 X36.858 Y26.438 Z13.380 F1999.998
G1 X35.871 Y26.528 Z14.489 F1999.998
G1 X34.897 Y26.706 Z14.557 F1999.998
G1 X33.943 Y26.970 Z14.557 F1999.998
G1 X33.016 Y27.319 Z14.557 F1999.998
G1 X32.124 Y27.750 Z14.557 F1999.998
G1 X31.274 Y28.258 Z14.557 F1999.998
G1 X30.474 Y28.841 Z14.557 F1999.998
G1 X29.728 Y29.494 Z14.557 F1999.998
G1 X29.045 Y30.210 Z14.557 F1999.998
G1 X28.428 Y30.985 Z14.318 F1999.998
G1 X27.883 Y31.812 Z11.416 F1999.998
G1 X27.414 Y32.684 Z14.037 F1999.998
G1 X27.026 Y33.595 Z14.553 F1999.998
G1 X26.720 Y34.538 Z14.557 F1999.998
G1 X26.501 Y35.503 Z14.557 F1999.998
G1 X26.369 Y36.485 Z14.557 F1999.998
G1 X26.325 Y37.474 Z14.557 F1999.998
G1 X26.370 Y38.464 Z14.557 F1999.998
G1 X26.504 Y39.445 Z14.557 F1999.998
G1 X26.725 Y40.410 Z14.557 F1999.998
G1 X27.031 Y41.352 Z14.552 F1999.998
G1 X27.421 Y42.263 Z14.018 F1999.998
G1 X27.891 Y43.134 Z11.647 F1999.998
G1 X28.437 Y43.961 Z14.329 F1999.998
G1 X29.055 Y44.735 Z14.557 F1999.998
G1 X29.740 Y45.450 Z14.557 F1999.998
G1 X30.486 Y46.101 Z14.557 F1999.998
G1 X31.288 Y46.683 Z14.557 F1999.998
G1 X32.138 Y47.191 Z14.557 F1999.998
G1 X33.031 Y47.620 Z14.557 F1999.998
G1 X33.958 Y47.967 Z14.557 F1999.998
G1 X34.913 Y48.230 Z14.557 F1999.998
G1 X35.887 Y48.407 Z14.483 F1999.998
G1 X36.874 Y48.495 Z13.310 F1999.998
G1 X37.864 Y48.495 Z13.347 F1999.998
G1 X38.850 Y48.406 Z14.486 F1999.998
G1 X39.825 Y48.229 Z14.557 F1999.998
G1 X40.779 Y47.965 Z14.557 F1999.998
G1 X41.707 Y47.617 Z14.557 F1999.998
G1 X42.599 Y47.187 Z14.557 F1999.998
G1 X43.449 Y46.679 Z14.557 F1999.998
G1 X44.250 Y46.096 Z14.557 F1999.998
G1 X44.996 Y45.444 Z14.557 F1999.998
G1 X45.680 Y44.729 Z14.557 F1999.998
G1 X46.297 Y43.954 Z14.323 F1999.998
G1 X46.843 Y43.127 Z11.550 F1999.998
G1 X47.312 Y42.255 Z14.028 F1999.998
G1 X47.701 Y41.345 Z14.552 F1999.998
G1 X48.007 Y40.403 Z14.557 F1999.998
G1 X48.228 Y39.437 Z14.557 F1999.998
G1 X48.360 Y38.456 Z14.557 F1999.998
G1 X48.405 Y37.466 Z14.557 F1999.998
G1 X48.405 Y37.450 Z14.557 F1999.998
(End of step 19.)
(Begin step 20.)
G1 X48.885 Y37.450 Z14.030 F1999.998
(part 1.)
G1 X48.885 Y37.450 Z14.030 F1999.998
G1 X48.841 Y36.460 Z14.030 F1999.998
G1 X48.712 Y35.478 Z14.030 F1999.998
G1 X48.499 Y34.510 Z14.030 F1999.998
G1 X48.204 Y33.564 Z14.030 F1999.998
G1 X47.828 Y32.647 Z13.418 F1999.998
G1 X47.375 Y31.765 Z5.000 F1999.998
G1 X46.848 Y30.926 Z13.027 F1999.998
G1 X46.251 Y30.135 Z14.027 F1999.998
G1 X45.588 Y29.398 Z14.030 F1999.998
G1 X44.864 Y28.722 Z14.030 F1999.998
G1 X44.085 Y28.109 Z14.030 F1999.998
G1 X43.256 Y27.566 Z14.030 F1999.998
G1 X42.383 Y27.097 Z14.030 F1999.998
G1 X41.474 Y26.704 Z14.030 F1999.998
G1 X40.533 Y26.391 Z14.030 F1999.998
G1 X39.570 Y26.159 Z14.030 F1999.998
G1 X38.590 Y26.012 Z13.676 F1999.998
G1 X37.601 Y25.949 Z11.393 F1999.998
G1 X36.610 Y25.971 Z12.779 F1999.998
G1 X35.625 Y26.078 Z13.999 F1999.998
G1 X34.652 Y26.270 Z14.030 F1999.998
G1 X33.700 Y26.545 Z14.030 F1999.998
G1 X32.775 Y26.900 Z14.030 F1999.998
G1 X31.884 Y27.334 Z14.030 F1999.998
G1 X31.033 Y27.842 Z14.030 F1999.998
G1 X30.230 Y28.422 Z14.030 F1999.998
G1 X29.479 Y29.069 Z14.030 F1999.998
G1 X28.786 Y29.778 Z14.030 F1999.998
G1 X28.157 Y30.543 Z13.831 F1999.998
G1 X27.596 Y31.360 Z12.020 F1999.998
G1 X27.108 Y32.222 Z12.468 F1999.998
G1 X26.695 Y33.123 Z13.940 F1999.998
G1 X26.361 Y34.056 Z14.030 F1999.998
G1 X26.109 Y35.015 Z14.030 F1999.998
G1 X25.940 Y35.991 Z14.030 F1999.998
G1 X25.855 Y36.979 Z14.030 F1999.998
G1 X25.856 Y37.970 Z14.030 F1999.998
G1 X25.942 Y38.957 Z14.030 F1999.998
G1 X26.112 Y39.933 Z14.030 F1999.998
G1 X26.366 Y40.891 Z14.030 F1999.998
G1 X26.701 Y41.824 Z13.932 F1999.998
G1 X27.115 Y42.724 Z12.434 F1999.998
G1 X27.605 Y43.586 Z12.066 F1999.998
G1 X28.167 Y44.402 Z13.842 F1999.998
G1 X28.797 Y45.167 Z14.030 F1999.998
G1 X29.490 Y45.875 Z14.030 F1999.998
G1 X30.242 Y46.520 Z14.030 F1999.998
G1 X31.047 Y47.099 Z14.030 F1999.998
G1 X31.898 Y47.606 Z14.030 F1999.998
G1 X32.790 Y48.039 Z14.030 F1999.998
G1 X33.715 Y48.393 Z14.030 F1999.998
G1 X34.668 Y48.666 Z14.030 F1999.998
G1 X35.641 Y48.856 Z13.995 F1999.998
G1 X36.626 Y48.963 Z12.752 F1999.998
G1 X37.617 Y48.984 Z11.472 F1999.998
G1 X38.606 Y48.919 Z13.694 F1999.998
G1 X39.585 Y48.770 Z14.030 F1999.998
G1 X40.549 Y48.538 Z14.030 F1999.998
G1 X41.488 Y48.223 Z14.030 F1999.998
G1 X42.398 Y47.829 Z14.030 F1999.998
G1 X43.270 Y47.358 Z14.030 F1999.998
G1 X44.098 Y46.814 Z14.030 F1999.998
G1 X44.876 Y46.201 Z14.030 F1999.998
G1 X45.599 Y45.523 Z14.030 F1999.998
G1 X46.261 Y44.785 Z14.026 F1999.998
G1 X46.857 Y43.993 Z13.006 F1999.998
G1 X47.383 Y43.153 Z5.000 F1999.998
G1 X47.835 Y42.271 Z13.451 F1999.998
G1 X48.209 Y41.354 Z14.030 F1999.998
G1 X48.503 Y40.407 Z14.030 F1999.998
G1 X48.715 Y39.439 Z14.030 F1999.998
G1 X48.842 Y38.456 Z14.030 F1999.998
G1 X48.885 Y37.466 Z14.030 F1999.998
G1 X48.885 Y37.450 Z14.030 F1999.998
(End of step 20.)
(Begin step 21.)
G1 X49.365 Y37.450 Z12.856 F1999.998
(part 1.)
G1 X49.365 Y37.450 Z12.856 F1999.998
G1 X49.323 Y36.460 Z12.855 F1999.998
G1 X49.199 Y35.476 Z12.855 F1999.998
G1 X48.994 Y34.506 Z12.855 F1999.998
G1 X48.710 Y33.556 Z12.855 F1999.998
G1 X48.348 Y32.632 Z12.617 F1999.998
G1 X47.912 Y31.742 Z11.061 F1999.998
G1 X47.403 Y30.891 Z11.899 F1999.998
G1 X46.826 Y30.084 Z12.802 F1999.998
G1 X46.184 Y29.329 Z12.855 F1999.998
G1 X45.482 Y28.628 Z12.856 F1999.998
G1 X44.725 Y27.988 Z12.855 F1999.998
G1 X43.917 Y27.413 Z12.855 F1999.998
G1 X43.065 Y26.906 Z12.855 F1999.998
G1 X42.173 Y26.472 Z12.856 F1999.998
G1 X41.249 Y26.112 Z12.855 F1999.998
G1 X40.298 Y25.830 Z12.854 F1999.998
G1 X39.328 Y25.628 Z12.854 F1999.998
G1 X38.344 Y25.506 Z12.318 F1999.998
G1 X37.353 Y25.466 Z5.000 F1999.998
G1 X36.362 Y25.508 Z12.345 F1999.998
G1 X35.378 Y25.632 Z12.854 F1999.998
G1 X34.408 Y25.836 Z12.855 F1999.998
G1 X33.458 Y26.120 Z12.855 F1999.998
G1 X32.535 Y26.481 Z12.856 F1999.998
G1 X31.644 Y26.918 Z12.855 F1999.998
G1 X30.793 Y27.426 Z12.855 F1999.998
G1 X29.986 Y28.003 Z12.855 F1999.998
G1 X29.230 Y28.644 Z12.855 F1999.998
G1 X28.530 Y29.346 Z12.855 F1999.998
G1 X27.889 Y30.103 Z12.794 F1999.998
G1 X27.314 Y30.911 Z11.858 F1999.998
G1 X26.807 Y31.763 Z11.139 F1999.998
G1 X26.372 Y32.654 Z12.633 F1999.998
G1 X26.012 Y33.578 Z12.855 F1999.998
G1 X25.730 Y34.529 Z12.855 F1999.998
G1 X25.527 Y35.499 Z12.855 F1999.998
G1 X25.405 Y36.483 Z12.855 F1999.998
G1 X25.365 Y37.474 Z12.856 F1999.998
G1 X25.407 Y38.465 Z12.855 F1999.998
G1 X25.530 Y39.449 Z12.855 F1999.998
G1 X25.734 Y40.419 Z12.855 F1999.998
G1 X26.017 Y41.369 Z12.855 F1999.998
G1 X26.378 Y42.293 Z12.622 F1999.998
G1 X26.814 Y43.184 Z11.087 F1999.998
G1 X27.322 Y44.035 Z11.885 F1999.998
G1 X27.899 Y44.842 Z12.800 F1999.998
G1 X28.540 Y45.598 Z12.855 F1999.998
G1 X29.242 Y46.299 Z12.855 F1999.998
G1 X29.999 Y46.939 Z12.855 F1999.998
G1 X30.806 Y47.515 Z12.855 F1999.998
G1 X31.658 Y48.022 Z12.855 F1999.998
G1 X32.549 Y48.458 Z12.856 F1999.998
G1 X33.473 Y48.818 Z12.855 F1999.998
G1 X34.424 Y49.100 Z12.855 F1999.998
G1 X35.394 Y49.303 Z12.854 F1999.998
G1 X36.378 Y49.426 Z12.327 F1999.998
G1 X37.369 Y49.466 Z5.000 F1999.998
G1 X38.360 Y49.425 Z12.336 F1999.998
G1 X39.344 Y49.302 Z12.854 F1999.998
G1 X40.314 Y49.098 Z12.855 F1999.998
G1 X41.264 Y48.815 Z12.855 F1999.998
G1 X42.188 Y48.454 Z12.855 F1999.998
G1 X43.079 Y48.019 Z12.855 F1999.998
G1 X43.930 Y47.511 Z12.855 F1999.998
G1 X44.737 Y46.935 Z12.855 F1999.998
G1 X45.494 Y46.294 Z12.855 F1999.998
G1 X46.195 Y45.592 Z12.855 F1999.998
G1 X46.836 Y44.835 Z12.797 F1999.998
G1 X47.412 Y44.028 Z11.872 F1999.998
G1 X47.919 Y43.177 Z11.114 F1999.998
G1 X48.355 Y42.286 Z12.628 F1999.998
G1 X48.715 Y41.362 Z12.855 F1999.998
G1 X48.998 Y40.411 Z12.855 F1999.998
G1 X49.201 Y39.441 Z12.856 F1999.998
G1 X49.324 Y38.457 Z12.855 F1999.998
G1 X49.365 Y37.466 Z12.856 F1999.998
G1 X49.365 Y37.450 Z12.856 F1999.998
(End of step 21.)
(Begin step 22.)
G1 X49.845 Y37.450 Z12.106 F1999.998
(part 1.)
G1 X49.845 Y37.450 Z12.106 F1999.998
G1 X49.804 Y36.459 Z12.106 F1999.998
G1 X49.685 Y35.474 Z12.106 F1999.998
G1 X49.488 Y34.502 Z12.106 F1999.998
G1 X49.214 Y33.548 Z12.106 F1999.998
G1 X48.865 Y32.619 Z12.024 F1999.998
G1 X48.444 Y31.721 Z11.043 F1999.998
G1 X47.953 Y30.859 Z10.756 F1999.998
G1 X47.394 Y30.039 Z11.962 F1999.998
G1 X46.773 Y29.266 Z12.106 F1999.998
G1 X46.091 Y28.544 Z12.106 F1999.998
G1 X45.355 Y27.879 Z12.106 F1999.998
G1 X44.568 Y27.275 Z12.106 F1999.998
G1 X43.736 Y26.735 Z12.106 F1999.998
G1 X42.864 Y26.263 Z12.106 F1999.998
G1 X41.956 Y25.862 Z12.106 F1999.998
G1 X41.020 Y25.533 Z12.106 F1999.998
G1 X40.061 Y25.281 Z12.106 F1999.998
G1 X39.084 Y25.105 Z12.077 F1999.998
G1 X38.097 Y25.008 Z11.318 F1999.998
G1 X37.105 Y24.989 Z10.247 F1999.998
G1 X36.115 Y25.049 Z11.858 F1999.998
G1 X35.132 Y25.188 Z12.106 F1999.998
G1 X34.164 Y25.404 Z12.106 F1999.998
G1 X33.216 Y25.696 Z12.106 F1999.998
G1 X32.294 Y26.063 Z12.106 F1999.998
G1 X31.404 Y26.502 Z12.106 F1999.998
G1 X30.552 Y27.010 Z12.106 F1999.998
G1 X29.743 Y27.584 Z12.106 F1999.998
G1 X28.982 Y28.221 Z12.106 F1999.998
G1 X28.274 Y28.916 Z12.106 F1999.998
G1 X27.624 Y29.665 Z12.103 F1999.998
G1 X27.035 Y30.463 Z11.535 F1999.998
G1 X26.511 Y31.306 Z5.000 F1999.998
G1 X26.056 Y32.188 Z11.723 F1999.998
G1 X25.673 Y33.103 Z12.105 F1999.998
G1 X25.363 Y34.045 Z12.106 F1999.998
G1 X25.129 Y35.009 Z12.106 F1999.998
G1 X24.973 Y35.989 Z12.106 F1999.998
G1 X24.894 Y36.978 Z12.106 F1999.998
G1 X24.895 Y37.970 Z12.106 F1999.998
G1 X24.975 Y38.959 Z12.106 F1999.998
G1 X25.132 Y39.939 Z12.106 F1999.998
G1 X25.367 Y40.903 Z12.106 F1999.998
G1 X25.678 Y41.845 Z12.106 F1999.998
G1 X26.063 Y42.759 Z11.709 F1999.998
G1 X26.519 Y43.640 Z5.000 F1999.998
G1 X27.044 Y44.482 Z11.553 F1999.998
G1 X27.634 Y45.280 Z12.104 F1999.998
G1 X28.285 Y46.028 Z12.106 F1999.998
G1 X28.994 Y46.722 Z12.105 F1999.998
G1 X29.756 Y47.358 Z12.105 F1999.998
G1 X30.565 Y47.931 Z12.105 F1999.998
G1 X31.418 Y48.438 Z12.106 F1999.998
G1 X32.309 Y48.876 Z12.106 F1999.998
G1 X33.231 Y49.242 Z12.106 F1999.998
G1 X34.179 Y49.533 Z12.106 F1999.998
G1 X35.148 Y49.748 Z12.106 F1999.998
G1 X36.130 Y49.885 Z11.847 F1999.998
G1 X37.121 Y49.944 Z10.180 F1999.998
G1 X38.113 Y49.924 Z11.341 F1999.998
G1 X39.100 Y49.825 Z12.081 F1999.998
G1 X40.076 Y49.648 Z12.105 F1999.998
G1 X41.035 Y49.394 Z12.105 F1999.998
G1 X41.971 Y49.065 Z12.106 F1999.998
G1 X42.878 Y48.663 Z12.106 F1999.998
G1 X43.750 Y48.189 Z12.106 F1999.998
G1 X44.581 Y47.648 Z12.106 F1999.998
G1 X45.367 Y47.043 Z12.106 F1999.998
G1 X46.103 Y46.377 Z12.106 F1999.998
G1 X46.783 Y45.655 Z12.106 F1999.998
G1 X47.404 Y44.881 Z11.953 F1999.998
G1 X47.961 Y44.060 Z10.717 F1999.998
G1 X48.451 Y43.197 Z11.072 F1999.998
G1 X48.871 Y42.298 Z12.030 F1999.998
G1 X49.219 Y41.369 Z12.106 F1999.998
G1 X49.491 Y40.415 Z12.106 F1999.998
G1 X49.687 Y39.443 Z12.106 F1999.998
G1 X49.805 Y38.458 Z12.106 F1999.998
G1 X49.845 Y37.466 Z12.106 F1999.998
G1 X49.845 Y37.450 Z12.106 F1999.998
(End of step 22.)
(Begin step 23.)
G1 X50.325 Y37.450 Z11.437 F1999.998
(part 1.)
G1 X50.325 Y37.450 Z11.437 F1999.998
G1 X50.286 Y36.458 Z11.436 F1999.998
G1 X50.171 Y35.472 Z11.436 F1999.998
G1 X49.980 Y34.498 Z11.437 F1999.998
G1 X49.716 Y33.541 Z11.437 F1999.998
G1 X49.380 Y32.608 Z11.427 F1999.998
G1 X48.973 Y31.702 Z10.813 F1999.998
G1 X48.497 Y30.831 Z9.289 F1999.998
G1 X47.957 Y29.998 Z11.159 F1999.998
G1 X47.354 Y29.210 Z11.437 F1999.998
G1 X46.693 Y28.469 Z11.437 F1999.998
G1 X45.977 Y27.782 Z11.437 F1999.998
G1 X45.211 Y27.151 Z11.437 F1999.998
G1 X44.398 Y26.581 Z11.437 F1999.998
G1 X43.544 Y26.074 Z11.437 F1999.998
G1 X42.655 Y25.635 Z11.437 F1999.998
G1 X41.733 Y25.265 Z11.436 F1999.998
G1 X40.787 Y24.966 Z11.437 F1999.998
G1 X39.820 Y24.741 Z11.437 F1999.998
G1 X38.839 Y24.590 Z11.335 F1999.998
G1 X37.849 Y24.515 Z10.300 F1999.998
G1 X36.857 Y24.516 Z10.348 F1999.998
G1 X35.867 Y24.593 Z11.345 F1999.998
G1 X34.886 Y24.746 Z11.437 F1999.998
G1 X33.920 Y24.973 Z11.437 F1999.998
G1 X32.974 Y25.273 Z11.437 F1999.998
G1 X32.053 Y25.645 Z11.436 F1999.998
G1 X31.164 Y26.086 Z11.437 F1999.998
G1 X30.311 Y26.594 Z11.437 F1999.998
G1 X29.500 Y27.166 Z11.437 F1999.998
G1 X28.735 Y27.798 Z11.437 F1999.998
G1 X28.020 Y28.487 Z11.437 F1999.998
G1 X27.360 Y29.228 Z11.437 F1999.998
G1 X26.759 Y30.018 Z11.141 F1999.998
G1 X26.220 Y30.852 Z9.043 F1999.998
G1 X25.747 Y31.724 Z10.842 F1999.998
G1 X25.341 Y32.630 Z11.430 F1999.998
G1 X25.006 Y33.564 Z11.436 F1999.998
G1 X24.744 Y34.522 Z11.437 F1999.998
G1 X24.556 Y35.496 Z11.437 F1999.998
G1 X24.442 Y36.482 Z11.437 F1999.998
G1 X24.405 Y37.474 Z11.437 F1999.998
G1 X24.444 Y38.466 Z11.437 F1999.998
G1 X24.558 Y39.452 Z11.437 F1999.998
G1 X24.748 Y40.426 Z11.437 F1999.998
G1 X25.011 Y41.383 Z11.436 F1999.998
G1 X25.347 Y42.317 Z11.428 F1999.998
G1 X25.754 Y43.223 Z10.823 F1999.998
G1 X26.228 Y44.095 Z9.226 F1999.998
G1 X26.768 Y44.928 Z11.153 F1999.998
G1 X27.370 Y45.717 Z11.435 F1999.998
G1 X28.031 Y46.457 Z11.437 F1999.998
G1 X28.747 Y47.145 Z11.437 F1999.998
G1 X29.513 Y47.777 Z11.437 F1999.998
G1 X30.325 Y48.347 Z11.436 F1999.998
G1 X31.178 Y48.854 Z11.436 F1999.998
G1 X32.068 Y49.294 Z11.436 F1999.998
G1 X32.989 Y49.665 Z11.436 F1999.998
G1 X33.935 Y49.964 Z11.436 F1999.998
G1 X34.902 Y50.190 Z11.437 F1999.998
G1 X35.883 Y50.341 Z11.338 F1999.998
G1 X36.873 Y50.417 Z10.316 F1999.998
G1 X37.865 Y50.417 Z10.332 F1999.998
G1 X38.855 Y50.340 Z11.342 F1999.998
G1 X39.836 Y50.189 Z11.436 F1999.998
G1 X40.802 Y49.962 Z11.436 F1999.998
G1 X41.749 Y49.662 Z11.436 F1999.998
G1 X42.669 Y49.291 Z11.436 F1999.998
G1 X43.559 Y48.850 Z11.436 F1999.998
G1 X44.412 Y48.343 Z11.437 F1999.998
G1 X45.223 Y47.772 Z11.437 F1999.998
G1 X45.989 Y47.140 Z11.437 F1999.998
G1 X46.704 Y46.452 Z11.437 F1999.998
G1 X47.365 Y45.711 Z11.437 F1999.998
G1 X47.966 Y44.921 Z11.147 F1999.998
G1 X48.506 Y44.088 Z9.149 F1999.998
G1 X48.980 Y43.216 Z10.832 F1999.998
G1 X49.386 Y42.310 Z11.429 F1999.998
G1 X49.721 Y41.376 Z11.437 F1999.998
G1 X49.984 Y40.419 Z11.437 F1999.998
G1 X50.173 Y39.444 Z11.437 F1999.998
G1 X50.287 Y38.458 Z11.436 F1999.998
G1 X50.325 Y37.466 Z11.437 F1999.998
G1 X50.325 Y37.450 Z11.437 F1999.998
(End of step 23.)
(Begin step 24.)
G1 X50.805 Y37.450 Z10.832 F1999.998
(part 1.)
G1 X50.805 Y37.450 Z10.832 F1999.998
G1 X50.767 Y36.458 Z10.832 F1999.998
G1 X50.656 Y35.471 Z10.833 F1999.998
G1 X50.472 Y34.495 Z10.832 F1999.998
G1 X50.217 Y33.535 Z10.832 F1999.998
G1 X49.892 Y32.597 Z10.832 F1999.998
G1 X49.498 Y31.685 Z10.494 F1999.998
G1 X49.038 Y30.805 Z5.000 F1999.998
G1 X48.514 Y29.962 Z10.372 F1999.998
G1 X47.930 Y29.159 Z10.832 F1999.998
G1 X47.288 Y28.401 Z10.832 F1999.998
G1 X46.591 Y27.693 Z10.833 F1999.998
G1 X45.844 Y27.039 Z10.832 F1999.998
G1 X45.051 Y26.441 Z10.832 F1999.998
G1 X44.216 Y25.904 Z10.832 F1999.998
G1 X43.344 Y25.429 Z10.833 F1999.998
G1 X42.439 Y25.021 Z10.832 F1999.998
G1 X41.506 Y24.680 Z10.832 F1999.998
G1 X40.551 Y24.409 Z10.832 F1999.998
G1 X39.578 Y24.210 Z10.832 F1999.998
G1 X38.593 Y24.082 Z10.615 F1999.998
G1 X37.601 Y24.028 Z9.095 F1999.998
G1 X36.608 Y24.048 Z10.186 F1999.998
G1 X35.620 Y24.140 Z10.817 F1999.998
G1 X34.640 Y24.305 Z10.832 F1999.998
G1 X33.676 Y24.542 Z10.832 F1999.998
G1 X32.732 Y24.850 Z10.833 F1999.998
G1 X31.813 Y25.227 Z10.832 F1999.998
G1 X30.924 Y25.670 Z10.832 F1999.998
G1 X30.071 Y26.178 Z10.832 F1999.998
G1 X29.257 Y26.747 Z10.832 F1999.998
G1 X28.488 Y27.375 Z10.832 F1999.998
G1 X27.767 Y28.058 Z10.832 F1999.998
G1 X27.099 Y28.792 Z10.832 F1999.998
G1 X26.486 Y29.574 Z10.708 F1999.998
G1 X25.933 Y30.399 Z9.598 F1999.998
G1 X25.442 Y31.262 Z9.948 F1999.998
G1 X25.017 Y32.160 Z10.778 F1999.998
G1 X24.659 Y33.086 Z10.832 F1999.998
G1 X24.370 Y34.036 Z10.832 F1999.998
G1 X24.152 Y35.005 Z10.832 F1999.998
G1 X24.007 Y35.987 Z10.832 F1999.998
G1 X23.934 Y36.978 Z10.832 F1999.998
G1 X23.934 Y37.971 Z10.832 F1999.998
G1 X24.008 Y38.961 Z10.832 F1999.998
G1 X24.155 Y39.943 Z10.832 F1999.998
G1 X24.374 Y40.912 Z10.832 F1999.998
G1 X24.664 Y41.862 Z10.832 F1999.998
G1 X25.023 Y42.788 Z10.773 F1999.998
G1 X25.450 Y43.684 Z9.922 F1999.998
G1 X25.941 Y44.547 Z9.634 F1999.998
G1 X26.495 Y45.371 Z10.715 F1999.998
G1 X27.109 Y46.152 Z10.832 F1999.998
G1 X27.778 Y46.886 Z10.832 F1999.998
G1 X28.500 Y47.568 Z10.832 F1999.998
G1 X29.270 Y48.195 Z10.832 F1999.998
G1 X30.084 Y48.763 Z10.832 F1999.998
G1 X30.938 Y49.270 Z10.832 F1999.998
G1 X31.827 Y49.712 Z10.832 F1999.998
G1 X32.747 Y50.088 Z10.832 F1999.998
G1 X33.691 Y50.394 Z10.832 F1999.998
G1 X34.656 Y50.630 Z10.832 F1999.998
G1 X35.635 Y50.795 Z10.815 F1999.998
G1 X36.624 Y50.886 Z10.166 F1999.998
G1 X37.617 Y50.904 Z9.158 F1999.998
G1 X38.609 Y50.849 Z10.625 F1999.998
G1 X39.593 Y50.720 Z10.831 F1999.998
G1 X40.566 Y50.519 Z10.832 F1999.998
G1 X41.521 Y50.247 Z10.832 F1999.998
G1 X42.454 Y49.906 Z10.832 F1999.998
G1 X43.358 Y49.496 Z10.832 F1999.998
G1 X44.230 Y49.021 Z10.832 F1999.998
G1 X45.064 Y48.482 Z10.832 F1999.998
G1 X45.857 Y47.884 Z10.832 F1999.998
G1 X46.603 Y47.228 Z10.832 F1999.998
G1 X47.298 Y46.519 Z10.832 F1999.998
G1 X47.940 Y45.761 Z10.831 F1999.998
G1 X48.523 Y44.958 Z10.356 F1999.998
G1 X49.046 Y44.113 Z5.000 F1999.998
G1 X49.505 Y43.233 Z10.507 F1999.998
G1 X49.898 Y42.320 Z10.832 F1999.998
G1 X50.222 Y41.382 Z10.832 F1999.998
G1 X50.476 Y40.422 Z10.832 F1999.998
G1 X50.658 Y39.446 Z10.832 F1999.998
G1 X50.768 Y38.459 Z10.832 F1999.998
G1 X50.805 Y37.466 Z10.833 F1999.998
G1 X50.805 Y37.450 Z10.832 F1999.998
(End of step 24.)
(Begin step 25.)
G1 X51.285 Y37.450 Z10.282 F1999.998
(part 1.)
G1 X51.285 Y37.450 Z10.282 F1999.998
G1 X51.248 Y36.457 Z10.282 F1999.998
G1 X51.141 Y35.470 Z10.281 F1999.998
G1 X50.963 Y34.492 Z10.281 F1999.998
G1 X50.717 Y33.530 Z10.282 F1999.998
G1 X50.402 Y32.588 Z10.281 F1999.998
G1 X50.021 Y31.670 Z10.127 F1999.998
G1 X49.575 Y30.782 Z8.895 F1999.998
G1 X49.067 Y29.928 Z9.574 F1999.998
G1 X48.500 Y29.113 Z10.256 F1999.998
G1 X47.876 Y28.340 Z10.281 F1999.998
G1 X47.198 Y27.613 Z10.281 F1999.998
G1 X46.470 Y26.937 Z10.282 F1999.998
G1 X45.696 Y26.315 Z10.281 F1999.998
G1 X44.879 Y25.749 Z10.282 F1999.998
G1 X44.024 Y25.243 Z10.281 F1999.998
G1 X43.136 Y24.799 Z10.282 F1999.998
G1 X42.217 Y24.419 Z10.281 F1999.998
G1 X41.274 Y24.107 Z10.281 F1999.998
G1 X40.312 Y23.862 Z10.281 F1999.998
G1 X39.334 Y23.686 Z10.282 F1999.998
G1 X38.346 Y23.581 Z9.903 F1999.998
G1 X37.353 Y23.546 Z5.000 F1999.998
G1 X36.360 Y23.583 Z9.923 F1999.998
G1 X35.372 Y23.690 Z10.281 F1999.998
G1 X34.395 Y23.867 Z10.282 F1999.998
G1 X33.432 Y24.113 Z10.281 F1999.998
G1 X32.490 Y24.428 Z10.281 F1999.998
G1 X31.572 Y24.809 Z10.282 F1999.998
G1 X30.684 Y25.254 Z10.281 F1999.998
G1 X29.830 Y25.762 Z10.282 F1999.998
G1 X29.015 Y26.329 Z10.281 F1999.998
G1 X28.242 Y26.953 Z10.282 F1999.998
G1 X27.515 Y27.630 Z10.281 F1999.998
G1 X26.838 Y28.358 Z10.281 F1999.998
G1 X26.216 Y29.132 Z10.251 F1999.998
G1 X25.650 Y29.948 Z9.542 F1999.998
G1 X25.143 Y30.803 Z8.959 F1999.998
G1 X24.699 Y31.692 Z10.139 F1999.998
G1 X24.319 Y32.610 Z10.281 F1999.998
G1 X24.006 Y33.553 Z10.281 F1999.998
G1 X23.761 Y34.516 Z10.281 F1999.998
G1 X23.585 Y35.494 Z10.282 F1999.998
G1 X23.480 Y36.481 Z10.281 F1999.998
G1 X23.445 Y37.474 Z10.282 F1999.998
G1 X23.481 Y38.467 Z10.281 F1999.998
G1 X23.588 Y39.455 Z10.282 F1999.998
G1 X23.765 Y40.432 Z10.281 F1999.998
G1 X24.011 Y41.395 Z10.281 F1999.998
G1 X24.325 Y42.337 Z10.282 F1999.998
G1 X24.706 Y43.255 Z10.131 F1999.998
G1 X25.151 Y44.143 Z8.916 F1999.998
G1 X25.658 Y44.997 Z9.563 F1999.998
G1 X26.225 Y45.813 Z10.254 F1999.998
G1 X26.849 Y46.587 Z10.281 F1999.998
G1 X27.526 Y47.313 Z10.281 F1999.998
G1 X28.254 Y47.990 Z10.281 F1999.998
G1 X29.027 Y48.613 Z10.281 F1999.998
G1 X29.844 Y49.179 Z10.282 F1999.998
G1 X30.698 Y49.686 Z10.281 F1999.998
G1 X31.587 Y50.130 Z10.282 F1999.998
G1 X32.505 Y50.510 Z10.281 F1999.998
G1 X33.448 Y50.824 Z10.281 F1999.998
G1 X34.410 Y51.069 Z10.281 F1999.998
G1 X35.388 Y51.245 Z10.281 F1999.998
G1 X36.376 Y51.351 Z9.910 F1999.998
G1 X37.369 Y51.386 Z5.000 F1999.998
G1 X38.362 Y51.351 Z9.916 F1999.998
G1 X39.350 Y51.244 Z10.281 F1999.998
G1 X40.327 Y51.067 Z10.281 F1999.998
G1 X41.290 Y50.821 Z10.281 F1999.998
G1 X42.232 Y50.508 Z10.281 F1999.998
G1 X43.150 Y50.127 Z10.282 F1999.998
G1 X44.038 Y49.682 Z10.281 F1999.998
G1 X44.893 Y49.175 Z10.282 F1999.998
G1 X45.709 Y48.608 Z10.281 F1999.998
G1 X46.482 Y47.985 Z10.281 F1999.998
G1 X47.209 Y47.308 Z10.281 F1999.998
G1 X47.886 Y46.581 Z10.281 F1999.998
G1 X48.509 Y45.807 Z10.253 F1999.998
G1 X49.076 Y44.991 Z9.553 F1999.998
G1 X49.583 Y44.136 Z8.938 F1999.998
G1 X50.027 Y43.248 Z10.135 F1999.998
G1 X50.408 Y42.330 Z10.281 F1999.998
G1 X50.721 Y41.387 Z10.281 F1999.998
G1 X50.967 Y40.425 Z10.281 F1999.998
G1 X51.143 Y39.447 Z10.281 F1999.998
G1 X51.249 Y38.459 Z10.282 F1999.998
G1 X51.285 Y37.466 Z10.282 F1999.998
G1 X51.285 Y37.450 Z10.282 F1999.998
(End of step 25.)
(Begin step 26.)
G1 X51.765 Y37.450 Z9.778 F1999.998
(part 1.)
G1 X51.765 Y37.450 Z9.778 F1999.998
G1 X51.729 Y36.457 Z9.779 F1999.998
G1 X51.626 Y35.469 Z9.778 F1999.998
G1 X51.454 Y34.490 Z9.778 F1999.998
G1 X51.215 Y33.525 Z9.778 F1999.998
G1 X50.910 Y32.579 Z9.778 F1999.998
G1 X50.541 Y31.656 Z9.730 F1999.998
G1 X50.109 Y30.761 Z8.951 F1999.998
G1 X49.616 Y29.898 Z8.712 F1999.998
G1 X49.065 Y29.071 Z9.684 F1999.998
G1 X48.458 Y28.284 Z9.779 F1999.998
G1 X47.798 Y27.541 Z9.778 F1999.998
G1 X47.088 Y26.845 Z9.779 F1999.998
G1 X46.332 Y26.199 Z9.778 F1999.998
G1 X45.534 Y25.608 Z9.778 F1999.998
G1 X44.696 Y25.072 Z9.778 F1999.998
G1 X43.824 Y24.596 Z9.778 F1999.998
G1 X42.921 Y24.181 Z9.778 F1999.998
G1 X41.991 Y23.830 Z9.778 F1999.998
G1 X41.040 Y23.543 Z9.779 F1999.998
G1 X40.070 Y23.323 Z9.778 F1999.998
G1 X39.088 Y23.170 Z9.765 F1999.998
G1 X38.098 Y23.085 Z9.177 F1999.998
G1 X37.104 Y23.069 Z8.283 F1999.998
G1 X36.112 Y23.121 Z9.606 F1999.998
G1 X35.125 Y23.241 Z9.778 F1999.998
G1 X34.149 Y23.430 Z9.778 F1999.998
G1 X33.189 Y23.685 Z9.778 F1999.998
G1 X32.248 Y24.006 Z9.778 F1999.998
G1 X31.332 Y24.391 Z9.778 F1999.998
G1 X30.444 Y24.838 Z9.778 F1999.998
G1 X29.590 Y25.346 Z9.779 F1999.998
G1 X28.772 Y25.911 Z9.778 F1999.998
G1 X27.996 Y26.531 Z9.778 F1999.998
G1 X27.264 Y27.203 Z9.778 F1999.998
G1 X26.580 Y27.925 Z9.778 F1999.998
G1 X25.947 Y28.691 Z9.778 F1999.998
G1 X25.369 Y29.500 Z9.352 F1999.998
G1 X24.848 Y30.346 Z5.000 F1999.998
G1 X24.387 Y31.227 Z9.502 F1999.998
G1 X23.987 Y32.137 Z9.778 F1999.998
G1 X23.652 Y33.072 Z9.777 F1999.998
G1 X23.381 Y34.028 Z9.778 F1999.998
G1 X23.177 Y35.001 Z9.779 F1999.998
G1 X23.041 Y35.986 Z9.778 F1999.998
G1 X22.973 Y36.977 Z9.778 F1999.998
G1 X22.974 Y37.971 Z9.778 F1999.998
G1 X23.043 Y38.963 Z9.778 F1999.998
G1 X23.180 Y39.947 Z9.779 F1999.998
G1 X23.385 Y40.920 Z9.778 F1999.998
G1 X23.657 Y41.876 Z9.778 F1999.998
G1 X23.993 Y42.811 Z9.778 F1999.998
G1 X24.394 Y43.720 Z9.490 F1999.998
G1 X24.856 Y44.600 Z5.000 F1999.998
G1 X25.378 Y45.446 Z9.367 F1999.998
G1 X25.957 Y46.254 Z9.778 F1999.998
G1 X26.590 Y47.020 Z9.778 F1999.998
G1 X27.275 Y47.740 Z9.778 F1999.998
G1 X28.008 Y48.412 Z9.778 F1999.998
G1 X28.785 Y49.031 Z9.778 F1999.998
G1 X29.603 Y49.595 Z9.779 F1999.998
G1 X30.458 Y50.102 Z9.778 F1999.998
G1 X31.346 Y50.548 Z9.778 F1999.998
G1 X32.263 Y50.932 Z9.778 F1999.998
G1 X33.204 Y51.252 Z9.778 F1999.998
G1 X34.165 Y51.506 Z9.778 F1999.998
G1 X35.141 Y51.694 Z9.778 F1999.998
G1 X36.128 Y51.813 Z9.597 F1999.998
G1 X37.120 Y51.864 Z8.226 F1999.998
G1 X38.114 Y51.847 Z9.195 F1999.998
G1 X39.104 Y51.761 Z9.767 F1999.998
G1 X40.086 Y51.607 Z9.778 F1999.998
G1 X41.055 Y51.385 Z9.779 F1999.998
G1 X42.006 Y51.098 Z9.778 F1999.998
G1 X42.936 Y50.745 Z9.778 F1999.998
G1 X43.838 Y50.329 Z9.778 F1999.998
G1 X44.710 Y49.852 Z9.778 F1999.998
G1 X45.547 Y49.316 Z9.778 F1999.998
G1 X46.345 Y48.723 Z9.778 F1999.998
G1 X47.100 Y48.077 Z9.779 F1999.998
G1 X47.809 Y47.380 Z9.778 F1999.998
G1 X48.468 Y46.636 Z9.778 F1999.998
G1 X49.074 Y45.848 Z9.678 F1999.998
G1 X49.624 Y45.021 Z8.680 F1999.998
G1 X50.116 Y44.157 Z8.975 F1999.998
G1 X50.547 Y43.262 Z9.734 F1999.998
G1 X50.916 Y42.339 Z9.777 F1999.998
G1 X51.219 Y41.392 Z9.778 F1999.998
G1 X51.457 Y40.427 Z9.778 F1999.998
G1 X51.628 Y39.448 Z9.778 F1999.998
G1 X51.731 Y38.460 Z9.778 F1999.998
G1 X51.765 Y37.466 Z9.779 F1999.998
G1 X51.765 Y37.450 Z9.778 F1999.998
(End of step 26.)
(Begin step 27.)
G1 X52.245 Y37.450 Z9.315 F1999.998
(part 1.)
G1 X52.245 Y37.450 Z9.315 F1999.998
G1 X52.211 Y36.457 Z9.315 F1999.998
G1 X52.110 Y35.467 Z9.315 F1999.998
G1 X51.944 Y34.487 Z9.315 F1999.998
G1 X51.712 Y33.520 Z9.315 F1999.998
G1 X51.417 Y32.571 Z9.315 F1999.998
G1 X51.058 Y31.643 Z9.312 F1999.998
G1 X50.639 Y30.742 Z8.828 F1999.998
G1 X50.160 Y29.871 Z7.526 F1999.998
G1 X49.624 Y29.033 Z9.110 F1999.998
G1 X49.034 Y28.233 Z9.315 F1999.998
G1 X48.391 Y27.475 Z9.315 F1999.998
G1 X47.699 Y26.760 Z9.315 F1999.998
G1 X46.961 Y26.094 Z9.315 F1999.998
G1 X46.180 Y25.479 Z9.315 F1999.998
G1 X45.360 Y24.917 Z9.315 F1999.998
G1 X44.504 Y24.411 Z9.315 F1999.998
G1 X43.617 Y23.963 Z9.315 F1999.998
G1 X42.701 Y23.576 Z9.315 F1999.998
G1 X41.761 Y23.251 Z9.315 F1999.998
G1 X40.802 Y22.989 Z9.315 F1999.998
G1 X39.828 Y22.791 Z9.315 F1999.998
G1 X38.842 Y22.660 Z9.248 F1999.998
G1 X37.850 Y22.594 Z8.397 F1999.998
G1 X36.856 Y22.595 Z8.437 F1999.998
G1 X35.864 Y22.662 Z9.256 F1999.998
G1 X34.879 Y22.795 Z9.315 F1999.998
G1 X33.904 Y22.994 Z9.315 F1999.998
G1 X32.946 Y23.258 Z9.315 F1999.998
G1 X32.007 Y23.585 Z9.315 F1999.998
G1 X31.092 Y23.973 Z9.315 F1999.998
G1 X30.204 Y24.422 Z9.315 F1999.998
G1 X29.349 Y24.930 Z9.315 F1999.998
G1 X28.530 Y25.493 Z9.315 F1999.998
G1 X27.750 Y26.110 Z9.315 F1999.998
G1 X27.013 Y26.777 Z9.315 F1999.998
G1 X26.323 Y27.492 Z9.315 F1999.998
G1 X25.681 Y28.252 Z9.315 F1999.998
G1 X25.092 Y29.053 Z9.096 F1999.998
G1 X24.557 Y29.891 Z7.312 F1999.998
G1 X24.080 Y30.763 Z8.852 F1999.998
G1 X23.662 Y31.666 Z9.313 F1999.998
G1 X23.305 Y32.594 Z9.315 F1999.998
G1 X23.011 Y33.543 Z9.315 F1999.998
G1 X22.781 Y34.511 Z9.315 F1999.998
G1 X22.617 Y35.491 Z9.315 F1999.998
G1 X22.518 Y36.481 Z9.315 F1999.998
G1 X22.485 Y37.474 Z9.315 F1999.998
G1 X22.519 Y38.468 Z9.315 F1999.998
G1 X22.619 Y39.457 Z9.315 F1999.998
G1 X22.785 Y40.437 Z9.315 F1999.998
G1 X23.016 Y41.405 Z9.315 F1999.998
G1 X23.311 Y42.354 Z9.315 F1999.998
G1 X23.668 Y43.282 Z9.312 F1999.998
G1 X24.087 Y44.183 Z8.836 F1999.998
G1 X24.566 Y45.055 Z7.471 F1999.998
G1 X25.101 Y45.893 Z9.105 F1999.998
G1 X25.691 Y46.693 Z9.315 F1999.998
G1 X26.333 Y47.452 Z9.315 F1999.998
G1 X27.025 Y48.166 Z9.315 F1999.998
G1 X27.762 Y48.833 Z9.315 F1999.998
G1 X28.543 Y49.449 Z9.315 F1999.998
G1 X29.363 Y50.011 Z9.315 F1999.998
G1 X30.218 Y50.518 Z9.315 F1999.998
G1 X31.106 Y50.966 Z9.315 F1999.998
G1 X32.022 Y51.354 Z9.315 F1999.998
G1 X32.961 Y51.680 Z9.315 F1999.998
G1 X33.920 Y51.942 Z9.315 F1999.998
G1 X34.894 Y52.140 Z9.315 F1999.998
G1 X35.880 Y52.272 Z9.251 F1999.998
G1 X36.872 Y52.338 Z8.410 F1999.998
G1 X37.866 Y52.338 Z8.424 F1999.998
G1 X38.858 Y52.271 Z9.253 F1999.998
G1 X39.843 Y52.138 Z9.314 F1999.998
G1 X40.818 Y51.940 Z9.315 F1999.998
G1 X41.777 Y51.677 Z9.315 F1999.998
G1 X42.716 Y51.351 Z9.315 F1999.998
G1 X43.631 Y50.963 Z9.315 F1999.998
G1 X44.518 Y50.514 Z9.315 F1999.998
G1 X45.374 Y50.007 Z9.315 F1999.998
G1 X46.193 Y49.444 Z9.315 F1999.998
G1 X46.974 Y48.828 Z9.315 F1999.998
G1 X47.711 Y48.161 Z9.315 F1999.998
G1 X48.402 Y47.446 Z9.315 F1999.998
G1 X49.044 Y46.687 Z9.315 F1999.998
G1 X49.633 Y45.886 Z9.101 F1999.998
G1 X50.168 Y45.048 Z7.404 F1999.998
G1 X50.646 Y44.176 Z8.844 F1999.998
G1 X51.065 Y43.274 Z9.313 F1999.998
G1 X51.422 Y42.346 Z9.315 F1999.998
G1 X51.716 Y41.397 Z9.315 F1999.998
G1 X51.947 Y40.430 Z9.315 F1999.998
G1 X52.112 Y39.449 Z9.315 F1999.998
G1 X52.212 Y38.460 Z9.315 F1999.998
G1 X52.245 Y37.466 Z9.315 F1999.998
G1 X52.245 Y37.450 Z9.315 F1999.998
(End of step 27.)
(Begin step 28.)
G1 X52.725 Y37.450 Z8.887 F1999.998
(part 1.)
G1 X52.725 Y37.450 Z8.887 F1999.998
G1 X52.692 Y36.456 Z8.887 F1999.998
G1 X52.594 Y35.466 Z8.887 F1999.998
G1 X52.433 Y34.485 Z8.887 F1999.998
G1 X52.208 Y33.516 Z8.887 F1999.998
G1 X51.921 Y32.564 Z8.887 F1999.998
G1 X51.574 Y31.632 Z8.887 F1999.998
G1 X51.166 Y30.725 Z8.625 F1999.998
G1 X50.701 Y29.845 Z5.000 F1999.998
G1 X50.180 Y28.998 Z8.524 F1999.998
G1 X49.605 Y28.187 Z8.887 F1999.998
G1 X48.979 Y27.414 Z8.887 F1999.998
G1 X48.304 Y26.683 Z8.887 F1999.998
G1 X47.583 Y25.998 Z8.887 F1999.998
G1 X46.819 Y25.361 Z8.887 F1999.998
G1 X46.016 Y24.774 Z8.887 F1999.998
G1 X45.177 Y24.241 Z8.887 F1999.998
G1 X44.304 Y23.763 Z8.887 F1999.998
G1 X43.403 Y23.343 Z8.887 F1999.998
G1 X42.476 Y22.982 Z8.887 F1999.998
G1 X41.528 Y22.681 Z8.887 F1999.998
G1 X40.562 Y22.443 Z8.887 F1999.998
G1 X39.583 Y22.267 Z8.887 F1999.998
G1 X38.595 Y22.156 Z8.725 F1999.998
G1 X37.602 Y22.108 Z7.420 F1999.998
G1 X36.607 Y22.125 Z8.366 F1999.998
G1 X35.616 Y22.206 Z8.881 F1999.998
G1 X34.632 Y22.351 Z8.887 F1999.998
G1 X33.659 Y22.560 Z8.887 F1999.998
G1 X32.702 Y22.831 Z8.887 F1999.998
G1 X31.765 Y23.163 Z8.887 F1999.998
G1 X30.851 Y23.556 Z8.887 F1999.998
G1 X29.964 Y24.007 Z8.887 F1999.998
G1 X29.109 Y24.514 Z8.887 F1999.998
G1 X28.288 Y25.075 Z8.887 F1999.998
G1 X27.505 Y25.689 Z8.887 F1999.998
G1 X26.763 Y26.351 Z8.887 F1999.998
G1 X26.066 Y27.061 Z8.887 F1999.998
G1 X25.417 Y27.814 Z8.887 F1999.998
G1 X24.817 Y28.607 Z8.799 F1999.998
G1 X24.270 Y29.438 Z7.860 F1999.998
G1 X23.778 Y30.302 Z8.163 F1999.998
G1 X23.343 Y31.197 Z8.854 F1999.998
G1 X22.966 Y32.117 Z8.887 F1999.998
G1 X22.650 Y33.061 Z8.887 F1999.998
G1 X22.396 Y34.022 Z8.887 F1999.998
G1 X22.205 Y34.998 Z8.887 F1999.998
G1 X22.077 Y35.984 Z8.887 F1999.998
G1 X22.013 Y36.977 Z8.887 F1999.998
G1 X22.013 Y37.972 Z8.887 F1999.998
G1 X22.078 Y38.964 Z8.887 F1999.998
G1 X22.207 Y39.950 Z8.887 F1999.998
G1 X22.400 Y40.926 Z8.887 F1999.998
G1 X22.655 Y41.887 Z8.887 F1999.998
G1 X22.972 Y42.830 Z8.887 F1999.998
G1 X23.349 Y43.750 Z8.850 F1999.998
G1 X23.785 Y44.644 Z8.141 F1999.998
G1 X24.278 Y45.508 Z7.891 F1999.998
G1 X24.826 Y46.338 Z8.805 F1999.998
G1 X25.427 Y47.131 Z8.887 F1999.998
G1 X26.077 Y47.883 Z8.887 F1999.998
G1 X26.775 Y48.592 Z8.887 F1999.998
G1 X27.517 Y49.254 Z8.887 F1999.998
G1 X28.301 Y49.867 Z8.887 F1999.998
G1 X29.122 Y50.427 Z8.887 F1999.998
G1 X29.979 Y50.934 Z8.887 F1999.998
G1 X30.866 Y51.383 Z8.887 F1999.998
G1 X31.780 Y51.775 Z8.887 F1999.998
G1 X32.718 Y52.106 Z8.887 F1999.998
G1 X33.675 Y52.376 Z8.887 F1999.998
G1 X34.648 Y52.584 Z8.887 F1999.998
G1 X35.632 Y52.728 Z8.879 F1999.998
G1 X36.623 Y52.808 Z8.349 F1999.998
G1 X37.618 Y52.824 Z7.476 F1999.998
G1 X38.611 Y52.776 Z8.733 F1999.998
G1 X39.599 Y52.663 Z8.887 F1999.998
G1 X40.578 Y52.486 Z8.887 F1999.998
G1 X41.543 Y52.247 Z8.887 F1999.998
G1 X42.491 Y51.946 Z8.887 F1999.998
G1 X43.418 Y51.583 Z8.887 F1999.998
G1 X44.319 Y51.162 Z8.887 F1999.998
G1 X45.190 Y50.683 Z8.887 F1999.998
G1 X46.029 Y50.149 Z8.887 F1999.998
G1 X46.832 Y49.562 Z8.887 F1999.998
G1 X47.595 Y48.924 Z8.887 F1999.998
G1 X48.315 Y48.238 Z8.887 F1999.998
G1 X48.989 Y47.506 Z8.887 F1999.998
G1 X49.615 Y46.733 Z8.887 F1999.998
G1 X50.189 Y45.921 Z8.510 F1999.998
G1 X50.709 Y45.073 Z5.000 F1999.998
G1 X51.173 Y44.194 Z8.636 F1999.998
G1 X51.580 Y43.286 Z8.887 F1999.998
G1 X51.927 Y42.354 Z8.887 F1999.998
G1 X52.212 Y41.401 Z8.887 F1999.998
G1 X52.436 Y40.432 Z8.887 F1999.998
G1 X52.596 Y39.450 Z8.887 F1999.998
G1 X52.693 Y38.460 Z8.887 F1999.998
G1 X52.725 Y37.466 Z8.887 F1999.998
G1 X52.725 Y37.450 Z8.887 F1999.998
(End of step 28.)
(Begin step 29.)
G1 X53.205 Y37.450 Z8.493 F1999.998
(part 1.)
G1 X53.205 Y37.450 Z8.493 F1999.998
G1 X53.173 Y36.456 Z8.492 F1999.998
G1 X53.078 Y35.465 Z8.492 F1999.998
G1 X52.921 Y34.483 Z8.492 F1999.998
G1 X52.703 Y33.512 Z8.492 F1999.998
G1 X52.425 Y32.557 Z8.492 F1999.998
G1 X52.087 Y31.621 Z8.492 F1999.998
G1 X51.691 Y30.708 Z8.376 F1999.998
G1 X51.239 Y29.822 Z7.308 F1999.998
G1 X50.731 Y28.966 Z7.905 F1999.998
G1 X50.171 Y28.144 Z8.478 F1999.998
G1 X49.561 Y27.358 Z8.493 F1999.998
G1 X48.902 Y26.613 Z8.492 F1999.998
G1 X48.198 Y25.910 Z8.492 F1999.998
G1 X47.451 Y25.253 Z8.492 F1999.998
G1 X46.664 Y24.643 Z8.492 F1999.998
G1 X45.841 Y24.085 Z8.492 F1999.998
G1 X44.984 Y23.579 Z8.492 F1999.998
G1 X44.097 Y23.128 Z8.492 F1999.998
G1 X43.184 Y22.734 Z8.492 F1999.998
G1 X42.248 Y22.398 Z8.492 F1999.998
G1 X41.292 Y22.121 Z8.492 F1999.998
G1 X40.321 Y21.904 Z8.493 F1999.998
G1 X39.338 Y21.750 Z8.493 F1999.998
G1 X38.347 Y21.657 Z8.188 F1999.998
G1 X37.353 Y21.626 Z5.000 F1999.998
G1 X36.358 Y21.658 Z8.205 F1999.998
G1 X35.368 Y21.753 Z8.492 F1999.998
G1 X34.385 Y21.909 Z8.492 F1999.998
G1 X33.415 Y22.127 Z8.492 F1999.998
G1 X32.459 Y22.405 Z8.492 F1999.998
G1 X31.524 Y22.743 Z8.492 F1999.998
G1 X30.611 Y23.138 Z8.492 F1999.998
G1 X29.725 Y23.591 Z8.492 F1999.998
G1 X28.868 Y24.098 Z8.492 F1999.998
G1 X28.046 Y24.658 Z8.492 F1999.998
G1 X27.260 Y25.268 Z8.492 F1999.998
G1 X26.514 Y25.926 Z8.492 F1999.998
G1 X25.811 Y26.630 Z8.492 F1999.998
G1 X25.154 Y27.377 Z8.492 F1999.998
G1 X24.544 Y28.164 Z8.474 F1999.998
G1 X23.986 Y28.987 Z7.877 F1999.998
G1 X23.480 Y29.843 Z7.365 F1999.998
G1 X23.029 Y30.730 Z8.386 F1999.998
G1 X22.634 Y31.643 Z8.492 F1999.998
G1 X22.297 Y32.580 Z8.492 F1999.998
G1 X22.020 Y33.535 Z8.493 F1999.998
G1 X21.804 Y34.506 Z8.493 F1999.998
G1 X21.649 Y35.489 Z8.493 F1999.998
G1 X21.556 Y36.480 Z8.493 F1999.998
G1 X21.525 Y37.474 Z8.493 F1999.998
G1 X21.557 Y38.469 Z8.493 F1999.998
G1 X21.651 Y39.459 Z8.493 F1999.998
G1 X21.807 Y40.442 Z8.493 F1999.998
G1 X22.024 Y41.413 Z8.493 F1999.998
G1 X22.302 Y42.368 Z8.493 F1999.998
G1 X22.640 Y43.304 Z8.492 F1999.998
G1 X23.035 Y44.217 Z8.379 F1999.998
G1 X23.487 Y45.103 Z7.327 F1999.998
G1 X23.994 Y45.959 Z7.896 F1999.998
G1 X24.554 Y46.782 Z8.476 F1999.998
G1 X25.164 Y47.568 Z8.491 F1999.998
G1 X25.822 Y48.314 Z8.492 F1999.998
G1 X26.526 Y49.017 Z8.492 F1999.998
G1 X27.273 Y49.675 Z8.492 F1999.998
G1 X28.059 Y50.284 Z8.492 F1999.998
G1 X28.882 Y50.843 Z8.492 F1999.998
G1 X29.739 Y51.349 Z8.492 F1999.998
G1 X30.625 Y51.801 Z8.492 F1999.998
G1 X31.538 Y52.196 Z8.492 F1999.998
G1 X32.475 Y52.532 Z8.492 F1999.998
G1 X33.430 Y52.810 Z8.492 F1999.998
G1 X34.401 Y53.027 Z8.492 F1999.998
G1 X35.384 Y53.182 Z8.492 F1999.998
G1 X36.374 Y53.275 Z8.193 F1999.998
G1 X37.369 Y53.306 Z5.000 F1999.998
G1 X38.363 Y53.275 Z8.199 F1999.998
G1 X39.354 Y53.181 Z8.492 F1999.998
G1 X40.336 Y53.025 Z8.492 F1999.998
G1 X41.307 Y52.808 Z8.492 F1999.998
G1 X42.263 Y52.530 Z8.492 F1999.998
G1 X43.199 Y52.193 Z8.492 F1999.998
G1 X44.112 Y51.797 Z8.492 F1999.998
G1 X44.998 Y51.346 Z8.492 F1999.998
G1 X45.855 Y50.839 Z8.492 F1999.998
G1 X46.677 Y50.280 Z8.492 F1999.998
G1 X47.463 Y49.670 Z8.492 F1999.998
G1 X48.210 Y49.012 Z8.492 F1999.998
G1 X48.913 Y48.308 Z8.492 F1999.998
G1 X49.571 Y47.562 Z8.492 F1999.998
G1 X50.181 Y46.775 Z8.475 F1999.998
G1 X50.740 Y45.953 Z7.886 F1999.998
G1 X51.246 Y45.096 Z7.346 F1999.998
G1 X51.698 Y44.210 Z8.382 F1999.998
G1 X52.093 Y43.296 Z8.493 F1999.998
G1 X52.430 Y42.360 Z8.492 F1999.998
G1 X52.707 Y41.405 Z8.492 F1999.998
G1 X52.924 Y40.434 Z8.492 F1999.998
G1 X53.080 Y39.451 Z8.492 F1999.998
G1 X53.174 Y38.461 Z8.492 F1999.998
G1 X53.205 Y37.466 Z8.493 F1999.998
G1 X53.205 Y37.450 Z8.493 F1999.998
(End of step 29.)
(Begin step 30.)
G1 X53.685 Y37.450 Z8.127 F1999.998
(part 1.)
G1 X53.685 Y37.450 Z8.127 F1999.998
G1 X53.654 Y36.456 Z8.127 F1999.998
G1 X53.562 Y35.465 Z8.127 F1999.998
G1 X53.410 Y34.481 Z8.127 F1999.998
G1 X53.198 Y33.509 Z8.127 F1999.998
G1 X52.927 Y32.551 Z8.127 F1999.998
G1 X52.599 Y31.611 Z8.127 F1999.998
G1 X52.213 Y30.694 Z8.094 F1999.998
G1 X51.773 Y29.801 Z7.422 F1999.998
G1 X51.279 Y28.937 Z7.210 F1999.998
G1 X50.733 Y28.105 Z8.057 F1999.998
G1 X50.138 Y27.308 Z8.127 F1999.998
G1 X49.495 Y26.548 Z8.127 F1999.998
G1 X48.807 Y25.829 Z8.127 F1999.998
G1 X48.076 Y25.153 Z8.127 F1999.998
G1 X47.306 Y24.523 Z8.127 F1999.998
G1 X46.498 Y23.941 Z8.127 F1999.998
G1 X45.657 Y23.410 Z8.127 F1999.998
G1 X44.784 Y22.930 Z8.127 F1999.998
G1 X43.885 Y22.505 Z8.127 F1999.998
G1 X42.961 Y22.136 Z8.127 F1999.998
G1 X42.016 Y21.823 Z8.127 F1999.998
G1 X41.053 Y21.569 Z8.127 F1999.998
G1 X40.078 Y21.373 Z8.127 F1999.998
G1 X39.092 Y21.238 Z8.120 F1999.998
G1 X38.099 Y21.163 Z7.621 F1999.998
G1 X37.104 Y21.148 Z6.825 F1999.998
G1 X36.110 Y21.195 Z7.992 F1999.998
G1 X35.120 Y21.301 Z8.127 F1999.998
G1 X34.139 Y21.468 Z8.127 F1999.998
G1 X33.170 Y21.695 Z8.127 F1999.998
G1 X32.217 Y21.980 Z8.127 F1999.998
G1 X31.282 Y22.322 Z8.127 F1999.998
G1 X30.370 Y22.721 Z8.127 F1999.998
G1 X29.485 Y23.175 Z8.127 F1999.998
G1 X28.628 Y23.682 Z8.127 F1999.998
G1 X27.804 Y24.240 Z8.127 F1999.998
G1 X27.016 Y24.847 Z8.127 F1999.998
G1 X26.266 Y25.502 Z8.127 F1999.998
G1 X25.557 Y26.200 Z8.127 F1999.998
G1 X24.892 Y26.941 Z8.127 F1999.998
G1 X24.274 Y27.721 Z8.126 F1999.998
G1 X23.704 Y28.537 Z7.774 F1999.998
G1 X23.185 Y29.386 Z5.000 F1999.998
G1 X22.719 Y30.266 Z7.903 F1999.998
G1 X22.308 Y31.172 Z8.127 F1999.998
G1 X21.952 Y32.101 Z8.127 F1999.998
G1 X21.654 Y33.051 Z8.127 F1999.998
G1 X21.414 Y34.017 Z8.127 F1999.998
G1 X21.233 Y34.995 Z8.127 F1999.998
G1 X21.112 Y35.983 Z8.127 F1999.998
G1 X21.052 Y36.977 Z8.127 F1999.998
G1 X21.053 Y37.972 Z8.127 F1999.998
G1 X21.114 Y38.965 Z8.127 F1999.998
G1 X21.235 Y39.953 Z8.127 F1999.998
G1 X21.417 Y40.932 Z8.127 F1999.998
G1 X21.658 Y41.897 Z8.127 F1999.998
G1 X21.957 Y42.846 Z8.127 F1999.998
G1 X22.314 Y43.776 Z8.126 F1999.998
G1 X22.726 Y44.681 Z7.894 F1999.998
G1 X23.193 Y45.560 Z5.000 F1999.998
G1 X23.713 Y46.409 Z7.787 F1999.998
G1 X24.284 Y47.224 Z8.127 F1999.998
G1 X24.903 Y48.004 Z8.127 F1999.998
G1 X25.568 Y48.744 Z8.127 F1999.998
G1 X26.278 Y49.442 Z8.127 F1999.998
G1 X27.028 Y50.095 Z8.127 F1999.998
G1 X27.817 Y50.702 Z8.127 F1999.998
G1 X28.642 Y51.259 Z8.127 F1999.998
G1 X29.499 Y51.765 Z8.127 F1999.998
G1 X30.385 Y52.218 Z8.127 F1999.998
G1 X31.297 Y52.616 Z8.127 F1999.998
G1 X32.232 Y52.958 Z8.127 F1999.998
G1 X33.186 Y53.242 Z8.127 F1999.998
G1 X34.155 Y53.467 Z8.127 F1999.998
G1 X35.136 Y53.633 Z8.127 F1999.998
G1 X36.126 Y53.739 Z7.985 F1999.998
G1 X37.120 Y53.784 Z6.774 F1999.998
G1 X38.115 Y53.769 Z7.637 F1999.998
G1 X39.108 Y53.693 Z8.121 F1999.998
G1 X40.093 Y53.557 Z8.126 F1999.998
G1 X41.069 Y53.360 Z8.127 F1999.998
G1 X42.031 Y53.105 Z8.127 F1999.998
G1 X42.976 Y52.791 Z8.127 F1999.998
G1 X43.899 Y52.421 Z8.127 F1999.998
G1 X44.799 Y51.995 Z8.127 F1999.998
G1 X45.670 Y51.515 Z8.127 F1999.998
G1 X46.511 Y50.982 Z8.127 F1999.998
G1 X47.318 Y50.400 Z8.127 F1999.998
G1 X48.088 Y49.769 Z8.127 F1999.998
G1 X48.818 Y49.092 Z8.127 F1999.998
G1 X49.505 Y48.373 Z8.127 F1999.998
G1 X50.148 Y47.612 Z8.127 F1999.998
G1 X50.742 Y46.814 Z8.052 F1999.998
G1 X51.287 Y45.982 Z7.181 F1999.998
G1 X51.780 Y45.117 Z7.443 F1999.998
G1 X52.220 Y44.224 Z8.097 F1999.998
G1 X52.604 Y43.306 Z8.127 F1999.998
G1 X52.932 Y42.366 Z8.127 F1999.998
G1 X53.202 Y41.408 Z8.127 F1999.998
G1 X53.412 Y40.436 Z8.127 F1999.998
G1 X53.564 Y39.452 Z8.127 F1999.998
G1 X53.655 Y38.461 Z8.127 F1999.998
G1 X53.685 Y37.466 Z8.127 F1999.998
G1 X53.685 Y37.450 Z8.127 F1999.998
(End of step 30.)
(Begin step 31.)
G1 X54.165 Y37.450 Z7.788 F1999.998
(part 1.)
G1 X54.165 Y37.450 Z7.788 F1999.998
G1 X54.134 Y36.455 Z7.788 F1999.998
G1 X54.045 Y35.464 Z7.788 F1999.998
G1 X53.897 Y34.479 Z7.788 F1999.998
G1 X53.691 Y33.505 Z7.788 F1999.998
G1 X53.428 Y32.545 Z7.788 F1999.998
G1 X53.108 Y31.602 Z7.788 F1999.998
G1 X52.733 Y30.680 Z7.787 F1999.998
G1 X52.304 Y29.782 Z7.375 F1999.998
G1 X51.823 Y28.910 Z6.201 F1999.998
G1 X51.291 Y28.069 Z7.622 F1999.998
G1 X50.710 Y27.261 Z7.788 F1999.998
G1 X50.082 Y26.488 Z7.788 F1999.998
G1 X49.409 Y25.754 Z7.788 F1999.998
G1 X48.694 Y25.061 Z7.788 F1999.998
G1 X47.940 Y24.412 Z7.788 F1999.998
G1 X47.148 Y23.809 Z7.788 F1999.998
G1 X46.322 Y23.253 Z7.788 F1999.998
G1 X45.464 Y22.748 Z7.788 F1999.998
G1 X44.578 Y22.294 Z7.788 F1999.998
G1 X43.667 Y21.893 Z7.788 F1999.998
G1 X42.733 Y21.547 Z7.788 F1999.998
G1 X41.781 Y21.257 Z7.788 F1999.998
G1 X40.813 Y21.024 Z7.788 F1999.998
G1 X39.833 Y20.849 Z7.788 F1999.998
G1 X38.844 Y20.732 Z7.739 F1999.998
G1 X37.851 Y20.673 Z6.990 F1999.998
G1 X36.855 Y20.674 Z7.026 F1999.998
G1 X35.861 Y20.734 Z7.745 F1999.998
G1 X34.873 Y20.852 Z7.788 F1999.998
G1 X33.893 Y21.029 Z7.788 F1999.998
G1 X32.926 Y21.263 Z7.788 F1999.998
G1 X31.974 Y21.555 Z7.788 F1999.998
G1 X31.041 Y21.902 Z7.788 F1999.998
G1 X30.130 Y22.304 Z7.788 F1999.998
G1 X29.245 Y22.759 Z7.788 F1999.998
G1 X28.388 Y23.266 Z7.788 F1999.998
G1 X27.562 Y23.823 Z7.788 F1999.998
G1 X26.771 Y24.427 Z7.788 F1999.998
G1 X26.018 Y25.077 Z7.788 F1999.998
G1 X25.304 Y25.771 Z7.788 F1999.998
G1 X24.632 Y26.506 Z7.788 F1999.998
G1 X24.005 Y27.280 Z7.788 F1999.998
G1 X23.426 Y28.089 Z7.610 F1999.998
G1 X22.895 Y28.931 Z6.007 F1999.998
G1 X22.414 Y29.803 Z7.396 F1999.998
G1 X21.987 Y30.702 Z7.788 F1999.998
G1 X21.613 Y31.625 Z7.788 F1999.998
G1 X21.295 Y32.568 Z7.788 F1999.998
G1 X21.033 Y33.529 Z7.788 F1999.998
G1 X20.828 Y34.503 Z7.788 F1999.998
G1 X20.682 Y35.488 Z7.788 F1999.998
G1 X20.594 Y36.479 Z7.788 F1999.998
G1 X20.565 Y37.474 Z7.788 F1999.998
G1 X20.595 Y38.469 Z7.788 F1999.998
G1 X20.684 Y39.461 Z7.788 F1999.998
G1 X20.831 Y40.445 Z7.788 F1999.998
G1 X21.037 Y41.420 Z7.788 F1999.998
G1 X21.299 Y42.380 Z7.788 F1999.998
G1 X21.619 Y43.323 Z7.788 F1999.998
G1 X21.993 Y44.245 Z7.787 F1999.998
G1 X22.422 Y45.144 Z7.382 F1999.998
G1 X22.903 Y46.015 Z6.150 F1999.998
G1 X23.435 Y46.857 Z7.618 F1999.998
G1 X24.015 Y47.666 Z7.788 F1999.998
G1 X24.643 Y48.438 Z7.788 F1999.998
G1 X25.315 Y49.173 Z7.788 F1999.998
G1 X26.030 Y49.866 Z7.788 F1999.998
G1 X26.784 Y50.515 Z7.788 F1999.998
G1 X27.575 Y51.119 Z7.788 F1999.998
G1 X28.401 Y51.675 Z7.788 F1999.998
G1 X29.259 Y52.181 Z7.788 F1999.998
G1 X30.144 Y52.635 Z7.788 F1999.998
G1 X31.056 Y53.037 Z7.788 F1999.998
G1 X31.989 Y53.383 Z7.788 F1999.998
G1 X32.941 Y53.673 Z7.788 F1999.998
G1 X33.909 Y53.907 Z7.788 F1999.998
G1 X34.889 Y54.083 Z7.788 F1999.998
G1 X35.877 Y54.200 Z7.741 F1999.998
G1 X36.871 Y54.259 Z7.002 F1999.998
G1 X37.867 Y54.259 Z7.014 F1999.998
G1 X38.860 Y54.200 Z7.743 F1999.998
G1 X39.849 Y54.082 Z7.788 F1999.998
G1 X40.829 Y53.905 Z7.788 F1999.998
G1 X41.796 Y53.671 Z7.788 F1999.998
G1 X42.748 Y53.380 Z7.788 F1999.998
G1 X43.682 Y53.034 Z7.788 F1999.998
G1 X44.593 Y52.632 Z7.788 F1999.998
G1 X45.478 Y52.177 Z7.788 F1999.998
G1 X46.335 Y51.671 Z7.788 F1999.998
G1 X47.161 Y51.115 Z7.788 F1999.998
G1 X47.952 Y50.510 Z7.788 F1999.998
G1 X48.706 Y49.860 Z7.788 F1999.998
G1 X49.420 Y49.167 Z7.788 F1999.998
G1 X50.092 Y48.432 Z7.788 F1999.998
G1 X50.719 Y47.659 Z7.788 F1999.998
G1 X51.300 Y46.850 Z7.614 F1999.998
G1 X51.831 Y46.008 Z6.090 F1999.998
G1 X52.312 Y45.137 Z7.389 F1999.998
G1 X52.740 Y44.238 Z7.787 F1999.998
G1 X53.114 Y43.315 Z7.788 F1999.998
G1 X53.433 Y42.372 Z7.788 F1999.998
G1 X53.695 Y41.412 Z7.788 F1999.998
G1 X53.900 Y40.438 Z7.788 F1999.998
G1 X54.047 Y39.453 Z7.788 F1999.998
G1 X54.135 Y38.461 Z7.788 F1999.998
G1 X54.165 Y37.466 Z7.788 F1999.998
G1 X54.165 Y37.450 Z7.788 F1999.998
(End of step 31.)
(Begin step 32.)
G1 X54.645 Y37.450 Z7.475 F1999.998
(part 1.)
G1 X54.645 Y37.450 Z7.475 F1999.998
G1 X54.615 Y36.455 Z7.474 F1999.998
G1 X54.528 Y35.463 Z7.475 F1999.998
G1 X54.384 Y34.478 Z7.474 F1999.998
G1 X54.184 Y33.502 Z7.474 F1999.998
G1 X53.928 Y32.540 Z7.475 F1999.998
G1 X53.617 Y31.594 Z7.474 F1999.998
G1 X53.251 Y30.668 Z7.474 F1999.998
G1 X52.833 Y29.764 Z7.255 F1999.998
G1 X52.364 Y28.885 Z5.000 F1999.998
G1 X51.845 Y28.036 Z7.164 F1999.998
G1 X51.277 Y27.217 Z7.474 F1999.998
G1 X50.664 Y26.433 Z7.475 F1999.998
G1 X50.006 Y25.685 Z7.475 F1999.998
G1 X49.307 Y24.977 Z7.474 F1999.998
G1 X48.567 Y24.309 Z7.474 F1999.998
G1 X47.791 Y23.686 Z7.475 F1999.998
G1 X46.980 Y23.108 Z7.474 F1999.998
G1 X46.137 Y22.578 Z7.474 F1999.998
G1 X45.265 Y22.098 Z7.475 F1999.998
G1 X44.366 Y21.668 Z7.474 F1999.998
G1 X43.445 Y21.291 Z7.474 F1999.998
G1 X42.503 Y20.968 Z7.475 F1999.998
G1 X41.544 Y20.699 Z7.474 F1999.998
G1 X40.571 Y20.486 Z7.475 F1999.998
G1 X39.588 Y20.330 Z7.475 F1999.998
G1 X38.597 Y20.230 Z7.342 F1999.998
G1 X37.602 Y20.188 Z6.164 F1999.998
G1 X36.606 Y20.203 Z7.024 F1999.998
G1 X35.613 Y20.275 Z7.471 F1999.998
G1 X34.626 Y20.405 Z7.474 F1999.998
G1 X33.647 Y20.591 Z7.474 F1999.998
G1 X32.682 Y20.833 Z7.475 F1999.998
G1 X31.731 Y21.130 Z7.474 F1999.998
G1 X30.800 Y21.482 Z7.474 F1999.998
G1 X29.890 Y21.887 Z7.475 F1999.998
G1 X29.005 Y22.343 Z7.474 F1999.998
G1 X28.147 Y22.850 Z7.474 F1999.998
G1 X27.321 Y23.405 Z7.475 F1999.998
G1 X26.527 Y24.007 Z7.475 F1999.998
G1 X25.770 Y24.654 Z7.474 F1999.998
G1 X25.051 Y25.343 Z7.474 F1999.998
G1 X24.373 Y26.072 Z7.475 F1999.998
G1 X23.739 Y26.840 Z7.474 F1999.998
G1 X23.149 Y27.642 Z7.406 F1999.998
G1 X22.607 Y28.477 Z6.565 F1999.998
G1 X22.114 Y29.342 Z6.841 F1999.998
G1 X21.671 Y30.234 Z7.451 F1999.998
G1 X21.280 Y31.150 Z7.474 F1999.998
G1 X20.943 Y32.087 Z7.474 F1999.998
G1 X20.661 Y33.042 Z7.474 F1999.998
G1 X20.434 Y34.012 Z7.475 F1999.998
G1 X20.263 Y34.993 Z7.474 F1999.998
G1 X20.149 Y35.982 Z7.474 F1999.998
G1 X20.092 Y36.976 Z7.475 F1999.998
G1 X20.092 Y37.972 Z7.475 F1999.998
G1 X20.150 Y38.966 Z7.474 F1999.998
G1 X20.265 Y39.955 Z7.474 F1999.998
G1 X20.437 Y40.936 Z7.475 F1999.998
G1 X20.665 Y41.906 Z7.474 F1999.998
G1 X20.948 Y42.860 Z7.474 F1999.998
G1 X21.286 Y43.797 Z7.475 F1999.998
G1 X21.678 Y44.713 Z7.448 F1999.998
G1 X22.121 Y45.604 Z6.821 F1999.998
G1 X22.615 Y46.469 Z6.594 F1999.998
G1 X23.158 Y47.303 Z7.411 F1999.998
G1 X23.749 Y48.105 Z7.475 F1999.998
G1 X24.384 Y48.872 Z7.475 F1999.998
G1 X25.063 Y49.601 Z7.474 F1999.998
G1 X25.782 Y50.289 Z7.474 F1999.998
G1 X26.540 Y50.935 Z7.475 F1999.998
G1 X27.334 Y51.537 Z7.474 F1999.998
G1 X28.161 Y52.091 Z7.474 F1999.998
G1 X29.019 Y52.597 Z7.474 F1999.998
G1 X29.904 Y53.053 Z7.475 F1999.998
G1 X30.814 Y53.457 Z7.474 F1999.998
G1 X31.746 Y53.807 Z7.474 F1999.998
G1 X32.697 Y54.104 Z7.475 F1999.998
G1 X33.663 Y54.345 Z7.474 F1999.998
G1 X34.641 Y54.530 Z7.474 F1999.998
G1 X35.629 Y54.659 Z7.470 F1999.998
G1 X36.622 Y54.730 Z7.008 F1999.998
G1 X37.618 Y54.744 Z6.215 F1999.998
G1 X38.613 Y54.701 Z7.349 F1999.998
G1 X39.603 Y54.601 Z7.475 F1999.998
G1 X40.587 Y54.443 Z7.474 F1999.998
G1 X41.559 Y54.229 Z7.475 F1999.998
G1 X42.518 Y53.960 Z7.474 F1999.998
G1 X43.460 Y53.636 Z7.474 F1999.998
G1 X44.381 Y53.258 Z7.474 F1999.998
G1 X45.279 Y52.828 Z7.475 F1999.998
G1 X46.151 Y52.346 Z7.474 F1999.998
G1 X46.993 Y51.815 Z7.474 F1999.998
G1 X47.804 Y51.237 Z7.475 F1999.998
G1 X48.580 Y50.613 Z7.474 F1999.998
G1 X49.318 Y49.945 Z7.474 F1999.998
G1 X50.017 Y49.236 Z7.475 F1999.998
G1 X50.674 Y48.487 Z7.474 F1999.998
G1 X51.287 Y47.702 Z7.474 F1999.998
G1 X51.853 Y46.883 Z7.153 F1999.998
G1 X52.372 Y46.033 Z5.000 F1999.998
G1 X52.840 Y45.154 Z7.264 F1999.998
G1 X53.258 Y44.250 Z7.474 F1999.998
G1 X53.622 Y43.324 Z7.474 F1999.998
G1 X53.932 Y42.377 Z7.475 F1999.998
G1 X54.188 Y41.415 Z7.474 F1999.998
G1 X54.387 Y40.439 Z7.474 F1999.998
G1 X54.530 Y39.454 Z7.475 F1999.998
G1 X54.616 Y38.462 Z7.475 F1999.998
G1 X54.645 Y37.466 Z7.475 F1999.998
G1 X54.645 Y37.450 Z7.475 F1999.998
(End of step 32.)
(Begin step 33.)
G1 X55.125 Y37.450 Z7.184 F1999.998
(part 1.)
G1 X55.125 Y37.450 Z7.184 F1999.998
G1 X55.096 Y36.455 Z7.184 F1999.998
G1 X55.011 Y35.462 Z7.184 F1999.998
G1 X54.871 Y34.476 Z7.184 F1999.998
G1 X54.676 Y33.499 Z7.184 F1999.998
G1 X54.427 Y32.535 Z7.184 F1999.998
G1 X54.123 Y31.586 Z7.184 F1999.998
G1 X53.767 Y30.656 Z7.184 F1999.998
G1 X53.360 Y29.747 Z7.089 F1999.998
G1 X52.902 Y28.863 Z6.120 F1999.998
G1 X52.395 Y28.005 Z6.667 F1999.998
G1 X51.841 Y27.177 Z7.175 F1999.998
G1 X51.241 Y26.382 Z7.184 F1999.998
G1 X50.598 Y25.621 Z7.184 F1999.998
G1 X49.913 Y24.898 Z7.184 F1999.998
G1 X49.189 Y24.214 Z7.184 F1999.998
G1 X48.427 Y23.572 Z7.184 F1999.998
G1 X47.631 Y22.974 Z7.184 F1999.998
G1 X46.802 Y22.421 Z7.184 F1999.998
G1 X45.944 Y21.916 Z7.184 F1999.998
G1 X45.059 Y21.459 Z7.184 F1999.998
G1 X44.149 Y21.053 Z7.184 F1999.998
G1 X43.219 Y20.699 Z7.184 F1999.998
G1 X42.269 Y20.397 Z7.184 F1999.998
G1 X41.305 Y20.149 Z7.184 F1999.998
G1 X40.328 Y19.955 Z7.184 F1999.998
G1 X39.341 Y19.817 Z7.184 F1999.998
G1 X38.349 Y19.734 Z6.923 F1999.998
G1 X37.353 Y19.706 Z5.000 F1999.998
G1 X36.357 Y19.735 Z6.938 F1999.998
G1 X35.365 Y19.819 Z7.184 F1999.998
G1 X34.379 Y19.959 Z7.184 F1999.998
G1 X33.402 Y20.154 Z7.184 F1999.998
G1 X32.437 Y20.403 Z7.184 F1999.998
G1 X31.489 Y20.707 Z7.184 F1999.998
G1 X30.558 Y21.062 Z7.184 F1999.998
G1 X29.649 Y21.470 Z7.184 F1999.998
G1 X28.765 Y21.927 Z7.184 F1999.998
G1 X27.907 Y22.434 Z7.184 F1999.998
G1 X27.079 Y22.988 Z7.184 F1999.998
G1 X26.284 Y23.587 Z7.184 F1999.998
G1 X25.523 Y24.230 Z7.184 F1999.998
G1 X24.800 Y24.915 Z7.184 F1999.998
G1 X24.116 Y25.639 Z7.184 F1999.998
G1 X23.474 Y26.401 Z7.184 F1999.998
G1 X22.875 Y27.197 Z7.172 F1999.998
G1 X22.322 Y28.025 Z6.641 F1999.998
G1 X21.816 Y28.884 Z6.173 F1999.998
G1 X21.360 Y29.769 Z7.098 F1999.998
G1 X20.953 Y30.678 Z7.184 F1999.998
G1 X20.599 Y31.609 Z7.184 F1999.998
G1 X20.297 Y32.558 Z7.184 F1999.998
G1 X20.048 Y33.523 Z7.184 F1999.998
G1 X19.854 Y34.500 Z7.184 F1999.998
G1 X19.716 Y35.486 Z7.184 F1999.998
G1 X19.632 Y36.479 Z7.184 F1999.998
G1 X19.605 Y37.474 Z7.184 F1999.998
G1 X19.633 Y38.470 Z7.184 F1999.998
G1 X19.717 Y39.462 Z7.184 F1999.998
G1 X19.857 Y40.449 Z7.184 F1999.998
G1 X20.052 Y41.425 Z7.184 F1999.998
G1 X20.301 Y42.390 Z7.184 F1999.998
G1 X20.604 Y43.339 Z7.184 F1999.998
G1 X20.959 Y44.269 Z7.184 F1999.998
G1 X21.367 Y45.178 Z7.092 F1999.998
G1 X21.824 Y46.063 Z6.138 F1999.998
G1 X22.331 Y46.921 Z6.659 F1999.998
G1 X22.884 Y47.749 Z7.174 F1999.998
G1 X23.483 Y48.544 Z7.184 F1999.998
G1 X24.126 Y49.305 Z7.184 F1999.998
G1 X24.811 Y50.029 Z7.184 F1999.998
G1 X25.535 Y50.713 Z7.184 F1999.998
G1 X26.296 Y51.355 Z7.184 F1999.998
G1 X27.092 Y51.954 Z7.184 F1999.998
G1 X27.921 Y52.507 Z7.184 F1999.998
G1 X28.779 Y53.013 Z7.184 F1999.998
G1 X29.664 Y53.470 Z7.184 F1999.998
G1 X30.573 Y53.876 Z7.184 F1999.998
G1 X31.504 Y54.231 Z7.184 F1999.998
G1 X32.453 Y54.533 Z7.184 F1999.998
G1 X33.417 Y54.782 Z7.184 F1999.998
G1 X34.394 Y54.976 Z7.184 F1999.998
G1 X35.381 Y55.115 Z7.184 F1999.998
G1 X36.373 Y55.199 Z6.928 F1999.998
G1 X37.369 Y55.226 Z5.000 F1999.998
G1 X38.365 Y55.198 Z6.933 F1999.998
G1 X39.357 Y55.114 Z7.184 F1999.998
G1 X40.343 Y54.975 Z7.184 F1999.998
G1 X41.320 Y54.780 Z7.184 F1999.998
G1 X42.285 Y54.531 Z7.184 F1999.998
G1 X43.234 Y54.229 Z7.184 F1999.998
G1 X44.164 Y53.873 Z7.184 F1999.998
G1 X45.073 Y53.466 Z7.184 F1999.998
G1 X45.958 Y53.009 Z7.184 F1999.998
G1 X46.816 Y52.503 Z7.184 F1999.998
G1 X47.644 Y51.949 Z7.184 F1999.998
G1 X48.440 Y51.350 Z7.184 F1999.998
G1 X49.201 Y50.707 Z7.184 F1999.998
G1 X49.925 Y50.023 Z7.184 F1999.998
G1 X50.609 Y49.299 Z7.184 F1999.998
G1 X51.251 Y48.538 Z7.184 F1999.998
G1 X51.850 Y47.742 Z7.173 F1999.998
G1 X52.403 Y46.914 Z6.650 F1999.998
G1 X52.909 Y46.056 Z6.156 F1999.998
G1 X53.367 Y45.171 Z7.095 F1999.998
G1 X53.773 Y44.262 Z7.184 F1999.998
G1 X54.129 Y43.331 Z7.184 F1999.998
G1 X54.431 Y42.382 Z7.184 F1999.998
G1 X54.680 Y41.418 Z7.184 F1999.998
G1 X54.874 Y40.441 Z7.184 F1999.998
G1 X55.013 Y39.454 Z7.184 F1999.998
G1 X55.097 Y38.462 Z7.184 F1999.998
G1 X55.125 Y37.466 Z7.184 F1999.998
G1 X55.125 Y37.450 Z7.184 F1999.998
(End of step 33.)
(Begin step 34.)
G1 X55.605 Y37.450 Z6.916 F1999.998
(part 1.)
G1 X55.605 Y37.450 Z6.916 F1999.998
G1 X55.577 Y36.454 Z6.916 F1999.998
G1 X55.494 Y35.461 Z6.916 F1999.998
G1 X55.358 Y34.475 Z6.916 F1999.998
G1 X55.168 Y33.497 Z6.916 F1999.998
G1 X54.924 Y32.530 Z6.916 F1999.998
G1 X54.629 Y31.579 Z6.916 F1999.998
G1 X54.281 Y30.645 Z6.916 F1999.998
G1 X53.884 Y29.732 Z6.892 F1999.998
G1 X53.437 Y28.841 Z6.284 F1999.998
G1 X52.942 Y27.977 Z6.089 F1999.998
G1 X52.401 Y27.140 Z6.861 F1999.998
G1 X51.814 Y26.335 Z6.916 F1999.998
G1 X51.185 Y25.562 Z6.916 F1999.998
G1 X50.514 Y24.825 Z6.916 F1999.998
G1 X49.805 Y24.126 Z6.916 F1999.998
G1 X49.058 Y23.467 Z6.916 F1999.998
G1 X48.276 Y22.849 Z6.916 F1999.998
G1 X47.461 Y22.275 Z6.916 F1999.998
G1 X46.617 Y21.747 Z6.916 F1999.998
G1 X45.745 Y21.265 Z6.916 F1999.998
G1 X44.848 Y20.832 Z6.916 F1999.998
G1 X43.928 Y20.448 Z6.916 F1999.998
G1 X42.989 Y20.115 Z6.916 F1999.998
G1 X42.033 Y19.834 Z6.916 F1999.998
G1 X41.064 Y19.605 Z6.916 F1999.998
G1 X40.083 Y19.430 Z6.916 F1999.998
G1 X39.094 Y19.308 Z6.912 F1999.998
G1 X38.100 Y19.241 Z6.467 F1999.998
G1 X37.104 Y19.228 Z5.733 F1999.998
G1 X36.108 Y19.270 Z6.804 F1999.998
G1 X35.117 Y19.365 Z6.916 F1999.998
G1 X34.132 Y19.515 Z6.916 F1999.998
G1 X33.156 Y19.718 Z6.916 F1999.998
G1 X32.194 Y19.975 Z6.916 F1999.998
G1 X31.246 Y20.283 Z6.916 F1999.998
G1 X30.317 Y20.643 Z6.916 F1999.998
G1 X29.409 Y21.053 Z6.916 F1999.998
G1 X28.525 Y21.512 Z6.916 F1999.998
G1 X27.667 Y22.018 Z6.916 F1999.998
G1 X26.838 Y22.571 Z6.916 F1999.998
G1 X26.040 Y23.168 Z6.916 F1999.998
G1 X25.276 Y23.807 Z6.916 F1999.998
G1 X24.549 Y24.488 Z6.916 F1999.998
G1 X23.859 Y25.207 Z6.916 F1999.998
G1 X23.210 Y25.963 Z6.916 F1999.998
G1 X22.603 Y26.753 Z6.915 F1999.998
G1 X22.040 Y27.575 Z6.607 F1999.998
G1 X21.523 Y28.426 Z5.000 F1999.998
G1 X21.053 Y29.305 Z6.724 F1999.998
G1 X20.631 Y30.208 Z6.916 F1999.998
G1 X20.260 Y31.132 Z6.916 F1999.998
G1 X19.940 Y32.076 Z6.916 F1999.998
G1 X19.671 Y33.035 Z6.916 F1999.998
G1 X19.456 Y34.008 Z6.916 F1999.998
G1 X19.294 Y34.991 Z6.916 F1999.998
G1 X19.185 Y35.981 Z6.916 F1999.998
G1 X19.131 Y36.976 Z6.916 F1999.998
G1 X19.132 Y37.972 Z6.916 F1999.998
G1 X19.187 Y38.967 Z6.916 F1999.998
G1 X19.296 Y39.958 Z6.916 F1999.998
G1 X19.459 Y40.940 Z6.916 F1999.998
G1 X19.675 Y41.913 Z6.916 F1999.998
G1 X19.944 Y42.872 Z6.916 F1999.998
G1 X20.266 Y43.815 Z6.916 F1999.998
G1 X20.638 Y44.739 Z6.916 F1999.998
G1 X21.060 Y45.642 Z6.715 F1999.998
G1 X21.531 Y46.520 Z5.000 F1999.998
G1 X22.049 Y47.371 Z6.619 F1999.998
G1 X22.612 Y48.193 Z6.916 F1999.998
G1 X23.220 Y48.982 Z6.915 F1999.998
G1 X23.870 Y49.737 Z6.916 F1999.998
G1 X24.560 Y50.456 Z6.916 F1999.998
G1 X25.288 Y51.136 Z6.916 F1999.998
G1 X26.053 Y51.775 Z6.916 F1999.998
G1 X26.851 Y52.371 Z6.916 F1999.998
G1 X27.680 Y52.923 Z6.916 F1999.998
G1 X28.539 Y53.429 Z6.916 F1999.998
G1 X29.423 Y53.887 Z6.916 F1999.998
G1 X30.332 Y54.296 Z6.916 F1999.998
G1 X31.261 Y54.655 Z6.916 F1999.998
G1 X32.209 Y54.962 Z6.916 F1999.998
G1 X33.172 Y55.218 Z6.916 F1999.998
G1 X34.147 Y55.420 Z6.916 F1999.998
G1 X35.133 Y55.569 Z6.916 F1999.998
G1 X36.124 Y55.664 Z6.797 F1999.998
G1 X37.120 Y55.705 Z5.685 F1999.998
G1 X38.116 Y55.691 Z6.482 F1999.998
G1 X39.110 Y55.623 Z6.913 F1999.998
G1 X40.099 Y55.500 Z6.915 F1999.998
G1 X41.079 Y55.324 Z6.916 F1999.998
G1 X42.049 Y55.095 Z6.916 F1999.998
G1 X43.004 Y54.813 Z6.916 F1999.998
G1 X43.943 Y54.479 Z6.916 F1999.998
G1 X44.862 Y54.094 Z6.916 F1999.998
G1 X45.759 Y53.660 Z6.916 F1999.998
G1 X46.631 Y53.178 Z6.916 F1999.998
G1 X47.475 Y52.648 Z6.916 F1999.998
G1 X48.289 Y52.073 Z6.916 F1999.998
G1 X49.070 Y51.455 Z6.916 F1999.998
G1 X49.816 Y50.795 Z6.916 F1999.998
G1 X50.525 Y50.096 Z6.916 F1999.998
G1 X51.195 Y49.358 Z6.916 F1999.998
G1 X51.824 Y48.585 Z6.916 F1999.998
G1 X52.410 Y47.779 Z6.856 F1999.998
G1 X52.950 Y46.942 Z6.062 F1999.998
G1 X53.444 Y46.077 Z6.304 F1999.998
G1 X53.891 Y45.186 Z6.894 F1999.998
G1 X54.287 Y44.273 Z6.916 F1999.998
G1 X54.634 Y43.338 Z6.916 F1999.998
G1 X54.929 Y42.387 Z6.916 F1999.998
G1 X55.171 Y41.420 Z6.916 F1999.998
G1 X55.361 Y40.442 Z6.916 F1999.998
G1 X55.496 Y39.455 Z6.916 F1999.998
G1 X55.578 Y38.462 Z6.916 F1999.998
G1 X55.605 Y37.466 Z6.916 F1999.998
G1 X55.605 Y37.450 Z6.916 F1999.998
(End of step 34.)
(Begin step 35.)
G1 X56.085 Y37.450 Z6.668 F1999.998
(part 1.)
G1 X56.085 Y37.450 Z6.668 F1999.998
G1 X56.058 Y36.454 Z6.668 F1999.998
G1 X55.977 Y35.461 Z6.668 F1999.998
G1 X55.844 Y34.473 Z6.668 F1999.998
G1 X55.659 Y33.494 Z6.668 F1999.998
G1 X55.421 Y32.526 Z6.668 F1999.998
G1 X55.133 Y31.572 Z6.668 F1999.998
G1 X54.794 Y30.635 Z6.668 F1999.998
G1 X54.406 Y29.717 Z6.668 F1999.998
G1 X53.969 Y28.821 Z6.301 F1999.998
G1 X53.486 Y27.950 Z5.352 F1999.998
G1 X52.957 Y27.106 Z6.526 F1999.998
G1 X52.383 Y26.291 Z6.668 F1999.998
G1 X51.767 Y25.507 Z6.668 F1999.998
G1 X51.110 Y24.758 Z6.668 F1999.998
G1 X50.415 Y24.044 Z6.668 F1999.998
G1 X49.682 Y23.369 Z6.668 F1999.998
G1 X48.914 Y22.734 Z6.668 F1999.998
G1 X48.114 Y22.140 Z6.668 F1999.998
G1 X47.283 Y21.590 Z6.668 F1999.998
G1 X46.424 Y21.084 Z6.668 F1999.998
G1 X45.539 Y20.625 Z6.668 F1999.998
G1 X44.632 Y20.214 Z6.668 F1999.998
G1 X43.703 Y19.852 Z6.668 F1999.998
G1 X42.757 Y19.540 Z6.668 F1999.998
G1 X41.795 Y19.278 Z6.668 F1999.998
G1 X40.821 Y19.068 Z6.668 F1999.998
G1 X39.837 Y18.910 Z6.668 F1999.998
G1 X38.846 Y18.805 Z6.629 F1999.998
G1 X37.851 Y18.753 Z5.944 F1999.998
G1 X36.855 Y18.753 Z5.978 F1999.998
G1 X35.860 Y18.807 Z6.635 F1999.998
G1 X34.869 Y18.913 Z6.668 F1999.998
G1 X33.885 Y19.073 Z6.668 F1999.998
G1 X32.911 Y19.284 Z6.668 F1999.998
G1 X31.950 Y19.547 Z6.668 F1999.998
G1 X31.004 Y19.860 Z6.668 F1999.998
G1 X30.076 Y20.224 Z6.668 F1999.998
G1 X29.169 Y20.636 Z6.668 F1999.998
G1 X28.285 Y21.096 Z6.668 F1999.998
G1 X27.426 Y21.602 Z6.668 F1999.998
G1 X26.596 Y22.154 Z6.668 F1999.998
G1 X25.797 Y22.748 Z6.668 F1999.998
G1 X25.030 Y23.385 Z6.668 F1999.998
G1 X24.298 Y24.061 Z6.668 F1999.998
G1 X23.603 Y24.776 Z6.668 F1999.998
G1 X22.947 Y25.526 Z6.668 F1999.998
G1 X22.332 Y26.310 Z6.668 F1999.998
G1 X21.760 Y27.126 Z6.515 F1999.998
G1 X21.232 Y27.971 Z5.353 F1999.998
G1 X20.749 Y28.843 Z6.320 F1999.998
G1 X20.314 Y29.739 Z6.668 F1999.998
G1 X19.927 Y30.658 Z6.668 F1999.998
G1 X19.589 Y31.595 Z6.668 F1999.998
G1 X19.302 Y32.549 Z6.668 F1999.998
G1 X19.066 Y33.518 Z6.668 F1999.998
G1 X18.882 Y34.497 Z6.668 F1999.998
G1 X18.750 Y35.485 Z6.668 F1999.998
G1 X18.671 Y36.478 Z6.668 F1999.998
G1 X18.645 Y37.474 Z6.668 F1999.998
G1 X18.672 Y38.470 Z6.668 F1999.998
G1 X18.752 Y39.464 Z6.668 F1999.998
G1 X18.884 Y40.451 Z6.668 F1999.998
G1 X19.069 Y41.431 Z6.668 F1999.998
G1 X19.306 Y42.399 Z6.668 F1999.998
G1 X19.594 Y43.353 Z6.668 F1999.998
G1 X19.933 Y44.290 Z6.668 F1999.998
G1 X20.321 Y45.208 Z6.668 F1999.998
G1 X20.757 Y46.104 Z6.307 F1999.998
G1 X21.240 Y46.975 Z5.353 F1999.998
G1 X21.769 Y47.820 Z6.522 F1999.998
G1 X22.342 Y48.635 Z6.668 F1999.998
G1 X22.958 Y49.419 Z6.667 F1999.998
G1 X23.614 Y50.169 Z6.668 F1999.998
G1 X24.310 Y50.882 Z6.668 F1999.998
G1 X25.042 Y51.558 Z6.668 F1999.998
G1 X25.809 Y52.194 Z6.668 F1999.998
G1 X26.609 Y52.788 Z6.668 F1999.998
G1 X27.440 Y53.339 Z6.668 F1999.998
G1 X28.299 Y53.844 Z6.668 F1999.998
G1 X29.183 Y54.304 Z6.668 F1999.998
G1 X30.091 Y54.715 Z6.668 F1999.998
G1 X31.019 Y55.078 Z6.668 F1999.998
G1 X31.965 Y55.391 Z6.668 F1999.998
G1 X32.927 Y55.653 Z6.668 F1999.998
G1 X33.901 Y55.863 Z6.668 F1999.998
G1 X34.885 Y56.021 Z6.668 F1999.998
G1 X35.875 Y56.127 Z6.631 F1999.998
G1 X36.871 Y56.180 Z5.956 F1999.998
G1 X37.867 Y56.180 Z5.967 F1999.998
G1 X38.862 Y56.126 Z6.633 F1999.998
G1 X39.853 Y56.020 Z6.668 F1999.998
G1 X40.837 Y55.861 Z6.668 F1999.998
G1 X41.811 Y55.651 Z6.668 F1999.998
G1 X42.772 Y55.388 Z6.668 F1999.998
G1 X43.718 Y55.075 Z6.668 F1999.998
G1 X44.646 Y54.712 Z6.668 F1999.998
G1 X45.554 Y54.300 Z6.668 F1999.998
G1 X46.438 Y53.841 Z6.668 F1999.998
G1 X47.297 Y53.334 Z6.668 F1999.998
G1 X48.127 Y52.783 Z6.668 F1999.998
G1 X48.927 Y52.189 Z6.668 F1999.998
G1 X49.694 Y51.553 Z6.668 F1999.998
G1 X50.426 Y50.877 Z6.668 F1999.998
G1 X51.121 Y50.163 Z6.668 F1999.998
G1 X51.777 Y49.413 Z6.668 F1999.998
G1 X52.393 Y48.629 Z6.668 F1999.998
G1 X52.965 Y47.813 Z6.519 F1999.998
G1 X53.494 Y46.969 Z5.353 F1999.998
G1 X53.977 Y46.097 Z6.313 F1999.998
G1 X54.412 Y45.201 Z6.668 F1999.998
G1 X54.800 Y44.282 Z6.668 F1999.998
G1 X55.138 Y43.345 Z6.668 F1999.998
G1 X55.426 Y42.391 Z6.668 F1999.998
G1 X55.662 Y41.423 Z6.668 F1999.998
G1 X55.847 Y40.444 Z6.668 F1999.998
G1 X55.979 Y39.456 Z6.668 F1999.998
G1 X56.058 Y38.462 Z6.668 F1999.998
G1 X56.085 Y37.466 Z6.668 F1999.998
G1 X56.085 Y37.450 Z6.668 F1999.998
(End of step 35.)
(Begin step 36.)
G1 X56.565 Y37.450 Z6.440 F1999.998
(part 1.)
G1 X56.565 Y37.450 Z6.440 F1999.998
G1 X56.538 Y36.454 Z6.440 F1999.998
G1 X56.460 Y35.460 Z6.440 F1999.998
G1 X56.330 Y34.472 Z6.440 F1999.998
G1 X56.149 Y33.492 Z6.440 F1999.998
G1 X55.917 Y32.522 Z6.440 F1999.998
G1 X55.636 Y31.566 Z6.440 F1999.998
G1 X55.305 Y30.626 Z6.440 F1999.998
G1 X54.926 Y29.704 Z6.440 F1999.998
G1 X54.499 Y28.803 Z6.247 F1999.998
G1 X54.027 Y27.926 Z5.779 F1999.998
G1 X53.509 Y27.074 Z6.164 F1999.998
G1 X52.948 Y26.250 Z6.440 F1999.998
G1 X52.345 Y25.456 Z6.440 F1999.998
G1 X51.701 Y24.695 Z6.440 F1999.998
G1 X51.019 Y23.968 Z6.440 F1999.998
G1 X50.300 Y23.278 Z6.440 F1999.998
G1 X49.547 Y22.626 Z6.440 F1999.998
G1 X48.760 Y22.013 Z6.440 F1999.998
G1 X47.943 Y21.443 Z6.440 F1999.998
G1 X47.097 Y20.915 Z6.440 F1999.998
G1 X46.225 Y20.433 Z6.440 F1999.998
G1 X45.329 Y19.996 Z6.440 F1999.998
G1 X44.412 Y19.606 Z6.440 F1999.998
G1 X43.475 Y19.264 Z6.440 F1999.998
G1 X42.522 Y18.972 Z6.440 F1999.998
G1 X41.556 Y18.729 Z6.440 F1999.998
G1 X40.578 Y18.537 Z6.440 F1999.998
G1 X39.591 Y18.396 Z6.440 F1999.998
G1 X38.598 Y18.306 Z6.326 F1999.998
G1 X37.602 Y18.268 Z5.778 F1999.998
G1 X36.605 Y18.281 Z6.034 F1999.998
G1 X35.611 Y18.347 Z6.439 F1999.998
G1 X34.621 Y18.463 Z6.440 F1999.998
G1 X33.638 Y18.631 Z6.440 F1999.998
G1 X32.666 Y18.850 Z6.440 F1999.998
G1 X31.706 Y19.119 Z6.440 F1999.998
G1 X30.762 Y19.437 Z6.440 F1999.998
G1 X29.835 Y19.804 Z6.440 F1999.998
G1 X28.928 Y20.219 Z6.440 F1999.998
G1 X28.045 Y20.680 Z6.440 F1999.998
G1 X27.186 Y21.186 Z6.440 F1999.998
G1 X26.355 Y21.737 Z6.440 F1999.998
G1 X25.554 Y22.329 Z6.440 F1999.998
G1 X24.784 Y22.963 Z6.440 F1999.998
G1 X24.048 Y23.635 Z6.440 F1999.998
G1 X23.348 Y24.345 Z6.440 F1999.998
G1 X22.686 Y25.090 Z6.440 F1999.998
G1 X22.064 Y25.868 Z6.440 F1999.998
G1 X21.482 Y26.678 Z6.383 F1999.998
G1 X20.944 Y27.517 Z5.775 F1999.998
G1 X20.450 Y28.382 Z5.864 F1999.998
G1 X20.001 Y29.272 Z6.423 F1999.998
G1 X19.599 Y30.185 Z6.440 F1999.998
G1 X19.245 Y31.116 Z6.440 F1999.998
G1 X18.940 Y32.065 Z6.440 F1999.998
G1 X18.685 Y33.029 Z6.440 F1999.998
G1 X18.480 Y34.004 Z6.440 F1999.998
G1 X18.325 Y34.989 Z6.440 F1999.998
G1 X18.222 Y35.980 Z6.440 F1999.998
G1 X18.171 Y36.976 Z6.440 F1999.998
G1 X18.172 Y37.973 Z6.440 F1999.998
G1 X18.224 Y38.968 Z6.440 F1999.998
G1 X18.327 Y39.959 Z6.440 F1999.998
G1 X18.482 Y40.944 Z6.440 F1999.998
G1 X18.688 Y41.919 Z6.440 F1999.998
G1 X18.945 Y42.882 Z6.440 F1999.998
G1 X19.251 Y43.831 Z6.440 F1999.998
G1 X19.605 Y44.763 Z6.440 F1999.998
G1 X20.008 Y45.674 Z6.420 F1999.998
G1 X20.457 Y46.564 Z5.845 F1999.998
G1 X20.952 Y47.429 Z5.775 F1999.998
G1 X21.491 Y48.268 Z6.388 F1999.998
G1 X22.073 Y49.077 Z6.440 F1999.998
G1 X22.697 Y49.855 Z6.440 F1999.998
G1 X23.359 Y50.599 Z6.440 F1999.998
G1 X24.060 Y51.309 Z6.440 F1999.998
G1 X24.796 Y51.980 Z6.440 F1999.998
G1 X25.566 Y52.613 Z6.440 F1999.998
G1 X26.368 Y53.205 Z6.440 F1999.998
G1 X27.200 Y53.755 Z6.440 F1999.998
G1 X28.059 Y54.260 Z6.440 F1999.998
G1 X28.943 Y54.721 Z6.440 F1999.998
G1 X29.850 Y55.134 Z6.440 F1999.998
G1 X30.777 Y55.501 Z6.440 F1999.998
G1 X31.721 Y55.818 Z6.440 F1999.998
G1 X32.682 Y56.086 Z6.440 F1999.998
G1 X33.654 Y56.304 Z6.440 F1999.998
G1 X34.637 Y56.471 Z6.440 F1999.998
G1 X35.627 Y56.587 Z6.438 F1999.998
G1 X36.621 Y56.652 Z6.020 F1999.998
G1 X37.618 Y56.665 Z5.778 F1999.998
G1 X38.614 Y56.626 Z6.333 F1999.998
G1 X39.607 Y56.535 Z6.440 F1999.998
G1 X40.593 Y56.393 Z6.440 F1999.998
G1 X41.571 Y56.200 Z6.440 F1999.998
G1 X42.538 Y55.956 Z6.440 F1999.998
G1 X43.490 Y55.663 Z6.440 F1999.998
G1 X44.426 Y55.321 Z6.440 F1999.998
G1 X45.344 Y54.930 Z6.440 F1999.998
G1 X46.239 Y54.492 Z6.440 F1999.998
G1 X47.111 Y54.009 Z6.440 F1999.998
G1 X47.956 Y53.481 Z6.440 F1999.998
G1 X48.773 Y52.910 Z6.440 F1999.998
G1 X49.559 Y52.297 Z6.440 F1999.998
G1 X50.312 Y51.644 Z6.440 F1999.998
G1 X51.031 Y50.953 Z6.440 F1999.998
G1 X51.712 Y50.226 Z6.440 F1999.998
G1 X52.355 Y49.464 Z6.440 F1999.998
G1 X52.957 Y48.670 Z6.440 F1999.998
G1 X53.518 Y47.845 Z6.153 F1999.998
G1 X54.035 Y46.993 Z5.779 F1999.998
G1 X54.507 Y46.115 Z6.255 F1999.998
G1 X54.932 Y45.214 Z6.440 F1999.998
G1 X55.311 Y44.292 Z6.440 F1999.998
G1 X55.641 Y43.351 Z6.440 F1999.998
G1 X55.922 Y42.395 Z6.440 F1999.998
G1 X56.152 Y41.425 Z6.440 F1999.998
G1 X56.332 Y40.445 Z6.440 F1999.998
G1 X56.461 Y39.456 Z6.440 F1999.998
G1 X56.539 Y38.463 Z6.440 F1999.998
G1 X56.565 Y37.466 Z6.440 F1999.998
G1 X56.565 Y37.450 Z6.440 F1999.998
(End of step 36.)
(Begin step 37.)
G1 X57.045 Y37.450 Z6.231 F1999.998
(part 1.)
G1 X57.045 Y37.450 Z6.231 F1999.998
G1 X57.019 Y36.454 Z6.231 F1999.998
G1 X56.942 Y35.460 Z6.231 F1999.998
G1 X56.816 Y34.471 Z6.231 F1999.998
G1 X56.639 Y33.490 Z6.231 F1999.998
G1 X56.413 Y32.519 Z6.231 F1999.998
G1 X56.138 Y31.560 Z6.231 F1999.998
G1 X55.815 Y30.617 Z6.231 F1999.998
G1 X55.444 Y29.692 Z6.231 F1999.998
G1 X55.027 Y28.786 Z6.150 F1999.998
G1 X54.565 Y27.903 Z5.960 F1999.998
G1 X54.059 Y27.044 Z5.955 F1999.998
G1 X53.509 Y26.212 Z6.225 F1999.998
G1 X52.919 Y25.409 Z6.231 F1999.998
G1 X52.288 Y24.636 Z6.231 F1999.998
G1 X51.619 Y23.897 Z6.231 F1999.998
G1 X50.914 Y23.193 Z6.231 F1999.998
G1 X50.173 Y22.525 Z6.231 F1999.998
G1 X49.400 Y21.895 Z6.231 F1999.998
G1 X48.596 Y21.306 Z6.231 F1999.998
G1 X47.764 Y20.758 Z6.231 F1999.998
G1 X46.904 Y20.253 Z6.231 F1999.998
G1 X46.020 Y19.792 Z6.231 F1999.998
G1 X45.114 Y19.376 Z6.231 F1999.998
G1 X44.188 Y19.007 Z6.231 F1999.998
G1 X43.244 Y18.685 Z6.231 F1999.998
G1 X42.286 Y18.411 Z6.231 F1999.998
G1 X41.314 Y18.187 Z6.231 F1999.998
G1 X40.333 Y18.011 Z6.231 F1999.998
G1 X39.344 Y17.886 Z6.230 F1999.998
G1 X38.350 Y17.811 Z5.997 F1999.998
G1 X37.353 Y17.786 Z5.961 F1999.998
G1 X36.356 Y17.812 Z6.011 F1999.998
G1 X35.362 Y17.888 Z6.231 F1999.998
G1 X34.373 Y18.015 Z6.231 F1999.998
G1 X33.392 Y18.191 Z6.231 F1999.998
G1 X32.421 Y18.417 Z6.231 F1999.998
G1 X31.463 Y18.692 Z6.231 F1999.998
G1 X30.520 Y19.015 Z6.231 F1999.998
G1 X29.594 Y19.385 Z6.231 F1999.998
G1 X28.688 Y19.802 Z6.231 F1999.998
G1 X27.805 Y20.264 Z6.231 F1999.998
G1 X26.946 Y20.771 Z6.231 F1999.998
G1 X26.114 Y21.320 Z6.231 F1999.998
G1 X25.310 Y21.910 Z6.231 F1999.998
G1 X24.538 Y22.541 Z6.231 F1999.998
G1 X23.799 Y23.209 Z6.231 F1999.998
G1 X23.094 Y23.915 Z6.231 F1999.998
G1 X22.426 Y24.655 Z6.231 F1999.998
G1 X21.797 Y25.428 Z6.231 F1999.998
G1 X21.207 Y26.232 Z6.223 F1999.998
G1 X20.659 Y27.064 Z5.956 F1999.998
G1 X20.153 Y27.924 Z5.960 F1999.998
G1 X19.692 Y28.808 Z6.158 F1999.998
G1 X19.276 Y29.714 Z6.231 F1999.998
G1 X18.907 Y30.640 Z6.231 F1999.998
G1 X18.585 Y31.583 Z6.230 F1999.998
G1 X18.311 Y32.542 Z6.231 F1999.998
G1 X18.086 Y33.513 Z6.231 F1999.998
G1 X17.911 Y34.494 Z6.231 F1999.998
G1 X17.785 Y35.483 Z6.231 F1999.998
G1 X17.710 Y36.478 Z6.231 F1999.998
G1 X17.685 Y37.474 Z6.231 F1999.998
G1 X17.711 Y38.471 Z6.231 F1999.998
G1 X17.787 Y39.465 Z6.231 F1999.998
G1 X17.913 Y40.454 Z6.231 F1999.998
G1 X18.089 Y41.435 Z6.231 F1999.998
G1 X18.315 Y42.406 Z6.231 F1999.998
G1 X18.590 Y43.365 Z6.231 F1999.998
G1 X18.912 Y44.308 Z6.231 F1999.998
G1 X19.283 Y45.234 Z6.231 F1999.998
G1 X19.699 Y46.139 Z6.152 F1999.998
G1 X20.161 Y47.023 Z5.960 F1999.998
G1 X20.667 Y47.882 Z5.955 F1999.998
G1 X21.216 Y48.714 Z6.224 F1999.998
G1 X21.806 Y49.518 Z6.231 F1999.998
G1 X22.437 Y50.290 Z6.231 F1999.998
G1 X23.105 Y51.030 Z6.231 F1999.998
G1 X23.810 Y51.734 Z6.231 F1999.998
G1 X24.550 Y52.402 Z6.231 F1999.998
G1 X25.323 Y53.032 Z6.231 F1999.998
G1 X26.127 Y53.622 Z6.231 F1999.998
G1 X26.959 Y54.170 Z6.231 F1999.998
G1 X27.819 Y54.676 Z6.231 F1999.998
G1 X28.703 Y55.137 Z6.231 F1999.998
G1 X29.609 Y55.553 Z6.231 F1999.998
G1 X30.535 Y55.923 Z6.231 F1999.998
G1 X31.478 Y56.245 Z6.231 F1999.998
G1 X32.437 Y56.519 Z6.231 F1999.998
G1 X33.408 Y56.744 Z6.231 F1999.998
G1 X34.389 Y56.920 Z6.231 F1999.998
G1 X35.378 Y57.046 Z6.231 F1999.998
G1 X36.372 Y57.121 Z6.002 F1999.998
G1 X37.369 Y57.146 Z5.962 F1999.998
G1 X38.366 Y57.121 Z6.007 F1999.998
