;FLAVOR:Marlin
;TIME:4427
;Filament used: 6.87522m
;Layer height: 0.25
;MINX:96.065
;MINY:62.55
;MINZ:0.2
;MAXX:138.935
;MAXY:172.45
;MAXZ:19.95
;Generated with Cura_SteamEngine 5.2.1
M140 S60
M105
M190 S60
M104 S205
M105
M109 S205
M82 ;absolute extrusion mode
; Ender 3 Custom Start G-code
G92 E0 ; Reset Extruder
G28 ; Home all axes
M420 S1 ; Rappel du bed levelling
G1 Z2.0 F3000 ; Move Z Axis up little to prevent scratching of Heat Bed
G1 X0.1 Y20 Z0.3 F5000.0 ; Move to start position
G1 X0.1 Y200.0 Z0.3 F1500.0 E15 ; Draw the first line
G1 X0.4 Y200.0 Z0.3 F5000.0 ; Move to side a little
G1 X0.4 Y20 Z0.3 F1500.0 E30 ; Draw the second line
G92 E0 ; Reset Extruder
G1 Z2.0 F3000 ; Move Z Axis up little to prevent scratching of Heat Bed
G1 X5 Y20 Z0.3 F5000.0 ; Move over to prevent blob squish
G92 E0
G92 E0
G1 F2700 E-6.5
;LAYER_COUNT:80
;LAYER:0
M107
M204 S1000
M205 X20 Y20
G0 F1285.7 X138.305 Y162.398 Z0.2
;TYPE:SKIRT
G1 F2700 E0
G1 F600 X137.958 Y163.059 E0.0298
G1 X137.544 Y163.679 E0.05955
G1 X136.896 Y164.425 E0.09899
G1 X130.91 Y170.411 E0.43687
G1 X130.356 Y170.91 E0.46662
G1 X129.75 Y171.346 E0.49642
G1 X129.102 Y171.715 E0.52618
G1 X128.418 Y172.012 E0.55595
G1 X127.706 Y172.235 E0.58572
G1 X126.974 Y172.38 E0.61551
G1 X125.989 Y172.45 E0.65492
G1 X109.011 Y172.45 E1.33255
G1 X108.266 Y172.41 E1.36233
G1 X107.53 Y172.291 E1.39208
G1 X106.811 Y172.093 E1.42185
G1 X106.117 Y171.82 E1.45161
G1 X105.456 Y171.473 E1.48141
G1 X104.836 Y171.059 E1.51116
G1 X104.09 Y170.411 E1.5506
G1 X98.104 Y164.425 E1.88848
G1 X97.605 Y163.871 E1.91824
G1 X97.169 Y163.265 E1.94803
G1 X96.8 Y162.617 E1.9778
G1 X96.503 Y161.933 E2.00756
G1 X96.28 Y161.221 E2.03734
G1 X96.135 Y160.489 E2.06712
G1 X96.065 Y159.504 E2.10653
G1 X96.065 Y79.07 E5.31683
G1 X96.065 Y78.058 E5.35722
G1 X96.065 Y69.51 E5.69839
G1 X96.105 Y68.765 E5.72817
G1 X96.224 Y68.029 E5.75792
G1 X96.422 Y67.31 E5.78769
G1 X96.695 Y66.616 E5.81745
G1 X97.042 Y65.955 E5.84725
G1 X97.456 Y65.335 E5.877
G1 X97.935 Y64.763 E5.90678
G1 X98.472 Y64.245 E5.93656
G1 X99.062 Y63.788 E5.96635
G1 X99.697 Y63.397 E5.99611
G1 X100.37 Y63.076 E6.02587
G1 X101.074 Y62.829 E6.05565
G1 X101.8 Y62.659 E6.08541
G1 X102.678 Y62.55 E6.12072
G1 X112.975 Y62.55 E6.5317
G1 X113.72 Y62.59 E6.56147
G1 X114.456 Y62.709 E6.59123
G1 X115.175 Y62.907 E6.62099
G1 X115.869 Y63.18 E6.65076
G1 X116.53 Y63.527 E6.68056
G1 X117.15 Y63.941 E6.71031
G1 X117.722 Y64.42 E6.74009
G1 X118.24 Y64.957 E6.76987
G1 X118.697 Y65.547 E6.79965
G1 X119.088 Y66.182 E6.82942
G1 X119.409 Y66.855 E6.85918
G1 X119.656 Y67.559 E6.88895
G1 X119.826 Y68.285 E6.91871
G1 X119.935 Y69.163 E6.95403
G1 X119.935 Y78.057 E7.30901
G1 X119.935 Y79.069 E7.3494
G1 X119.935 Y115.772 E8.81429
G1 X134.916 Y122.756 E9.474
G1 X135.574 Y123.107 E9.50376
G1 X136.191 Y123.526 E9.53353
G1 X136.759 Y124.009 E9.56329
G1 X137.273 Y124.55 E9.59307
G1 X137.726 Y125.143 E9.62286
G1 X138.112 Y125.781 E9.65262
G1 X138.428 Y126.457 E9.6824
G1 X138.67 Y127.162 E9.71215
G1 X138.835 Y127.89 E9.74194
G1 X138.935 Y128.752 E9.77658
G1 X138.935 Y159.504 E11.00396
G1 X138.895 Y160.249 E11.03374
G1 X138.776 Y160.985 E11.06349
G1 X138.578 Y161.704 E11.09326
G1 X138.305 Y162.398 E11.12302
G0 F1285.7 X137.825 Y162.29
G1 F600 X137.48 Y162.922 E11.15176
G1 X137.067 Y163.511 E11.18047
G1 X136.557 Y164.086 E11.21115
G1 X130.571 Y170.072 E11.54902
G1 X130.035 Y170.552 E11.57774
G1 X129.448 Y170.969 E11.60648
G1 X128.819 Y171.319 E11.63521
G1 X128.155 Y171.597 E11.66394
G1 X127.465 Y171.8 E11.69265
G1 X126.756 Y171.924 E11.72137
G1 X125.989 Y171.97 E11.75204
G1 X109.011 Y171.97 E12.42967
G1 X108.292 Y171.93 E12.45841
G1 X107.583 Y171.811 E12.48711
G1 X106.891 Y171.613 E12.51583
G1 X106.225 Y171.34 E12.54456
G1 X105.593 Y170.995 E12.5733
G1 X105.004 Y170.582 E12.60201
G1 X104.429 Y170.072 E12.63269
G1 X98.443 Y164.086 E12.97056
G1 X97.963 Y163.55 E12.99928
G1 X97.546 Y162.963 E13.02802
G1 X97.196 Y162.334 E13.05675
G1 X96.918 Y161.67 E13.08548
G1 X96.715 Y160.98 E13.11418
G1 X96.591 Y160.271 E13.14291
G1 X96.545 Y159.504 E13.17358
G1 X96.545 Y79.07 E16.38387
G1 X96.545 Y78.058 E16.42427
G1 X96.545 Y69.51 E16.76543
G1 X96.585 Y68.791 E16.79418
G1 X96.704 Y68.082 E16.82287
G1 X96.902 Y67.39 E16.8516
G1 X97.175 Y66.724 E16.88032
G1 X97.52 Y66.092 E16.90906
G1 X97.933 Y65.503 E16.93777
G1 X98.409 Y64.963 E16.9665
G1 X98.941 Y64.479 E16.99521
G1 X99.525 Y64.057 E17.02397
G1 X100.151 Y63.702 E17.05269
G1 X100.813 Y63.419 E17.08143
G1 X101.502 Y63.212 E17.11014
G1 X102.21 Y63.082 E17.13887
G1 X103.025 Y63.03 E17.17146
G1 X112.975 Y63.03 E17.56859
G1 X113.694 Y63.07 E17.59733
G1 X114.403 Y63.189 E17.62602
G1 X115.095 Y63.387 E17.65475
G1 X115.761 Y63.66 E17.68348
G1 X116.393 Y64.005 E17.71222
G1 X116.982 Y64.418 E17.74093
G1 X117.522 Y64.894 E17.76966
G1 X118.006 Y65.426 E17.79837
G1 X118.428 Y66.01 E17.82712
G1 X118.783 Y66.636 E17.85585
G1 X119.066 Y67.298 E17.88458
G1 X119.273 Y67.987 E17.9133
G1 X119.403 Y68.695 E17.94203
G1 X119.455 Y69.51 E17.97462
G1 X119.455 Y78.057 E18.31575
G1 X119.455 Y79.069 E18.35614
G1 X119.455 Y116.078 E19.83325
G1 X134.713 Y123.191 E20.50515
G1 X135.348 Y123.531 E20.5339
G1 X135.94 Y123.939 E20.5626
G1 X136.484 Y124.41 E20.59132
G1 X136.973 Y124.939 E20.62007
G1 X137.399 Y125.519 E20.64879
G1 X137.759 Y126.142 E20.67751
G1 X138.047 Y126.801 E20.70621
G1 X138.261 Y127.489 E20.73497
G1 X138.397 Y128.196 E20.76371
G1 X138.455 Y129.064 E20.79843
G1 X138.455 Y159.504 E22.01335
G1 X138.415 Y160.223 E22.04209
G1 X138.296 Y160.932 E22.07079
G1 X138.098 Y161.624 E22.09951
G1 X137.825 Y162.29 E22.12824
G0 F1285.7 X137.346 Y162.178
G1 F600 X137.002 Y162.779 E22.15588
G1 X136.488 Y163.477 E22.19048
G1 X130.232 Y169.733 E22.54359
G1 X129.715 Y170.193 E22.57121
G1 X129.148 Y170.591 E22.59886
G1 X128.539 Y170.921 E22.62651
G1 X127.896 Y171.179 E22.65416
G1 X127.228 Y171.361 E22.68179
G1 X126.37 Y171.49 E22.71642
G1 X109.011 Y171.49 E23.40926
G1 X108.32 Y171.45 E23.43688
G1 X107.637 Y171.331 E23.46456
G1 X106.974 Y171.133 E23.49217
G1 X106.337 Y170.861 E23.51982
G1 X105.736 Y170.517 E23.54746
G1 X105.038 Y170.003 E23.58205
G1 X98.782 Y163.747 E23.93517
G1 X98.322 Y163.23 E23.96279
G1 X97.924 Y162.663 E23.99044
G1 X97.594 Y162.054 E24.01808
G1 X97.336 Y161.411 E24.04573
G1 X97.154 Y160.743 E24.07337
G1 X97.025 Y159.885 E24.108
G1 X97.025 Y79.07 E27.3335
G1 X97.025 Y78.058 E27.37389
G1 X97.025 Y69.51 E27.71506
G1 X97.065 Y68.819 E27.74268
G1 X97.184 Y68.136 E27.77036
G1 X97.382 Y67.473 E27.79797
G1 X97.654 Y66.836 E27.82562
G1 X97.998 Y66.235 E27.85326
G1 X98.409 Y65.677 E27.88092
G1 X98.881 Y65.171 E27.90853
G1 X99.409 Y64.722 E27.9362
G1 X99.984 Y64.337 E27.96382
G1 X100.601 Y64.022 E27.99146
G1 X101.249 Y63.779 E28.01909
G1 X101.922 Y63.612 E28.04676
G1 X102.717 Y63.51 E28.07875
G1 X112.975 Y63.51 E28.48817
G1 X113.666 Y63.55 E28.5158
G1 X114.349 Y63.669 E28.54347
G1 X115.012 Y63.867 E28.57108
G1 X115.649 Y64.139 E28.59873
G1 X116.25 Y64.483 E28.62637
G1 X116.808 Y64.894 E28.65403
G1 X117.314 Y65.366 E28.68165
G1 X117.763 Y65.894 E28.70931
G1 X118.148 Y66.469 E28.73693
G1 X118.463 Y67.086 E28.76458
G1 X118.706 Y67.734 E28.7922
G1 X118.873 Y68.407 E28.81987
G1 X118.975 Y69.202 E28.85186
G1 X118.975 Y78.057 E29.20529
G1 X118.975 Y79.069 E29.24568
G1 X118.975 Y116.383 E30.73496
G1 X134.51 Y123.626 E31.41908
G1 X135.12 Y123.954 E31.44672
G1 X135.688 Y124.351 E31.47438
G1 X136.206 Y124.81 E31.502
G1 X136.668 Y125.326 E31.52964
G1 X137.068 Y125.892 E31.55731
G1 X137.399 Y126.5 E31.58494
G1 X137.659 Y127.142 E31.61258
G1 X137.842 Y127.809 E31.64019
G1 X137.975 Y128.668 E31.67488
G1 X137.975 Y159.504 E32.90561
G1 X137.935 Y160.195 E32.93324
G1 X137.816 Y160.878 E32.96091
G1 X137.618 Y161.541 E32.98852
G1 X137.346 Y162.178 E33.01617
G0 F1285.7 X137.139 Y161.455
G1 F600 X136.525 Y162.63 E33.06908
G1 X136.063 Y163.222 E33.09905
G1 X129.576 Y169.709 E33.46521
G1 X128.849 Y170.211 E33.50047
G1 X128.261 Y170.521 E33.527
G1 X126.996 Y170.917 E33.5799
G1 X126.247 Y171.01 E33.61003
G1 X108.567 Y171.01 E34.31567
G1 X107.695 Y170.851 E34.35105
G1 X107.06 Y170.654 E34.37759
G1 X105.885 Y170.04 E34.4305
G1 X105.293 Y169.578 E34.46047
G1 X98.806 Y163.091 E34.82663
G1 X98.304 Y162.364 E34.86189
G1 X97.994 Y161.776 E34.88842
G1 X97.598 Y160.511 E34.94132
G1 X97.505 Y159.762 E34.97145
G1 X97.505 Y79.07 E38.19204
G1 X97.505 Y78.058 E38.23243
G1 X97.505 Y69.066 E38.59132
G1 X97.664 Y68.194 E38.6267
G1 X97.861 Y67.559 E38.65323
G1 X98.475 Y66.384 E38.70615
G1 X99.352 Y65.389 E38.75908
G1 X100.441 Y64.632 E38.81202
G1 X101.046 Y64.357 E38.83854
G1 X102.332 Y64.034 E38.89146
G1 X103.025 Y63.99 E38.91918
G1 X113.419 Y63.99 E39.33403
G1 X114.291 Y64.149 E39.3694
G1 X114.926 Y64.346 E39.39594
G1 X116.101 Y64.96 E39.44885
G1 X117.096 Y65.837 E39.50179
G1 X117.853 Y66.926 E39.55472
G1 X118.128 Y67.531 E39.58125
G1 X118.451 Y68.817 E39.63417
G1 X118.495 Y69.51 E39.66188
G1 X118.495 Y78.057 E40.00301
G1 X118.495 Y79.069 E40.0434
G1 X118.495 Y116.689 E41.5449
G1 X134.712 Y124.25 E42.25905
G1 X135.433 Y124.762 E42.29434
G1 X135.925 Y125.208 E42.32085
G1 X136.731 Y126.261 E42.37377
G1 X137.262 Y127.476 E42.4267
G1 X137.414 Y128.123 E42.45322
G1 X137.495 Y129.064 E42.49092
G1 X137.495 Y159.948 E43.72356
G1 X137.336 Y160.82 E43.75894
G1 X137.139 Y161.455 E43.78548
G0 F1285.7 X136.856 Y160.761
G1 F600 X136.388 Y161.938 E43.83603
G1 X136.047 Y162.473 E43.86135
G1 X135.539 Y163.068 E43.89258
G1 X129.255 Y169.352 E44.24728
G1 X128.552 Y169.83 E44.28121
G1 X127.986 Y170.118 E44.30655
G1 X126.769 Y170.469 E44.3571
G1 X125.989 Y170.53 E44.38833
G1 X108.588 Y170.53 E45.08284
G1 X107.754 Y170.371 E45.11673
G1 X106.577 Y169.903 E45.16728
G1 X106.042 Y169.562 E45.1926
G1 X105.447 Y169.054 E45.22383
G1 X99.163 Y162.77 E45.57853
G1 X98.685 Y162.067 E45.61246
G1 X98.397 Y161.501 E45.6378
G1 X98.046 Y160.284 E45.68836
G1 X97.985 Y159.504 E45.71958
G1 X97.985 Y79.07 E48.92988
G1 X97.985 Y78.058 E48.97027
G1 X97.985 Y69.087 E49.32832
G1 X98.144 Y68.253 E49.36221
G1 X98.612 Y67.076 E49.41276
G1 X99.358 Y66.052 E49.46333
G1 X100.336 Y65.247 E49.51388
G1 X101.484 Y64.711 E49.56445
G1 X102.099 Y64.556 E49.58976
G1 X103.025 Y64.47 E49.62688
G1 X113.398 Y64.47 E50.04089
G1 X114.232 Y64.629 E50.07478
G1 X115.409 Y65.097 E50.12533
G1 X116.433 Y65.843 E50.1759
G1 X117.238 Y66.821 E50.22645
G1 X117.774 Y67.969 E50.27702
G1 X117.929 Y68.584 E50.30233
G1 X118.015 Y69.51 E50.33945
G1 X118.015 Y78.057 E50.68058
G1 X118.015 Y79.069 E50.72097
G1 X118.015 Y116.995 E52.23468
G1 X134.489 Y124.675 E52.96013
G1 X135.176 Y125.171 E52.99395
G1 X136.046 Y126.093 E53.04455
G1 X136.387 Y126.628 E53.06987
G1 X136.855 Y127.805 E53.12042
G1 X137.015 Y128.636 E53.1542
G1 X137.015 Y159.927 E54.40309
G1 X136.856 Y160.761 E54.43698
G0 F1285.7 X136.376 Y160.698
G1 F600 X136.18 Y161.269 E54.46107
G1 X135.91 Y161.809 E54.48517
G1 X135.469 Y162.458 E54.51649
G1 X128.926 Y169.001 E54.8858
G1 X128.257 Y169.446 E54.91787
G1 X127.141 Y169.902 E54.96599
G1 X126.372 Y170.05 E54.99724
G1 X108.608 Y170.05 E55.70624
G1 X107.817 Y169.891 E55.73844
G1 X107.246 Y169.695 E55.76254
G1 X106.706 Y169.425 E55.78663
G1 X106.057 Y168.984 E55.81795
G1 X99.514 Y162.441 E56.18727
G1 X99.069 Y161.772 E56.21934
G1 X98.613 Y160.656 E56.26745
G1 X98.465 Y159.887 E56.29871
G1 X98.465 Y79.07 E59.52429
G1 X98.465 Y78.058 E59.56468
G1 X98.465 Y69.107 E59.92193
G1 X98.624 Y68.316 E59.95414
G1 X98.82 Y67.745 E59.97823
G1 X99.09 Y67.205 E60.00233
G1 X99.831 Y66.255 E60.05042
G1 X100.795 Y65.532 E60.09851
G1 X101.914 Y65.087 E60.14657
G1 X102.668 Y64.95 E60.17716
G1 X113.378 Y64.95 E60.60462
G1 X114.169 Y65.109 E60.63682
G1 X114.74 Y65.305 E60.66092
G1 X115.28 Y65.575 E60.68501
G1 X116.23 Y66.316 E60.7331
G1 X116.953 Y67.28 E60.78119
G1 X117.398 Y68.399 E60.82926
G1 X117.535 Y69.153 E60.85984
G1 X117.535 Y78.057 E61.21522
G1 X117.535 Y79.069 E61.25561
G1 X117.535 Y117.301 E62.78153
G1 X134.267 Y125.101 E63.51834
G1 X134.917 Y125.58 E63.55057
G1 X135.727 Y126.472 E63.59866
G1 X136.036 Y126.99 E63.62273
G1 X136.437 Y128.126 E63.67081
G1 X136.535 Y128.815 E63.69859
G1 X136.535 Y159.907 E64.93954
G1 X136.376 Y160.698 E64.97174
G0 F1285.7 X135.896 Y160.632
G1 F600 X135.431 Y161.672 E65.01721
G1 X135.039 Y162.21 E65.04378
G1 X128.606 Y168.643 E65.40689
G1 X127.964 Y169.06 E65.43744
G1 X127.446 Y169.301 E65.46024
G1 X126.9 Y169.467 E65.48302
G1 X126.24 Y169.57 E65.50968
G1 X108.629 Y169.57 E66.21257
G1 X107.883 Y169.411 E66.24302
G1 X106.843 Y168.946 E66.28849
G1 X106.305 Y168.554 E66.31505
G1 X99.872 Y162.121 E66.67816
G1 X99.455 Y161.479 E66.70871
G1 X99.214 Y160.961 E66.73152
G1 X99.048 Y160.415 E66.75429
G1 X98.945 Y159.755 E66.78095
G1 X98.945 Y79.07 E70.00127
G1 X98.945 Y78.058 E70.04166
G1 X98.945 Y69.128 E70.39807
G1 X99.104 Y68.382 E70.42852
G1 X99.3 Y67.846 E70.4513
G1 X99.905 Y66.881 E70.49675
G1 X100.303 Y66.471 E70.51956
G1 X101.249 Y65.837 E70.56501
G1 X101.779 Y65.625 E70.5878
G1 X102.334 Y65.489 E70.6106
G1 X103.025 Y65.43 E70.63828
G1 X113.357 Y65.43 E71.05065
G1 X114.103 Y65.589 E71.0811
G1 X114.639 Y65.785 E71.10388
G1 X115.604 Y66.39 E71.14933
G1 X116.014 Y66.788 E71.17214
G1 X116.648 Y67.734 E71.21759
G1 X116.86 Y68.264 E71.24038
G1 X116.996 Y68.819 E71.26318
G1 X117.055 Y69.51 E71.29086
G1 X117.055 Y78.057 E71.63199
G1 X117.055 Y79.069 E71.67238
G1 X117.055 Y117.606 E73.21048
G1 X134.044 Y125.527 E73.95862
G1 X134.654 Y125.987 E73.98912
G1 X135.4 Y126.847 E74.03456
G1 X135.88 Y127.881 E74.08005
G1 X136.007 Y128.438 E74.10286
G1 X136.055 Y129.064 E74.12791
G1 X136.055 Y159.886 E75.35809
G1 X135.896 Y160.632 E75.38853
G0 F1285.7 X135.416 Y160.562
G1 F600 X135.221 Y161.061 E75.40991
G1 X134.953 Y161.526 E75.43133
G1 X134.521 Y162.05 E75.45844
G1 X128.285 Y168.286 E75.81043
G1 X127.674 Y168.671 E75.83925
G1 X126.665 Y169.026 E75.88194
G1 X125.989 Y169.09 E75.90904
G1 X108.652 Y169.09 E76.601
G1 X107.953 Y168.931 E76.62961
G1 X107.454 Y168.736 E76.65099
G1 X106.989 Y168.468 E76.67241
G1 X106.465 Y168.036 E76.69952
G1 X100.229 Y161.8 E77.05151
G1 X99.844 Y161.189 E77.08033
G1 X99.489 Y160.18 E77.12302
G1 X99.425 Y159.504 E77.15012
G1 X99.425 Y79.07 E80.36042
G1 X99.425 Y78.274 E80.39219
G1 X99.425 Y69.151 E80.75631
G1 X99.584 Y68.452 E80.78492
G1 X99.779 Y67.953 E80.8063
G1 X100.38 Y67.068 E80.849
G1 X100.772 Y66.702 E80.8704
G1 X101.697 Y66.164 E80.91311
G1 X102.208 Y66.004 E80.93448
G1 X102.808 Y65.91 E80.95872
G1 X113.334 Y65.91 E81.37884
G1 X114.033 Y66.069 E81.40745
G1 X114.532 Y66.264 E81.42883
G1 X115.417 Y66.865 E81.47153
G1 X115.783 Y67.257 E81.49293
G1 X116.321 Y68.182 E81.53564
G1 X116.481 Y68.693 E81.55701
G1 X116.575 Y69.293 E81.58125
G1 X116.575 Y78.057 E81.93104
G1 X116.575 Y78.853 E81.96281
G1 X116.575 Y117.912 E83.52174
G1 X133.823 Y125.953 E84.28128
G1 X134.388 Y126.392 E84.30984
G1 X134.758 Y126.78 E84.33124
G1 X135.306 Y127.699 E84.37394
G1 X135.472 Y128.209 E84.39535
G1 X135.575 Y128.828 E84.4204
G1 X135.575 Y159.863 E85.65907
G1 X135.416 Y160.562 E85.68768
G0 F1285.7 X134.936 Y160.486
G1 F600 X134.742 Y160.946 E85.70761
G1 X134.398 Y161.493 E85.7334
G1 X127.957 Y167.934 E86.09695
G1 X127.388 Y168.279 E86.12351
G1 X126.926 Y168.466 E86.14341
G1 X126.294 Y168.61 E86.16928
G1 X108.676 Y168.61 E86.87245
G1 X108.029 Y168.451 E86.89904
G1 X107.569 Y168.257 E86.91897
G1 X107.022 Y167.913 E86.94476
G1 X100.581 Y161.472 E87.30831
G1 X100.236 Y160.903 E87.33487
G1 X100.049 Y160.441 E87.35477
G1 X99.905 Y159.809 E87.38064
G1 X99.905 Y79.07 E90.6031
G1 X99.95 Y78.551 E90.6239
G1 X99.905 Y78.058 E90.64365
G1 X99.905 Y69.175 E90.99819
G1 X100.064 Y68.528 E91.02479
G1 X100.258 Y68.068 E91.04471
G1 X100.853 Y67.27 E91.08444
G1 X101.238 Y66.952 E91.10437
G1 X101.669 Y66.7 E91.1243
G1 X102.135 Y66.52 E91.14424
G1 X102.745 Y66.39 E91.16913
G1 X113.31 Y66.39 E91.5908
G1 X113.957 Y66.549 E91.61739
G1 X114.417 Y66.743 E91.63732
G1 X115.215 Y67.338 E91.67705
G1 X115.533 Y67.723 E91.69698
G1 X115.785 Y68.154 E91.7169
G1 X115.965 Y68.62 E91.73684
G1 X116.095 Y69.23 E91.76173
G1 X116.095 Y78.057 E92.11404
G1 X116.05 Y78.576 E92.13483
