(Exported by FreeCAD)
(Post Processor: grbl_post)
(Output Time:2024-04-19 11:12:42.663083)
(Begin preamble)
G17 G90
G21
(Begin operation: 6 ball L24 Q007)
(Path: 6 ball L24 Q007)
(6 ball L24 Q007)
(Begin toolchange)
( M6 T3 )
M3 S24000
(Finish operation: 6 ball L24 Q007)
(Begin operation: Fixture)
(Path: Fixture)
G54
(Finish operation: Fixture)
(Begin operation: Surface)
(Path: Surface)
(Surface)
(Surface)
(Tool type: ballend)
(Compensated Tool Path. Diameter: 6.0)
(Sample interval: 1.0)
(Step over %: 15.0)
()
G0 Z5.000
(Beginning of Single-pass layer.)
G0 X258.600 Y254.800
(Begin step 0.)
(part 1.)
G1 X258.600 Y254.800 Z-4.266 F3000.000
G2 X258.600 Y254.800 Z-4.266 I-3.600 J0.030 K4.266 F3000.000
G1 X258.600 Y254.800 Z-4.266 F3000.000
(End of step 0.)
(Begin step 1.)
G0 Z3.000
G0 X259.500 Y254.800
(part 1.)
G1 X259.500 Y254.800 Z-4.265 F3000.000
G2 X259.500 Y254.800 Z-4.265 I-4.500 J0.030 K4.265 F3000.000
G1 X259.500 Y254.800 Z-4.265 F3000.000
(End of step 1.)
(Begin step 2.)
G0 Z3.000
G0 X260.400 Y254.800
(part 1.)
G1 X260.400 Y254.800 Z-4.265 F3000.000
G2 X260.400 Y254.800 Z-4.265 I-5.400 J0.030 K4.265 F3000.000
G1 X260.400 Y254.800 Z-4.265 F3000.000
(End of step 2.)
(Begin step 3.)
G0 Z3.000
G0 X261.300 Y254.800
(part 1.)
G1 X261.300 Y254.800 Z-4.264 F3000.000
G2 X261.300 Y254.800 Z-4.264 I-6.300 J0.030 K4.264 F3000.000
G1 X261.300 Y254.800 Z-4.264 F3000.000
(End of step 3.)
(Begin step 4.)
G0 Z3.000
G0 X262.200 Y254.800
(part 1.)
G1 X262.200 Y254.800 Z-4.264 F3000.000
G2 X262.200 Y254.800 Z-4.264 I-7.200 J0.030 K4.264 F3000.000
G1 X262.200 Y254.800 Z-4.264 F3000.000
(End of step 4.)
(Begin step 5.)
G0 Z3.000
G0 X263.100 Y254.800
(part 1.)
G1 X263.100 Y254.800 Z-4.263 F3000.000
G2 X263.100 Y254.800 Z-4.263 I-8.100 J0.030 K4.263 F3000.000
G1 X263.100 Y254.800 Z-4.263 F3000.000
(End of step 5.)
(Begin step 6.)
G0 Z3.000
G0 X264.000 Y254.800
(part 1.)
G1 X264.000 Y254.800 Z-4.262 F3000.000
G2 X264.000 Y254.800 Z-4.262 I-9.000 J0.030 K4.262 F3000.000
G1 X264.000 Y254.800 Z-4.262 F3000.000
(End of step 6.)
(Begin step 7.)
G0 Z3.000
G0 X264.900 Y254.800
(part 1.)
G1 X264.900 Y254.800 Z-4.261 F3000.000
G2 X264.900 Y254.800 Z-4.261 I-9.900 J0.030 K4.261 F3000.000
G1 X264.900 Y254.800 Z-4.261 F3000.000
(End of step 7.)
(Begin step 8.)
G0 Z3.000
G0 X265.800 Y254.800
(part 1.)
G1 X265.800 Y254.800 Z-4.259 F3000.000
G2 X265.800 Y254.800 Z-4.259 I-10.800 J0.030 K4.259 F3000.000
G1 X265.800 Y254.800 Z-4.259 F3000.000
(End of step 8.)
(Begin step 9.)
G0 Z3.000
G0 X266.700 Y254.800
(part 1.)
G1 X266.700 Y254.800 Z-4.258 F3000.000
G2 X266.700 Y254.800 Z-4.258 I-11.700 J0.030 K4.258 F3000.000
G1 X266.700 Y254.800 Z-4.258 F3000.000
(End of step 9.)
(Begin step 10.)
G0 Z3.000
G0 X267.600 Y254.800
(part 1.)
G1 X267.600 Y254.800 Z-4.256 F3000.000
G2 X267.600 Y254.800 Z-4.256 I-12.600 J0.030 K4.256 F3000.000
G1 X267.600 Y254.800 Z-4.256 F3000.000
(End of step 10.)
(Begin step 11.)
G0 Z3.000
G0 X268.500 Y254.800
(part 1.)
G1 X268.500 Y254.800 Z-4.255 F3000.000
G2 X268.500 Y254.800 Z-4.255 I-13.500 J0.030 K4.255 F3000.000
G1 X268.500 Y254.800 Z-4.255 F3000.000
(End of step 11.)
(Begin step 12.)
G0 Z3.000
G0 X269.400 Y254.800
(part 1.)
G1 X269.400 Y254.800 Z-4.253 F3000.000
G2 X269.400 Y254.800 Z-4.253 I-14.400 J0.030 K4.253 F3000.000
G1 X269.400 Y254.800 Z-4.253 F3000.000
(End of step 12.)
(Begin step 13.)
G0 Z3.000
G0 X270.300 Y254.800
(part 1.)
G1 X270.300 Y254.800 Z-4.252 F3000.000
G2 X270.300 Y254.800 Z-4.252 I-15.300 J0.030 K4.252 F3000.000
G1 X270.300 Y254.800 Z-4.252 F3000.000
(End of step 13.)
(Begin step 14.)
G0 Z3.000
G0 X271.200 Y254.800
(part 1.)
G1 X271.200 Y254.800 Z-4.250 F3000.000
G2 X271.200 Y254.800 Z-4.250 I-16.200 J0.030 K4.250 F3000.000
G1 X271.200 Y254.800 Z-4.250 F3000.000
(End of step 14.)
(Begin step 15.)
G0 Z3.000
G0 X272.100 Y254.800
(part 1.)
G1 X272.100 Y254.800 Z-4.249 F3000.000
G2 X272.100 Y254.800 Z-4.249 I-17.100 J0.030 K4.249 F3000.000
G1 X272.100 Y254.800 Z-4.249 F3000.000
(End of step 15.)
(Begin step 16.)
G0 Z3.000
G0 X273.000 Y254.800
(part 1.)
G1 X273.000 Y254.800 Z-4.246 F3000.000
G2 X273.000 Y254.800 Z-4.246 I-18.000 J0.030 K4.246 F3000.000
G1 X273.000 Y254.800 Z-4.246 F3000.000
(End of step 16.)
(Begin step 17.)
G0 Z3.000
G0 X273.900 Y254.800
(part 1.)
G1 X273.900 Y254.800 Z-4.244 F3000.000
G2 X273.900 Y254.800 Z-4.244 I-18.900 J0.030 K4.244 F3000.000
G1 X273.900 Y254.800 Z-4.244 F3000.000
(End of step 17.)
(Begin step 18.)
G0 Z3.000
G0 X274.800 Y254.800
(part 1.)
G1 X274.800 Y254.800 Z-4.241 F3000.000
G2 X274.800 Y254.800 Z-4.241 I-19.800 J0.030 K4.241 F3000.000
G1 X274.800 Y254.800 Z-4.241 F3000.000
(End of step 18.)
(Begin step 19.)
G0 Z3.000
G0 X275.700 Y254.800
(part 1.)
G1 X275.700 Y254.800 Z-4.239 F3000.000
G2 X275.700 Y254.800 Z-4.239 I-20.700 J0.030 K4.239 F3000.000
G1 X275.700 Y254.800 Z-4.239 F3000.000
(End of step 19.)
(Begin step 20.)
G0 Z3.000
G0 X276.600 Y254.800
(part 1.)
G1 X276.600 Y254.800 Z-4.236 F3000.000
G2 X276.600 Y254.800 Z-4.236 I-21.600 J0.030 K4.236 F3000.000
G1 X276.600 Y254.800 Z-4.236 F3000.000
(End of step 20.)
(Begin step 21.)
G0 Z3.000
G0 X277.500 Y254.800
(part 1.)
G1 X277.500 Y254.800 Z-4.234 F3000.000
G2 X277.500 Y254.800 Z-4.234 I-22.500 J0.030 K4.234 F3000.000
G1 X277.500 Y254.800 Z-4.234 F3000.000
(End of step 21.)
(Begin step 22.)
G0 Z3.000
G0 X278.400 Y254.800
(part 1.)
G1 X278.400 Y254.800 Z-4.231 F3000.000
G2 X278.400 Y254.800 Z-4.231 I-23.400 J0.030 K4.231 F3000.000
G1 X278.400 Y254.800 Z-4.231 F3000.000
(End of step 22.)
(Begin step 23.)
G0 Z3.000
G0 X279.300 Y254.800
(part 1.)
G1 X279.300 Y254.800 Z-4.229 F3000.000
G2 X279.300 Y254.800 Z-4.229 I-24.300 J0.030 K4.229 F3000.000
G1 X279.300 Y254.800 Z-4.229 F3000.000
(End of step 23.)
(Begin step 24.)
G0 Z3.000
G0 X280.200 Y254.800
(part 1.)
G1 X280.200 Y254.800 Z-4.226 F3000.000
G2 X280.200 Y254.800 Z-4.226 I-25.200 J0.030 K4.226 F3000.000
G1 X280.200 Y254.800 Z-4.226 F3000.000
(End of step 24.)
(Begin step 25.)
G0 Z3.000
G0 X281.100 Y254.800
(part 1.)
G1 X281.100 Y254.800 Z-4.223 F3000.000
G2 X281.100 Y254.800 Z-4.223 I-26.100 J0.030 K4.223 F3000.000
G1 X281.100 Y254.800 Z-4.223 F3000.000
(End of step 25.)
(Begin step 26.)
G0 Z3.000
G0 X282.000 Y254.800
(part 1.)
G1 X282.000 Y254.800 Z-4.219 F3000.000
G2 X282.000 Y254.800 Z-4.219 I-27.000 J0.030 K4.219 F3000.000
G1 X282.000 Y254.800 Z-4.219 F3000.000
(End of step 26.)
(Begin step 27.)
G0 Z3.000
G0 X282.900 Y254.800
(part 1.)
G1 X282.900 Y254.800 Z-4.216 F3000.000
G2 X282.900 Y254.800 Z-4.216 I-27.900 J0.030 K4.216 F3000.000
G1 X282.900 Y254.800 Z-4.216 F3000.000
(End of step 27.)
(Begin step 28.)
G0 Z3.000
G0 X283.800 Y254.800
(part 1.)
G1 X283.800 Y254.800 Z-4.212 F3000.000
G2 X283.800 Y254.800 Z-4.212 I-28.800 J0.030 K4.212 F3000.000
G1 X283.800 Y254.800 Z-4.212 F3000.000
(End of step 28.)
(Begin step 29.)
G0 Z3.000
G0 X284.700 Y254.800
(part 1.)
G1 X284.700 Y254.800 Z-4.209 F3000.000
G2 X284.700 Y254.800 Z-4.209 I-29.700 J0.030 K4.209 F3000.000
G1 X284.700 Y254.800 Z-4.209 F3000.000
(End of step 29.)
(Begin step 30.)
G0 Z3.000
G0 X285.600 Y254.800
(part 1.)
G1 X285.600 Y254.800 Z-4.205 F3000.000
G2 X285.600 Y254.800 Z-4.205 I-30.600 J0.030 K4.205 F3000.000
G1 X285.600 Y254.800 Z-4.205 F3000.000
(End of step 30.)
(Begin step 31.)
G0 Z3.000
G0 X286.500 Y254.800
(part 1.)
G1 X286.500 Y254.800 Z-4.202 F3000.000
G2 X286.500 Y254.800 Z-4.202 I-31.500 J0.030 K4.202 F3000.000
G1 X286.500 Y254.800 Z-4.202 F3000.000
(End of step 31.)
(Begin step 32.)
G0 Z3.000
G0 X287.400 Y254.800
(part 1.)
G1 X287.400 Y254.800 Z-4.198 F3000.000
G2 X287.400 Y254.800 Z-4.198 I-32.400 J0.030 K4.198 F3000.000
G1 X287.400 Y254.800 Z-4.198 F3000.000
(End of step 32.)
(Begin step 33.)
G0 Z3.000
G0 X288.300 Y254.800
(part 1.)
G1 X288.300 Y254.800 Z-4.195 F3000.000
G2 X288.300 Y254.800 Z-4.195 I-33.300 J0.030 K4.195 F3000.000
G1 X288.300 Y254.800 Z-4.195 F3000.000
(End of step 33.)
(Begin step 34.)
G0 Z3.000
G0 X289.200 Y254.800
(part 1.)
G1 X289.200 Y254.800 Z-4.191 F3000.000
G2 X289.200 Y254.800 Z-4.191 I-34.200 J0.030 K4.191 F3000.000
G1 X289.200 Y254.800 Z-4.191 F3000.000
(End of step 34.)
(Begin step 35.)
G0 Z3.000
G0 X290.100 Y254.800
(part 1.)
G1 X290.100 Y254.800 Z-4.187 F3000.000
G2 X290.100 Y254.800 Z-4.187 I-35.100 J0.030 K4.187 F3000.000
G1 X290.100 Y254.800 Z-4.187 F3000.000
(End of step 35.)
(Begin step 36.)
G0 Z3.000
G0 X291.000 Y254.800
(part 1.)
G1 X291.000 Y254.800 Z-4.182 F3000.000
G2 X291.000 Y254.800 Z-4.182 I-36.000 J0.030 K4.182 F3000.000
G1 X291.000 Y254.800 Z-4.182 F3000.000
(End of step 36.)
(Begin step 37.)
G0 Z3.000
G0 X291.900 Y254.800
(part 1.)
G1 X291.900 Y254.800 Z-4.177 F3000.000
G2 X291.900 Y254.800 Z-4.177 I-36.900 J0.030 K4.177 F3000.000
G1 X291.900 Y254.800 Z-4.177 F3000.000
(End of step 37.)
(Begin step 38.)
G0 Z3.000
G0 X292.800 Y254.800
(part 1.)
G1 X292.800 Y254.800 Z-4.173 F3000.000
G2 X292.800 Y254.800 Z-4.173 I-37.800 J0.030 K4.173 F3000.000
G1 X292.800 Y254.800 Z-4.173 F3000.000
(End of step 38.)
(Begin step 39.)
G0 Z3.000
G0 X293.700 Y254.800
(part 1.)
G1 X293.700 Y254.800 Z-4.168 F3000.000
G2 X293.700 Y254.800 Z-4.168 I-38.700 J0.030 K4.168 F3000.000
G1 X293.700 Y254.800 Z-4.168 F3000.000
(End of step 39.)
(Begin step 40.)
G0 Z3.000
G0 X294.600 Y254.800
(part 1.)
G1 X294.600 Y254.800 Z-4.164 F3000.000
G2 X294.600 Y254.800 Z-4.164 I-39.600 J0.030 K4.164 F3000.000
G1 X294.600 Y254.800 Z-4.164 F3000.000
(End of step 40.)
(Begin step 41.)
G0 Z3.000
G0 X295.500 Y254.800
(part 1.)
G1 X295.500 Y254.800 Z-4.159 F3000.000
G2 X295.500 Y254.800 Z-4.159 I-40.500 J0.030 K4.159 F3000.000
G1 X295.500 Y254.800 Z-4.159 F3000.000
(End of step 41.)
(Begin step 42.)
G0 Z3.000
G0 X296.400 Y254.800
(part 1.)
G1 X296.400 Y254.800 Z-4.155 F3000.000
G2 X296.400 Y254.800 Z-4.155 I-41.400 J0.030 K4.155 F3000.000
G1 X296.400 Y254.800 Z-4.155 F3000.000
(End of step 42.)
(Begin step 43.)
G0 Z3.000
G0 X297.300 Y254.800
(part 1.)
G1 X297.300 Y254.800 Z-4.150 F3000.000
G2 X297.300 Y254.800 Z-4.150 I-42.300 J0.030 K4.150 F3000.000
G1 X297.300 Y254.800 Z-4.150 F3000.000
(End of step 43.)
(Begin step 44.)
G0 Z3.000
G0 X298.200 Y254.800
(part 1.)
G1 X298.200 Y254.800 Z-4.145 F3000.000
G2 X298.200 Y254.800 Z-4.145 I-43.200 J0.030 K4.145 F3000.000
G1 X298.200 Y254.800 Z-4.145 F3000.000
(End of step 44.)
(Begin step 45.)
G0 Z3.000
G0 X299.100 Y254.800
(part 1.)
G1 X299.100 Y254.800 Z-4.140 F3000.000
G2 X299.100 Y254.800 Z-4.140 I-44.100 J0.030 K4.140 F3000.000
G1 X299.100 Y254.800 Z-4.140 F3000.000
(End of step 45.)
(Begin step 46.)
G0 Z3.000
G0 X300.000 Y254.800
(part 1.)
G1 X300.000 Y254.800 Z-4.134 F3000.000
G2 X300.000 Y254.800 Z-4.134 I-45.000 J0.030 K4.134 F3000.000
G1 X300.000 Y254.800 Z-4.134 F3000.000
(End of step 46.)
(Begin step 47.)
G0 Z3.000
G0 X300.900 Y254.800
(part 1.)
G1 X300.900 Y254.800 Z-4.128 F3000.000
G2 X300.900 Y254.800 Z-4.128 I-45.900 J0.030 K4.128 F3000.000
G1 X300.900 Y254.800 Z-4.128 F3000.000
(End of step 47.)
(Begin step 48.)
G0 Z3.000
G0 X301.800 Y254.800
(part 1.)
G1 X301.800 Y254.800 Z-4.123 F3000.000
G2 X301.800 Y254.800 Z-4.123 I-46.800 J0.030 K4.123 F3000.000
G1 X301.800 Y254.800 Z-4.123 F3000.000
(End of step 48.)
(Begin step 49.)
G0 Z3.000
G0 X302.700 Y254.800
(part 1.)
G1 X302.700 Y254.800 Z-4.117 F3000.000
G2 X302.700 Y254.800 Z-4.117 I-47.700 J0.030 K4.117 F3000.000
G1 X302.700 Y254.800 Z-4.117 F3000.000
(End of step 49.)
(Begin step 50.)
G0 Z3.000
G0 X303.600 Y254.800
(part 1.)
G1 X303.600 Y254.800 Z-4.112 F3000.000
G2 X303.600 Y254.800 Z-4.112 I-48.600 J0.030 K4.112 F3000.000
G1 X303.600 Y254.800 Z-4.112 F3000.000
(End of step 50.)
(Begin step 51.)
G0 Z3.000
G0 X304.500 Y254.800
(part 1.)
G1 X304.500 Y254.800 Z-4.106 F3000.000
G2 X304.500 Y254.800 Z-4.106 I-49.500 J0.030 K4.106 F3000.000
G1 X304.500 Y254.800 Z-4.106 F3000.000
(End of step 51.)
(Begin step 52.)
G0 Z3.000
G0 X305.400 Y254.800
(part 1.)
G1 X305.400 Y254.800 Z-4.101 F3000.000
G2 X305.400 Y254.800 Z-4.101 I-50.400 J0.030 K4.101 F3000.000
G1 X305.400 Y254.800 Z-4.101 F3000.000
(End of step 52.)
(Begin step 53.)
G0 Z3.000
G0 X306.300 Y254.800
(part 1.)
G1 X306.300 Y254.800 Z-4.095 F3000.000
G2 X306.300 Y254.800 Z-4.095 I-51.300 J0.030 K4.095 F3000.000
G1 X306.300 Y254.800 Z-4.095 F3000.000
(End of step 53.)
(Begin step 54.)
G0 Z3.000
G0 X307.200 Y254.800
(part 1.)
G1 X307.200 Y254.800 Z-4.088 F3000.000
G2 X307.200 Y254.800 Z-4.088 I-52.200 J0.030 K4.088 F3000.000
G1 X307.200 Y254.800 Z-4.088 F3000.000
(End of step 54.)
(Begin step 55.)
G0 Z3.000
G0 X308.100 Y254.800
(part 1.)
G1 X308.100 Y254.800 Z-4.082 F3000.000
G2 X308.100 Y254.800 Z-4.082 I-53.100 J0.030 K4.082 F3000.000
G1 X308.100 Y254.800 Z-4.082 F3000.000
(End of step 55.)
(Begin step 56.)
G0 Z3.000
G0 X309.000 Y254.800
(part 1.)
G1 X309.000 Y254.800 Z-4.075 F3000.000
G2 X309.000 Y254.800 Z-4.075 I-54.000 J0.030 K4.075 F3000.000
G1 X309.000 Y254.800 Z-4.075 F3000.000
(End of step 56.)
(Begin step 57.)
G0 Z3.000
G0 X309.900 Y254.800
(part 1.)
G1 X309.900 Y254.800 Z-4.069 F3000.000
G2 X309.900 Y254.800 Z-4.069 I-54.900 J0.030 K4.069 F3000.000
G1 X309.900 Y254.800 Z-4.069 F3000.000
(End of step 57.)
(Begin step 58.)
G0 Z3.000
G0 X310.800 Y254.800
(part 1.)
G1 X310.800 Y254.800 Z-4.062 F3000.000
G2 X310.800 Y254.800 Z-4.062 I-55.800 J0.030 K4.062 F3000.000
G1 X310.800 Y254.800 Z-4.062 F3000.000
(End of step 58.)
(Begin step 59.)
G0 Z3.000
G0 X311.700 Y254.800
(part 1.)
G1 X311.700 Y254.800 Z-4.056 F3000.000
G2 X311.700 Y254.800 Z-4.056 I-56.700 J0.030 K4.056 F3000.000
G1 X311.700 Y254.800 Z-4.056 F3000.000
(End of step 59.)
(Begin step 60.)
G0 Z3.000
G0 X312.600 Y254.800
(part 1.)
G1 X312.600 Y254.800 Z-4.049 F3000.000
G2 X312.600 Y254.800 Z-4.049 I-57.600 J0.030 K4.049 F3000.000
G1 X312.600 Y254.800 Z-4.049 F3000.000
(End of step 60.)
(Begin step 61.)
G0 Z3.000
G0 X313.500 Y254.800
(part 1.)
G1 X313.500 Y254.800 Z-4.043 F3000.000
G2 X313.500 Y254.800 Z-4.043 I-58.500 J0.030 K4.043 F3000.000
G1 X313.500 Y254.800 Z-4.043 F3000.000
(End of step 61.)
(Begin step 62.)
G0 Z3.000
G0 X314.400 Y254.800
(part 1.)
G1 X314.400 Y254.800 Z-4.036 F3000.000
G2 X314.400 Y254.800 Z-4.036 I-59.400 J0.030 K4.036 F3000.000
G1 X314.400 Y254.800 Z-4.036 F3000.000
(End of step 62.)
(Begin step 63.)
G0 Z3.000
G0 X315.300 Y254.800
(part 1.)
G1 X315.300 Y254.800 Z-4.029 F3000.000
G2 X315.300 Y254.800 Z-4.029 I-60.300 J0.030 K4.029 F3000.000
G1 X315.300 Y254.800 Z-4.029 F3000.000
(End of step 63.)
(Begin step 64.)
G0 Z3.000
G0 X316.200 Y254.800
(part 1.)
G1 X316.200 Y254.800 Z-4.021 F3000.000
G2 X316.200 Y254.800 Z-4.021 I-61.200 J0.030 K4.021 F3000.000
G1 X316.200 Y254.800 Z-4.021 F3000.000
(End of step 64.)
(Begin step 65.)
G0 Z3.000
G0 X317.100 Y254.800
(part 1.)
G1 X317.100 Y254.800 Z-4.014 F3000.000
G2 X317.100 Y254.800 Z-4.014 I-62.100 J0.030 K4.014 F3000.000
G1 X317.100 Y254.800 Z-4.014 F3000.000
(End of step 65.)
(Begin step 66.)
G0 Z3.000
G0 X318.000 Y254.800
(part 1.)
G1 X318.000 Y254.800 Z-4.006 F3000.000
G2 X318.000 Y254.800 Z-4.006 I-63.000 J0.030 K4.006 F3000.000
G1 X318.000 Y254.800 Z-4.006 F3000.000
(End of step 66.)
(Begin step 67.)
G0 Z3.000
G0 X318.900 Y254.800
(part 1.)
G1 X318.900 Y254.800 Z-3.999 F3000.000
G2 X318.900 Y254.800 Z-3.999 I-63.900 J0.030 K3.999 F3000.000
G1 X318.900 Y254.800 Z-3.999 F3000.000
(End of step 67.)
(Begin step 68.)
G0 Z3.000
G0 X319.800 Y254.800
(part 1.)
G1 X319.800 Y254.800 Z-3.991 F3000.000
G2 X319.800 Y254.800 Z-3.991 I-64.800 J0.030 K3.991 F3000.000
G1 X319.800 Y254.800 Z-3.991 F3000.000
(End of step 68.)
(Begin step 69.)
G0 Z3.000
G0 X320.700 Y254.800
(part 1.)
G1 X320.700 Y254.800 Z-3.984 F3000.000
G2 X320.700 Y254.800 Z-3.984 I-65.700 J0.030 K3.984 F3000.000
G1 X320.700 Y254.800 Z-3.984 F3000.000
(End of step 69.)
(Begin step 70.)
G0 Z3.000
G0 X321.600 Y254.800
(part 1.)
G1 X321.600 Y254.800 Z-3.976 F3000.000
G2 X321.600 Y254.800 Z-3.976 I-66.600 J0.030 K3.976 F3000.000
G1 X321.600 Y254.800 Z-3.976 F3000.000
(End of step 70.)
(Begin step 71.)
G0 Z3.000
G0 X322.500 Y254.800
(part 1.)
G1 X322.500 Y254.800 Z-3.969 F3000.000
G2 X322.500 Y254.800 Z-3.969 I-67.500 J0.030 K3.969 F3000.000
G1 X322.500 Y254.800 Z-3.969 F3000.000
(End of step 71.)
(Begin step 72.)
G0 Z3.000
G0 X323.400 Y254.800
(part 1.)
G1 X323.400 Y254.800 Z-3.961 F3000.000
G2 X323.400 Y254.800 Z-3.961 I-68.400 J0.030 K3.961 F3000.000
G1 X323.400 Y254.800 Z-3.961 F3000.000
(End of step 72.)
(Begin step 73.)
G0 Z3.000
G0 X324.300 Y254.800
(part 1.)
G1 X324.300 Y254.800 Z-3.952 F3000.000
G2 X324.300 Y254.800 Z-3.952 I-69.300 J0.030 K3.952 F3000.000
G1 X324.300 Y254.800 Z-3.952 F3000.000
(End of step 73.)
(Begin step 74.)
G0 Z3.000
G0 X325.200 Y254.800
(part 1.)
G1 X325.200 Y254.800 Z-3.944 F3000.000
G2 X325.200 Y254.800 Z-3.944 I-70.200 J0.030 K3.944 F3000.000
G1 X325.200 Y254.800 Z-3.944 F3000.000
(End of step 74.)
(Begin step 75.)
G0 Z3.000
G0 X326.100 Y254.800
(part 1.)
G1 X326.100 Y254.800 Z-3.935 F3000.000
G2 X326.100 Y254.800 Z-3.935 I-71.100 J0.030 K3.935 F3000.000
G1 X326.100 Y254.800 Z-3.935 F3000.000
(End of step 75.)
(Begin step 76.)
G0 Z3.000
G0 X327.000 Y254.800
(part 1.)
G1 X327.000 Y254.800 Z-3.926 F3000.000
G2 X327.000 Y254.800 Z-3.926 I-72.000 J0.030 K3.926 F3000.000
G1 X327.000 Y254.800 Z-3.926 F3000.000
(End of step 76.)
(Begin step 77.)
G0 Z3.000
G0 X327.900 Y254.800
(part 1.)
G1 X327.900 Y254.800 Z-3.918 F3000.000
G2 X327.900 Y254.800 Z-3.918 I-72.900 J0.030 K3.918 F3000.000
G1 X327.900 Y254.800 Z-3.918 F3000.000
(End of step 77.)
(Begin step 78.)
G0 Z3.000
G0 X328.800 Y254.800
(part 1.)
G1 X328.800 Y254.800 Z-3.909 F3000.000
G2 X328.800 Y254.800 Z-3.909 I-73.800 J0.030 K3.909 F3000.000
G1 X328.800 Y254.800 Z-3.909 F3000.000
(End of step 78.)
(Begin step 79.)
G0 Z3.000
G0 X329.700 Y254.800
(part 1.)
G1 X329.700 Y254.800 Z-3.901 F3000.000
G2 X329.700 Y254.800 Z-3.901 I-74.700 J0.030 K3.901 F3000.000
G1 X329.700 Y254.800 Z-3.901 F3000.000
(End of step 79.)
(Begin step 80.)
G0 Z3.000
G0 X330.600 Y254.800
(part 1.)
G1 X330.600 Y254.800 Z-3.892 F3000.000
G2 X330.600 Y254.800 Z-3.892 I-75.600 J0.030 K3.892 F3000.000
G1 X330.600 Y254.800 Z-3.892 F3000.000
(End of step 80.)
(Begin step 81.)
G0 Z3.000
G0 X331.500 Y254.800
(part 1.)
G1 X331.500 Y254.800 Z-3.884 F3000.000
G2 X331.500 Y254.800 Z-3.884 I-76.500 J0.030 K3.884 F3000.000
G1 X331.500 Y254.800 Z-3.884 F3000.000
(End of step 81.)
(Begin step 82.)
G0 Z3.000
G0 X332.400 Y254.800
(part 1.)
G1 X332.400 Y254.800 Z-3.874 F3000.000
G2 X332.400 Y254.800 Z-3.874 I-77.400 J0.030 K3.874 F3000.000
G1 X332.400 Y254.800 Z-3.874 F3000.000
(End of step 82.)
(Begin step 83.)
G0 Z3.000
G0 X333.300 Y254.800
(part 1.)
G1 X333.300 Y254.800 Z-3.865 F3000.000
G2 X333.300 Y254.800 Z-3.865 I-78.300 J0.030 K3.865 F3000.000
G1 X333.300 Y254.800 Z-3.865 F3000.000
(End of step 83.)
(Begin step 84.)
G0 Z3.000
G0 X334.200 Y254.800
(part 1.)
G1 X334.200 Y254.800 Z-3.855 F3000.000
G2 X334.200 Y254.800 Z-3.855 I-79.200 J0.030 K3.855 F3000.000
G1 X334.200 Y254.800 Z-3.855 F3000.000
(End of step 84.)
(Begin step 85.)
G0 Z3.000
G0 X335.100 Y254.800
(part 1.)
G1 X335.100 Y254.800 Z-3.846 F3000.000
G2 X335.100 Y254.800 Z-3.846 I-80.100 J0.030 K3.846 F3000.000
G1 X335.100 Y254.800 Z-3.846 F3000.000
(End of step 85.)
(Begin step 86.)
G0 Z3.000
G0 X336.000 Y254.800
(part 1.)
G1 X336.000 Y254.800 Z-3.836 F3000.000
G2 X336.000 Y254.800 Z-3.836 I-81.000 J0.030 K3.836 F3000.000
G1 X336.000 Y254.800 Z-3.836 F3000.000
(End of step 86.)
(Begin step 87.)
G0 Z3.000
G0 X336.900 Y254.800
(part 1.)
G1 X336.900 Y254.800 Z-3.827 F3000.000
G2 X336.900 Y254.800 Z-3.827 I-81.900 J0.030 K3.827 F3000.000
G1 X336.900 Y254.800 Z-3.827 F3000.000
(End of step 87.)
(Begin step 88.)
G0 Z3.000
G0 X337.800 Y254.800
(part 1.)
G1 X337.800 Y254.800 Z-3.817 F3000.000
G2 X337.800 Y254.800 Z-3.817 I-82.800 J0.030 K3.817 F3000.000
G1 X337.800 Y254.800 Z-3.817 F3000.000
(End of step 88.)
(Begin step 89.)
G0 Z3.000
G0 X338.700 Y254.800
(part 1.)
G1 X338.700 Y254.800 Z-3.807 F3000.000
G2 X338.700 Y254.800 Z-3.807 I-83.700 J0.030 K3.807 F3000.000
G1 X338.700 Y254.800 Z-3.807 F3000.000
(End of step 89.)
(Begin step 90.)
G0 Z3.000
G0 X339.600 Y254.800
(part 1.)
G1 X339.600 Y254.800 Z-3.798 F3000.000
G2 X339.600 Y254.800 Z-3.798 I-84.600 J0.030 K3.798 F3000.000
G1 X339.600 Y254.800 Z-3.798 F3000.000
(End of step 90.)
(Begin step 91.)
G0 Z3.000
G0 X340.500 Y254.800
(part 1.)
G1 X340.500 Y254.800 Z-3.788 F3000.000
G2 X340.500 Y254.800 Z-3.788 I-85.500 J0.030 K3.788 F3000.000
G1 X340.500 Y254.800 Z-3.788 F3000.000
(End of step 91.)
(Begin step 92.)
G0 Z3.000
G0 X341.400 Y254.800
(part 1.)
G1 X341.400 Y254.800 Z-3.777 F3000.000
G2 X341.400 Y254.800 Z-3.777 I-86.400 J0.030 K3.777 F3000.000
G1 X341.400 Y254.800 Z-3.777 F3000.000
(End of step 92.)
(Begin step 93.)
G0 Z3.000
G0 X342.300 Y254.800
(part 1.)
G1 X342.300 Y254.800 Z-3.767 F3000.000
G2 X342.300 Y254.800 Z-3.767 I-87.300 J0.030 K3.767 F3000.000
G1 X342.300 Y254.800 Z-3.767 F3000.000
(End of step 93.)
(Begin step 94.)
G0 Z3.000
G0 X343.200 Y254.800
(part 1.)
G1 X343.200 Y254.800 Z-3.756 F3000.000
G2 X343.200 Y254.800 Z-3.756 I-88.200 J0.030 K3.756 F3000.000
G1 X343.200 Y254.800 Z-3.756 F3000.000
(End of step 94.)
(Begin step 95.)
G0 Z3.000
G0 X344.100 Y254.800
(part 1.)
G1 X344.100 Y254.800 Z-3.746 F3000.000
G2 X344.100 Y254.800 Z-3.746 I-89.100 J0.030 K3.746 F3000.000
G1 X344.100 Y254.800 Z-3.746 F3000.000
(End of step 95.)
(Begin step 96.)
G0 Z3.000
G0 X345.000 Y254.800
(part 1.)
G1 X345.000 Y254.800 Z-3.735 F3000.000
G2 X345.000 Y254.800 Z-3.735 I-90.000 J0.030 K3.735 F3000.000
G1 X345.000 Y254.800 Z-3.735 F3000.000
(End of step 96.)
(Begin step 97.)
G0 Z3.000
G0 X345.900 Y254.800
(part 1.)
G1 X345.900 Y254.800 Z-3.725 F3000.000
G2 X345.900 Y254.800 Z-3.725 I-90.900 J0.030 K3.725 F3000.000
G1 X345.900 Y254.800 Z-3.725 F3000.000
(End of step 97.)
(Begin step 98.)
G0 Z3.000
G0 X346.800 Y254.800
(part 1.)
G1 X346.800 Y254.800 Z-3.714 F3000.000
G2 X346.800 Y254.800 Z-3.714 I-91.800 J0.030 K3.714 F3000.000
G1 X346.800 Y254.800 Z-3.714 F3000.000
(End of step 98.)
(Begin step 99.)
G0 Z3.000
G0 X347.700 Y254.800
(part 1.)
G1 X347.700 Y254.800 Z-3.703 F3000.000
G2 X347.700 Y254.800 Z-3.703 I-92.700 J0.030 K3.703 F3000.000
G1 X347.700 Y254.800 Z-3.703 F3000.000
(End of step 99.)
(Begin step 100.)
G0 Z3.000
G0 X348.600 Y254.800
(part 1.)
G1 X348.600 Y254.800 Z-3.693 F3000.000
G2 X348.600 Y254.800 Z-3.693 I-93.600 J0.030 K3.693 F3000.000
G1 X348.600 Y254.800 Z-3.693 F3000.000
(End of step 100.)
(Begin step 101.)
G0 Z3.000
G0 X349.500 Y254.800
(part 1.)
G1 X349.500 Y254.800 Z-3.681 F3000.000
G2 X349.500 Y254.800 Z-3.681 I-94.500 J0.030 K3.681 F3000.000
G1 X349.500 Y254.800 Z-3.681 F3000.000
(End of step 101.)
(Begin step 102.)
G0 Z3.000
G0 X350.400 Y254.800
(part 1.)
G1 X350.400 Y254.800 Z-3.670 F3000.000
G2 X350.400 Y254.800 Z-3.670 I-95.400 J0.030 K3.670 F3000.000
G1 X350.400 Y254.800 Z-3.670 F3000.000
(End of step 102.)
(Begin step 103.)
G0 Z3.000
G0 X351.300 Y254.800
(part 1.)
G1 X351.300 Y254.800 Z-3.658 F3000.000
G2 X351.300 Y254.800 Z-3.658 I-96.300 J0.030 K3.658 F3000.000
G1 X351.300 Y254.800 Z-3.658 F3000.000
(End of step 103.)
(Begin step 104.)
G0 Z3.000
G0 X352.200 Y254.800
(part 1.)
G1 X352.200 Y254.800 Z-3.647 F3000.000
G2 X352.200 Y254.800 Z-3.647 I-97.200 J0.030 K3.647 F3000.000
G1 X352.200 Y254.800 Z-3.647 F3000.000
(End of step 104.)
(Begin step 105.)
G0 Z3.000
G0 X353.100 Y254.800
(part 1.)
G1 X353.100 Y254.800 Z-3.635 F3000.000
G2 X353.100 Y254.800 Z-3.635 I-98.100 J0.030 K3.635 F3000.000
G1 X353.100 Y254.800 Z-3.635 F3000.000
(End of step 105.)
(Begin step 106.)
G0 Z3.000
G0 X354.000 Y254.800
(part 1.)
G1 X354.000 Y254.800 Z-3.623 F3000.000
G2 X354.000 Y254.800 Z-3.623 I-99.000 J0.030 K3.623 F3000.000
G1 X354.000 Y254.800 Z-3.623 F3000.000
(End of step 106.)
(Begin step 107.)
G0 Z3.000
G0 X354.900 Y254.800
(part 1.)
G1 X354.900 Y254.800 Z-3.612 F3000.000
G2 X354.900 Y254.800 Z-3.612 I-99.900 J0.030 K3.612 F3000.000
G1 X354.900 Y254.800 Z-3.612 F3000.000
(End of step 107.)
(Begin step 108.)
G0 Z3.000
G0 X355.800 Y254.800
(part 1.)
G1 X355.800 Y254.800 Z-3.600 F3000.000
G2 X355.800 Y254.800 Z-3.600 I-100.800 J0.030 K3.600 F3000.000
G1 X355.800 Y254.800 Z-3.600 F3000.000
(End of step 108.)
(Begin step 109.)
G0 Z3.000
G0 X356.700 Y254.800
(part 1.)
G1 X356.700 Y254.800 Z-3.589 F3000.000
G2 X356.700 Y254.800 Z-3.589 I-101.700 J0.030 K3.589 F3000.000
G1 X356.700 Y254.800 Z-3.589 F3000.000
(End of step 109.)
(Begin step 110.)
G0 Z3.000
G0 X357.600 Y254.800
(part 1.)
G1 X357.600 Y254.800 Z-3.577 F3000.000
G2 X357.600 Y254.800 Z-3.577 I-102.600 J0.030 K3.577 F3000.000
G1 X357.600 Y254.800 Z-3.577 F3000.000
(End of step 110.)
(Begin step 111.)
G0 Z3.000
G0 X358.500 Y254.800
(part 1.)
G1 X358.500 Y254.800 Z-3.564 F3000.000
G2 X358.500 Y254.800 Z-3.564 I-103.500 J0.030 K3.564 F3000.000
G1 X358.500 Y254.800 Z-3.564 F3000.000
(End of step 111.)
(Begin step 112.)
G0 Z3.000
G0 X359.400 Y254.800
(part 1.)
G1 X359.400 Y254.800 Z-3.551 F3000.000
G2 X359.400 Y254.800 Z-3.551 I-104.400 J0.030 K3.551 F3000.000
G1 X359.400 Y254.800 Z-3.551 F3000.000
(End of step 112.)
(Begin step 113.)
G0 Z3.000
G0 X360.300 Y254.800
(part 1.)
G1 X360.300 Y254.800 Z-3.539 F3000.000
G2 X360.300 Y254.800 Z-3.539 I-105.300 J0.030 K3.539 F3000.000
G1 X360.300 Y254.800 Z-3.539 F3000.000
(End of step 113.)
(Begin step 114.)
G0 Z3.000
G0 X361.200 Y254.800
(part 1.)
G1 X361.200 Y254.800 Z-3.526 F3000.000
G2 X361.200 Y254.800 Z-3.526 I-106.200 J0.030 K3.526 F3000.000
G1 X361.200 Y254.800 Z-3.526 F3000.000
(End of step 114.)
(Begin step 115.)
G0 Z3.000
G0 X362.100 Y254.800
(part 1.)
G1 X362.100 Y254.800 Z-3.514 F3000.000
G2 X362.100 Y254.800 Z-3.514 I-107.100 J0.030 K3.514 F3000.000
G1 X362.100 Y254.800 Z-3.514 F3000.000
(End of step 115.)
(Begin step 116.)
G0 Z3.000
G0 X363.000 Y254.800
(part 1.)
G1 X363.000 Y254.800 Z-3.501 F3000.000
G2 X363.000 Y254.800 Z-3.501 I-108.000 J0.030 K3.501 F3000.000
G1 X363.000 Y254.800 Z-3.501 F3000.000
(End of step 116.)
(Begin step 117.)
G0 Z3.000
G0 X363.900 Y254.800
(part 1.)
G1 X363.900 Y254.800 Z-3.489 F3000.000
G2 X363.900 Y254.800 Z-3.489 I-108.900 J0.030 K3.489 F3000.000
G1 X363.900 Y254.800 Z-3.489 F3000.000
(End of step 117.)
(Begin step 118.)
G0 Z3.000
G0 X364.800 Y254.800
(part 1.)
G1 X364.800 Y254.800 Z-3.476 F3000.000
G2 X364.800 Y254.800 Z-3.476 I-109.800 J0.030 K3.476 F3000.000
G1 X364.800 Y254.800 Z-3.476 F3000.000
(End of step 118.)
(Begin step 119.)
G0 Z3.000
G0 X365.700 Y254.800
(part 1.)
G1 X365.700 Y254.800 Z-3.463 F3000.000
G2 X365.700 Y254.800 Z-3.463 I-110.700 J0.030 K3.463 F3000.000
G1 X365.700 Y254.800 Z-3.463 F3000.000
(End of step 119.)
(Begin step 120.)
G0 Z3.000
G0 X366.600 Y254.800
(part 1.)
G1 X366.600 Y254.800 Z-3.450 F3000.000
G2 X366.600 Y254.800 Z-3.450 I-111.600 J0.030 K3.450 F3000.000
G1 X366.600 Y254.800 Z-3.450 F3000.000
(End of step 120.)
(Begin step 121.)
G0 Z3.000
G0 X367.500 Y254.800
(part 1.)
G1 X367.500 Y254.800 Z-3.436 F3000.000
G2 X367.500 Y254.800 Z-3.436 I-112.500 J0.030 K3.436 F3000.000
G1 X367.500 Y254.800 Z-3.436 F3000.000
(End of step 121.)
(Begin step 122.)
G0 Z3.000
G0 X368.400 Y254.800
(part 1.)
G1 X368.400 Y254.800 Z-3.423 F3000.000
G2 X368.400 Y254.800 Z-3.423 I-113.400 J0.030 K3.423 F3000.000
G1 X368.400 Y254.800 Z-3.423 F3000.000
(End of step 122.)
(Begin step 123.)
G0 Z3.000
G0 X369.300 Y254.800
(part 1.)
G1 X369.300 Y254.800 Z-3.409 F3000.000
G2 X369.300 Y254.800 Z-3.409 I-114.300 J0.030 K3.409 F3000.000
G1 X369.300 Y254.800 Z-3.409 F3000.000
(End of step 123.)
(Begin step 124.)
G0 Z3.000
G0 X370.200 Y254.800
(part 1.)
G1 X370.200 Y254.800 Z-3.396 F3000.000
G2 X370.200 Y254.800 Z-3.396 I-115.200 J0.030 K3.396 F3000.000
G1 X370.200 Y254.800 Z-3.396 F3000.000
(End of step 124.)
(Begin step 125.)
G0 Z3.000
G0 X371.100 Y254.800
(part 1.)
G1 X371.100 Y254.800 Z-3.382 F3000.000
G2 X371.100 Y254.800 Z-3.382 I-116.100 J0.030 K3.382 F3000.000
G1 X371.100 Y254.800 Z-3.382 F3000.000
(End of step 125.)
(Begin step 126.)
G0 Z3.000
G0 X372.000 Y254.800
(part 1.)
G1 X372.000 Y254.800 Z-3.368 F3000.000
G2 X372.000 Y254.800 Z-3.368 I-117.000 J0.030 K3.368 F3000.000
G1 X372.000 Y254.800 Z-3.368 F3000.000
(End of step 126.)
(Begin step 127.)
G0 Z3.000
G0 X372.900 Y254.800
(part 1.)
G1 X372.900 Y254.800 Z-3.355 F3000.000
G2 X372.900 Y254.800 Z-3.355 I-117.900 J0.030 K3.355 F3000.000
G1 X372.900 Y254.800 Z-3.355 F3000.000
(End of step 127.)
(Begin step 128.)
G0 Z3.000
G0 X373.800 Y254.800
(part 1.)
G1 X373.800 Y254.800 Z-3.341 F3000.000
G2 X373.800 Y254.800 Z-3.341 I-118.800 J0.030 K3.341 F3000.000
G1 X373.800 Y254.800 Z-3.341 F3000.000
(End of step 128.)
(Begin step 129.)
G0 Z3.000
G0 X374.700 Y254.800
(part 1.)
G1 X374.700 Y254.800 Z-3.327 F3000.000
G2 X374.700 Y254.800 Z-3.327 I-119.700 J0.030 K3.327 F3000.000
G1 X374.700 Y254.800 Z-3.327 F3000.000
(End of step 129.)
(Begin step 130.)
G0 Z3.000
G0 X375.600 Y254.800
(part 1.)
G1 X375.600 Y254.800 Z-3.312 F3000.000
G2 X375.600 Y254.800 Z-3.312 I-120.600 J0.030 K3.312 F3000.000
G1 X375.600 Y254.800 Z-3.312 F3000.000
(End of step 130.)
(Begin step 131.)
G0 Z3.000
G0 X376.500 Y254.800
(part 1.)
G1 X376.500 Y254.800 Z-3.298 F3000.000
G2 X376.500 Y254.800 Z-3.298 I-121.500 J0.030 K3.298 F3000.000
G1 X376.500 Y254.800 Z-3.298 F3000.000
(End of step 131.)
(Begin step 132.)
G0 Z3.000
G0 X377.400 Y254.800
(part 1.)
G1 X377.400 Y254.800 Z-3.283 F3000.000
G2 X377.400 Y254.800 Z-3.283 I-122.400 J0.030 K3.283 F3000.000
G1 X377.400 Y254.800 Z-3.283 F3000.000
(End of step 132.)
(Begin step 133.)
G0 Z3.000
G0 X378.300 Y254.800
(part 1.)
G1 X378.300 Y254.800 Z-3.269 F3000.000
G2 X378.300 Y254.800 Z-3.269 I-123.300 J0.030 K3.269 F3000.000
G1 X378.300 Y254.800 Z-3.269 F3000.000
(End of step 133.)
(Begin step 134.)
G0 Z3.000
G0 X379.200 Y254.800
(part 1.)
G1 X379.200 Y254.800 Z-3.254 F3000.000
G2 X379.200 Y254.800 Z-3.254 I-124.200 J0.030 K3.254 F3000.000
G1 X379.200 Y254.800 Z-3.254 F3000.000
(End of step 134.)
(Begin step 135.)
G0 Z3.000
G0 X380.100 Y254.800
(part 1.)
G1 X380.100 Y254.800 Z-3.240 F3000.000
G2 X380.100 Y254.800 Z-3.240 I-125.100 J0.030 K3.240 F3000.000
G1 X380.100 Y254.800 Z-3.240 F3000.000
(End of step 135.)
(Begin step 136.)
G0 Z3.000
G0 X381.000 Y254.800
(part 1.)
G1 X381.000 Y254.800 Z-3.225 F3000.000
G2 X381.000 Y254.800 Z-3.225 I-126.000 J0.030 K3.225 F3000.000
G1 X381.000 Y254.800 Z-3.225 F3000.000
(End of step 136.)
(Begin step 137.)
G0 Z3.000
G0 X381.900 Y254.800
(part 1.)
G1 X381.900 Y254.800 Z-3.210 F3000.000
G2 X381.900 Y254.800 Z-3.210 I-126.900 J0.030 K3.210 F3000.000
G1 X381.900 Y254.800 Z-3.210 F3000.000
(End of step 137.)
(Begin step 138.)
G0 Z3.000
G0 X382.800 Y254.800
(part 1.)
G1 X382.800 Y254.800 Z-3.196 F3000.000
G2 X382.800 Y254.800 Z-3.196 I-127.800 J0.030 K3.196 F3000.000
G1 X382.800 Y254.800 Z-3.196 F3000.000
(End of step 138.)
(Begin step 139.)
G0 Z3.000
G0 X383.700 Y254.800
(part 1.)
G1 X383.700 Y254.800 Z-3.180 F3000.000
G2 X383.700 Y254.800 Z-3.180 I-128.700 J0.030 K3.180 F3000.000
G1 X383.700 Y254.800 Z-3.180 F3000.000
(End of step 139.)
(Begin step 140.)
G0 Z3.000
G0 X384.600 Y254.800
(part 1.)
G1 X384.600 Y254.800 Z-3.164 F3000.000
G2 X384.600 Y254.800 Z-3.164 I-129.600 J0.030 K3.164 F3000.000
G1 X384.600 Y254.800 Z-3.164 F3000.000
(End of step 140.)
(Begin step 141.)
G0 Z3.000
G0 X385.500 Y254.800
(part 1.)
G1 X385.500 Y254.800 Z-3.149 F3000.000
G2 X385.500 Y254.800 Z-3.149 I-130.500 J0.030 K3.149 F3000.000
G1 X385.500 Y254.800 Z-3.149 F3000.000
(End of step 141.)
(Begin step 142.)
G0 Z3.000
G0 X386.400 Y254.800
(part 1.)
G1 X386.400 Y254.800 Z-3.133 F3000.000
G2 X386.400 Y254.800 Z-3.133 I-131.400 J0.030 K3.133 F3000.000
G1 X386.400 Y254.800 Z-3.133 F3000.000
(End of step 142.)
(Begin step 143.)
G0 Z3.000
G0 X387.300 Y254.800
(part 1.)
G1 X387.300 Y254.800 Z-3.118 F3000.000
G2 X387.300 Y254.800 Z-3.118 I-132.300 J0.030 K3.118 F3000.000
G1 X387.300 Y254.800 Z-3.118 F3000.000
(End of step 143.)
(Begin step 144.)
G0 Z3.000
G0 X388.200 Y254.800
(part 1.)
G1 X388.200 Y254.800 Z-3.102 F3000.000
G2 X388.200 Y254.800 Z-3.102 I-133.200 J0.030 K3.102 F3000.000
G1 X388.200 Y254.800 Z-3.102 F3000.000
(End of step 144.)
(Begin step 145.)
G0 Z3.000
G0 X389.100 Y254.800
(part 1.)
G1 X389.100 Y254.800 Z-3.087 F3000.000
G2 X389.100 Y254.800 Z-3.087 I-134.100 J0.030 K3.087 F3000.000
G1 X389.100 Y254.800 Z-3.087 F3000.000
(End of step 145.)
(Begin step 146.)
G0 Z3.000
G0 X390.000 Y254.800
(part 1.)
G1 X390.000 Y254.800 Z-3.071 F3000.000
G2 X390.000 Y254.800 Z-3.071 I-135.000 J0.030 K3.071 F3000.000
G1 X390.000 Y254.800 Z-3.071 F3000.000
(End of step 146.)
(Begin step 147.)
G0 Z3.000
G0 X390.900 Y254.800
(part 1.)
G1 X390.900 Y254.800 Z-3.055 F3000.000
G2 X390.900 Y254.800 Z-3.055 I-135.900 J0.030 K3.055 F3000.000
G1 X390.900 Y254.800 Z-3.055 F3000.000
(End of step 147.)
(Begin step 148.)
G0 Z3.000
G0 X391.800 Y254.800
(part 1.)
G1 X391.800 Y254.800 Z-3.039 F3000.000
G2 X391.800 Y254.800 Z-3.039 I-136.800 J0.030 K3.039 F3000.000
G1 X391.800 Y254.800 Z-3.039 F3000.000
(End of step 148.)
(Begin step 149.)
G0 Z3.000
G0 X392.700 Y254.800
(part 1.)
G1 X392.700 Y254.800 Z-3.022 F3000.000
G2 X392.700 Y254.800 Z-3.022 I-137.700 J0.030 K3.022 F3000.000
G1 X392.700 Y254.800 Z-3.022 F3000.000
(End of step 149.)
(Begin step 150.)
G0 Z3.000
G0 X393.600 Y254.800
(part 1.)
G1 X393.600 Y254.800 Z-3.006 F3000.000
G2 X393.600 Y254.800 Z-3.006 I-138.600 J0.030 K3.006 F3000.000
G1 X393.600 Y254.800 Z-3.006 F3000.000
(End of step 150.)
(Begin step 151.)
G0 Z3.000
G0 X394.500 Y254.800
(part 1.)
G1 X394.500 Y254.800 Z-2.989 F3000.000
G2 X394.500 Y254.800 Z-2.989 I-139.500 J0.030 K2.989 F3000.000
G1 X394.500 Y254.800 Z-2.989 F3000.000
(End of step 151.)
(Begin step 152.)
G0 Z3.000
G0 X395.400 Y254.800
(part 1.)
G1 X395.400 Y254.800 Z-2.973 F3000.000
G2 X395.400 Y254.800 Z-2.973 I-140.400 J0.030 K2.973 F3000.000
G1 X395.400 Y254.800 Z-2.973 F3000.000
(End of step 152.)
(Begin step 153.)
G0 Z3.000
G0 X396.300 Y254.800
(part 1.)
G1 X396.300 Y254.800 Z-2.956 F3000.000
G2 X396.300 Y254.800 Z-2.956 I-141.300 J0.030 K2.956 F3000.000
G1 X396.300 Y254.800 Z-2.956 F3000.000
(End of step 153.)
(Begin step 154.)
G0 Z3.000
G0 X397.200 Y254.800
(part 1.)
G1 X397.200 Y254.800 Z-2.940 F3000.000
G2 X397.200 Y254.800 Z-2.940 I-142.200 J0.030 K2.940 F3000.000
G1 X397.200 Y254.800 Z-2.940 F3000.000
(End of step 154.)
(Begin step 155.)
G0 Z3.000
G0 X398.100 Y254.800
(part 1.)
G1 X398.100 Y254.800 Z-2.923 F3000.000
G2 X398.100 Y254.800 Z-2.923 I-143.100 J0.030 K2.923 F3000.000
G1 X398.100 Y254.800 Z-2.923 F3000.000
(End of step 155.)
(Begin step 156.)
G0 Z3.000
G0 X399.000 Y254.800
(part 1.)
G1 X399.000 Y254.800 Z-2.906 F3000.000
G2 X399.000 Y254.800 Z-2.906 I-144.000 J0.030 K2.906 F3000.000
G1 X399.000 Y254.800 Z-2.906 F3000.000
(End of step 156.)
(Begin step 157.)
G0 Z3.000
G0 X399.900 Y254.800
(part 1.)
G1 X399.900 Y254.800 Z-2.889 F3000.000
G2 X399.900 Y254.800 Z-2.889 I-144.900 J0.030 K2.889 F3000.000
G1 X399.900 Y254.800 Z-2.889 F3000.000
(End of step 157.)
(Begin step 158.)
G0 Z3.000
G0 X400.800 Y254.800
(part 1.)
G1 X400.800 Y254.800 Z-2.872 F3000.000
G2 X400.800 Y254.800 Z-2.872 I-145.800 J0.030 K2.872 F3000.000
G1 X400.800 Y254.800 Z-2.872 F3000.000
(End of step 158.)
(Begin step 159.)
G0 Z3.000
G0 X401.700 Y254.800
(part 1.)
G1 X401.700 Y254.800 Z-2.854 F3000.000
G2 X401.700 Y254.800 Z-2.854 I-146.700 J0.030 K2.854 F3000.000
G1 X401.700 Y254.800 Z-2.854 F3000.000
(End of step 159.)
(Begin step 160.)
G0 Z3.000
G0 X402.600 Y254.800
(part 1.)
G1 X402.600 Y254.800 Z-2.837 F3000.000
G2 X402.600 Y254.800 Z-2.837 I-147.600 J0.030 K2.837 F3000.000
G1 X402.600 Y254.800 Z-2.837 F3000.000
(End of step 160.)
(Begin step 161.)
G0 Z3.000
G0 X403.500 Y254.800
(part 1.)
G1 X403.500 Y254.800 Z-2.819 F3000.000
G2 X403.500 Y254.800 Z-2.819 I-148.500 J0.030 K2.819 F3000.000
G1 X403.500 Y254.800 Z-2.819 F3000.000
(End of step 161.)
(Begin step 162.)
G0 Z3.000
G0 X404.400 Y254.800
(part 1.)
G1 X404.400 Y254.800 Z-2.801 F3000.000
G2 X404.400 Y254.800 Z-2.801 I-149.400 J0.030 K2.801 F3000.000
G1 X404.400 Y254.800 Z-2.801 F3000.000
(End of step 162.)
(Begin step 163.)
G0 Z3.000
G0 X405.300 Y254.800
(part 1.)
G1 X405.300 Y254.800 Z-2.784 F3000.000
G2 X405.300 Y254.800 Z-2.784 I-150.300 J0.030 K2.784 F3000.000
G1 X405.300 Y254.800 Z-2.784 F3000.000
(End of step 163.)
(Begin step 164.)
G0 Z3.000
G0 X406.200 Y254.800
(part 1.)
G1 X406.200 Y254.800 Z-2.766 F3000.000
G2 X406.200 Y254.800 Z-2.766 I-151.200 J0.030 K2.766 F3000.000
G1 X406.200 Y254.800 Z-2.766 F3000.000
(End of step 164.)
(Begin step 165.)
G0 Z3.000
G0 X407.100 Y254.800
(part 1.)
G1 X407.100 Y254.800 Z-2.749 F3000.000
G2 X407.100 Y254.800 Z-2.749 I-152.100 J0.030 K2.749 F3000.000
G1 X407.100 Y254.800 Z-2.749 F3000.000
(End of step 165.)
(Begin step 166.)
G0 Z3.000
G0 X408.000 Y254.800
(part 1.)
G1 X408.000 Y254.800 Z-2.731 F3000.000
G2 X408.000 Y254.800 Z-2.731 I-153.000 J0.030 K2.731 F3000.000
G1 X408.000 Y254.800 Z-2.731 F3000.000
(End of step 166.)
(Begin step 167.)
G0 Z3.000
G0 X408.900 Y254.800
(part 1.)
G1 X408.900 Y254.800 Z-2.713 F3000.000
G2 X408.900 Y254.800 Z-2.713 I-153.900 J0.030 K2.713 F3000.000
G1 X408.900 Y254.800 Z-2.713 F3000.000
(End of step 167.)
(Begin step 168.)
G0 Z3.000
G0 X409.800 Y254.800
(part 1.)
G1 X409.800 Y254.800 Z-2.694 F3000.000
G2 X409.800 Y254.800 Z-2.694 I-154.800 J0.030 K2.694 F3000.000
G1 X409.800 Y254.800 Z-2.694 F3000.000
(End of step 168.)
(Begin step 169.)
G0 Z3.000
G0 X410.700 Y254.800
(part 1.)
G1 X410.700 Y254.800 Z-2.675 F3000.000
G2 X410.700 Y254.800 Z-2.675 I-155.700 J0.030 K2.675 F3000.000
G1 X410.700 Y254.800 Z-2.675 F3000.000
(End of step 169.)
(Begin step 170.)
G0 Z3.000
G0 X411.600 Y254.800
(part 1.)
G1 X411.600 Y254.800 Z-2.657 F3000.000
G2 X411.600 Y254.800 Z-2.657 I-156.600 J0.030 K2.657 F3000.000
G1 X411.600 Y254.800 Z-2.657 F3000.000
(End of step 170.)
(Begin step 171.)
G0 Z3.000
G0 X412.500 Y254.800
(part 1.)
G1 X412.500 Y254.800 Z-2.638 F3000.000
G2 X412.500 Y254.800 Z-2.638 I-157.500 J0.030 K2.638 F3000.000
G1 X412.500 Y254.800 Z-2.638 F3000.000
(End of step 171.)
(Begin step 172.)
G0 Z3.000
G0 X413.400 Y254.800
(part 1.)
G1 X413.400 Y254.800 Z-2.620 F3000.000
G2 X413.400 Y254.800 Z-2.620 I-158.400 J0.030 K2.620 F3000.000
G1 X413.400 Y254.800 Z-2.620 F3000.000
(End of step 172.)
(Begin step 173.)
G0 Z3.000
G0 X414.300 Y254.800
(part 1.)
G1 X414.300 Y254.800 Z-2.601 F3000.000
G2 X414.300 Y254.800 Z-2.601 I-159.300 J0.030 K2.601 F3000.000
G1 X414.300 Y254.800 Z-2.601 F3000.000
(End of step 173.)
(Begin step 174.)
G0 Z3.000
G0 X415.200 Y254.800
(part 1.)
G1 X415.200 Y254.800 Z-2.582 F3000.000
G2 X415.200 Y254.800 Z-2.582 I-160.200 J0.030 K2.582 F3000.000
G1 X415.200 Y254.800 Z-2.582 F3000.000
(End of step 174.)
(Begin step 175.)
G0 Z3.000
G0 X416.100 Y254.800
(part 1.)
G1 X416.100 Y254.800 Z-2.564 F3000.000
G2 X416.100 Y254.800 Z-2.564 I-161.100 J0.030 K2.564 F3000.000
G1 X416.100 Y254.800 Z-2.564 F3000.000
(End of step 175.)
(Begin step 176.)
G0 Z3.000
G0 X417.000 Y254.800
(part 1.)
G1 X417.000 Y254.800 Z-2.545 F3000.000
G2 X417.000 Y254.800 Z-2.545 I-162.000 J0.030 K2.545 F3000.000
G1 X417.000 Y254.800 Z-2.545 F3000.000
(End of step 176.)
(Begin step 177.)
G0 Z3.000
G0 X417.900 Y254.800
(part 1.)
G1 X417.900 Y254.800 Z-2.525 F3000.000
G2 X417.900 Y254.800 Z-2.525 I-162.900 J0.030 K2.525 F3000.000
G1 X417.900 Y254.800 Z-2.525 F3000.000
(End of step 177.)
(Begin step 178.)
G0 Z3.000
G0 X418.800 Y254.800
(part 1.)
G1 X418.800 Y254.800 Z-2.506 F3000.000
G2 X418.800 Y254.800 Z-2.506 I-163.800 J0.030 K2.506 F3000.000
G1 X418.800 Y254.800 Z-2.506 F3000.000
(End of step 178.)
(Begin step 179.)
G0 Z3.000
G0 X419.700 Y254.800
(part 1.)
G1 X419.700 Y254.800 Z-2.486 F3000.000
G2 X419.700 Y254.800 Z-2.486 I-164.700 J0.030 K2.486 F3000.000
G1 X419.700 Y254.800 Z-2.486 F3000.000
(End of step 179.)
(Begin step 180.)
G0 Z3.000
G0 X420.600 Y254.800
(part 1.)
G1 X420.600 Y254.800 Z-2.466 F3000.000
G2 X420.600 Y254.800 Z-2.466 I-165.600 J0.030 K2.466 F3000.000
G1 X420.600 Y254.800 Z-2.466 F3000.000
(End of step 180.)
(Begin step 181.)
G0 Z3.000
G0 X421.500 Y254.800
(part 1.)
G1 X421.500 Y254.800 Z-2.447 F3000.000
G2 X421.500 Y254.800 Z-2.447 I-166.500 J0.030 K2.447 F3000.000
G1 X421.500 Y254.800 Z-2.447 F3000.000
(End of step 181.)
(Begin step 182.)
G0 Z3.000
G0 X422.400 Y254.800
(part 1.)
G1 X422.400 Y254.800 Z-2.427 F3000.000
G2 X422.400 Y254.800 Z-2.427 I-167.400 J0.030 K2.427 F3000.000
G1 X422.400 Y254.800 Z-2.427 F3000.000
(End of step 182.)
(Begin step 183.)
G0 Z3.000
G0 X423.300 Y254.800
(part 1.)
G1 X423.300 Y254.800 Z-2.408 F3000.000
G2 X423.300 Y254.800 Z-2.408 I-168.300 J0.030 K2.408 F3000.000
G1 X423.300 Y254.800 Z-2.408 F3000.000
(End of step 183.)
(Begin step 184.)
G0 Z3.000
G0 X424.200 Y254.800
(part 1.)
G1 X424.200 Y254.800 Z-2.388 F3000.000
G2 X424.200 Y254.800 Z-2.388 I-169.200 J0.030 K2.388 F3000.000
G1 X424.200 Y254.800 Z-2.388 F3000.000
(End of step 184.)
(Begin step 185.)
G0 Z3.000
G0 X425.100 Y254.800
(part 1.)
G1 X425.100 Y254.800 Z-2.368 F3000.000
G2 X425.100 Y254.800 Z-2.368 I-170.100 J0.030 K2.368 F3000.000
G1 X425.100 Y254.800 Z-2.368 F3000.000
(End of step 185.)
(Begin step 186.)
G0 Z3.000
G0 X426.000 Y254.800
(part 1.)
G1 X426.000 Y254.800 Z-2.348 F3000.000
G2 X426.000 Y254.800 Z-2.348 I-171.000 J0.030 K2.348 F3000.000
G1 X426.000 Y254.800 Z-2.348 F3000.000
(End of step 186.)
(Begin step 187.)
G0 Z3.000
G0 X426.900 Y254.800
(part 1.)
G1 X426.900 Y254.800 Z-2.327 F3000.000
G2 X426.900 Y254.800 Z-2.327 I-171.900 J0.030 K2.327 F3000.000
G1 X426.900 Y254.800 Z-2.327 F3000.000
(End of step 187.)
(Begin step 188.)
G0 Z3.000
G0 X427.800 Y254.800
(part 1.)
G1 X427.800 Y254.800 Z-2.307 F3000.000
G2 X427.800 Y254.800 Z-2.307 I-172.800 J0.030 K2.307 F3000.000
G1 X427.800 Y254.800 Z-2.307 F3000.000
(End of step 188.)
(Begin step 189.)
G0 Z3.000
G0 X428.700 Y254.800
(part 1.)
G1 X428.700 Y254.800 Z-2.286 F3000.000
G2 X428.700 Y254.800 Z-2.286 I-173.700 J0.030 K2.286 F3000.000
G1 X428.700 Y254.800 Z-2.286 F3000.000
(End of step 189.)
(Begin step 190.)
G0 Z3.000
G0 X429.600 Y254.800
(part 1.)
G1 X429.600 Y254.800 Z-2.265 F3000.000
G2 X429.600 Y254.800 Z-2.265 I-174.600 J0.030 K2.265 F3000.000
G1 X429.600 Y254.800 Z-2.265 F3000.000
(End of step 190.)
(Begin step 191.)
G0 Z3.000
G0 X430.500 Y254.800
(part 1.)
G1 X430.500 Y254.800 Z-2.245 F3000.000
G2 X430.500 Y254.800 Z-2.245 I-175.500 J0.030 K2.245 F3000.000
G1 X430.500 Y254.800 Z-2.245 F3000.000
(End of step 191.)
(Begin step 192.)
G0 Z3.000
G0 X431.400 Y254.800
(part 1.)
G1 X431.400 Y254.800 Z-2.224 F3000.000
G2 X431.400 Y254.800 Z-2.224 I-176.400 J0.030 K2.224 F3000.000
G1 X431.400 Y254.800 Z-2.224 F3000.000
(End of step 192.)
(Begin step 193.)
G0 Z3.000
G0 X432.300 Y254.800
(part 1.)
G1 X432.300 Y254.800 Z-2.204 F3000.000
G2 X432.300 Y254.800 Z-2.204 I-177.300 J0.030 K2.204 F3000.000
G1 X432.300 Y254.800 Z-2.204 F3000.000
(End of step 193.)
(Begin step 194.)
G0 Z3.000
G0 X433.200 Y254.800
(part 1.)
G1 X433.200 Y254.800 Z-2.183 F3000.000
G2 X433.200 Y254.800 Z-2.183 I-178.200 J0.030 K2.183 F3000.000
G1 X433.200 Y254.800 Z-2.183 F3000.000
(End of step 194.)
(Begin step 195.)
G0 Z3.000
G0 X434.100 Y254.800
(part 1.)
G1 X434.100 Y254.800 Z-2.162 F3000.000
G2 X434.100 Y254.800 Z-2.162 I-179.100 J0.030 K2.162 F3000.000
G1 X434.100 Y254.800 Z-2.162 F3000.000
(End of step 195.)
(Begin step 196.)
G0 Z3.000
G0 X435.000 Y254.800
(part 1.)
G1 X435.000 Y254.800 Z-2.140 F3000.000
G2 X435.000 Y254.800 Z-2.140 I-180.000 J0.030 K2.140 F3000.000
G1 X435.000 Y254.800 Z-2.140 F3000.000
(End of step 196.)
(Begin step 197.)
G0 Z3.000
G0 X435.900 Y254.800
(part 1.)
G1 X435.900 Y254.800 Z-2.119 F3000.000
G2 X435.900 Y254.800 Z-2.119 I-180.900 J0.030 K2.119 F3000.000
G1 X435.900 Y254.800 Z-2.119 F3000.000
(End of step 197.)
(Begin step 198.)
G0 Z3.000
G0 X436.800 Y254.800
(part 1.)
G1 X436.800 Y254.800 Z-2.097 F3000.000
G2 X436.800 Y254.800 Z-2.097 I-181.800 J0.030 K2.097 F3000.000
G1 X436.800 Y254.800 Z-2.097 F3000.000
(End of step 198.)
(Begin step 199.)
G0 Z3.000
G0 X437.700 Y254.800
(part 1.)
G1 X437.700 Y254.800 Z-2.075 F3000.000
G2 X437.700 Y254.800 Z-2.075 I-182.700 J0.030 K2.075 F3000.000
G1 X437.700 Y254.800 Z-2.075 F3000.000
(End of step 199.)
(Begin step 200.)
G0 Z3.000
G0 X438.600 Y254.800
(part 1.)
G1 X438.600 Y254.800 Z-2.054 F3000.000
G2 X438.600 Y254.800 Z-2.054 I-183.600 J0.030 K2.054 F3000.000
G1 X438.600 Y254.800 Z-2.054 F3000.000
(End of step 200.)
(Begin step 201.)
G0 Z3.000
G0 X439.500 Y254.800
(part 1.)
G1 X439.500 Y254.800 Z-2.032 F3000.000
G2 X439.500 Y254.800 Z-2.032 I-184.500 J0.030 K2.032 F3000.000
G1 X439.500 Y254.800 Z-2.032 F3000.000
(End of step 201.)
(Begin step 202.)
G0 Z3.000
G0 X440.400 Y254.800
(part 1.)
G1 X440.400 Y254.800 Z-2.011 F3000.000
G2 X440.400 Y254.800 Z-2.011 I-185.400 J0.030 K2.011 F3000.000
G1 X440.400 Y254.800 Z-2.011 F3000.000
(End of step 202.)
(Begin step 203.)
G0 Z3.000
G0 X441.300 Y254.800
(part 1.)
G1 X441.300 Y254.800 Z-1.989 F3000.000
G2 X441.300 Y254.800 Z-1.989 I-186.300 J0.030 K1.989 F3000.000
G1 X441.300 Y254.800 Z-1.989 F3000.000
(End of step 203.)
(Begin step 204.)
G0 Z3.000
G0 X442.200 Y254.800
(part 1.)
G1 X442.200 Y254.800 Z-1.967 F3000.000
G2 X442.200 Y254.800 Z-1.967 I-187.200 J0.030 K1.967 F3000.000
G1 X442.200 Y254.800 Z-1.967 F3000.000
(End of step 204.)
(Begin step 205.)
G0 Z3.000
G0 X443.100 Y254.800
(part 1.)
G1 X443.100 Y254.800 Z-1.944 F3000.000
G2 X443.100 Y254.800 Z-1.944 I-188.100 J0.030 K1.944 F3000.000
G1 X443.100 Y254.800 Z-1.944 F3000.000
(End of step 205.)
(Begin step 206.)
G0 Z3.000
G0 X444.000 Y254.800
(part 1.)
G1 X444.000 Y254.800 Z-1.922 F3000.000
G2 X444.000 Y254.800 Z-1.922 I-189.000 J0.030 K1.922 F3000.000
G1 X444.000 Y254.800 Z-1.922 F3000.000
(End of step 206.)
(Begin step 207.)
G0 Z3.000
G0 X444.900 Y254.800
(part 1.)
G1 X444.900 Y254.800 Z-1.899 F3000.000
G2 X444.900 Y254.800 Z-1.899 I-189.900 J0.030 K1.899 F3000.000
G1 X444.900 Y254.800 Z-1.899 F3000.000
(End of step 207.)
(Begin step 208.)
G0 Z3.000
G0 X445.800 Y254.800
(part 1.)
G1 X445.800 Y254.800 Z-1.877 F3000.000
G2 X445.800 Y254.800 Z-1.877 I-190.800 J0.030 K1.877 F3000.000
G1 X445.800 Y254.800 Z-1.877 F3000.000
(End of step 208.)
(Begin step 209.)
G0 Z3.000
G0 X446.700 Y254.800
(part 1.)
G1 X446.700 Y254.800 Z-1.854 F3000.000
G2 X446.700 Y254.800 Z-1.854 I-191.700 J0.030 K1.854 F3000.000
G1 X446.700 Y254.800 Z-1.854 F3000.000
(End of step 209.)
(Begin step 210.)
G0 Z3.000
G0 X447.600 Y254.800
(part 1.)
G1 X447.600 Y254.800 Z-1.831 F3000.000
G2 X447.600 Y254.800 Z-1.831 I-192.600 J0.030 K1.831 F3000.000
G1 X447.600 Y254.800 Z-1.831 F3000.000
(End of step 210.)
(Begin step 211.)
G0 Z3.000
G0 X448.500 Y254.800
(part 1.)
G1 X448.500 Y254.800 Z-1.809 F3000.000
G2 X448.500 Y254.800 Z-1.809 I-193.500 J0.030 K1.809 F3000.000
G1 X448.500 Y254.800 Z-1.809 F3000.000
(End of step 211.)
(Begin step 212.)
G0 Z3.000
G0 X449.400 Y254.800
(part 1.)
G1 X449.400 Y254.800 Z-1.786 F3000.000
G2 X449.400 Y254.800 Z-1.786 I-194.400 J0.030 K1.786 F3000.000
G1 X449.400 Y254.800 Z-1.786 F3000.000
(End of step 212.)
(Begin step 213.)
G0 Z3.000
G0 X450.300 Y254.800
(part 1.)
G1 X450.300 Y254.800 Z-1.764 F3000.000
G2 X450.300 Y254.800 Z-1.764 I-195.300 J0.030 K1.764 F3000.000
G1 X450.300 Y254.800 Z-1.764 F3000.000
(End of step 213.)
(Begin step 214.)
G0 Z3.000
G0 X451.200 Y254.800
(part 1.)
G1 X451.200 Y254.800 Z-1.740 F3000.000
G2 X451.200 Y254.800 Z-1.740 I-196.200 J0.030 K1.740 F3000.000
G1 X451.200 Y254.800 Z-1.740 F3000.000
(End of step 214.)
(Begin step 215.)
G0 Z3.000
G0 X452.100 Y254.800
(part 1.)
G1 X452.100 Y254.800 Z-1.717 F3000.000
G2 X452.100 Y254.800 Z-1.717 I-197.100 J0.030 K1.717 F3000.000
G1 X452.100 Y254.800 Z-1.717 F3000.000
(End of step 215.)
(Begin step 216.)
G0 Z3.000
G0 X453.000 Y254.800
(part 1.)
G1 X453.000 Y254.800 Z-1.693 F3000.000
G2 X453.000 Y254.800 Z-1.693 I-198.000 J0.030 K1.693 F3000.000
G1 X453.000 Y254.800 Z-1.693 F3000.000
(End of step 216.)
(Begin step 217.)
G0 Z3.000
G0 X453.900 Y254.800
(part 1.)
G1 X453.900 Y254.800 Z-1.669 F3000.000
G2 X453.900 Y254.800 Z-1.669 I-198.900 J0.030 K1.669 F3000.000
G1 X453.900 Y254.800 Z-1.669 F3000.000
(End of step 217.)
(Begin step 218.)
G0 Z3.000
G0 X454.800 Y254.800
(part 1.)
G1 X454.800 Y254.800 Z-1.646 F3000.000
G2 X454.800 Y254.800 Z-1.646 I-199.800 J0.030 K1.646 F3000.000
G1 X454.800 Y254.800 Z-1.646 F3000.000
(End of step 218.)
(Begin step 219.)
G0 Z3.000
G0 X455.700 Y254.800
(part 1.)
G1 X455.700 Y254.800 Z-1.622 F3000.000
G2 X455.700 Y254.800 Z-1.622 I-200.700 J0.030 K1.622 F3000.000
G1 X455.700 Y254.800 Z-1.622 F3000.000
(End of step 219.)
(Begin step 220.)
G0 Z3.000
G0 X456.600 Y254.800
(part 1.)
G1 X456.600 Y254.800 Z-1.599 F3000.000
G2 X456.600 Y254.800 Z-1.599 I-201.600 J0.030 K1.599 F3000.000
G1 X456.600 Y254.800 Z-1.599 F3000.000
(End of step 220.)
(Begin step 221.)
G0 Z3.000
G0 X457.500 Y254.800
(part 1.)
G1 X457.500 Y254.800 Z-1.575 F3000.000
G2 X457.500 Y254.800 Z-1.575 I-202.500 J0.030 K1.575 F3000.000
G1 X457.500 Y254.800 Z-1.575 F3000.000
(End of step 221.)
(Begin step 222.)
G0 Z3.000
G0 X458.400 Y254.800
(part 1.)
G1 X458.400 Y254.800 Z-1.551 F3000.000
G2 X458.400 Y254.800 Z-1.551 I-203.400 J0.030 K1.551 F3000.000
G1 X458.400 Y254.800 Z-1.551 F3000.000
(End of step 222.)
(Begin step 223.)
G0 Z3.000
G0 X459.300 Y254.800
(part 1.)
G1 X459.300 Y254.800 Z-1.527 F3000.000
G2 X459.300 Y254.800 Z-1.527 I-204.300 J0.030 K1.527 F3000.000
G1 X459.300 Y254.800 Z-1.527 F3000.000
(End of step 223.)
(Begin step 224.)
G0 Z3.000
G0 X460.200 Y254.800
(part 1.)
G1 X460.200 Y254.800 Z-1.503 F3000.000
G2 X460.200 Y254.800 Z-1.503 I-205.200 J0.030 K1.503 F3000.000
G1 X460.200 Y254.800 Z-1.503 F3000.000
(End of step 224.)
(Begin step 225.)
G0 Z3.000
G0 X461.100 Y254.800
(part 1.)
G1 X461.100 Y254.800 Z-1.478 F3000.000
G2 X461.100 Y254.800 Z-1.478 I-206.100 J0.030 K1.478 F3000.000
G1 X461.100 Y254.800 Z-1.478 F3000.000
(End of step 225.)
(Begin step 226.)
G0 Z3.000
G0 X462.000 Y254.800
(part 1.)
G1 X462.000 Y254.800 Z-1.454 F3000.000
G2 X462.000 Y254.800 Z-1.454 I-207.000 J0.030 K1.454 F3000.000
G1 X462.000 Y254.800 Z-1.454 F3000.000
(End of step 226.)
(Begin step 227.)
G0 Z3.000
G0 X462.900 Y254.800
(part 1.)
G1 X462.900 Y254.800 Z-1.429 F3000.000
G2 X462.900 Y254.800 Z-1.429 I-207.900 J0.030 K1.429 F3000.000
G1 X462.900 Y254.800 Z-1.429 F3000.000
(End of step 227.)
(Begin step 228.)
G0 Z3.000
G0 X463.800 Y254.800
(part 1.)
G1 X463.800 Y254.800 Z-1.404 F3000.000
G2 X463.800 Y254.800 Z-1.404 I-208.800 J0.030 K1.404 F3000.000
G1 X463.800 Y254.800 Z-1.404 F3000.000
(End of step 228.)
(Begin step 229.)
G0 Z3.000
G0 X464.700 Y254.800
(part 1.)
G1 X464.700 Y254.800 Z-1.380 F3000.000
G2 X464.700 Y254.800 Z-1.380 I-209.700 J0.030 K1.380 F3000.000
G1 X464.700 Y254.800 Z-1.380 F3000.000
(End of step 229.)
(Begin step 230.)
G0 Z3.000
G0 X465.600 Y254.800
(part 1.)
G1 X465.600 Y254.800 Z-1.355 F3000.000
G2 X465.600 Y254.800 Z-1.355 I-210.600 J0.030 K1.355 F3000.000
G1 X465.600 Y254.800 Z-1.355 F3000.000
(End of step 230.)
(Begin step 231.)
G0 Z3.000
G0 X466.500 Y254.800
(part 1.)
G1 X466.500 Y254.800 Z-1.331 F3000.000
G2 X466.500 Y254.800 Z-1.331 I-211.500 J0.030 K1.331 F3000.000
G1 X466.500 Y254.800 Z-1.331 F3000.000
(End of step 231.)
(Begin step 232.)
G0 Z3.000
G0 X467.400 Y254.800
(part 1.)
G1 X467.400 Y254.800 Z-1.306 F3000.000
G2 X467.400 Y254.800 Z-1.306 I-212.400 J0.030 K1.306 F3000.000
G1 X467.400 Y254.800 Z-1.306 F3000.000
(End of step 232.)
(Begin step 233.)
G0 Z3.000
G0 X468.300 Y254.800
(part 1.)
G1 X468.300 Y254.800 Z-1.280 F3000.000
G2 X468.300 Y254.800 Z-1.280 I-213.300 J0.030 K1.280 F3000.000
G1 X468.300 Y254.800 Z-1.280 F3000.000
(End of step 233.)
(Begin step 234.)
G0 Z3.000
G0 X469.200 Y254.800
(part 1.)
G1 X469.200 Y254.800 Z-1.255 F3000.000
G2 X469.200 Y254.800 Z-1.255 I-214.200 J0.030 K1.255 F3000.000
G1 X469.200 Y254.800 Z-1.255 F3000.000
(End of step 234.)
(Begin step 235.)
G0 Z3.000
G0 X470.100 Y254.800
(part 1.)
G1 X470.100 Y254.800 Z-1.229 F3000.000
G2 X470.100 Y254.800 Z-1.229 I-215.100 J0.030 K1.229 F3000.000
G1 X470.100 Y254.800 Z-1.229 F3000.000
(End of step 235.)
(Begin step 236.)
G0 Z3.000
G0 X471.000 Y254.800
(part 1.)
G1 X471.000 Y254.800 Z-1.204 F3000.000
G2 X471.000 Y254.800 Z-1.204 I-216.000 J0.030 K1.204 F3000.000
G1 X471.000 Y254.800 Z-1.204 F3000.000
(End of step 236.)
(Begin step 237.)
G0 Z3.000
G0 X471.900 Y254.800
(part 1.)
G1 X471.900 Y254.800 Z-1.178 F3000.000
G2 X471.900 Y254.800 Z-1.178 I-216.900 J0.030 K1.178 F3000.000
G1 X471.900 Y254.800 Z-1.178 F3000.000
(End of step 237.)
(Begin step 238.)
G0 Z3.000
G0 X472.800 Y254.800
(part 1.)
G1 X472.800 Y254.800 Z-1.152 F3000.000
G2 X472.800 Y254.800 Z-1.152 I-217.800 J0.030 K1.152 F3000.000
G1 X472.800 Y254.800 Z-1.152 F3000.000
(End of step 238.)
(Begin step 239.)
G0 Z3.000
G0 X473.700 Y254.800
(part 1.)
G1 X473.700 Y254.800 Z-1.127 F3000.000
G2 X473.700 Y254.800 Z-1.127 I-218.700 J0.030 K1.127 F3000.000
G1 X473.700 Y254.800 Z-1.127 F3000.000
(End of step 239.)
(Begin step 240.)
G0 Z3.000
G0 X474.600 Y254.800
(part 1.)
G1 X474.600 Y254.800 Z-1.101 F3000.000
G2 X474.600 Y254.800 Z-1.101 I-219.600 J0.030 K1.101 F3000.000
G1 X474.600 Y254.800 Z-1.101 F3000.000
(End of step 240.)
(Begin step 241.)
G0 Z3.000
G0 X475.500 Y254.800
(part 1.)
G1 X475.500 Y254.800 Z-1.075 F3000.000
G2 X475.500 Y254.800 Z-1.075 I-220.500 J0.030 K1.075 F3000.000
G1 X475.500 Y254.800 Z-1.075 F3000.000
(End of step 241.)
(Begin step 242.)
G0 Z3.000
G0 X476.400 Y254.800
(part 1.)
G1 X476.400 Y254.800 Z-1.049 F3000.000
G2 X476.400 Y254.800 Z-1.049 I-221.400 J0.030 K1.049 F3000.000
G1 X476.400 Y254.800 Z-1.049 F3000.000
(End of step 242.)
(Begin step 243.)
G0 Z3.000
G0 X477.300 Y254.800
(part 1.)
G1 X477.300 Y254.800 Z-1.023 F3000.000
G2 X477.300 Y254.800 Z-1.023 I-222.300 J0.030 K1.023 F3000.000
G1 X477.300 Y254.800 Z-1.023 F3000.000
(End of step 243.)
(Begin step 244.)
G0 Z3.000
G0 X478.200 Y254.800
(part 1.)
G1 X478.200 Y254.800 Z-0.996 F3000.000
G2 X478.200 Y254.800 Z-0.996 I-223.200 J0.030 K0.996 F3000.000
G1 X478.200 Y254.800 Z-0.996 F3000.000
(End of step 244.)
(Begin step 245.)
G0 Z3.000
G0 X479.100 Y254.800
(part 1.)
G1 X479.100 Y254.800 Z-0.969 F3000.000
G2 X479.100 Y254.800 Z-0.969 I-224.100 J0.030 K0.969 F3000.000
G1 X479.100 Y254.800 Z-0.969 F3000.000
(End of step 245.)
(Begin step 246.)
G0 Z3.000
G0 X480.000 Y254.800
(part 1.)
G1 X480.000 Y254.800 Z-0.943 F3000.000
G2 X480.000 Y254.800 Z-0.943 I-225.000 J0.030 K0.943 F3000.000
G1 X480.000 Y254.800 Z-0.943 F3000.000
(End of step 246.)
(Begin step 247.)
G0 Z3.000
G0 X480.900 Y254.800
(part 1.)
G1 X480.900 Y254.800 Z-0.916 F3000.000
G2 X480.900 Y254.800 Z-0.916 I-225.900 J0.030 K0.916 F3000.000
G1 X480.900 Y254.800 Z-0.916 F3000.000
(End of step 247.)
(Begin step 248.)
G0 Z3.000
G0 X481.800 Y254.800
(part 1.)
G1 X481.800 Y254.800 Z-0.890 F3000.000
G2 X481.800 Y254.800 Z-0.890 I-226.800 J0.030 K0.890 F3000.000
G1 X481.800 Y254.800 Z-0.890 F3000.000
(End of step 248.)
(Begin step 249.)
G0 Z3.000
G0 X482.700 Y254.800
(part 1.)
G1 X482.700 Y254.800 Z-0.863 F3000.000
G2 X482.700 Y254.800 Z-0.863 I-227.700 J0.030 K0.863 F3000.000
G1 X482.700 Y254.800 Z-0.863 F3000.000
(End of step 249.)
(Begin step 250.)
G0 Z3.000
G0 X483.600 Y254.800
(part 1.)
G1 X483.600 Y254.800 Z-0.836 F3000.000
G2 X483.600 Y254.800 Z-0.836 I-228.600 J0.030 K0.836 F3000.000
G1 X483.600 Y254.800 Z-0.836 F3000.000
(End of step 250.)
(Begin step 251.)
G0 Z3.000
G0 X484.500 Y254.800
(part 1.)
G1 X484.500 Y254.800 Z-0.810 F3000.000
G2 X484.500 Y254.800 Z-0.810 I-229.500 J0.030 K0.810 F3000.000
G1 X484.500 Y254.800 Z-0.810 F3000.000
(End of step 251.)
(Begin step 252.)
G0 Z3.000
G0 X485.400 Y254.800
(part 1.)
G1 X485.400 Y254.800 Z-0.782 F3000.000
G2 X485.400 Y254.800 Z-0.782 I-230.400 J0.030 K0.782 F3000.000
G1 X485.400 Y254.800 Z-0.782 F3000.000
(End of step 252.)
(Begin step 253.)
G0 Z3.000
G0 X486.300 Y254.800
(part 1.)
G1 X486.300 Y254.800 Z-0.754 F3000.000
G2 X486.300 Y254.800 Z-0.754 I-231.300 J0.030 K0.754 F3000.000
G1 X486.300 Y254.800 Z-0.754 F3000.000
(End of step 253.)
(Begin step 254.)
G0 Z3.000
G0 X487.200 Y254.800
(part 1.)
G1 X487.200 Y254.800 Z-0.727 F3000.000
G2 X487.200 Y254.800 Z-0.727 I-232.200 J0.030 K0.727 F3000.000
G1 X487.200 Y254.800 Z-0.727 F3000.000
(End of step 254.)
(Begin step 255.)
G0 Z3.000
G0 X488.100 Y254.800
(part 1.)
G1 X488.100 Y254.800 Z-0.699 F3000.000
G2 X488.100 Y254.800 Z-0.699 I-233.100 J0.030 K0.699 F3000.000
G1 X488.100 Y254.800 Z-0.699 F3000.000
(End of step 255.)
(Begin step 256.)
G0 Z3.000
G0 X489.000 Y254.800
(part 1.)
G1 X489.000 Y254.800 Z-0.672 F3000.000
G2 X489.000 Y254.800 Z-0.672 I-234.000 J0.030 K0.672 F3000.000
G1 X489.000 Y254.800 Z-0.672 F3000.000
(End of step 256.)
(Begin step 257.)
G0 Z3.000
G0 X489.900 Y254.800
(part 1.)
G1 X489.900 Y254.800 Z-0.644 F3000.000
G2 X489.900 Y254.800 Z-0.644 I-234.900 J0.030 K0.644 F3000.000
G1 X489.900 Y254.800 Z-0.644 F3000.000
(End of step 257.)
(Begin step 258.)
G0 Z3.000
G0 X490.800 Y254.800
(part 1.)
G1 X490.800 Y254.800 Z-0.616 F3000.000
G2 X490.800 Y254.800 Z-0.616 I-235.800 J0.030 K0.616 F3000.000
G1 X490.800 Y254.800 Z-0.616 F3000.000
(End of step 258.)
(Begin step 259.)
G0 Z3.000
G0 X491.700 Y254.800
(part 1.)
G1 X491.700 Y254.800 Z-0.589 F3000.000
G2 X491.700 Y254.800 Z-0.589 I-236.700 J0.030 K0.589 F3000.000
G1 X491.700 Y254.800 Z-0.589 F3000.000
(End of step 259.)
(Begin step 260.)
G0 Z3.000
G0 X492.600 Y254.800
(part 1.)
G1 X492.600 Y254.800 Z-0.561 F3000.000
G2 X492.600 Y254.800 Z-0.561 I-237.600 J0.030 K0.561 F3000.000
G1 X492.600 Y254.800 Z-0.561 F3000.000
(End of step 260.)
(Begin step 261.)
G0 Z3.000
G0 X493.500 Y254.800
(part 1.)
G1 X493.500 Y254.800 Z-0.533 F3000.000
G2 X493.500 Y254.800 Z-0.533 I-238.500 J0.030 K0.533 F3000.000
G1 X493.500 Y254.800 Z-0.533 F3000.000
(End of step 261.)
(Begin step 262.)
G0 Z3.000
G0 X494.400 Y254.800
(part 1.)
G1 X494.400 Y254.800 Z-0.504 F3000.000
G2 X494.400 Y254.800 Z-0.504 I-239.400 J0.030 K0.504 F3000.000
G1 X494.400 Y254.800 Z-0.504 F3000.000
(End of step 262.)
(Begin step 263.)
G0 Z3.000
G0 X495.300 Y254.800
(part 1.)
G1 X495.300 Y254.800 Z-0.476 F3000.000
G2 X495.300 Y254.800 Z-0.476 I-240.300 J0.030 K0.476 F3000.000
G1 X495.300 Y254.800 Z-0.476 F3000.000
(End of step 263.)
(Begin step 264.)
G0 Z3.000
G0 X496.200 Y254.800
(part 1.)
G1 X496.200 Y254.800 Z-0.447 F3000.000
G2 X496.200 Y254.800 Z-0.447 I-241.200 J0.030 K0.447 F3000.000
G1 X496.200 Y254.800 Z-0.447 F3000.000
(End of step 264.)
(Begin step 265.)
G0 Z3.000
G0 X497.100 Y254.800
(part 1.)
G1 X497.100 Y254.800 Z-0.418 F3000.000
G2 X497.100 Y254.800 Z-0.418 I-242.100 J0.030 K0.418 F3000.000
G1 X497.100 Y254.800 Z-0.418 F3000.000
(End of step 265.)
(Begin step 266.)
G0 Z3.000
G0 X498.000 Y254.800
(part 1.)
G1 X498.000 Y254.800 Z-0.390 F3000.000
G2 X498.000 Y254.800 Z-0.390 I-243.000 J0.030 K0.390 F3000.000
G1 X498.000 Y254.800 Z-0.390 F3000.000
(End of step 266.)
(Begin step 267.)
G0 Z3.000
G0 X498.900 Y254.800
(part 1.)
G1 X498.900 Y254.800 Z-0.361 F3000.000
G2 X498.900 Y254.800 Z-0.361 I-243.900 J0.030 K0.361 F3000.000
G1 X498.900 Y254.800 Z-0.361 F3000.000
(End of step 267.)
(Begin step 268.)
G0 Z3.000
G0 X499.800 Y254.800
(part 1.)
G1 X499.800 Y254.800 Z-0.332 F3000.000
G2 X499.800 Y254.800 Z-0.332 I-244.800 J0.030 K0.332 F3000.000
G1 X499.800 Y254.800 Z-0.332 F3000.000
(End of step 268.)
(Begin step 269.)
G0 Z3.000
G0 X500.700 Y254.800
(part 1.)
G1 X500.700 Y254.800 Z-0.304 F3000.000
G2 X500.700 Y254.800 Z-0.304 I-245.700 J0.030 K0.304 F3000.000
G1 X500.700 Y254.800 Z-0.304 F3000.000
(End of step 269.)
(Begin step 270.)
G0 Z3.000
G0 X501.600 Y254.800
(part 1.)
G1 X501.600 Y254.800 Z-0.275 F3000.000
G2 X501.600 Y254.800 Z-0.275 I-246.600 J0.030 K0.275 F3000.000
G1 X501.600 Y254.800 Z-0.275 F3000.000
(End of step 270.)
(Begin step 271.)
G0 Z3.000
G0 X502.500 Y254.800
(part 1.)
G1 X502.500 Y254.800 Z-0.245 F3000.000
G2 X502.500 Y254.800 Z-0.245 I-247.500 J0.030 K0.245 F3000.000
G1 X502.500 Y254.800 Z-0.245 F3000.000
(End of step 271.)
(Begin step 272.)
G0 Z3.000
G0 X503.400 Y254.800
(part 1.)
G1 X503.400 Y254.800 Z-0.216 F3000.000
G2 X503.400 Y254.800 Z-0.216 I-248.400 J0.030 K0.216 F3000.000
G1 X503.400 Y254.800 Z-0.216 F3000.000
(End of step 272.)
(Begin step 273.)
G0 Z3.000
G0 X504.300 Y254.800
(part 1.)
G1 X504.300 Y254.800 Z-0.186 F3000.000
G2 X504.300 Y254.800 Z-0.186 I-249.300 J0.030 K0.186 F3000.000
G1 X504.300 Y254.800 Z-0.186 F3000.000
(End of step 273.)
(Begin step 274.)
G0 Z3.000
G0 X505.200 Y254.800
(part 1.)
G1 X505.200 Y254.800 Z-0.156 F3000.000
G2 X505.200 Y254.800 Z-0.156 I-250.200 J0.030 K0.156 F3000.000
G1 X505.200 Y254.800 Z-0.156 F3000.000
(End of step 274.)
(Begin step 275.)
G0 Z3.000
G0 X506.100 Y254.800
(part 1.)
G1 X506.100 Y254.800 Z-0.127 F3000.000
G2 X506.100 Y254.800 Z-0.127 I-251.100 J0.030 K0.127 F3000.000
G1 X506.100 Y254.800 Z-0.127 F3000.000
(End of step 275.)
G0 Z5.000
(Finish operation: Surface)
(Begin postamble)
M5
G17 G90
M2
