(Exported by FreeCAD)
(Post Processor: grbl_post)
(Output Time:2024-04-18 17:47:58.245243)
(Begin preamble)
G17 G90
G21
(Begin operation: Fixture)
(Path: Fixture)
G54
(Finish operation: Fixture)
(Begin operation: 6 ball L24 Q007)
(Path: 6 ball L24 Q007)
(6 ball L24 Q007)
(Begin toolchange)
( M6 T4 )
M3 S24000
(Finish operation: 6 ball L24 Q007)
(Begin operation: Surface)
(Path: Surface)
(Surface)
(Surface)
(Tool type: ballend)
(Compensated Tool Path. Diameter: 6.0)
(Sample interval: 1.0)
(Step over %: 15.0)
()
G0 Z5.000
(Beginning of Multi-pass layers.)
(Layer 0 begins)
(Begin step 0.)
G0 X258.426 Y254.926
(part 1)
G1 X258.426 Y254.926 Z-3.000 F3000.000
G2 X258.426 Y254.926 Z-3.000 I-3.600 J0.030 K3.000 F3000.000
G1 X258.426 Y254.926 Z-3.000 F3000.000
(End of step 0.)
G0 Z3.000
G0 X259.326 Y254.926
(Begin step 1.)
G0 X259.326 Y254.926
(part 1)
G1 X259.326 Y254.926 Z-3.000 F3000.000
G2 X259.326 Y254.926 Z-3.000 I-4.500 J0.030 K3.000 F3000.000
G1 X259.326 Y254.926 Z-3.000 F3000.000
(End of step 1.)
G0 Z3.000
G0 X260.226 Y254.926
(Begin step 2.)
G0 X260.226 Y254.926
(part 1)
G1 X260.226 Y254.926 Z-3.000 F3000.000
G2 X260.226 Y254.926 Z-3.000 I-5.400 J0.030 K3.000 F3000.000
G1 X260.226 Y254.926 Z-3.000 F3000.000
(End of step 2.)
G0 Z3.000
G0 X261.126 Y254.926
(Begin step 3.)
G0 X261.126 Y254.926
(part 1)
G1 X261.126 Y254.926 Z-3.000 F3000.000
G2 X261.126 Y254.926 Z-3.000 I-6.300 J0.030 K3.000 F3000.000
G1 X261.126 Y254.926 Z-3.000 F3000.000
(End of step 3.)
G0 Z3.000
G0 X262.026 Y254.926
(Begin step 4.)
G0 X262.026 Y254.926
(part 1)
G1 X262.026 Y254.926 Z-3.000 F3000.000
G2 X262.026 Y254.926 Z-3.000 I-7.200 J0.030 K3.000 F3000.000
G1 X262.026 Y254.926 Z-3.000 F3000.000
(End of step 4.)
G0 Z3.000
G0 X262.926 Y254.926
(Begin step 5.)
G0 X262.926 Y254.926
(part 1)
G1 X262.926 Y254.926 Z-3.000 F3000.000
G2 X262.926 Y254.926 Z-3.000 I-8.100 J0.030 K3.000 F3000.000
G1 X262.926 Y254.926 Z-3.000 F3000.000
(End of step 5.)
G0 Z3.000
G0 X263.826 Y254.926
(Begin step 6.)
G0 X263.826 Y254.926
(part 1)
G1 X263.826 Y254.926 Z-3.000 F3000.000
G2 X263.826 Y254.926 Z-3.000 I-9.000 J0.030 K3.000 F3000.000
G1 X263.826 Y254.926 Z-3.000 F3000.000
(End of step 6.)
G0 Z3.000
G0 X264.726 Y254.926
(Begin step 7.)
G0 X264.726 Y254.926
(part 1)
G1 X264.726 Y254.926 Z-3.000 F3000.000
G2 X264.726 Y254.926 Z-3.000 I-9.900 J0.030 K3.000 F3000.000
G1 X264.726 Y254.926 Z-3.000 F3000.000
(End of step 7.)
G0 Z3.000
G0 X265.626 Y254.926
(Begin step 8.)
G0 X265.626 Y254.926
(part 1)
G1 X265.626 Y254.926 Z-3.000 F3000.000
G2 X265.626 Y254.926 Z-3.000 I-10.800 J0.030 K3.000 F3000.000
G1 X265.626 Y254.926 Z-3.000 F3000.000
(End of step 8.)
G0 Z3.000
G0 X266.526 Y254.926
(Begin step 9.)
G0 X266.526 Y254.926
(part 1)
G1 X266.526 Y254.926 Z-3.000 F3000.000
G2 X266.526 Y254.926 Z-3.000 I-11.700 J0.030 K3.000 F3000.000
G1 X266.526 Y254.926 Z-3.000 F3000.000
(End of step 9.)
G0 Z3.000
G0 X267.426 Y254.926
(Begin step 10.)
G0 X267.426 Y254.926
(part 1)
G1 X267.426 Y254.926 Z-3.000 F3000.000
G2 X267.426 Y254.926 Z-3.000 I-12.600 J0.030 K3.000 F3000.000
G1 X267.426 Y254.926 Z-3.000 F3000.000
(End of step 10.)
G0 Z3.000
G0 X268.326 Y254.926
(Begin step 11.)
G0 X268.326 Y254.926
(part 1)
G1 X268.326 Y254.926 Z-3.000 F3000.000
G2 X268.326 Y254.926 Z-3.000 I-13.500 J0.030 K3.000 F3000.000
G1 X268.326 Y254.926 Z-3.000 F3000.000
(End of step 11.)
G0 Z3.000
G0 X269.226 Y254.926
(Begin step 12.)
G0 X269.226 Y254.926
(part 1)
G1 X269.226 Y254.926 Z-3.000 F3000.000
G2 X269.226 Y254.926 Z-3.000 I-14.400 J0.030 K3.000 F3000.000
G1 X269.226 Y254.926 Z-3.000 F3000.000
(End of step 12.)
G0 Z3.000
G0 X270.126 Y254.926
(Begin step 13.)
G0 X270.126 Y254.926
(part 1)
G1 X270.126 Y254.926 Z-3.000 F3000.000
G2 X270.126 Y254.926 Z-3.000 I-15.300 J0.030 K3.000 F3000.000
G1 X270.126 Y254.926 Z-3.000 F3000.000
(End of step 13.)
G0 Z3.000
G0 X271.026 Y254.926
(Begin step 14.)
G0 X271.026 Y254.926
(part 1)
G1 X271.026 Y254.926 Z-3.000 F3000.000
G2 X271.026 Y254.926 Z-3.000 I-16.200 J0.030 K3.000 F3000.000
G1 X271.026 Y254.926 Z-3.000 F3000.000
(End of step 14.)
G0 Z3.000
G0 X271.926 Y254.926
(Begin step 15.)
G0 X271.926 Y254.926
(part 1)
G1 X271.926 Y254.926 Z-3.000 F3000.000
G2 X271.926 Y254.926 Z-3.000 I-17.100 J0.030 K3.000 F3000.000
G1 X271.926 Y254.926 Z-3.000 F3000.000
(End of step 15.)
G0 Z3.000
G0 X272.826 Y254.926
(Begin step 16.)
G0 X272.826 Y254.926
(part 1)
G1 X272.826 Y254.926 Z-3.000 F3000.000
G2 X272.826 Y254.926 Z-3.000 I-18.000 J0.030 K3.000 F3000.000
G1 X272.826 Y254.926 Z-3.000 F3000.000
(End of step 16.)
G0 Z3.000
G0 X273.726 Y254.926
(Begin step 17.)
G0 X273.726 Y254.926
(part 1)
G1 X273.726 Y254.926 Z-3.000 F3000.000
G2 X273.726 Y254.926 Z-3.000 I-18.900 J0.030 K3.000 F3000.000
G1 X273.726 Y254.926 Z-3.000 F3000.000
(End of step 17.)
G0 Z3.000
G0 X274.626 Y254.926
(Begin step 18.)
G0 X274.626 Y254.926
(part 1)
G1 X274.626 Y254.926 Z-3.000 F3000.000
G2 X274.626 Y254.926 Z-3.000 I-19.800 J0.030 K3.000 F3000.000
G1 X274.626 Y254.926 Z-3.000 F3000.000
(End of step 18.)
G0 Z3.000
G0 X275.526 Y254.926
(Begin step 19.)
G0 X275.526 Y254.926
(part 1)
G1 X275.526 Y254.926 Z-3.000 F3000.000
G2 X275.526 Y254.926 Z-3.000 I-20.700 J0.030 K3.000 F3000.000
G1 X275.526 Y254.926 Z-3.000 F3000.000
(End of step 19.)
G0 Z3.000
G0 X276.426 Y254.926
(Begin step 20.)
G0 X276.426 Y254.926
(part 1)
G1 X276.426 Y254.926 Z-3.000 F3000.000
G2 X276.426 Y254.926 Z-3.000 I-21.600 J0.030 K3.000 F3000.000
G1 X276.426 Y254.926 Z-3.000 F3000.000
(End of step 20.)
G0 Z3.000
G0 X277.326 Y254.926
(Begin step 21.)
G0 X277.326 Y254.926
(part 1)
G1 X277.326 Y254.926 Z-3.000 F3000.000
G2 X277.326 Y254.926 Z-3.000 I-22.500 J0.030 K3.000 F3000.000
G1 X277.326 Y254.926 Z-3.000 F3000.000
(End of step 21.)
G0 Z3.000
G0 X278.226 Y254.926
(Begin step 22.)
G0 X278.226 Y254.926
(part 1)
G1 X278.226 Y254.926 Z-3.000 F3000.000
G2 X278.226 Y254.926 Z-3.000 I-23.400 J0.030 K3.000 F3000.000
G1 X278.226 Y254.926 Z-3.000 F3000.000
(End of step 22.)
G0 Z3.000
G0 X279.126 Y254.926
(Begin step 23.)
G0 X279.126 Y254.926
(part 1)
G1 X279.126 Y254.926 Z-3.000 F3000.000
G2 X279.126 Y254.926 Z-3.000 I-24.300 J0.030 K3.000 F3000.000
G1 X279.126 Y254.926 Z-3.000 F3000.000
(End of step 23.)
G0 Z3.000
G0 X280.026 Y254.926
(Begin step 24.)
G0 X280.026 Y254.926
(part 1)
G1 X280.026 Y254.926 Z-3.000 F3000.000
G2 X280.026 Y254.926 Z-3.000 I-25.200 J0.030 K3.000 F3000.000
G1 X280.026 Y254.926 Z-3.000 F3000.000
(End of step 24.)
G0 Z3.000
G0 X280.926 Y254.926
(Begin step 25.)
G0 X280.926 Y254.926
(part 1)
G1 X280.926 Y254.926 Z-3.000 F3000.000
G2 X280.926 Y254.926 Z-3.000 I-26.100 J0.030 K3.000 F3000.000
G1 X280.926 Y254.926 Z-3.000 F3000.000
(End of step 25.)
G0 Z3.000
G0 X281.826 Y254.926
(Begin step 26.)
G0 X281.826 Y254.926
(part 1)
G1 X281.826 Y254.926 Z-3.000 F3000.000
G2 X281.826 Y254.926 Z-3.000 I-27.000 J0.030 K3.000 F3000.000
G1 X281.826 Y254.926 Z-3.000 F3000.000
(End of step 26.)
G0 Z3.000
G0 X282.726 Y254.926
(Begin step 27.)
G0 X282.726 Y254.926
(part 1)
G1 X282.726 Y254.926 Z-3.000 F3000.000
G2 X282.726 Y254.926 Z-3.000 I-27.900 J0.030 K3.000 F3000.000
G1 X282.726 Y254.926 Z-3.000 F3000.000
(End of step 27.)
G0 Z3.000
G0 X283.626 Y254.926
(Begin step 28.)
G0 X283.626 Y254.926
(part 1)
G1 X283.626 Y254.926 Z-3.000 F3000.000
G2 X283.626 Y254.926 Z-3.000 I-28.800 J0.030 K3.000 F3000.000
G1 X283.626 Y254.926 Z-3.000 F3000.000
(End of step 28.)
G0 Z3.000
G0 X284.526 Y254.926
(Begin step 29.)
G0 X284.526 Y254.926
(part 1)
G1 X284.526 Y254.926 Z-3.000 F3000.000
G2 X284.526 Y254.926 Z-3.000 I-29.700 J0.030 K3.000 F3000.000
G1 X284.526 Y254.926 Z-3.000 F3000.000
(End of step 29.)
G0 Z3.000
G0 X285.426 Y254.926
(Begin step 30.)
G0 X285.426 Y254.926
(part 1)
G1 X285.426 Y254.926 Z-3.000 F3000.000
G2 X285.426 Y254.926 Z-3.000 I-30.600 J0.030 K3.000 F3000.000
G1 X285.426 Y254.926 Z-3.000 F3000.000
(End of step 30.)
G0 Z3.000
G0 X286.326 Y254.926
(Begin step 31.)
G0 X286.326 Y254.926
(part 1)
G1 X286.326 Y254.926 Z-3.000 F3000.000
G2 X286.326 Y254.926 Z-3.000 I-31.500 J0.030 K3.000 F3000.000
G1 X286.326 Y254.926 Z-3.000 F3000.000
(End of step 31.)
G0 Z3.000
G0 X287.226 Y254.926
(Begin step 32.)
G0 X287.226 Y254.926
(part 1)
G1 X287.226 Y254.926 Z-3.000 F3000.000
G2 X287.226 Y254.926 Z-3.000 I-32.400 J0.030 K3.000 F3000.000
G1 X287.226 Y254.926 Z-3.000 F3000.000
(End of step 32.)
G0 Z3.000
G0 X288.126 Y254.926
(Begin step 33.)
G0 X288.126 Y254.926
(part 1)
G1 X288.126 Y254.926 Z-3.000 F3000.000
G2 X288.126 Y254.926 Z-3.000 I-33.300 J0.030 K3.000 F3000.000
G1 X288.126 Y254.926 Z-3.000 F3000.000
(End of step 33.)
G0 Z3.000
G0 X289.026 Y254.926
(Begin step 34.)
G0 X289.026 Y254.926
(part 1)
G1 X289.026 Y254.926 Z-3.000 F3000.000
G2 X289.026 Y254.926 Z-3.000 I-34.200 J0.030 K3.000 F3000.000
G1 X289.026 Y254.926 Z-3.000 F3000.000
(End of step 34.)
G0 Z3.000
G0 X289.926 Y254.926
(Begin step 35.)
G0 X289.926 Y254.926
(part 1)
G1 X289.926 Y254.926 Z-3.000 F3000.000
G2 X289.926 Y254.926 Z-3.000 I-35.100 J0.030 K3.000 F3000.000
G1 X289.926 Y254.926 Z-3.000 F3000.000
(End of step 35.)
G0 Z3.000
G0 X290.826 Y254.926
(Begin step 36.)
G0 X290.826 Y254.926
(part 1)
G1 X290.826 Y254.926 Z-3.000 F3000.000
G2 X290.826 Y254.926 Z-3.000 I-36.000 J0.030 K3.000 F3000.000
G1 X290.826 Y254.926 Z-3.000 F3000.000
(End of step 36.)
G0 Z3.000
G0 X291.726 Y254.926
(Begin step 37.)
G0 X291.726 Y254.926
(part 1)
G1 X291.726 Y254.926 Z-3.000 F3000.000
G2 X291.726 Y254.926 Z-3.000 I-36.900 J0.030 K3.000 F3000.000
G1 X291.726 Y254.926 Z-3.000 F3000.000
(End of step 37.)
G0 Z3.000
G0 X292.626 Y254.926
(Begin step 38.)
G0 X292.626 Y254.926
(part 1)
G1 X292.626 Y254.926 Z-3.000 F3000.000
G2 X292.626 Y254.926 Z-3.000 I-37.800 J0.030 K3.000 F3000.000
G1 X292.626 Y254.926 Z-3.000 F3000.000
(End of step 38.)
G0 Z3.000
G0 X293.526 Y254.926
(Begin step 39.)
G0 X293.526 Y254.926
(part 1)
G1 X293.526 Y254.926 Z-3.000 F3000.000
G2 X293.526 Y254.926 Z-3.000 I-38.700 J0.030 K3.000 F3000.000
G1 X293.526 Y254.926 Z-3.000 F3000.000
(End of step 39.)
G0 Z3.000
G0 X294.426 Y254.926
(Begin step 40.)
G0 X294.426 Y254.926
(part 1)
G1 X294.426 Y254.926 Z-3.000 F3000.000
G2 X294.426 Y254.926 Z-3.000 I-39.600 J0.030 K3.000 F3000.000
G1 X294.426 Y254.926 Z-3.000 F3000.000
(End of step 40.)
G0 Z3.000
G0 X295.326 Y254.926
(Begin step 41.)
G0 X295.326 Y254.926
(part 1)
G1 X295.326 Y254.926 Z-3.000 F3000.000
G2 X295.326 Y254.926 Z-3.000 I-40.500 J0.030 K3.000 F3000.000
G1 X295.326 Y254.926 Z-3.000 F3000.000
(End of step 41.)
G0 Z3.000
G0 X296.226 Y254.926
(Begin step 42.)
G0 X296.226 Y254.926
(part 1)
G1 X296.226 Y254.926 Z-3.000 F3000.000
G2 X296.226 Y254.926 Z-3.000 I-41.400 J0.030 K3.000 F3000.000
G1 X296.226 Y254.926 Z-3.000 F3000.000
(End of step 42.)
G0 Z3.000
G0 X297.126 Y254.926
(Begin step 43.)
G0 X297.126 Y254.926
(part 1)
G1 X297.126 Y254.926 Z-3.000 F3000.000
G2 X297.126 Y254.926 Z-3.000 I-42.300 J0.030 K3.000 F3000.000
G1 X297.126 Y254.926 Z-3.000 F3000.000
(End of step 43.)
G0 Z3.000
G0 X298.026 Y254.926
(Begin step 44.)
G0 X298.026 Y254.926
(part 1)
G1 X298.026 Y254.926 Z-3.000 F3000.000
G2 X298.026 Y254.926 Z-3.000 I-43.200 J0.030 K3.000 F3000.000
G1 X298.026 Y254.926 Z-3.000 F3000.000
(End of step 44.)
G0 Z3.000
G0 X298.926 Y254.926
(Begin step 45.)
G0 X298.926 Y254.926
(part 1)
G1 X298.926 Y254.926 Z-3.000 F3000.000
G2 X298.926 Y254.926 Z-3.000 I-44.100 J0.030 K3.000 F3000.000
G1 X298.926 Y254.926 Z-3.000 F3000.000
(End of step 45.)
G0 Z3.000
G0 X299.826 Y254.926
(Begin step 46.)
G0 X299.826 Y254.926
(part 1)
G1 X299.826 Y254.926 Z-3.000 F3000.000
G2 X299.826 Y254.926 Z-3.000 I-45.000 J0.030 K3.000 F3000.000
G1 X299.826 Y254.926 Z-3.000 F3000.000
(End of step 46.)
G0 Z3.000
G0 X300.726 Y254.926
(Begin step 47.)
G0 X300.726 Y254.926
(part 1)
G1 X300.726 Y254.926 Z-3.000 F3000.000
G2 X300.726 Y254.926 Z-3.000 I-45.900 J0.030 K3.000 F3000.000
G1 X300.726 Y254.926 Z-3.000 F3000.000
(End of step 47.)
G0 Z3.000
G0 X301.626 Y254.926
(Begin step 48.)
G0 X301.626 Y254.926
(part 1)
G1 X301.626 Y254.926 Z-3.000 F3000.000
G2 X301.626 Y254.926 Z-3.000 I-46.800 J0.030 K3.000 F3000.000
G1 X301.626 Y254.926 Z-3.000 F3000.000
(End of step 48.)
G0 Z3.000
G0 X302.526 Y254.926
(Begin step 49.)
G0 X302.526 Y254.926
(part 1)
G1 X302.526 Y254.926 Z-3.000 F3000.000
G2 X302.526 Y254.926 Z-3.000 I-47.700 J0.030 K3.000 F3000.000
G1 X302.526 Y254.926 Z-3.000 F3000.000
(End of step 49.)
G0 Z3.000
G0 X303.426 Y254.926
(Begin step 50.)
G0 X303.426 Y254.926
(part 1)
G1 X303.426 Y254.926 Z-3.000 F3000.000
G2 X303.426 Y254.926 Z-3.000 I-48.600 J0.030 K3.000 F3000.000
G1 X303.426 Y254.926 Z-3.000 F3000.000
(End of step 50.)
G0 Z3.000
G0 X304.326 Y254.926
(Begin step 51.)
G0 X304.326 Y254.926
(part 1)
G1 X304.326 Y254.926 Z-3.000 F3000.000
G2 X304.326 Y254.926 Z-3.000 I-49.500 J0.030 K3.000 F3000.000
G1 X304.326 Y254.926 Z-3.000 F3000.000
(End of step 51.)
G0 Z3.000
G0 X305.226 Y254.926
(Begin step 52.)
G0 X305.226 Y254.926
(part 1)
G1 X305.226 Y254.926 Z-3.000 F3000.000
G2 X305.226 Y254.926 Z-3.000 I-50.400 J0.030 K3.000 F3000.000
G1 X305.226 Y254.926 Z-3.000 F3000.000
(End of step 52.)
G0 Z3.000
G0 X306.126 Y254.926
(Begin step 53.)
G0 X306.126 Y254.926
(part 1)
G1 X306.126 Y254.926 Z-3.000 F3000.000
G2 X306.126 Y254.926 Z-3.000 I-51.300 J0.030 K3.000 F3000.000
G1 X306.126 Y254.926 Z-3.000 F3000.000
(End of step 53.)
G0 Z3.000
G0 X307.026 Y254.926
(Begin step 54.)
G0 X307.026 Y254.926
(part 1)
G1 X307.026 Y254.926 Z-3.000 F3000.000
G2 X307.026 Y254.926 Z-3.000 I-52.200 J0.030 K3.000 F3000.000
G1 X307.026 Y254.926 Z-3.000 F3000.000
(End of step 54.)
G0 Z3.000
G0 X307.926 Y254.926
(Begin step 55.)
G0 X307.926 Y254.926
(part 1)
G1 X307.926 Y254.926 Z-3.000 F3000.000
G2 X307.926 Y254.926 Z-3.000 I-53.100 J0.030 K3.000 F3000.000
G1 X307.926 Y254.926 Z-3.000 F3000.000
(End of step 55.)
G0 Z3.000
G0 X308.826 Y254.926
(Begin step 56.)
G0 X308.826 Y254.926
(part 1)
G1 X308.826 Y254.926 Z-3.000 F3000.000
G2 X308.826 Y254.926 Z-3.000 I-54.000 J0.030 K3.000 F3000.000
G1 X308.826 Y254.926 Z-3.000 F3000.000
(End of step 56.)
G0 Z3.000
G0 X309.726 Y254.926
(Begin step 57.)
G0 X309.726 Y254.926
(part 1)
G1 X309.726 Y254.926 Z-3.000 F3000.000
G2 X309.726 Y254.926 Z-3.000 I-54.900 J0.030 K3.000 F3000.000
G1 X309.726 Y254.926 Z-3.000 F3000.000
(End of step 57.)
G0 Z3.000
G0 X310.626 Y254.926
(Begin step 58.)
G0 X310.626 Y254.926
(part 1)
G1 X310.626 Y254.926 Z-3.000 F3000.000
G2 X310.626 Y254.926 Z-3.000 I-55.800 J0.030 K3.000 F3000.000
G1 X310.626 Y254.926 Z-3.000 F3000.000
(End of step 58.)
G0 Z3.000
G0 X311.526 Y254.926
(Begin step 59.)
G0 X311.526 Y254.926
(part 1)
G1 X311.526 Y254.926 Z-3.000 F3000.000
G2 X311.526 Y254.926 Z-3.000 I-56.700 J0.030 K3.000 F3000.000
G1 X311.526 Y254.926 Z-3.000 F3000.000
(End of step 59.)
G0 Z3.000
G0 X312.426 Y254.926
(Begin step 60.)
G0 X312.426 Y254.926
(part 1)
G1 X312.426 Y254.926 Z-3.000 F3000.000
G2 X312.426 Y254.926 Z-3.000 I-57.600 J0.030 K3.000 F3000.000
G1 X312.426 Y254.926 Z-3.000 F3000.000
(End of step 60.)
G0 Z3.000
G0 X313.326 Y254.926
(Begin step 61.)
G0 X313.326 Y254.926
(part 1)
G1 X313.326 Y254.926 Z-3.000 F3000.000
G2 X313.326 Y254.926 Z-3.000 I-58.500 J0.030 K3.000 F3000.000
G1 X313.326 Y254.926 Z-3.000 F3000.000
(End of step 61.)
G0 Z3.000
G0 X314.226 Y254.926
(Begin step 62.)
G0 X314.226 Y254.926
(part 1)
G1 X314.226 Y254.926 Z-3.000 F3000.000
G2 X314.226 Y254.926 Z-3.000 I-59.400 J0.030 K3.000 F3000.000
G1 X314.226 Y254.926 Z-3.000 F3000.000
(End of step 62.)
G0 Z3.000
G0 X315.126 Y254.926
(Begin step 63.)
G0 X315.126 Y254.926
(part 1)
G1 X315.126 Y254.926 Z-3.000 F3000.000
G2 X315.126 Y254.926 Z-3.000 I-60.300 J0.030 K3.000 F3000.000
G1 X315.126 Y254.926 Z-3.000 F3000.000
(End of step 63.)
G0 Z3.000
G0 X316.026 Y254.926
(Begin step 64.)
G0 X316.026 Y254.926
(part 1)
G1 X316.026 Y254.926 Z-3.000 F3000.000
G2 X316.026 Y254.926 Z-3.000 I-61.200 J0.030 K3.000 F3000.000
G1 X316.026 Y254.926 Z-3.000 F3000.000
(End of step 64.)
G0 Z3.000
G0 X316.926 Y254.926
(Begin step 65.)
G0 X316.926 Y254.926
(part 1)
G1 X316.926 Y254.926 Z-3.000 F3000.000
G2 X316.926 Y254.926 Z-3.000 I-62.100 J0.030 K3.000 F3000.000
G1 X316.926 Y254.926 Z-3.000 F3000.000
(End of step 65.)
G0 Z3.000
G0 X317.826 Y254.926
(Begin step 66.)
G0 X317.826 Y254.926
(part 1)
G1 X317.826 Y254.926 Z-3.000 F3000.000
G2 X317.826 Y254.926 Z-3.000 I-63.000 J0.030 K3.000 F3000.000
G1 X317.826 Y254.926 Z-3.000 F3000.000
(End of step 66.)
G0 Z3.000
G0 X318.726 Y254.926
(Begin step 67.)
G0 X318.726 Y254.926
(part 1)
G1 X318.726 Y254.926 Z-3.000 F3000.000
G2 X318.726 Y254.926 Z-3.000 I-63.900 J0.030 K3.000 F3000.000
G1 X318.726 Y254.926 Z-3.000 F3000.000
(End of step 67.)
G0 Z3.000
G0 X319.626 Y254.926
(Begin step 68.)
G0 X319.626 Y254.926
(part 1)
G1 X319.626 Y254.926 Z-3.000 F3000.000
G2 X319.626 Y254.926 Z-3.000 I-64.800 J0.030 K3.000 F3000.000
G1 X319.626 Y254.926 Z-3.000 F3000.000
(End of step 68.)
G0 Z3.000
G0 X320.526 Y254.926
(Begin step 69.)
G0 X320.526 Y254.926
(part 1)
G1 X320.526 Y254.926 Z-3.000 F3000.000
G2 X320.526 Y254.926 Z-3.000 I-65.700 J0.030 K3.000 F3000.000
G1 X320.526 Y254.926 Z-3.000 F3000.000
(End of step 69.)
G0 Z3.000
G0 X321.426 Y254.926
(Begin step 70.)
G0 X321.426 Y254.926
(part 1)
G1 X321.426 Y254.926 Z-3.000 F3000.000
G2 X321.426 Y254.926 Z-3.000 I-66.600 J0.030 K3.000 F3000.000
G1 X321.426 Y254.926 Z-3.000 F3000.000
(End of step 70.)
G0 Z3.000
G0 X322.326 Y254.926
(Begin step 71.)
G0 X322.326 Y254.926
(part 1)
G1 X322.326 Y254.926 Z-3.000 F3000.000
G2 X322.326 Y254.926 Z-3.000 I-67.500 J0.030 K3.000 F3000.000
G1 X322.326 Y254.926 Z-3.000 F3000.000
(End of step 71.)
G0 Z3.000
G0 X323.226 Y254.926
(Begin step 72.)
G0 X323.226 Y254.926
(part 1)
G1 X323.226 Y254.926 Z-3.000 F3000.000
G2 X323.226 Y254.926 Z-3.000 I-68.400 J0.030 K3.000 F3000.000
G1 X323.226 Y254.926 Z-3.000 F3000.000
(End of step 72.)
G0 Z3.000
G0 X324.126 Y254.926
(Begin step 73.)
G0 X324.126 Y254.926
(part 1)
G1 X324.126 Y254.926 Z-3.000 F3000.000
G2 X324.126 Y254.926 Z-3.000 I-69.300 J0.030 K3.000 F3000.000
G1 X324.126 Y254.926 Z-3.000 F3000.000
(End of step 73.)
G0 Z3.000
G0 X325.026 Y254.926
(Begin step 74.)
G0 X325.026 Y254.926
(part 1)
G1 X325.026 Y254.926 Z-3.000 F3000.000
G2 X325.026 Y254.926 Z-3.000 I-70.200 J0.030 K3.000 F3000.000
G1 X325.026 Y254.926 Z-3.000 F3000.000
(End of step 74.)
G0 Z3.000
G0 X325.926 Y254.926
(Begin step 75.)
G0 X325.926 Y254.926
(part 1)
G1 X325.926 Y254.926 Z-3.000 F3000.000
G2 X325.926 Y254.926 Z-3.000 I-71.100 J0.030 K3.000 F3000.000
G1 X325.926 Y254.926 Z-3.000 F3000.000
(End of step 75.)
G0 Z3.000
G0 X326.826 Y254.926
(Begin step 76.)
G0 X326.826 Y254.926
(part 1)
G1 X326.826 Y254.926 Z-3.000 F3000.000
G2 X326.826 Y254.926 Z-3.000 I-72.000 J0.030 K3.000 F3000.000
G1 X326.826 Y254.926 Z-3.000 F3000.000
(End of step 76.)
G0 Z3.000
G0 X327.726 Y254.926
(Begin step 77.)
G0 X327.726 Y254.926
(part 1)
G1 X327.726 Y254.926 Z-3.000 F3000.000
G2 X327.726 Y254.926 Z-3.000 I-72.900 J0.030 K3.000 F3000.000
G1 X327.726 Y254.926 Z-3.000 F3000.000
(End of step 77.)
G0 Z3.000
G0 X328.626 Y254.926
(Begin step 78.)
G0 X328.626 Y254.926
(part 1)
G1 X328.626 Y254.926 Z-3.000 F3000.000
G2 X328.626 Y254.926 Z-3.000 I-73.800 J0.030 K3.000 F3000.000
G1 X328.626 Y254.926 Z-3.000 F3000.000
(End of step 78.)
G0 Z3.000
G0 X329.526 Y254.926
(Begin step 79.)
G0 X329.526 Y254.926
(part 1)
G1 X329.526 Y254.926 Z-3.000 F3000.000
G2 X329.526 Y254.926 Z-3.000 I-74.700 J0.030 K3.000 F3000.000
G1 X329.526 Y254.926 Z-3.000 F3000.000
(End of step 79.)
G0 Z3.000
G0 X330.426 Y254.926
(Begin step 80.)
G0 X330.426 Y254.926
(part 1)
G1 X330.426 Y254.926 Z-3.000 F3000.000
G2 X330.426 Y254.926 Z-3.000 I-75.600 J0.030 K3.000 F3000.000
G1 X330.426 Y254.926 Z-3.000 F3000.000
(End of step 80.)
G0 Z3.000
G0 X331.326 Y254.926
(Begin step 81.)
G0 X331.326 Y254.926
(part 1)
G1 X331.326 Y254.926 Z-3.000 F3000.000
G2 X331.326 Y254.926 Z-3.000 I-76.500 J0.030 K3.000 F3000.000
G1 X331.326 Y254.926 Z-3.000 F3000.000
(End of step 81.)
G0 Z3.000
G0 X332.226 Y254.926
(Begin step 82.)
G0 X332.226 Y254.926
(part 1)
G1 X332.226 Y254.926 Z-3.000 F3000.000
G2 X332.226 Y254.926 Z-3.000 I-77.400 J0.030 K3.000 F3000.000
G1 X332.226 Y254.926 Z-3.000 F3000.000
(End of step 82.)
G0 Z3.000
G0 X333.126 Y254.926
(Begin step 83.)
G0 X333.126 Y254.926
(part 1)
G1 X333.126 Y254.926 Z-3.000 F3000.000
G2 X333.126 Y254.926 Z-3.000 I-78.300 J0.030 K3.000 F3000.000
G1 X333.126 Y254.926 Z-3.000 F3000.000
(End of step 83.)
G0 Z3.000
G0 X334.026 Y254.926
(Begin step 84.)
G0 X334.026 Y254.926
(part 1)
G1 X334.026 Y254.926 Z-3.000 F3000.000
G2 X334.026 Y254.926 Z-3.000 I-79.200 J0.030 K3.000 F3000.000
G1 X334.026 Y254.926 Z-3.000 F3000.000
(End of step 84.)
G0 Z3.000
G0 X334.926 Y254.926
(Begin step 85.)
G0 X334.926 Y254.926
(part 1)
G1 X334.926 Y254.926 Z-3.000 F3000.000
G2 X334.926 Y254.926 Z-3.000 I-80.100 J0.030 K3.000 F3000.000
G1 X334.926 Y254.926 Z-3.000 F3000.000
(End of step 85.)
G0 Z3.000
G0 X335.826 Y254.926
(Begin step 86.)
G0 X335.826 Y254.926
(part 1)
G1 X335.826 Y254.926 Z-3.000 F3000.000
G2 X335.826 Y254.926 Z-3.000 I-81.000 J0.030 K3.000 F3000.000
G1 X335.826 Y254.926 Z-3.000 F3000.000
(End of step 86.)
G0 Z3.000
G0 X336.726 Y254.926
(Begin step 87.)
G0 X336.726 Y254.926
(part 1)
G1 X336.726 Y254.926 Z-3.000 F3000.000
G2 X336.726 Y254.926 Z-3.000 I-81.900 J0.030 K3.000 F3000.000
G1 X336.726 Y254.926 Z-3.000 F3000.000
(End of step 87.)
G0 Z3.000
G0 X337.626 Y254.926
(Begin step 88.)
G0 X337.626 Y254.926
(part 1)
G1 X337.626 Y254.926 Z-3.000 F3000.000
G2 X337.626 Y254.926 Z-3.000 I-82.800 J0.030 K3.000 F3000.000
G1 X337.626 Y254.926 Z-3.000 F3000.000
(End of step 88.)
G0 Z3.000
G0 X338.526 Y254.926
(Begin step 89.)
G0 X338.526 Y254.926
(part 1)
G1 X338.526 Y254.926 Z-3.000 F3000.000
G2 X338.526 Y254.926 Z-3.000 I-83.700 J0.030 K3.000 F3000.000
G1 X338.526 Y254.926 Z-3.000 F3000.000
(End of step 89.)
G0 Z3.000
G0 X339.426 Y254.926
(Begin step 90.)
G0 X339.426 Y254.926
(part 1)
G1 X339.426 Y254.926 Z-3.000 F3000.000
G2 X339.426 Y254.926 Z-3.000 I-84.600 J0.030 K3.000 F3000.000
G1 X339.426 Y254.926 Z-3.000 F3000.000
(End of step 90.)
G0 Z3.000
G0 X340.326 Y254.926
(Begin step 91.)
G0 X340.326 Y254.926
(part 1)
G1 X340.326 Y254.926 Z-3.000 F3000.000
G2 X340.326 Y254.926 Z-3.000 I-85.500 J0.030 K3.000 F3000.000
G1 X340.326 Y254.926 Z-3.000 F3000.000
(End of step 91.)
G0 Z3.000
G0 X341.226 Y254.926
(Begin step 92.)
G0 X341.226 Y254.926
(part 1)
G1 X341.226 Y254.926 Z-3.000 F3000.000
G2 X341.226 Y254.926 Z-3.000 I-86.400 J0.030 K3.000 F3000.000
G1 X341.226 Y254.926 Z-3.000 F3000.000
(End of step 92.)
G0 Z3.000
G0 X342.126 Y254.926
(Begin step 93.)
G0 X342.126 Y254.926
(part 1)
G1 X342.126 Y254.926 Z-3.000 F3000.000
G2 X342.126 Y254.926 Z-3.000 I-87.300 J0.030 K3.000 F3000.000
G1 X342.126 Y254.926 Z-3.000 F3000.000
(End of step 93.)
G0 Z3.000
G0 X343.026 Y254.926
(Begin step 94.)
G0 X343.026 Y254.926
(part 1)
G1 X343.026 Y254.926 Z-3.000 F3000.000
G2 X343.026 Y254.926 Z-3.000 I-88.200 J0.030 K3.000 F3000.000
G1 X343.026 Y254.926 Z-3.000 F3000.000
(End of step 94.)
G0 Z3.000
G0 X343.926 Y254.926
(Begin step 95.)
G0 X343.926 Y254.926
(part 1)
G1 X343.926 Y254.926 Z-3.000 F3000.000
G2 X343.926 Y254.926 Z-3.000 I-89.100 J0.030 K3.000 F3000.000
G1 X343.926 Y254.926 Z-3.000 F3000.000
(End of step 95.)
G0 Z3.000
G0 X344.826 Y254.926
(Begin step 96.)
G0 X344.826 Y254.926
(part 1)
G1 X344.826 Y254.926 Z-3.000 F3000.000
G2 X344.826 Y254.926 Z-3.000 I-90.000 J0.030 K3.000 F3000.000
G1 X344.826 Y254.926 Z-3.000 F3000.000
(End of step 96.)
G0 Z3.000
G0 X345.726 Y254.926
(Begin step 97.)
G0 X345.726 Y254.926
(part 1)
G1 X345.726 Y254.926 Z-3.000 F3000.000
G2 X345.726 Y254.926 Z-3.000 I-90.900 J0.030 K3.000 F3000.000
G1 X345.726 Y254.926 Z-3.000 F3000.000
(End of step 97.)
G0 Z3.000
G0 X346.626 Y254.926
(Begin step 98.)
G0 X346.626 Y254.926
(part 1)
G1 X346.626 Y254.926 Z-3.000 F3000.000
G2 X346.626 Y254.926 Z-3.000 I-91.800 J0.030 K3.000 F3000.000
G1 X346.626 Y254.926 Z-3.000 F3000.000
(End of step 98.)
G0 Z3.000
G0 X347.526 Y254.926
(Begin step 99.)
G0 X347.526 Y254.926
(part 1)
G1 X347.526 Y254.926 Z-3.000 F3000.000
G2 X347.526 Y254.926 Z-3.000 I-92.700 J0.030 K3.000 F3000.000
G1 X347.526 Y254.926 Z-3.000 F3000.000
(End of step 99.)
G0 Z3.000
G0 X348.426 Y254.926
(Begin step 100.)
G0 X348.426 Y254.926
(part 1)
G1 X348.426 Y254.926 Z-3.000 F3000.000
G2 X348.426 Y254.926 Z-3.000 I-93.600 J0.030 K3.000 F3000.000
G1 X348.426 Y254.926 Z-3.000 F3000.000
(End of step 100.)
G0 Z3.000
G0 X349.326 Y254.926
(Begin step 101.)
G0 X349.326 Y254.926
(part 1)
G1 X349.326 Y254.926 Z-3.000 F3000.000
G2 X349.326 Y254.926 Z-3.000 I-94.500 J0.030 K3.000 F3000.000
G1 X349.326 Y254.926 Z-3.000 F3000.000
(End of step 101.)
G0 Z3.000
G0 X350.226 Y254.926
(Begin step 102.)
G0 X350.226 Y254.926
(part 1)
G1 X350.226 Y254.926 Z-3.000 F3000.000
G2 X350.226 Y254.926 Z-3.000 I-95.400 J0.030 K3.000 F3000.000
G1 X350.226 Y254.926 Z-3.000 F3000.000
(End of step 102.)
G0 Z3.000
G0 X351.126 Y254.926
(Begin step 103.)
G0 X351.126 Y254.926
(part 1)
G1 X351.126 Y254.926 Z-3.000 F3000.000
G2 X351.126 Y254.926 Z-3.000 I-96.300 J0.030 K3.000 F3000.000
G1 X351.126 Y254.926 Z-3.000 F3000.000
(End of step 103.)
G0 Z3.000
G0 X352.026 Y254.926
(Begin step 104.)
G0 X352.026 Y254.926
(part 1)
G1 X352.026 Y254.926 Z-3.000 F3000.000
G2 X352.026 Y254.926 Z-3.000 I-97.200 J0.030 K3.000 F3000.000
G1 X352.026 Y254.926 Z-3.000 F3000.000
(End of step 104.)
G0 Z3.000
G0 X352.926 Y254.926
(Begin step 105.)
G0 X352.926 Y254.926
(part 1)
G1 X352.926 Y254.926 Z-3.000 F3000.000
G2 X352.926 Y254.926 Z-3.000 I-98.100 J0.030 K3.000 F3000.000
G1 X352.926 Y254.926 Z-3.000 F3000.000
(End of step 105.)
G0 Z3.000
G0 X353.826 Y254.926
(Begin step 106.)
G0 X353.826 Y254.926
(part 1)
G1 X353.826 Y254.926 Z-3.000 F3000.000
G2 X353.826 Y254.926 Z-3.000 I-99.000 J0.030 K3.000 F3000.000
G1 X353.826 Y254.926 Z-3.000 F3000.000
(End of step 106.)
G0 Z3.000
G0 X354.726 Y254.926
(Begin step 107.)
G0 X354.726 Y254.926
(part 1)
G1 X354.726 Y254.926 Z-3.000 F3000.000
G2 X354.726 Y254.926 Z-3.000 I-99.900 J0.030 K3.000 F3000.000
G1 X354.726 Y254.926 Z-3.000 F3000.000
(End of step 107.)
G0 Z3.000
G0 X355.626 Y254.926
(Begin step 108.)
G0 X355.626 Y254.926
(part 1)
G1 X355.626 Y254.926 Z-3.000 F3000.000
G2 X355.626 Y254.926 Z-3.000 I-100.800 J0.030 K3.000 F3000.000
G1 X355.626 Y254.926 Z-3.000 F3000.000
(End of step 108.)
G0 Z3.000
G0 X356.526 Y254.926
(Begin step 109.)
G0 X356.526 Y254.926
(part 1)
G1 X356.526 Y254.926 Z-3.000 F3000.000
G2 X356.526 Y254.926 Z-3.000 I-101.700 J0.030 K3.000 F3000.000
G1 X356.526 Y254.926 Z-3.000 F3000.000
(End of step 109.)
G0 Z3.000
G0 X357.426 Y254.926
(Begin step 110.)
G0 X357.426 Y254.926
(part 1)
G1 X357.426 Y254.926 Z-3.000 F3000.000
G2 X357.426 Y254.926 Z-3.000 I-102.600 J0.030 K3.000 F3000.000
G1 X357.426 Y254.926 Z-3.000 F3000.000
(End of step 110.)
G0 Z3.000
G0 X358.326 Y254.926
(Begin step 111.)
G0 X358.326 Y254.926
(part 1)
G1 X358.326 Y254.926 Z-3.000 F3000.000
G2 X358.326 Y254.926 Z-3.000 I-103.500 J0.030 K3.000 F3000.000
G1 X358.326 Y254.926 Z-3.000 F3000.000
(End of step 111.)
G0 Z3.000
G0 X359.226 Y254.926
(Begin step 112.)
G0 X359.226 Y254.926
(part 1)
G1 X359.226 Y254.926 Z-3.000 F3000.000
G2 X359.226 Y254.926 Z-3.000 I-104.400 J0.030 K3.000 F3000.000
G1 X359.226 Y254.926 Z-3.000 F3000.000
(End of step 112.)
G0 Z3.000
G0 X360.126 Y254.926
(Begin step 113.)
G0 X360.126 Y254.926
(part 1)
G1 X360.126 Y254.926 Z-3.000 F3000.000
G2 X360.126 Y254.926 Z-3.000 I-105.300 J0.030 K3.000 F3000.000
G1 X360.126 Y254.926 Z-3.000 F3000.000
(End of step 113.)
G0 Z3.000
G0 X361.026 Y254.926
(Begin step 114.)
G0 X361.026 Y254.926
(part 1)
G1 X361.026 Y254.926 Z-3.000 F3000.000
G2 X361.026 Y254.926 Z-3.000 I-106.200 J0.030 K3.000 F3000.000
G1 X361.026 Y254.926 Z-3.000 F3000.000
(End of step 114.)
G0 Z3.000
G0 X361.926 Y254.926
(Begin step 115.)
G0 X361.926 Y254.926
(part 1)
G1 X361.926 Y254.926 Z-3.000 F3000.000
G2 X361.926 Y254.926 Z-3.000 I-107.100 J0.030 K3.000 F3000.000
G1 X361.926 Y254.926 Z-3.000 F3000.000
(End of step 115.)
G0 Z3.000
G0 X362.826 Y254.926
(Begin step 116.)
G0 X362.826 Y254.926
(part 1)
G1 X362.826 Y254.926 Z-3.000 F3000.000
G2 X362.826 Y254.926 Z-3.000 I-108.000 J0.030 K3.000 F3000.000
G1 X362.826 Y254.926 Z-3.000 F3000.000
(End of step 116.)
G0 Z3.000
G0 X363.726 Y254.926
(Begin step 117.)
G0 X363.726 Y254.926
(part 1)
G1 X363.726 Y254.926 Z-3.000 F3000.000
G2 X363.726 Y254.926 Z-3.000 I-108.900 J0.030 K3.000 F3000.000
G1 X363.726 Y254.926 Z-3.000 F3000.000
(End of step 117.)
G0 Z3.000
G0 X364.626 Y254.926
(Begin step 118.)
G0 X364.626 Y254.926
(part 1)
G1 X364.626 Y254.926 Z-3.000 F3000.000
G2 X364.626 Y254.926 Z-3.000 I-109.800 J0.030 K3.000 F3000.000
G1 X364.626 Y254.926 Z-3.000 F3000.000
(End of step 118.)
G0 Z3.000
G0 X365.526 Y254.926
(Begin step 119.)
G0 X365.526 Y254.926
(part 1)
G1 X365.526 Y254.926 Z-3.000 F3000.000
G2 X365.526 Y254.926 Z-3.000 I-110.700 J0.030 K3.000 F3000.000
G1 X365.526 Y254.926 Z-3.000 F3000.000
(End of step 119.)
G0 Z3.000
G0 X366.426 Y254.926
(Begin step 120.)
G0 X366.426 Y254.926
(part 1)
G1 X366.426 Y254.926 Z-3.000 F3000.000
G2 X366.426 Y254.926 Z-3.000 I-111.600 J0.030 K3.000 F3000.000
G1 X366.426 Y254.926 Z-3.000 F3000.000
(End of step 120.)
G0 Z3.000
G0 X367.326 Y254.926
(Begin step 121.)
G0 X367.326 Y254.926
(part 1)
G1 X367.326 Y254.926 Z-3.000 F3000.000
G2 X367.326 Y254.926 Z-3.000 I-112.500 J0.030 K3.000 F3000.000
G1 X367.326 Y254.926 Z-3.000 F3000.000
(End of step 121.)
G0 Z3.000
G0 X368.226 Y254.926
(Begin step 122.)
G0 X368.226 Y254.926
(part 1)
G1 X368.226 Y254.926 Z-3.000 F3000.000
G2 X368.226 Y254.926 Z-3.000 I-113.400 J0.030 K3.000 F3000.000
G1 X368.226 Y254.926 Z-3.000 F3000.000
(End of step 122.)
G0 Z3.000
G0 X369.126 Y254.926
(Begin step 123.)
G0 X369.126 Y254.926
(part 1)
G1 X369.126 Y254.926 Z-3.000 F3000.000
G2 X369.126 Y254.926 Z-3.000 I-114.300 J0.030 K3.000 F3000.000
G1 X369.126 Y254.926 Z-3.000 F3000.000
(End of step 123.)
G0 Z3.000
G0 X370.026 Y254.926
(Begin step 124.)
G0 X370.026 Y254.926
(part 1)
G1 X370.026 Y254.926 Z-3.000 F3000.000
G2 X370.026 Y254.926 Z-3.000 I-115.200 J0.030 K3.000 F3000.000
G1 X370.026 Y254.926 Z-3.000 F3000.000
(End of step 124.)
G0 Z3.000
G0 X370.926 Y254.926
(Begin step 125.)
G0 X370.926 Y254.926
(part 1)
G1 X370.926 Y254.926 Z-3.000 F3000.000
G2 X370.926 Y254.926 Z-3.000 I-116.100 J0.030 K3.000 F3000.000
G1 X370.926 Y254.926 Z-3.000 F3000.000
(End of step 125.)
G0 Z3.000
G0 X371.826 Y254.926
(Begin step 126.)
G0 X371.826 Y254.926
(part 1)
G1 X371.826 Y254.926 Z-3.000 F3000.000
G2 X371.826 Y254.926 Z-3.000 I-117.000 J0.030 K3.000 F3000.000
G1 X371.826 Y254.926 Z-3.000 F3000.000
(End of step 126.)
G0 Z3.000
G0 X372.726 Y254.926
(Begin step 127.)
G0 X372.726 Y254.926
(part 1)
G1 X372.726 Y254.926 Z-3.000 F3000.000
G2 X372.726 Y254.926 Z-3.000 I-117.900 J0.030 K3.000 F3000.000
G1 X372.726 Y254.926 Z-3.000 F3000.000
(End of step 127.)
G0 Z3.000
G0 X373.626 Y254.926
(Begin step 128.)
G0 X373.626 Y254.926
(part 1)
G1 X373.626 Y254.926 Z-3.000 F3000.000
G2 X373.626 Y254.926 Z-3.000 I-118.800 J0.030 K3.000 F3000.000
G1 X373.626 Y254.926 Z-3.000 F3000.000
(End of step 128.)
G0 Z3.000
G0 X374.526 Y254.926
(Begin step 129.)
G0 X374.526 Y254.926
(part 1)
G1 X374.526 Y254.926 Z-3.000 F3000.000
G2 X374.526 Y254.926 Z-3.000 I-119.700 J0.030 K3.000 F3000.000
G1 X374.526 Y254.926 Z-3.000 F3000.000
(End of step 129.)
G0 Z3.000
G0 X375.426 Y254.926
(Begin step 130.)
G0 X375.426 Y254.926
(part 1)
G1 X375.426 Y254.926 Z-3.000 F3000.000
G2 X375.426 Y254.926 Z-3.000 I-120.600 J0.030 K3.000 F3000.000
G1 X375.426 Y254.926 Z-3.000 F3000.000
(End of step 130.)
G0 Z3.000
G0 X376.326 Y254.926
(Begin step 131.)
G0 X376.326 Y254.926
(part 1)
G1 X376.326 Y254.926 Z-3.000 F3000.000
G2 X376.326 Y254.926 Z-3.000 I-121.500 J0.030 K3.000 F3000.000
G1 X376.326 Y254.926 Z-3.000 F3000.000
(End of step 131.)
G0 Z3.000
G0 X377.226 Y254.926
(Begin step 132.)
G0 X377.226 Y254.926
(part 1)
G1 X377.226 Y254.926 Z-3.000 F3000.000
G2 X377.226 Y254.926 Z-3.000 I-122.400 J0.030 K3.000 F3000.000
G1 X377.226 Y254.926 Z-3.000 F3000.000
(End of step 132.)
G0 Z3.000
G0 X378.126 Y254.926
(Begin step 133.)
G0 X378.126 Y254.926
(part 1)
G1 X378.126 Y254.926 Z-3.000 F3000.000
G2 X378.126 Y254.926 Z-3.000 I-123.300 J0.030 K3.000 F3000.000
G1 X378.126 Y254.926 Z-3.000 F3000.000
(End of step 133.)
G0 Z3.000
G0 X379.026 Y254.926
(Begin step 134.)
G0 X379.026 Y254.926
(part 1)
G1 X379.026 Y254.926 Z-3.000 F3000.000
G2 X379.026 Y254.926 Z-3.000 I-124.200 J0.030 K3.000 F3000.000
G1 X379.026 Y254.926 Z-3.000 F3000.000
(End of step 134.)
G0 Z3.000
G0 X379.926 Y254.926
(Begin step 135.)
G0 X379.926 Y254.926
(part 1)
G1 X379.926 Y254.926 Z-3.000 F3000.000
G2 X379.926 Y254.926 Z-3.000 I-125.100 J0.030 K3.000 F3000.000
G1 X379.926 Y254.926 Z-3.000 F3000.000
(End of step 135.)
G0 Z3.000
G0 X380.826 Y254.926
(Begin step 136.)
G0 X380.826 Y254.926
(part 1)
G1 X380.826 Y254.926 Z-3.000 F3000.000
G2 X380.826 Y254.926 Z-3.000 I-126.000 J0.030 K3.000 F3000.000
G1 X380.826 Y254.926 Z-3.000 F3000.000
(End of step 136.)
G0 Z3.000
G0 X381.726 Y254.926
(Begin step 137.)
G0 X381.726 Y254.926
(part 1)
G1 X381.726 Y254.926 Z-3.000 F3000.000
G2 X381.726 Y254.926 Z-3.000 I-126.900 J0.030 K3.000 F3000.000
G1 X381.726 Y254.926 Z-3.000 F3000.000
(End of step 137.)
G0 Z3.000
G0 X382.626 Y254.926
(Begin step 138.)
G0 X382.626 Y254.926
(part 1)
G1 X382.626 Y254.926 Z-3.000 F3000.000
G2 X382.626 Y254.926 Z-3.000 I-127.800 J0.030 K3.000 F3000.000
G1 X382.626 Y254.926 Z-3.000 F3000.000
(End of step 138.)
G0 Z3.000
G0 X383.526 Y254.926
(Begin step 139.)
G0 X383.526 Y254.926
(part 1)
G1 X383.526 Y254.926 Z-3.000 F3000.000
G2 X383.526 Y254.926 Z-3.000 I-128.700 J0.030 K3.000 F3000.000
G1 X383.526 Y254.926 Z-3.000 F3000.000
(End of step 139.)
G0 Z3.000
G0 X384.426 Y254.926
(Begin step 140.)
G0 X384.426 Y254.926
(part 1)
G1 X384.426 Y254.926 Z-3.000 F3000.000
G2 X384.426 Y254.926 Z-3.000 I-129.600 J0.030 K3.000 F3000.000
G1 X384.426 Y254.926 Z-3.000 F3000.000
(End of step 140.)
G0 Z3.000
G0 X385.326 Y254.926
(Begin step 141.)
G0 X385.326 Y254.926
(part 1)
G1 X385.326 Y254.926 Z-3.000 F3000.000
G2 X385.326 Y254.926 Z-3.000 I-130.500 J0.030 K3.000 F3000.000
G1 X385.326 Y254.926 Z-3.000 F3000.000
(End of step 141.)
G0 Z3.000
G0 X386.226 Y254.926
(Begin step 142.)
G0 X386.226 Y254.926
(part 1)
G1 X386.226 Y254.926 Z-3.000 F3000.000
G2 X386.226 Y254.926 Z-3.000 I-131.400 J0.030 K3.000 F3000.000
G1 X386.226 Y254.926 Z-3.000 F3000.000
(End of step 142.)
G0 Z3.000
G0 X387.126 Y254.926
(Begin step 143.)
G0 X387.126 Y254.926
(part 1)
G1 X387.126 Y254.926 Z-3.000 F3000.000
G2 X387.126 Y254.926 Z-3.000 I-132.300 J0.030 K3.000 F3000.000
G1 X387.126 Y254.926 Z-3.000 F3000.000
(End of step 143.)
G0 Z3.000
G0 X388.026 Y254.926
(Begin step 144.)
G0 X388.026 Y254.926
(part 1)
G1 X388.026 Y254.926 Z-3.000 F3000.000
G2 X388.026 Y254.926 Z-3.000 I-133.200 J0.030 K3.000 F3000.000
G1 X388.026 Y254.926 Z-3.000 F3000.000
(End of step 144.)
G0 Z3.000
G0 X388.926 Y254.926
(Begin step 145.)
G0 X388.926 Y254.926
(part 1)
G1 X388.926 Y254.926 Z-3.000 F3000.000
G2 X388.926 Y254.926 Z-3.000 I-134.100 J0.030 K3.000 F3000.000
G1 X388.926 Y254.926 Z-3.000 F3000.000
(End of step 145.)
G0 Z3.000
G0 X389.826 Y254.926
(Begin step 146.)
G0 X389.826 Y254.926
(part 1)
G1 X389.826 Y254.926 Z-3.000 F3000.000
G2 X389.826 Y254.926 Z-3.000 I-135.000 J0.030 K3.000 F3000.000
G1 X389.826 Y254.926 Z-3.000 F3000.000
(End of step 146.)
G0 Z3.000
G0 X390.726 Y254.926
(Begin step 147.)
G0 X390.726 Y254.926
(part 1)
G1 X390.726 Y254.926 Z-3.000 F3000.000
G2 X390.726 Y254.926 Z-3.000 I-135.900 J0.030 K3.000 F3000.000
G1 X390.726 Y254.926 Z-3.000 F3000.000
(End of step 147.)
G0 Z3.000
G0 X391.626 Y254.926
(Begin step 148.)
G0 X391.626 Y254.926
(part 1)
G1 X391.626 Y254.926 Z-3.000 F3000.000
G2 X391.626 Y254.926 Z-3.000 I-136.800 J0.030 K3.000 F3000.000
G1 X391.626 Y254.926 Z-3.000 F3000.000
(End of step 148.)
G0 Z3.000
G0 X392.526 Y254.926
(Begin step 149.)
G0 X392.526 Y254.926
(part 1)
G1 X392.526 Y254.926 Z-3.000 F3000.000
G2 X392.526 Y254.926 Z-3.000 I-137.700 J0.030 K3.000 F3000.000
G1 X392.526 Y254.926 Z-3.000 F3000.000
(End of step 149.)
G0 Z3.000
G0 X393.426 Y254.926
(Begin step 150.)
G0 X393.426 Y254.926
(part 1)
G1 X393.426 Y254.926 Z-3.000 F3000.000
G2 X393.426 Y254.926 Z-3.000 I-138.600 J0.030 K3.000 F3000.000
G1 X393.426 Y254.926 Z-3.000 F3000.000
(End of step 150.)
G0 Z3.000
G0 X394.326 Y254.926
(Begin step 151.)
G0 X394.326 Y254.926
(part 1)
G1 X394.326 Y254.926 Z-3.000 F3000.000
G2 X394.326 Y254.926 Z-3.000 I-139.500 J0.030 K3.000 F3000.000
G1 X394.326 Y254.926 Z-3.000 F3000.000
(End of step 151.)
G0 Z3.000
G0 X395.226 Y254.926
(Begin step 152.)
G0 X395.226 Y254.926
(part 1)
G1 X395.226 Y254.926 Z-3.000 F3000.000
G2 X395.226 Y254.926 Z-3.000 I-140.400 J0.030 K3.000 F3000.000
G1 X395.226 Y254.926 Z-3.000 F3000.000
(End of step 152.)
G0 Z3.000
G0 X396.126 Y254.926
(Begin step 153.)
G0 X396.126 Y254.926
(part 1)
G1 X396.126 Y254.926 Z-3.000 F3000.000
G2 X396.126 Y254.926 Z-3.000 I-141.300 J0.030 K3.000 F3000.000
G1 X396.126 Y254.926 Z-3.000 F3000.000
(End of step 153.)
G0 Z3.000
G0 X397.026 Y254.926
(Begin step 154.)
G0 X397.026 Y254.926
(part 1)
G1 X397.026 Y254.926 Z-3.000 F3000.000
G2 X397.026 Y254.926 Z-3.000 I-142.200 J0.030 K3.000 F3000.000
G1 X397.026 Y254.926 Z-3.000 F3000.000
(End of step 154.)
G0 Z3.000
G0 X397.926 Y254.926
(Begin step 155.)
G0 X397.926 Y254.926
(part 1)
G1 X397.926 Y254.926 Z-3.000 F3000.000
G2 X397.926 Y254.926 Z-3.000 I-143.100 J0.030 K3.000 F3000.000
G1 X397.926 Y254.926 Z-3.000 F3000.000
(End of step 155.)
G0 Z3.000
G0 X398.826 Y254.926
(Begin step 156.)
G0 X398.826 Y254.926
(part 1)
G1 X398.826 Y254.926 Z-3.000 F3000.000
G2 X398.826 Y254.926 Z-3.000 I-144.000 J0.030 K3.000 F3000.000
G1 X398.826 Y254.926 Z-3.000 F3000.000
(End of step 156.)
G0 Z3.000
G0 X399.726 Y254.926
(Begin step 157.)
G0 X399.726 Y254.926
(part 1)
G1 X399.726 Y254.926 Z-3.000 F3000.000
G2 X399.726 Y254.926 Z-3.000 I-144.900 J0.030 K3.000 F3000.000
G1 X399.726 Y254.926 Z-3.000 F3000.000
(End of step 157.)
G0 Z3.000
G0 X400.626 Y254.926
(Begin step 158.)
G0 X400.626 Y254.926
(part 1)
G1 X400.626 Y254.926 Z-3.000 F3000.000
G2 X400.626 Y254.926 Z-3.000 I-145.800 J0.030 K3.000 F3000.000
G1 X400.626 Y254.926 Z-3.000 F3000.000
(End of step 158.)
G0 Z3.000
G0 X401.526 Y254.926
(Begin step 159.)
G0 X401.526 Y254.926
(part 1)
G1 X401.526 Y254.926 Z-3.000 F3000.000
G2 X401.526 Y254.926 Z-3.000 I-146.700 J0.030 K3.000 F3000.000
G1 X401.526 Y254.926 Z-3.000 F3000.000
(End of step 159.)
G0 Z3.000
G0 X402.426 Y254.926
(Begin step 160.)
G0 X402.426 Y254.926
(part 1)
G1 X402.426 Y254.926 Z-3.000 F3000.000
G2 X402.426 Y254.926 Z-3.000 I-147.600 J0.030 K3.000 F3000.000
G1 X402.426 Y254.926 Z-3.000 F3000.000
(End of step 160.)
G0 Z3.000
G0 X403.326 Y254.926
(Begin step 161.)
G0 X403.326 Y254.926
(part 1)
G1 X403.326 Y254.926 Z-3.000 F3000.000
G2 X403.326 Y254.926 Z-3.000 I-148.500 J0.030 K3.000 F3000.000
G1 X403.326 Y254.926 Z-3.000 F3000.000
(End of step 161.)
G0 Z3.000
G0 X404.226 Y254.926
(Begin step 162.)
G0 X404.226 Y254.926
(part 1)
G1 X404.226 Y254.926 Z-3.000 F3000.000
G2 X404.226 Y254.926 Z-3.000 I-149.400 J0.030 K3.000 F3000.000
G1 X404.226 Y254.926 Z-3.000 F3000.000
(End of step 162.)
G0 Z3.000
G0 X405.126 Y254.926
(Begin step 163.)
G0 X405.126 Y254.926
(part 1)
G1 X405.126 Y254.926 Z-3.000 F3000.000
G2 X405.126 Y254.926 Z-3.000 I-150.300 J0.030 K3.000 F3000.000
G1 X405.126 Y254.926 Z-3.000 F3000.000
(End of step 163.)
G0 Z3.000
G0 X406.026 Y254.926
(Begin step 164.)
G0 X406.026 Y254.926
(part 1)
G1 X406.026 Y254.926 Z-3.000 F3000.000
G2 X406.026 Y254.926 Z-3.000 I-151.200 J0.030 K3.000 F3000.000
G1 X406.026 Y254.926 Z-3.000 F3000.000
(End of step 164.)
G0 Z3.000
G0 X406.926 Y254.926
(Begin step 165.)
G0 X406.926 Y254.926
(part 1)
G1 X406.926 Y254.926 Z-3.000 F3000.000
G2 X406.926 Y254.926 Z-3.000 I-152.100 J0.030 K3.000 F3000.000
G1 X406.926 Y254.926 Z-3.000 F3000.000
(End of step 165.)
G0 Z3.000
G0 X407.826 Y254.926
(Begin step 166.)
G0 X407.826 Y254.926
(part 1)
G1 X407.826 Y254.926 Z-3.000 F3000.000
G2 X407.826 Y254.926 Z-3.000 I-153.000 J0.030 K3.000 F3000.000
G1 X407.826 Y254.926 Z-3.000 F3000.000
(End of step 166.)
G0 Z3.000
G0 X408.726 Y254.926
(Begin step 167.)
G0 X408.726 Y254.926
(part 1)
G1 X408.726 Y254.926 Z-3.000 F3000.000
G2 X408.726 Y254.926 Z-3.000 I-153.900 J0.030 K3.000 F3000.000
G1 X408.726 Y254.926 Z-3.000 F3000.000
(End of step 167.)
G0 Z3.000
G0 X409.626 Y254.926
(Begin step 168.)
G0 X409.626 Y254.926
(part 1)
G1 X409.626 Y254.926 Z-3.000 F3000.000
G2 X409.626 Y254.926 Z-3.000 I-154.800 J0.030 K3.000 F3000.000
G1 X409.626 Y254.926 Z-3.000 F3000.000
(End of step 168.)
G0 Z3.000
G0 X410.526 Y254.926
(Begin step 169.)
G0 X410.526 Y254.926
(part 1)
G1 X410.526 Y254.926 Z-3.000 F3000.000
G2 X410.526 Y254.926 Z-3.000 I-155.700 J0.030 K3.000 F3000.000
G1 X410.526 Y254.926 Z-3.000 F3000.000
(End of step 169.)
G0 Z3.000
G0 X411.426 Y254.926
(Begin step 170.)
G0 X411.426 Y254.926
(part 1)
G1 X411.426 Y254.926 Z-3.000 F3000.000
G2 X411.426 Y254.926 Z-3.000 I-156.600 J0.030 K3.000 F3000.000
G1 X411.426 Y254.926 Z-3.000 F3000.000
(End of step 170.)
G0 Z3.000
G0 X412.326 Y254.926
(Begin step 171.)
G0 X412.326 Y254.926
(part 1)
G1 X412.326 Y254.926 Z-3.000 F3000.000
G2 X412.326 Y254.926 Z-3.000 I-157.500 J0.030 K3.000 F3000.000
G1 X412.326 Y254.926 Z-3.000 F3000.000
(End of step 171.)
G0 Z3.000
G0 X413.226 Y254.926
(Begin step 172.)
G0 X413.226 Y254.926
(part 1)
G1 X413.226 Y254.926 Z-3.000 F3000.000
G2 X413.226 Y254.926 Z-3.000 I-158.400 J0.030 K3.000 F3000.000
G1 X413.226 Y254.926 Z-3.000 F3000.000
(End of step 172.)
G0 Z3.000
G0 X414.126 Y254.926
(Begin step 173.)
G0 X414.126 Y254.926
(part 1)
G1 X414.126 Y254.926 Z-3.000 F3000.000
G2 X414.126 Y254.926 Z-3.000 I-159.300 J0.030 K3.000 F3000.000
G1 X414.126 Y254.926 Z-3.000 F3000.000
(End of step 173.)
G0 Z3.000
G0 X415.026 Y254.926
(Begin step 174.)
G0 X415.026 Y254.926
(part 1)
G1 X415.026 Y254.926 Z-3.000 F3000.000
G2 X415.026 Y254.926 Z-3.000 I-160.200 J0.030 K3.000 F3000.000
G1 X415.026 Y254.926 Z-3.000 F3000.000
(End of step 174.)
G0 Z3.000
G0 X415.926 Y254.926
(Begin step 175.)
G0 X415.926 Y254.926
(part 1)
G1 X415.926 Y254.926 Z-3.000 F3000.000
G2 X415.926 Y254.926 Z-3.000 I-161.100 J0.030 K3.000 F3000.000
G1 X415.926 Y254.926 Z-3.000 F3000.000
(End of step 175.)
G0 Z3.000
G0 X416.826 Y254.926
(Begin step 176.)
G0 X416.826 Y254.926
(part 1)
G1 X416.826 Y254.926 Z-3.000 F3000.000
G2 X416.826 Y254.926 Z-3.000 I-162.000 J0.030 K3.000 F3000.000
G1 X416.826 Y254.926 Z-3.000 F3000.000
(End of step 176.)
G0 Z3.000
G0 X417.726 Y254.926
(Begin step 177.)
G0 X417.726 Y254.926
(part 1)
G1 X417.726 Y254.926 Z-3.000 F3000.000
G2 X417.726 Y254.926 Z-3.000 I-162.900 J0.030 K3.000 F3000.000
G1 X417.726 Y254.926 Z-3.000 F3000.000
(End of step 177.)
G0 Z3.000
G0 X418.626 Y254.926
(Begin step 178.)
G0 X418.626 Y254.926
(part 1)
G1 X418.626 Y254.926 Z-3.000 F3000.000
G2 X418.626 Y254.926 Z-3.000 I-163.800 J0.030 K3.000 F3000.000
G1 X418.626 Y254.926 Z-3.000 F3000.000
(End of step 178.)
G0 Z3.000
G0 X419.526 Y254.926
(Begin step 179.)
G0 X419.526 Y254.926
(part 1)
G1 X419.526 Y254.926 Z-3.000 F3000.000
G2 X419.526 Y254.926 Z-3.000 I-164.700 J0.030 K3.000 F3000.000
G1 X419.526 Y254.926 Z-3.000 F3000.000
(End of step 179.)
G0 Z3.000
G0 X420.426 Y254.926
(Begin step 180.)
G0 X420.426 Y254.926
(part 1)
G1 X420.426 Y254.926 Z-3.000 F3000.000
G2 X420.426 Y254.926 Z-3.000 I-165.600 J0.030 K3.000 F3000.000
G1 X420.426 Y254.926 Z-3.000 F3000.000
(End of step 180.)
G0 Z3.000
G0 X421.326 Y254.926
(Begin step 181.)
G0 X421.326 Y254.926
(part 1)
G1 X421.326 Y254.926 Z-3.000 F3000.000
G2 X421.326 Y254.926 Z-3.000 I-166.500 J0.030 K3.000 F3000.000
G1 X421.326 Y254.926 Z-3.000 F3000.000
(End of step 181.)
G0 Z3.000
G0 X422.226 Y254.926
(Begin step 182.)
G0 X422.226 Y254.926
(part 1)
G1 X422.226 Y254.926 Z-3.000 F3000.000
G2 X422.226 Y254.926 Z-3.000 I-167.400 J0.030 K3.000 F3000.000
G1 X422.226 Y254.926 Z-3.000 F3000.000
(End of step 182.)
G0 Z3.000
G0 X423.126 Y254.926
(Begin step 183.)
G0 X423.126 Y254.926
(part 1)
G1 X423.126 Y254.926 Z-3.000 F3000.000
G2 X423.126 Y254.926 Z-3.000 I-168.300 J0.030 K3.000 F3000.000
G1 X423.126 Y254.926 Z-3.000 F3000.000
(End of step 183.)
G0 Z3.000
G0 X424.026 Y254.926
(Begin step 184.)
G0 X424.026 Y254.926
(part 1)
G1 X424.026 Y254.926 Z-3.000 F3000.000
G2 X424.026 Y254.926 Z-3.000 I-169.200 J0.030 K3.000 F3000.000
G1 X424.026 Y254.926 Z-3.000 F3000.000
(End of step 184.)
G0 Z3.000
G0 X424.926 Y254.926
(Begin step 185.)
G0 X424.926 Y254.926
(part 1)
G1 X424.926 Y254.926 Z-3.000 F3000.000
G2 X424.926 Y254.926 Z-3.000 I-170.100 J0.030 K3.000 F3000.000
G1 X424.926 Y254.926 Z-3.000 F3000.000
(End of step 185.)
G0 Z3.000
G0 X425.826 Y254.926
(Begin step 186.)
G0 X425.826 Y254.926
(part 1)
G1 X425.826 Y254.926 Z-3.000 F3000.000
G2 X425.826 Y254.926 Z-3.000 I-171.000 J0.030 K3.000 F3000.000
G1 X425.826 Y254.926 Z-3.000 F3000.000
(End of step 186.)
G0 Z3.000
G0 X426.726 Y254.926
(Begin step 187.)
G0 X426.726 Y254.926
(part 1)
G1 X426.726 Y254.926 Z-3.000 F3000.000
G2 X426.726 Y254.926 Z-3.000 I-171.900 J0.030 K3.000 F3000.000
G1 X426.726 Y254.926 Z-3.000 F3000.000
(End of step 187.)
G0 Z3.000
G0 X427.626 Y254.926
(Begin step 188.)
G0 X427.626 Y254.926
(part 1)
G1 X427.626 Y254.926 Z-3.000 F3000.000
G2 X427.626 Y254.926 Z-3.000 I-172.800 J0.030 K3.000 F3000.000
G1 X427.626 Y254.926 Z-3.000 F3000.000
(End of step 188.)
G0 Z3.000
G0 X428.526 Y254.926
(Begin step 189.)
G0 X428.526 Y254.926
(part 1)
G1 X428.526 Y254.926 Z-3.000 F3000.000
G2 X428.526 Y254.926 Z-3.000 I-173.700 J0.030 K3.000 F3000.000
G1 X428.526 Y254.926 Z-3.000 F3000.000
(End of step 189.)
G0 Z3.000
G0 X429.426 Y254.926
(Begin step 190.)
G0 X429.426 Y254.926
(part 1)
G1 X429.426 Y254.926 Z-3.000 F3000.000
G2 X429.426 Y254.926 Z-3.000 I-174.600 J0.030 K3.000 F3000.000
G1 X429.426 Y254.926 Z-3.000 F3000.000
(End of step 190.)
G0 Z3.000
G0 X430.326 Y254.926
(Begin step 191.)
G0 X430.326 Y254.926
(part 1)
G1 X430.326 Y254.926 Z-3.000 F3000.000
G2 X430.326 Y254.926 Z-3.000 I-175.500 J0.030 K3.000 F3000.000
G1 X430.326 Y254.926 Z-3.000 F3000.000
(End of step 191.)
G0 Z3.000
G0 X431.226 Y254.926
(Begin step 192.)
G0 X431.226 Y254.926
(part 1)
G1 X431.226 Y254.926 Z-3.000 F3000.000
G2 X431.226 Y254.926 Z-3.000 I-176.400 J0.030 K3.000 F3000.000
G1 X431.226 Y254.926 Z-3.000 F3000.000
(End of step 192.)
G0 Z3.000
G0 X432.126 Y254.926
(Begin step 193.)
G0 X432.126 Y254.926
(part 1)
G1 X432.126 Y254.926 Z-3.000 F3000.000
G2 X432.126 Y254.926 Z-3.000 I-177.300 J0.030 K3.000 F3000.000
G1 X432.126 Y254.926 Z-3.000 F3000.000
(End of step 193.)
G0 Z3.000
G0 X433.026 Y254.926
(Begin step 194.)
G0 X433.026 Y254.926
(part 1)
G1 X433.026 Y254.926 Z-3.000 F3000.000
G2 X433.026 Y254.926 Z-3.000 I-178.200 J0.030 K3.000 F3000.000
G1 X433.026 Y254.926 Z-3.000 F3000.000
(End of step 194.)
G0 Z3.000
G0 X433.926 Y254.926
(Begin step 195.)
G0 X433.926 Y254.926
(part 1)
G1 X433.926 Y254.926 Z-3.000 F3000.000
G2 X433.926 Y254.926 Z-3.000 I-179.100 J0.030 K3.000 F3000.000
G1 X433.926 Y254.926 Z-3.000 F3000.000
(End of step 195.)
G0 Z3.000
G0 X434.826 Y254.926
(Begin step 196.)
G0 X434.826 Y254.926
(part 1)
G1 X434.826 Y254.926 Z-3.000 F3000.000
G2 X434.826 Y254.926 Z-3.000 I-180.000 J0.030 K3.000 F3000.000
G1 X434.826 Y254.926 Z-3.000 F3000.000
(End of step 196.)
G0 Z3.000
G0 X435.726 Y254.926
(Begin step 197.)
G0 X435.726 Y254.926
(part 1)
G1 X435.726 Y254.926 Z-3.000 F3000.000
G2 X435.726 Y254.926 Z-3.000 I-180.900 J0.030 K3.000 F3000.000
G1 X435.726 Y254.926 Z-3.000 F3000.000
(End of step 197.)
G0 Z3.000
G0 X436.626 Y254.926
(Begin step 198.)
G0 X436.626 Y254.926
(part 1)
G1 X436.626 Y254.926 Z-3.000 F3000.000
G2 X436.626 Y254.926 Z-3.000 I-181.800 J0.030 K3.000 F3000.000
G1 X436.626 Y254.926 Z-3.000 F3000.000
(End of step 198.)
G0 Z3.000
G0 X437.526 Y254.926
(Begin step 199.)
G0 X437.526 Y254.926
(part 1)
G1 X437.526 Y254.926 Z-3.000 F3000.000
G2 X437.526 Y254.926 Z-3.000 I-182.700 J0.030 K3.000 F3000.000
G1 X437.526 Y254.926 Z-3.000 F3000.000
(End of step 199.)
G0 Z3.000
G0 X438.426 Y254.926
(Begin step 200.)
G0 X438.426 Y254.926
(part 1)
G1 X438.426 Y254.926 Z-3.000 F3000.000
G2 X438.426 Y254.926 Z-3.000 I-183.600 J0.030 K3.000 F3000.000
G1 X438.426 Y254.926 Z-3.000 F3000.000
(End of step 200.)
G0 Z3.000
G0 X439.326 Y254.926
(Begin step 201.)
G0 X439.326 Y254.926
(part 1)
G1 X439.326 Y254.926 Z-3.000 F3000.000
G2 X439.326 Y254.926 Z-3.000 I-184.500 J0.030 K3.000 F3000.000
G1 X439.326 Y254.926 Z-3.000 F3000.000
(End of step 201.)
G0 Z3.000
G0 X440.226 Y254.926
(Begin step 202.)
G0 X440.226 Y254.926
(part 1)
G1 X440.226 Y254.926 Z-3.000 F3000.000
G2 X440.226 Y254.926 Z-3.000 I-185.400 J0.030 K3.000 F3000.000
G1 X440.226 Y254.926 Z-3.000 F3000.000
(End of step 202.)
G0 Z3.000
G0 X441.126 Y254.926
(Begin step 203.)
G0 X441.126 Y254.926
(part 1)
G1 X441.126 Y254.926 Z-3.000 F3000.000
G2 X441.126 Y254.926 Z-3.000 I-186.300 J0.030 K3.000 F3000.000
G1 X441.126 Y254.926 Z-3.000 F3000.000
(End of step 203.)
G0 Z3.000
G0 X442.026 Y254.926
(Begin step 204.)
G0 X442.026 Y254.926
(part 1)
G1 X442.026 Y254.926 Z-3.000 F3000.000
G2 X442.026 Y254.926 Z-3.000 I-187.200 J0.030 K3.000 F3000.000
G1 X442.026 Y254.926 Z-3.000 F3000.000
(End of step 204.)
G0 Z3.000
G0 X442.926 Y254.926
(Begin step 205.)
G0 X442.926 Y254.926
(part 1)
G1 X442.926 Y254.926 Z-3.000 F3000.000
G2 X442.926 Y254.926 Z-3.000 I-188.100 J0.030 K3.000 F3000.000
G1 X442.926 Y254.926 Z-3.000 F3000.000
(End of step 205.)
G0 Z3.000
G0 X443.826 Y254.926
(Begin step 206.)
G0 X443.826 Y254.926
(part 1)
G1 X443.826 Y254.926 Z-3.000 F3000.000
G2 X443.826 Y254.926 Z-3.000 I-189.000 J0.030 K3.000 F3000.000
G1 X443.826 Y254.926 Z-3.000 F3000.000
(End of step 206.)
G0 Z3.000
G0 X444.726 Y254.926
(Begin step 207.)
G0 X444.726 Y254.926
(part 1)
G1 X444.726 Y254.926 Z-3.000 F3000.000
G2 X444.726 Y254.926 Z-3.000 I-189.900 J0.030 K3.000 F3000.000
G1 X444.726 Y254.926 Z-3.000 F3000.000
(End of step 207.)
G0 Z3.000
G0 X445.626 Y254.926
(Begin step 208.)
G0 X445.626 Y254.926
(part 1)
G1 X445.626 Y254.926 Z-3.000 F3000.000
G2 X445.626 Y254.926 Z-3.000 I-190.800 J0.030 K3.000 F3000.000
G1 X445.626 Y254.926 Z-3.000 F3000.000
(End of step 208.)
G0 Z3.000
G0 X446.526 Y254.926
(Begin step 209.)
G0 X446.526 Y254.926
(part 1)
G1 X446.526 Y254.926 Z-3.000 F3000.000
G2 X446.526 Y254.926 Z-3.000 I-191.700 J0.030 K3.000 F3000.000
G1 X446.526 Y254.926 Z-3.000 F3000.000
(End of step 209.)
G0 Z3.000
G0 X447.426 Y254.926
(Begin step 210.)
G0 X447.426 Y254.926
(part 1)
G1 X447.426 Y254.926 Z-3.000 F3000.000
G2 X447.426 Y254.926 Z-3.000 I-192.600 J0.030 K3.000 F3000.000
G1 X447.426 Y254.926 Z-3.000 F3000.000
(End of step 210.)
G0 Z3.000
G0 X448.326 Y254.926
(Begin step 211.)
G0 X448.326 Y254.926
(part 1)
G1 X448.326 Y254.926 Z-3.000 F3000.000
G2 X448.326 Y254.926 Z-3.000 I-193.500 J0.030 K3.000 F3000.000
G1 X448.326 Y254.926 Z-3.000 F3000.000
(End of step 211.)
G0 Z3.000
G0 X449.226 Y254.926
(Begin step 212.)
G0 X449.226 Y254.926
(part 1)
G1 X449.226 Y254.926 Z-2.979 F3000.000
G2 X449.226 Y254.926 Z-2.979 I-194.400 J0.030 K2.979 F3000.000
G1 X449.226 Y254.926 Z-2.979 F3000.000
(End of step 212.)
G0 Z3.000
G0 X450.126 Y254.926
(Begin step 213.)
G0 X450.126 Y254.926
(part 1)
G1 X450.126 Y254.926 Z-2.940 F3000.000
G2 X450.126 Y254.926 Z-2.940 I-195.300 J0.030 K2.940 F3000.000
G1 X450.126 Y254.926 Z-2.940 F3000.000
(End of step 213.)
G0 Z3.000
G0 X451.026 Y254.926
(Begin step 214.)
G0 X451.026 Y254.926
(part 1)
G1 X451.026 Y254.926 Z-2.901 F3000.000
G2 X451.026 Y254.926 Z-2.901 I-196.200 J0.030 K2.901 F3000.000
G1 X451.026 Y254.926 Z-2.901 F3000.000
(End of step 214.)
G0 Z3.000
G0 X451.926 Y254.926
(Begin step 215.)
G0 X451.926 Y254.926
(part 1)
G1 X451.926 Y254.926 Z-2.862 F3000.000
G2 X451.926 Y254.926 Z-2.862 I-197.100 J0.030 K2.862 F3000.000
G1 X451.926 Y254.926 Z-2.862 F3000.000
(End of step 215.)
G0 Z3.000
G0 X452.826 Y254.926
(Begin step 216.)
G0 X452.826 Y254.926
(part 1)
G1 X452.826 Y254.926 Z-2.823 F3000.000
G2 X452.826 Y254.926 Z-2.823 I-198.000 J0.030 K2.823 F3000.000
G1 X452.826 Y254.926 Z-2.823 F3000.000
(End of step 216.)
G0 Z3.000
G0 X453.726 Y254.926
(Begin step 217.)
G0 X453.726 Y254.926
(part 1)
G1 X453.726 Y254.926 Z-2.784 F3000.000
G2 X453.726 Y254.926 Z-2.784 I-198.900 J0.030 K2.784 F3000.000
G1 X453.726 Y254.926 Z-2.784 F3000.000
(End of step 217.)
G0 Z3.000
G0 X454.626 Y254.926
(Begin step 218.)
G0 X454.626 Y254.926
(part 1)
G1 X454.626 Y254.926 Z-2.745 F3000.000
G2 X454.626 Y254.926 Z-2.745 I-199.800 J0.030 K2.745 F3000.000
G1 X454.626 Y254.926 Z-2.745 F3000.000
(End of step 218.)
G0 Z3.000
G0 X455.526 Y254.926
(Begin step 219.)
G0 X455.526 Y254.926
(part 1)
G1 X455.526 Y254.926 Z-2.706 F3000.000
G2 X455.526 Y254.926 Z-2.706 I-200.700 J0.030 K2.706 F3000.000
G1 X455.526 Y254.926 Z-2.706 F3000.000
(End of step 219.)
G0 Z3.000
G0 X456.426 Y254.926
(Begin step 220.)
G0 X456.426 Y254.926
(part 1)
G1 X456.426 Y254.926 Z-2.667 F3000.000
G2 X456.426 Y254.926 Z-2.667 I-201.600 J0.030 K2.667 F3000.000
G1 X456.426 Y254.926 Z-2.667 F3000.000
(End of step 220.)
G0 Z3.000
G0 X457.326 Y254.926
(Begin step 221.)
G0 X457.326 Y254.926
(part 1)
G1 X457.326 Y254.926 Z-2.626 F3000.000
G2 X457.326 Y254.926 Z-2.626 I-202.500 J0.030 K2.626 F3000.000
G1 X457.326 Y254.926 Z-2.626 F3000.000
(End of step 221.)
G0 Z3.000
G0 X458.226 Y254.926
(Begin step 222.)
G0 X458.226 Y254.926
(part 1)
G1 X458.226 Y254.926 Z-2.586 F3000.000
G2 X458.226 Y254.926 Z-2.586 I-203.400 J0.030 K2.586 F3000.000
G1 X458.226 Y254.926 Z-2.586 F3000.000
(End of step 222.)
G0 Z3.000
G0 X459.126 Y254.926
(Begin step 223.)
G0 X459.126 Y254.926
(part 1)
G1 X459.126 Y254.926 Z-2.546 F3000.000
G2 X459.126 Y254.926 Z-2.546 I-204.300 J0.030 K2.546 F3000.000
G1 X459.126 Y254.926 Z-2.546 F3000.000
(End of step 223.)
G0 Z3.000
G0 X460.026 Y254.926
(Begin step 224.)
G0 X460.026 Y254.926
(part 1)
G1 X460.026 Y254.926 Z-2.505 F3000.000
G2 X460.026 Y254.926 Z-2.505 I-205.200 J0.030 K2.505 F3000.000
G1 X460.026 Y254.926 Z-2.505 F3000.000
(End of step 224.)
G0 Z3.000
G0 X460.926 Y254.926
(Begin step 225.)
G0 X460.926 Y254.926
(part 1)
G1 X460.926 Y254.926 Z-2.465 F3000.000
G2 X460.926 Y254.926 Z-2.465 I-206.100 J0.030 K2.465 F3000.000
G1 X460.926 Y254.926 Z-2.465 F3000.000
(End of step 225.)
G0 Z3.000
G0 X461.826 Y254.926
(Begin step 226.)
G0 X461.826 Y254.926
(part 1)
G1 X461.826 Y254.926 Z-2.425 F3000.000
G2 X461.826 Y254.926 Z-2.425 I-207.000 J0.030 K2.425 F3000.000
G1 X461.826 Y254.926 Z-2.425 F3000.000
(End of step 226.)
G0 Z3.000
G0 X462.726 Y254.926
(Begin step 227.)
G0 X462.726 Y254.926
(part 1)
G1 X462.726 Y254.926 Z-2.384 F3000.000
G2 X462.726 Y254.926 Z-2.384 I-207.900 J0.030 K2.384 F3000.000
G1 X462.726 Y254.926 Z-2.384 F3000.000
(End of step 227.)
G0 Z3.000
G0 X463.626 Y254.926
(Begin step 228.)
G0 X463.626 Y254.926
(part 1)
G1 X463.626 Y254.926 Z-2.343 F3000.000
G2 X463.626 Y254.926 Z-2.343 I-208.800 J0.030 K2.343 F3000.000
G1 X463.626 Y254.926 Z-2.343 F3000.000
(End of step 228.)
G0 Z3.000
G0 X464.526 Y254.926
(Begin step 229.)
G0 X464.526 Y254.926
(part 1)
G1 X464.526 Y254.926 Z-2.301 F3000.000
G2 X464.526 Y254.926 Z-2.301 I-209.700 J0.030 K2.301 F3000.000
G1 X464.526 Y254.926 Z-2.301 F3000.000
(End of step 229.)
G0 Z3.000
G0 X465.426 Y254.926
(Begin step 230.)
G0 X465.426 Y254.926
(part 1)
G1 X465.426 Y254.926 Z-2.259 F3000.000
G2 X465.426 Y254.926 Z-2.259 I-210.600 J0.030 K2.259 F3000.000
G1 X465.426 Y254.926 Z-2.259 F3000.000
(End of step 230.)
G0 Z3.000
G0 X466.326 Y254.926
(Begin step 231.)
G0 X466.326 Y254.926
(part 1)
G1 X466.326 Y254.926 Z-2.218 F3000.000
G2 X466.326 Y254.926 Z-2.218 I-211.500 J0.030 K2.218 F3000.000
G1 X466.326 Y254.926 Z-2.218 F3000.000
(End of step 231.)
G0 Z3.000
G0 X467.226 Y254.926
(Begin step 232.)
G0 X467.226 Y254.926
(part 1)
G1 X467.226 Y254.926 Z-2.176 F3000.000
G2 X467.226 Y254.926 Z-2.176 I-212.400 J0.030 K2.176 F3000.000
G1 X467.226 Y254.926 Z-2.176 F3000.000
(End of step 232.)
G0 Z3.000
G0 X468.126 Y254.926
(Begin step 233.)
G0 X468.126 Y254.926
(part 1)
G1 X468.126 Y254.926 Z-2.135 F3000.000
G2 X468.126 Y254.926 Z-2.135 I-213.300 J0.030 K2.135 F3000.000
G1 X468.126 Y254.926 Z-2.135 F3000.000
(End of step 233.)
G0 Z3.000
G0 X469.026 Y254.926
(Begin step 234.)
G0 X469.026 Y254.926
(part 1)
G1 X469.026 Y254.926 Z-2.093 F3000.000
G2 X469.026 Y254.926 Z-2.093 I-214.200 J0.030 K2.093 F3000.000
G1 X469.026 Y254.926 Z-2.093 F3000.000
(End of step 234.)
G0 Z3.000
G0 X469.926 Y254.926
(Begin step 235.)
G0 X469.926 Y254.926
(part 1)
G1 X469.926 Y254.926 Z-2.050 F3000.000
G2 X469.926 Y254.926 Z-2.050 I-215.100 J0.030 K2.050 F3000.000
G1 X469.926 Y254.926 Z-2.050 F3000.000
(End of step 235.)
G0 Z3.000
G0 X470.826 Y254.926
(Begin step 236.)
G0 X470.826 Y254.926
(part 1)
G1 X470.826 Y254.926 Z-2.008 F3000.000
G2 X470.826 Y254.926 Z-2.008 I-216.000 J0.030 K2.008 F3000.000
G1 X470.826 Y254.926 Z-2.008 F3000.000
(End of step 236.)
G0 Z3.000
G0 X471.726 Y254.926
(Begin step 237.)
G0 X471.726 Y254.926
(part 1)
G1 X471.726 Y254.926 Z-1.965 F3000.000
G2 X471.726 Y254.926 Z-1.965 I-216.900 J0.030 K1.965 F3000.000
G1 X471.726 Y254.926 Z-1.965 F3000.000
(End of step 237.)
G0 Z3.000
G0 X472.626 Y254.926
(Begin step 238.)
G0 X472.626 Y254.926
(part 1)
G1 X472.626 Y254.926 Z-1.922 F3000.000
G2 X472.626 Y254.926 Z-1.922 I-217.800 J0.030 K1.922 F3000.000
G1 X472.626 Y254.926 Z-1.922 F3000.000
(End of step 238.)
G0 Z3.000
G0 X473.526 Y254.926
(Begin step 239.)
G0 X473.526 Y254.926
(part 1)
G1 X473.526 Y254.926 Z-1.879 F3000.000
G2 X473.526 Y254.926 Z-1.879 I-218.700 J0.030 K1.879 F3000.000
G1 X473.526 Y254.926 Z-1.879 F3000.000
(End of step 239.)
G0 Z3.000
G0 X474.426 Y254.926
(Begin step 240.)
G0 X474.426 Y254.926
(part 1)
G1 X474.426 Y254.926 Z-1.836 F3000.000
G2 X474.426 Y254.926 Z-1.836 I-219.600 J0.030 K1.836 F3000.000
G1 X474.426 Y254.926 Z-1.836 F3000.000
(End of step 240.)
G0 Z3.000
G0 X475.326 Y254.926
(Begin step 241.)
G0 X475.326 Y254.926
(part 1)
G1 X475.326 Y254.926 Z-1.793 F3000.000
G2 X475.326 Y254.926 Z-1.793 I-220.500 J0.030 K1.793 F3000.000
G1 X475.326 Y254.926 Z-1.793 F3000.000
(End of step 241.)
G0 Z3.000
G0 X476.226 Y254.926
(Begin step 242.)
G0 X476.226 Y254.926
(part 1)
G1 X476.226 Y254.926 Z-1.749 F3000.000
G2 X476.226 Y254.926 Z-1.749 I-221.400 J0.030 K1.749 F3000.000
G1 X476.226 Y254.926 Z-1.749 F3000.000
(End of step 242.)
G0 Z3.000
G0 X477.126 Y254.926
(Begin step 243.)
G0 X477.126 Y254.926
(part 1)
G1 X477.126 Y254.926 Z-1.705 F3000.000
G2 X477.126 Y254.926 Z-1.705 I-222.300 J0.030 K1.705 F3000.000
G1 X477.126 Y254.926 Z-1.705 F3000.000
(End of step 243.)
G0 Z3.000
G0 X478.026 Y254.926
(Begin step 244.)
G0 X478.026 Y254.926
(part 1)
G1 X478.026 Y254.926 Z-1.661 F3000.000
G2 X478.026 Y254.926 Z-1.661 I-223.200 J0.030 K1.661 F3000.000
G1 X478.026 Y254.926 Z-1.661 F3000.000
(End of step 244.)
G0 Z3.000
G0 X478.926 Y254.926
(Begin step 245.)
G0 X478.926 Y254.926
(part 1)
G1 X478.926 Y254.926 Z-1.617 F3000.000
G2 X478.926 Y254.926 Z-1.617 I-224.100 J0.030 K1.617 F3000.000
G1 X478.926 Y254.926 Z-1.617 F3000.000
(End of step 245.)
G0 Z3.000
G0 X479.826 Y254.926
(Begin step 246.)
G0 X479.826 Y254.926
(part 1)
G1 X479.826 Y254.926 Z-1.572 F3000.000
G2 X479.826 Y254.926 Z-1.572 I-225.000 J0.030 K1.572 F3000.000
G1 X479.826 Y254.926 Z-1.572 F3000.000
(End of step 246.)
G0 Z3.000
G0 X480.726 Y254.926
(Begin step 247.)
G0 X480.726 Y254.926
(part 1)
G1 X480.726 Y254.926 Z-1.528 F3000.000
G2 X480.726 Y254.926 Z-1.528 I-225.900 J0.030 K1.528 F3000.000
G1 X480.726 Y254.926 Z-1.528 F3000.000
(End of step 247.)
G0 Z3.000
G0 X481.626 Y254.926
(Begin step 248.)
G0 X481.626 Y254.926
(part 1)
G1 X481.626 Y254.926 Z-1.484 F3000.000
G2 X481.626 Y254.926 Z-1.484 I-226.800 J0.030 K1.484 F3000.000
G1 X481.626 Y254.926 Z-1.484 F3000.000
(End of step 248.)
G0 Z3.000
G0 X482.526 Y254.926
(Begin step 249.)
G0 X482.526 Y254.926
(part 1)
G1 X482.526 Y254.926 Z-1.439 F3000.000
G2 X482.526 Y254.926 Z-1.439 I-227.700 J0.030 K1.439 F3000.000
G1 X482.526 Y254.926 Z-1.439 F3000.000
(End of step 249.)
G0 Z3.000
G0 X483.426 Y254.926
(Begin step 250.)
G0 X483.426 Y254.926
(part 1)
G1 X483.426 Y254.926 Z-1.394 F3000.000
G2 X483.426 Y254.926 Z-1.394 I-228.600 J0.030 K1.394 F3000.000
G1 X483.426 Y254.926 Z-1.394 F3000.000
(End of step 250.)
G0 Z3.000
G0 X484.326 Y254.926
(Begin step 251.)
G0 X484.326 Y254.926
(part 1)
G1 X484.326 Y254.926 Z-1.349 F3000.000
G2 X484.326 Y254.926 Z-1.349 I-229.500 J0.030 K1.349 F3000.000
G1 X484.326 Y254.926 Z-1.349 F3000.000
(End of step 251.)
G0 Z3.000
G0 X485.226 Y254.926
(Begin step 252.)
G0 X485.226 Y254.926
(part 1)
G1 X485.226 Y254.926 Z-1.303 F3000.000
G2 X485.226 Y254.926 Z-1.303 I-230.400 J0.030 K1.303 F3000.000
G1 X485.226 Y254.926 Z-1.303 F3000.000
(End of step 252.)
G0 Z3.000
G0 X486.126 Y254.926
(Begin step 253.)
G0 X486.126 Y254.926
(part 1)
G1 X486.126 Y254.926 Z-1.257 F3000.000
G2 X486.126 Y254.926 Z-1.257 I-231.300 J0.030 K1.257 F3000.000
G1 X486.126 Y254.926 Z-1.257 F3000.000
(End of step 253.)
G0 Z3.000
G0 X487.026 Y254.926
(Begin step 254.)
G0 X487.026 Y254.926
(part 1)
G1 X487.026 Y254.926 Z-1.212 F3000.000
G2 X487.026 Y254.926 Z-1.212 I-232.200 J0.030 K1.212 F3000.000
G1 X487.026 Y254.926 Z-1.212 F3000.000
(End of step 254.)
G0 Z3.000
G0 X487.926 Y254.926
(Begin step 255.)
G0 X487.926 Y254.926
(part 1)
G1 X487.926 Y254.926 Z-1.166 F3000.000
G2 X487.926 Y254.926 Z-1.166 I-233.100 J0.030 K1.166 F3000.000
G1 X487.926 Y254.926 Z-1.166 F3000.000
(End of step 255.)
G0 Z3.000
G0 X488.826 Y254.926
(Begin step 256.)
G0 X488.826 Y254.926
(part 1)
G1 X488.826 Y254.926 Z-1.120 F3000.000
G2 X488.826 Y254.926 Z-1.120 I-234.000 J0.030 K1.120 F3000.000
G1 X488.826 Y254.926 Z-1.120 F3000.000
(End of step 256.)
G0 Z3.000
G0 X489.726 Y254.926
(Begin step 257.)
G0 X489.726 Y254.926
(part 1)
G1 X489.726 Y254.926 Z-1.074 F3000.000
G2 X489.726 Y254.926 Z-1.074 I-234.900 J0.030 K1.074 F3000.000
G1 X489.726 Y254.926 Z-1.074 F3000.000
(End of step 257.)
G0 Z3.000
G0 X490.626 Y254.926
(Begin step 258.)
G0 X490.626 Y254.926
(part 1)
G1 X490.626 Y254.926 Z-1.027 F3000.000
G2 X490.626 Y254.926 Z-1.027 I-235.800 J0.030 K1.027 F3000.000
G1 X490.626 Y254.926 Z-1.027 F3000.000
(End of step 258.)
G0 Z3.000
G0 X491.526 Y254.926
(Begin step 259.)
G0 X491.526 Y254.926
(part 1)
G1 X491.526 Y254.926 Z-0.981 F3000.000
G2 X491.526 Y254.926 Z-0.981 I-236.700 J0.030 K0.981 F3000.000
G1 X491.526 Y254.926 Z-0.981 F3000.000
(End of step 259.)
G0 Z3.000
G0 X492.426 Y254.926
(Begin step 260.)
G0 X492.426 Y254.926
(part 1)
G1 X492.426 Y254.926 Z-0.934 F3000.000
G2 X492.426 Y254.926 Z-0.934 I-237.600 J0.030 K0.934 F3000.000
G1 X492.426 Y254.926 Z-0.934 F3000.000
(End of step 260.)
G0 Z3.000
G0 X493.326 Y254.926
(Begin step 261.)
G0 X493.326 Y254.926
(part 1)
G1 X493.326 Y254.926 Z-0.887 F3000.000
G2 X493.326 Y254.926 Z-0.887 I-238.500 J0.030 K0.887 F3000.000
G1 X493.326 Y254.926 Z-0.887 F3000.000
(End of step 261.)
G0 Z3.000
G0 X494.226 Y254.926
(Begin step 262.)
G0 X494.226 Y254.926
(part 1)
G1 X494.226 Y254.926 Z-0.840 F3000.000
G2 X494.226 Y254.926 Z-0.840 I-239.400 J0.030 K0.840 F3000.000
G1 X494.226 Y254.926 Z-0.840 F3000.000
(End of step 262.)
G0 Z3.000
G0 X495.126 Y254.926
(Begin step 263.)
G0 X495.126 Y254.926
(part 1)
G1 X495.126 Y254.926 Z-0.793 F3000.000
G2 X495.126 Y254.926 Z-0.793 I-240.300 J0.030 K0.793 F3000.000
G1 X495.126 Y254.926 Z-0.793 F3000.000
(End of step 263.)
G0 Z3.000
G0 X496.026 Y254.926
(Begin step 264.)
G0 X496.026 Y254.926
(part 1)
G1 X496.026 Y254.926 Z-0.746 F3000.000
G2 X496.026 Y254.926 Z-0.746 I-241.200 J0.030 K0.746 F3000.000
G1 X496.026 Y254.926 Z-0.746 F3000.000
(End of step 264.)
G0 Z3.000
G0 X496.926 Y254.926
(Begin step 265.)
G0 X496.926 Y254.926
(part 1)
G1 X496.926 Y254.926 Z-0.698 F3000.000
G2 X496.926 Y254.926 Z-0.698 I-242.100 J0.030 K0.698 F3000.000
G1 X496.926 Y254.926 Z-0.698 F3000.000
(End of step 265.)
G0 Z3.000
G0 X497.826 Y254.926
(Begin step 266.)
G0 X497.826 Y254.926
(part 1)
G1 X497.826 Y254.926 Z-0.649 F3000.000
G2 X497.826 Y254.926 Z-0.649 I-243.000 J0.030 K0.649 F3000.000
G1 X497.826 Y254.926 Z-0.649 F3000.000
(End of step 266.)
G0 Z3.000
G0 X498.726 Y254.926
(Begin step 267.)
G0 X498.726 Y254.926
(part 1)
G1 X498.726 Y254.926 Z-0.601 F3000.000
G2 X498.726 Y254.926 Z-0.601 I-243.900 J0.030 K0.601 F3000.000
G1 X498.726 Y254.926 Z-0.601 F3000.000
(End of step 267.)
G0 Z3.000
G0 X499.626 Y254.926
(Begin step 268.)
G0 X499.626 Y254.926
(part 1)
G1 X499.626 Y254.926 Z-0.553 F3000.000
G2 X499.626 Y254.926 Z-0.553 I-244.800 J0.030 K0.553 F3000.000
G1 X499.626 Y254.926 Z-0.553 F3000.000
(End of step 268.)
G0 Z3.000
G0 X500.526 Y254.926
(Begin step 269.)
G0 X500.526 Y254.926
(part 1)
G1 X500.526 Y254.926 Z-0.505 F3000.000
G2 X500.526 Y254.926 Z-0.505 I-245.700 J0.030 K0.505 F3000.000
G1 X500.526 Y254.926 Z-0.505 F3000.000
(End of step 269.)
G0 Z3.000
G0 X501.426 Y254.926
(Begin step 270.)
G0 X501.426 Y254.926
(part 1)
G1 X501.426 Y254.926 Z-0.456 F3000.000
G2 X501.426 Y254.926 Z-0.456 I-246.600 J0.030 K0.456 F3000.000
G1 X501.426 Y254.926 Z-0.456 F3000.000
(End of step 270.)
G0 Z3.000
G0 X502.326 Y254.926
(Begin step 271.)
G0 X502.326 Y254.926
(part 1)
G1 X502.326 Y254.926 Z-0.408 F3000.000
G2 X502.326 Y254.926 Z-0.408 I-247.500 J0.030 K0.408 F3000.000
G1 X502.326 Y254.926 Z-0.408 F3000.000
(End of step 271.)
G0 Z3.000
G0 X503.226 Y254.926
(Begin step 272.)
G0 X503.226 Y254.926
(part 1)
G1 X503.226 Y254.926 Z-0.359 F3000.000
G2 X503.226 Y254.926 Z-0.359 I-248.400 J0.030 K0.359 F3000.000
G1 X503.226 Y254.926 Z-0.359 F3000.000
(End of step 272.)
G0 Z3.000
G0 X504.126 Y254.926
(Begin step 273.)
G0 X504.126 Y254.926
(part 1)
G1 X504.126 Y254.926 Z-0.310 F3000.000
G2 X504.126 Y254.926 Z-0.310 I-249.300 J0.030 K0.310 F3000.000
G1 X504.126 Y254.926 Z-0.310 F3000.000
(End of step 273.)
G0 Z3.000
G0 X505.026 Y254.926
(Begin step 274.)
G0 X505.026 Y254.926
(part 1)
G1 X505.026 Y254.926 Z-0.260 F3000.000
G2 X505.026 Y254.926 Z-0.260 I-250.200 J0.030 K0.260 F3000.000
G1 X505.026 Y254.926 Z-0.260 F3000.000
(End of step 274.)
G0 Z3.000
G0 X505.926 Y254.926
(Begin step 275.)
G0 X505.926 Y254.926
(part 1)
G1 X505.926 Y254.926 Z-0.210 F3000.000
G2 X505.926 Y254.926 Z-0.210 I-251.100 J0.030 K0.210 F3000.000
G1 X505.926 Y254.926 Z-0.210 F3000.000
(End of step 275.)
(End of layer 0)
(Layer 1 begins)
(Layer transition)
G0 Z3.000
G0 X258.426 Y254.926
(Begin step 0.)
G0 X258.426 Y254.926
(part 1)
G1 X258.426 Y254.926 Z-6.000 F3000.000
G2 X258.426 Y254.926 Z-6.000 I-3.600 J0.030 K6.000 F3000.000
G1 X258.426 Y254.926 Z-6.000 F3000.000
(End of step 0.)
G0 Z3.000
G0 X259.326 Y254.926
(Begin step 1.)
G0 X259.326 Y254.926
(part 1)
G1 X259.326 Y254.926 Z-6.000 F3000.000
G2 X259.326 Y254.926 Z-6.000 I-4.500 J0.030 K6.000 F3000.000
G1 X259.326 Y254.926 Z-6.000 F3000.000
(End of step 1.)
G0 Z3.000
G0 X260.226 Y254.926
(Begin step 2.)
G0 X260.226 Y254.926
(part 1)
G1 X260.226 Y254.926 Z-6.000 F3000.000
G2 X260.226 Y254.926 Z-6.000 I-5.400 J0.030 K6.000 F3000.000
G1 X260.226 Y254.926 Z-6.000 F3000.000
(End of step 2.)
G0 Z3.000
G0 X261.126 Y254.926
(Begin step 3.)
G0 X261.126 Y254.926
(part 1)
G1 X261.126 Y254.926 Z-6.000 F3000.000
G2 X261.126 Y254.926 Z-6.000 I-6.300 J0.030 K6.000 F3000.000
G1 X261.126 Y254.926 Z-6.000 F3000.000
(End of step 3.)
G0 Z3.000
G0 X262.026 Y254.926
(Begin step 4.)
G0 X262.026 Y254.926
(part 1)
G1 X262.026 Y254.926 Z-6.000 F3000.000
G2 X262.026 Y254.926 Z-6.000 I-7.200 J0.030 K6.000 F3000.000
G1 X262.026 Y254.926 Z-6.000 F3000.000
(End of step 4.)
G0 Z3.000
G0 X262.926 Y254.926
(Begin step 5.)
G0 X262.926 Y254.926
(part 1)
G1 X262.926 Y254.926 Z-6.000 F3000.000
G2 X262.926 Y254.926 Z-6.000 I-8.100 J0.030 K6.000 F3000.000
G1 X262.926 Y254.926 Z-6.000 F3000.000
(End of step 5.)
G0 Z3.000
G0 X263.826 Y254.926
(Begin step 6.)
G0 X263.826 Y254.926
(part 1)
G1 X263.826 Y254.926 Z-6.000 F3000.000
G2 X263.826 Y254.926 Z-6.000 I-9.000 J0.030 K6.000 F3000.000
G1 X263.826 Y254.926 Z-6.000 F3000.000
(End of step 6.)
G0 Z3.000
G0 X264.726 Y254.926
(Begin step 7.)
G0 X264.726 Y254.926
(part 1)
G1 X264.726 Y254.926 Z-6.000 F3000.000
G2 X264.726 Y254.926 Z-6.000 I-9.900 J0.030 K6.000 F3000.000
G1 X264.726 Y254.926 Z-6.000 F3000.000
(End of step 7.)
G0 Z3.000
G0 X265.626 Y254.926
(Begin step 8.)
G0 X265.626 Y254.926
(part 1)
G1 X265.626 Y254.926 Z-6.000 F3000.000
G2 X265.626 Y254.926 Z-6.000 I-10.800 J0.030 K6.000 F3000.000
G1 X265.626 Y254.926 Z-6.000 F3000.000
(End of step 8.)
G0 Z3.000
G0 X266.526 Y254.926
(Begin step 9.)
G0 X266.526 Y254.926
(part 1)
G1 X266.526 Y254.926 Z-6.000 F3000.000
G2 X266.526 Y254.926 Z-6.000 I-11.700 J0.030 K6.000 F3000.000
G1 X266.526 Y254.926 Z-6.000 F3000.000
(End of step 9.)
G0 Z3.000
G0 X267.426 Y254.926
(Begin step 10.)
G0 X267.426 Y254.926
(part 1)
G1 X267.426 Y254.926 Z-6.000 F3000.000
G2 X267.426 Y254.926 Z-6.000 I-12.600 J0.030 K6.000 F3000.000
G1 X267.426 Y254.926 Z-6.000 F3000.000
(End of step 10.)
G0 Z3.000
G0 X268.326 Y254.926
(Begin step 11.)
G0 X268.326 Y254.926
(part 1)
G1 X268.326 Y254.926 Z-6.000 F3000.000
G2 X268.326 Y254.926 Z-6.000 I-13.500 J0.030 K6.000 F3000.000
G1 X268.326 Y254.926 Z-6.000 F3000.000
(End of step 11.)
G0 Z3.000
G0 X269.226 Y254.926
(Begin step 12.)
G0 X269.226 Y254.926
(part 1)
G1 X269.226 Y254.926 Z-6.000 F3000.000
G2 X269.226 Y254.926 Z-6.000 I-14.400 J0.030 K6.000 F3000.000
G1 X269.226 Y254.926 Z-6.000 F3000.000
(End of step 12.)
G0 Z3.000
G0 X270.126 Y254.926
(Begin step 13.)
G0 X270.126 Y254.926
(part 1)
G1 X270.126 Y254.926 Z-6.000 F3000.000
G2 X270.126 Y254.926 Z-6.000 I-15.300 J0.030 K6.000 F3000.000
G1 X270.126 Y254.926 Z-6.000 F3000.000
(End of step 13.)
G0 Z3.000
G0 X271.026 Y254.926
(Begin step 14.)
G0 X271.026 Y254.926
(part 1)
G1 X271.026 Y254.926 Z-6.000 F3000.000
G2 X271.026 Y254.926 Z-6.000 I-16.200 J0.030 K6.000 F3000.000
G1 X271.026 Y254.926 Z-6.000 F3000.000
(End of step 14.)
G0 Z3.000
G0 X271.926 Y254.926
(Begin step 15.)
G0 X271.926 Y254.926
(part 1)
G1 X271.926 Y254.926 Z-6.000 F3000.000
G2 X271.926 Y254.926 Z-6.000 I-17.100 J0.030 K6.000 F3000.000
G1 X271.926 Y254.926 Z-6.000 F3000.000
(End of step 15.)
G0 Z3.000
G0 X272.826 Y254.926
(Begin step 16.)
G0 X272.826 Y254.926
(part 1)
G1 X272.826 Y254.926 Z-6.000 F3000.000
G2 X272.826 Y254.926 Z-6.000 I-18.000 J0.030 K6.000 F3000.000
G1 X272.826 Y254.926 Z-6.000 F3000.000
(End of step 16.)
G0 Z3.000
G0 X273.726 Y254.926
(Begin step 17.)
G0 X273.726 Y254.926
(part 1)
G1 X273.726 Y254.926 Z-6.000 F3000.000
G2 X273.726 Y254.926 Z-6.000 I-18.900 J0.030 K6.000 F3000.000
G1 X273.726 Y254.926 Z-6.000 F3000.000
(End of step 17.)
G0 Z3.000
G0 X274.626 Y254.926
(Begin step 18.)
G0 X274.626 Y254.926
(part 1)
G1 X274.626 Y254.926 Z-6.000 F3000.000
G2 X274.626 Y254.926 Z-6.000 I-19.800 J0.030 K6.000 F3000.000
G1 X274.626 Y254.926 Z-6.000 F3000.000
(End of step 18.)
G0 Z3.000
G0 X275.526 Y254.926
(Begin step 19.)
G0 X275.526 Y254.926
(part 1)
G1 X275.526 Y254.926 Z-6.000 F3000.000
G2 X275.526 Y254.926 Z-6.000 I-20.700 J0.030 K6.000 F3000.000
G1 X275.526 Y254.926 Z-6.000 F3000.000
(End of step 19.)
G0 Z3.000
G0 X276.426 Y254.926
(Begin step 20.)
G0 X276.426 Y254.926
(part 1)
G1 X276.426 Y254.926 Z-6.000 F3000.000
G2 X276.426 Y254.926 Z-6.000 I-21.600 J0.030 K6.000 F3000.000
G1 X276.426 Y254.926 Z-6.000 F3000.000
(End of step 20.)
G0 Z3.000
G0 X277.326 Y254.926
(Begin step 21.)
G0 X277.326 Y254.926
(part 1)
G1 X277.326 Y254.926 Z-6.000 F3000.000
G2 X277.326 Y254.926 Z-6.000 I-22.500 J0.030 K6.000 F3000.000
G1 X277.326 Y254.926 Z-6.000 F3000.000
(End of step 21.)
G0 Z3.000
G0 X278.226 Y254.926
(Begin step 22.)
G0 X278.226 Y254.926
(part 1)
G1 X278.226 Y254.926 Z-6.000 F3000.000
G2 X278.226 Y254.926 Z-6.000 I-23.400 J0.030 K6.000 F3000.000
G1 X278.226 Y254.926 Z-6.000 F3000.000
(End of step 22.)
G0 Z3.000
G0 X279.126 Y254.926
(Begin step 23.)
G0 X279.126 Y254.926
(part 1)
G1 X279.126 Y254.926 Z-6.000 F3000.000
G2 X279.126 Y254.926 Z-6.000 I-24.300 J0.030 K6.000 F3000.000
G1 X279.126 Y254.926 Z-6.000 F3000.000
(End of step 23.)
G0 Z3.000
G0 X280.026 Y254.926
(Begin step 24.)
G0 X280.026 Y254.926
(part 1)
G1 X280.026 Y254.926 Z-6.000 F3000.000
G2 X280.026 Y254.926 Z-6.000 I-25.200 J0.030 K6.000 F3000.000
G1 X280.026 Y254.926 Z-6.000 F3000.000
(End of step 24.)
G0 Z3.000
G0 X280.926 Y254.926
(Begin step 25.)
G0 X280.926 Y254.926
(part 1)
G1 X280.926 Y254.926 Z-6.000 F3000.000
G2 X280.926 Y254.926 Z-6.000 I-26.100 J0.030 K6.000 F3000.000
G1 X280.926 Y254.926 Z-6.000 F3000.000
(End of step 25.)
G0 Z3.000
G0 X281.826 Y254.926
(Begin step 26.)
G0 X281.826 Y254.926
(part 1)
G1 X281.826 Y254.926 Z-6.000 F3000.000
G2 X281.826 Y254.926 Z-6.000 I-27.000 J0.030 K6.000 F3000.000
G1 X281.826 Y254.926 Z-6.000 F3000.000
(End of step 26.)
G0 Z3.000
G0 X282.726 Y254.926
(Begin step 27.)
G0 X282.726 Y254.926
(part 1)
G1 X282.726 Y254.926 Z-6.000 F3000.000
G2 X282.726 Y254.926 Z-6.000 I-27.900 J0.030 K6.000 F3000.000
G1 X282.726 Y254.926 Z-6.000 F3000.000
(End of step 27.)
G0 Z3.000
G0 X283.626 Y254.926
(Begin step 28.)
G0 X283.626 Y254.926
(part 1)
G1 X283.626 Y254.926 Z-6.000 F3000.000
G2 X283.626 Y254.926 Z-6.000 I-28.800 J0.030 K6.000 F3000.000
G1 X283.626 Y254.926 Z-6.000 F3000.000
(End of step 28.)
G0 Z3.000
G0 X284.526 Y254.926
(Begin step 29.)
G0 X284.526 Y254.926
(part 1)
G1 X284.526 Y254.926 Z-6.000 F3000.000
G2 X284.526 Y254.926 Z-6.000 I-29.700 J0.030 K6.000 F3000.000
G1 X284.526 Y254.926 Z-6.000 F3000.000
(End of step 29.)
G0 Z3.000
G0 X285.426 Y254.926
(Begin step 30.)
G0 X285.426 Y254.926
(part 1)
G1 X285.426 Y254.926 Z-6.000 F3000.000
G2 X285.426 Y254.926 Z-6.000 I-30.600 J0.030 K6.000 F3000.000
G1 X285.426 Y254.926 Z-6.000 F3000.000
(End of step 30.)
G0 Z3.000
G0 X286.326 Y254.926
(Begin step 31.)
G0 X286.326 Y254.926
(part 1)
G1 X286.326 Y254.926 Z-6.000 F3000.000
G2 X286.326 Y254.926 Z-6.000 I-31.500 J0.030 K6.000 F3000.000
G1 X286.326 Y254.926 Z-6.000 F3000.000
(End of step 31.)
G0 Z3.000
G0 X287.226 Y254.926
(Begin step 32.)
G0 X287.226 Y254.926
(part 1)
G1 X287.226 Y254.926 Z-6.000 F3000.000
G2 X287.226 Y254.926 Z-6.000 I-32.400 J0.030 K6.000 F3000.000
G1 X287.226 Y254.926 Z-6.000 F3000.000
(End of step 32.)
G0 Z3.000
G0 X288.126 Y254.926
(Begin step 33.)
G0 X288.126 Y254.926
(part 1)
G1 X288.126 Y254.926 Z-6.000 F3000.000
G2 X288.126 Y254.926 Z-6.000 I-33.300 J0.030 K6.000 F3000.000
G1 X288.126 Y254.926 Z-6.000 F3000.000
(End of step 33.)
G0 Z3.000
G0 X289.026 Y254.926
(Begin step 34.)
G0 X289.026 Y254.926
(part 1)
G1 X289.026 Y254.926 Z-6.000 F3000.000
G2 X289.026 Y254.926 Z-6.000 I-34.200 J0.030 K6.000 F3000.000
G1 X289.026 Y254.926 Z-6.000 F3000.000
(End of step 34.)
G0 Z3.000
G0 X289.926 Y254.926
(Begin step 35.)
G0 X289.926 Y254.926
(part 1)
G1 X289.926 Y254.926 Z-6.000 F3000.000
G2 X289.926 Y254.926 Z-6.000 I-35.100 J0.030 K6.000 F3000.000
G1 X289.926 Y254.926 Z-6.000 F3000.000
(End of step 35.)
G0 Z3.000
G0 X290.826 Y254.926
(Begin step 36.)
G0 X290.826 Y254.926
(part 1)
G1 X290.826 Y254.926 Z-6.000 F3000.000
G2 X290.826 Y254.926 Z-6.000 I-36.000 J0.030 K6.000 F3000.000
G1 X290.826 Y254.926 Z-6.000 F3000.000
(End of step 36.)
G0 Z3.000
G0 X291.726 Y254.926
(Begin step 37.)
G0 X291.726 Y254.926
(part 1)
G1 X291.726 Y254.926 Z-6.000 F3000.000
G2 X291.726 Y254.926 Z-6.000 I-36.900 J0.030 K6.000 F3000.000
G1 X291.726 Y254.926 Z-6.000 F3000.000
(End of step 37.)
G0 Z3.000
G0 X292.626 Y254.926
(Begin step 38.)
G0 X292.626 Y254.926
(part 1)
G1 X292.626 Y254.926 Z-6.000 F3000.000
G2 X292.626 Y254.926 Z-6.000 I-37.800 J0.030 K6.000 F3000.000
G1 X292.626 Y254.926 Z-6.000 F3000.000
(End of step 38.)
G0 Z3.000
G0 X293.526 Y254.926
(Begin step 39.)
G0 X293.526 Y254.926
(part 1)
G1 X293.526 Y254.926 Z-6.000 F3000.000
G2 X293.526 Y254.926 Z-6.000 I-38.700 J0.030 K6.000 F3000.000
G1 X293.526 Y254.926 Z-6.000 F3000.000
(End of step 39.)
G0 Z3.000
G0 X294.426 Y254.926
(Begin step 40.)
G0 X294.426 Y254.926
(part 1)
G1 X294.426 Y254.926 Z-6.000 F3000.000
G2 X294.426 Y254.926 Z-6.000 I-39.600 J0.030 K6.000 F3000.000
G1 X294.426 Y254.926 Z-6.000 F3000.000
(End of step 40.)
G0 Z3.000
G0 X295.326 Y254.926
(Begin step 41.)
G0 X295.326 Y254.926
(part 1)
G1 X295.326 Y254.926 Z-6.000 F3000.000
G2 X295.326 Y254.926 Z-6.000 I-40.500 J0.030 K6.000 F3000.000
G1 X295.326 Y254.926 Z-6.000 F3000.000
(End of step 41.)
G0 Z3.000
G0 X296.226 Y254.926
(Begin step 42.)
G0 X296.226 Y254.926
(part 1)
G1 X296.226 Y254.926 Z-6.000 F3000.000
G2 X296.226 Y254.926 Z-6.000 I-41.400 J0.030 K6.000 F3000.000
G1 X296.226 Y254.926 Z-6.000 F3000.000
(End of step 42.)
G0 Z3.000
G0 X297.126 Y254.926
(Begin step 43.)
G0 X297.126 Y254.926
(part 1)
G1 X297.126 Y254.926 Z-6.000 F3000.000
G2 X297.126 Y254.926 Z-6.000 I-42.300 J0.030 K6.000 F3000.000
G1 X297.126 Y254.926 Z-6.000 F3000.000
(End of step 43.)
G0 Z3.000
G0 X298.026 Y254.926
(Begin step 44.)
G0 X298.026 Y254.926
(part 1)
G1 X298.026 Y254.926 Z-6.000 F3000.000
G2 X298.026 Y254.926 Z-6.000 I-43.200 J0.030 K6.000 F3000.000
G1 X298.026 Y254.926 Z-6.000 F3000.000
(End of step 44.)
G0 Z3.000
G0 X298.926 Y254.926
(Begin step 45.)
G0 X298.926 Y254.926
(part 1)
G1 X298.926 Y254.926 Z-6.000 F3000.000
G2 X298.926 Y254.926 Z-6.000 I-44.100 J0.030 K6.000 F3000.000
G1 X298.926 Y254.926 Z-6.000 F3000.000
(End of step 45.)
G0 Z3.000
G0 X299.826 Y254.926
(Begin step 46.)
G0 X299.826 Y254.926
(part 1)
G1 X299.826 Y254.926 Z-6.000 F3000.000
G2 X299.826 Y254.926 Z-6.000 I-45.000 J0.030 K6.000 F3000.000
G1 X299.826 Y254.926 Z-6.000 F3000.000
(End of step 46.)
G0 Z3.000
G0 X300.726 Y254.926
(Begin step 47.)
G0 X300.726 Y254.926
(part 1)
G1 X300.726 Y254.926 Z-6.000 F3000.000
G2 X300.726 Y254.926 Z-6.000 I-45.900 J0.030 K6.000 F3000.000
G1 X300.726 Y254.926 Z-6.000 F3000.000
(End of step 47.)
G0 Z3.000
G0 X301.626 Y254.926
(Begin step 48.)
G0 X301.626 Y254.926
(part 1)
G1 X301.626 Y254.926 Z-6.000 F3000.000
G2 X301.626 Y254.926 Z-6.000 I-46.800 J0.030 K6.000 F3000.000
G1 X301.626 Y254.926 Z-6.000 F3000.000
(End of step 48.)
G0 Z3.000
G0 X302.526 Y254.926
(Begin step 49.)
G0 X302.526 Y254.926
(part 1)
G1 X302.526 Y254.926 Z-6.000 F3000.000
G2 X302.526 Y254.926 Z-6.000 I-47.700 J0.030 K6.000 F3000.000
G1 X302.526 Y254.926 Z-6.000 F3000.000
(End of step 49.)
G0 Z3.000
G0 X303.426 Y254.926
(Begin step 50.)
G0 X303.426 Y254.926
(part 1)
G1 X303.426 Y254.926 Z-6.000 F3000.000
G2 X303.426 Y254.926 Z-6.000 I-48.600 J0.030 K6.000 F3000.000
G1 X303.426 Y254.926 Z-6.000 F3000.000
(End of step 50.)
G0 Z3.000
G0 X304.326 Y254.926
(Begin step 51.)
G0 X304.326 Y254.926
(part 1)
G1 X304.326 Y254.926 Z-6.000 F3000.000
G2 X304.326 Y254.926 Z-6.000 I-49.500 J0.030 K6.000 F3000.000
G1 X304.326 Y254.926 Z-6.000 F3000.000
(End of step 51.)
G0 Z3.000
G0 X305.226 Y254.926
(Begin step 52.)
G0 X305.226 Y254.926
(part 1)
G1 X305.226 Y254.926 Z-6.000 F3000.000
G2 X305.226 Y254.926 Z-6.000 I-50.400 J0.030 K6.000 F3000.000
G1 X305.226 Y254.926 Z-6.000 F3000.000
(End of step 52.)
G0 Z3.000
G0 X306.126 Y254.926
(Begin step 53.)
G0 X306.126 Y254.926
(part 1)
G1 X306.126 Y254.926 Z-6.000 F3000.000
G2 X306.126 Y254.926 Z-6.000 I-51.300 J0.030 K6.000 F3000.000
G1 X306.126 Y254.926 Z-6.000 F3000.000
(End of step 53.)
G0 Z3.000
G0 X307.026 Y254.926
(Begin step 54.)
G0 X307.026 Y254.926
(part 1)
G1 X307.026 Y254.926 Z-6.000 F3000.000
G2 X307.026 Y254.926 Z-6.000 I-52.200 J0.030 K6.000 F3000.000
G1 X307.026 Y254.926 Z-6.000 F3000.000
(End of step 54.)
G0 Z3.000
G0 X307.926 Y254.926
(Begin step 55.)
G0 X307.926 Y254.926
(part 1)
G1 X307.926 Y254.926 Z-6.000 F3000.000
G2 X307.926 Y254.926 Z-6.000 I-53.100 J0.030 K6.000 F3000.000
G1 X307.926 Y254.926 Z-6.000 F3000.000
(End of step 55.)
G0 Z3.000
G0 X308.826 Y254.926
(Begin step 56.)
G0 X308.826 Y254.926
(part 1)
G1 X308.826 Y254.926 Z-6.000 F3000.000
G2 X308.826 Y254.926 Z-6.000 I-54.000 J0.030 K6.000 F3000.000
G1 X308.826 Y254.926 Z-6.000 F3000.000
(End of step 56.)
G0 Z3.000
G0 X309.726 Y254.926
(Begin step 57.)
G0 X309.726 Y254.926
(part 1)
G1 X309.726 Y254.926 Z-6.000 F3000.000
G2 X309.726 Y254.926 Z-6.000 I-54.900 J0.030 K6.000 F3000.000
G1 X309.726 Y254.926 Z-6.000 F3000.000
(End of step 57.)
G0 Z3.000
G0 X310.626 Y254.926
(Begin step 58.)
G0 X310.626 Y254.926
(part 1)
G1 X310.626 Y254.926 Z-6.000 F3000.000
G2 X310.626 Y254.926 Z-6.000 I-55.800 J0.030 K6.000 F3000.000
G1 X310.626 Y254.926 Z-6.000 F3000.000
(End of step 58.)
G0 Z3.000
G0 X311.526 Y254.926
(Begin step 59.)
G0 X311.526 Y254.926
(part 1)
G1 X311.526 Y254.926 Z-6.000 F3000.000
G2 X311.526 Y254.926 Z-6.000 I-56.700 J0.030 K6.000 F3000.000
G1 X311.526 Y254.926 Z-6.000 F3000.000
(End of step 59.)
G0 Z3.000
G0 X312.426 Y254.926
(Begin step 60.)
G0 X312.426 Y254.926
(part 1)
G1 X312.426 Y254.926 Z-6.000 F3000.000
G2 X312.426 Y254.926 Z-6.000 I-57.600 J0.030 K6.000 F3000.000
G1 X312.426 Y254.926 Z-6.000 F3000.000
(End of step 60.)
G0 Z3.000
G0 X313.326 Y254.926
(Begin step 61.)
G0 X313.326 Y254.926
(part 1)
G1 X313.326 Y254.926 Z-6.000 F3000.000
G2 X313.326 Y254.926 Z-6.000 I-58.500 J0.030 K6.000 F3000.000
G1 X313.326 Y254.926 Z-6.000 F3000.000
(End of step 61.)
G0 Z3.000
G0 X314.226 Y254.926
(Begin step 62.)
G0 X314.226 Y254.926
(part 1)
G1 X314.226 Y254.926 Z-6.000 F3000.000
G2 X314.226 Y254.926 Z-6.000 I-59.400 J0.030 K6.000 F3000.000
G1 X314.226 Y254.926 Z-6.000 F3000.000
(End of step 62.)
G0 Z3.000
G0 X315.126 Y254.926
(Begin step 63.)
G0 X315.126 Y254.926
(part 1)
G1 X315.126 Y254.926 Z-6.000 F3000.000
G2 X315.126 Y254.926 Z-6.000 I-60.300 J0.030 K6.000 F3000.000
G1 X315.126 Y254.926 Z-6.000 F3000.000
(End of step 63.)
G0 Z3.000
G0 X316.026 Y254.926
(Begin step 64.)
G0 X316.026 Y254.926
(part 1)
G1 X316.026 Y254.926 Z-6.000 F3000.000
G2 X316.026 Y254.926 Z-6.000 I-61.200 J0.030 K6.000 F3000.000
G1 X316.026 Y254.926 Z-6.000 F3000.000
(End of step 64.)
G0 Z3.000
G0 X316.926 Y254.926
(Begin step 65.)
G0 X316.926 Y254.926
(part 1)
G1 X316.926 Y254.926 Z-6.000 F3000.000
G2 X316.926 Y254.926 Z-6.000 I-62.100 J0.030 K6.000 F3000.000
G1 X316.926 Y254.926 Z-6.000 F3000.000
(End of step 65.)
G0 Z3.000
G0 X317.826 Y254.926
(Begin step 66.)
G0 X317.826 Y254.926
(part 1)
G1 X317.826 Y254.926 Z-6.000 F3000.000
G2 X317.826 Y254.926 Z-6.000 I-63.000 J0.030 K6.000 F3000.000
G1 X317.826 Y254.926 Z-6.000 F3000.000
(End of step 66.)
G0 Z3.000
G0 X318.726 Y254.926
(Begin step 67.)
G0 X318.726 Y254.926
(part 1)
G1 X318.726 Y254.926 Z-6.000 F3000.000
G2 X318.726 Y254.926 Z-6.000 I-63.900 J0.030 K6.000 F3000.000
G1 X318.726 Y254.926 Z-6.000 F3000.000
(End of step 67.)
G0 Z3.000
G0 X319.626 Y254.926
(Begin step 68.)
G0 X319.626 Y254.926
(part 1)
G1 X319.626 Y254.926 Z-6.000 F3000.000
G2 X319.626 Y254.926 Z-6.000 I-64.800 J0.030 K6.000 F3000.000
G1 X319.626 Y254.926 Z-6.000 F3000.000
(End of step 68.)
G0 Z3.000
G0 X320.526 Y254.926
(Begin step 69.)
G0 X320.526 Y254.926
(part 1)
G1 X320.526 Y254.926 Z-6.000 F3000.000
G2 X320.526 Y254.926 Z-6.000 I-65.700 J0.030 K6.000 F3000.000
G1 X320.526 Y254.926 Z-6.000 F3000.000
(End of step 69.)
G0 Z3.000
G0 X321.426 Y254.926
(Begin step 70.)
G0 X321.426 Y254.926
(part 1)
G1 X321.426 Y254.926 Z-6.000 F3000.000
G2 X321.426 Y254.926 Z-6.000 I-66.600 J0.030 K6.000 F3000.000
G1 X321.426 Y254.926 Z-6.000 F3000.000
(End of step 70.)
G0 Z3.000
G0 X322.326 Y254.926
(Begin step 71.)
G0 X322.326 Y254.926
(part 1)
G1 X322.326 Y254.926 Z-6.000 F3000.000
G2 X322.326 Y254.926 Z-6.000 I-67.500 J0.030 K6.000 F3000.000
G1 X322.326 Y254.926 Z-6.000 F3000.000
(End of step 71.)
G0 Z3.000
G0 X323.226 Y254.926
(Begin step 72.)
G0 X323.226 Y254.926
(part 1)
G1 X323.226 Y254.926 Z-6.000 F3000.000
G2 X323.226 Y254.926 Z-6.000 I-68.400 J0.030 K6.000 F3000.000
G1 X323.226 Y254.926 Z-6.000 F3000.000
(End of step 72.)
G0 Z3.000
G0 X324.126 Y254.926
(Begin step 73.)
G0 X324.126 Y254.926
(part 1)
G1 X324.126 Y254.926 Z-6.000 F3000.000
G2 X324.126 Y254.926 Z-6.000 I-69.300 J0.030 K6.000 F3000.000
G1 X324.126 Y254.926 Z-6.000 F3000.000
(End of step 73.)
G0 Z3.000
G0 X325.026 Y254.926
(Begin step 74.)
G0 X325.026 Y254.926
(part 1)
G1 X325.026 Y254.926 Z-6.000 F3000.000
G2 X325.026 Y254.926 Z-6.000 I-70.200 J0.030 K6.000 F3000.000
G1 X325.026 Y254.926 Z-6.000 F3000.000
(End of step 74.)
G0 Z3.000
G0 X325.926 Y254.926
(Begin step 75.)
G0 X325.926 Y254.926
(part 1)
G1 X325.926 Y254.926 Z-6.000 F3000.000
G2 X325.926 Y254.926 Z-6.000 I-71.100 J0.030 K6.000 F3000.000
G1 X325.926 Y254.926 Z-6.000 F3000.000
(End of step 75.)
G0 Z3.000
G0 X326.826 Y254.926
(Begin step 76.)
G0 X326.826 Y254.926
(part 1)
G1 X326.826 Y254.926 Z-6.000 F3000.000
G2 X326.826 Y254.926 Z-6.000 I-72.000 J0.030 K6.000 F3000.000
G1 X326.826 Y254.926 Z-6.000 F3000.000
(End of step 76.)
G0 Z3.000
G0 X327.726 Y254.926
(Begin step 77.)
G0 X327.726 Y254.926
(part 1)
G1 X327.726 Y254.926 Z-6.000 F3000.000
G2 X327.726 Y254.926 Z-6.000 I-72.900 J0.030 K6.000 F3000.000
G1 X327.726 Y254.926 Z-6.000 F3000.000
(End of step 77.)
G0 Z3.000
G0 X328.626 Y254.926
(Begin step 78.)
G0 X328.626 Y254.926
(part 1)
G1 X328.626 Y254.926 Z-6.000 F3000.000
G2 X328.626 Y254.926 Z-6.000 I-73.800 J0.030 K6.000 F3000.000
G1 X328.626 Y254.926 Z-6.000 F3000.000
(End of step 78.)
G0 Z3.000
G0 X329.526 Y254.926
(Begin step 79.)
G0 X329.526 Y254.926
(part 1)
G1 X329.526 Y254.926 Z-6.000 F3000.000
G2 X329.526 Y254.926 Z-6.000 I-74.700 J0.030 K6.000 F3000.000
G1 X329.526 Y254.926 Z-6.000 F3000.000
(End of step 79.)
G0 Z3.000
G0 X330.426 Y254.926
(Begin step 80.)
G0 X330.426 Y254.926
(part 1)
G1 X330.426 Y254.926 Z-6.000 F3000.000
G2 X330.426 Y254.926 Z-6.000 I-75.600 J0.030 K6.000 F3000.000
G1 X330.426 Y254.926 Z-6.000 F3000.000
(End of step 80.)
G0 Z3.000
G0 X331.326 Y254.926
(Begin step 81.)
G0 X331.326 Y254.926
(part 1)
G1 X331.326 Y254.926 Z-6.000 F3000.000
G2 X331.326 Y254.926 Z-6.000 I-76.500 J0.030 K6.000 F3000.000
G1 X331.326 Y254.926 Z-6.000 F3000.000
(End of step 81.)
G0 Z3.000
G0 X332.226 Y254.926
(Begin step 82.)
G0 X332.226 Y254.926
(part 1)
G1 X332.226 Y254.926 Z-6.000 F3000.000
G2 X332.226 Y254.926 Z-6.000 I-77.400 J0.030 K6.000 F3000.000
G1 X332.226 Y254.926 Z-6.000 F3000.000
(End of step 82.)
G0 Z3.000
G0 X333.126 Y254.926
(Begin step 83.)
G0 X333.126 Y254.926
(part 1)
G1 X333.126 Y254.926 Z-6.000 F3000.000
G2 X333.126 Y254.926 Z-6.000 I-78.300 J0.030 K6.000 F3000.000
G1 X333.126 Y254.926 Z-6.000 F3000.000
(End of step 83.)
G0 Z3.000
G0 X334.026 Y254.926
(Begin step 84.)
G0 X334.026 Y254.926
(part 1)
G1 X334.026 Y254.926 Z-6.000 F3000.000
G2 X334.026 Y254.926 Z-6.000 I-79.200 J0.030 K6.000 F3000.000
G1 X334.026 Y254.926 Z-6.000 F3000.000
(End of step 84.)
G0 Z3.000
G0 X334.926 Y254.926
(Begin step 85.)
G0 X334.926 Y254.926
(part 1)
G1 X334.926 Y254.926 Z-6.000 F3000.000
G2 X334.926 Y254.926 Z-6.000 I-80.100 J0.030 K6.000 F3000.000
G1 X334.926 Y254.926 Z-6.000 F3000.000
(End of step 85.)
G0 Z3.000
G0 X335.826 Y254.926
(Begin step 86.)
G0 X335.826 Y254.926
(part 1)
G1 X335.826 Y254.926 Z-6.000 F3000.000
G2 X335.826 Y254.926 Z-6.000 I-81.000 J0.030 K6.000 F3000.000
G1 X335.826 Y254.926 Z-6.000 F3000.000
(End of step 86.)
G0 Z3.000
G0 X336.726 Y254.926
(Begin step 87.)
G0 X336.726 Y254.926
(part 1)
G1 X336.726 Y254.926 Z-6.000 F3000.000
G2 X336.726 Y254.926 Z-6.000 I-81.900 J0.030 K6.000 F3000.000
G1 X336.726 Y254.926 Z-6.000 F3000.000
(End of step 87.)
G0 Z3.000
G0 X337.626 Y254.926
(Begin step 88.)
G0 X337.626 Y254.926
(part 1)
G1 X337.626 Y254.926 Z-6.000 F3000.000
G2 X337.626 Y254.926 Z-6.000 I-82.800 J0.030 K6.000 F3000.000
G1 X337.626 Y254.926 Z-6.000 F3000.000
(End of step 88.)
G0 Z3.000
G0 X338.526 Y254.926
(Begin step 89.)
G0 X338.526 Y254.926
(part 1)
G1 X338.526 Y254.926 Z-6.000 F3000.000
G2 X338.526 Y254.926 Z-6.000 I-83.700 J0.030 K6.000 F3000.000
G1 X338.526 Y254.926 Z-6.000 F3000.000
(End of step 89.)
G0 Z3.000
G0 X339.426 Y254.926
(Begin step 90.)
G0 X339.426 Y254.926
(part 1)
G1 X339.426 Y254.926 Z-6.000 F3000.000
G2 X339.426 Y254.926 Z-6.000 I-84.600 J0.030 K6.000 F3000.000
G1 X339.426 Y254.926 Z-6.000 F3000.000
(End of step 90.)
G0 Z3.000
G0 X340.326 Y254.926
(Begin step 91.)
G0 X340.326 Y254.926
(part 1)
G1 X340.326 Y254.926 Z-6.000 F3000.000
G2 X340.326 Y254.926 Z-6.000 I-85.500 J0.030 K6.000 F3000.000
G1 X340.326 Y254.926 Z-6.000 F3000.000
(End of step 91.)
G0 Z3.000
G0 X341.226 Y254.926
(Begin step 92.)
G0 X341.226 Y254.926
(part 1)
G1 X341.226 Y254.926 Z-6.000 F3000.000
G2 X341.226 Y254.926 Z-6.000 I-86.400 J0.030 K6.000 F3000.000
G1 X341.226 Y254.926 Z-6.000 F3000.000
(End of step 92.)
G0 Z3.000
G0 X342.126 Y254.926
(Begin step 93.)
G0 X342.126 Y254.926
(part 1)
G1 X342.126 Y254.926 Z-6.000 F3000.000
G2 X342.126 Y254.926 Z-6.000 I-87.300 J0.030 K6.000 F3000.000
G1 X342.126 Y254.926 Z-6.000 F3000.000
(End of step 93.)
G0 Z3.000
G0 X343.026 Y254.926
(Begin step 94.)
G0 X343.026 Y254.926
(part 1)
G1 X343.026 Y254.926 Z-6.000 F3000.000
G2 X343.026 Y254.926 Z-6.000 I-88.200 J0.030 K6.000 F3000.000
G1 X343.026 Y254.926 Z-6.000 F3000.000
(End of step 94.)
G0 Z3.000
G0 X343.926 Y254.926
(Begin step 95.)
G0 X343.926 Y254.926
(part 1)
G1 X343.926 Y254.926 Z-6.000 F3000.000
G2 X343.926 Y254.926 Z-6.000 I-89.100 J0.030 K6.000 F3000.000
G1 X343.926 Y254.926 Z-6.000 F3000.000
(End of step 95.)
G0 Z3.000
G0 X344.826 Y254.926
(Begin step 96.)
G0 X344.826 Y254.926
(part 1)
G1 X344.826 Y254.926 Z-6.000 F3000.000
G2 X344.826 Y254.926 Z-6.000 I-90.000 J0.030 K6.000 F3000.000
G1 X344.826 Y254.926 Z-6.000 F3000.000
(End of step 96.)
G0 Z3.000
G0 X345.726 Y254.926
(Begin step 97.)
G0 X345.726 Y254.926
(part 1)
G1 X345.726 Y254.926 Z-6.000 F3000.000
G2 X345.726 Y254.926 Z-6.000 I-90.900 J0.030 K6.000 F3000.000
G1 X345.726 Y254.926 Z-6.000 F3000.000
(End of step 97.)
G0 Z3.000
G0 X346.626 Y254.926
(Begin step 98.)
G0 X346.626 Y254.926
(part 1)
G1 X346.626 Y254.926 Z-6.000 F3000.000
G2 X346.626 Y254.926 Z-6.000 I-91.800 J0.030 K6.000 F3000.000
G1 X346.626 Y254.926 Z-6.000 F3000.000
(End of step 98.)
G0 Z3.000
G0 X347.526 Y254.926
(Begin step 99.)
G0 X347.526 Y254.926
(part 1)
G1 X347.526 Y254.926 Z-6.000 F3000.000
G2 X347.526 Y254.926 Z-6.000 I-92.700 J0.030 K6.000 F3000.000
G1 X347.526 Y254.926 Z-6.000 F3000.000
(End of step 99.)
G0 Z3.000
G0 X348.426 Y254.926
(Begin step 100.)
G0 X348.426 Y254.926
(part 1)
G1 X348.426 Y254.926 Z-6.000 F3000.000
G2 X348.426 Y254.926 Z-6.000 I-93.600 J0.030 K6.000 F3000.000
G1 X348.426 Y254.926 Z-6.000 F3000.000
(End of step 100.)
G0 Z3.000
G0 X349.326 Y254.926
(Begin step 101.)
G0 X349.326 Y254.926
(part 1)
G1 X349.326 Y254.926 Z-6.000 F3000.000
G2 X349.326 Y254.926 Z-6.000 I-94.500 J0.030 K6.000 F3000.000
G1 X349.326 Y254.926 Z-6.000 F3000.000
(End of step 101.)
G0 Z3.000
G0 X350.226 Y254.926
(Begin step 102.)
G0 X350.226 Y254.926
(part 1)
G1 X350.226 Y254.926 Z-6.000 F3000.000
G2 X350.226 Y254.926 Z-6.000 I-95.400 J0.030 K6.000 F3000.000
G1 X350.226 Y254.926 Z-6.000 F3000.000
(End of step 102.)
G0 Z3.000
G0 X351.126 Y254.926
(Begin step 103.)
G0 X351.126 Y254.926
(part 1)
G1 X351.126 Y254.926 Z-6.000 F3000.000
G2 X351.126 Y254.926 Z-6.000 I-96.300 J0.030 K6.000 F3000.000
G1 X351.126 Y254.926 Z-6.000 F3000.000
(End of step 103.)
G0 Z3.000
G0 X352.026 Y254.926
(Begin step 104.)
G0 X352.026 Y254.926
(part 1)
G1 X352.026 Y254.926 Z-6.000 F3000.000
G2 X352.026 Y254.926 Z-6.000 I-97.200 J0.030 K6.000 F3000.000
G1 X352.026 Y254.926 Z-6.000 F3000.000
(End of step 104.)
G0 Z3.000
G0 X352.926 Y254.926
(Begin step 105.)
G0 X352.926 Y254.926
(part 1)
G1 X352.926 Y254.926 Z-6.000 F3000.000
G2 X352.926 Y254.926 Z-6.000 I-98.100 J0.030 K6.000 F3000.000
G1 X352.926 Y254.926 Z-6.000 F3000.000
(End of step 105.)
G0 Z3.000
G0 X353.826 Y254.926
(Begin step 106.)
G0 X353.826 Y254.926
(part 1)
G1 X353.826 Y254.926 Z-6.000 F3000.000
G2 X353.826 Y254.926 Z-6.000 I-99.000 J0.030 K6.000 F3000.000
G1 X353.826 Y254.926 Z-6.000 F3000.000
(End of step 106.)
G0 Z3.000
G0 X354.726 Y254.926
(Begin step 107.)
G0 X354.726 Y254.926
(part 1)
G1 X354.726 Y254.926 Z-6.000 F3000.000
G2 X354.726 Y254.926 Z-6.000 I-99.900 J0.030 K6.000 F3000.000
G1 X354.726 Y254.926 Z-6.000 F3000.000
(End of step 107.)
G0 Z3.000
G0 X355.626 Y254.926
(Begin step 108.)
G0 X355.626 Y254.926
(part 1)
G1 X355.626 Y254.926 Z-6.000 F3000.000
G2 X355.626 Y254.926 Z-6.000 I-100.800 J0.030 K6.000 F3000.000
G1 X355.626 Y254.926 Z-6.000 F3000.000
(End of step 108.)
G0 Z3.000
G0 X356.526 Y254.926
(Begin step 109.)
G0 X356.526 Y254.926
(part 1)
G1 X356.526 Y254.926 Z-5.984 F3000.000
G2 X356.526 Y254.926 Z-5.984 I-101.700 J0.030 K5.984 F3000.000
G1 X356.526 Y254.926 Z-5.984 F3000.000
(End of step 109.)
G0 Z3.000
G0 X357.426 Y254.926
(Begin step 110.)
G0 X357.426 Y254.926
(part 1)
G1 X357.426 Y254.926 Z-5.964 F3000.000
G2 X357.426 Y254.926 Z-5.964 I-102.600 J0.030 K5.964 F3000.000
G1 X357.426 Y254.926 Z-5.964 F3000.000
(End of step 110.)
G0 Z3.000
G0 X358.326 Y254.926
(Begin step 111.)
G0 X358.326 Y254.926
(part 1)
G1 X358.326 Y254.926 Z-5.943 F3000.000
G2 X358.326 Y254.926 Z-5.943 I-103.500 J0.030 K5.943 F3000.000
G1 X358.326 Y254.926 Z-5.943 F3000.000
(End of step 111.)
G0 Z3.000
G0 X359.226 Y254.926
(Begin step 112.)
G0 X359.226 Y254.926
(part 1)
G1 X359.226 Y254.926 Z-5.923 F3000.000
G2 X359.226 Y254.926 Z-5.923 I-104.400 J0.030 K5.923 F3000.000
G1 X359.226 Y254.926 Z-5.923 F3000.000
(End of step 112.)
G0 Z3.000
G0 X360.126 Y254.926
(Begin step 113.)
G0 X360.126 Y254.926
(part 1)
G1 X360.126 Y254.926 Z-5.902 F3000.000
G2 X360.126 Y254.926 Z-5.902 I-105.300 J0.030 K5.902 F3000.000
G1 X360.126 Y254.926 Z-5.902 F3000.000
(End of step 113.)
G0 Z3.000
G0 X361.026 Y254.926
(Begin step 114.)
G0 X361.026 Y254.926
(part 1)
G1 X361.026 Y254.926 Z-5.882 F3000.000
G2 X361.026 Y254.926 Z-5.882 I-106.200 J0.030 K5.882 F3000.000
G1 X361.026 Y254.926 Z-5.882 F3000.000
(End of step 114.)
G0 Z3.000
G0 X361.926 Y254.926
(Begin step 115.)
G0 X361.926 Y254.926
(part 1)
G1 X361.926 Y254.926 Z-5.861 F3000.000
G2 X361.926 Y254.926 Z-5.861 I-107.100 J0.030 K5.861 F3000.000
G1 X361.926 Y254.926 Z-5.861 F3000.000
(End of step 115.)
G0 Z3.000
G0 X362.826 Y254.926
(Begin step 116.)
G0 X362.826 Y254.926
(part 1)
G1 X362.826 Y254.926 Z-5.840 F3000.000
G2 X362.826 Y254.926 Z-5.840 I-108.000 J0.030 K5.840 F3000.000
G1 X362.826 Y254.926 Z-5.840 F3000.000
(End of step 116.)
G0 Z3.000
G0 X363.726 Y254.926
(Begin step 117.)
G0 X363.726 Y254.926
(part 1)
G1 X363.726 Y254.926 Z-5.818 F3000.000
G2 X363.726 Y254.926 Z-5.818 I-108.900 J0.030 K5.818 F3000.000
G1 X363.726 Y254.926 Z-5.818 F3000.000
(End of step 117.)
G0 Z3.000
G0 X364.626 Y254.926
(Begin step 118.)
G0 X364.626 Y254.926
(part 1)
G1 X364.626 Y254.926 Z-5.796 F3000.000
G2 X364.626 Y254.926 Z-5.796 I-109.800 J0.030 K5.796 F3000.000
G1 X364.626 Y254.926 Z-5.796 F3000.000
(End of step 118.)
G0 Z3.000
G0 X365.526 Y254.926
(Begin step 119.)
G0 X365.526 Y254.926
(part 1)
G1 X365.526 Y254.926 Z-5.774 F3000.000
G2 X365.526 Y254.926 Z-5.774 I-110.700 J0.030 K5.774 F3000.000
G1 X365.526 Y254.926 Z-5.774 F3000.000
(End of step 119.)
G0 Z3.000
G0 X366.426 Y254.926
(Begin step 120.)
G0 X366.426 Y254.926
(part 1)
G1 X366.426 Y254.926 Z-5.753 F3000.000
G2 X366.426 Y254.926 Z-5.753 I-111.600 J0.030 K5.753 F3000.000
G1 X366.426 Y254.926 Z-5.753 F3000.000
(End of step 120.)
G0 Z3.000
G0 X367.326 Y254.926
(Begin step 121.)
G0 X367.326 Y254.926
(part 1)
G1 X367.326 Y254.926 Z-5.731 F3000.000
G2 X367.326 Y254.926 Z-5.731 I-112.500 J0.030 K5.731 F3000.000
G1 X367.326 Y254.926 Z-5.731 F3000.000
(End of step 121.)
G0 Z3.000
G0 X368.226 Y254.926
(Begin step 122.)
G0 X368.226 Y254.926
(part 1)
G1 X368.226 Y254.926 Z-5.709 F3000.000
G2 X368.226 Y254.926 Z-5.709 I-113.400 J0.030 K5.709 F3000.000
G1 X368.226 Y254.926 Z-5.709 F3000.000
(End of step 122.)
G0 Z3.000
G0 X369.126 Y254.926
(Begin step 123.)
G0 X369.126 Y254.926
(part 1)
G1 X369.126 Y254.926 Z-5.687 F3000.000
G2 X369.126 Y254.926 Z-5.687 I-114.300 J0.030 K5.687 F3000.000
G1 X369.126 Y254.926 Z-5.687 F3000.000
(End of step 123.)
G0 Z3.000
G0 X370.026 Y254.926
(Begin step 124.)
G0 X370.026 Y254.926
(part 1)
G1 X370.026 Y254.926 Z-5.664 F3000.000
G2 X370.026 Y254.926 Z-5.664 I-115.200 J0.030 K5.664 F3000.000
G1 X370.026 Y254.926 Z-5.664 F3000.000
(End of step 124.)
G0 Z3.000
G0 X370.926 Y254.926
(Begin step 125.)
G0 X370.926 Y254.926
(part 1)
G1 X370.926 Y254.926 Z-5.641 F3000.000
G2 X370.926 Y254.926 Z-5.641 I-116.100 J0.030 K5.641 F3000.000
G1 X370.926 Y254.926 Z-5.641 F3000.000
(End of step 125.)
G0 Z3.000
G0 X371.826 Y254.926
(Begin step 126.)
G0 X371.826 Y254.926
(part 1)
G1 X371.826 Y254.926 Z-5.617 F3000.000
G2 X371.826 Y254.926 Z-5.617 I-117.000 J0.030 K5.617 F3000.000
G1 X371.826 Y254.926 Z-5.617 F3000.000
(End of step 126.)
G0 Z3.000
G0 X372.726 Y254.926
(Begin step 127.)
G0 X372.726 Y254.926
(part 1)
G1 X372.726 Y254.926 Z-5.594 F3000.000
G2 X372.726 Y254.926 Z-5.594 I-117.900 J0.030 K5.594 F3000.000
G1 X372.726 Y254.926 Z-5.594 F3000.000
(End of step 127.)
G0 Z3.000
G0 X373.626 Y254.926
(Begin step 128.)
G0 X373.626 Y254.926
(part 1)
G1 X373.626 Y254.926 Z-5.571 F3000.000
G2 X373.626 Y254.926 Z-5.571 I-118.800 J0.030 K5.571 F3000.000
G1 X373.626 Y254.926 Z-5.571 F3000.000
(End of step 128.)
G0 Z3.000
G0 X374.526 Y254.926
(Begin step 129.)
G0 X374.526 Y254.926
(part 1)
G1 X374.526 Y254.926 Z-5.548 F3000.000
G2 X374.526 Y254.926 Z-5.548 I-119.700 J0.030 K5.548 F3000.000
G1 X374.526 Y254.926 Z-5.548 F3000.000
(End of step 129.)
G0 Z3.000
G0 X375.426 Y254.926
(Begin step 130.)
G0 X375.426 Y254.926
(part 1)
G1 X375.426 Y254.926 Z-5.525 F3000.000
G2 X375.426 Y254.926 Z-5.525 I-120.600 J0.030 K5.525 F3000.000
G1 X375.426 Y254.926 Z-5.525 F3000.000
(End of step 130.)
G0 Z3.000
G0 X376.326 Y254.926
(Begin step 131.)
G0 X376.326 Y254.926
(part 1)
G1 X376.326 Y254.926 Z-5.501 F3000.000
G2 X376.326 Y254.926 Z-5.501 I-121.500 J0.030 K5.501 F3000.000
G1 X376.326 Y254.926 Z-5.501 F3000.000
(End of step 131.)
G0 Z3.000
G0 X377.226 Y254.926
(Begin step 132.)
G0 X377.226 Y254.926
(part 1)
G1 X377.226 Y254.926 Z-5.476 F3000.000
G2 X377.226 Y254.926 Z-5.476 I-122.400 J0.030 K5.476 F3000.000
G1 X377.226 Y254.926 Z-5.476 F3000.000
(End of step 132.)
G0 Z3.000
G0 X378.126 Y254.926
(Begin step 133.)
G0 X378.126 Y254.926
(part 1)
G1 X378.126 Y254.926 Z-5.452 F3000.000
G2 X378.126 Y254.926 Z-5.452 I-123.300 J0.030 K5.452 F3000.000
G1 X378.126 Y254.926 Z-5.452 F3000.000
(End of step 133.)
G0 Z3.000
G0 X379.026 Y254.926
(Begin step 134.)
G0 X379.026 Y254.926
(part 1)
G1 X379.026 Y254.926 Z-5.427 F3000.000
G2 X379.026 Y254.926 Z-5.427 I-124.200 J0.030 K5.427 F3000.000
G1 X379.026 Y254.926 Z-5.427 F3000.000
(End of step 134.)
G0 Z3.000
G0 X379.926 Y254.926
(Begin step 135.)
G0 X379.926 Y254.926
(part 1)
G1 X379.926 Y254.926 Z-5.403 F3000.000
G2 X379.926 Y254.926 Z-5.403 I-125.100 J0.030 K5.403 F3000.000
G1 X379.926 Y254.926 Z-5.403 F3000.000
(End of step 135.)
G0 Z3.000
G0 X380.826 Y254.926
(Begin step 136.)
G0 X380.826 Y254.926
(part 1)
G1 X380.826 Y254.926 Z-5.378 F3000.000
G2 X380.826 Y254.926 Z-5.378 I-126.000 J0.030 K5.378 F3000.000
G1 X380.826 Y254.926 Z-5.378 F3000.000
(End of step 136.)
G0 Z3.000
G0 X381.726 Y254.926
(Begin step 137.)
G0 X381.726 Y254.926
(part 1)
G1 X381.726 Y254.926 Z-5.354 F3000.000
G2 X381.726 Y254.926 Z-5.354 I-126.900 J0.030 K5.354 F3000.000
G1 X381.726 Y254.926 Z-5.354 F3000.000
(End of step 137.)
G0 Z3.000
G0 X382.626 Y254.926
(Begin step 138.)
G0 X382.626 Y254.926
(part 1)
G1 X382.626 Y254.926 Z-5.329 F3000.000
G2 X382.626 Y254.926 Z-5.329 I-127.800 J0.030 K5.329 F3000.000
G1 X382.626 Y254.926 Z-5.329 F3000.000
(End of step 138.)
G0 Z3.000
G0 X383.526 Y254.926
(Begin step 139.)
G0 X383.526 Y254.926
(part 1)
G1 X383.526 Y254.926 Z-5.303 F3000.000
G2 X383.526 Y254.926 Z-5.303 I-128.700 J0.030 K5.303 F3000.000
G1 X383.526 Y254.926 Z-5.303 F3000.000
(End of step 139.)
G0 Z3.000
G0 X384.426 Y254.926
(Begin step 140.)
G0 X384.426 Y254.926
(part 1)
G1 X384.426 Y254.926 Z-5.277 F3000.000
G2 X384.426 Y254.926 Z-5.277 I-129.600 J0.030 K5.277 F3000.000
G1 X384.426 Y254.926 Z-5.277 F3000.000
(End of step 140.)
G0 Z3.000
G0 X385.326 Y254.926
(Begin step 141.)
G0 X385.326 Y254.926
(part 1)
G1 X385.326 Y254.926 Z-5.252 F3000.000
G2 X385.326 Y254.926 Z-5.252 I-130.500 J0.030 K5.252 F3000.000
G1 X385.326 Y254.926 Z-5.252 F3000.000
(End of step 141.)
G0 Z3.000
G0 X386.226 Y254.926
(Begin step 142.)
G0 X386.226 Y254.926
(part 1)
G1 X386.226 Y254.926 Z-5.226 F3000.000
