(Exported by FreeCAD)
(Post Processor: grbl_post)
(Output Time:2024-04-19 10:49:04.348389)
(Begin preamble)
G17 G90
G21
(Begin operation: TC: 3.175 Z1 UP Helicoidale007)
(Path: TC: 3.175 Z1 UP Helicoidale007)
(TC: 3.175 Z1 UP Helicoidale007)
(Begin toolchange)
( M6 T1 )
M3 S24000
(Finish operation: TC: 3.175 Z1 UP Helicoidale007)
(Begin operation: Fixture)
(Path: Fixture)
G54
(Finish operation: Fixture)
(Begin operation: Profile)
(Path: Profile)
(Profile)
(Compensated Tool Path. Diameter: 3.17)
G0 Z5.000
G0 X439.968 Y439.798
G0 Z3.000
G1 X439.968 Y439.798 Z-3.170 F500.000
G2 X264.290 Y-6.590 Z-3.170 I-184.968 J-184.968 K0.000 F2000.000
G2 X245.710 Y516.250 Z-3.170 I-9.290 J261.420 K0.000 F2000.000
G2 X439.968 Y439.798 Z-3.170 I9.290 J-261.420 K0.000 F2000.000
G1 X439.968 Y439.798 Z-6.340 F500.000
G2 X264.290 Y-6.590 Z-6.340 I-184.968 J-184.968 K0.000 F2000.000
G2 X245.710 Y516.250 Z-6.340 I-9.290 J261.420 K0.000 F2000.000
G2 X439.968 Y439.798 Z-6.340 I9.290 J-261.420 K0.000 F2000.000
G1 X439.968 Y439.798 Z-9.510 F500.000
G2 X264.290 Y-6.590 Z-9.510 I-184.968 J-184.968 K0.000 F2000.000
G2 X245.710 Y516.250 Z-9.510 I-9.290 J261.420 K0.000 F2000.000
G2 X439.968 Y439.798 Z-9.510 I9.290 J-261.420 K0.000 F2000.000
G1 X439.968 Y439.798 Z-12.680 F500.000
G2 X264.290 Y-6.590 Z-12.680 I-184.968 J-184.968 K0.000 F2000.000
G2 X245.710 Y516.250 Z-12.680 I-9.290 J261.420 K0.000 F2000.000
G2 X439.968 Y439.798 Z-12.680 I9.290 J-261.420 K0.000 F2000.000
G1 X439.968 Y439.798 Z-15.850 F500.000
G2 X264.290 Y-6.590 Z-15.850 I-184.968 J-184.968 K0.000 F2000.000
G2 X245.710 Y516.250 Z-15.850 I-9.290 J261.420 K0.000 F2000.000
G2 X439.968 Y439.798 Z-15.850 I9.290 J-261.420 K0.000 F2000.000
G1 X439.968 Y439.798 Z-18.000 F500.000
G2 X264.290 Y-6.590 Z-18.000 I-184.968 J-184.968 K0.000 F2000.000
G2 X245.710 Y516.250 Z-18.000 I-9.290 J261.420 K0.000 F2000.000
G2 X439.968 Y439.798 Z-18.000 I9.290 J-261.420 K0.000 F2000.000
G0 Z5.000
G0 Z5.000
(Finish operation: Profile)
(Begin postamble)
M5
G17 G90
M2
