(Exported by FreeCAD)
(Post Processor: grbl_post)
(Output Time:2024-04-18 19:32:41.372087)
(Begin preamble)
G17 G90
G21
(Begin operation: TC: 6D L42 Corn End Mill)
(Path: TC: 6D L42 Corn End Mill)
(TC: 6D L42 Corn End Mill)
(Begin toolchange)
( M6 T10 )
M3 S24000
(Finish operation: TC: 6D L42 Corn End Mill)
(Begin operation: Fixture)
(Path: Fixture)
G54
(Finish operation: Fixture)
(Begin operation: Profile)
(Path: Profile)
(Profile)
(Compensated Tool Path. Diameter: 6.0)
G0 Z5.000
G0 X437.433 Y437.263
G0 Z3.000
G1 X437.433 Y437.263 Z-3.000 F500.000
G2 X264.132 Y-3.008 Z-3.000 I-182.433 J-182.433 K0.000 F2000.000
G2 X245.868 Y512.668 Z-3.000 I-9.132 J257.838 K0.000 F2000.000
G2 X437.433 Y437.263 Z-3.000 I9.132 J-257.838 K0.000 F2000.000
G1 X437.433 Y437.263 Z-6.000 F500.000
G2 X264.132 Y-3.008 Z-6.000 I-182.433 J-182.433 K0.000 F2000.000
G2 X245.868 Y512.668 Z-6.000 I-9.132 J257.838 K0.000 F2000.000
G2 X437.433 Y437.263 Z-6.000 I9.132 J-257.838 K0.000 F2000.000
G1 X437.433 Y437.263 Z-9.000 F500.000
G2 X264.132 Y-3.008 Z-9.000 I-182.433 J-182.433 K0.000 F2000.000
G2 X245.868 Y512.668 Z-9.000 I-9.132 J257.838 K0.000 F2000.000
G2 X437.433 Y437.263 Z-9.000 I9.132 J-257.838 K0.000 F2000.000
G1 X437.433 Y437.263 Z-12.000 F500.000
G2 X264.132 Y-3.008 Z-12.000 I-182.433 J-182.433 K0.000 F2000.000
G2 X245.868 Y512.668 Z-12.000 I-9.132 J257.838 K0.000 F2000.000
G2 X437.433 Y437.263 Z-12.000 I9.132 J-257.838 K0.000 F2000.000
G1 X437.433 Y437.263 Z-15.000 F500.000
G2 X264.132 Y-3.008 Z-15.000 I-182.433 J-182.433 K0.000 F2000.000
G2 X245.868 Y512.668 Z-15.000 I-9.132 J257.838 K0.000 F2000.000
G2 X437.433 Y437.263 Z-15.000 I9.132 J-257.838 K0.000 F2000.000
G1 X437.433 Y437.263 Z-18.000 F500.000
G2 X264.132 Y-3.008 Z-18.000 I-182.433 J-182.433 K0.000 F2000.000
G2 X245.868 Y512.668 Z-18.000 I-9.132 J257.838 K0.000 F2000.000
G2 X437.433 Y437.263 Z-18.000 I9.132 J-257.838 K0.000 F2000.000
G0 Z5.000
G0 Z5.000
(Finish operation: Profile)
(Begin postamble)
M5
G17 G90
M2
