(Exported by FreeCAD)
(Post Processor: grbl_post)
(Output Time:2023-04-10 19:29:30.392940)
(Begin preamble)
G17 G90
G21
(Begin operation: TC: 8 Z1 UP helicoidale)
(Path: TC: 8 Z1 UP helicoidale)
(TC: 8 Z1 UP helicoidale)
(Begin toolchange)
( M6 T1 )
M3 S24000
(Finish operation: TC: 8 Z1 UP helicoidale)
(Begin operation: Fixture)
(Path: Fixture)
G54
G0 Z5.000
(Finish operation: Fixture)
(Begin operation: Pocket_Shape)
(Path: Pocket_Shape)
(Pocket_Shape)
G0 Z5.000
G0 X0.000 Y0.000
G0 X21.500
G0 X21.500 Z3.000
G1 X21.500 Y0.000 Z-2.000 F100.000
G1 X48.500 Y0.000 Z-2.000 F2000.000
G1 X48.500 Y430.000 Z-2.000 F2000.000
G1 X21.500 Y430.000 Z-2.000 F2000.000
G1 X21.500 Y0.000 Z-2.000 F2000.000
G1 X24.700 Y3.200 Z-2.000 F100.000
G1 X45.300 Y3.200 Z-2.000 F2000.000
G1 X45.300 Y426.800 Z-2.000 F2000.000
G1 X24.700 Y426.800 Z-2.000 F2000.000
G1 X24.700 Y3.200 Z-2.000 F2000.000
G1 X27.900 Y6.400 Z-2.000 F100.000
G1 X42.100 Y6.400 Z-2.000 F2000.000
G1 X42.100 Y423.600 Z-2.000 F2000.000
G1 X27.900 Y423.600 Z-2.000 F2000.000
G1 X27.900 Y6.400 Z-2.000 F2000.000
G1 X31.100 Y9.600 Z-2.000 F100.000
G1 X38.900 Y9.600 Z-2.000 F2000.000
G1 X38.900 Y420.400 Z-2.000 F2000.000
G1 X31.100 Y420.400 Z-2.000 F2000.000
G1 X31.100 Y9.600 Z-2.000 F2000.000
G1 X34.300 Y12.800 Z-2.000 F100.000
G1 X35.700 Y12.800 Z-2.000 F2000.000
G1 X35.700 Y417.200 Z-2.000 F2000.000
G1 X34.300 Y417.200 Z-2.000 F2000.000
G1 X34.300 Y12.800 Z-2.000 F2000.000
G1 X34.300 Y12.800 Z-3.800 F100.000
G1 X35.700 Y12.800 Z-3.800 F2000.000
G1 X35.700 Y417.200 Z-3.800 F2000.000
G1 X34.300 Y417.200 Z-3.800 F2000.000
G1 X34.300 Y12.800 Z-3.800 F2000.000
G1 X31.100 Y12.800 Z-3.800 F100.000
G1 X31.100 Y9.600 Z-3.800 F2000.000
G1 X38.900 Y9.600 Z-3.800 F2000.000
G1 X38.900 Y420.400 Z-3.800 F2000.000
G1 X31.100 Y420.400 Z-3.800 F2000.000
G1 X31.100 Y12.800 Z-3.800 F2000.000
G1 X27.900 Y12.800 Z-3.800 F100.000
G1 X27.900 Y6.400 Z-3.800 F2000.000
G1 X42.100 Y6.400 Z-3.800 F2000.000
G1 X42.100 Y423.600 Z-3.800 F2000.000
G1 X27.900 Y423.600 Z-3.800 F2000.000
G1 X27.900 Y12.800 Z-3.800 F2000.000
G1 X24.700 Y12.800 Z-3.800 F100.000
G1 X24.700 Y3.200 Z-3.800 F2000.000
G1 X45.300 Y3.200 Z-3.800 F2000.000
G1 X45.300 Y426.800 Z-3.800 F2000.000
G1 X24.700 Y426.800 Z-3.800 F2000.000
G1 X24.700 Y12.800 Z-3.800 F2000.000
G1 X21.500 Y12.800 Z-3.800 F100.000
G1 X21.500 Y0.000 Z-3.800 F2000.000
G1 X48.500 Y0.000 Z-3.800 F2000.000
G1 X48.500 Y430.000 Z-3.800 F2000.000
G1 X21.500 Y430.000 Z-3.800 F2000.000
G1 X21.500 Y12.800 Z-3.800 F2000.000
G1 X21.500 Y12.800 Z-4.000 F100.000
G1 X21.500 Y0.000 Z-4.000 F2000.000
G1 X48.500 Y0.000 Z-4.000 F2000.000
G1 X48.500 Y430.000 Z-4.000 F2000.000
G1 X21.500 Y430.000 Z-4.000 F2000.000
G1 X21.500 Y12.800 Z-4.000 F2000.000
G1 X24.700 Y12.800 Z-4.000 F100.000
G1 X24.700 Y3.200 Z-4.000 F2000.000
G1 X45.300 Y3.200 Z-4.000 F2000.000
G1 X45.300 Y426.800 Z-4.000 F2000.000
G1 X24.700 Y426.800 Z-4.000 F2000.000
G1 X24.700 Y12.800 Z-4.000 F2000.000
G1 X27.900 Y12.800 Z-4.000 F100.000
G1 X27.900 Y6.400 Z-4.000 F2000.000
G1 X42.100 Y6.400 Z-4.000 F2000.000
G1 X42.100 Y423.600 Z-4.000 F2000.000
G1 X27.900 Y423.600 Z-4.000 F2000.000
G1 X27.900 Y12.800 Z-4.000 F2000.000
G1 X31.100 Y12.800 Z-4.000 F100.000
G1 X31.100 Y9.600 Z-4.000 F2000.000
G1 X38.900 Y9.600 Z-4.000 F2000.000
G1 X38.900 Y420.400 Z-4.000 F2000.000
G1 X31.100 Y420.400 Z-4.000 F2000.000
G1 X31.100 Y12.800 Z-4.000 F2000.000
G1 X34.300 Y12.800 Z-4.000 F100.000
G1 X35.700 Y12.800 Z-4.000 F2000.000
G1 X35.700 Y417.200 Z-4.000 F2000.000
G1 X34.300 Y417.200 Z-4.000 F2000.000
G1 X34.300 Y12.800 Z-4.000 F2000.000
G0 Z5.000
G0 Z5.000
(Finish operation: Pocket_Shape)
(Begin postamble)
M5
G17 G90
M2
