;FLAVOR:Marlin
;TIME:1896
;Filament used: 2.82819m
;Layer height: 0.25
;MINX:90.225
;MINY:102.059
;MINZ:0.2
;MAXX:144.775
;MAXY:130.929
;MAXZ:24.95
;Generated with Cura_SteamEngine 5.2.1
M140 S60
M105
M190 S60
M104 S205
M105
M109 S205
M82 ;absolute extrusion mode
; Ender 3 Custom Start G-code
G92 E0 ; Reset Extruder
G28 ; Home all axes
M420 S1 ; Rappel du bed levelling
G1 Z2.0 F3000 ; Move Z Axis up little to prevent scratching of Heat Bed
G1 X0.1 Y20 Z0.3 F5000.0 ; Move to start position
G1 X0.1 Y200.0 Z0.3 F1500.0 E15 ; Draw the first line
G1 X0.4 Y200.0 Z0.3 F5000.0 ; Move to side a little
G1 X0.4 Y20 Z0.3 F1500.0 E30 ; Draw the second line
G92 E0 ; Reset Extruder
G1 Z2.0 F3000 ; Move Z Axis up little to prevent scratching of Heat Bed
G1 X5 Y20 Z0.3 F5000.0 ; Move over to prevent blob squish
G92 E0
G92 E0
G1 F2700 E-6.5
;LAYER_COUNT:100
;LAYER:0
M107
M204 S1000
M205 X20 Y20
G0 F1285.7 X137.743 Y128.342 Z0.2
;TYPE:SKIRT
G1 F2700 E0
G1 F600 X137.189 Y128.768 E0.02789
G1 X136.444 Y129.28 E0.06397
G1 X135.274 Y129.876 E0.11638
G1 X134.445 Y130.243 E0.15256
G1 X133.42 Y130.546 E0.19522
G1 X132.539 Y130.755 E0.23136
G1 X131.243 Y130.891 E0.28337
G1 X130.515 Y130.929 E0.31247
G1 X104.485 Y130.929 E1.35138
G1 X103.758 Y130.891 E1.38044
G1 X102.825 Y130.793 E1.41788
G1 X101.93 Y130.65 E1.45405
G1 X100.909 Y130.348 E1.49655
G1 X100.051 Y130.043 E1.53289
G1 X98.89 Y129.45 E1.58493
G1 X98.112 Y128.999 E1.62082
G1 X97.263 Y128.347 E1.66354
G1 X96.573 Y127.757 E1.69978
G1 X95.695 Y126.779 E1.75223
G1 X95.129 Y126.075 E1.78829
G1 X94.578 Y125.177 E1.83034
G1 X94.077 Y124.192 E1.87444
G1 X93.809 Y123.543 E1.90247
G1 X93.475 Y122.517 E1.94553
G1 X93.258 Y121.616 E1.98252
G1 X93.123 Y120.882 E2.01231
G1 X93.065 Y119.986 E2.04815
G1 X93.065 Y113 E2.32697
G1 X93.105 Y112.255 E2.35675
G1 X93.258 Y111.372 E2.39252
G1 X93.474 Y110.474 E2.42938
G1 X93.729 Y109.618 E2.46503
G1 X94.26 Y108.422 E2.51726
G1 X94.669 Y107.617 E2.5533
G1 X95.29 Y106.717 E2.59694
G1 X95.97 Y105.879 E2.64001
G1 X96.451 Y105.372 E2.6679
G1 X97.262 Y104.641 E2.71148
G1 X97.813 Y104.218 E2.73921
G1 X98.738 Y103.618 E2.78321
G1 X99.355 Y103.284 E2.81121
G1 X100.165 Y102.9 E2.84699
G1 X101.402 Y102.498 E2.8989
G1 X102.292 Y102.26 E2.93567
G1 X103.46 Y102.113 E2.98266
G1 X104.328 Y102.059 E3.01737
G1 X130.672 Y102.059 E4.06882
G1 X131.534 Y102.113 E4.10329
G1 X132.311 Y102.21 E4.13454
G1 X133.15 Y102.361 E4.16856
G1 X134.097 Y102.642 E4.20799
G1 X134.945 Y102.944 E4.24392
G1 X136.104 Y103.534 E4.29582
G1 X136.888 Y103.988 E4.33198
G1 X137.746 Y104.648 E4.37519
G1 X138.556 Y105.379 E4.41874
G1 X139.035 Y105.885 E4.44654
G1 X139.619 Y106.573 E4.48256
G1 X140.327 Y107.662 E4.53441
G1 X140.778 Y108.444 E4.57044
G1 X141.189 Y109.438 E4.61337
G1 X141.526 Y110.477 E4.65696
G1 X141.688 Y111.153 E4.68471
G1 X141.883 Y112.298 E4.73106
G1 X141.935 Y113.313 E4.77163
G1 X141.935 Y119.987 E5.038
G1 X141.895 Y120.732 E5.06778
G1 X141.742 Y121.613 E5.10347
G1 X141.526 Y122.512 E5.14037
G1 X141.272 Y123.369 E5.17604
G1 X140.739 Y124.568 E5.22841
G1 X140.326 Y125.377 E5.26467
G1 X139.71 Y126.27 E5.30797
G1 X139.03 Y127.108 E5.35104
G1 X138.549 Y127.615 E5.37893
G1 X137.743 Y128.342 E5.42225
G0 F1285.7 X137.45 Y127.962
G1 F600 X136.896 Y128.388 E5.45015
G1 X136.186 Y128.873 E5.48447
G1 X135.057 Y129.448 E5.53503
G1 X134.277 Y129.791 E5.56904
G1 X133.283 Y130.085 E5.61041
G1 X132.463 Y130.279 E5.64405
G1 X131.193 Y130.413 E5.69502
G1 X130.515 Y130.449 E5.72211
G1 X104.485 Y130.449 E6.76103
G1 X103.808 Y130.414 E6.78808
G1 X102.875 Y130.316 E6.82553
G1 X102.04 Y130.181 E6.85929
G1 X101.046 Y129.887 E6.90066
G1 X100.238 Y129.599 E6.93489
G1 X99.108 Y129.022 E6.98553
G1 X98.377 Y128.596 E7.0193
G1 X97.555 Y127.966 E7.06064
G1 X96.905 Y127.407 E7.09486
G1 X96.053 Y126.459 E7.14573
G1 X95.521 Y125.796 E7.17965
G1 X94.987 Y124.926 E7.2204
G1 X94.521 Y124.009 E7.26145
G1 X94.253 Y123.36 E7.28948
G1 X93.942 Y122.404 E7.3296
G1 X93.725 Y121.503 E7.36659
G1 X93.596 Y120.795 E7.39531
G1 X93.545 Y119.986 E7.42767
G1 X93.545 Y113 E7.70649
G1 X93.585 Y112.281 E7.73523
G1 X93.725 Y111.485 E7.76749
G1 X93.941 Y110.587 E7.80435
G1 X94.186 Y109.77 E7.8384
G1 X94.698 Y108.617 E7.88875
G1 X95.087 Y107.857 E7.92283
G1 X95.685 Y106.99 E7.96486
G1 X96.318 Y106.209 E8.00499
G1 X96.799 Y105.702 E8.03288
G1 X97.554 Y105.022 E8.07343
G1 X98.105 Y104.599 E8.10116
G1 X98.966 Y104.04 E8.14213
G1 X99.583 Y103.706 E8.17013
G1 X100.346 Y103.346 E8.2038
G1 X101.551 Y102.954 E8.25438
G1 X102.389 Y102.732 E8.28898
G1 X103.52 Y102.59 E8.33447
G1 X104.328 Y102.539 E8.36679
G1 X130.672 Y102.539 E9.41823
G1 X131.475 Y102.589 E9.45035
G1 X132.252 Y102.686 E9.4816
G1 X133.293 Y102.904 E9.52405
G1 X133.96 Y103.102 E9.55182
G1 X134.763 Y103.39 E9.58587
G1 X135.887 Y103.962 E9.6362
G1 X136.628 Y104.393 E9.67042
G1 X137.453 Y105.028 E9.71197
G1 X138.208 Y105.709 E9.75255
G1 X138.687 Y106.215 E9.78036
G1 X139.236 Y106.865 E9.81432
G1 X139.925 Y107.924 E9.86474
G1 X140.35 Y108.665 E9.89884
G1 X140.746 Y109.622 E9.94017
G1 X141.06 Y110.589 E9.98075
G1 X141.222 Y111.265 E10.0085
G1 X141.366 Y112.116 E10.04294
G1 X141.455 Y113.313 E10.09085
G1 X141.455 Y119.987 E10.35722
G1 X141.415 Y120.706 E10.38597
G1 X141.276 Y121.501 E10.41818
G1 X141.06 Y122.4 E10.45508
G1 X140.816 Y123.212 E10.48892
G1 X140.3 Y124.373 E10.53963
G1 X139.909 Y125.136 E10.57385
G1 X139.315 Y125.997 E10.6156
G1 X138.682 Y126.778 E10.65572
G1 X138.201 Y127.285 E10.68361
G1 X137.45 Y127.962 E10.72397
G0 F1285.7 X137.157 Y127.581
G1 F600 X136.603 Y128.007 E10.75186
G1 X135.937 Y128.461 E10.78403
G1 X134.839 Y129.02 E10.83321
G1 X134.105 Y129.342 E10.8652
G1 X133.147 Y129.625 E10.90507
G1 X132.372 Y129.807 E10.93684
G1 X130.827 Y129.969 E10.99884
G1 X104.172 Y129.969 E12.0627
G1 X102.925 Y129.838 E12.11275
G1 X102.134 Y129.708 E12.14474
G1 X101.182 Y129.427 E12.18436
G1 X100.429 Y129.157 E12.21628
G1 X99.326 Y128.594 E12.26571
G1 X98.636 Y128.191 E12.2976
G1 X97.847 Y127.586 E12.33729
G1 X97.236 Y127.058 E12.36952
G1 X96.41 Y126.138 E12.41886
G1 X95.913 Y125.516 E12.45064
G1 X95.397 Y124.675 E12.49002
G1 X94.964 Y123.826 E12.52806
G1 X94.696 Y123.177 E12.55608
G1 X94.409 Y122.292 E12.59322
G1 X94.192 Y121.391 E12.63021
G1 X94.069 Y120.709 E12.65787
G1 X94.025 Y119.986 E12.68677
G1 X94.025 Y113 E12.9656
G1 X94.065 Y112.309 E12.99323
G1 X94.191 Y111.597 E13.02209
G1 X94.407 Y110.699 E13.05895
G1 X94.639 Y109.934 E13.09086
G1 X95.137 Y108.812 E13.13985
G1 X95.508 Y108.092 E13.17218
G1 X96.08 Y107.262 E13.21241
G1 X96.666 Y106.539 E13.24955
G1 X97.147 Y106.032 E13.27745
G1 X97.846 Y105.403 E13.31498
G1 X98.397 Y104.98 E13.3427
G1 X99.195 Y104.463 E13.38065
G1 X99.812 Y104.129 E13.40865
G1 X100.536 Y103.789 E13.44058
G1 X101.699 Y103.411 E13.48939
G1 X102.492 Y103.203 E13.52211
G1 X103.58 Y103.066 E13.56588
G1 X104.328 Y103.019 E13.59579
G1 X130.672 Y103.019 E14.64723
G1 X131.415 Y103.065 E14.67695
G1 X132.192 Y103.162 E14.7082
G1 X133.156 Y103.364 E14.74751
G1 X133.823 Y103.562 E14.77528
G1 X134.574 Y103.833 E14.80714
G1 X135.669 Y104.39 E14.85618
G1 X136.363 Y104.795 E14.88825
G1 X137.161 Y105.409 E14.92844
G1 X137.859 Y106.039 E14.96596
G1 X138.338 Y106.545 E14.99377
G1 X138.849 Y107.151 E15.02541
G1 X139.522 Y108.186 E15.07468
G1 X139.92 Y108.881 E15.10665
G1 X140.302 Y109.805 E15.14656
G1 X140.593 Y110.701 E15.18416
G1 X140.755 Y111.377 E15.2119
G1 X140.889 Y112.165 E15.2438
G1 X140.975 Y113.313 E15.28975
G1 X140.975 Y119.987 E15.55612
G1 X140.935 Y120.678 E15.58375
G1 X140.809 Y121.389 E15.61257
G1 X140.593 Y122.288 E15.64947
G1 X140.363 Y123.051 E15.68128
G1 X139.862 Y124.178 E15.7305
G1 X139.492 Y124.896 E15.76274
G1 X138.92 Y125.725 E15.80294
G1 X138.334 Y126.448 E15.84009
G1 X137.853 Y126.955 E15.86798
G1 X137.157 Y127.581 E15.90534
G0 F1285.7 X136.865 Y127.201
G1 F600 X136.311 Y127.627 E15.93323
G1 X135.685 Y128.05 E15.96339
G1 X134.621 Y128.592 E16.01105
G1 X133.925 Y128.895 E16.04134
G1 X133.011 Y129.165 E16.07938
G1 X132.274 Y129.335 E16.10957
G1 X130.806 Y129.489 E16.16848
G1 X104.194 Y129.489 E17.23062
G1 X102.975 Y129.361 E17.27954
G1 X102.234 Y129.238 E17.30952
G1 X101.318 Y128.967 E17.34765
G1 X100.603 Y128.707 E17.37802
G1 X99.544 Y128.167 E17.42546
G1 X98.893 Y127.784 E17.45561
G1 X98.139 Y127.205 E17.49355
G1 X97.568 Y126.709 E17.52374
G1 X96.767 Y125.817 E17.57159
G1 X96.301 Y125.23 E17.6015
G1 X95.806 Y124.424 E17.63925
G1 X95.408 Y123.643 E17.67424
G1 X95.14 Y122.994 E17.70226
G1 X94.875 Y122.179 E17.73647
G1 X94.555 Y120.851 E17.79099
G1 X94.505 Y119.986 E17.82557
G1 X94.505 Y113 E18.10439
G1 X94.558 Y112.126 E18.13934
G1 X94.874 Y110.811 E18.19332
G1 X95.093 Y110.094 E18.22324
G1 X95.576 Y109.006 E18.27075
G1 X95.924 Y108.333 E18.30099
G1 X96.475 Y107.535 E18.3397
G1 X97.014 Y106.87 E18.37386
G1 X97.495 Y106.363 E18.40176
G1 X98.139 Y105.783 E18.43635
G1 X98.69 Y105.36 E18.46407
G1 X99.423 Y104.885 E18.49893
G1 X100.04 Y104.551 E18.52694
G1 X100.716 Y104.235 E18.55672
G1 X101.848 Y103.867 E18.60423
G1 X102.593 Y103.674 E18.63494
G1 X103.64 Y103.542 E18.67706
G1 X104.328 Y103.499 E18.70457
G1 X130.672 Y103.499 E19.75602
G1 X131.356 Y103.542 E19.78337
G1 X132.133 Y103.639 E19.81463
G1 X133.02 Y103.824 E19.85079
G1 X133.687 Y104.022 E19.87856
G1 X134.389 Y104.277 E19.90837
G1 X135.451 Y104.818 E19.95594
G1 X136.102 Y105.2 E19.98606
G1 X136.868 Y105.789 E20.02463
G1 X137.511 Y106.369 E20.05919
G1 X137.99 Y106.875 E20.087
G1 X138.47 Y107.447 E20.1168
G1 X139.12 Y108.447 E20.16441
G1 X139.493 Y109.104 E20.19456
G1 X139.859 Y109.989 E20.23278
G1 X140.126 Y110.813 E20.26736
G1 X140.288 Y111.489 E20.2951
G1 X140.411 Y112.214 E20.32445
G1 X140.495 Y113.313 E20.36844
G1 X140.495 Y119.987 E20.63482
G1 X140.442 Y120.859 E20.66968
G1 X140.126 Y122.176 E20.72374
G1 X139.906 Y122.897 E20.75383
G1 X139.423 Y123.983 E20.80126
G1 X139.074 Y124.657 E20.83156
G1 X138.525 Y125.452 E20.87012
G1 X137.986 Y126.117 E20.90428
G1 X137.505 Y126.624 E20.93218
G1 X136.865 Y127.201 E20.96657
G0 F1285.7 X136.572 Y126.82
G1 F600 X136.018 Y127.246 E20.99446
G1 X135.232 Y127.743 E21.03158
G1 X134.403 Y128.165 E21.0687
G1 X133.545 Y128.506 E21.10555
G1 X132.875 Y128.704 E21.13344
G1 X131.974 Y128.883 E21.1701
G1 X130.776 Y129.009 E21.21818
G1 X104.226 Y129.009 E22.27785
G1 X103.026 Y128.883 E22.32601
G1 X102.124 Y128.704 E22.36271
G1 X101.454 Y128.506 E22.39059
G1 X100.591 Y128.162 E22.42767
G1 X99.762 Y127.739 E22.46482
G1 X98.985 Y127.249 E22.50148
G1 X98.431 Y126.824 E22.52935
G1 X97.749 Y126.192 E22.56646
G1 X97.124 Y125.496 E22.6038
G1 X96.579 Y124.766 E22.64016
G1 X96.215 Y124.173 E22.66793
G1 X95.852 Y123.46 E22.69986
G1 X95.584 Y122.811 E22.72789
G1 X95.342 Y122.067 E22.75911
G1 X95.029 Y120.765 E22.81256
G1 X94.985 Y119.986 E22.8437
G1 X94.985 Y113 E23.12253
G1 X95.036 Y112.19 E23.15492
G1 X95.341 Y110.923 E23.20693
G1 X95.635 Y110.057 E23.24343
G1 X96.015 Y109.201 E23.28081
G1 X96.472 Y108.384 E23.31818
G1 X96.87 Y107.807 E23.34615
G1 X97.363 Y107.2 E23.37736
G1 X97.844 Y106.693 E23.40526
G1 X98.431 Y106.164 E23.43679
G1 X98.982 Y105.741 E23.46452
G1 X99.652 Y105.307 E23.49638
G1 X100.269 Y104.973 E23.52438
G1 X101.108 Y104.612 E23.56084
G1 X101.996 Y104.323 E23.59811
G1 X102.688 Y104.145 E23.62663
G1 X104.011 Y103.979 E23.67985
G1 X130.984 Y103.979 E24.7564
G1 X132.073 Y104.115 E24.8002
G1 X132.883 Y104.284 E24.83322
G1 X133.55 Y104.482 E24.86099
G1 X134.402 Y104.822 E24.89761
G1 X135.233 Y105.245 E24.93482
G1 X136.02 Y105.742 E24.97197
G1 X136.575 Y106.169 E24.99992
G1 X137.162 Y106.699 E25.03149
G1 X137.641 Y107.205 E25.0593
G1 X138.207 Y107.923 E25.09579
G1 X138.718 Y108.709 E25.1332
G1 X139.149 Y109.529 E25.17018
G1 X139.415 Y110.172 E25.19795
G1 X139.659 Y110.924 E25.2295
G1 X139.821 Y111.6 E25.25725
G1 X139.934 Y112.262 E25.28405
G1 X140.015 Y113.313 E25.32613
G1 X140.015 Y119.987 E25.5925
G1 X139.964 Y120.799 E25.62497
G1 X139.66 Y122.063 E25.67686
G1 X139.365 Y122.933 E25.71352
G1 X138.985 Y123.788 E25.75087
G1 X138.528 Y124.603 E25.78816
G1 X138.13 Y125.18 E25.81614
G1 X137.637 Y125.787 E25.84735
G1 X137.156 Y126.294 E25.87524
G1 X136.572 Y126.82 E25.90661
G0 F1285.7 X136.28 Y126.44
G1 F600 X135.726 Y126.866 E25.9345
G1 X135.015 Y127.315 E25.96807
G1 X134.186 Y127.737 E26.00519
G1 X133.409 Y128.046 E26.03857
G1 X132.739 Y128.244 E26.06645
G1 X131.924 Y128.406 E26.09962
G1 X130.754 Y128.529 E26.14657
G1 X104.247 Y128.529 E27.20452
G1 X103.076 Y128.406 E27.25152
G1 X102.26 Y128.244 E27.28472
G1 X101.59 Y128.046 E27.31261
G1 X100.809 Y127.735 E27.34616
G1 X99.98 Y127.312 E27.3833
G1 X99.277 Y126.868 E27.41649
G1 X98.723 Y126.443 E27.44436
G1 X98.106 Y125.872 E27.47791
G1 X97.481 Y125.176 E27.51525
G1 X96.988 Y124.514 E27.54819
G1 X96.624 Y123.921 E27.57596
G1 X96.295 Y123.276 E27.60486
G1 X96.027 Y122.627 E27.63288
G1 X95.809 Y121.955 E27.66108
G1 X95.592 Y121.054 E27.69807
G1 X95.465 Y120.313 E27.72808
G1 X95.465 Y113 E28.01995
G1 X95.515 Y112.251 E28.04991
G1 X95.807 Y111.036 E28.09979
G1 X96.073 Y110.252 E28.13283
G1 X96.453 Y109.396 E28.17021
G1 X96.867 Y108.657 E28.20402
G1 X97.265 Y108.08 E28.232
G1 X97.711 Y107.531 E28.26023
G1 X98.192 Y107.024 E28.28812
G1 X98.723 Y106.545 E28.31666
G1 X99.274 Y106.122 E28.34439
G1 X99.88 Y105.729 E28.37321
G1 X100.497 Y105.395 E28.40122
G1 X101.257 Y105.069 E28.43422
G1 X102.145 Y104.78 E28.47149
G1 X102.988 Y104.592 E28.50597
G1 X104.047 Y104.459 E28.54857
G1 X130.957 Y104.459 E29.6226
G1 X132.014 Y104.591 E29.66512
G1 X132.747 Y104.745 E29.69501
G1 X133.414 Y104.943 E29.72278
G1 X134.185 Y105.25 E29.7559
G1 X135.016 Y105.673 E29.79312
G1 X135.728 Y106.123 E29.82674
G1 X136.283 Y106.55 E29.85469
G1 X136.814 Y107.029 E29.88323
G1 X137.293 Y107.535 E29.91104
G1 X137.804 Y108.185 E29.94404
G1 X138.315 Y108.971 E29.98146
G1 X138.706 Y109.713 E30.01493
G1 X138.972 Y110.356 E30.0427
G1 X139.192 Y111.036 E30.07123
G1 X139.436 Y112.053 E30.11297
G1 X139.535 Y113.313 E30.16342
G1 X139.535 Y119.987 E30.42979
G1 X139.485 Y120.734 E30.45967
G1 X139.193 Y121.951 E30.50962
G1 X138.926 Y122.738 E30.54279
G1 X138.546 Y123.593 E30.58013
G1 X138.133 Y124.33 E30.61385
G1 X137.735 Y124.907 E30.64183
G1 X137.289 Y125.456 E30.67006
G1 X136.808 Y125.963 E30.69795
G1 X136.28 Y126.44 E30.72635
G0 F1285.7 X136.242 Y125.863
G1 F600 X135.433 Y126.485 E30.76708
G1 X134.797 Y126.887 E30.79711
G1 X133.968 Y127.309 E30.83424
G1 X133.273 Y127.586 E30.8641
G1 X132.603 Y127.784 E30.89199
G1 X131.874 Y127.929 E30.92165
G1 X130.733 Y128.049 E30.96744
G1 X104.268 Y128.049 E32.02372
G1 X103.126 Y127.929 E32.06955
G1 X102.396 Y127.784 E32.09925
G1 X101.726 Y127.586 E32.12714
G1 X101.028 Y127.307 E32.15714
G1 X100.199 Y126.884 E32.19429
G1 X99.57 Y126.487 E32.22397
G1 X99.016 Y126.062 E32.25184
G1 X98.463 Y125.551 E32.28189
G1 X97.838 Y124.855 E32.31923
G1 X97.397 Y124.263 E32.34869
G1 X96.862 Y123.392 E32.38949
G1 X96.349 Y122.148 E32.4432
G1 X96.058 Y120.941 E32.49275
G1 X95.945 Y120.264 E32.52014
G1 X95.945 Y113 E32.81007
G1 X95.993 Y112.316 E32.83743
G1 X96.274 Y111.148 E32.88538
G1 X96.512 Y110.447 E32.91493
G1 X96.892 Y109.591 E32.95231
G1 X97.262 Y108.929 E32.98258
G1 X97.838 Y108.094 E33.02306
G1 X98.758 Y107.124 E33.07642
G1 X99.826 Y106.304 E33.13016
G1 X100.726 Y105.817 E33.17101
G1 X101.405 Y105.525 E33.20051
G1 X102.293 Y105.236 E33.23778
G1 X103.047 Y105.068 E33.26861
G1 X104.074 Y104.939 E33.30992
G1 X130.929 Y104.939 E34.38176
G1 X131.954 Y105.067 E34.42299
G1 X132.61 Y105.205 E34.44975
G1 X133.277 Y105.403 E34.47752
G1 X133.967 Y105.678 E34.50716
G1 X134.798 Y106.101 E34.54438
G1 X135.435 Y106.503 E34.57444
G1 X136.244 Y107.125 E34.61517
G1 X136.944 Y107.865 E34.65583
G1 X137.402 Y108.446 E34.68535
G1 X137.913 Y109.232 E34.72277
G1 X138.262 Y109.896 E34.75271
G1 X138.652 Y110.839 E34.79344
G1 X138.96 Y112.126 E34.84626
G1 X139.055 Y113.313 E34.89378
G1 X139.055 Y119.987 E35.16016
G1 X139.007 Y120.669 E35.18745
G1 X138.726 Y121.839 E35.23547
G1 X138.487 Y122.543 E35.26514
G1 X138.107 Y123.398 E35.30249
G1 X137.738 Y124.058 E35.33267
G1 X137.162 Y124.893 E35.37315
G1 X136.242 Y125.863 E35.42651
G0 F1285.7 X135.92 Y125.505
