(Exported by FreeCAD)
(Post Processor: script_module)
(Output Time:2024-11-27 17:41:13.635614)
(Begin preamble)
G17 G90
G21
(Begin operation: Fixture)
(Path: Fixture)
G54
(Finish operation: Fixture)
(Begin operation: 30 Surface Q007)
(Path: 30 Surface Q007)
(30 Surface Q007)
(Begin toolchange)
( M6 T2 )
M3 S24000
(Finish operation: 30 Surface Q007)
(Begin operation: MillFace)
(Path: MillFace)
(MillFace)
G0 Z6.000
G0 X235.000 Y235.000
G0 Z3.000
G1 X235.000 Y235.000 Z-3.000 F1000.000
G1 X20.000 Y235.000 Z-3.000 F2000.000
G1 X20.000 Y20.000 Z-3.000 F2000.000
G1 X235.000 Y20.000 Z-3.000 F2000.000
G1 X235.000 Y235.000 Z-3.000 F2000.000
G0 Z6.000
G0 X214.000 Y214.000 Z6.000
G0 X214.000 Y214.000 Z3.000
G1 X214.000 Y214.000 Z-3.000 F1000.000
G1 X41.000 Y214.000 Z-3.000 F2000.000
G1 X41.000 Y41.000 Z-3.000 F2000.000
G1 X214.000 Y41.000 Z-3.000 F2000.000
G1 X214.000 Y214.000 Z-3.000 F2000.000
G0 Z6.000
G0 X193.000 Y193.000 Z6.000
G0 X193.000 Y193.000 Z3.000
G1 X193.000 Y193.000 Z-3.000 F1000.000
G1 X62.000 Y193.000 Z-3.000 F2000.000
G1 X62.000 Y62.000 Z-3.000 F2000.000
G1 X193.000 Y62.000 Z-3.000 F2000.000
G1 X193.000 Y193.000 Z-3.000 F2000.000
G0 Z6.000
G0 X172.000 Y172.000 Z6.000
G0 X172.000 Y172.000 Z3.000
G1 X172.000 Y172.000 Z-3.000 F1000.000
G1 X83.000 Y172.000 Z-3.000 F2000.000
G1 X83.000 Y83.000 Z-3.000 F2000.000
G1 X172.000 Y83.000 Z-3.000 F2000.000
G1 X172.000 Y172.000 Z-3.000 F2000.000
G0 Z6.000
G0 X151.000 Y151.000 Z6.000
G0 X151.000 Y151.000 Z3.000
G1 X151.000 Y151.000 Z-3.000 F1000.000
G1 X104.000 Y151.000 Z-3.000 F2000.000
G1 X104.000 Y104.000 Z-3.000 F2000.000
G1 X151.000 Y104.000 Z-3.000 F2000.000
G1 X151.000 Y151.000 Z-3.000 F2000.000
G0 Z6.000
G0 X130.000 Y130.000 Z6.000
G0 X130.000 Y130.000 Z3.000
G1 X130.000 Y130.000 Z-3.000 F1000.000
G1 X125.000 Y130.000 Z-3.000 F2000.000
G1 X125.000 Y125.000 Z-3.000 F2000.000
G1 X130.000 Y125.000 Z-3.000 F2000.000
G1 X130.000 Y130.000 Z-3.000 F2000.000
G1 X130.000 Y130.000 Z-6.000 F1000.000
G1 X125.000 Y130.000 Z-6.000 F2000.000
G1 X125.000 Y125.000 Z-6.000 F2000.000
G1 X130.000 Y125.000 Z-6.000 F2000.000
G1 X130.000 Y130.000 Z-6.000 F2000.000
G0 Z6.000
G0 X151.000 Z6.000
G0 X151.000 Z3.000
G1 X151.000 Y130.000 Z-6.000 F1000.000
G1 X151.000 Y151.000 Z-6.000 F2000.000
G1 X104.000 Y151.000 Z-6.000 F2000.000
G1 X104.000 Y104.000 Z-6.000 F2000.000
G1 X151.000 Y104.000 Z-6.000 F2000.000
G1 X151.000 Y130.000 Z-6.000 F2000.000
G0 Z6.000
G0 X172.000 Z6.000
G0 X172.000 Z3.000
G1 X172.000 Y130.000 Z-6.000 F1000.000
G1 X172.000 Y172.000 Z-6.000 F2000.000
G1 X83.000 Y172.000 Z-6.000 F2000.000
G1 X83.000 Y83.000 Z-6.000 F2000.000
G1 X172.000 Y83.000 Z-6.000 F2000.000
G1 X172.000 Y130.000 Z-6.000 F2000.000
G0 Z6.000
G0 X193.000 Z6.000
G0 X193.000 Z3.000
G1 X193.000 Y130.000 Z-6.000 F1000.000
G1 X193.000 Y193.000 Z-6.000 F2000.000
G1 X62.000 Y193.000 Z-6.000 F2000.000
G1 X62.000 Y62.000 Z-6.000 F2000.000
G1 X193.000 Y62.000 Z-6.000 F2000.000
G1 X193.000 Y130.000 Z-6.000 F2000.000
G0 Z6.000
G0 X214.000 Z6.000
G0 X214.000 Z3.000
G1 X214.000 Y130.000 Z-6.000 F1000.000
G1 X214.000 Y214.000 Z-6.000 F2000.000
G1 X41.000 Y214.000 Z-6.000 F2000.000
G1 X41.000 Y41.000 Z-6.000 F2000.000
G1 X214.000 Y41.000 Z-6.000 F2000.000
G1 X214.000 Y130.000 Z-6.000 F2000.000
G0 Z6.000
G0 X235.000 Z6.000
G0 X235.000 Z3.000
G1 X235.000 Y130.000 Z-6.000 F1000.000
G1 X235.000 Y235.000 Z-6.000 F2000.000
G1 X20.000 Y235.000 Z-6.000 F2000.000
G1 X20.000 Y20.000 Z-6.000 F2000.000
G1 X235.000 Y20.000 Z-6.000 F2000.000
G1 X235.000 Y130.000 Z-6.000 F2000.000
G1 X235.000 Y130.000 Z-9.000 F1000.000
G1 X235.000 Y235.000 Z-9.000 F2000.000
G1 X20.000 Y235.000 Z-9.000 F2000.000
G1 X20.000 Y20.000 Z-9.000 F2000.000
G1 X235.000 Y20.000 Z-9.000 F2000.000
G1 X235.000 Y130.000 Z-9.000 F2000.000
G0 Z6.000
G0 X214.000 Z6.000
G0 X214.000 Z3.000
G1 X214.000 Y130.000 Z-9.000 F1000.000
G1 X214.000 Y214.000 Z-9.000 F2000.000
G1 X41.000 Y214.000 Z-9.000 F2000.000
G1 X41.000 Y41.000 Z-9.000 F2000.000
G1 X214.000 Y41.000 Z-9.000 F2000.000
G1 X214.000 Y130.000 Z-9.000 F2000.000
G0 Z6.000
G0 X193.000 Z6.000
G0 X193.000 Z3.000
G1 X193.000 Y130.000 Z-9.000 F1000.000
G1 X193.000 Y193.000 Z-9.000 F2000.000
G1 X62.000 Y193.000 Z-9.000 F2000.000
G1 X62.000 Y62.000 Z-9.000 F2000.000
G1 X193.000 Y62.000 Z-9.000 F2000.000
G1 X193.000 Y130.000 Z-9.000 F2000.000
G0 Z6.000
G0 X172.000 Z6.000
G0 X172.000 Z3.000
G1 X172.000 Y130.000 Z-9.000 F1000.000
G1 X172.000 Y172.000 Z-9.000 F2000.000
G1 X83.000 Y172.000 Z-9.000 F2000.000
G1 X83.000 Y83.000 Z-9.000 F2000.000
G1 X172.000 Y83.000 Z-9.000 F2000.000
G1 X172.000 Y130.000 Z-9.000 F2000.000
G0 Z6.000
G0 X151.000 Z6.000
G0 X151.000 Z3.000
G1 X151.000 Y130.000 Z-9.000 F1000.000
G1 X151.000 Y151.000 Z-9.000 F2000.000
G1 X104.000 Y151.000 Z-9.000 F2000.000
G1 X104.000 Y104.000 Z-9.000 F2000.000
G1 X151.000 Y104.000 Z-9.000 F2000.000
G1 X151.000 Y130.000 Z-9.000 F2000.000
G0 Z6.000
G0 X130.000 Z6.000
G0 X130.000 Z3.000
G1 X130.000 Y130.000 Z-9.000 F1000.000
G1 X125.000 Y130.000 Z-9.000 F2000.000
G1 X125.000 Y125.000 Z-9.000 F2000.000
G1 X130.000 Y125.000 Z-9.000 F2000.000
G1 X130.000 Y130.000 Z-9.000 F2000.000
G1 X130.000 Y130.000 Z-12.000 F1000.000
G1 X125.000 Y130.000 Z-12.000 F2000.000
G1 X125.000 Y125.000 Z-12.000 F2000.000
G1 X130.000 Y125.000 Z-12.000 F2000.000
G1 X130.000 Y130.000 Z-12.000 F2000.000
G0 Z6.000
G0 X151.000 Z6.000
G0 X151.000 Z3.000
G1 X151.000 Y130.000 Z-12.000 F1000.000
G1 X151.000 Y151.000 Z-12.000 F2000.000
G1 X104.000 Y151.000 Z-12.000 F2000.000
G1 X104.000 Y104.000 Z-12.000 F2000.000
G1 X151.000 Y104.000 Z-12.000 F2000.000
G1 X151.000 Y130.000 Z-12.000 F2000.000
G0 Z6.000
G0 X172.000 Z6.000
G0 X172.000 Z3.000
G1 X172.000 Y130.000 Z-12.000 F1000.000
G1 X172.000 Y172.000 Z-12.000 F2000.000
G1 X83.000 Y172.000 Z-12.000 F2000.000
G1 X83.000 Y83.000 Z-12.000 F2000.000
G1 X172.000 Y83.000 Z-12.000 F2000.000
G1 X172.000 Y130.000 Z-12.000 F2000.000
G0 Z6.000
G0 X193.000 Z6.000
G0 X193.000 Z3.000
G1 X193.000 Y130.000 Z-12.000 F1000.000
G1 X193.000 Y193.000 Z-12.000 F2000.000
G1 X62.000 Y193.000 Z-12.000 F2000.000
G1 X62.000 Y62.000 Z-12.000 F2000.000
G1 X193.000 Y62.000 Z-12.000 F2000.000
G1 X193.000 Y130.000 Z-12.000 F2000.000
G0 Z6.000
G0 X214.000 Z6.000
G0 X214.000 Z3.000
G1 X214.000 Y130.000 Z-12.000 F1000.000
G1 X214.000 Y214.000 Z-12.000 F2000.000
G1 X41.000 Y214.000 Z-12.000 F2000.000
G1 X41.000 Y41.000 Z-12.000 F2000.000
G1 X214.000 Y41.000 Z-12.000 F2000.000
G1 X214.000 Y130.000 Z-12.000 F2000.000
G0 Z6.000
G0 X235.000 Z6.000
G0 X235.000 Z3.000
G1 X235.000 Y130.000 Z-12.000 F1000.000
G1 X235.000 Y235.000 Z-12.000 F2000.000
G1 X20.000 Y235.000 Z-12.000 F2000.000
G1 X20.000 Y20.000 Z-12.000 F2000.000
G1 X235.000 Y20.000 Z-12.000 F2000.000
G1 X235.000 Y130.000 Z-12.000 F2000.000
G1 X235.000 Y130.000 Z-14.800 F1000.000
G1 X235.000 Y235.000 Z-14.800 F2000.000
G1 X20.000 Y235.000 Z-14.800 F2000.000
G1 X20.000 Y20.000 Z-14.800 F2000.000
G1 X235.000 Y20.000 Z-14.800 F2000.000
G1 X235.000 Y130.000 Z-14.800 F2000.000
G0 Z6.000
G0 X214.000 Z6.000
G0 X214.000 Z3.000
G1 X214.000 Y130.000 Z-14.800 F1000.000
G1 X214.000 Y214.000 Z-14.800 F2000.000
G1 X41.000 Y214.000 Z-14.800 F2000.000
G1 X41.000 Y41.000 Z-14.800 F2000.000
G1 X214.000 Y41.000 Z-14.800 F2000.000
G1 X214.000 Y130.000 Z-14.800 F2000.000
G0 Z6.000
G0 X193.000 Z6.000
G0 X193.000 Z3.000
G1 X193.000 Y130.000 Z-14.800 F1000.000
G1 X193.000 Y193.000 Z-14.800 F2000.000
G1 X62.000 Y193.000 Z-14.800 F2000.000
G1 X62.000 Y62.000 Z-14.800 F2000.000
G1 X193.000 Y62.000 Z-14.800 F2000.000
G1 X193.000 Y130.000 Z-14.800 F2000.000
G0 Z6.000
G0 X172.000 Z6.000
G0 X172.000 Z3.000
G1 X172.000 Y130.000 Z-14.800 F1000.000
G1 X172.000 Y172.000 Z-14.800 F2000.000
G1 X83.000 Y172.000 Z-14.800 F2000.000
G1 X83.000 Y83.000 Z-14.800 F2000.000
G1 X172.000 Y83.000 Z-14.800 F2000.000
G1 X172.000 Y130.000 Z-14.800 F2000.000
G0 Z6.000
G0 X151.000 Z6.000
G0 X151.000 Z3.000
G1 X151.000 Y130.000 Z-14.800 F1000.000
G1 X151.000 Y151.000 Z-14.800 F2000.000
G1 X104.000 Y151.000 Z-14.800 F2000.000
G1 X104.000 Y104.000 Z-14.800 F2000.000
G1 X151.000 Y104.000 Z-14.800 F2000.000
G1 X151.000 Y130.000 Z-14.800 F2000.000
G0 Z6.000
G0 X130.000 Z6.000
G0 X130.000 Z3.000
G1 X130.000 Y130.000 Z-14.800 F1000.000
G1 X125.000 Y130.000 Z-14.800 F2000.000
G1 X125.000 Y125.000 Z-14.800 F2000.000
G1 X130.000 Y125.000 Z-14.800 F2000.000
G1 X130.000 Y130.000 Z-14.800 F2000.000
G0 Z6.000
G0 Z6.000
(Finish operation: MillFace)
(Begin postamble)
M5
G17 G90
M2
