(Exported by FreeCAD)
(Post Processor: grbl_post)
(Output Time:2022-11-06 18:44:14.841742)
(Begin preamble)
G17 G90
G21
(Begin operation: Fixture)
(Path: Fixture)
G54
(Finish operation: Fixture)
(Begin operation: 30 Surface Q007)
(Path: 30 Surface Q007)
(30 Surface Q007)
(Begin toolchange)
( M6 T2.0 )
M3 S12000.0
(Finish operation: 30 Surface Q007)
(Begin operation: MillFace)
(Path: MillFace)
(MillFace)
G0 Z5.000
G0 X230.000 Y230.000
G0 Z3.000
G1 X230.000 Y230.000 Z-2.000 F1000.000
G1 X230.000 Y15.000 Z-2.000 F2000.000
G1 X15.000 Y15.000 Z-2.000 F2000.000
G1 X15.000 Y230.000 Z-2.000 F2000.000
G1 X230.000 Y230.000 Z-2.000 F2000.000
G0 Z5.000
G0 Y15.000 Z5.000
G0 Y15.000 Z3.000
G1 X230.000 Y15.000 Z-2.000 F1000.000
G1 X230.000 Y36.213 Z-2.000 F2000.000
G1 X208.787 Y15.000 Z-2.000 F2000.000
G1 X187.574 Y15.000 Z-2.000 F2000.000
G1 X230.000 Y57.426 Z-2.000 F2000.000
G1 X230.000 Y78.640 Z-2.000 F2000.000
G1 X166.360 Y15.000 Z-2.000 F2000.000
G1 X145.147 Y15.000 Z-2.000 F2000.000
G1 X230.000 Y99.853 Z-2.000 F2000.000
G1 X230.000 Y121.066 Z-2.000 F2000.000
G1 X123.934 Y15.000 Z-2.000 F2000.000
G1 X102.721 Y15.000 Z-2.000 F2000.000
G1 X230.000 Y142.279 Z-2.000 F2000.000
G1 X230.000 Y163.492 Z-2.000 F2000.000
G1 X81.508 Y15.000 Z-2.000 F2000.000
G1 X60.294 Y15.000 Z-2.000 F2000.000
G1 X230.000 Y184.706 Z-2.000 F2000.000
G1 X230.000 Y205.919 Z-2.000 F2000.000
G1 X39.081 Y15.000 Z-2.000 F2000.000
G1 X17.868 Y15.000 Z-2.000 F2000.000
G1 X230.000 Y227.132 Z-2.000 F2000.000
G1 X230.000 Y230.000 Z-2.000 F2000.000
G1 X211.655 Y230.000 Z-2.000 F2000.000
G1 X15.000 Y33.345 Z-2.000 F2000.000
G1 X15.000 Y54.558 Z-2.000 F2000.000
G1 X190.442 Y230.000 Z-2.000 F2000.000
G1 X169.228 Y230.000 Z-2.000 F2000.000
G1 X15.000 Y75.772 Z-2.000 F2000.000
G1 X15.000 Y96.985 Z-2.000 F2000.000
G1 X148.015 Y230.000 Z-2.000 F2000.000
G1 X126.802 Y230.000 Z-2.000 F2000.000
G1 X15.000 Y118.198 Z-2.000 F2000.000
G1 X15.000 Y139.411 Z-2.000 F2000.000
G1 X105.589 Y230.000 Z-2.000 F2000.000
G1 X84.376 Y230.000 Z-2.000 F2000.000
G1 X15.000 Y160.624 Z-2.000 F2000.000
G1 X15.000 Y181.838 Z-2.000 F2000.000
G1 X63.162 Y230.000 Z-2.000 F2000.000
G1 X41.949 Y230.000 Z-2.000 F2000.000
G1 X15.000 Y203.051 Z-2.000 F2000.000
G1 X15.000 Y224.264 Z-2.000 F2000.000
G1 X15.000 Y230.000 Z-2.000 F2000.000
G1 X20.736 Y230.000 Z-2.000 F2000.000
G1 X15.000 Y224.264 Z-2.000 F2000.000
G1 X15.000 Y224.264 Z-4.000 F1000.000
G1 X20.736 Y230.000 Z-4.000 F2000.000
G1 X15.000 Y230.000 Z-4.000 F2000.000
G1 X15.000 Y224.264 Z-4.000 F2000.000
G1 X15.000 Y203.051 Z-4.000 F2000.000
G1 X41.949 Y230.000 Z-4.000 F2000.000
G1 X63.162 Y230.000 Z-4.000 F2000.000
G1 X15.000 Y181.838 Z-4.000 F2000.000
G1 X15.000 Y160.624 Z-4.000 F2000.000
G1 X84.376 Y230.000 Z-4.000 F2000.000
G1 X105.589 Y230.000 Z-4.000 F2000.000
G1 X15.000 Y139.411 Z-4.000 F2000.000
G1 X15.000 Y118.198 Z-4.000 F2000.000
G1 X126.802 Y230.000 Z-4.000 F2000.000
G1 X148.015 Y230.000 Z-4.000 F2000.000
G1 X15.000 Y96.985 Z-4.000 F2000.000
G1 X15.000 Y75.772 Z-4.000 F2000.000
G1 X169.228 Y230.000 Z-4.000 F2000.000
G1 X190.442 Y230.000 Z-4.000 F2000.000
G1 X15.000 Y54.558 Z-4.000 F2000.000
G1 X15.000 Y33.345 Z-4.000 F2000.000
G1 X211.655 Y230.000 Z-4.000 F2000.000
G1 X230.000 Y230.000 Z-4.000 F2000.000
G1 X230.000 Y227.132 Z-4.000 F2000.000
G1 X17.868 Y15.000 Z-4.000 F2000.000
G1 X39.081 Y15.000 Z-4.000 F2000.000
G1 X230.000 Y205.919 Z-4.000 F2000.000
G1 X230.000 Y184.706 Z-4.000 F2000.000
G1 X60.294 Y15.000 Z-4.000 F2000.000
G1 X81.508 Y15.000 Z-4.000 F2000.000
G1 X230.000 Y163.492 Z-4.000 F2000.000
G1 X230.000 Y142.279 Z-4.000 F2000.000
G1 X102.721 Y15.000 Z-4.000 F2000.000
G1 X123.934 Y15.000 Z-4.000 F2000.000
G1 X230.000 Y121.066 Z-4.000 F2000.000
G1 X230.000 Y99.853 Z-4.000 F2000.000
G1 X145.147 Y15.000 Z-4.000 F2000.000
G1 X166.360 Y15.000 Z-4.000 F2000.000
G1 X230.000 Y78.640 Z-4.000 F2000.000
G1 X230.000 Y57.426 Z-4.000 F2000.000
G1 X187.574 Y15.000 Z-4.000 F2000.000
G1 X208.787 Y15.000 Z-4.000 F2000.000
G1 X230.000 Y36.213 Z-4.000 F2000.000
G1 X230.000 Y15.000 Z-4.000 F2000.000
G1 X230.000 Y15.000 Z-4.000 F1000.000
G1 X15.000 Y15.000 Z-4.000 F2000.000
G1 X15.000 Y230.000 Z-4.000 F2000.000
G1 X230.000 Y230.000 Z-4.000 F2000.000
G1 X230.000 Y15.000 Z-4.000 F2000.000
G1 X230.000 Y15.000 Z-6.000 F1000.000
G1 X15.000 Y15.000 Z-6.000 F2000.000
G1 X15.000 Y230.000 Z-6.000 F2000.000
G1 X230.000 Y230.000 Z-6.000 F2000.000
G1 X230.000 Y15.000 Z-6.000 F2000.000
G1 X230.000 Y15.000 Z-6.000 F1000.000
G1 X230.000 Y36.213 Z-6.000 F2000.000
G1 X208.787 Y15.000 Z-6.000 F2000.000
G1 X187.574 Y15.000 Z-6.000 F2000.000
G1 X230.000 Y57.426 Z-6.000 F2000.000
G1 X230.000 Y78.640 Z-6.000 F2000.000
G1 X166.360 Y15.000 Z-6.000 F2000.000
G1 X145.147 Y15.000 Z-6.000 F2000.000
G1 X230.000 Y99.853 Z-6.000 F2000.000
G1 X230.000 Y121.066 Z-6.000 F2000.000
G1 X123.934 Y15.000 Z-6.000 F2000.000
G1 X102.721 Y15.000 Z-6.000 F2000.000
G1 X230.000 Y142.279 Z-6.000 F2000.000
G1 X230.000 Y163.492 Z-6.000 F2000.000
G1 X81.508 Y15.000 Z-6.000 F2000.000
G1 X60.294 Y15.000 Z-6.000 F2000.000
G1 X230.000 Y184.706 Z-6.000 F2000.000
G1 X230.000 Y205.919 Z-6.000 F2000.000
G1 X39.081 Y15.000 Z-6.000 F2000.000
G1 X17.868 Y15.000 Z-6.000 F2000.000
G1 X230.000 Y227.132 Z-6.000 F2000.000
G1 X230.000 Y230.000 Z-6.000 F2000.000
G1 X211.655 Y230.000 Z-6.000 F2000.000
G1 X15.000 Y33.345 Z-6.000 F2000.000
G1 X15.000 Y54.558 Z-6.000 F2000.000
G1 X190.442 Y230.000 Z-6.000 F2000.000
G1 X169.228 Y230.000 Z-6.000 F2000.000
G1 X15.000 Y75.772 Z-6.000 F2000.000
G1 X15.000 Y96.985 Z-6.000 F2000.000
G1 X148.015 Y230.000 Z-6.000 F2000.000
G1 X126.802 Y230.000 Z-6.000 F2000.000
G1 X15.000 Y118.198 Z-6.000 F2000.000
G1 X15.000 Y139.411 Z-6.000 F2000.000
G1 X105.589 Y230.000 Z-6.000 F2000.000
G1 X84.376 Y230.000 Z-6.000 F2000.000
G1 X15.000 Y160.624 Z-6.000 F2000.000
G1 X15.000 Y181.838 Z-6.000 F2000.000
G1 X63.162 Y230.000 Z-6.000 F2000.000
G1 X41.949 Y230.000 Z-6.000 F2000.000
G1 X15.000 Y203.051 Z-6.000 F2000.000
G1 X15.000 Y224.264 Z-6.000 F2000.000
G1 X15.000 Y230.000 Z-6.000 F2000.000
G1 X20.736 Y230.000 Z-6.000 F2000.000
G1 X15.000 Y224.264 Z-6.000 F2000.000
G1 X15.000 Y224.264 Z-8.000 F1000.000
G1 X20.736 Y230.000 Z-8.000 F2000.000
G1 X15.000 Y230.000 Z-8.000 F2000.000
G1 X15.000 Y224.264 Z-8.000 F2000.000
G1 X15.000 Y203.051 Z-8.000 F2000.000
G1 X41.949 Y230.000 Z-8.000 F2000.000
G1 X63.162 Y230.000 Z-8.000 F2000.000
G1 X15.000 Y181.838 Z-8.000 F2000.000
G1 X15.000 Y160.624 Z-8.000 F2000.000
G1 X84.376 Y230.000 Z-8.000 F2000.000
G1 X105.589 Y230.000 Z-8.000 F2000.000
G1 X15.000 Y139.411 Z-8.000 F2000.000
G1 X15.000 Y118.198 Z-8.000 F2000.000
G1 X126.802 Y230.000 Z-8.000 F2000.000
G1 X148.015 Y230.000 Z-8.000 F2000.000
G1 X15.000 Y96.985 Z-8.000 F2000.000
G1 X15.000 Y75.772 Z-8.000 F2000.000
G1 X169.228 Y230.000 Z-8.000 F2000.000
G1 X190.442 Y230.000 Z-8.000 F2000.000
G1 X15.000 Y54.558 Z-8.000 F2000.000
G1 X15.000 Y33.345 Z-8.000 F2000.000
G1 X211.655 Y230.000 Z-8.000 F2000.000
G1 X230.000 Y230.000 Z-8.000 F2000.000
G1 X230.000 Y227.132 Z-8.000 F2000.000
G1 X17.868 Y15.000 Z-8.000 F2000.000
G1 X39.081 Y15.000 Z-8.000 F2000.000
G1 X230.000 Y205.919 Z-8.000 F2000.000
G1 X230.000 Y184.706 Z-8.000 F2000.000
G1 X60.294 Y15.000 Z-8.000 F2000.000
G1 X81.508 Y15.000 Z-8.000 F2000.000
G1 X230.000 Y163.492 Z-8.000 F2000.000
G1 X230.000 Y142.279 Z-8.000 F2000.000
G1 X102.721 Y15.000 Z-8.000 F2000.000
G1 X123.934 Y15.000 Z-8.000 F2000.000
G1 X230.000 Y121.066 Z-8.000 F2000.000
G1 X230.000 Y99.853 Z-8.000 F2000.000
G1 X145.147 Y15.000 Z-8.000 F2000.000
G1 X166.360 Y15.000 Z-8.000 F2000.000
G1 X230.000 Y78.640 Z-8.000 F2000.000
G1 X230.000 Y57.426 Z-8.000 F2000.000
G1 X187.574 Y15.000 Z-8.000 F2000.000
G1 X208.787 Y15.000 Z-8.000 F2000.000
G1 X230.000 Y36.213 Z-8.000 F2000.000
G1 X230.000 Y15.000 Z-8.000 F2000.000
G1 X230.000 Y15.000 Z-8.000 F1000.000
G1 X15.000 Y15.000 Z-8.000 F2000.000
G1 X15.000 Y230.000 Z-8.000 F2000.000
G1 X230.000 Y230.000 Z-8.000 F2000.000
G1 X230.000 Y15.000 Z-8.000 F2000.000
G1 X230.000 Y15.000 Z-10.000 F1000.000
G1 X230.000 Y36.213 Z-10.000 F2000.000
G1 X208.787 Y15.000 Z-10.000 F2000.000
G1 X187.574 Y15.000 Z-10.000 F2000.000
G1 X230.000 Y57.426 Z-10.000 F2000.000
G1 X230.000 Y78.640 Z-10.000 F2000.000
G1 X166.360 Y15.000 Z-10.000 F2000.000
G1 X145.147 Y15.000 Z-10.000 F2000.000
G1 X230.000 Y99.853 Z-10.000 F2000.000
G1 X230.000 Y121.066 Z-10.000 F2000.000
G1 X123.934 Y15.000 Z-10.000 F2000.000
G1 X102.721 Y15.000 Z-10.000 F2000.000
G1 X230.000 Y142.279 Z-10.000 F2000.000
G1 X230.000 Y163.492 Z-10.000 F2000.000
G1 X81.508 Y15.000 Z-10.000 F2000.000
G1 X60.294 Y15.000 Z-10.000 F2000.000
G1 X230.000 Y184.706 Z-10.000 F2000.000
G1 X230.000 Y205.919 Z-10.000 F2000.000
G1 X39.081 Y15.000 Z-10.000 F2000.000
G1 X17.868 Y15.000 Z-10.000 F2000.000
G1 X230.000 Y227.132 Z-10.000 F2000.000
G1 X230.000 Y230.000 Z-10.000 F2000.000
G1 X211.655 Y230.000 Z-10.000 F2000.000
G1 X15.000 Y33.345 Z-10.000 F2000.000
G1 X15.000 Y54.558 Z-10.000 F2000.000
G1 X190.442 Y230.000 Z-10.000 F2000.000
G1 X169.228 Y230.000 Z-10.000 F2000.000
G1 X15.000 Y75.772 Z-10.000 F2000.000
G1 X15.000 Y96.985 Z-10.000 F2000.000
G1 X148.015 Y230.000 Z-10.000 F2000.000
G1 X126.802 Y230.000 Z-10.000 F2000.000
G1 X15.000 Y118.198 Z-10.000 F2000.000
G1 X15.000 Y139.411 Z-10.000 F2000.000
G1 X105.589 Y230.000 Z-10.000 F2000.000
G1 X84.376 Y230.000 Z-10.000 F2000.000
G1 X15.000 Y160.624 Z-10.000 F2000.000
G1 X15.000 Y181.838 Z-10.000 F2000.000
G1 X63.162 Y230.000 Z-10.000 F2000.000
G1 X41.949 Y230.000 Z-10.000 F2000.000
G1 X15.000 Y203.051 Z-10.000 F2000.000
G1 X15.000 Y224.264 Z-10.000 F2000.000
G1 X15.000 Y230.000 Z-10.000 F2000.000
G1 X20.736 Y230.000 Z-10.000 F2000.000
G1 X15.000 Y224.264 Z-10.000 F2000.000
G1 X15.000 Y224.264 Z-10.000 F1000.000
G1 X15.000 Y230.000 Z-10.000 F2000.000
G1 X230.000 Y230.000 Z-10.000 F2000.000
G1 X230.000 Y15.000 Z-10.000 F2000.000
G1 X15.000 Y15.000 Z-10.000 F2000.000
G1 X15.000 Y224.264 Z-10.000 F2000.000
G1 X15.000 Y224.264 Z-12.000 F1000.000
G1 X15.000 Y230.000 Z-12.000 F2000.000
G1 X230.000 Y230.000 Z-12.000 F2000.000
G1 X230.000 Y15.000 Z-12.000 F2000.000
G1 X15.000 Y15.000 Z-12.000 F2000.000
G1 X15.000 Y224.264 Z-12.000 F2000.000
G1 X15.000 Y224.264 Z-12.000 F1000.000
G1 X20.736 Y230.000 Z-12.000 F2000.000
G1 X15.000 Y230.000 Z-12.000 F2000.000
G1 X15.000 Y224.264 Z-12.000 F2000.000
G1 X15.000 Y203.051 Z-12.000 F2000.000
G1 X41.949 Y230.000 Z-12.000 F2000.000
G1 X63.162 Y230.000 Z-12.000 F2000.000
G1 X15.000 Y181.838 Z-12.000 F2000.000
G1 X15.000 Y160.624 Z-12.000 F2000.000
G1 X84.376 Y230.000 Z-12.000 F2000.000
G1 X105.589 Y230.000 Z-12.000 F2000.000
G1 X15.000 Y139.411 Z-12.000 F2000.000
G1 X15.000 Y118.198 Z-12.000 F2000.000
G1 X126.802 Y230.000 Z-12.000 F2000.000
G1 X148.015 Y230.000 Z-12.000 F2000.000
G1 X15.000 Y96.985 Z-12.000 F2000.000
G1 X15.000 Y75.772 Z-12.000 F2000.000
G1 X169.228 Y230.000 Z-12.000 F2000.000
G1 X190.442 Y230.000 Z-12.000 F2000.000
G1 X15.000 Y54.558 Z-12.000 F2000.000
G1 X15.000 Y33.345 Z-12.000 F2000.000
G1 X211.655 Y230.000 Z-12.000 F2000.000
G1 X230.000 Y230.000 Z-12.000 F2000.000
G1 X230.000 Y227.132 Z-12.000 F2000.000
G1 X17.868 Y15.000 Z-12.000 F2000.000
G1 X39.081 Y15.000 Z-12.000 F2000.000
G1 X230.000 Y205.919 Z-12.000 F2000.000
G1 X230.000 Y184.706 Z-12.000 F2000.000
G1 X60.294 Y15.000 Z-12.000 F2000.000
G1 X81.508 Y15.000 Z-12.000 F2000.000
G1 X230.000 Y163.492 Z-12.000 F2000.000
G1 X230.000 Y142.279 Z-12.000 F2000.000
G1 X102.721 Y15.000 Z-12.000 F2000.000
G1 X123.934 Y15.000 Z-12.000 F2000.000
G1 X230.000 Y121.066 Z-12.000 F2000.000
G1 X230.000 Y99.853 Z-12.000 F2000.000
G1 X145.147 Y15.000 Z-12.000 F2000.000
G1 X166.360 Y15.000 Z-12.000 F2000.000
G1 X230.000 Y78.640 Z-12.000 F2000.000
G1 X230.000 Y57.426 Z-12.000 F2000.000
G1 X187.574 Y15.000 Z-12.000 F2000.000
G1 X208.787 Y15.000 Z-12.000 F2000.000
G1 X230.000 Y36.213 Z-12.000 F2000.000
G1 X230.000 Y15.000 Z-12.000 F2000.000
G1 X230.000 Y15.000 Z-14.000 F1000.000
G1 X15.000 Y15.000 Z-14.000 F2000.000
G1 X15.000 Y230.000 Z-14.000 F2000.000
G1 X230.000 Y230.000 Z-14.000 F2000.000
G1 X230.000 Y15.000 Z-14.000 F2000.000
G1 X230.000 Y15.000 Z-14.000 F1000.000
G1 X230.000 Y36.213 Z-14.000 F2000.000
G1 X208.787 Y15.000 Z-14.000 F2000.000
G1 X187.574 Y15.000 Z-14.000 F2000.000
G1 X230.000 Y57.426 Z-14.000 F2000.000
G1 X230.000 Y78.640 Z-14.000 F2000.000
G1 X166.360 Y15.000 Z-14.000 F2000.000
G1 X145.147 Y15.000 Z-14.000 F2000.000
G1 X230.000 Y99.853 Z-14.000 F2000.000
G1 X230.000 Y121.066 Z-14.000 F2000.000
G1 X123.934 Y15.000 Z-14.000 F2000.000
G1 X102.721 Y15.000 Z-14.000 F2000.000
G1 X230.000 Y142.279 Z-14.000 F2000.000
G1 X230.000 Y163.492 Z-14.000 F2000.000
G1 X81.508 Y15.000 Z-14.000 F2000.000
G1 X60.294 Y15.000 Z-14.000 F2000.000
G1 X230.000 Y184.706 Z-14.000 F2000.000
G1 X230.000 Y205.919 Z-14.000 F2000.000
G1 X39.081 Y15.000 Z-14.000 F2000.000
G1 X17.868 Y15.000 Z-14.000 F2000.000
G1 X230.000 Y227.132 Z-14.000 F2000.000
G1 X230.000 Y230.000 Z-14.000 F2000.000
G1 X211.655 Y230.000 Z-14.000 F2000.000
G1 X15.000 Y33.345 Z-14.000 F2000.000
G1 X15.000 Y54.558 Z-14.000 F2000.000
G1 X190.442 Y230.000 Z-14.000 F2000.000
G1 X169.228 Y230.000 Z-14.000 F2000.000
G1 X15.000 Y75.772 Z-14.000 F2000.000
G1 X15.000 Y96.985 Z-14.000 F2000.000
G1 X148.015 Y230.000 Z-14.000 F2000.000
G1 X126.802 Y230.000 Z-14.000 F2000.000
G1 X15.000 Y118.198 Z-14.000 F2000.000
G1 X15.000 Y139.411 Z-14.000 F2000.000
G1 X105.589 Y230.000 Z-14.000 F2000.000
G1 X84.376 Y230.000 Z-14.000 F2000.000
G1 X15.000 Y160.624 Z-14.000 F2000.000
G1 X15.000 Y181.838 Z-14.000 F2000.000
G1 X63.162 Y230.000 Z-14.000 F2000.000
G1 X41.949 Y230.000 Z-14.000 F2000.000
G1 X15.000 Y203.051 Z-14.000 F2000.000
G1 X15.000 Y224.264 Z-14.000 F2000.000
G1 X15.000 Y230.000 Z-14.000 F2000.000
G1 X20.736 Y230.000 Z-14.000 F2000.000
G1 X15.000 Y224.264 Z-14.000 F2000.000
G1 X15.000 Y224.264 Z-14.800 F1000.000
G1 X20.736 Y230.000 Z-14.800 F2000.000
G1 X15.000 Y230.000 Z-14.800 F2000.000
G1 X15.000 Y224.264 Z-14.800 F2000.000
G1 X15.000 Y203.051 Z-14.800 F2000.000
G1 X41.949 Y230.000 Z-14.800 F2000.000
G1 X63.162 Y230.000 Z-14.800 F2000.000
G1 X15.000 Y181.838 Z-14.800 F2000.000
G1 X15.000 Y160.624 Z-14.800 F2000.000
G1 X84.376 Y230.000 Z-14.800 F2000.000
G1 X105.589 Y230.000 Z-14.800 F2000.000
G1 X15.000 Y139.411 Z-14.800 F2000.000
G1 X15.000 Y118.198 Z-14.800 F2000.000
G1 X126.802 Y230.000 Z-14.800 F2000.000
G1 X148.015 Y230.000 Z-14.800 F2000.000
G1 X15.000 Y96.985 Z-14.800 F2000.000
G1 X15.000 Y75.772 Z-14.800 F2000.000
G1 X169.228 Y230.000 Z-14.800 F2000.000
G1 X190.442 Y230.000 Z-14.800 F2000.000
G1 X15.000 Y54.558 Z-14.800 F2000.000
G1 X15.000 Y33.345 Z-14.800 F2000.000
G1 X211.655 Y230.000 Z-14.800 F2000.000
G1 X230.000 Y230.000 Z-14.800 F2000.000
G1 X230.000 Y227.132 Z-14.800 F2000.000
G1 X17.868 Y15.000 Z-14.800 F2000.000
G1 X39.081 Y15.000 Z-14.800 F2000.000
G1 X230.000 Y205.919 Z-14.800 F2000.000
G1 X230.000 Y184.706 Z-14.800 F2000.000
G1 X60.294 Y15.000 Z-14.800 F2000.000
G1 X81.508 Y15.000 Z-14.800 F2000.000
G1 X230.000 Y163.492 Z-14.800 F2000.000
G1 X230.000 Y142.279 Z-14.800 F2000.000
G1 X102.721 Y15.000 Z-14.800 F2000.000
G1 X123.934 Y15.000 Z-14.800 F2000.000
G1 X230.000 Y121.066 Z-14.800 F2000.000
G1 X230.000 Y99.853 Z-14.800 F2000.000
G1 X145.147 Y15.000 Z-14.800 F2000.000
G1 X166.360 Y15.000 Z-14.800 F2000.000
G1 X230.000 Y78.640 Z-14.800 F2000.000
G1 X230.000 Y57.426 Z-14.800 F2000.000
G1 X187.574 Y15.000 Z-14.800 F2000.000
G1 X208.787 Y15.000 Z-14.800 F2000.000
G1 X230.000 Y36.213 Z-14.800 F2000.000
G1 X230.000 Y15.000 Z-14.800 F2000.000
G1 X230.000 Y15.000 Z-14.800 F1000.000
G1 X15.000 Y15.000 Z-14.800 F2000.000
G1 X15.000 Y230.000 Z-14.800 F2000.000
G1 X230.000 Y230.000 Z-14.800 F2000.000
G1 X230.000 Y15.000 Z-14.800 F2000.000
G1 X230.000 Y15.000 Z-15.000 F1000.000
G1 X15.000 Y15.000 Z-15.000 F2000.000
G1 X15.000 Y230.000 Z-15.000 F2000.000
G1 X230.000 Y230.000 Z-15.000 F2000.000
G1 X230.000 Y15.000 Z-15.000 F2000.000
G1 X230.000 Y15.000 Z-15.000 F1000.000
G1 X230.000 Y36.213 Z-15.000 F2000.000
G1 X208.787 Y15.000 Z-15.000 F2000.000
G1 X187.574 Y15.000 Z-15.000 F2000.000
G1 X230.000 Y57.426 Z-15.000 F2000.000
G1 X230.000 Y78.640 Z-15.000 F2000.000
G1 X166.360 Y15.000 Z-15.000 F2000.000
G1 X145.147 Y15.000 Z-15.000 F2000.000
G1 X230.000 Y99.853 Z-15.000 F2000.000
G1 X230.000 Y121.066 Z-15.000 F2000.000
G1 X123.934 Y15.000 Z-15.000 F2000.000
G1 X102.721 Y15.000 Z-15.000 F2000.000
G1 X230.000 Y142.279 Z-15.000 F2000.000
G1 X230.000 Y163.492 Z-15.000 F2000.000
G1 X81.508 Y15.000 Z-15.000 F2000.000
G1 X60.294 Y15.000 Z-15.000 F2000.000
G1 X230.000 Y184.706 Z-15.000 F2000.000
G1 X230.000 Y205.919 Z-15.000 F2000.000
G1 X39.081 Y15.000 Z-15.000 F2000.000
G1 X17.868 Y15.000 Z-15.000 F2000.000
G1 X230.000 Y227.132 Z-15.000 F2000.000
G1 X230.000 Y230.000 Z-15.000 F2000.000
G1 X211.655 Y230.000 Z-15.000 F2000.000
G1 X15.000 Y33.345 Z-15.000 F2000.000
G1 X15.000 Y54.558 Z-15.000 F2000.000
G1 X190.442 Y230.000 Z-15.000 F2000.000
G1 X169.228 Y230.000 Z-15.000 F2000.000
G1 X15.000 Y75.772 Z-15.000 F2000.000
G1 X15.000 Y96.985 Z-15.000 F2000.000
G1 X148.015 Y230.000 Z-15.000 F2000.000
G1 X126.802 Y230.000 Z-15.000 F2000.000
G1 X15.000 Y118.198 Z-15.000 F2000.000
G1 X15.000 Y139.411 Z-15.000 F2000.000
G1 X105.589 Y230.000 Z-15.000 F2000.000
G1 X84.376 Y230.000 Z-15.000 F2000.000
G1 X15.000 Y160.624 Z-15.000 F2000.000
G1 X15.000 Y181.838 Z-15.000 F2000.000
G1 X63.162 Y230.000 Z-15.000 F2000.000
G1 X41.949 Y230.000 Z-15.000 F2000.000
G1 X15.000 Y203.051 Z-15.000 F2000.000
G1 X15.000 Y224.264 Z-15.000 F2000.000
G1 X15.000 Y230.000 Z-15.000 F2000.000
G1 X20.736 Y230.000 Z-15.000 F2000.000
G1 X15.000 Y224.264 Z-15.000 F2000.000
G0 Z5.000
G0 Z5.000
(Finish operation: MillFace)
(Begin postamble)
M5
G17 G90
M2
