(Exported by FreeCAD)
(Post Processor: grbl_post)
(Output Time:2025-07-11 20:26:16.872934)
(Begin preamble)
G17 G90
G21
(Begin operation: TC: D6.0-L42 Endmill Corn Bit)
(Path: TC: D6.0-L42 Endmill Corn Bit)
(TC: D6.0-L42 Endmill Corn Bit)
(Begin toolchange)
( M6 T3 )
M3 S24000
(Finish operation: TC: D6.0-L42 Endmill Corn Bit)
(Begin operation: Fixture)
(Path: Fixture)
G54
(Finish operation: Fixture)
(Begin operation: RampEntryDressup)
(Path: RampEntryDressup)
G0 X0.000 Y0.000 Z42.000
G0 X166.977 Y537.597 Z42.000
G1 X168.080 Y535.245 Z40.500 F2500.000
G1 X169.136 Y532.871 Z39.000 F2500.000
G1 X168.080 Y535.245 Z37.500 F2500.000
G1 X166.977 Y537.597 Z36.000 F2500.000
G2 X175.500 Y514.524 Z36.000 I-117.157 J-56.392 K0.000 F2500.000
G2 X179.855 Y490.765 Z36.000 I-162.846 J-42.122 K0.000 F2500.000
G2 X181.251 Y465.549 Z36.000 I-261.453 J-27.126 K0.000 F2500.000
G2 X180.787 Y440.991 Z36.000 I-578.244 J-1.362 K0.000 F2500.000
G2 X178.922 Y406.556 Z36.000 I-1853.358 J83.137 K0.000 F2500.000
G3 X176.577 Y361.692 Z36.000 I1919.781 J-122.838 K0.000 F2500.000
G3 X175.664 Y309.030 Z36.000 I1011.850 J-43.871 K0.000 F2500.000
G3 X177.315 Y266.999 Z36.000 I617.338 J3.199 K0.000 F2500.000
G3 X180.992 Y234.210 Z36.000 I385.464 J26.628 K0.000 F2500.000
G3 X185.196 Y212.816 Z36.000 I244.295 J36.886 K0.000 F2500.000
G3 X190.284 Y195.447 Z36.000 I174.053 J41.562 K0.000 F2500.000
G3 X211.488 Y156.390 Z36.000 I131.986 J46.369 K0.000 F2500.000
G3 X230.278 Y135.929 Z36.000 I140.632 J110.288 K0.000 F2500.000
G3 X244.393 Y123.550 Z36.000 I250.985 J271.953 K0.000 F2500.000
G2 X257.486 Y112.745 Z36.000 I-1090.971 J-1335.364 K0.000 F2500.000
G2 X269.935 Y101.726 Z36.000 I-140.679 J-171.481 K0.000 F2500.000
G2 X282.285 Y88.180 Z36.000 I-84.702 J-89.623 K0.000 F2500.000
G2 X297.572 Y59.808 Z36.000 I-72.336 J-57.278 K0.000 F2500.000
G2 X301.996 Y40.095 Z36.000 I-106.919 J-34.349 K0.000 F2500.000
G2 X303.199 Y14.572 Z36.000 I-165.320 J-20.586 K0.000 F2500.000
G2 X285.005 Y-3.200 Z36.000 I-18.199 J0.432 K0.000 F2500.000
G1 X0.000 Y-3.200 Z36.000 F2500.000
G2 X-3.200 Y0.000 Z36.000 I-0.000 J3.200 K0.000 F2500.000
G1 X-3.200 Y600.000 Z36.000 F2500.000
G2 X0.012 Y603.200 Z36.000 I3.200 J0.000 K0.000 F2500.000
G2 X30.625 Y602.349 Z36.000 I1.119 J-510.811 K0.000 F2500.000
G2 X62.042 Y599.274 Z36.000 I-19.332 J-359.583 K0.000 F2500.000
G2 X87.880 Y594.306 Z36.000 I-34.159 J-247.326 K0.000 F2500.000
G2 X109.073 Y587.733 Z36.000 I-41.833 J-172.316 K0.000 F2500.000
G2 X128.810 Y578.377 Z36.000 I-44.565 J-119.514 K0.000 F2500.000
G2 X142.568 Y568.845 Z36.000 I-50.087 J-86.984 K0.000 F2500.000
G2 X165.756 Y540.066 Z36.000 I-58.503 J-70.869 K0.000 F2500.000
G2 X166.977 Y537.597 Z36.000 I-115.936 J-58.861 K0.000 F2500.000
G1 X167.717 Y536.031 Z35.000 F2500.000
G1 X166.977 Y537.597 Z34.000 F2500.000
G2 X175.500 Y514.524 Z34.000 I-117.157 J-56.392 K0.000 F2500.000
G2 X179.855 Y490.765 Z34.000 I-162.846 J-42.122 K0.000 F2500.000
G2 X181.251 Y465.549 Z34.000 I-261.453 J-27.126 K0.000 F2500.000
G2 X180.787 Y440.991 Z34.000 I-578.244 J-1.362 K0.000 F2500.000
G2 X178.922 Y406.556 Z34.000 I-1853.358 J83.137 K0.000 F2500.000
G3 X176.577 Y361.692 Z34.000 I1919.781 J-122.838 K0.000 F2500.000
G3 X175.664 Y309.030 Z34.000 I1011.850 J-43.871 K0.000 F2500.000
G3 X177.315 Y266.999 Z34.000 I617.338 J3.199 K0.000 F2500.000
G3 X180.992 Y234.210 Z34.000 I385.464 J26.628 K0.000 F2500.000
G3 X185.196 Y212.816 Z34.000 I244.295 J36.886 K0.000 F2500.000
G3 X190.284 Y195.447 Z34.000 I174.053 J41.562 K0.000 F2500.000
G3 X211.488 Y156.390 Z34.000 I131.986 J46.369 K0.000 F2500.000
G3 X230.278 Y135.929 Z34.000 I140.632 J110.288 K0.000 F2500.000
G3 X244.393 Y123.550 Z34.000 I250.985 J271.953 K0.000 F2500.000
G2 X257.486 Y112.745 Z34.000 I-1090.971 J-1335.364 K0.000 F2500.000
G2 X269.935 Y101.726 Z34.000 I-140.679 J-171.481 K0.000 F2500.000
G2 X282.285 Y88.180 Z34.000 I-84.702 J-89.623 K0.000 F2500.000
G2 X297.572 Y59.808 Z34.000 I-72.336 J-57.278 K0.000 F2500.000
G2 X301.996 Y40.095 Z34.000 I-106.919 J-34.349 K0.000 F2500.000
G2 X303.199 Y14.572 Z34.000 I-165.320 J-20.586 K0.000 F2500.000
G2 X285.005 Y-3.200 Z34.000 I-18.199 J0.432 K0.000 F2500.000
G1 X0.000 Y-3.200 Z34.000 F2500.000
G2 X-3.200 Y0.000 Z34.000 I-0.000 J3.200 K0.000 F2500.000
G1 X-3.200 Y600.000 Z34.000 F2500.000
G2 X0.012 Y603.200 Z34.000 I3.200 J0.000 K0.000 F2500.000
G2 X30.625 Y602.349 Z34.000 I1.119 J-510.811 K0.000 F2500.000
G2 X62.042 Y599.274 Z34.000 I-19.332 J-359.583 K0.000 F2500.000
G2 X87.880 Y594.306 Z34.000 I-34.159 J-247.326 K0.000 F2500.000
G2 X109.073 Y587.733 Z34.000 I-41.833 J-172.316 K0.000 F2500.000
G2 X128.810 Y578.377 Z34.000 I-44.565 J-119.514 K0.000 F2500.000
G2 X142.568 Y568.845 Z34.000 I-50.087 J-86.984 K0.000 F2500.000
G2 X165.756 Y540.066 Z34.000 I-58.503 J-70.869 K0.000 F2500.000
G2 X166.977 Y537.597 Z34.000 I-115.936 J-58.861 K0.000 F2500.000
G1 X167.717 Y536.031 Z33.000 F2500.000
G1 X166.977 Y537.597 Z32.000 F2500.000
G2 X175.500 Y514.524 Z32.000 I-117.157 J-56.392 K0.000 F2500.000
G2 X179.855 Y490.765 Z32.000 I-162.846 J-42.122 K0.000 F2500.000
G2 X181.251 Y465.549 Z32.000 I-261.453 J-27.126 K0.000 F2500.000
G2 X180.787 Y440.991 Z32.000 I-578.244 J-1.362 K0.000 F2500.000
G2 X178.922 Y406.556 Z32.000 I-1853.358 J83.137 K0.000 F2500.000
G3 X176.577 Y361.692 Z32.000 I1919.781 J-122.838 K0.000 F2500.000
G3 X175.664 Y309.030 Z32.000 I1011.850 J-43.871 K0.000 F2500.000
G3 X177.315 Y266.999 Z32.000 I617.338 J3.199 K0.000 F2500.000
G3 X180.992 Y234.210 Z32.000 I385.464 J26.628 K0.000 F2500.000
G3 X185.196 Y212.816 Z32.000 I244.295 J36.886 K0.000 F2500.000
G3 X190.284 Y195.447 Z32.000 I174.053 J41.562 K0.000 F2500.000
G3 X211.488 Y156.390 Z32.000 I131.986 J46.369 K0.000 F2500.000
G3 X230.278 Y135.929 Z32.000 I140.632 J110.288 K0.000 F2500.000
G3 X244.393 Y123.550 Z32.000 I250.985 J271.953 K0.000 F2500.000
G2 X257.486 Y112.745 Z32.000 I-1090.971 J-1335.364 K0.000 F2500.000
G2 X269.935 Y101.726 Z32.000 I-140.679 J-171.481 K0.000 F2500.000
G2 X282.285 Y88.180 Z32.000 I-84.702 J-89.623 K0.000 F2500.000
G2 X297.572 Y59.808 Z32.000 I-72.336 J-57.278 K0.000 F2500.000
G2 X301.996 Y40.095 Z32.000 I-106.919 J-34.349 K0.000 F2500.000
G2 X303.199 Y14.572 Z32.000 I-165.320 J-20.586 K0.000 F2500.000
G2 X285.005 Y-3.200 Z32.000 I-18.199 J0.432 K0.000 F2500.000
G1 X0.000 Y-3.200 Z32.000 F2500.000
G2 X-3.200 Y0.000 Z32.000 I-0.000 J3.200 K0.000 F2500.000
G1 X-3.200 Y600.000 Z32.000 F2500.000
G2 X0.012 Y603.200 Z32.000 I3.200 J0.000 K0.000 F2500.000
G2 X30.625 Y602.349 Z32.000 I1.119 J-510.811 K0.000 F2500.000
G2 X62.042 Y599.274 Z32.000 I-19.332 J-359.583 K0.000 F2500.000
G2 X87.880 Y594.306 Z32.000 I-34.159 J-247.326 K0.000 F2500.000
G2 X109.073 Y587.733 Z32.000 I-41.833 J-172.316 K0.000 F2500.000
G2 X128.810 Y578.377 Z32.000 I-44.565 J-119.514 K0.000 F2500.000
G2 X142.568 Y568.845 Z32.000 I-50.087 J-86.984 K0.000 F2500.000
G2 X165.756 Y540.066 Z32.000 I-58.503 J-70.869 K0.000 F2500.000
G2 X166.977 Y537.597 Z32.000 I-115.936 J-58.861 K0.000 F2500.000
G1 X167.717 Y536.031 Z31.000 F2500.000
G1 X166.977 Y537.597 Z30.000 F2500.000
G2 X175.500 Y514.524 Z30.000 I-117.157 J-56.392 K0.000 F2500.000
G2 X179.855 Y490.765 Z30.000 I-162.846 J-42.122 K0.000 F2500.000
G2 X181.251 Y465.549 Z30.000 I-261.453 J-27.126 K0.000 F2500.000
G2 X180.787 Y440.991 Z30.000 I-578.244 J-1.362 K0.000 F2500.000
G2 X178.922 Y406.556 Z30.000 I-1853.358 J83.137 K0.000 F2500.000
G3 X176.577 Y361.692 Z30.000 I1919.781 J-122.838 K0.000 F2500.000
G3 X175.664 Y309.030 Z30.000 I1011.850 J-43.871 K0.000 F2500.000
G3 X177.315 Y266.999 Z30.000 I617.338 J3.199 K0.000 F2500.000
G3 X180.992 Y234.210 Z30.000 I385.464 J26.628 K0.000 F2500.000
G3 X185.196 Y212.816 Z30.000 I244.295 J36.886 K0.000 F2500.000
G3 X190.284 Y195.447 Z30.000 I174.053 J41.562 K0.000 F2500.000
G3 X211.488 Y156.390 Z30.000 I131.986 J46.369 K0.000 F2500.000
G3 X230.278 Y135.929 Z30.000 I140.632 J110.288 K0.000 F2500.000
G3 X244.393 Y123.550 Z30.000 I250.985 J271.953 K0.000 F2500.000
G2 X257.486 Y112.745 Z30.000 I-1090.971 J-1335.364 K0.000 F2500.000
G2 X269.935 Y101.726 Z30.000 I-140.679 J-171.481 K0.000 F2500.000
G2 X282.285 Y88.180 Z30.000 I-84.702 J-89.623 K0.000 F2500.000
G2 X297.572 Y59.808 Z30.000 I-72.336 J-57.278 K0.000 F2500.000
G2 X301.996 Y40.095 Z30.000 I-106.919 J-34.349 K0.000 F2500.000
G2 X303.199 Y14.572 Z30.000 I-165.320 J-20.586 K0.000 F2500.000
G2 X285.005 Y-3.200 Z30.000 I-18.199 J0.432 K0.000 F2500.000
G1 X0.000 Y-3.200 Z30.000 F2500.000
G2 X-3.200 Y0.000 Z30.000 I-0.000 J3.200 K0.000 F2500.000
G1 X-3.200 Y600.000 Z30.000 F2500.000
G2 X0.012 Y603.200 Z30.000 I3.200 J0.000 K0.000 F2500.000
G2 X30.625 Y602.349 Z30.000 I1.119 J-510.811 K0.000 F2500.000
G2 X62.042 Y599.274 Z30.000 I-19.332 J-359.583 K0.000 F2500.000
G2 X87.880 Y594.306 Z30.000 I-34.159 J-247.326 K0.000 F2500.000
G2 X109.073 Y587.733 Z30.000 I-41.833 J-172.316 K0.000 F2500.000
G2 X128.810 Y578.377 Z30.000 I-44.565 J-119.514 K0.000 F2500.000
G2 X142.568 Y568.845 Z30.000 I-50.087 J-86.984 K0.000 F2500.000
G2 X165.756 Y540.066 Z30.000 I-58.503 J-70.869 K0.000 F2500.000
G2 X166.977 Y537.597 Z30.000 I-115.936 J-58.861 K0.000 F2500.000
G1 X167.717 Y536.031 Z29.000 F2500.000
G1 X166.977 Y537.597 Z28.000 F2500.000
G2 X175.500 Y514.524 Z28.000 I-117.157 J-56.392 K0.000 F2500.000
G2 X179.855 Y490.765 Z28.000 I-162.846 J-42.122 K0.000 F2500.000
G2 X181.251 Y465.549 Z28.000 I-261.453 J-27.126 K0.000 F2500.000
G2 X180.787 Y440.991 Z28.000 I-578.244 J-1.362 K0.000 F2500.000
G2 X178.922 Y406.556 Z28.000 I-1853.358 J83.137 K0.000 F2500.000
G3 X176.577 Y361.692 Z28.000 I1919.781 J-122.838 K0.000 F2500.000
G3 X175.664 Y309.030 Z28.000 I1011.850 J-43.871 K0.000 F2500.000
G3 X177.315 Y266.999 Z28.000 I617.338 J3.199 K0.000 F2500.000
G3 X180.992 Y234.210 Z28.000 I385.464 J26.628 K0.000 F2500.000
G3 X185.196 Y212.816 Z28.000 I244.295 J36.886 K0.000 F2500.000
G3 X190.284 Y195.447 Z28.000 I174.053 J41.562 K0.000 F2500.000
G3 X211.488 Y156.390 Z28.000 I131.986 J46.369 K0.000 F2500.000
G3 X230.278 Y135.929 Z28.000 I140.632 J110.288 K0.000 F2500.000
G3 X244.393 Y123.550 Z28.000 I250.985 J271.953 K0.000 F2500.000
G2 X257.486 Y112.745 Z28.000 I-1090.971 J-1335.364 K0.000 F2500.000
G2 X269.935 Y101.726 Z28.000 I-140.679 J-171.481 K0.000 F2500.000
G2 X282.285 Y88.180 Z28.000 I-84.702 J-89.623 K0.000 F2500.000
G2 X297.572 Y59.808 Z28.000 I-72.336 J-57.278 K0.000 F2500.000
G2 X301.996 Y40.095 Z28.000 I-106.919 J-34.349 K0.000 F2500.000
G2 X303.199 Y14.572 Z28.000 I-165.320 J-20.586 K0.000 F2500.000
G2 X285.005 Y-3.200 Z28.000 I-18.199 J0.432 K0.000 F2500.000
G1 X0.000 Y-3.200 Z28.000 F2500.000
G2 X-3.200 Y0.000 Z28.000 I-0.000 J3.200 K0.000 F2500.000
G1 X-3.200 Y600.000 Z28.000 F2500.000
G2 X0.012 Y603.200 Z28.000 I3.200 J0.000 K0.000 F2500.000
G2 X30.625 Y602.349 Z28.000 I1.119 J-510.811 K0.000 F2500.000
G2 X62.042 Y599.274 Z28.000 I-19.332 J-359.583 K0.000 F2500.000
G2 X87.880 Y594.306 Z28.000 I-34.159 J-247.326 K0.000 F2500.000
G2 X109.073 Y587.733 Z28.000 I-41.833 J-172.316 K0.000 F2500.000
G2 X128.810 Y578.377 Z28.000 I-44.565 J-119.514 K0.000 F2500.000
G2 X142.568 Y568.845 Z28.000 I-50.087 J-86.984 K0.000 F2500.000
G2 X165.756 Y540.066 Z28.000 I-58.503 J-70.869 K0.000 F2500.000
G2 X166.977 Y537.597 Z28.000 I-115.936 J-58.861 K0.000 F2500.000
G1 X167.717 Y536.031 Z27.000 F2500.000
G1 X166.977 Y537.597 Z26.000 F2500.000
G2 X175.500 Y514.524 Z26.000 I-117.157 J-56.392 K0.000 F2500.000
G2 X179.855 Y490.765 Z26.000 I-162.846 J-42.122 K0.000 F2500.000
G2 X181.251 Y465.549 Z26.000 I-261.453 J-27.126 K0.000 F2500.000
G2 X180.787 Y440.991 Z26.000 I-578.244 J-1.362 K0.000 F2500.000
G2 X178.922 Y406.556 Z26.000 I-1853.358 J83.137 K0.000 F2500.000
G3 X176.577 Y361.692 Z26.000 I1919.781 J-122.838 K0.000 F2500.000
G3 X175.664 Y309.030 Z26.000 I1011.850 J-43.871 K0.000 F2500.000
G3 X177.315 Y266.999 Z26.000 I617.338 J3.199 K0.000 F2500.000
G3 X180.992 Y234.210 Z26.000 I385.464 J26.628 K0.000 F2500.000
G3 X185.196 Y212.816 Z26.000 I244.295 J36.886 K0.000 F2500.000
G3 X190.284 Y195.447 Z26.000 I174.053 J41.562 K0.000 F2500.000
G3 X211.488 Y156.390 Z26.000 I131.986 J46.369 K0.000 F2500.000
G3 X230.278 Y135.929 Z26.000 I140.632 J110.288 K0.000 F2500.000
G3 X244.393 Y123.550 Z26.000 I250.985 J271.953 K0.000 F2500.000
G2 X257.486 Y112.745 Z26.000 I-1090.971 J-1335.364 K0.000 F2500.000
G2 X269.935 Y101.726 Z26.000 I-140.679 J-171.481 K0.000 F2500.000
G2 X282.285 Y88.180 Z26.000 I-84.702 J-89.623 K0.000 F2500.000
G2 X297.572 Y59.808 Z26.000 I-72.336 J-57.278 K0.000 F2500.000
G2 X301.996 Y40.095 Z26.000 I-106.919 J-34.349 K0.000 F2500.000
G2 X303.199 Y14.572 Z26.000 I-165.320 J-20.586 K0.000 F2500.000
G2 X285.005 Y-3.200 Z26.000 I-18.199 J0.432 K0.000 F2500.000
G1 X0.000 Y-3.200 Z26.000 F2500.000
G2 X-3.200 Y0.000 Z26.000 I-0.000 J3.200 K0.000 F2500.000
G1 X-3.200 Y600.000 Z26.000 F2500.000
G2 X0.012 Y603.200 Z26.000 I3.200 J0.000 K0.000 F2500.000
G2 X30.625 Y602.349 Z26.000 I1.119 J-510.811 K0.000 F2500.000
G2 X62.042 Y599.274 Z26.000 I-19.332 J-359.583 K0.000 F2500.000
G2 X87.880 Y594.306 Z26.000 I-34.159 J-247.326 K0.000 F2500.000
G2 X109.073 Y587.733 Z26.000 I-41.833 J-172.316 K0.000 F2500.000
G2 X128.810 Y578.377 Z26.000 I-44.565 J-119.514 K0.000 F2500.000
G2 X142.568 Y568.845 Z26.000 I-50.087 J-86.984 K0.000 F2500.000
G2 X165.756 Y540.066 Z26.000 I-58.503 J-70.869 K0.000 F2500.000
G2 X166.977 Y537.597 Z26.000 I-115.936 J-58.861 K0.000 F2500.000
G1 X167.717 Y536.031 Z25.000 F2500.000
G1 X166.977 Y537.597 Z24.000 F2500.000
G2 X175.500 Y514.524 Z24.000 I-117.157 J-56.392 K0.000 F2500.000
G2 X179.855 Y490.765 Z24.000 I-162.846 J-42.122 K0.000 F2500.000
G2 X181.251 Y465.549 Z24.000 I-261.453 J-27.126 K0.000 F2500.000
G2 X180.787 Y440.991 Z24.000 I-578.244 J-1.362 K0.000 F2500.000
G2 X178.922 Y406.556 Z24.000 I-1853.358 J83.137 K0.000 F2500.000
G3 X176.577 Y361.692 Z24.000 I1919.781 J-122.838 K0.000 F2500.000
G3 X175.664 Y309.030 Z24.000 I1011.850 J-43.871 K0.000 F2500.000
G3 X177.315 Y266.999 Z24.000 I617.338 J3.199 K0.000 F2500.000
G3 X180.992 Y234.210 Z24.000 I385.464 J26.628 K0.000 F2500.000
G3 X185.196 Y212.816 Z24.000 I244.295 J36.886 K0.000 F2500.000
G3 X190.284 Y195.447 Z24.000 I174.053 J41.562 K0.000 F2500.000
G3 X211.488 Y156.390 Z24.000 I131.986 J46.369 K0.000 F2500.000
G3 X230.278 Y135.929 Z24.000 I140.632 J110.288 K0.000 F2500.000
G3 X244.393 Y123.550 Z24.000 I250.985 J271.953 K0.000 F2500.000
G2 X257.486 Y112.745 Z24.000 I-1090.971 J-1335.364 K0.000 F2500.000
G2 X269.935 Y101.726 Z24.000 I-140.679 J-171.481 K0.000 F2500.000
G2 X282.285 Y88.180 Z24.000 I-84.702 J-89.623 K0.000 F2500.000
G2 X297.572 Y59.808 Z24.000 I-72.336 J-57.278 K0.000 F2500.000
G2 X301.996 Y40.095 Z24.000 I-106.919 J-34.349 K0.000 F2500.000
G2 X303.199 Y14.572 Z24.000 I-165.320 J-20.586 K0.000 F2500.000
G2 X285.005 Y-3.200 Z24.000 I-18.199 J0.432 K0.000 F2500.000
G1 X0.000 Y-3.200 Z24.000 F2500.000
G2 X-3.200 Y0.000 Z24.000 I-0.000 J3.200 K0.000 F2500.000
G1 X-3.200 Y600.000 Z24.000 F2500.000
G2 X0.012 Y603.200 Z24.000 I3.200 J0.000 K0.000 F2500.000
G2 X30.625 Y602.349 Z24.000 I1.119 J-510.811 K0.000 F2500.000
G2 X62.042 Y599.274 Z24.000 I-19.332 J-359.583 K0.000 F2500.000
G2 X87.880 Y594.306 Z24.000 I-34.159 J-247.326 K0.000 F2500.000
G2 X109.073 Y587.733 Z24.000 I-41.833 J-172.316 K0.000 F2500.000
G2 X128.810 Y578.377 Z24.000 I-44.565 J-119.514 K0.000 F2500.000
G2 X142.568 Y568.845 Z24.000 I-50.087 J-86.984 K0.000 F2500.000
G2 X165.756 Y540.066 Z24.000 I-58.503 J-70.869 K0.000 F2500.000
G2 X166.977 Y537.597 Z24.000 I-115.936 J-58.861 K0.000 F2500.000
G1 X167.717 Y536.031 Z23.000 F2500.000
G1 X166.977 Y537.597 Z22.000 F2500.000
G2 X175.500 Y514.524 Z22.000 I-117.157 J-56.392 K0.000 F2500.000
G2 X179.855 Y490.765 Z22.000 I-162.846 J-42.122 K0.000 F2500.000
G2 X181.251 Y465.549 Z22.000 I-261.453 J-27.126 K0.000 F2500.000
G2 X180.787 Y440.991 Z22.000 I-578.244 J-1.362 K0.000 F2500.000
G2 X178.922 Y406.556 Z22.000 I-1853.358 J83.137 K0.000 F2500.000
G3 X176.577 Y361.692 Z22.000 I1919.781 J-122.838 K0.000 F2500.000
G3 X175.664 Y309.030 Z22.000 I1011.850 J-43.871 K0.000 F2500.000
G3 X177.315 Y266.999 Z22.000 I617.338 J3.199 K0.000 F2500.000
G3 X180.992 Y234.210 Z22.000 I385.464 J26.628 K0.000 F2500.000
G3 X185.196 Y212.816 Z22.000 I244.295 J36.886 K0.000 F2500.000
G3 X190.284 Y195.447 Z22.000 I174.053 J41.562 K0.000 F2500.000
G3 X211.488 Y156.390 Z22.000 I131.986 J46.369 K0.000 F2500.000
G3 X230.278 Y135.929 Z22.000 I140.632 J110.288 K0.000 F2500.000
G3 X244.393 Y123.550 Z22.000 I250.985 J271.953 K0.000 F2500.000
G2 X257.486 Y112.745 Z22.000 I-1090.971 J-1335.364 K0.000 F2500.000
G2 X269.935 Y101.726 Z22.000 I-140.679 J-171.481 K0.000 F2500.000
G2 X282.285 Y88.180 Z22.000 I-84.702 J-89.623 K0.000 F2500.000
G2 X297.572 Y59.808 Z22.000 I-72.336 J-57.278 K0.000 F2500.000
G2 X301.996 Y40.095 Z22.000 I-106.919 J-34.349 K0.000 F2500.000
G2 X303.199 Y14.572 Z22.000 I-165.320 J-20.586 K0.000 F2500.000
G2 X285.005 Y-3.200 Z22.000 I-18.199 J0.432 K0.000 F2500.000
G1 X0.000 Y-3.200 Z22.000 F2500.000
G2 X-3.200 Y0.000 Z22.000 I-0.000 J3.200 K0.000 F2500.000
G1 X-3.200 Y600.000 Z22.000 F2500.000
G2 X0.012 Y603.200 Z22.000 I3.200 J0.000 K0.000 F2500.000
G2 X30.625 Y602.349 Z22.000 I1.119 J-510.811 K0.000 F2500.000
G2 X62.042 Y599.274 Z22.000 I-19.332 J-359.583 K0.000 F2500.000
G2 X87.880 Y594.306 Z22.000 I-34.159 J-247.326 K0.000 F2500.000
G2 X109.073 Y587.733 Z22.000 I-41.833 J-172.316 K0.000 F2500.000
G2 X128.810 Y578.377 Z22.000 I-44.565 J-119.514 K0.000 F2500.000
G2 X142.568 Y568.845 Z22.000 I-50.087 J-86.984 K0.000 F2500.000
G2 X165.756 Y540.066 Z22.000 I-58.503 J-70.869 K0.000 F2500.000
G2 X166.977 Y537.597 Z22.000 I-115.936 J-58.861 K0.000 F2500.000
G1 X167.717 Y536.031 Z21.000 F2500.000
G1 X166.977 Y537.597 Z20.000 F2500.000
G2 X175.500 Y514.524 Z20.000 I-117.157 J-56.392 K0.000 F2500.000
G2 X179.855 Y490.765 Z20.000 I-162.846 J-42.122 K0.000 F2500.000
G2 X181.251 Y465.549 Z20.000 I-261.453 J-27.126 K0.000 F2500.000
G2 X180.787 Y440.991 Z20.000 I-578.244 J-1.362 K0.000 F2500.000
G2 X178.922 Y406.556 Z20.000 I-1853.358 J83.137 K0.000 F2500.000
G3 X176.577 Y361.692 Z20.000 I1919.781 J-122.838 K0.000 F2500.000
G3 X175.664 Y309.030 Z20.000 I1011.850 J-43.871 K0.000 F2500.000
G3 X177.315 Y266.999 Z20.000 I617.338 J3.199 K0.000 F2500.000
G3 X180.992 Y234.210 Z20.000 I385.464 J26.628 K0.000 F2500.000
G3 X185.196 Y212.816 Z20.000 I244.295 J36.886 K0.000 F2500.000
G3 X190.284 Y195.447 Z20.000 I174.053 J41.562 K0.000 F2500.000
G3 X211.488 Y156.390 Z20.000 I131.986 J46.369 K0.000 F2500.000
G3 X230.278 Y135.929 Z20.000 I140.632 J110.288 K0.000 F2500.000
G3 X244.393 Y123.550 Z20.000 I250.985 J271.953 K0.000 F2500.000
G2 X257.486 Y112.745 Z20.000 I-1090.971 J-1335.364 K0.000 F2500.000
G2 X269.935 Y101.726 Z20.000 I-140.679 J-171.481 K0.000 F2500.000
G2 X282.285 Y88.180 Z20.000 I-84.702 J-89.623 K0.000 F2500.000
G2 X297.572 Y59.808 Z20.000 I-72.336 J-57.278 K0.000 F2500.000
G2 X301.996 Y40.095 Z20.000 I-106.919 J-34.349 K0.000 F2500.000
G2 X303.199 Y14.572 Z20.000 I-165.320 J-20.586 K0.000 F2500.000
G2 X285.005 Y-3.200 Z20.000 I-18.199 J0.432 K0.000 F2500.000
G1 X0.000 Y-3.200 Z20.000 F2500.000
G2 X-3.200 Y0.000 Z20.000 I-0.000 J3.200 K0.000 F2500.000
G1 X-3.200 Y600.000 Z20.000 F2500.000
G2 X0.012 Y603.200 Z20.000 I3.200 J0.000 K0.000 F2500.000
G2 X30.625 Y602.349 Z20.000 I1.119 J-510.811 K0.000 F2500.000
G2 X62.042 Y599.274 Z20.000 I-19.332 J-359.583 K0.000 F2500.000
G2 X87.880 Y594.306 Z20.000 I-34.159 J-247.326 K0.000 F2500.000
G2 X109.073 Y587.733 Z20.000 I-41.833 J-172.316 K0.000 F2500.000
G2 X128.810 Y578.377 Z20.000 I-44.565 J-119.514 K0.000 F2500.000
G2 X142.568 Y568.845 Z20.000 I-50.087 J-86.984 K0.000 F2500.000
G2 X165.756 Y540.066 Z20.000 I-58.503 J-70.869 K0.000 F2500.000
G2 X166.977 Y537.597 Z20.000 I-115.936 J-58.861 K0.000 F2500.000
G1 X167.717 Y536.031 Z19.000 F2500.000
G1 X166.977 Y537.597 Z18.000 F2500.000
G2 X175.500 Y514.524 Z18.000 I-117.157 J-56.392 K0.000 F2500.000
G2 X179.855 Y490.765 Z18.000 I-162.846 J-42.122 K0.000 F2500.000
G2 X181.251 Y465.549 Z18.000 I-261.453 J-27.126 K0.000 F2500.000
G2 X180.787 Y440.991 Z18.000 I-578.244 J-1.362 K0.000 F2500.000
G2 X178.922 Y406.556 Z18.000 I-1853.358 J83.137 K0.000 F2500.000
G3 X176.577 Y361.692 Z18.000 I1919.781 J-122.838 K0.000 F2500.000
G3 X175.664 Y309.030 Z18.000 I1011.850 J-43.871 K0.000 F2500.000
G3 X177.315 Y266.999 Z18.000 I617.338 J3.199 K0.000 F2500.000
G3 X180.992 Y234.210 Z18.000 I385.464 J26.628 K0.000 F2500.000
G3 X185.196 Y212.816 Z18.000 I244.295 J36.886 K0.000 F2500.000
G3 X190.284 Y195.447 Z18.000 I174.053 J41.562 K0.000 F2500.000
G3 X211.488 Y156.390 Z18.000 I131.986 J46.369 K0.000 F2500.000
G3 X230.278 Y135.929 Z18.000 I140.632 J110.288 K0.000 F2500.000
G3 X244.393 Y123.550 Z18.000 I250.985 J271.953 K0.000 F2500.000
G2 X257.486 Y112.745 Z18.000 I-1090.971 J-1335.364 K0.000 F2500.000
G2 X269.935 Y101.726 Z18.000 I-140.679 J-171.481 K0.000 F2500.000
G2 X282.285 Y88.180 Z18.000 I-84.702 J-89.623 K0.000 F2500.000
G2 X297.572 Y59.808 Z18.000 I-72.336 J-57.278 K0.000 F2500.000
G2 X301.996 Y40.095 Z18.000 I-106.919 J-34.349 K0.000 F2500.000
G2 X303.199 Y14.572 Z18.000 I-165.320 J-20.586 K0.000 F2500.000
G2 X285.005 Y-3.200 Z18.000 I-18.199 J0.432 K0.000 F2500.000
G1 X0.000 Y-3.200 Z18.000 F2500.000
G2 X-3.200 Y0.000 Z18.000 I-0.000 J3.200 K0.000 F2500.000
G1 X-3.200 Y600.000 Z18.000 F2500.000
G2 X0.012 Y603.200 Z18.000 I3.200 J0.000 K0.000 F2500.000
G2 X30.625 Y602.349 Z18.000 I1.119 J-510.811 K0.000 F2500.000
G2 X62.042 Y599.274 Z18.000 I-19.332 J-359.583 K0.000 F2500.000
G2 X87.880 Y594.306 Z18.000 I-34.159 J-247.326 K0.000 F2500.000
G2 X109.073 Y587.733 Z18.000 I-41.833 J-172.316 K0.000 F2500.000
G2 X128.810 Y578.377 Z18.000 I-44.565 J-119.514 K0.000 F2500.000
G2 X142.568 Y568.845 Z18.000 I-50.087 J-86.984 K0.000 F2500.000
G2 X165.756 Y540.066 Z18.000 I-58.503 J-70.869 K0.000 F2500.000
G2 X166.977 Y537.597 Z18.000 I-115.936 J-58.861 K0.000 F2500.000
G1 X167.717 Y536.031 Z17.000 F2500.000
G1 X166.977 Y537.597 Z16.000 F2500.000
G2 X175.500 Y514.524 Z16.000 I-117.157 J-56.392 K0.000 F2500.000
G2 X179.855 Y490.765 Z16.000 I-162.846 J-42.122 K0.000 F2500.000
G2 X181.251 Y465.549 Z16.000 I-261.453 J-27.126 K0.000 F2500.000
G2 X180.787 Y440.991 Z16.000 I-578.244 J-1.362 K0.000 F2500.000
G2 X178.922 Y406.556 Z16.000 I-1853.358 J83.137 K0.000 F2500.000
G3 X176.577 Y361.692 Z16.000 I1919.781 J-122.838 K0.000 F2500.000
G3 X175.664 Y309.030 Z16.000 I1011.850 J-43.871 K0.000 F2500.000
G3 X177.315 Y266.999 Z16.000 I617.338 J3.199 K0.000 F2500.000
G3 X180.992 Y234.210 Z16.000 I385.464 J26.628 K0.000 F2500.000
G3 X185.196 Y212.816 Z16.000 I244.295 J36.886 K0.000 F2500.000
G3 X190.284 Y195.447 Z16.000 I174.053 J41.562 K0.000 F2500.000
G3 X211.488 Y156.390 Z16.000 I131.986 J46.369 K0.000 F2500.000
G3 X230.278 Y135.929 Z16.000 I140.632 J110.288 K0.000 F2500.000
G3 X244.393 Y123.550 Z16.000 I250.985 J271.953 K0.000 F2500.000
G2 X257.486 Y112.745 Z16.000 I-1090.971 J-1335.364 K0.000 F2500.000
G2 X269.935 Y101.726 Z16.000 I-140.679 J-171.481 K0.000 F2500.000
G2 X282.285 Y88.180 Z16.000 I-84.702 J-89.623 K0.000 F2500.000
G2 X297.572 Y59.808 Z16.000 I-72.336 J-57.278 K0.000 F2500.000
G2 X301.996 Y40.095 Z16.000 I-106.919 J-34.349 K0.000 F2500.000
G2 X303.199 Y14.572 Z16.000 I-165.320 J-20.586 K0.000 F2500.000
G2 X285.005 Y-3.200 Z16.000 I-18.199 J0.432 K0.000 F2500.000
G1 X0.000 Y-3.200 Z16.000 F2500.000
G2 X-3.200 Y0.000 Z16.000 I-0.000 J3.200 K0.000 F2500.000
G1 X-3.200 Y600.000 Z16.000 F2500.000
G2 X0.012 Y603.200 Z16.000 I3.200 J0.000 K0.000 F2500.000
G2 X30.625 Y602.349 Z16.000 I1.119 J-510.811 K0.000 F2500.000
G2 X62.042 Y599.274 Z16.000 I-19.332 J-359.583 K0.000 F2500.000
G2 X87.880 Y594.306 Z16.000 I-34.159 J-247.326 K0.000 F2500.000
G2 X109.073 Y587.733 Z16.000 I-41.833 J-172.316 K0.000 F2500.000
G2 X128.810 Y578.377 Z16.000 I-44.565 J-119.514 K0.000 F2500.000
G2 X142.568 Y568.845 Z16.000 I-50.087 J-86.984 K0.000 F2500.000
G2 X165.756 Y540.066 Z16.000 I-58.503 J-70.869 K0.000 F2500.000
G2 X166.977 Y537.597 Z16.000 I-115.936 J-58.861 K0.000 F2500.000
G1 X167.717 Y536.031 Z15.000 F2500.000
G1 X166.977 Y537.597 Z14.000 F2500.000
G2 X175.500 Y514.524 Z14.000 I-117.157 J-56.392 K0.000 F2500.000
G2 X179.855 Y490.765 Z14.000 I-162.846 J-42.122 K0.000 F2500.000
G2 X181.251 Y465.549 Z14.000 I-261.453 J-27.126 K0.000 F2500.000
G2 X180.787 Y440.991 Z14.000 I-578.244 J-1.362 K0.000 F2500.000
G2 X178.922 Y406.556 Z14.000 I-1853.358 J83.137 K0.000 F2500.000
G3 X176.577 Y361.692 Z14.000 I1919.781 J-122.838 K0.000 F2500.000
G3 X175.664 Y309.030 Z14.000 I1011.850 J-43.871 K0.000 F2500.000
G3 X177.315 Y266.999 Z14.000 I617.338 J3.199 K0.000 F2500.000
G3 X180.992 Y234.210 Z14.000 I385.464 J26.628 K0.000 F2500.000
G3 X185.196 Y212.816 Z14.000 I244.295 J36.886 K0.000 F2500.000
G3 X190.284 Y195.447 Z14.000 I174.053 J41.562 K0.000 F2500.000
G3 X211.488 Y156.390 Z14.000 I131.986 J46.369 K0.000 F2500.000
G3 X230.278 Y135.929 Z14.000 I140.632 J110.288 K0.000 F2500.000
G3 X244.393 Y123.550 Z14.000 I250.985 J271.953 K0.000 F2500.000
G2 X257.486 Y112.745 Z14.000 I-1090.971 J-1335.364 K0.000 F2500.000
G2 X269.935 Y101.726 Z14.000 I-140.679 J-171.481 K0.000 F2500.000
G2 X282.285 Y88.180 Z14.000 I-84.702 J-89.623 K0.000 F2500.000
G2 X297.572 Y59.808 Z14.000 I-72.336 J-57.278 K0.000 F2500.000
G2 X301.996 Y40.095 Z14.000 I-106.919 J-34.349 K0.000 F2500.000
G2 X303.199 Y14.572 Z14.000 I-165.320 J-20.586 K0.000 F2500.000
G2 X285.005 Y-3.200 Z14.000 I-18.199 J0.432 K0.000 F2500.000
G1 X0.000 Y-3.200 Z14.000 F2500.000
G2 X-3.200 Y0.000 Z14.000 I-0.000 J3.200 K0.000 F2500.000
G1 X-3.200 Y600.000 Z14.000 F2500.000
G2 X0.012 Y603.200 Z14.000 I3.200 J0.000 K0.000 F2500.000
G2 X30.625 Y602.349 Z14.000 I1.119 J-510.811 K0.000 F2500.000
G2 X62.042 Y599.274 Z14.000 I-19.332 J-359.583 K0.000 F2500.000
G2 X87.880 Y594.306 Z14.000 I-34.159 J-247.326 K0.000 F2500.000
G2 X109.073 Y587.733 Z14.000 I-41.833 J-172.316 K0.000 F2500.000
G2 X128.810 Y578.377 Z14.000 I-44.565 J-119.514 K0.000 F2500.000
G2 X142.568 Y568.845 Z14.000 I-50.087 J-86.984 K0.000 F2500.000
G2 X165.756 Y540.066 Z14.000 I-58.503 J-70.869 K0.000 F2500.000
G2 X166.977 Y537.597 Z14.000 I-115.936 J-58.861 K0.000 F2500.000
G1 X167.717 Y536.031 Z13.000 F2500.000
G1 X166.977 Y537.597 Z12.000 F2500.000
G2 X175.500 Y514.524 Z12.000 I-117.157 J-56.392 K0.000 F2500.000
G2 X179.855 Y490.765 Z12.000 I-162.846 J-42.122 K0.000 F2500.000
G2 X181.251 Y465.549 Z12.000 I-261.453 J-27.126 K0.000 F2500.000
G2 X180.787 Y440.991 Z12.000 I-578.244 J-1.362 K0.000 F2500.000
G2 X178.922 Y406.556 Z12.000 I-1853.358 J83.137 K0.000 F2500.000
G3 X176.577 Y361.692 Z12.000 I1919.781 J-122.838 K0.000 F2500.000
G3 X175.664 Y309.030 Z12.000 I1011.850 J-43.871 K0.000 F2500.000
G3 X177.315 Y266.999 Z12.000 I617.338 J3.199 K0.000 F2500.000
G3 X180.992 Y234.210 Z12.000 I385.464 J26.628 K0.000 F2500.000
G3 X185.196 Y212.816 Z12.000 I244.295 J36.886 K0.000 F2500.000
G3 X190.284 Y195.447 Z12.000 I174.053 J41.562 K0.000 F2500.000
G3 X211.488 Y156.390 Z12.000 I131.986 J46.369 K0.000 F2500.000
G3 X230.278 Y135.929 Z12.000 I140.632 J110.288 K0.000 F2500.000
G3 X244.393 Y123.550 Z12.000 I250.985 J271.953 K0.000 F2500.000
G2 X257.486 Y112.745 Z12.000 I-1090.971 J-1335.364 K0.000 F2500.000
G2 X269.935 Y101.726 Z12.000 I-140.679 J-171.481 K0.000 F2500.000
G2 X282.285 Y88.180 Z12.000 I-84.702 J-89.623 K0.000 F2500.000
G2 X297.572 Y59.808 Z12.000 I-72.336 J-57.278 K0.000 F2500.000
G2 X301.996 Y40.095 Z12.000 I-106.919 J-34.349 K0.000 F2500.000
G2 X303.199 Y14.572 Z12.000 I-165.320 J-20.586 K0.000 F2500.000
G2 X285.005 Y-3.200 Z12.000 I-18.199 J0.432 K0.000 F2500.000
G1 X0.000 Y-3.200 Z12.000 F2500.000
G2 X-3.200 Y0.000 Z12.000 I-0.000 J3.200 K0.000 F2500.000
G1 X-3.200 Y600.000 Z12.000 F2500.000
G2 X0.012 Y603.200 Z12.000 I3.200 J0.000 K0.000 F2500.000
G2 X30.625 Y602.349 Z12.000 I1.119 J-510.811 K0.000 F2500.000
G2 X62.042 Y599.274 Z12.000 I-19.332 J-359.583 K0.000 F2500.000
G2 X87.880 Y594.306 Z12.000 I-34.159 J-247.326 K0.000 F2500.000
G2 X109.073 Y587.733 Z12.000 I-41.833 J-172.316 K0.000 F2500.000
G2 X128.810 Y578.377 Z12.000 I-44.565 J-119.514 K0.000 F2500.000
G2 X142.568 Y568.845 Z12.000 I-50.087 J-86.984 K0.000 F2500.000
G2 X165.756 Y540.066 Z12.000 I-58.503 J-70.869 K0.000 F2500.000
G2 X166.977 Y537.597 Z12.000 I-115.936 J-58.861 K0.000 F2500.000
G1 X167.717 Y536.031 Z11.000 F2500.000
G1 X166.977 Y537.597 Z10.000 F2500.000
G2 X175.500 Y514.524 Z10.000 I-117.157 J-56.392 K0.000 F2500.000
G2 X179.855 Y490.765 Z10.000 I-162.846 J-42.122 K0.000 F2500.000
G2 X181.251 Y465.549 Z10.000 I-261.453 J-27.126 K0.000 F2500.000
G2 X180.787 Y440.991 Z10.000 I-578.244 J-1.362 K0.000 F2500.000
G2 X178.922 Y406.556 Z10.000 I-1853.358 J83.137 K0.000 F2500.000
G3 X176.577 Y361.692 Z10.000 I1919.781 J-122.838 K0.000 F2500.000
G3 X175.664 Y309.030 Z10.000 I1011.850 J-43.871 K0.000 F2500.000
G3 X177.315 Y266.999 Z10.000 I617.338 J3.199 K0.000 F2500.000
G3 X180.992 Y234.210 Z10.000 I385.464 J26.628 K0.000 F2500.000
G3 X185.196 Y212.816 Z10.000 I244.295 J36.886 K0.000 F2500.000
G3 X190.284 Y195.447 Z10.000 I174.053 J41.562 K0.000 F2500.000
G3 X211.488 Y156.390 Z10.000 I131.986 J46.369 K0.000 F2500.000
G3 X230.278 Y135.929 Z10.000 I140.632 J110.288 K0.000 F2500.000
G3 X244.393 Y123.550 Z10.000 I250.985 J271.953 K0.000 F2500.000
G2 X257.486 Y112.745 Z10.000 I-1090.971 J-1335.364 K0.000 F2500.000
G2 X269.935 Y101.726 Z10.000 I-140.679 J-171.481 K0.000 F2500.000
G2 X282.285 Y88.180 Z10.000 I-84.702 J-89.623 K0.000 F2500.000
G2 X297.572 Y59.808 Z10.000 I-72.336 J-57.278 K0.000 F2500.000
G2 X301.996 Y40.095 Z10.000 I-106.919 J-34.349 K0.000 F2500.000
G2 X303.199 Y14.572 Z10.000 I-165.320 J-20.586 K0.000 F2500.000
G2 X285.005 Y-3.200 Z10.000 I-18.199 J0.432 K0.000 F2500.000
G1 X0.000 Y-3.200 Z10.000 F2500.000
G2 X-3.200 Y0.000 Z10.000 I-0.000 J3.200 K0.000 F2500.000
G1 X-3.200 Y600.000 Z10.000 F2500.000
G2 X0.012 Y603.200 Z10.000 I3.200 J0.000 K0.000 F2500.000
G2 X30.625 Y602.349 Z10.000 I1.119 J-510.811 K0.000 F2500.000
G2 X62.042 Y599.274 Z10.000 I-19.332 J-359.583 K0.000 F2500.000
G2 X87.880 Y594.306 Z10.000 I-34.159 J-247.326 K0.000 F2500.000
G2 X109.073 Y587.733 Z10.000 I-41.833 J-172.316 K0.000 F2500.000
G2 X128.810 Y578.377 Z10.000 I-44.565 J-119.514 K0.000 F2500.000
G2 X142.568 Y568.845 Z10.000 I-50.087 J-86.984 K0.000 F2500.000
G2 X165.756 Y540.066 Z10.000 I-58.503 J-70.869 K0.000 F2500.000
G2 X166.977 Y537.597 Z10.000 I-115.936 J-58.861 K0.000 F2500.000
G1 X167.717 Y536.031 Z9.000 F2500.000
G1 X166.977 Y537.597 Z8.000 F2500.000
G2 X175.500 Y514.524 Z8.000 I-117.157 J-56.392 K0.000 F2500.000
G2 X179.855 Y490.765 Z8.000 I-162.846 J-42.122 K0.000 F2500.000
G2 X181.251 Y465.549 Z8.000 I-261.453 J-27.126 K0.000 F2500.000
G2 X180.787 Y440.991 Z8.000 I-578.244 J-1.362 K0.000 F2500.000
G2 X178.922 Y406.556 Z8.000 I-1853.358 J83.137 K0.000 F2500.000
G3 X176.577 Y361.692 Z8.000 I1919.781 J-122.838 K0.000 F2500.000
G3 X175.664 Y309.030 Z8.000 I1011.850 J-43.871 K0.000 F2500.000
G3 X177.315 Y266.999 Z8.000 I617.338 J3.199 K0.000 F2500.000
G3 X180.992 Y234.210 Z8.000 I385.464 J26.628 K0.000 F2500.000
G3 X185.196 Y212.816 Z8.000 I244.295 J36.886 K0.000 F2500.000
G3 X190.284 Y195.447 Z8.000 I174.053 J41.562 K0.000 F2500.000
G3 X211.488 Y156.390 Z8.000 I131.986 J46.369 K0.000 F2500.000
G3 X230.278 Y135.929 Z8.000 I140.632 J110.288 K0.000 F2500.000
G3 X244.393 Y123.550 Z8.000 I250.985 J271.953 K0.000 F2500.000
G2 X257.486 Y112.745 Z8.000 I-1090.971 J-1335.364 K0.000 F2500.000
G2 X269.935 Y101.726 Z8.000 I-140.679 J-171.481 K0.000 F2500.000
G2 X282.285 Y88.180 Z8.000 I-84.702 J-89.623 K0.000 F2500.000
G2 X297.572 Y59.808 Z8.000 I-72.336 J-57.278 K0.000 F2500.000
G2 X301.996 Y40.095 Z8.000 I-106.919 J-34.349 K0.000 F2500.000
G2 X303.199 Y14.572 Z8.000 I-165.320 J-20.586 K0.000 F2500.000
G2 X285.005 Y-3.200 Z8.000 I-18.199 J0.432 K0.000 F2500.000
G1 X0.000 Y-3.200 Z8.000 F2500.000
G2 X-3.200 Y0.000 Z8.000 I-0.000 J3.200 K0.000 F2500.000
G1 X-3.200 Y600.000 Z8.000 F2500.000
G2 X0.012 Y603.200 Z8.000 I3.200 J0.000 K0.000 F2500.000
G2 X30.625 Y602.349 Z8.000 I1.119 J-510.811 K0.000 F2500.000
G2 X62.042 Y599.274 Z8.000 I-19.332 J-359.583 K0.000 F2500.000
G2 X87.880 Y594.306 Z8.000 I-34.159 J-247.326 K0.000 F2500.000
G2 X109.073 Y587.733 Z8.000 I-41.833 J-172.316 K0.000 F2500.000
G2 X128.810 Y578.377 Z8.000 I-44.565 J-119.514 K0.000 F2500.000
G2 X142.568 Y568.845 Z8.000 I-50.087 J-86.984 K0.000 F2500.000
G2 X165.756 Y540.066 Z8.000 I-58.503 J-70.869 K0.000 F2500.000
G2 X166.977 Y537.597 Z8.000 I-115.936 J-58.861 K0.000 F2500.000
G1 X167.717 Y536.031 Z7.000 F2500.000
G1 X166.977 Y537.597 Z6.000 F2500.000
G2 X175.500 Y514.524 Z6.000 I-117.157 J-56.392 K0.000 F2500.000
G2 X179.855 Y490.765 Z6.000 I-162.846 J-42.122 K0.000 F2500.000
G2 X181.251 Y465.549 Z6.000 I-261.453 J-27.126 K0.000 F2500.000
G2 X180.787 Y440.991 Z6.000 I-578.244 J-1.362 K0.000 F2500.000
G2 X178.922 Y406.556 Z6.000 I-1853.358 J83.137 K0.000 F2500.000
G3 X176.577 Y361.692 Z6.000 I1919.781 J-122.838 K0.000 F2500.000
G3 X175.664 Y309.030 Z6.000 I1011.850 J-43.871 K0.000 F2500.000
G3 X177.315 Y266.999 Z6.000 I617.338 J3.199 K0.000 F2500.000
G3 X180.992 Y234.210 Z6.000 I385.464 J26.628 K0.000 F2500.000
G3 X185.196 Y212.816 Z6.000 I244.295 J36.886 K0.000 F2500.000
G3 X190.284 Y195.447 Z6.000 I174.053 J41.562 K0.000 F2500.000
G3 X211.488 Y156.390 Z6.000 I131.986 J46.369 K0.000 F2500.000
G3 X230.278 Y135.929 Z6.000 I140.632 J110.288 K0.000 F2500.000
G3 X244.393 Y123.550 Z6.000 I250.985 J271.953 K0.000 F2500.000
G2 X257.486 Y112.745 Z6.000 I-1090.971 J-1335.364 K0.000 F2500.000
G2 X269.935 Y101.726 Z6.000 I-140.679 J-171.481 K0.000 F2500.000
G2 X282.285 Y88.180 Z6.000 I-84.702 J-89.623 K0.000 F2500.000
G2 X297.572 Y59.808 Z6.000 I-72.336 J-57.278 K0.000 F2500.000
G2 X301.996 Y40.095 Z6.000 I-106.919 J-34.349 K0.000 F2500.000
G2 X303.199 Y14.572 Z6.000 I-165.320 J-20.586 K0.000 F2500.000
G2 X285.005 Y-3.200 Z6.000 I-18.199 J0.432 K0.000 F2500.000
G1 X0.000 Y-3.200 Z6.000 F2500.000
G2 X-3.200 Y0.000 Z6.000 I-0.000 J3.200 K0.000 F2500.000
G1 X-3.200 Y600.000 Z6.000 F2500.000
G2 X0.012 Y603.200 Z6.000 I3.200 J0.000 K0.000 F2500.000
G2 X30.625 Y602.349 Z6.000 I1.119 J-510.811 K0.000 F2500.000
G2 X62.042 Y599.274 Z6.000 I-19.332 J-359.583 K0.000 F2500.000
G2 X87.880 Y594.306 Z6.000 I-34.159 J-247.326 K0.000 F2500.000
G2 X109.073 Y587.733 Z6.000 I-41.833 J-172.316 K0.000 F2500.000
G2 X128.810 Y578.377 Z6.000 I-44.565 J-119.514 K0.000 F2500.000
G2 X142.568 Y568.845 Z6.000 I-50.087 J-86.984 K0.000 F2500.000
G2 X165.756 Y540.066 Z6.000 I-58.503 J-70.869 K0.000 F2500.000
G2 X166.977 Y537.597 Z6.000 I-115.936 J-58.861 K0.000 F2500.000
G1 X167.717 Y536.031 Z5.000 F2500.000
G1 X166.977 Y537.597 Z4.000 F2500.000
G2 X175.500 Y514.524 Z4.000 I-117.157 J-56.392 K0.000 F2500.000
G2 X179.855 Y490.765 Z4.000 I-162.846 J-42.122 K0.000 F2500.000
G2 X181.251 Y465.549 Z4.000 I-261.453 J-27.126 K0.000 F2500.000
G2 X180.787 Y440.991 Z4.000 I-578.244 J-1.362 K0.000 F2500.000
G2 X178.922 Y406.556 Z4.000 I-1853.358 J83.137 K0.000 F2500.000
G3 X176.577 Y361.692 Z4.000 I1919.781 J-122.838 K0.000 F2500.000
G3 X175.664 Y309.030 Z4.000 I1011.850 J-43.871 K0.000 F2500.000
G3 X177.315 Y266.999 Z4.000 I617.338 J3.199 K0.000 F2500.000
G3 X180.992 Y234.210 Z4.000 I385.464 J26.628 K0.000 F2500.000
G3 X185.196 Y212.816 Z4.000 I244.295 J36.886 K0.000 F2500.000
G3 X190.284 Y195.447 Z4.000 I174.053 J41.562 K0.000 F2500.000
G3 X211.488 Y156.390 Z4.000 I131.986 J46.369 K0.000 F2500.000
G3 X230.278 Y135.929 Z4.000 I140.632 J110.288 K0.000 F2500.000
G3 X244.393 Y123.550 Z4.000 I250.985 J271.953 K0.000 F2500.000
G2 X257.486 Y112.745 Z4.000 I-1090.971 J-1335.364 K0.000 F2500.000
G2 X269.935 Y101.726 Z4.000 I-140.679 J-171.481 K0.000 F2500.000
G2 X282.285 Y88.180 Z4.000 I-84.702 J-89.623 K0.000 F2500.000
G2 X297.572 Y59.808 Z4.000 I-72.336 J-57.278 K0.000 F2500.000
G2 X301.996 Y40.095 Z4.000 I-106.919 J-34.349 K0.000 F2500.000
G2 X303.199 Y14.572 Z4.000 I-165.320 J-20.586 K0.000 F2500.000
G2 X285.005 Y-3.200 Z4.000 I-18.199 J0.432 K0.000 F2500.000
G1 X0.000 Y-3.200 Z4.000 F2500.000
G2 X-3.200 Y0.000 Z4.000 I-0.000 J3.200 K0.000 F2500.000
G1 X-3.200 Y600.000 Z4.000 F2500.000
G2 X0.012 Y603.200 Z4.000 I3.200 J0.000 K0.000 F2500.000
G2 X30.625 Y602.349 Z4.000 I1.119 J-510.811 K0.000 F2500.000
G2 X62.042 Y599.274 Z4.000 I-19.332 J-359.583 K0.000 F2500.000
G2 X87.880 Y594.306 Z4.000 I-34.159 J-247.326 K0.000 F2500.000
G2 X109.073 Y587.733 Z4.000 I-41.833 J-172.316 K0.000 F2500.000
G2 X128.810 Y578.377 Z4.000 I-44.565 J-119.514 K0.000 F2500.000
G2 X142.568 Y568.845 Z4.000 I-50.087 J-86.984 K0.000 F2500.000
G2 X165.756 Y540.066 Z4.000 I-58.503 J-70.869 K0.000 F2500.000
G2 X166.977 Y537.597 Z4.000 I-115.936 J-58.861 K0.000 F2500.000
G1 X167.717 Y536.031 Z3.000 F2500.000
G1 X166.977 Y537.597 Z2.000 F2500.000
G2 X175.500 Y514.524 Z2.000 I-117.157 J-56.392 K0.000 F2500.000
G2 X179.855 Y490.765 Z2.000 I-162.846 J-42.122 K0.000 F2500.000
G2 X181.251 Y465.549 Z2.000 I-261.453 J-27.126 K0.000 F2500.000
G2 X180.787 Y440.991 Z2.000 I-578.244 J-1.362 K0.000 F2500.000
G2 X178.922 Y406.556 Z2.000 I-1853.358 J83.137 K0.000 F2500.000
G3 X176.577 Y361.692 Z2.000 I1919.781 J-122.838 K0.000 F2500.000
G3 X175.664 Y309.030 Z2.000 I1011.850 J-43.871 K0.000 F2500.000
G3 X177.315 Y266.999 Z2.000 I617.338 J3.199 K0.000 F2500.000
G3 X180.992 Y234.210 Z2.000 I385.464 J26.628 K0.000 F2500.000
G3 X185.196 Y212.816 Z2.000 I244.295 J36.886 K0.000 F2500.000
G3 X190.284 Y195.447 Z2.000 I174.053 J41.562 K0.000 F2500.000
G3 X211.488 Y156.390 Z2.000 I131.986 J46.369 K0.000 F2500.000
G3 X230.278 Y135.929 Z2.000 I140.632 J110.288 K0.000 F2500.000
G3 X244.393 Y123.550 Z2.000 I250.985 J271.953 K0.000 F2500.000
G2 X257.486 Y112.745 Z2.000 I-1090.971 J-1335.364 K0.000 F2500.000
G2 X269.935 Y101.726 Z2.000 I-140.679 J-171.481 K0.000 F2500.000
G2 X282.285 Y88.180 Z2.000 I-84.702 J-89.623 K0.000 F2500.000
G2 X297.572 Y59.808 Z2.000 I-72.336 J-57.278 K0.000 F2500.000
G2 X301.996 Y40.095 Z2.000 I-106.919 J-34.349 K0.000 F2500.000
G2 X303.199 Y14.572 Z2.000 I-165.320 J-20.586 K0.000 F2500.000
G2 X285.005 Y-3.200 Z2.000 I-18.199 J0.432 K0.000 F2500.000
G1 X0.000 Y-3.200 Z2.000 F2500.000
G2 X-3.200 Y0.000 Z2.000 I-0.000 J3.200 K0.000 F2500.000
G1 X-3.200 Y600.000 Z2.000 F2500.000
G2 X0.012 Y603.200 Z2.000 I3.200 J0.000 K0.000 F2500.000
G2 X30.625 Y602.349 Z2.000 I1.119 J-510.811 K0.000 F2500.000
G2 X62.042 Y599.274 Z2.000 I-19.332 J-359.583 K0.000 F2500.000
G2 X87.880 Y594.306 Z2.000 I-34.159 J-247.326 K0.000 F2500.000
G2 X109.073 Y587.733 Z2.000 I-41.833 J-172.316 K0.000 F2500.000
G2 X128.810 Y578.377 Z2.000 I-44.565 J-119.514 K0.000 F2500.000
G2 X142.568 Y568.845 Z2.000 I-50.087 J-86.984 K0.000 F2500.000
G2 X165.756 Y540.066 Z2.000 I-58.503 J-70.869 K0.000 F2500.000
G2 X166.977 Y537.597 Z2.000 I-115.936 J-58.861 K0.000 F2500.000
G0 X166.977 Y537.597 Z42.000
(Finish operation: RampEntryDressup)
(Begin operation: RampEntryDressup001)
(Path: RampEntryDressup001)
G0 X0.000 Y0.000 Z42.000
G0 X166.815 Y537.471 Z42.000
G1 X168.113 Y534.688 Z40.230 F2500.000
G1 X169.345 Y531.877 Z38.459 F2500.000
G1 X170.509 Y529.037 Z36.685 F2500.000
G1 X171.606 Y526.172 Z34.911 F2500.000
G1 X172.634 Y523.281 Z33.137 F2500.000
G1 X173.594 Y520.366 Z31.364 F2500.000
G1 X174.486 Y517.429 Z29.592 F2500.000
G1 X175.308 Y514.470 Z27.823 F2500.000
G1 X176.022 Y511.604 Z26.117 F2500.000
G1 X176.686 Y508.725 Z24.411 F2500.000
G1 X177.300 Y505.835 Z22.706 F2500.000
G1 X177.862 Y502.935 Z21.000 F2500.000
G1 X177.300 Y505.835 Z19.294 F2500.000
G1 X176.686 Y508.725 Z17.589 F2500.000
G1 X176.022 Y511.604 Z15.883 F2500.000
G1 X175.308 Y514.470 Z14.177 F2500.000
G1 X174.486 Y517.429 Z12.408 F2500.000
G1 X173.594 Y520.366 Z10.636 F2500.000
G1 X172.634 Y523.281 Z8.863 F2500.000
G1 X171.606 Y526.172 Z7.089 F2500.000
G1 X170.509 Y529.037 Z5.315 F2500.000
G1 X169.345 Y531.877 Z3.541 F2500.000
G1 X168.113 Y534.688 Z1.770 F2500.000
G1 X166.815 Y537.471 Z0.000 F2500.000
G2 X175.308 Y514.470 Z0.000 I-116.999 J-56.268 K0.000 F2500.000
G2 X179.656 Y490.741 Z0.000 I-162.658 J-42.069 K0.000 F2500.000
G2 X181.051 Y465.546 Z0.000 I-261.272 J-27.103 K0.000 F2500.000
G2 X180.587 Y440.998 Z0.000 I-578.103 J-1.357 K0.000 F2500.000
G2 X178.722 Y406.568 Z0.000 I-1853.321 J83.140 K0.000 F2500.000
G3 X177.712 Y389.613 Z0.000 I1919.951 J-122.849 K0.000 F2500.000
G1 X177.603 Y387.616 Z2.000 F2500.000
G3 X177.240 Y380.665 Z2.000 I1921.070 J-103.897 K0.000 F2500.000
G1 X177.140 Y378.668 Z0.000 F2500.000
G3 X176.377 Y361.700 Z0.000 I1921.533 J-94.949 K0.000 F2500.000
G3 X175.464 Y309.029 Z0.000 I1012.046 J-43.879 K0.000 F2500.000
G3 X177.116 Y266.984 Z0.000 I617.536 J3.201 K0.000 F2500.000
G3 X180.795 Y234.179 Z0.000 I385.662 J26.642 K0.000 F2500.000
G3 X185.001 Y212.769 Z0.000 I244.490 J36.916 K0.000 F2500.000
G3 X190.095 Y195.380 Z0.000 I174.247 J41.609 K0.000 F2500.000
G3 X211.329 Y156.268 Z0.000 I132.175 J46.436 K0.000 F2500.000
G3 X230.141 Y135.783 Z0.000 I140.790 J110.410 K0.000 F2500.000
G3 X244.265 Y123.396 Z0.000 I251.123 J272.100 K0.000 F2500.000
G2 X257.358 Y112.592 Z0.000 I-1091.013 J-1335.416 K0.000 F2500.000
G2 X269.798 Y101.581 Z0.000 I-140.553 J-171.330 K0.000 F2500.000
G2 X282.129 Y88.054 Z0.000 I-84.562 J-89.474 K0.000 F2500.000
G2 X297.382 Y59.743 Z0.000 I-72.180 J-57.153 K0.000 F2500.000
G2 X301.798 Y40.066 Z0.000 I-106.733 J-34.284 K0.000 F2500.000
G2 X302.540 Y32.813 Z0.000 I-165.131 J-20.557 K0.000 F2500.000
G1 X302.688 Y30.818 Z2.000 F2500.000
G2 X303.016 Y23.866 Z2.000 I-166.021 J-11.309 K0.000 F2500.000
G1 X303.056 Y21.866 Z0.000 F2500.000
G2 X302.999 Y14.575 Z0.000 I-166.389 J-2.357 K0.000 F2500.000
G2 X285.005 Y-3.000 Z0.000 I-17.999 J0.428 K0.000 F2500.000
G1 X0.000 Y-3.000 Z0.000 F2500.000
G2 X-3.000 Y0.000 Z0.000 I0.000 J3.000 K0.000 F2500.000
G1 X-3.000 Y144.520 Z0.000 F2500.000
G1 X-3.000 Y146.520 Z2.000 F2500.000
G1 X-3.000 Y153.480 Z2.000 F2500.000
G1 X-3.000 Y155.480 Z0.000 F2500.000
G1 X-3.000 Y444.520 Z0.000 F2500.000
G1 X-3.000 Y446.520 Z2.000 F2500.000
G1 X-3.000 Y453.480 Z2.000 F2500.000
G1 X-3.000 Y455.480 Z0.000 F2500.000
G1 X-3.000 Y600.000 Z0.000 F2500.000
G2 X0.011 Y603.000 Z0.000 I3.000 J0.000 K0.000 F2500.000
G2 X30.615 Y602.149 Z0.000 I1.120 J-510.611 K0.000 F2500.000
G2 X62.015 Y599.076 Z0.000 I-19.321 J-359.380 K0.000 F2500.000
G2 X87.833 Y594.112 Z0.000 I-34.132 J-247.124 K0.000 F2500.000
G2 X109.003 Y587.545 Z0.000 I-41.786 J-172.118 K0.000 F2500.000
G2 X128.711 Y578.203 Z0.000 I-44.495 J-119.325 K0.000 F2500.000
G2 X142.442 Y568.689 Z0.000 I-49.984 J-86.806 K0.000 F2500.000
G2 X165.580 Y539.971 Z0.000 I-58.378 J-70.714 K0.000 F2500.000
G2 X166.815 Y537.471 Z0.000 I-115.763 J-58.768 K0.000 F2500.000
G0 X166.815 Y537.471 Z42.000
(Finish operation: RampEntryDressup001)
(Begin postamble)
M5
G17 G90
M2
