(Exported by FreeCAD)
(Post Processor: grbl_post)
(Output Time:2025-07-11 20:31:18.764099)
(Begin preamble)
G17 G90
G21
(Begin operation: TC: D6.0-L42 Endmill Corn Bit)
(Path: TC: D6.0-L42 Endmill Corn Bit)
(TC: D6.0-L42 Endmill Corn Bit)
(Begin toolchange)
( M6 T3 )
M3 S24000
(Finish operation: TC: D6.0-L42 Endmill Corn Bit)
(Begin operation: Fixture)
(Path: Fixture)
G54
(Finish operation: Fixture)
(Begin operation: RampEntryDressup)
(Path: RampEntryDressup)
G0 X0.000 Y0.000 Z42.000
G0 X177.838 Y544.942 Z42.000
G1 X178.549 Y543.362 Z41.000 F2500.000
G1 X179.222 Y541.766 Z40.000 F2500.000
G1 X179.856 Y540.154 Z39.000 F2500.000
G1 X179.222 Y541.766 Z38.000 F2500.000
G1 X178.549 Y543.362 Z37.000 F2500.000
G1 X177.838 Y544.942 Z36.000 F2500.000
G2 X181.070 Y536.686 Z36.000 I-65.057 J-30.228 K0.000 F2500.000
G2 X185.003 Y518.219 Z36.000 I-96.871 J-30.280 K0.000 F2500.000
G2 X186.021 Y497.900 Z36.000 I-172.001 J-18.807 K0.000 F2500.000
G2 X184.436 Y469.919 Z36.000 I-322.567 J4.239 K0.000 F2500.000
G2 X179.451 Y434.190 Z36.000 I-562.831 J60.312 K0.000 F2500.000
G2 X170.327 Y386.568 Z36.000 I-1526.940 J267.879 K0.000 F2500.000
G3 X164.933 Y359.606 Z36.000 I2077.347 J-429.602 K0.000 F2500.000
G3 X159.134 Y326.954 Z36.000 I805.748 J-159.949 K0.000 F2500.000
G3 X155.322 Y294.732 Z36.000 I382.125 J-61.539 K0.000 F2500.000
G3 X154.792 Y258.214 Z36.000 I279.285 J-22.320 K0.000 F2500.000
G3 X158.569 Y227.706 Z36.000 I198.397 J9.079 K0.000 F2500.000
G3 X165.878 Y202.898 Z36.000 I138.669 J27.375 K0.000 F2500.000
G3 X173.176 Y187.892 Z36.000 I97.732 J38.252 K0.000 F2500.000
G3 X189.260 Y167.623 Z36.000 I79.008 J46.178 K0.000 F2500.000
G3 X205.360 Y154.872 Z36.000 I88.203 J94.831 K0.000 F2500.000
G3 X223.768 Y143.667 Z36.000 I164.932 J250.236 K0.000 F2500.000
G2 X238.351 Y135.548 Z36.000 I-784.079 J-1425.471 K0.000 F2500.000
G2 X253.347 Y126.552 Z36.000 I-120.681 J-218.183 K0.000 F2500.000
G2 X265.598 Y117.574 Z36.000 I-64.346 J-100.644 K0.000 F2500.000
G2 X287.754 Y90.610 Z36.000 I-58.692 J-70.811 K0.000 F2500.000
G2 X296.362 Y69.443 Z36.000 I-98.805 J-52.512 K0.000 F2500.000
G2 X301.201 Y46.123 Z36.000 I-155.609 J-44.456 K0.000 F2500.000
G2 X303.200 Y9.909 Z36.000 I-260.378 J-32.533 K0.000 F2500.000
G2 X290.000 Y-3.200 Z36.000 I-13.205 J0.097 K0.000 F2500.000
G1 X0.000 Y-3.200 Z36.000 F2500.000
G2 X-3.200 Y0.000 Z36.000 I-0.000 J3.200 K0.000 F2500.000
G1 X-3.200 Y600.000 Z36.000 F2500.000
G2 X0.009 Y603.200 Z36.000 I3.200 J-0.000 K0.000 F2500.000
G2 X36.259 Y602.359 Z36.000 I1.585 J-713.570 K0.000 F2500.000
G2 X72.362 Y599.359 Z36.000 I-20.771 J-468.630 K0.000 F2500.000
G2 X100.960 Y594.589 Z36.000 I-34.931 J-297.571 K0.000 F2500.000
G2 X123.522 Y588.387 Z36.000 I-40.210 J-190.404 K0.000 F2500.000
G2 X141.265 Y580.973 Z36.000 I-41.547 J-124.364 K0.000 F2500.000
G2 X157.140 Y570.936 Z36.000 I-41.066 J-82.530 K0.000 F2500.000
G2 X170.320 Y557.556 Z36.000 I-43.487 J-56.017 K0.000 F2500.000
G2 X177.838 Y544.942 Z36.000 I-57.538 J-42.842 K0.000 F2500.000
G1 X178.549 Y543.362 Z35.000 F2500.000
G1 X177.838 Y544.942 Z34.000 F2500.000
G2 X181.070 Y536.686 Z34.000 I-65.057 J-30.228 K0.000 F2500.000
G2 X185.003 Y518.219 Z34.000 I-96.871 J-30.280 K0.000 F2500.000
G2 X186.021 Y497.900 Z34.000 I-172.001 J-18.807 K0.000 F2500.000
G2 X184.436 Y469.919 Z34.000 I-322.567 J4.239 K0.000 F2500.000
G2 X179.451 Y434.190 Z34.000 I-562.831 J60.312 K0.000 F2500.000
G2 X170.327 Y386.568 Z34.000 I-1526.940 J267.879 K0.000 F2500.000
G3 X164.933 Y359.606 Z34.000 I2077.347 J-429.602 K0.000 F2500.000
G3 X159.134 Y326.954 Z34.000 I805.748 J-159.949 K0.000 F2500.000
G3 X155.322 Y294.732 Z34.000 I382.125 J-61.539 K0.000 F2500.000
G3 X154.792 Y258.214 Z34.000 I279.285 J-22.320 K0.000 F2500.000
G3 X158.569 Y227.706 Z34.000 I198.397 J9.079 K0.000 F2500.000
G3 X165.878 Y202.898 Z34.000 I138.669 J27.375 K0.000 F2500.000
G3 X173.176 Y187.892 Z34.000 I97.732 J38.252 K0.000 F2500.000
G3 X189.260 Y167.623 Z34.000 I79.008 J46.178 K0.000 F2500.000
G3 X205.360 Y154.872 Z34.000 I88.203 J94.831 K0.000 F2500.000
G3 X223.768 Y143.667 Z34.000 I164.932 J250.236 K0.000 F2500.000
G2 X238.351 Y135.548 Z34.000 I-784.079 J-1425.471 K0.000 F2500.000
G2 X253.347 Y126.552 Z34.000 I-120.681 J-218.183 K0.000 F2500.000
G2 X265.598 Y117.574 Z34.000 I-64.346 J-100.644 K0.000 F2500.000
G2 X287.754 Y90.610 Z34.000 I-58.692 J-70.811 K0.000 F2500.000
G2 X296.362 Y69.443 Z34.000 I-98.805 J-52.512 K0.000 F2500.000
G2 X301.201 Y46.123 Z34.000 I-155.609 J-44.456 K0.000 F2500.000
G2 X303.200 Y9.909 Z34.000 I-260.378 J-32.533 K0.000 F2500.000
G2 X290.000 Y-3.200 Z34.000 I-13.205 J0.097 K0.000 F2500.000
G1 X0.000 Y-3.200 Z34.000 F2500.000
G2 X-3.200 Y0.000 Z34.000 I-0.000 J3.200 K0.000 F2500.000
G1 X-3.200 Y600.000 Z34.000 F2500.000
G2 X0.009 Y603.200 Z34.000 I3.200 J-0.000 K0.000 F2500.000
G2 X36.259 Y602.359 Z34.000 I1.585 J-713.570 K0.000 F2500.000
G2 X72.362 Y599.359 Z34.000 I-20.771 J-468.630 K0.000 F2500.000
G2 X100.960 Y594.589 Z34.000 I-34.931 J-297.571 K0.000 F2500.000
G2 X123.522 Y588.387 Z34.000 I-40.210 J-190.404 K0.000 F2500.000
G2 X141.265 Y580.973 Z34.000 I-41.547 J-124.364 K0.000 F2500.000
G2 X157.140 Y570.936 Z34.000 I-41.066 J-82.530 K0.000 F2500.000
G2 X170.320 Y557.556 Z34.000 I-43.487 J-56.017 K0.000 F2500.000
G2 X177.838 Y544.942 Z34.000 I-57.538 J-42.842 K0.000 F2500.000
G1 X178.549 Y543.362 Z33.000 F2500.000
G1 X177.838 Y544.942 Z32.000 F2500.000
G2 X181.070 Y536.686 Z32.000 I-65.057 J-30.228 K0.000 F2500.000
G2 X185.003 Y518.219 Z32.000 I-96.871 J-30.280 K0.000 F2500.000
G2 X186.021 Y497.900 Z32.000 I-172.001 J-18.807 K0.000 F2500.000
G2 X184.436 Y469.919 Z32.000 I-322.567 J4.239 K0.000 F2500.000
G2 X179.451 Y434.190 Z32.000 I-562.831 J60.312 K0.000 F2500.000
G2 X170.327 Y386.568 Z32.000 I-1526.940 J267.879 K0.000 F2500.000
G3 X164.933 Y359.606 Z32.000 I2077.347 J-429.602 K0.000 F2500.000
G3 X159.134 Y326.954 Z32.000 I805.748 J-159.949 K0.000 F2500.000
G3 X155.322 Y294.732 Z32.000 I382.125 J-61.539 K0.000 F2500.000
G3 X154.792 Y258.214 Z32.000 I279.285 J-22.320 K0.000 F2500.000
G3 X158.569 Y227.706 Z32.000 I198.397 J9.079 K0.000 F2500.000
G3 X165.878 Y202.898 Z32.000 I138.669 J27.375 K0.000 F2500.000
G3 X173.176 Y187.892 Z32.000 I97.732 J38.252 K0.000 F2500.000
G3 X189.260 Y167.623 Z32.000 I79.008 J46.178 K0.000 F2500.000
G3 X205.360 Y154.872 Z32.000 I88.203 J94.831 K0.000 F2500.000
G3 X223.768 Y143.667 Z32.000 I164.932 J250.236 K0.000 F2500.000
G2 X238.351 Y135.548 Z32.000 I-784.079 J-1425.471 K0.000 F2500.000
G2 X253.347 Y126.552 Z32.000 I-120.681 J-218.183 K0.000 F2500.000
G2 X265.598 Y117.574 Z32.000 I-64.346 J-100.644 K0.000 F2500.000
G2 X287.754 Y90.610 Z32.000 I-58.692 J-70.811 K0.000 F2500.000
G2 X296.362 Y69.443 Z32.000 I-98.805 J-52.512 K0.000 F2500.000
G2 X301.201 Y46.123 Z32.000 I-155.609 J-44.456 K0.000 F2500.000
G2 X303.200 Y9.909 Z32.000 I-260.378 J-32.533 K0.000 F2500.000
G2 X290.000 Y-3.200 Z32.000 I-13.205 J0.097 K0.000 F2500.000
G1 X0.000 Y-3.200 Z32.000 F2500.000
G2 X-3.200 Y0.000 Z32.000 I-0.000 J3.200 K0.000 F2500.000
G1 X-3.200 Y600.000 Z32.000 F2500.000
G2 X0.009 Y603.200 Z32.000 I3.200 J-0.000 K0.000 F2500.000
G2 X36.259 Y602.359 Z32.000 I1.585 J-713.570 K0.000 F2500.000
G2 X72.362 Y599.359 Z32.000 I-20.771 J-468.630 K0.000 F2500.000
G2 X100.960 Y594.589 Z32.000 I-34.931 J-297.571 K0.000 F2500.000
G2 X123.522 Y588.387 Z32.000 I-40.210 J-190.404 K0.000 F2500.000
G2 X141.265 Y580.973 Z32.000 I-41.547 J-124.364 K0.000 F2500.000
G2 X157.140 Y570.936 Z32.000 I-41.066 J-82.530 K0.000 F2500.000
G2 X170.320 Y557.556 Z32.000 I-43.487 J-56.017 K0.000 F2500.000
G2 X177.838 Y544.942 Z32.000 I-57.538 J-42.842 K0.000 F2500.000
G1 X178.549 Y543.362 Z31.000 F2500.000
G1 X177.838 Y544.942 Z30.000 F2500.000
G2 X181.070 Y536.686 Z30.000 I-65.057 J-30.228 K0.000 F2500.000
G2 X185.003 Y518.219 Z30.000 I-96.871 J-30.280 K0.000 F2500.000
G2 X186.021 Y497.900 Z30.000 I-172.001 J-18.807 K0.000 F2500.000
G2 X184.436 Y469.919 Z30.000 I-322.567 J4.239 K0.000 F2500.000
G2 X179.451 Y434.190 Z30.000 I-562.831 J60.312 K0.000 F2500.000
G2 X170.327 Y386.568 Z30.000 I-1526.940 J267.879 K0.000 F2500.000
G3 X164.933 Y359.606 Z30.000 I2077.347 J-429.602 K0.000 F2500.000
G3 X159.134 Y326.954 Z30.000 I805.748 J-159.949 K0.000 F2500.000
G3 X155.322 Y294.732 Z30.000 I382.125 J-61.539 K0.000 F2500.000
G3 X154.792 Y258.214 Z30.000 I279.285 J-22.320 K0.000 F2500.000
G3 X158.569 Y227.706 Z30.000 I198.397 J9.079 K0.000 F2500.000
G3 X165.878 Y202.898 Z30.000 I138.669 J27.375 K0.000 F2500.000
G3 X173.176 Y187.892 Z30.000 I97.732 J38.252 K0.000 F2500.000
G3 X189.260 Y167.623 Z30.000 I79.008 J46.178 K0.000 F2500.000
G3 X205.360 Y154.872 Z30.000 I88.203 J94.831 K0.000 F2500.000
G3 X223.768 Y143.667 Z30.000 I164.932 J250.236 K0.000 F2500.000
G2 X238.351 Y135.548 Z30.000 I-784.079 J-1425.471 K0.000 F2500.000
G2 X253.347 Y126.552 Z30.000 I-120.681 J-218.183 K0.000 F2500.000
G2 X265.598 Y117.574 Z30.000 I-64.346 J-100.644 K0.000 F2500.000
G2 X287.754 Y90.610 Z30.000 I-58.692 J-70.811 K0.000 F2500.000
G2 X296.362 Y69.443 Z30.000 I-98.805 J-52.512 K0.000 F2500.000
G2 X301.201 Y46.123 Z30.000 I-155.609 J-44.456 K0.000 F2500.000
G2 X303.200 Y9.909 Z30.000 I-260.378 J-32.533 K0.000 F2500.000
G2 X290.000 Y-3.200 Z30.000 I-13.205 J0.097 K0.000 F2500.000
G1 X0.000 Y-3.200 Z30.000 F2500.000
G2 X-3.200 Y0.000 Z30.000 I-0.000 J3.200 K0.000 F2500.000
G1 X-3.200 Y600.000 Z30.000 F2500.000
G2 X0.009 Y603.200 Z30.000 I3.200 J-0.000 K0.000 F2500.000
G2 X36.259 Y602.359 Z30.000 I1.585 J-713.570 K0.000 F2500.000
G2 X72.362 Y599.359 Z30.000 I-20.771 J-468.630 K0.000 F2500.000
G2 X100.960 Y594.589 Z30.000 I-34.931 J-297.571 K0.000 F2500.000
G2 X123.522 Y588.387 Z30.000 I-40.210 J-190.404 K0.000 F2500.000
G2 X141.265 Y580.973 Z30.000 I-41.547 J-124.364 K0.000 F2500.000
G2 X157.140 Y570.936 Z30.000 I-41.066 J-82.530 K0.000 F2500.000
G2 X170.320 Y557.556 Z30.000 I-43.487 J-56.017 K0.000 F2500.000
G2 X177.838 Y544.942 Z30.000 I-57.538 J-42.842 K0.000 F2500.000
G1 X178.549 Y543.362 Z29.000 F2500.000
G1 X177.838 Y544.942 Z28.000 F2500.000
G2 X181.070 Y536.686 Z28.000 I-65.057 J-30.228 K0.000 F2500.000
G2 X185.003 Y518.219 Z28.000 I-96.871 J-30.280 K0.000 F2500.000
G2 X186.021 Y497.900 Z28.000 I-172.001 J-18.807 K0.000 F2500.000
G2 X184.436 Y469.919 Z28.000 I-322.567 J4.239 K0.000 F2500.000
G2 X179.451 Y434.190 Z28.000 I-562.831 J60.312 K0.000 F2500.000
G2 X170.327 Y386.568 Z28.000 I-1526.940 J267.879 K0.000 F2500.000
G3 X164.933 Y359.606 Z28.000 I2077.347 J-429.602 K0.000 F2500.000
G3 X159.134 Y326.954 Z28.000 I805.748 J-159.949 K0.000 F2500.000
G3 X155.322 Y294.732 Z28.000 I382.125 J-61.539 K0.000 F2500.000
G3 X154.792 Y258.214 Z28.000 I279.285 J-22.320 K0.000 F2500.000
G3 X158.569 Y227.706 Z28.000 I198.397 J9.079 K0.000 F2500.000
G3 X165.878 Y202.898 Z28.000 I138.669 J27.375 K0.000 F2500.000
G3 X173.176 Y187.892 Z28.000 I97.732 J38.252 K0.000 F2500.000
G3 X189.260 Y167.623 Z28.000 I79.008 J46.178 K0.000 F2500.000
G3 X205.360 Y154.872 Z28.000 I88.203 J94.831 K0.000 F2500.000
G3 X223.768 Y143.667 Z28.000 I164.932 J250.236 K0.000 F2500.000
G2 X238.351 Y135.548 Z28.000 I-784.079 J-1425.471 K0.000 F2500.000
G2 X253.347 Y126.552 Z28.000 I-120.681 J-218.183 K0.000 F2500.000
G2 X265.598 Y117.574 Z28.000 I-64.346 J-100.644 K0.000 F2500.000
G2 X287.754 Y90.610 Z28.000 I-58.692 J-70.811 K0.000 F2500.000
G2 X296.362 Y69.443 Z28.000 I-98.805 J-52.512 K0.000 F2500.000
G2 X301.201 Y46.123 Z28.000 I-155.609 J-44.456 K0.000 F2500.000
G2 X303.200 Y9.909 Z28.000 I-260.378 J-32.533 K0.000 F2500.000
G2 X290.000 Y-3.200 Z28.000 I-13.205 J0.097 K0.000 F2500.000
G1 X0.000 Y-3.200 Z28.000 F2500.000
G2 X-3.200 Y0.000 Z28.000 I-0.000 J3.200 K0.000 F2500.000
G1 X-3.200 Y600.000 Z28.000 F2500.000
G2 X0.009 Y603.200 Z28.000 I3.200 J-0.000 K0.000 F2500.000
G2 X36.259 Y602.359 Z28.000 I1.585 J-713.570 K0.000 F2500.000
G2 X72.362 Y599.359 Z28.000 I-20.771 J-468.630 K0.000 F2500.000
G2 X100.960 Y594.589 Z28.000 I-34.931 J-297.571 K0.000 F2500.000
G2 X123.522 Y588.387 Z28.000 I-40.210 J-190.404 K0.000 F2500.000
G2 X141.265 Y580.973 Z28.000 I-41.547 J-124.364 K0.000 F2500.000
G2 X157.140 Y570.936 Z28.000 I-41.066 J-82.530 K0.000 F2500.000
G2 X170.320 Y557.556 Z28.000 I-43.487 J-56.017 K0.000 F2500.000
G2 X177.838 Y544.942 Z28.000 I-57.538 J-42.842 K0.000 F2500.000
G1 X178.549 Y543.362 Z27.000 F2500.000
G1 X177.838 Y544.942 Z26.000 F2500.000
G2 X181.070 Y536.686 Z26.000 I-65.057 J-30.228 K0.000 F2500.000
G2 X185.003 Y518.219 Z26.000 I-96.871 J-30.280 K0.000 F2500.000
G2 X186.021 Y497.900 Z26.000 I-172.001 J-18.807 K0.000 F2500.000
G2 X184.436 Y469.919 Z26.000 I-322.567 J4.239 K0.000 F2500.000
G2 X179.451 Y434.190 Z26.000 I-562.831 J60.312 K0.000 F2500.000
G2 X170.327 Y386.568 Z26.000 I-1526.940 J267.879 K0.000 F2500.000
G3 X164.933 Y359.606 Z26.000 I2077.347 J-429.602 K0.000 F2500.000
G3 X159.134 Y326.954 Z26.000 I805.748 J-159.949 K0.000 F2500.000
G3 X155.322 Y294.732 Z26.000 I382.125 J-61.539 K0.000 F2500.000
G3 X154.792 Y258.214 Z26.000 I279.285 J-22.320 K0.000 F2500.000
G3 X158.569 Y227.706 Z26.000 I198.397 J9.079 K0.000 F2500.000
G3 X165.878 Y202.898 Z26.000 I138.669 J27.375 K0.000 F2500.000
G3 X173.176 Y187.892 Z26.000 I97.732 J38.252 K0.000 F2500.000
G3 X189.260 Y167.623 Z26.000 I79.008 J46.178 K0.000 F2500.000
G3 X205.360 Y154.872 Z26.000 I88.203 J94.831 K0.000 F2500.000
G3 X223.768 Y143.667 Z26.000 I164.932 J250.236 K0.000 F2500.000
G2 X238.351 Y135.548 Z26.000 I-784.079 J-1425.471 K0.000 F2500.000
G2 X253.347 Y126.552 Z26.000 I-120.681 J-218.183 K0.000 F2500.000
G2 X265.598 Y117.574 Z26.000 I-64.346 J-100.644 K0.000 F2500.000
G2 X287.754 Y90.610 Z26.000 I-58.692 J-70.811 K0.000 F2500.000
G2 X296.362 Y69.443 Z26.000 I-98.805 J-52.512 K0.000 F2500.000
G2 X301.201 Y46.123 Z26.000 I-155.609 J-44.456 K0.000 F2500.000
G2 X303.200 Y9.909 Z26.000 I-260.378 J-32.533 K0.000 F2500.000
G2 X290.000 Y-3.200 Z26.000 I-13.205 J0.097 K0.000 F2500.000
G1 X0.000 Y-3.200 Z26.000 F2500.000
G2 X-3.200 Y0.000 Z26.000 I-0.000 J3.200 K0.000 F2500.000
G1 X-3.200 Y600.000 Z26.000 F2500.000
G2 X0.009 Y603.200 Z26.000 I3.200 J-0.000 K0.000 F2500.000
G2 X36.259 Y602.359 Z26.000 I1.585 J-713.570 K0.000 F2500.000
G2 X72.362 Y599.359 Z26.000 I-20.771 J-468.630 K0.000 F2500.000
G2 X100.960 Y594.589 Z26.000 I-34.931 J-297.571 K0.000 F2500.000
G2 X123.522 Y588.387 Z26.000 I-40.210 J-190.404 K0.000 F2500.000
G2 X141.265 Y580.973 Z26.000 I-41.547 J-124.364 K0.000 F2500.000
G2 X157.140 Y570.936 Z26.000 I-41.066 J-82.530 K0.000 F2500.000
G2 X170.320 Y557.556 Z26.000 I-43.487 J-56.017 K0.000 F2500.000
G2 X177.838 Y544.942 Z26.000 I-57.538 J-42.842 K0.000 F2500.000
G1 X178.549 Y543.362 Z25.000 F2500.000
G1 X177.838 Y544.942 Z24.000 F2500.000
G2 X181.070 Y536.686 Z24.000 I-65.057 J-30.228 K0.000 F2500.000
G2 X185.003 Y518.219 Z24.000 I-96.871 J-30.280 K0.000 F2500.000
G2 X186.021 Y497.900 Z24.000 I-172.001 J-18.807 K0.000 F2500.000
G2 X184.436 Y469.919 Z24.000 I-322.567 J4.239 K0.000 F2500.000
G2 X179.451 Y434.190 Z24.000 I-562.831 J60.312 K0.000 F2500.000
G2 X170.327 Y386.568 Z24.000 I-1526.940 J267.879 K0.000 F2500.000
G3 X164.933 Y359.606 Z24.000 I2077.347 J-429.602 K0.000 F2500.000
G3 X159.134 Y326.954 Z24.000 I805.748 J-159.949 K0.000 F2500.000
G3 X155.322 Y294.732 Z24.000 I382.125 J-61.539 K0.000 F2500.000
G3 X154.792 Y258.214 Z24.000 I279.285 J-22.320 K0.000 F2500.000
G3 X158.569 Y227.706 Z24.000 I198.397 J9.079 K0.000 F2500.000
G3 X165.878 Y202.898 Z24.000 I138.669 J27.375 K0.000 F2500.000
G3 X173.176 Y187.892 Z24.000 I97.732 J38.252 K0.000 F2500.000
G3 X189.260 Y167.623 Z24.000 I79.008 J46.178 K0.000 F2500.000
G3 X205.360 Y154.872 Z24.000 I88.203 J94.831 K0.000 F2500.000
G3 X223.768 Y143.667 Z24.000 I164.932 J250.236 K0.000 F2500.000
G2 X238.351 Y135.548 Z24.000 I-784.079 J-1425.471 K0.000 F2500.000
G2 X253.347 Y126.552 Z24.000 I-120.681 J-218.183 K0.000 F2500.000
G2 X265.598 Y117.574 Z24.000 I-64.346 J-100.644 K0.000 F2500.000
G2 X287.754 Y90.610 Z24.000 I-58.692 J-70.811 K0.000 F2500.000
G2 X296.362 Y69.443 Z24.000 I-98.805 J-52.512 K0.000 F2500.000
G2 X301.201 Y46.123 Z24.000 I-155.609 J-44.456 K0.000 F2500.000
G2 X303.200 Y9.909 Z24.000 I-260.378 J-32.533 K0.000 F2500.000
G2 X290.000 Y-3.200 Z24.000 I-13.205 J0.097 K0.000 F2500.000
G1 X0.000 Y-3.200 Z24.000 F2500.000
G2 X-3.200 Y0.000 Z24.000 I-0.000 J3.200 K0.000 F2500.000
G1 X-3.200 Y600.000 Z24.000 F2500.000
G2 X0.009 Y603.200 Z24.000 I3.200 J-0.000 K0.000 F2500.000
G2 X36.259 Y602.359 Z24.000 I1.585 J-713.570 K0.000 F2500.000
G2 X72.362 Y599.359 Z24.000 I-20.771 J-468.630 K0.000 F2500.000
G2 X100.960 Y594.589 Z24.000 I-34.931 J-297.571 K0.000 F2500.000
G2 X123.522 Y588.387 Z24.000 I-40.210 J-190.404 K0.000 F2500.000
G2 X141.265 Y580.973 Z24.000 I-41.547 J-124.364 K0.000 F2500.000
G2 X157.140 Y570.936 Z24.000 I-41.066 J-82.530 K0.000 F2500.000
G2 X170.320 Y557.556 Z24.000 I-43.487 J-56.017 K0.000 F2500.000
G2 X177.838 Y544.942 Z24.000 I-57.538 J-42.842 K0.000 F2500.000
G1 X178.549 Y543.362 Z23.000 F2500.000
G1 X177.838 Y544.942 Z22.000 F2500.000
G2 X181.070 Y536.686 Z22.000 I-65.057 J-30.228 K0.000 F2500.000
G2 X185.003 Y518.219 Z22.000 I-96.871 J-30.280 K0.000 F2500.000
G2 X186.021 Y497.900 Z22.000 I-172.001 J-18.807 K0.000 F2500.000
G2 X184.436 Y469.919 Z22.000 I-322.567 J4.239 K0.000 F2500.000
G2 X179.451 Y434.190 Z22.000 I-562.831 J60.312 K0.000 F2500.000
G2 X170.327 Y386.568 Z22.000 I-1526.940 J267.879 K0.000 F2500.000
G3 X164.933 Y359.606 Z22.000 I2077.347 J-429.602 K0.000 F2500.000
G3 X159.134 Y326.954 Z22.000 I805.748 J-159.949 K0.000 F2500.000
G3 X155.322 Y294.732 Z22.000 I382.125 J-61.539 K0.000 F2500.000
G3 X154.792 Y258.214 Z22.000 I279.285 J-22.320 K0.000 F2500.000
G3 X158.569 Y227.706 Z22.000 I198.397 J9.079 K0.000 F2500.000
G3 X165.878 Y202.898 Z22.000 I138.669 J27.375 K0.000 F2500.000
G3 X173.176 Y187.892 Z22.000 I97.732 J38.252 K0.000 F2500.000
G3 X189.260 Y167.623 Z22.000 I79.008 J46.178 K0.000 F2500.000
G3 X205.360 Y154.872 Z22.000 I88.203 J94.831 K0.000 F2500.000
G3 X223.768 Y143.667 Z22.000 I164.932 J250.236 K0.000 F2500.000
G2 X238.351 Y135.548 Z22.000 I-784.079 J-1425.471 K0.000 F2500.000
G2 X253.347 Y126.552 Z22.000 I-120.681 J-218.183 K0.000 F2500.000
G2 X265.598 Y117.574 Z22.000 I-64.346 J-100.644 K0.000 F2500.000
G2 X287.754 Y90.610 Z22.000 I-58.692 J-70.811 K0.000 F2500.000
G2 X296.362 Y69.443 Z22.000 I-98.805 J-52.512 K0.000 F2500.000
G2 X301.201 Y46.123 Z22.000 I-155.609 J-44.456 K0.000 F2500.000
G2 X303.200 Y9.909 Z22.000 I-260.378 J-32.533 K0.000 F2500.000
G2 X290.000 Y-3.200 Z22.000 I-13.205 J0.097 K0.000 F2500.000
G1 X0.000 Y-3.200 Z22.000 F2500.000
G2 X-3.200 Y0.000 Z22.000 I-0.000 J3.200 K0.000 F2500.000
G1 X-3.200 Y600.000 Z22.000 F2500.000
G2 X0.009 Y603.200 Z22.000 I3.200 J-0.000 K0.000 F2500.000
G2 X36.259 Y602.359 Z22.000 I1.585 J-713.570 K0.000 F2500.000
G2 X72.362 Y599.359 Z22.000 I-20.771 J-468.630 K0.000 F2500.000
G2 X100.960 Y594.589 Z22.000 I-34.931 J-297.571 K0.000 F2500.000
G2 X123.522 Y588.387 Z22.000 I-40.210 J-190.404 K0.000 F2500.000
G2 X141.265 Y580.973 Z22.000 I-41.547 J-124.364 K0.000 F2500.000
G2 X157.140 Y570.936 Z22.000 I-41.066 J-82.530 K0.000 F2500.000
G2 X170.320 Y557.556 Z22.000 I-43.487 J-56.017 K0.000 F2500.000
G2 X177.838 Y544.942 Z22.000 I-57.538 J-42.842 K0.000 F2500.000
G1 X178.549 Y543.362 Z21.000 F2500.000
G1 X177.838 Y544.942 Z20.000 F2500.000
G2 X181.070 Y536.686 Z20.000 I-65.057 J-30.228 K0.000 F2500.000
G2 X185.003 Y518.219 Z20.000 I-96.871 J-30.280 K0.000 F2500.000
G2 X186.021 Y497.900 Z20.000 I-172.001 J-18.807 K0.000 F2500.000
G2 X184.436 Y469.919 Z20.000 I-322.567 J4.239 K0.000 F2500.000
G2 X179.451 Y434.190 Z20.000 I-562.831 J60.312 K0.000 F2500.000
G2 X170.327 Y386.568 Z20.000 I-1526.940 J267.879 K0.000 F2500.000
G3 X164.933 Y359.606 Z20.000 I2077.347 J-429.602 K0.000 F2500.000
G3 X159.134 Y326.954 Z20.000 I805.748 J-159.949 K0.000 F2500.000
G3 X155.322 Y294.732 Z20.000 I382.125 J-61.539 K0.000 F2500.000
G3 X154.792 Y258.214 Z20.000 I279.285 J-22.320 K0.000 F2500.000
G3 X158.569 Y227.706 Z20.000 I198.397 J9.079 K0.000 F2500.000
G3 X165.878 Y202.898 Z20.000 I138.669 J27.375 K0.000 F2500.000
G3 X173.176 Y187.892 Z20.000 I97.732 J38.252 K0.000 F2500.000
G3 X189.260 Y167.623 Z20.000 I79.008 J46.178 K0.000 F2500.000
G3 X205.360 Y154.872 Z20.000 I88.203 J94.831 K0.000 F2500.000
G3 X223.768 Y143.667 Z20.000 I164.932 J250.236 K0.000 F2500.000
G2 X238.351 Y135.548 Z20.000 I-784.079 J-1425.471 K0.000 F2500.000
G2 X253.347 Y126.552 Z20.000 I-120.681 J-218.183 K0.000 F2500.000
G2 X265.598 Y117.574 Z20.000 I-64.346 J-100.644 K0.000 F2500.000
G2 X287.754 Y90.610 Z20.000 I-58.692 J-70.811 K0.000 F2500.000
G2 X296.362 Y69.443 Z20.000 I-98.805 J-52.512 K0.000 F2500.000
G2 X301.201 Y46.123 Z20.000 I-155.609 J-44.456 K0.000 F2500.000
G2 X303.200 Y9.909 Z20.000 I-260.378 J-32.533 K0.000 F2500.000
G2 X290.000 Y-3.200 Z20.000 I-13.205 J0.097 K0.000 F2500.000
G1 X0.000 Y-3.200 Z20.000 F2500.000
G2 X-3.200 Y0.000 Z20.000 I-0.000 J3.200 K0.000 F2500.000
G1 X-3.200 Y600.000 Z20.000 F2500.000
G2 X0.009 Y603.200 Z20.000 I3.200 J-0.000 K0.000 F2500.000
G2 X36.259 Y602.359 Z20.000 I1.585 J-713.570 K0.000 F2500.000
G2 X72.362 Y599.359 Z20.000 I-20.771 J-468.630 K0.000 F2500.000
G2 X100.960 Y594.589 Z20.000 I-34.931 J-297.571 K0.000 F2500.000
G2 X123.522 Y588.387 Z20.000 I-40.210 J-190.404 K0.000 F2500.000
G2 X141.265 Y580.973 Z20.000 I-41.547 J-124.364 K0.000 F2500.000
G2 X157.140 Y570.936 Z20.000 I-41.066 J-82.530 K0.000 F2500.000
G2 X170.320 Y557.556 Z20.000 I-43.487 J-56.017 K0.000 F2500.000
G2 X177.838 Y544.942 Z20.000 I-57.538 J-42.842 K0.000 F2500.000
G1 X178.549 Y543.362 Z19.000 F2500.000
G1 X177.838 Y544.942 Z18.000 F2500.000
G2 X181.070 Y536.686 Z18.000 I-65.057 J-30.228 K0.000 F2500.000
G2 X185.003 Y518.219 Z18.000 I-96.871 J-30.280 K0.000 F2500.000
G2 X186.021 Y497.900 Z18.000 I-172.001 J-18.807 K0.000 F2500.000
G2 X184.436 Y469.919 Z18.000 I-322.567 J4.239 K0.000 F2500.000
G2 X179.451 Y434.190 Z18.000 I-562.831 J60.312 K0.000 F2500.000
G2 X170.327 Y386.568 Z18.000 I-1526.940 J267.879 K0.000 F2500.000
G3 X164.933 Y359.606 Z18.000 I2077.347 J-429.602 K0.000 F2500.000
G3 X159.134 Y326.954 Z18.000 I805.748 J-159.949 K0.000 F2500.000
G3 X155.322 Y294.732 Z18.000 I382.125 J-61.539 K0.000 F2500.000
G3 X154.792 Y258.214 Z18.000 I279.285 J-22.320 K0.000 F2500.000
G3 X158.569 Y227.706 Z18.000 I198.397 J9.079 K0.000 F2500.000
G3 X165.878 Y202.898 Z18.000 I138.669 J27.375 K0.000 F2500.000
G3 X173.176 Y187.892 Z18.000 I97.732 J38.252 K0.000 F2500.000
G3 X189.260 Y167.623 Z18.000 I79.008 J46.178 K0.000 F2500.000
G3 X205.360 Y154.872 Z18.000 I88.203 J94.831 K0.000 F2500.000
G3 X223.768 Y143.667 Z18.000 I164.932 J250.236 K0.000 F2500.000
G2 X238.351 Y135.548 Z18.000 I-784.079 J-1425.471 K0.000 F2500.000
G2 X253.347 Y126.552 Z18.000 I-120.681 J-218.183 K0.000 F2500.000
G2 X265.598 Y117.574 Z18.000 I-64.346 J-100.644 K0.000 F2500.000
G2 X287.754 Y90.610 Z18.000 I-58.692 J-70.811 K0.000 F2500.000
G2 X296.362 Y69.443 Z18.000 I-98.805 J-52.512 K0.000 F2500.000
G2 X301.201 Y46.123 Z18.000 I-155.609 J-44.456 K0.000 F2500.000
G2 X303.200 Y9.909 Z18.000 I-260.378 J-32.533 K0.000 F2500.000
G2 X290.000 Y-3.200 Z18.000 I-13.205 J0.097 K0.000 F2500.000
G1 X0.000 Y-3.200 Z18.000 F2500.000
G2 X-3.200 Y0.000 Z18.000 I-0.000 J3.200 K0.000 F2500.000
G1 X-3.200 Y600.000 Z18.000 F2500.000
G2 X0.009 Y603.200 Z18.000 I3.200 J-0.000 K0.000 F2500.000
G2 X36.259 Y602.359 Z18.000 I1.585 J-713.570 K0.000 F2500.000
G2 X72.362 Y599.359 Z18.000 I-20.771 J-468.630 K0.000 F2500.000
G2 X100.960 Y594.589 Z18.000 I-34.931 J-297.571 K0.000 F2500.000
G2 X123.522 Y588.387 Z18.000 I-40.210 J-190.404 K0.000 F2500.000
G2 X141.265 Y580.973 Z18.000 I-41.547 J-124.364 K0.000 F2500.000
G2 X157.140 Y570.936 Z18.000 I-41.066 J-82.530 K0.000 F2500.000
G2 X170.320 Y557.556 Z18.000 I-43.487 J-56.017 K0.000 F2500.000
G2 X177.838 Y544.942 Z18.000 I-57.538 J-42.842 K0.000 F2500.000
G1 X178.549 Y543.362 Z17.000 F2500.000
G1 X177.838 Y544.942 Z16.000 F2500.000
G2 X181.070 Y536.686 Z16.000 I-65.057 J-30.228 K0.000 F2500.000
G2 X185.003 Y518.219 Z16.000 I-96.871 J-30.280 K0.000 F2500.000
G2 X186.021 Y497.900 Z16.000 I-172.001 J-18.807 K0.000 F2500.000
G2 X184.436 Y469.919 Z16.000 I-322.567 J4.239 K0.000 F2500.000
G2 X179.451 Y434.190 Z16.000 I-562.831 J60.312 K0.000 F2500.000
G2 X170.327 Y386.568 Z16.000 I-1526.940 J267.879 K0.000 F2500.000
G3 X164.933 Y359.606 Z16.000 I2077.347 J-429.602 K0.000 F2500.000
G3 X159.134 Y326.954 Z16.000 I805.748 J-159.949 K0.000 F2500.000
G3 X155.322 Y294.732 Z16.000 I382.125 J-61.539 K0.000 F2500.000
G3 X154.792 Y258.214 Z16.000 I279.285 J-22.320 K0.000 F2500.000
G3 X158.569 Y227.706 Z16.000 I198.397 J9.079 K0.000 F2500.000
G3 X165.878 Y202.898 Z16.000 I138.669 J27.375 K0.000 F2500.000
G3 X173.176 Y187.892 Z16.000 I97.732 J38.252 K0.000 F2500.000
G3 X189.260 Y167.623 Z16.000 I79.008 J46.178 K0.000 F2500.000
G3 X205.360 Y154.872 Z16.000 I88.203 J94.831 K0.000 F2500.000
G3 X223.768 Y143.667 Z16.000 I164.932 J250.236 K0.000 F2500.000
G2 X238.351 Y135.548 Z16.000 I-784.079 J-1425.471 K0.000 F2500.000
G2 X253.347 Y126.552 Z16.000 I-120.681 J-218.183 K0.000 F2500.000
G2 X265.598 Y117.574 Z16.000 I-64.346 J-100.644 K0.000 F2500.000
G2 X287.754 Y90.610 Z16.000 I-58.692 J-70.811 K0.000 F2500.000
G2 X296.362 Y69.443 Z16.000 I-98.805 J-52.512 K0.000 F2500.000
G2 X301.201 Y46.123 Z16.000 I-155.609 J-44.456 K0.000 F2500.000
G2 X303.200 Y9.909 Z16.000 I-260.378 J-32.533 K0.000 F2500.000
G2 X290.000 Y-3.200 Z16.000 I-13.205 J0.097 K0.000 F2500.000
G1 X0.000 Y-3.200 Z16.000 F2500.000
G2 X-3.200 Y0.000 Z16.000 I-0.000 J3.200 K0.000 F2500.000
G1 X-3.200 Y600.000 Z16.000 F2500.000
G2 X0.009 Y603.200 Z16.000 I3.200 J-0.000 K0.000 F2500.000
G2 X36.259 Y602.359 Z16.000 I1.585 J-713.570 K0.000 F2500.000
G2 X72.362 Y599.359 Z16.000 I-20.771 J-468.630 K0.000 F2500.000
G2 X100.960 Y594.589 Z16.000 I-34.931 J-297.571 K0.000 F2500.000
G2 X123.522 Y588.387 Z16.000 I-40.210 J-190.404 K0.000 F2500.000
G2 X141.265 Y580.973 Z16.000 I-41.547 J-124.364 K0.000 F2500.000
G2 X157.140 Y570.936 Z16.000 I-41.066 J-82.530 K0.000 F2500.000
G2 X170.320 Y557.556 Z16.000 I-43.487 J-56.017 K0.000 F2500.000
G2 X177.838 Y544.942 Z16.000 I-57.538 J-42.842 K0.000 F2500.000
G1 X178.549 Y543.362 Z15.000 F2500.000
G1 X177.838 Y544.942 Z14.000 F2500.000
G2 X181.070 Y536.686 Z14.000 I-65.057 J-30.228 K0.000 F2500.000
G2 X185.003 Y518.219 Z14.000 I-96.871 J-30.280 K0.000 F2500.000
G2 X186.021 Y497.900 Z14.000 I-172.001 J-18.807 K0.000 F2500.000
G2 X184.436 Y469.919 Z14.000 I-322.567 J4.239 K0.000 F2500.000
G2 X179.451 Y434.190 Z14.000 I-562.831 J60.312 K0.000 F2500.000
G2 X170.327 Y386.568 Z14.000 I-1526.940 J267.879 K0.000 F2500.000
G3 X164.933 Y359.606 Z14.000 I2077.347 J-429.602 K0.000 F2500.000
G3 X159.134 Y326.954 Z14.000 I805.748 J-159.949 K0.000 F2500.000
G3 X155.322 Y294.732 Z14.000 I382.125 J-61.539 K0.000 F2500.000
G3 X154.792 Y258.214 Z14.000 I279.285 J-22.320 K0.000 F2500.000
G3 X158.569 Y227.706 Z14.000 I198.397 J9.079 K0.000 F2500.000
G3 X165.878 Y202.898 Z14.000 I138.669 J27.375 K0.000 F2500.000
G3 X173.176 Y187.892 Z14.000 I97.732 J38.252 K0.000 F2500.000
G3 X189.260 Y167.623 Z14.000 I79.008 J46.178 K0.000 F2500.000
G3 X205.360 Y154.872 Z14.000 I88.203 J94.831 K0.000 F2500.000
G3 X223.768 Y143.667 Z14.000 I164.932 J250.236 K0.000 F2500.000
G2 X238.351 Y135.548 Z14.000 I-784.079 J-1425.471 K0.000 F2500.000
G2 X253.347 Y126.552 Z14.000 I-120.681 J-218.183 K0.000 F2500.000
G2 X265.598 Y117.574 Z14.000 I-64.346 J-100.644 K0.000 F2500.000
G2 X287.754 Y90.610 Z14.000 I-58.692 J-70.811 K0.000 F2500.000
G2 X296.362 Y69.443 Z14.000 I-98.805 J-52.512 K0.000 F2500.000
G2 X301.201 Y46.123 Z14.000 I-155.609 J-44.456 K0.000 F2500.000
G2 X303.200 Y9.909 Z14.000 I-260.378 J-32.533 K0.000 F2500.000
G2 X290.000 Y-3.200 Z14.000 I-13.205 J0.097 K0.000 F2500.000
G1 X0.000 Y-3.200 Z14.000 F2500.000
G2 X-3.200 Y0.000 Z14.000 I-0.000 J3.200 K0.000 F2500.000
G1 X-3.200 Y600.000 Z14.000 F2500.000
G2 X0.009 Y603.200 Z14.000 I3.200 J-0.000 K0.000 F2500.000
G2 X36.259 Y602.359 Z14.000 I1.585 J-713.570 K0.000 F2500.000
G2 X72.362 Y599.359 Z14.000 I-20.771 J-468.630 K0.000 F2500.000
G2 X100.960 Y594.589 Z14.000 I-34.931 J-297.571 K0.000 F2500.000
G2 X123.522 Y588.387 Z14.000 I-40.210 J-190.404 K0.000 F2500.000
G2 X141.265 Y580.973 Z14.000 I-41.547 J-124.364 K0.000 F2500.000
G2 X157.140 Y570.936 Z14.000 I-41.066 J-82.530 K0.000 F2500.000
G2 X170.320 Y557.556 Z14.000 I-43.487 J-56.017 K0.000 F2500.000
G2 X177.838 Y544.942 Z14.000 I-57.538 J-42.842 K0.000 F2500.000
G1 X178.549 Y543.362 Z13.000 F2500.000
G1 X177.838 Y544.942 Z12.000 F2500.000
G2 X181.070 Y536.686 Z12.000 I-65.057 J-30.228 K0.000 F2500.000
G2 X185.003 Y518.219 Z12.000 I-96.871 J-30.280 K0.000 F2500.000
G2 X186.021 Y497.900 Z12.000 I-172.001 J-18.807 K0.000 F2500.000
G2 X184.436 Y469.919 Z12.000 I-322.567 J4.239 K0.000 F2500.000
G2 X179.451 Y434.190 Z12.000 I-562.831 J60.312 K0.000 F2500.000
G2 X170.327 Y386.568 Z12.000 I-1526.940 J267.879 K0.000 F2500.000
G3 X164.933 Y359.606 Z12.000 I2077.347 J-429.602 K0.000 F2500.000
G3 X159.134 Y326.954 Z12.000 I805.748 J-159.949 K0.000 F2500.000
G3 X155.322 Y294.732 Z12.000 I382.125 J-61.539 K0.000 F2500.000
G3 X154.792 Y258.214 Z12.000 I279.285 J-22.320 K0.000 F2500.000
G3 X158.569 Y227.706 Z12.000 I198.397 J9.079 K0.000 F2500.000
G3 X165.878 Y202.898 Z12.000 I138.669 J27.375 K0.000 F2500.000
G3 X173.176 Y187.892 Z12.000 I97.732 J38.252 K0.000 F2500.000
G3 X189.260 Y167.623 Z12.000 I79.008 J46.178 K0.000 F2500.000
G3 X205.360 Y154.872 Z12.000 I88.203 J94.831 K0.000 F2500.000
G3 X223.768 Y143.667 Z12.000 I164.932 J250.236 K0.000 F2500.000
G2 X238.351 Y135.548 Z12.000 I-784.079 J-1425.471 K0.000 F2500.000
G2 X253.347 Y126.552 Z12.000 I-120.681 J-218.183 K0.000 F2500.000
G2 X265.598 Y117.574 Z12.000 I-64.346 J-100.644 K0.000 F2500.000
G2 X287.754 Y90.610 Z12.000 I-58.692 J-70.811 K0.000 F2500.000
G2 X296.362 Y69.443 Z12.000 I-98.805 J-52.512 K0.000 F2500.000
G2 X301.201 Y46.123 Z12.000 I-155.609 J-44.456 K0.000 F2500.000
G2 X303.200 Y9.909 Z12.000 I-260.378 J-32.533 K0.000 F2500.000
G2 X290.000 Y-3.200 Z12.000 I-13.205 J0.097 K0.000 F2500.000
G1 X0.000 Y-3.200 Z12.000 F2500.000
G2 X-3.200 Y0.000 Z12.000 I-0.000 J3.200 K0.000 F2500.000
G1 X-3.200 Y600.000 Z12.000 F2500.000
G2 X0.009 Y603.200 Z12.000 I3.200 J-0.000 K0.000 F2500.000
G2 X36.259 Y602.359 Z12.000 I1.585 J-713.570 K0.000 F2500.000
G2 X72.362 Y599.359 Z12.000 I-20.771 J-468.630 K0.000 F2500.000
G2 X100.960 Y594.589 Z12.000 I-34.931 J-297.571 K0.000 F2500.000
G2 X123.522 Y588.387 Z12.000 I-40.210 J-190.404 K0.000 F2500.000
G2 X141.265 Y580.973 Z12.000 I-41.547 J-124.364 K0.000 F2500.000
G2 X157.140 Y570.936 Z12.000 I-41.066 J-82.530 K0.000 F2500.000
G2 X170.320 Y557.556 Z12.000 I-43.487 J-56.017 K0.000 F2500.000
G2 X177.838 Y544.942 Z12.000 I-57.538 J-42.842 K0.000 F2500.000
G1 X178.549 Y543.362 Z11.000 F2500.000
G1 X177.838 Y544.942 Z10.000 F2500.000
G2 X181.070 Y536.686 Z10.000 I-65.057 J-30.228 K0.000 F2500.000
G2 X185.003 Y518.219 Z10.000 I-96.871 J-30.280 K0.000 F2500.000
G2 X186.021 Y497.900 Z10.000 I-172.001 J-18.807 K0.000 F2500.000
G2 X184.436 Y469.919 Z10.000 I-322.567 J4.239 K0.000 F2500.000
G2 X179.451 Y434.190 Z10.000 I-562.831 J60.312 K0.000 F2500.000
G2 X170.327 Y386.568 Z10.000 I-1526.940 J267.879 K0.000 F2500.000
G3 X164.933 Y359.606 Z10.000 I2077.347 J-429.602 K0.000 F2500.000
G3 X159.134 Y326.954 Z10.000 I805.748 J-159.949 K0.000 F2500.000
G3 X155.322 Y294.732 Z10.000 I382.125 J-61.539 K0.000 F2500.000
G3 X154.792 Y258.214 Z10.000 I279.285 J-22.320 K0.000 F2500.000
G3 X158.569 Y227.706 Z10.000 I198.397 J9.079 K0.000 F2500.000
G3 X165.878 Y202.898 Z10.000 I138.669 J27.375 K0.000 F2500.000
G3 X173.176 Y187.892 Z10.000 I97.732 J38.252 K0.000 F2500.000
G3 X189.260 Y167.623 Z10.000 I79.008 J46.178 K0.000 F2500.000
G3 X205.360 Y154.872 Z10.000 I88.203 J94.831 K0.000 F2500.000
G3 X223.768 Y143.667 Z10.000 I164.932 J250.236 K0.000 F2500.000
G2 X238.351 Y135.548 Z10.000 I-784.079 J-1425.471 K0.000 F2500.000
G2 X253.347 Y126.552 Z10.000 I-120.681 J-218.183 K0.000 F2500.000
G2 X265.598 Y117.574 Z10.000 I-64.346 J-100.644 K0.000 F2500.000
G2 X287.754 Y90.610 Z10.000 I-58.692 J-70.811 K0.000 F2500.000
G2 X296.362 Y69.443 Z10.000 I-98.805 J-52.512 K0.000 F2500.000
G2 X301.201 Y46.123 Z10.000 I-155.609 J-44.456 K0.000 F2500.000
G2 X303.200 Y9.909 Z10.000 I-260.378 J-32.533 K0.000 F2500.000
G2 X290.000 Y-3.200 Z10.000 I-13.205 J0.097 K0.000 F2500.000
G1 X0.000 Y-3.200 Z10.000 F2500.000
G2 X-3.200 Y0.000 Z10.000 I-0.000 J3.200 K0.000 F2500.000
G1 X-3.200 Y600.000 Z10.000 F2500.000
G2 X0.009 Y603.200 Z10.000 I3.200 J-0.000 K0.000 F2500.000
G2 X36.259 Y602.359 Z10.000 I1.585 J-713.570 K0.000 F2500.000
G2 X72.362 Y599.359 Z10.000 I-20.771 J-468.630 K0.000 F2500.000
G2 X100.960 Y594.589 Z10.000 I-34.931 J-297.571 K0.000 F2500.000
G2 X123.522 Y588.387 Z10.000 I-40.210 J-190.404 K0.000 F2500.000
G2 X141.265 Y580.973 Z10.000 I-41.547 J-124.364 K0.000 F2500.000
G2 X157.140 Y570.936 Z10.000 I-41.066 J-82.530 K0.000 F2500.000
G2 X170.320 Y557.556 Z10.000 I-43.487 J-56.017 K0.000 F2500.000
G2 X177.838 Y544.942 Z10.000 I-57.538 J-42.842 K0.000 F2500.000
G1 X178.549 Y543.362 Z9.000 F2500.000
G1 X177.838 Y544.942 Z8.000 F2500.000
G2 X181.070 Y536.686 Z8.000 I-65.057 J-30.228 K0.000 F2500.000
G2 X185.003 Y518.219 Z8.000 I-96.871 J-30.280 K0.000 F2500.000
G2 X186.021 Y497.900 Z8.000 I-172.001 J-18.807 K0.000 F2500.000
G2 X184.436 Y469.919 Z8.000 I-322.567 J4.239 K0.000 F2500.000
G2 X179.451 Y434.190 Z8.000 I-562.831 J60.312 K0.000 F2500.000
G2 X170.327 Y386.568 Z8.000 I-1526.940 J267.879 K0.000 F2500.000
G3 X164.933 Y359.606 Z8.000 I2077.347 J-429.602 K0.000 F2500.000
G3 X159.134 Y326.954 Z8.000 I805.748 J-159.949 K0.000 F2500.000
G3 X155.322 Y294.732 Z8.000 I382.125 J-61.539 K0.000 F2500.000
G3 X154.792 Y258.214 Z8.000 I279.285 J-22.320 K0.000 F2500.000
G3 X158.569 Y227.706 Z8.000 I198.397 J9.079 K0.000 F2500.000
G3 X165.878 Y202.898 Z8.000 I138.669 J27.375 K0.000 F2500.000
G3 X173.176 Y187.892 Z8.000 I97.732 J38.252 K0.000 F2500.000
G3 X189.260 Y167.623 Z8.000 I79.008 J46.178 K0.000 F2500.000
G3 X205.360 Y154.872 Z8.000 I88.203 J94.831 K0.000 F2500.000
G3 X223.768 Y143.667 Z8.000 I164.932 J250.236 K0.000 F2500.000
G2 X238.351 Y135.548 Z8.000 I-784.079 J-1425.471 K0.000 F2500.000
G2 X253.347 Y126.552 Z8.000 I-120.681 J-218.183 K0.000 F2500.000
G2 X265.598 Y117.574 Z8.000 I-64.346 J-100.644 K0.000 F2500.000
G2 X287.754 Y90.610 Z8.000 I-58.692 J-70.811 K0.000 F2500.000
G2 X296.362 Y69.443 Z8.000 I-98.805 J-52.512 K0.000 F2500.000
G2 X301.201 Y46.123 Z8.000 I-155.609 J-44.456 K0.000 F2500.000
G2 X303.200 Y9.909 Z8.000 I-260.378 J-32.533 K0.000 F2500.000
G2 X290.000 Y-3.200 Z8.000 I-13.205 J0.097 K0.000 F2500.000
G1 X0.000 Y-3.200 Z8.000 F2500.000
G2 X-3.200 Y0.000 Z8.000 I-0.000 J3.200 K0.000 F2500.000
G1 X-3.200 Y600.000 Z8.000 F2500.000
G2 X0.009 Y603.200 Z8.000 I3.200 J-0.000 K0.000 F2500.000
G2 X36.259 Y602.359 Z8.000 I1.585 J-713.570 K0.000 F2500.000
G2 X72.362 Y599.359 Z8.000 I-20.771 J-468.630 K0.000 F2500.000
G2 X100.960 Y594.589 Z8.000 I-34.931 J-297.571 K0.000 F2500.000
G2 X123.522 Y588.387 Z8.000 I-40.210 J-190.404 K0.000 F2500.000
G2 X141.265 Y580.973 Z8.000 I-41.547 J-124.364 K0.000 F2500.000
G2 X157.140 Y570.936 Z8.000 I-41.066 J-82.530 K0.000 F2500.000
G2 X170.320 Y557.556 Z8.000 I-43.487 J-56.017 K0.000 F2500.000
G2 X177.838 Y544.942 Z8.000 I-57.538 J-42.842 K0.000 F2500.000
G1 X178.549 Y543.362 Z7.000 F2500.000
G1 X177.838 Y544.942 Z6.000 F2500.000
G2 X181.070 Y536.686 Z6.000 I-65.057 J-30.228 K0.000 F2500.000
G2 X185.003 Y518.219 Z6.000 I-96.871 J-30.280 K0.000 F2500.000
G2 X186.021 Y497.900 Z6.000 I-172.001 J-18.807 K0.000 F2500.000
G2 X184.436 Y469.919 Z6.000 I-322.567 J4.239 K0.000 F2500.000
G2 X179.451 Y434.190 Z6.000 I-562.831 J60.312 K0.000 F2500.000
G2 X170.327 Y386.568 Z6.000 I-1526.940 J267.879 K0.000 F2500.000
G3 X164.933 Y359.606 Z6.000 I2077.347 J-429.602 K0.000 F2500.000
G3 X159.134 Y326.954 Z6.000 I805.748 J-159.949 K0.000 F2500.000
G3 X155.322 Y294.732 Z6.000 I382.125 J-61.539 K0.000 F2500.000
G3 X154.792 Y258.214 Z6.000 I279.285 J-22.320 K0.000 F2500.000
G3 X158.569 Y227.706 Z6.000 I198.397 J9.079 K0.000 F2500.000
G3 X165.878 Y202.898 Z6.000 I138.669 J27.375 K0.000 F2500.000
G3 X173.176 Y187.892 Z6.000 I97.732 J38.252 K0.000 F2500.000
G3 X189.260 Y167.623 Z6.000 I79.008 J46.178 K0.000 F2500.000
G3 X205.360 Y154.872 Z6.000 I88.203 J94.831 K0.000 F2500.000
G3 X223.768 Y143.667 Z6.000 I164.932 J250.236 K0.000 F2500.000
G2 X238.351 Y135.548 Z6.000 I-784.079 J-1425.471 K0.000 F2500.000
G2 X253.347 Y126.552 Z6.000 I-120.681 J-218.183 K0.000 F2500.000
G2 X265.598 Y117.574 Z6.000 I-64.346 J-100.644 K0.000 F2500.000
G2 X287.754 Y90.610 Z6.000 I-58.692 J-70.811 K0.000 F2500.000
G2 X296.362 Y69.443 Z6.000 I-98.805 J-52.512 K0.000 F2500.000
G2 X301.201 Y46.123 Z6.000 I-155.609 J-44.456 K0.000 F2500.000
G2 X303.200 Y9.909 Z6.000 I-260.378 J-32.533 K0.000 F2500.000
G2 X290.000 Y-3.200 Z6.000 I-13.205 J0.097 K0.000 F2500.000
G1 X0.000 Y-3.200 Z6.000 F2500.000
G2 X-3.200 Y0.000 Z6.000 I-0.000 J3.200 K0.000 F2500.000
G1 X-3.200 Y600.000 Z6.000 F2500.000
G2 X0.009 Y603.200 Z6.000 I3.200 J-0.000 K0.000 F2500.000
G2 X36.259 Y602.359 Z6.000 I1.585 J-713.570 K0.000 F2500.000
G2 X72.362 Y599.359 Z6.000 I-20.771 J-468.630 K0.000 F2500.000
G2 X100.960 Y594.589 Z6.000 I-34.931 J-297.571 K0.000 F2500.000
G2 X123.522 Y588.387 Z6.000 I-40.210 J-190.404 K0.000 F2500.000
G2 X141.265 Y580.973 Z6.000 I-41.547 J-124.364 K0.000 F2500.000
G2 X157.140 Y570.936 Z6.000 I-41.066 J-82.530 K0.000 F2500.000
G2 X170.320 Y557.556 Z6.000 I-43.487 J-56.017 K0.000 F2500.000
G2 X177.838 Y544.942 Z6.000 I-57.538 J-42.842 K0.000 F2500.000
G1 X178.549 Y543.362 Z5.000 F2500.000
G1 X177.838 Y544.942 Z4.000 F2500.000
G2 X181.070 Y536.686 Z4.000 I-65.057 J-30.228 K0.000 F2500.000
G2 X185.003 Y518.219 Z4.000 I-96.871 J-30.280 K0.000 F2500.000
G2 X186.021 Y497.900 Z4.000 I-172.001 J-18.807 K0.000 F2500.000
G2 X184.436 Y469.919 Z4.000 I-322.567 J4.239 K0.000 F2500.000
G2 X179.451 Y434.190 Z4.000 I-562.831 J60.312 K0.000 F2500.000
G2 X170.327 Y386.568 Z4.000 I-1526.940 J267.879 K0.000 F2500.000
G3 X164.933 Y359.606 Z4.000 I2077.347 J-429.602 K0.000 F2500.000
G3 X159.134 Y326.954 Z4.000 I805.748 J-159.949 K0.000 F2500.000
G3 X155.322 Y294.732 Z4.000 I382.125 J-61.539 K0.000 F2500.000
G3 X154.792 Y258.214 Z4.000 I279.285 J-22.320 K0.000 F2500.000
G3 X158.569 Y227.706 Z4.000 I198.397 J9.079 K0.000 F2500.000
G3 X165.878 Y202.898 Z4.000 I138.669 J27.375 K0.000 F2500.000
G3 X173.176 Y187.892 Z4.000 I97.732 J38.252 K0.000 F2500.000
G3 X189.260 Y167.623 Z4.000 I79.008 J46.178 K0.000 F2500.000
G3 X205.360 Y154.872 Z4.000 I88.203 J94.831 K0.000 F2500.000
G3 X223.768 Y143.667 Z4.000 I164.932 J250.236 K0.000 F2500.000
G2 X238.351 Y135.548 Z4.000 I-784.079 J-1425.471 K0.000 F2500.000
G2 X253.347 Y126.552 Z4.000 I-120.681 J-218.183 K0.000 F2500.000
G2 X265.598 Y117.574 Z4.000 I-64.346 J-100.644 K0.000 F2500.000
G2 X287.754 Y90.610 Z4.000 I-58.692 J-70.811 K0.000 F2500.000
G2 X296.362 Y69.443 Z4.000 I-98.805 J-52.512 K0.000 F2500.000
G2 X301.201 Y46.123 Z4.000 I-155.609 J-44.456 K0.000 F2500.000
G2 X303.200 Y9.909 Z4.000 I-260.378 J-32.533 K0.000 F2500.000
G2 X290.000 Y-3.200 Z4.000 I-13.205 J0.097 K0.000 F2500.000
G1 X0.000 Y-3.200 Z4.000 F2500.000
G2 X-3.200 Y0.000 Z4.000 I-0.000 J3.200 K0.000 F2500.000
G1 X-3.200 Y600.000 Z4.000 F2500.000
G2 X0.009 Y603.200 Z4.000 I3.200 J-0.000 K0.000 F2500.000
G2 X36.259 Y602.359 Z4.000 I1.585 J-713.570 K0.000 F2500.000
G2 X72.362 Y599.359 Z4.000 I-20.771 J-468.630 K0.000 F2500.000
G2 X100.960 Y594.589 Z4.000 I-34.931 J-297.571 K0.000 F2500.000
G2 X123.522 Y588.387 Z4.000 I-40.210 J-190.404 K0.000 F2500.000
G2 X141.265 Y580.973 Z4.000 I-41.547 J-124.364 K0.000 F2500.000
G2 X157.140 Y570.936 Z4.000 I-41.066 J-82.530 K0.000 F2500.000
G2 X170.320 Y557.556 Z4.000 I-43.487 J-56.017 K0.000 F2500.000
G2 X177.838 Y544.942 Z4.000 I-57.538 J-42.842 K0.000 F2500.000
G1 X178.549 Y543.362 Z3.000 F2500.000
G1 X177.838 Y544.942 Z2.000 F2500.000
G2 X181.070 Y536.686 Z2.000 I-65.057 J-30.228 K0.000 F2500.000
G2 X185.003 Y518.219 Z2.000 I-96.871 J-30.280 K0.000 F2500.000
G2 X186.021 Y497.900 Z2.000 I-172.001 J-18.807 K0.000 F2500.000
G2 X184.436 Y469.919 Z2.000 I-322.567 J4.239 K0.000 F2500.000
G2 X179.451 Y434.190 Z2.000 I-562.831 J60.312 K0.000 F2500.000
G2 X170.327 Y386.568 Z2.000 I-1526.940 J267.879 K0.000 F2500.000
G3 X164.933 Y359.606 Z2.000 I2077.347 J-429.602 K0.000 F2500.000
G3 X159.134 Y326.954 Z2.000 I805.748 J-159.949 K0.000 F2500.000
G3 X155.322 Y294.732 Z2.000 I382.125 J-61.539 K0.000 F2500.000
G3 X154.792 Y258.214 Z2.000 I279.285 J-22.320 K0.000 F2500.000
G3 X158.569 Y227.706 Z2.000 I198.397 J9.079 K0.000 F2500.000
G3 X165.878 Y202.898 Z2.000 I138.669 J27.375 K0.000 F2500.000
G3 X173.176 Y187.892 Z2.000 I97.732 J38.252 K0.000 F2500.000
G3 X189.260 Y167.623 Z2.000 I79.008 J46.178 K0.000 F2500.000
G3 X205.360 Y154.872 Z2.000 I88.203 J94.831 K0.000 F2500.000
G3 X223.768 Y143.667 Z2.000 I164.932 J250.236 K0.000 F2500.000
G2 X238.351 Y135.548 Z2.000 I-784.079 J-1425.471 K0.000 F2500.000
G2 X253.347 Y126.552 Z2.000 I-120.681 J-218.183 K0.000 F2500.000
G2 X265.598 Y117.574 Z2.000 I-64.346 J-100.644 K0.000 F2500.000
G2 X287.754 Y90.610 Z2.000 I-58.692 J-70.811 K0.000 F2500.000
G2 X296.362 Y69.443 Z2.000 I-98.805 J-52.512 K0.000 F2500.000
G2 X301.201 Y46.123 Z2.000 I-155.609 J-44.456 K0.000 F2500.000
G2 X303.200 Y9.909 Z2.000 I-260.378 J-32.533 K0.000 F2500.000
G2 X290.000 Y-3.200 Z2.000 I-13.205 J0.097 K0.000 F2500.000
G1 X0.000 Y-3.200 Z2.000 F2500.000
G2 X-3.200 Y0.000 Z2.000 I-0.000 J3.200 K0.000 F2500.000
G1 X-3.200 Y600.000 Z2.000 F2500.000
G2 X0.009 Y603.200 Z2.000 I3.200 J-0.000 K0.000 F2500.000
G2 X36.259 Y602.359 Z2.000 I1.585 J-713.570 K0.000 F2500.000
G2 X72.362 Y599.359 Z2.000 I-20.771 J-468.630 K0.000 F2500.000
G2 X100.960 Y594.589 Z2.000 I-34.931 J-297.571 K0.000 F2500.000
G2 X123.522 Y588.387 Z2.000 I-40.210 J-190.404 K0.000 F2500.000
G2 X141.265 Y580.973 Z2.000 I-41.547 J-124.364 K0.000 F2500.000
G2 X157.140 Y570.936 Z2.000 I-41.066 J-82.530 K0.000 F2500.000
G2 X170.320 Y557.556 Z2.000 I-43.487 J-56.017 K0.000 F2500.000
G2 X177.838 Y544.942 Z2.000 I-57.538 J-42.842 K0.000 F2500.000
G0 X177.838 Y544.942 Z42.000
(Finish operation: RampEntryDressup)
(Begin operation: RampEntryDressup001)
(Path: RampEntryDressup001)
G0 X0.000 Y0.000 Z42.000
G0 X177.671 Y544.827 Z42.000
G1 X178.568 Y542.814 Z40.728 F2500.000
G1 X179.403 Y540.774 Z39.455 F2500.000
G1 X180.174 Y538.709 Z38.182 F2500.000
G1 X180.881 Y536.621 Z36.909 F2500.000
G1 X181.651 Y534.037 Z35.355 F2500.000
G1 X182.352 Y531.434 Z33.799 F2500.000
G1 X182.983 Y528.814 Z32.241 F2500.000
G1 X183.544 Y526.178 Z30.683 F2500.000
G1 X184.035 Y523.529 Z29.126 F2500.000
G1 X184.455 Y520.866 Z27.569 F2500.000
G1 X184.805 Y518.192 Z26.015 F2500.000
G1 X185.095 Y515.311 Z24.343 F2500.000
G1 X185.337 Y512.426 Z22.672 F2500.000
G1 X185.531 Y509.537 Z21.000 F2500.000
G1 X185.337 Y512.426 Z19.328 F2500.000
G1 X185.095 Y515.311 Z17.657 F2500.000
G1 X184.805 Y518.192 Z15.985 F2500.000
G1 X184.455 Y520.866 Z14.431 F2500.000
G1 X184.035 Y523.529 Z12.874 F2500.000
G1 X183.544 Y526.178 Z11.317 F2500.000
G1 X182.983 Y528.814 Z9.759 F2500.000
G1 X182.352 Y531.434 Z8.201 F2500.000
G1 X181.651 Y534.037 Z6.645 F2500.000
G1 X180.881 Y536.621 Z5.091 F2500.000
G1 X180.174 Y538.709 Z3.818 F2500.000
G1 X179.403 Y540.774 Z2.545 F2500.000
G1 X178.568 Y542.814 Z1.272 F2500.000
G1 X177.671 Y544.827 Z0.000 F2500.000
G2 X180.881 Y536.621 Z0.000 I-64.891 J-30.114 K0.000 F2500.000
G2 X184.805 Y518.192 Z0.000 I-96.688 J-30.216 K0.000 F2500.000
G2 X185.821 Y497.899 Z0.000 I-171.824 J-18.781 K0.000 F2500.000
G2 X184.237 Y469.937 Z0.000 I-322.382 J4.240 K0.000 F2500.000
G2 X179.254 Y434.222 Z0.000 I-562.657 J60.298 K0.000 F2500.000
G2 X175.900 Y415.763 Z0.000 I-1526.794 J267.857 K0.000 F2500.000
G1 X175.530 Y413.798 Z2.000 F2500.000
G2 X174.220 Y406.962 Z2.000 I-1523.070 J288.281 K0.000 F2500.000
G1 X173.838 Y404.999 Z0.000 F2500.000
G2 X170.131 Y386.608 Z0.000 I-1521.378 J297.080 K0.000 F2500.000
G3 X164.737 Y359.644 Z0.000 I2077.489 J-429.632 K0.000 F2500.000
G3 X158.936 Y326.985 Z0.000 I805.936 J-159.986 K0.000 F2500.000
G3 X155.123 Y294.747 Z0.000 I382.319 J-61.570 K0.000 F2500.000
G3 X154.592 Y258.203 Z0.000 I279.483 J-22.335 K0.000 F2500.000
G3 X158.373 Y227.666 Z0.000 I198.596 J9.089 K0.000 F2500.000
G3 X165.692 Y202.824 Z0.000 I138.864 J27.415 K0.000 F2500.000
G3 X173.004 Y187.791 Z0.000 I97.917 J38.325 K0.000 F2500.000
G3 X189.123 Y167.478 Z0.000 I79.180 J46.280 K0.000 F2500.000
G3 X205.248 Y154.706 Z0.000 I88.341 J94.976 K0.000 F2500.000
G3 X223.670 Y143.493 Z0.000 I165.042 J250.398 K0.000 F2500.000
G2 X238.253 Y135.374 Z0.000 I-784.092 J-1425.495 K0.000 F2500.000
G2 X253.239 Y126.384 Z0.000 I-120.584 J-218.012 K0.000 F2500.000
G2 X265.472 Y117.419 Z0.000 I-64.236 J-100.474 K0.000 F2500.000
G2 X287.580 Y90.512 Z0.000 I-58.565 J-70.656 K0.000 F2500.000
G2 X296.170 Y69.385 Z0.000 I-98.635 J-52.416 K0.000 F2500.000
G2 X301.003 Y46.094 Z0.000 I-155.424 J-44.398 K0.000 F2500.000
G2 X302.268 Y33.505 Z0.000 I-260.187 J-32.505 K0.000 F2500.000
G1 X302.413 Y31.510 Z2.000 F2500.000
G2 X302.796 Y24.560 Z2.000 I-261.596 J-17.920 K0.000 F2500.000
G1 X302.872 Y22.562 Z0.000 F2500.000
G2 X303.000 Y9.909 Z0.000 I-262.056 J-8.972 K0.000 F2500.000
G2 X290.000 Y-3.000 Z0.000 I-13.005 J0.096 K0.000 F2500.000
G1 X0.000 Y-3.000 Z0.000 F2500.000
G2 X-3.000 Y0.000 Z0.000 I0.000 J3.000 K0.000 F2500.000
G1 X-3.000 Y144.520 Z0.000 F2500.000
G1 X-3.000 Y146.520 Z2.000 F2500.000
G1 X-3.000 Y153.480 Z2.000 F2500.000
G1 X-3.000 Y155.480 Z0.000 F2500.000
G1 X-3.000 Y444.520 Z0.000 F2500.000
G1 X-3.000 Y446.520 Z2.000 F2500.000
G1 X-3.000 Y453.480 Z2.000 F2500.000
G1 X-3.000 Y455.480 Z0.000 F2500.000
G1 X-3.000 Y600.000 Z0.000 F2500.000
G2 X0.009 Y603.000 Z0.000 I3.000 J0.000 K0.000 F2500.000
G2 X36.250 Y602.159 Z0.000 I1.585 J-713.370 K0.000 F2500.000
G2 X72.338 Y599.160 Z0.000 I-20.762 J-468.426 K0.000 F2500.000
G2 X100.919 Y594.394 Z0.000 I-34.907 J-297.369 K0.000 F2500.000
G2 X123.459 Y588.197 Z0.000 I-40.168 J-190.204 K0.000 F2500.000
G2 X141.177 Y580.793 Z0.000 I-41.482 J-124.171 K0.000 F2500.000
G2 X157.019 Y570.777 Z0.000 I-40.977 J-82.349 K0.000 F2500.000
G2 X170.162 Y557.433 Z0.000 I-43.364 J-55.857 K0.000 F2500.000
G2 X177.671 Y544.827 Z0.000 I-57.382 J-42.720 K0.000 F2500.000
G0 X177.671 Y544.827 Z42.000
(Finish operation: RampEntryDressup001)
(Begin postamble)
M5
G17 G90
M2
