(Exported by FreeCAD)
(Post Processor: grbl_post)
(Output Time:2025-07-11 20:29:09.382588)
(Begin preamble)
G17 G90
G21
(Begin operation: TC: D6.0-L42 Endmill Corn Bit)
(Path: TC: D6.0-L42 Endmill Corn Bit)
(TC: D6.0-L42 Endmill Corn Bit)
(Begin toolchange)
( M6 T3 )
M3 S24000
(Finish operation: TC: D6.0-L42 Endmill Corn Bit)
(Begin operation: Fixture)
(Path: Fixture)
G54
(Finish operation: Fixture)
(Begin operation: RampEntryDressup)
(Path: RampEntryDressup)
G0 X0.000 Y0.000 Z42.000
G0 X162.152 Y547.413 Z42.000
G1 X162.770 Y545.795 Z41.000 F2500.000
G1 X163.353 Y544.164 Z40.000 F2500.000
G1 X163.898 Y542.520 Z39.000 F2500.000
G1 X163.353 Y544.164 Z38.000 F2500.000
G1 X162.770 Y545.795 Z37.000 F2500.000
G1 X162.152 Y547.413 Z36.000 F2500.000
G2 X165.560 Y536.481 Z36.000 I-71.581 J-28.313 K0.000 F2500.000
G2 X168.122 Y519.361 Z36.000 I-119.494 J-26.639 K0.000 F2500.000
G2 X168.798 Y503.227 Z36.000 I-255.448 J-18.775 K0.000 F2500.000
G2 X168.211 Y459.938 Z36.000 I-1391.124 J-2.787 K0.000 F2500.000
G2 X166.615 Y413.706 Z36.000 I-8736.798 J278.398 K0.000 F2500.000
G3 X165.168 Y370.071 Z36.000 I3058.502 J-123.237 K0.000 F2500.000
G3 X164.831 Y325.620 Z36.000 I1021.706 J-29.974 K0.000 F2500.000
G3 X165.774 Y302.774 Z36.000 I425.825 J6.124 K0.000 F2500.000
G3 X168.858 Y275.238 Z36.000 I277.313 J17.123 K0.000 F2500.000
G3 X173.599 Y253.905 Z36.000 I172.016 J27.030 K0.000 F2500.000
G3 X180.908 Y234.594 Z36.000 I113.820 J32.043 K0.000 F2500.000
G3 X193.865 Y214.394 Z36.000 I87.545 J41.897 K0.000 F2500.000
G3 X206.167 Y201.743 Z36.000 I98.988 J83.952 K0.000 F2500.000
G3 X219.028 Y190.992 Z36.000 I188.956 J212.978 K0.000 F2500.000
G2 X235.597 Y178.140 Z36.000 I-1605.378 J-2086.764 K0.000 F2500.000
G2 X255.472 Y161.577 Z36.000 I-219.408 J-283.480 K0.000 F2500.000
G2 X263.572 Y153.713 Z36.000 I-92.668 J-103.554 K0.000 F2500.000
G2 X282.478 Y127.387 Z36.000 I-83.196 J-79.700 K0.000 F2500.000
G2 X291.278 Y106.316 Z36.000 I-129.057 J-66.275 K0.000 F2500.000
G2 X297.865 Y80.076 Z36.000 I-197.183 J-63.442 K0.000 F2500.000
G2 X302.001 Y46.954 Z36.000 I-316.300 J-56.318 K0.000 F2500.000
G2 X303.200 Y12.017 Z36.000 I-486.456 J-34.179 K0.000 F2500.000
G2 X288.000 Y-3.200 Z36.000 I-15.205 J-0.013 K0.000 F2500.000
G1 X0.000 Y-3.200 Z36.000 F2500.000
G2 X-3.200 Y0.000 Z36.000 I-0.000 J3.200 K0.000 F2500.000
G1 X-3.200 Y600.000 Z36.000 F2500.000
G2 X0.009 Y603.200 Z36.000 I3.200 J0.000 K0.000 F2500.000
G2 X34.661 Y602.365 Z36.000 I1.639 J-651.178 K0.000 F2500.000
G2 X68.659 Y599.399 Z36.000 I-18.928 J-413.393 K0.000 F2500.000
G2 X95.096 Y594.715 Z36.000 I-31.269 J-253.398 K0.000 F2500.000
G2 X115.589 Y588.647 Z36.000 I-35.431 J-157.303 K0.000 F2500.000
G2 X131.443 Y581.397 Z36.000 I-36.429 J-100.623 K0.000 F2500.000
G2 X145.302 Y571.607 Z36.000 I-36.220 J-65.979 K0.000 F2500.000
G2 X160.041 Y552.256 Z36.000 I-41.404 J-46.823 K0.000 F2500.000
G2 X162.152 Y547.413 Z36.000 I-69.471 J-33.155 K0.000 F2500.000
G1 X162.770 Y545.795 Z35.000 F2500.000
G1 X162.152 Y547.413 Z34.000 F2500.000
G2 X165.560 Y536.481 Z34.000 I-71.581 J-28.313 K0.000 F2500.000
G2 X168.122 Y519.361 Z34.000 I-119.494 J-26.639 K0.000 F2500.000
G2 X168.798 Y503.227 Z34.000 I-255.448 J-18.775 K0.000 F2500.000
G2 X168.211 Y459.938 Z34.000 I-1391.124 J-2.787 K0.000 F2500.000
G2 X166.615 Y413.706 Z34.000 I-8736.798 J278.398 K0.000 F2500.000
G3 X165.168 Y370.071 Z34.000 I3058.502 J-123.237 K0.000 F2500.000
G3 X164.831 Y325.620 Z34.000 I1021.706 J-29.974 K0.000 F2500.000
G3 X165.774 Y302.774 Z34.000 I425.825 J6.124 K0.000 F2500.000
G3 X168.858 Y275.238 Z34.000 I277.313 J17.123 K0.000 F2500.000
G3 X173.599 Y253.905 Z34.000 I172.016 J27.030 K0.000 F2500.000
G3 X180.908 Y234.594 Z34.000 I113.820 J32.043 K0.000 F2500.000
G3 X193.865 Y214.394 Z34.000 I87.545 J41.897 K0.000 F2500.000
G3 X206.167 Y201.743 Z34.000 I98.988 J83.952 K0.000 F2500.000
G3 X219.028 Y190.992 Z34.000 I188.956 J212.978 K0.000 F2500.000
G2 X235.597 Y178.140 Z34.000 I-1605.378 J-2086.764 K0.000 F2500.000
G2 X255.472 Y161.577 Z34.000 I-219.408 J-283.480 K0.000 F2500.000
G2 X263.572 Y153.713 Z34.000 I-92.668 J-103.554 K0.000 F2500.000
G2 X282.478 Y127.387 Z34.000 I-83.196 J-79.700 K0.000 F2500.000
G2 X291.278 Y106.316 Z34.000 I-129.057 J-66.275 K0.000 F2500.000
G2 X297.865 Y80.076 Z34.000 I-197.183 J-63.442 K0.000 F2500.000
G2 X302.001 Y46.954 Z34.000 I-316.300 J-56.318 K0.000 F2500.000
G2 X303.200 Y12.017 Z34.000 I-486.456 J-34.179 K0.000 F2500.000
G2 X288.000 Y-3.200 Z34.000 I-15.205 J-0.013 K0.000 F2500.000
G1 X0.000 Y-3.200 Z34.000 F2500.000
G2 X-3.200 Y0.000 Z34.000 I-0.000 J3.200 K0.000 F2500.000
G1 X-3.200 Y600.000 Z34.000 F2500.000
G2 X0.009 Y603.200 Z34.000 I3.200 J0.000 K0.000 F2500.000
G2 X34.661 Y602.365 Z34.000 I1.639 J-651.178 K0.000 F2500.000
G2 X68.659 Y599.399 Z34.000 I-18.928 J-413.393 K0.000 F2500.000
G2 X95.096 Y594.715 Z34.000 I-31.269 J-253.398 K0.000 F2500.000
G2 X115.589 Y588.647 Z34.000 I-35.431 J-157.303 K0.000 F2500.000
G2 X131.443 Y581.397 Z34.000 I-36.429 J-100.623 K0.000 F2500.000
G2 X145.302 Y571.607 Z34.000 I-36.220 J-65.979 K0.000 F2500.000
G2 X160.041 Y552.256 Z34.000 I-41.404 J-46.823 K0.000 F2500.000
G2 X162.152 Y547.413 Z34.000 I-69.471 J-33.155 K0.000 F2500.000
G1 X162.770 Y545.795 Z33.000 F2500.000
G1 X162.152 Y547.413 Z32.000 F2500.000
G2 X165.560 Y536.481 Z32.000 I-71.581 J-28.313 K0.000 F2500.000
G2 X168.122 Y519.361 Z32.000 I-119.494 J-26.639 K0.000 F2500.000
G2 X168.798 Y503.227 Z32.000 I-255.448 J-18.775 K0.000 F2500.000
G2 X168.211 Y459.938 Z32.000 I-1391.124 J-2.787 K0.000 F2500.000
G2 X166.615 Y413.706 Z32.000 I-8736.798 J278.398 K0.000 F2500.000
G3 X165.168 Y370.071 Z32.000 I3058.502 J-123.237 K0.000 F2500.000
G3 X164.831 Y325.620 Z32.000 I1021.706 J-29.974 K0.000 F2500.000
G3 X165.774 Y302.774 Z32.000 I425.825 J6.124 K0.000 F2500.000
G3 X168.858 Y275.238 Z32.000 I277.313 J17.123 K0.000 F2500.000
G3 X173.599 Y253.905 Z32.000 I172.016 J27.030 K0.000 F2500.000
G3 X180.908 Y234.594 Z32.000 I113.820 J32.043 K0.000 F2500.000
G3 X193.865 Y214.394 Z32.000 I87.545 J41.897 K0.000 F2500.000
G3 X206.167 Y201.743 Z32.000 I98.988 J83.952 K0.000 F2500.000
G3 X219.028 Y190.992 Z32.000 I188.956 J212.978 K0.000 F2500.000
G2 X235.597 Y178.140 Z32.000 I-1605.378 J-2086.764 K0.000 F2500.000
G2 X255.472 Y161.577 Z32.000 I-219.408 J-283.480 K0.000 F2500.000
G2 X263.572 Y153.713 Z32.000 I-92.668 J-103.554 K0.000 F2500.000
G2 X282.478 Y127.387 Z32.000 I-83.196 J-79.700 K0.000 F2500.000
G2 X291.278 Y106.316 Z32.000 I-129.057 J-66.275 K0.000 F2500.000
G2 X297.865 Y80.076 Z32.000 I-197.183 J-63.442 K0.000 F2500.000
G2 X302.001 Y46.954 Z32.000 I-316.300 J-56.318 K0.000 F2500.000
G2 X303.200 Y12.017 Z32.000 I-486.456 J-34.179 K0.000 F2500.000
G2 X288.000 Y-3.200 Z32.000 I-15.205 J-0.013 K0.000 F2500.000
G1 X0.000 Y-3.200 Z32.000 F2500.000
G2 X-3.200 Y0.000 Z32.000 I-0.000 J3.200 K0.000 F2500.000
G1 X-3.200 Y600.000 Z32.000 F2500.000
G2 X0.009 Y603.200 Z32.000 I3.200 J0.000 K0.000 F2500.000
G2 X34.661 Y602.365 Z32.000 I1.639 J-651.178 K0.000 F2500.000
G2 X68.659 Y599.399 Z32.000 I-18.928 J-413.393 K0.000 F2500.000
G2 X95.096 Y594.715 Z32.000 I-31.269 J-253.398 K0.000 F2500.000
G2 X115.589 Y588.647 Z32.000 I-35.431 J-157.303 K0.000 F2500.000
G2 X131.443 Y581.397 Z32.000 I-36.429 J-100.623 K0.000 F2500.000
G2 X145.302 Y571.607 Z32.000 I-36.220 J-65.979 K0.000 F2500.000
G2 X160.041 Y552.256 Z32.000 I-41.404 J-46.823 K0.000 F2500.000
G2 X162.152 Y547.413 Z32.000 I-69.471 J-33.155 K0.000 F2500.000
G1 X162.770 Y545.795 Z31.000 F2500.000
G1 X162.152 Y547.413 Z30.000 F2500.000
G2 X165.560 Y536.481 Z30.000 I-71.581 J-28.313 K0.000 F2500.000
G2 X168.122 Y519.361 Z30.000 I-119.494 J-26.639 K0.000 F2500.000
G2 X168.798 Y503.227 Z30.000 I-255.448 J-18.775 K0.000 F2500.000
G2 X168.211 Y459.938 Z30.000 I-1391.124 J-2.787 K0.000 F2500.000
G2 X166.615 Y413.706 Z30.000 I-8736.798 J278.398 K0.000 F2500.000
G3 X165.168 Y370.071 Z30.000 I3058.502 J-123.237 K0.000 F2500.000
G3 X164.831 Y325.620 Z30.000 I1021.706 J-29.974 K0.000 F2500.000
G3 X165.774 Y302.774 Z30.000 I425.825 J6.124 K0.000 F2500.000
G3 X168.858 Y275.238 Z30.000 I277.313 J17.123 K0.000 F2500.000
G3 X173.599 Y253.905 Z30.000 I172.016 J27.030 K0.000 F2500.000
G3 X180.908 Y234.594 Z30.000 I113.820 J32.043 K0.000 F2500.000
G3 X193.865 Y214.394 Z30.000 I87.545 J41.897 K0.000 F2500.000
G3 X206.167 Y201.743 Z30.000 I98.988 J83.952 K0.000 F2500.000
G3 X219.028 Y190.992 Z30.000 I188.956 J212.978 K0.000 F2500.000
G2 X235.597 Y178.140 Z30.000 I-1605.378 J-2086.764 K0.000 F2500.000
G2 X255.472 Y161.577 Z30.000 I-219.408 J-283.480 K0.000 F2500.000
G2 X263.572 Y153.713 Z30.000 I-92.668 J-103.554 K0.000 F2500.000
G2 X282.478 Y127.387 Z30.000 I-83.196 J-79.700 K0.000 F2500.000
G2 X291.278 Y106.316 Z30.000 I-129.057 J-66.275 K0.000 F2500.000
G2 X297.865 Y80.076 Z30.000 I-197.183 J-63.442 K0.000 F2500.000
G2 X302.001 Y46.954 Z30.000 I-316.300 J-56.318 K0.000 F2500.000
G2 X303.200 Y12.017 Z30.000 I-486.456 J-34.179 K0.000 F2500.000
G2 X288.000 Y-3.200 Z30.000 I-15.205 J-0.013 K0.000 F2500.000
G1 X0.000 Y-3.200 Z30.000 F2500.000
G2 X-3.200 Y0.000 Z30.000 I-0.000 J3.200 K0.000 F2500.000
G1 X-3.200 Y600.000 Z30.000 F2500.000
G2 X0.009 Y603.200 Z30.000 I3.200 J0.000 K0.000 F2500.000
G2 X34.661 Y602.365 Z30.000 I1.639 J-651.178 K0.000 F2500.000
G2 X68.659 Y599.399 Z30.000 I-18.928 J-413.393 K0.000 F2500.000
G2 X95.096 Y594.715 Z30.000 I-31.269 J-253.398 K0.000 F2500.000
G2 X115.589 Y588.647 Z30.000 I-35.431 J-157.303 K0.000 F2500.000
G2 X131.443 Y581.397 Z30.000 I-36.429 J-100.623 K0.000 F2500.000
G2 X145.302 Y571.607 Z30.000 I-36.220 J-65.979 K0.000 F2500.000
G2 X160.041 Y552.256 Z30.000 I-41.404 J-46.823 K0.000 F2500.000
G2 X162.152 Y547.413 Z30.000 I-69.471 J-33.155 K0.000 F2500.000
G1 X162.770 Y545.795 Z29.000 F2500.000
G1 X162.152 Y547.413 Z28.000 F2500.000
G2 X165.560 Y536.481 Z28.000 I-71.581 J-28.313 K0.000 F2500.000
G2 X168.122 Y519.361 Z28.000 I-119.494 J-26.639 K0.000 F2500.000
G2 X168.798 Y503.227 Z28.000 I-255.448 J-18.775 K0.000 F2500.000
G2 X168.211 Y459.938 Z28.000 I-1391.124 J-2.787 K0.000 F2500.000
G2 X166.615 Y413.706 Z28.000 I-8736.798 J278.398 K0.000 F2500.000
G3 X165.168 Y370.071 Z28.000 I3058.502 J-123.237 K0.000 F2500.000
G3 X164.831 Y325.620 Z28.000 I1021.706 J-29.974 K0.000 F2500.000
G3 X165.774 Y302.774 Z28.000 I425.825 J6.124 K0.000 F2500.000
G3 X168.858 Y275.238 Z28.000 I277.313 J17.123 K0.000 F2500.000
G3 X173.599 Y253.905 Z28.000 I172.016 J27.030 K0.000 F2500.000
G3 X180.908 Y234.594 Z28.000 I113.820 J32.043 K0.000 F2500.000
G3 X193.865 Y214.394 Z28.000 I87.545 J41.897 K0.000 F2500.000
G3 X206.167 Y201.743 Z28.000 I98.988 J83.952 K0.000 F2500.000
G3 X219.028 Y190.992 Z28.000 I188.956 J212.978 K0.000 F2500.000
G2 X235.597 Y178.140 Z28.000 I-1605.378 J-2086.764 K0.000 F2500.000
G2 X255.472 Y161.577 Z28.000 I-219.408 J-283.480 K0.000 F2500.000
G2 X263.572 Y153.713 Z28.000 I-92.668 J-103.554 K0.000 F2500.000
G2 X282.478 Y127.387 Z28.000 I-83.196 J-79.700 K0.000 F2500.000
G2 X291.278 Y106.316 Z28.000 I-129.057 J-66.275 K0.000 F2500.000
G2 X297.865 Y80.076 Z28.000 I-197.183 J-63.442 K0.000 F2500.000
G2 X302.001 Y46.954 Z28.000 I-316.300 J-56.318 K0.000 F2500.000
G2 X303.200 Y12.017 Z28.000 I-486.456 J-34.179 K0.000 F2500.000
G2 X288.000 Y-3.200 Z28.000 I-15.205 J-0.013 K0.000 F2500.000
G1 X0.000 Y-3.200 Z28.000 F2500.000
G2 X-3.200 Y0.000 Z28.000 I-0.000 J3.200 K0.000 F2500.000
G1 X-3.200 Y600.000 Z28.000 F2500.000
G2 X0.009 Y603.200 Z28.000 I3.200 J0.000 K0.000 F2500.000
G2 X34.661 Y602.365 Z28.000 I1.639 J-651.178 K0.000 F2500.000
G2 X68.659 Y599.399 Z28.000 I-18.928 J-413.393 K0.000 F2500.000
G2 X95.096 Y594.715 Z28.000 I-31.269 J-253.398 K0.000 F2500.000
G2 X115.589 Y588.647 Z28.000 I-35.431 J-157.303 K0.000 F2500.000
G2 X131.443 Y581.397 Z28.000 I-36.429 J-100.623 K0.000 F2500.000
G2 X145.302 Y571.607 Z28.000 I-36.220 J-65.979 K0.000 F2500.000
G2 X160.041 Y552.256 Z28.000 I-41.404 J-46.823 K0.000 F2500.000
G2 X162.152 Y547.413 Z28.000 I-69.471 J-33.155 K0.000 F2500.000
G1 X162.770 Y545.795 Z27.000 F2500.000
G1 X162.152 Y547.413 Z26.000 F2500.000
G2 X165.560 Y536.481 Z26.000 I-71.581 J-28.313 K0.000 F2500.000
G2 X168.122 Y519.361 Z26.000 I-119.494 J-26.639 K0.000 F2500.000
G2 X168.798 Y503.227 Z26.000 I-255.448 J-18.775 K0.000 F2500.000
G2 X168.211 Y459.938 Z26.000 I-1391.124 J-2.787 K0.000 F2500.000
G2 X166.615 Y413.706 Z26.000 I-8736.798 J278.398 K0.000 F2500.000
G3 X165.168 Y370.071 Z26.000 I3058.502 J-123.237 K0.000 F2500.000
G3 X164.831 Y325.620 Z26.000 I1021.706 J-29.974 K0.000 F2500.000
G3 X165.774 Y302.774 Z26.000 I425.825 J6.124 K0.000 F2500.000
G3 X168.858 Y275.238 Z26.000 I277.313 J17.123 K0.000 F2500.000
G3 X173.599 Y253.905 Z26.000 I172.016 J27.030 K0.000 F2500.000
G3 X180.908 Y234.594 Z26.000 I113.820 J32.043 K0.000 F2500.000
G3 X193.865 Y214.394 Z26.000 I87.545 J41.897 K0.000 F2500.000
G3 X206.167 Y201.743 Z26.000 I98.988 J83.952 K0.000 F2500.000
G3 X219.028 Y190.992 Z26.000 I188.956 J212.978 K0.000 F2500.000
G2 X235.597 Y178.140 Z26.000 I-1605.378 J-2086.764 K0.000 F2500.000
G2 X255.472 Y161.577 Z26.000 I-219.408 J-283.480 K0.000 F2500.000
G2 X263.572 Y153.713 Z26.000 I-92.668 J-103.554 K0.000 F2500.000
G2 X282.478 Y127.387 Z26.000 I-83.196 J-79.700 K0.000 F2500.000
G2 X291.278 Y106.316 Z26.000 I-129.057 J-66.275 K0.000 F2500.000
G2 X297.865 Y80.076 Z26.000 I-197.183 J-63.442 K0.000 F2500.000
G2 X302.001 Y46.954 Z26.000 I-316.300 J-56.318 K0.000 F2500.000
G2 X303.200 Y12.017 Z26.000 I-486.456 J-34.179 K0.000 F2500.000
G2 X288.000 Y-3.200 Z26.000 I-15.205 J-0.013 K0.000 F2500.000
G1 X0.000 Y-3.200 Z26.000 F2500.000
G2 X-3.200 Y0.000 Z26.000 I-0.000 J3.200 K0.000 F2500.000
G1 X-3.200 Y600.000 Z26.000 F2500.000
G2 X0.009 Y603.200 Z26.000 I3.200 J0.000 K0.000 F2500.000
G2 X34.661 Y602.365 Z26.000 I1.639 J-651.178 K0.000 F2500.000
G2 X68.659 Y599.399 Z26.000 I-18.928 J-413.393 K0.000 F2500.000
G2 X95.096 Y594.715 Z26.000 I-31.269 J-253.398 K0.000 F2500.000
G2 X115.589 Y588.647 Z26.000 I-35.431 J-157.303 K0.000 F2500.000
G2 X131.443 Y581.397 Z26.000 I-36.429 J-100.623 K0.000 F2500.000
G2 X145.302 Y571.607 Z26.000 I-36.220 J-65.979 K0.000 F2500.000
G2 X160.041 Y552.256 Z26.000 I-41.404 J-46.823 K0.000 F2500.000
G2 X162.152 Y547.413 Z26.000 I-69.471 J-33.155 K0.000 F2500.000
G1 X162.770 Y545.795 Z25.000 F2500.000
G1 X162.152 Y547.413 Z24.000 F2500.000
G2 X165.560 Y536.481 Z24.000 I-71.581 J-28.313 K0.000 F2500.000
G2 X168.122 Y519.361 Z24.000 I-119.494 J-26.639 K0.000 F2500.000
G2 X168.798 Y503.227 Z24.000 I-255.448 J-18.775 K0.000 F2500.000
G2 X168.211 Y459.938 Z24.000 I-1391.124 J-2.787 K0.000 F2500.000
G2 X166.615 Y413.706 Z24.000 I-8736.798 J278.398 K0.000 F2500.000
G3 X165.168 Y370.071 Z24.000 I3058.502 J-123.237 K0.000 F2500.000
G3 X164.831 Y325.620 Z24.000 I1021.706 J-29.974 K0.000 F2500.000
G3 X165.774 Y302.774 Z24.000 I425.825 J6.124 K0.000 F2500.000
G3 X168.858 Y275.238 Z24.000 I277.313 J17.123 K0.000 F2500.000
G3 X173.599 Y253.905 Z24.000 I172.016 J27.030 K0.000 F2500.000
G3 X180.908 Y234.594 Z24.000 I113.820 J32.043 K0.000 F2500.000
G3 X193.865 Y214.394 Z24.000 I87.545 J41.897 K0.000 F2500.000
G3 X206.167 Y201.743 Z24.000 I98.988 J83.952 K0.000 F2500.000
G3 X219.028 Y190.992 Z24.000 I188.956 J212.978 K0.000 F2500.000
G2 X235.597 Y178.140 Z24.000 I-1605.378 J-2086.764 K0.000 F2500.000
G2 X255.472 Y161.577 Z24.000 I-219.408 J-283.480 K0.000 F2500.000
G2 X263.572 Y153.713 Z24.000 I-92.668 J-103.554 K0.000 F2500.000
G2 X282.478 Y127.387 Z24.000 I-83.196 J-79.700 K0.000 F2500.000
G2 X291.278 Y106.316 Z24.000 I-129.057 J-66.275 K0.000 F2500.000
G2 X297.865 Y80.076 Z24.000 I-197.183 J-63.442 K0.000 F2500.000
G2 X302.001 Y46.954 Z24.000 I-316.300 J-56.318 K0.000 F2500.000
G2 X303.200 Y12.017 Z24.000 I-486.456 J-34.179 K0.000 F2500.000
G2 X288.000 Y-3.200 Z24.000 I-15.205 J-0.013 K0.000 F2500.000
G1 X0.000 Y-3.200 Z24.000 F2500.000
G2 X-3.200 Y0.000 Z24.000 I-0.000 J3.200 K0.000 F2500.000
G1 X-3.200 Y600.000 Z24.000 F2500.000
G2 X0.009 Y603.200 Z24.000 I3.200 J0.000 K0.000 F2500.000
G2 X34.661 Y602.365 Z24.000 I1.639 J-651.178 K0.000 F2500.000
G2 X68.659 Y599.399 Z24.000 I-18.928 J-413.393 K0.000 F2500.000
G2 X95.096 Y594.715 Z24.000 I-31.269 J-253.398 K0.000 F2500.000
G2 X115.589 Y588.647 Z24.000 I-35.431 J-157.303 K0.000 F2500.000
G2 X131.443 Y581.397 Z24.000 I-36.429 J-100.623 K0.000 F2500.000
G2 X145.302 Y571.607 Z24.000 I-36.220 J-65.979 K0.000 F2500.000
G2 X160.041 Y552.256 Z24.000 I-41.404 J-46.823 K0.000 F2500.000
G2 X162.152 Y547.413 Z24.000 I-69.471 J-33.155 K0.000 F2500.000
G1 X162.770 Y545.795 Z23.000 F2500.000
G1 X162.152 Y547.413 Z22.000 F2500.000
G2 X165.560 Y536.481 Z22.000 I-71.581 J-28.313 K0.000 F2500.000
G2 X168.122 Y519.361 Z22.000 I-119.494 J-26.639 K0.000 F2500.000
G2 X168.798 Y503.227 Z22.000 I-255.448 J-18.775 K0.000 F2500.000
G2 X168.211 Y459.938 Z22.000 I-1391.124 J-2.787 K0.000 F2500.000
G2 X166.615 Y413.706 Z22.000 I-8736.798 J278.398 K0.000 F2500.000
G3 X165.168 Y370.071 Z22.000 I3058.502 J-123.237 K0.000 F2500.000
G3 X164.831 Y325.620 Z22.000 I1021.706 J-29.974 K0.000 F2500.000
G3 X165.774 Y302.774 Z22.000 I425.825 J6.124 K0.000 F2500.000
G3 X168.858 Y275.238 Z22.000 I277.313 J17.123 K0.000 F2500.000
G3 X173.599 Y253.905 Z22.000 I172.016 J27.030 K0.000 F2500.000
G3 X180.908 Y234.594 Z22.000 I113.820 J32.043 K0.000 F2500.000
G3 X193.865 Y214.394 Z22.000 I87.545 J41.897 K0.000 F2500.000
G3 X206.167 Y201.743 Z22.000 I98.988 J83.952 K0.000 F2500.000
G3 X219.028 Y190.992 Z22.000 I188.956 J212.978 K0.000 F2500.000
G2 X235.597 Y178.140 Z22.000 I-1605.378 J-2086.764 K0.000 F2500.000
G2 X255.472 Y161.577 Z22.000 I-219.408 J-283.480 K0.000 F2500.000
G2 X263.572 Y153.713 Z22.000 I-92.668 J-103.554 K0.000 F2500.000
G2 X282.478 Y127.387 Z22.000 I-83.196 J-79.700 K0.000 F2500.000
G2 X291.278 Y106.316 Z22.000 I-129.057 J-66.275 K0.000 F2500.000
G2 X297.865 Y80.076 Z22.000 I-197.183 J-63.442 K0.000 F2500.000
G2 X302.001 Y46.954 Z22.000 I-316.300 J-56.318 K0.000 F2500.000
G2 X303.200 Y12.017 Z22.000 I-486.456 J-34.179 K0.000 F2500.000
G2 X288.000 Y-3.200 Z22.000 I-15.205 J-0.013 K0.000 F2500.000
G1 X0.000 Y-3.200 Z22.000 F2500.000
G2 X-3.200 Y0.000 Z22.000 I-0.000 J3.200 K0.000 F2500.000
G1 X-3.200 Y600.000 Z22.000 F2500.000
G2 X0.009 Y603.200 Z22.000 I3.200 J0.000 K0.000 F2500.000
G2 X34.661 Y602.365 Z22.000 I1.639 J-651.178 K0.000 F2500.000
G2 X68.659 Y599.399 Z22.000 I-18.928 J-413.393 K0.000 F2500.000
G2 X95.096 Y594.715 Z22.000 I-31.269 J-253.398 K0.000 F2500.000
G2 X115.589 Y588.647 Z22.000 I-35.431 J-157.303 K0.000 F2500.000
G2 X131.443 Y581.397 Z22.000 I-36.429 J-100.623 K0.000 F2500.000
G2 X145.302 Y571.607 Z22.000 I-36.220 J-65.979 K0.000 F2500.000
G2 X160.041 Y552.256 Z22.000 I-41.404 J-46.823 K0.000 F2500.000
G2 X162.152 Y547.413 Z22.000 I-69.471 J-33.155 K0.000 F2500.000
G1 X162.770 Y545.795 Z21.000 F2500.000
G1 X162.152 Y547.413 Z20.000 F2500.000
G2 X165.560 Y536.481 Z20.000 I-71.581 J-28.313 K0.000 F2500.000
G2 X168.122 Y519.361 Z20.000 I-119.494 J-26.639 K0.000 F2500.000
G2 X168.798 Y503.227 Z20.000 I-255.448 J-18.775 K0.000 F2500.000
G2 X168.211 Y459.938 Z20.000 I-1391.124 J-2.787 K0.000 F2500.000
G2 X166.615 Y413.706 Z20.000 I-8736.798 J278.398 K0.000 F2500.000
G3 X165.168 Y370.071 Z20.000 I3058.502 J-123.237 K0.000 F2500.000
G3 X164.831 Y325.620 Z20.000 I1021.706 J-29.974 K0.000 F2500.000
G3 X165.774 Y302.774 Z20.000 I425.825 J6.124 K0.000 F2500.000
G3 X168.858 Y275.238 Z20.000 I277.313 J17.123 K0.000 F2500.000
G3 X173.599 Y253.905 Z20.000 I172.016 J27.030 K0.000 F2500.000
G3 X180.908 Y234.594 Z20.000 I113.820 J32.043 K0.000 F2500.000
G3 X193.865 Y214.394 Z20.000 I87.545 J41.897 K0.000 F2500.000
G3 X206.167 Y201.743 Z20.000 I98.988 J83.952 K0.000 F2500.000
G3 X219.028 Y190.992 Z20.000 I188.956 J212.978 K0.000 F2500.000
G2 X235.597 Y178.140 Z20.000 I-1605.378 J-2086.764 K0.000 F2500.000
G2 X255.472 Y161.577 Z20.000 I-219.408 J-283.480 K0.000 F2500.000
G2 X263.572 Y153.713 Z20.000 I-92.668 J-103.554 K0.000 F2500.000
G2 X282.478 Y127.387 Z20.000 I-83.196 J-79.700 K0.000 F2500.000
G2 X291.278 Y106.316 Z20.000 I-129.057 J-66.275 K0.000 F2500.000
G2 X297.865 Y80.076 Z20.000 I-197.183 J-63.442 K0.000 F2500.000
G2 X302.001 Y46.954 Z20.000 I-316.300 J-56.318 K0.000 F2500.000
G2 X303.200 Y12.017 Z20.000 I-486.456 J-34.179 K0.000 F2500.000
G2 X288.000 Y-3.200 Z20.000 I-15.205 J-0.013 K0.000 F2500.000
G1 X0.000 Y-3.200 Z20.000 F2500.000
G2 X-3.200 Y0.000 Z20.000 I-0.000 J3.200 K0.000 F2500.000
G1 X-3.200 Y600.000 Z20.000 F2500.000
G2 X0.009 Y603.200 Z20.000 I3.200 J0.000 K0.000 F2500.000
G2 X34.661 Y602.365 Z20.000 I1.639 J-651.178 K0.000 F2500.000
G2 X68.659 Y599.399 Z20.000 I-18.928 J-413.393 K0.000 F2500.000
G2 X95.096 Y594.715 Z20.000 I-31.269 J-253.398 K0.000 F2500.000
G2 X115.589 Y588.647 Z20.000 I-35.431 J-157.303 K0.000 F2500.000
G2 X131.443 Y581.397 Z20.000 I-36.429 J-100.623 K0.000 F2500.000
G2 X145.302 Y571.607 Z20.000 I-36.220 J-65.979 K0.000 F2500.000
G2 X160.041 Y552.256 Z20.000 I-41.404 J-46.823 K0.000 F2500.000
G2 X162.152 Y547.413 Z20.000 I-69.471 J-33.155 K0.000 F2500.000
G1 X162.770 Y545.795 Z19.000 F2500.000
G1 X162.152 Y547.413 Z18.000 F2500.000
G2 X165.560 Y536.481 Z18.000 I-71.581 J-28.313 K0.000 F2500.000
G2 X168.122 Y519.361 Z18.000 I-119.494 J-26.639 K0.000 F2500.000
G2 X168.798 Y503.227 Z18.000 I-255.448 J-18.775 K0.000 F2500.000
G2 X168.211 Y459.938 Z18.000 I-1391.124 J-2.787 K0.000 F2500.000
G2 X166.615 Y413.706 Z18.000 I-8736.798 J278.398 K0.000 F2500.000
G3 X165.168 Y370.071 Z18.000 I3058.502 J-123.237 K0.000 F2500.000
G3 X164.831 Y325.620 Z18.000 I1021.706 J-29.974 K0.000 F2500.000
G3 X165.774 Y302.774 Z18.000 I425.825 J6.124 K0.000 F2500.000
G3 X168.858 Y275.238 Z18.000 I277.313 J17.123 K0.000 F2500.000
G3 X173.599 Y253.905 Z18.000 I172.016 J27.030 K0.000 F2500.000
G3 X180.908 Y234.594 Z18.000 I113.820 J32.043 K0.000 F2500.000
G3 X193.865 Y214.394 Z18.000 I87.545 J41.897 K0.000 F2500.000
G3 X206.167 Y201.743 Z18.000 I98.988 J83.952 K0.000 F2500.000
G3 X219.028 Y190.992 Z18.000 I188.956 J212.978 K0.000 F2500.000
G2 X235.597 Y178.140 Z18.000 I-1605.378 J-2086.764 K0.000 F2500.000
G2 X255.472 Y161.577 Z18.000 I-219.408 J-283.480 K0.000 F2500.000
G2 X263.572 Y153.713 Z18.000 I-92.668 J-103.554 K0.000 F2500.000
G2 X282.478 Y127.387 Z18.000 I-83.196 J-79.700 K0.000 F2500.000
G2 X291.278 Y106.316 Z18.000 I-129.057 J-66.275 K0.000 F2500.000
G2 X297.865 Y80.076 Z18.000 I-197.183 J-63.442 K0.000 F2500.000
G2 X302.001 Y46.954 Z18.000 I-316.300 J-56.318 K0.000 F2500.000
G2 X303.200 Y12.017 Z18.000 I-486.456 J-34.179 K0.000 F2500.000
G2 X288.000 Y-3.200 Z18.000 I-15.205 J-0.013 K0.000 F2500.000
G1 X0.000 Y-3.200 Z18.000 F2500.000
G2 X-3.200 Y0.000 Z18.000 I-0.000 J3.200 K0.000 F2500.000
G1 X-3.200 Y600.000 Z18.000 F2500.000
G2 X0.009 Y603.200 Z18.000 I3.200 J0.000 K0.000 F2500.000
G2 X34.661 Y602.365 Z18.000 I1.639 J-651.178 K0.000 F2500.000
G2 X68.659 Y599.399 Z18.000 I-18.928 J-413.393 K0.000 F2500.000
G2 X95.096 Y594.715 Z18.000 I-31.269 J-253.398 K0.000 F2500.000
G2 X115.589 Y588.647 Z18.000 I-35.431 J-157.303 K0.000 F2500.000
G2 X131.443 Y581.397 Z18.000 I-36.429 J-100.623 K0.000 F2500.000
G2 X145.302 Y571.607 Z18.000 I-36.220 J-65.979 K0.000 F2500.000
G2 X160.041 Y552.256 Z18.000 I-41.404 J-46.823 K0.000 F2500.000
G2 X162.152 Y547.413 Z18.000 I-69.471 J-33.155 K0.000 F2500.000
G1 X162.770 Y545.795 Z17.000 F2500.000
G1 X162.152 Y547.413 Z16.000 F2500.000
G2 X165.560 Y536.481 Z16.000 I-71.581 J-28.313 K0.000 F2500.000
G2 X168.122 Y519.361 Z16.000 I-119.494 J-26.639 K0.000 F2500.000
G2 X168.798 Y503.227 Z16.000 I-255.448 J-18.775 K0.000 F2500.000
G2 X168.211 Y459.938 Z16.000 I-1391.124 J-2.787 K0.000 F2500.000
G2 X166.615 Y413.706 Z16.000 I-8736.798 J278.398 K0.000 F2500.000
G3 X165.168 Y370.071 Z16.000 I3058.502 J-123.237 K0.000 F2500.000
G3 X164.831 Y325.620 Z16.000 I1021.706 J-29.974 K0.000 F2500.000
G3 X165.774 Y302.774 Z16.000 I425.825 J6.124 K0.000 F2500.000
G3 X168.858 Y275.238 Z16.000 I277.313 J17.123 K0.000 F2500.000
G3 X173.599 Y253.905 Z16.000 I172.016 J27.030 K0.000 F2500.000
G3 X180.908 Y234.594 Z16.000 I113.820 J32.043 K0.000 F2500.000
G3 X193.865 Y214.394 Z16.000 I87.545 J41.897 K0.000 F2500.000
G3 X206.167 Y201.743 Z16.000 I98.988 J83.952 K0.000 F2500.000
G3 X219.028 Y190.992 Z16.000 I188.956 J212.978 K0.000 F2500.000
G2 X235.597 Y178.140 Z16.000 I-1605.378 J-2086.764 K0.000 F2500.000
G2 X255.472 Y161.577 Z16.000 I-219.408 J-283.480 K0.000 F2500.000
G2 X263.572 Y153.713 Z16.000 I-92.668 J-103.554 K0.000 F2500.000
G2 X282.478 Y127.387 Z16.000 I-83.196 J-79.700 K0.000 F2500.000
G2 X291.278 Y106.316 Z16.000 I-129.057 J-66.275 K0.000 F2500.000
G2 X297.865 Y80.076 Z16.000 I-197.183 J-63.442 K0.000 F2500.000
G2 X302.001 Y46.954 Z16.000 I-316.300 J-56.318 K0.000 F2500.000
G2 X303.200 Y12.017 Z16.000 I-486.456 J-34.179 K0.000 F2500.000
G2 X288.000 Y-3.200 Z16.000 I-15.205 J-0.013 K0.000 F2500.000
G1 X0.000 Y-3.200 Z16.000 F2500.000
G2 X-3.200 Y0.000 Z16.000 I-0.000 J3.200 K0.000 F2500.000
G1 X-3.200 Y600.000 Z16.000 F2500.000
G2 X0.009 Y603.200 Z16.000 I3.200 J0.000 K0.000 F2500.000
G2 X34.661 Y602.365 Z16.000 I1.639 J-651.178 K0.000 F2500.000
G2 X68.659 Y599.399 Z16.000 I-18.928 J-413.393 K0.000 F2500.000
G2 X95.096 Y594.715 Z16.000 I-31.269 J-253.398 K0.000 F2500.000
G2 X115.589 Y588.647 Z16.000 I-35.431 J-157.303 K0.000 F2500.000
G2 X131.443 Y581.397 Z16.000 I-36.429 J-100.623 K0.000 F2500.000
G2 X145.302 Y571.607 Z16.000 I-36.220 J-65.979 K0.000 F2500.000
G2 X160.041 Y552.256 Z16.000 I-41.404 J-46.823 K0.000 F2500.000
G2 X162.152 Y547.413 Z16.000 I-69.471 J-33.155 K0.000 F2500.000
G1 X162.770 Y545.795 Z15.000 F2500.000
G1 X162.152 Y547.413 Z14.000 F2500.000
G2 X165.560 Y536.481 Z14.000 I-71.581 J-28.313 K0.000 F2500.000
G2 X168.122 Y519.361 Z14.000 I-119.494 J-26.639 K0.000 F2500.000
G2 X168.798 Y503.227 Z14.000 I-255.448 J-18.775 K0.000 F2500.000
G2 X168.211 Y459.938 Z14.000 I-1391.124 J-2.787 K0.000 F2500.000
G2 X166.615 Y413.706 Z14.000 I-8736.798 J278.398 K0.000 F2500.000
G3 X165.168 Y370.071 Z14.000 I3058.502 J-123.237 K0.000 F2500.000
G3 X164.831 Y325.620 Z14.000 I1021.706 J-29.974 K0.000 F2500.000
G3 X165.774 Y302.774 Z14.000 I425.825 J6.124 K0.000 F2500.000
G3 X168.858 Y275.238 Z14.000 I277.313 J17.123 K0.000 F2500.000
G3 X173.599 Y253.905 Z14.000 I172.016 J27.030 K0.000 F2500.000
G3 X180.908 Y234.594 Z14.000 I113.820 J32.043 K0.000 F2500.000
G3 X193.865 Y214.394 Z14.000 I87.545 J41.897 K0.000 F2500.000
G3 X206.167 Y201.743 Z14.000 I98.988 J83.952 K0.000 F2500.000
G3 X219.028 Y190.992 Z14.000 I188.956 J212.978 K0.000 F2500.000
G2 X235.597 Y178.140 Z14.000 I-1605.378 J-2086.764 K0.000 F2500.000
G2 X255.472 Y161.577 Z14.000 I-219.408 J-283.480 K0.000 F2500.000
G2 X263.572 Y153.713 Z14.000 I-92.668 J-103.554 K0.000 F2500.000
G2 X282.478 Y127.387 Z14.000 I-83.196 J-79.700 K0.000 F2500.000
G2 X291.278 Y106.316 Z14.000 I-129.057 J-66.275 K0.000 F2500.000
G2 X297.865 Y80.076 Z14.000 I-197.183 J-63.442 K0.000 F2500.000
G2 X302.001 Y46.954 Z14.000 I-316.300 J-56.318 K0.000 F2500.000
G2 X303.200 Y12.017 Z14.000 I-486.456 J-34.179 K0.000 F2500.000
G2 X288.000 Y-3.200 Z14.000 I-15.205 J-0.013 K0.000 F2500.000
G1 X0.000 Y-3.200 Z14.000 F2500.000
G2 X-3.200 Y0.000 Z14.000 I-0.000 J3.200 K0.000 F2500.000
G1 X-3.200 Y600.000 Z14.000 F2500.000
G2 X0.009 Y603.200 Z14.000 I3.200 J0.000 K0.000 F2500.000
G2 X34.661 Y602.365 Z14.000 I1.639 J-651.178 K0.000 F2500.000
G2 X68.659 Y599.399 Z14.000 I-18.928 J-413.393 K0.000 F2500.000
G2 X95.096 Y594.715 Z14.000 I-31.269 J-253.398 K0.000 F2500.000
G2 X115.589 Y588.647 Z14.000 I-35.431 J-157.303 K0.000 F2500.000
G2 X131.443 Y581.397 Z14.000 I-36.429 J-100.623 K0.000 F2500.000
G2 X145.302 Y571.607 Z14.000 I-36.220 J-65.979 K0.000 F2500.000
G2 X160.041 Y552.256 Z14.000 I-41.404 J-46.823 K0.000 F2500.000
G2 X162.152 Y547.413 Z14.000 I-69.471 J-33.155 K0.000 F2500.000
G1 X162.770 Y545.795 Z13.000 F2500.000
G1 X162.152 Y547.413 Z12.000 F2500.000
G2 X165.560 Y536.481 Z12.000 I-71.581 J-28.313 K0.000 F2500.000
G2 X168.122 Y519.361 Z12.000 I-119.494 J-26.639 K0.000 F2500.000
G2 X168.798 Y503.227 Z12.000 I-255.448 J-18.775 K0.000 F2500.000
G2 X168.211 Y459.938 Z12.000 I-1391.124 J-2.787 K0.000 F2500.000
G2 X166.615 Y413.706 Z12.000 I-8736.798 J278.398 K0.000 F2500.000
G3 X165.168 Y370.071 Z12.000 I3058.502 J-123.237 K0.000 F2500.000
G3 X164.831 Y325.620 Z12.000 I1021.706 J-29.974 K0.000 F2500.000
G3 X165.774 Y302.774 Z12.000 I425.825 J6.124 K0.000 F2500.000
G3 X168.858 Y275.238 Z12.000 I277.313 J17.123 K0.000 F2500.000
G3 X173.599 Y253.905 Z12.000 I172.016 J27.030 K0.000 F2500.000
G3 X180.908 Y234.594 Z12.000 I113.820 J32.043 K0.000 F2500.000
G3 X193.865 Y214.394 Z12.000 I87.545 J41.897 K0.000 F2500.000
G3 X206.167 Y201.743 Z12.000 I98.988 J83.952 K0.000 F2500.000
G3 X219.028 Y190.992 Z12.000 I188.956 J212.978 K0.000 F2500.000
G2 X235.597 Y178.140 Z12.000 I-1605.378 J-2086.764 K0.000 F2500.000
G2 X255.472 Y161.577 Z12.000 I-219.408 J-283.480 K0.000 F2500.000
G2 X263.572 Y153.713 Z12.000 I-92.668 J-103.554 K0.000 F2500.000
G2 X282.478 Y127.387 Z12.000 I-83.196 J-79.700 K0.000 F2500.000
G2 X291.278 Y106.316 Z12.000 I-129.057 J-66.275 K0.000 F2500.000
G2 X297.865 Y80.076 Z12.000 I-197.183 J-63.442 K0.000 F2500.000
G2 X302.001 Y46.954 Z12.000 I-316.300 J-56.318 K0.000 F2500.000
G2 X303.200 Y12.017 Z12.000 I-486.456 J-34.179 K0.000 F2500.000
G2 X288.000 Y-3.200 Z12.000 I-15.205 J-0.013 K0.000 F2500.000
G1 X0.000 Y-3.200 Z12.000 F2500.000
G2 X-3.200 Y0.000 Z12.000 I-0.000 J3.200 K0.000 F2500.000
G1 X-3.200 Y600.000 Z12.000 F2500.000
G2 X0.009 Y603.200 Z12.000 I3.200 J0.000 K0.000 F2500.000
G2 X34.661 Y602.365 Z12.000 I1.639 J-651.178 K0.000 F2500.000
G2 X68.659 Y599.399 Z12.000 I-18.928 J-413.393 K0.000 F2500.000
G2 X95.096 Y594.715 Z12.000 I-31.269 J-253.398 K0.000 F2500.000
G2 X115.589 Y588.647 Z12.000 I-35.431 J-157.303 K0.000 F2500.000
G2 X131.443 Y581.397 Z12.000 I-36.429 J-100.623 K0.000 F2500.000
G2 X145.302 Y571.607 Z12.000 I-36.220 J-65.979 K0.000 F2500.000
G2 X160.041 Y552.256 Z12.000 I-41.404 J-46.823 K0.000 F2500.000
G2 X162.152 Y547.413 Z12.000 I-69.471 J-33.155 K0.000 F2500.000
G1 X162.770 Y545.795 Z11.000 F2500.000
G1 X162.152 Y547.413 Z10.000 F2500.000
G2 X165.560 Y536.481 Z10.000 I-71.581 J-28.313 K0.000 F2500.000
G2 X168.122 Y519.361 Z10.000 I-119.494 J-26.639 K0.000 F2500.000
G2 X168.798 Y503.227 Z10.000 I-255.448 J-18.775 K0.000 F2500.000
G2 X168.211 Y459.938 Z10.000 I-1391.124 J-2.787 K0.000 F2500.000
G2 X166.615 Y413.706 Z10.000 I-8736.798 J278.398 K0.000 F2500.000
G3 X165.168 Y370.071 Z10.000 I3058.502 J-123.237 K0.000 F2500.000
G3 X164.831 Y325.620 Z10.000 I1021.706 J-29.974 K0.000 F2500.000
G3 X165.774 Y302.774 Z10.000 I425.825 J6.124 K0.000 F2500.000
G3 X168.858 Y275.238 Z10.000 I277.313 J17.123 K0.000 F2500.000
G3 X173.599 Y253.905 Z10.000 I172.016 J27.030 K0.000 F2500.000
G3 X180.908 Y234.594 Z10.000 I113.820 J32.043 K0.000 F2500.000
G3 X193.865 Y214.394 Z10.000 I87.545 J41.897 K0.000 F2500.000
G3 X206.167 Y201.743 Z10.000 I98.988 J83.952 K0.000 F2500.000
G3 X219.028 Y190.992 Z10.000 I188.956 J212.978 K0.000 F2500.000
G2 X235.597 Y178.140 Z10.000 I-1605.378 J-2086.764 K0.000 F2500.000
G2 X255.472 Y161.577 Z10.000 I-219.408 J-283.480 K0.000 F2500.000
G2 X263.572 Y153.713 Z10.000 I-92.668 J-103.554 K0.000 F2500.000
G2 X282.478 Y127.387 Z10.000 I-83.196 J-79.700 K0.000 F2500.000
G2 X291.278 Y106.316 Z10.000 I-129.057 J-66.275 K0.000 F2500.000
G2 X297.865 Y80.076 Z10.000 I-197.183 J-63.442 K0.000 F2500.000
G2 X302.001 Y46.954 Z10.000 I-316.300 J-56.318 K0.000 F2500.000
G2 X303.200 Y12.017 Z10.000 I-486.456 J-34.179 K0.000 F2500.000
G2 X288.000 Y-3.200 Z10.000 I-15.205 J-0.013 K0.000 F2500.000
G1 X0.000 Y-3.200 Z10.000 F2500.000
G2 X-3.200 Y0.000 Z10.000 I-0.000 J3.200 K0.000 F2500.000
G1 X-3.200 Y600.000 Z10.000 F2500.000
G2 X0.009 Y603.200 Z10.000 I3.200 J0.000 K0.000 F2500.000
G2 X34.661 Y602.365 Z10.000 I1.639 J-651.178 K0.000 F2500.000
G2 X68.659 Y599.399 Z10.000 I-18.928 J-413.393 K0.000 F2500.000
G2 X95.096 Y594.715 Z10.000 I-31.269 J-253.398 K0.000 F2500.000
G2 X115.589 Y588.647 Z10.000 I-35.431 J-157.303 K0.000 F2500.000
G2 X131.443 Y581.397 Z10.000 I-36.429 J-100.623 K0.000 F2500.000
G2 X145.302 Y571.607 Z10.000 I-36.220 J-65.979 K0.000 F2500.000
G2 X160.041 Y552.256 Z10.000 I-41.404 J-46.823 K0.000 F2500.000
G2 X162.152 Y547.413 Z10.000 I-69.471 J-33.155 K0.000 F2500.000
G1 X162.770 Y545.795 Z9.000 F2500.000
G1 X162.152 Y547.413 Z8.000 F2500.000
G2 X165.560 Y536.481 Z8.000 I-71.581 J-28.313 K0.000 F2500.000
G2 X168.122 Y519.361 Z8.000 I-119.494 J-26.639 K0.000 F2500.000
G2 X168.798 Y503.227 Z8.000 I-255.448 J-18.775 K0.000 F2500.000
G2 X168.211 Y459.938 Z8.000 I-1391.124 J-2.787 K0.000 F2500.000
G2 X166.615 Y413.706 Z8.000 I-8736.798 J278.398 K0.000 F2500.000
G3 X165.168 Y370.071 Z8.000 I3058.502 J-123.237 K0.000 F2500.000
G3 X164.831 Y325.620 Z8.000 I1021.706 J-29.974 K0.000 F2500.000
G3 X165.774 Y302.774 Z8.000 I425.825 J6.124 K0.000 F2500.000
G3 X168.858 Y275.238 Z8.000 I277.313 J17.123 K0.000 F2500.000
G3 X173.599 Y253.905 Z8.000 I172.016 J27.030 K0.000 F2500.000
G3 X180.908 Y234.594 Z8.000 I113.820 J32.043 K0.000 F2500.000
G3 X193.865 Y214.394 Z8.000 I87.545 J41.897 K0.000 F2500.000
G3 X206.167 Y201.743 Z8.000 I98.988 J83.952 K0.000 F2500.000
G3 X219.028 Y190.992 Z8.000 I188.956 J212.978 K0.000 F2500.000
G2 X235.597 Y178.140 Z8.000 I-1605.378 J-2086.764 K0.000 F2500.000
G2 X255.472 Y161.577 Z8.000 I-219.408 J-283.480 K0.000 F2500.000
G2 X263.572 Y153.713 Z8.000 I-92.668 J-103.554 K0.000 F2500.000
G2 X282.478 Y127.387 Z8.000 I-83.196 J-79.700 K0.000 F2500.000
G2 X291.278 Y106.316 Z8.000 I-129.057 J-66.275 K0.000 F2500.000
G2 X297.865 Y80.076 Z8.000 I-197.183 J-63.442 K0.000 F2500.000
G2 X302.001 Y46.954 Z8.000 I-316.300 J-56.318 K0.000 F2500.000
G2 X303.200 Y12.017 Z8.000 I-486.456 J-34.179 K0.000 F2500.000
G2 X288.000 Y-3.200 Z8.000 I-15.205 J-0.013 K0.000 F2500.000
G1 X0.000 Y-3.200 Z8.000 F2500.000
G2 X-3.200 Y0.000 Z8.000 I-0.000 J3.200 K0.000 F2500.000
G1 X-3.200 Y600.000 Z8.000 F2500.000
G2 X0.009 Y603.200 Z8.000 I3.200 J0.000 K0.000 F2500.000
G2 X34.661 Y602.365 Z8.000 I1.639 J-651.178 K0.000 F2500.000
G2 X68.659 Y599.399 Z8.000 I-18.928 J-413.393 K0.000 F2500.000
G2 X95.096 Y594.715 Z8.000 I-31.269 J-253.398 K0.000 F2500.000
G2 X115.589 Y588.647 Z8.000 I-35.431 J-157.303 K0.000 F2500.000
G2 X131.443 Y581.397 Z8.000 I-36.429 J-100.623 K0.000 F2500.000
G2 X145.302 Y571.607 Z8.000 I-36.220 J-65.979 K0.000 F2500.000
G2 X160.041 Y552.256 Z8.000 I-41.404 J-46.823 K0.000 F2500.000
G2 X162.152 Y547.413 Z8.000 I-69.471 J-33.155 K0.000 F2500.000
G1 X162.770 Y545.795 Z7.000 F2500.000
G1 X162.152 Y547.413 Z6.000 F2500.000
G2 X165.560 Y536.481 Z6.000 I-71.581 J-28.313 K0.000 F2500.000
G2 X168.122 Y519.361 Z6.000 I-119.494 J-26.639 K0.000 F2500.000
G2 X168.798 Y503.227 Z6.000 I-255.448 J-18.775 K0.000 F2500.000
G2 X168.211 Y459.938 Z6.000 I-1391.124 J-2.787 K0.000 F2500.000
G2 X166.615 Y413.706 Z6.000 I-8736.798 J278.398 K0.000 F2500.000
G3 X165.168 Y370.071 Z6.000 I3058.502 J-123.237 K0.000 F2500.000
G3 X164.831 Y325.620 Z6.000 I1021.706 J-29.974 K0.000 F2500.000
G3 X165.774 Y302.774 Z6.000 I425.825 J6.124 K0.000 F2500.000
G3 X168.858 Y275.238 Z6.000 I277.313 J17.123 K0.000 F2500.000
G3 X173.599 Y253.905 Z6.000 I172.016 J27.030 K0.000 F2500.000
G3 X180.908 Y234.594 Z6.000 I113.820 J32.043 K0.000 F2500.000
G3 X193.865 Y214.394 Z6.000 I87.545 J41.897 K0.000 F2500.000
G3 X206.167 Y201.743 Z6.000 I98.988 J83.952 K0.000 F2500.000
G3 X219.028 Y190.992 Z6.000 I188.956 J212.978 K0.000 F2500.000
G2 X235.597 Y178.140 Z6.000 I-1605.378 J-2086.764 K0.000 F2500.000
G2 X255.472 Y161.577 Z6.000 I-219.408 J-283.480 K0.000 F2500.000
G2 X263.572 Y153.713 Z6.000 I-92.668 J-103.554 K0.000 F2500.000
G2 X282.478 Y127.387 Z6.000 I-83.196 J-79.700 K0.000 F2500.000
G2 X291.278 Y106.316 Z6.000 I-129.057 J-66.275 K0.000 F2500.000
G2 X297.865 Y80.076 Z6.000 I-197.183 J-63.442 K0.000 F2500.000
G2 X302.001 Y46.954 Z6.000 I-316.300 J-56.318 K0.000 F2500.000
G2 X303.200 Y12.017 Z6.000 I-486.456 J-34.179 K0.000 F2500.000
G2 X288.000 Y-3.200 Z6.000 I-15.205 J-0.013 K0.000 F2500.000
G1 X0.000 Y-3.200 Z6.000 F2500.000
G2 X-3.200 Y0.000 Z6.000 I-0.000 J3.200 K0.000 F2500.000
G1 X-3.200 Y600.000 Z6.000 F2500.000
G2 X0.009 Y603.200 Z6.000 I3.200 J0.000 K0.000 F2500.000
G2 X34.661 Y602.365 Z6.000 I1.639 J-651.178 K0.000 F2500.000
G2 X68.659 Y599.399 Z6.000 I-18.928 J-413.393 K0.000 F2500.000
G2 X95.096 Y594.715 Z6.000 I-31.269 J-253.398 K0.000 F2500.000
G2 X115.589 Y588.647 Z6.000 I-35.431 J-157.303 K0.000 F2500.000
G2 X131.443 Y581.397 Z6.000 I-36.429 J-100.623 K0.000 F2500.000
G2 X145.302 Y571.607 Z6.000 I-36.220 J-65.979 K0.000 F2500.000
G2 X160.041 Y552.256 Z6.000 I-41.404 J-46.823 K0.000 F2500.000
G2 X162.152 Y547.413 Z6.000 I-69.471 J-33.155 K0.000 F2500.000
G1 X162.770 Y545.795 Z5.000 F2500.000
G1 X162.152 Y547.413 Z4.000 F2500.000
G2 X165.560 Y536.481 Z4.000 I-71.581 J-28.313 K0.000 F2500.000
G2 X168.122 Y519.361 Z4.000 I-119.494 J-26.639 K0.000 F2500.000
G2 X168.798 Y503.227 Z4.000 I-255.448 J-18.775 K0.000 F2500.000
G2 X168.211 Y459.938 Z4.000 I-1391.124 J-2.787 K0.000 F2500.000
G2 X166.615 Y413.706 Z4.000 I-8736.798 J278.398 K0.000 F2500.000
G3 X165.168 Y370.071 Z4.000 I3058.502 J-123.237 K0.000 F2500.000
G3 X164.831 Y325.620 Z4.000 I1021.706 J-29.974 K0.000 F2500.000
G3 X165.774 Y302.774 Z4.000 I425.825 J6.124 K0.000 F2500.000
G3 X168.858 Y275.238 Z4.000 I277.313 J17.123 K0.000 F2500.000
G3 X173.599 Y253.905 Z4.000 I172.016 J27.030 K0.000 F2500.000
G3 X180.908 Y234.594 Z4.000 I113.820 J32.043 K0.000 F2500.000
G3 X193.865 Y214.394 Z4.000 I87.545 J41.897 K0.000 F2500.000
G3 X206.167 Y201.743 Z4.000 I98.988 J83.952 K0.000 F2500.000
G3 X219.028 Y190.992 Z4.000 I188.956 J212.978 K0.000 F2500.000
G2 X235.597 Y178.140 Z4.000 I-1605.378 J-2086.764 K0.000 F2500.000
G2 X255.472 Y161.577 Z4.000 I-219.408 J-283.480 K0.000 F2500.000
G2 X263.572 Y153.713 Z4.000 I-92.668 J-103.554 K0.000 F2500.000
G2 X282.478 Y127.387 Z4.000 I-83.196 J-79.700 K0.000 F2500.000
G2 X291.278 Y106.316 Z4.000 I-129.057 J-66.275 K0.000 F2500.000
G2 X297.865 Y80.076 Z4.000 I-197.183 J-63.442 K0.000 F2500.000
G2 X302.001 Y46.954 Z4.000 I-316.300 J-56.318 K0.000 F2500.000
G2 X303.200 Y12.017 Z4.000 I-486.456 J-34.179 K0.000 F2500.000
G2 X288.000 Y-3.200 Z4.000 I-15.205 J-0.013 K0.000 F2500.000
G1 X0.000 Y-3.200 Z4.000 F2500.000
G2 X-3.200 Y0.000 Z4.000 I-0.000 J3.200 K0.000 F2500.000
G1 X-3.200 Y600.000 Z4.000 F2500.000
G2 X0.009 Y603.200 Z4.000 I3.200 J0.000 K0.000 F2500.000
G2 X34.661 Y602.365 Z4.000 I1.639 J-651.178 K0.000 F2500.000
G2 X68.659 Y599.399 Z4.000 I-18.928 J-413.393 K0.000 F2500.000
G2 X95.096 Y594.715 Z4.000 I-31.269 J-253.398 K0.000 F2500.000
G2 X115.589 Y588.647 Z4.000 I-35.431 J-157.303 K0.000 F2500.000
G2 X131.443 Y581.397 Z4.000 I-36.429 J-100.623 K0.000 F2500.000
G2 X145.302 Y571.607 Z4.000 I-36.220 J-65.979 K0.000 F2500.000
G2 X160.041 Y552.256 Z4.000 I-41.404 J-46.823 K0.000 F2500.000
G2 X162.152 Y547.413 Z4.000 I-69.471 J-33.155 K0.000 F2500.000
G1 X162.770 Y545.795 Z3.000 F2500.000
G1 X162.152 Y547.413 Z2.000 F2500.000
G2 X165.560 Y536.481 Z2.000 I-71.581 J-28.313 K0.000 F2500.000
G2 X168.122 Y519.361 Z2.000 I-119.494 J-26.639 K0.000 F2500.000
G2 X168.798 Y503.227 Z2.000 I-255.448 J-18.775 K0.000 F2500.000
G2 X168.211 Y459.938 Z2.000 I-1391.124 J-2.787 K0.000 F2500.000
G2 X166.615 Y413.706 Z2.000 I-8736.798 J278.398 K0.000 F2500.000
G3 X165.168 Y370.071 Z2.000 I3058.502 J-123.237 K0.000 F2500.000
G3 X164.831 Y325.620 Z2.000 I1021.706 J-29.974 K0.000 F2500.000
G3 X165.774 Y302.774 Z2.000 I425.825 J6.124 K0.000 F2500.000
G3 X168.858 Y275.238 Z2.000 I277.313 J17.123 K0.000 F2500.000
G3 X173.599 Y253.905 Z2.000 I172.016 J27.030 K0.000 F2500.000
G3 X180.908 Y234.594 Z2.000 I113.820 J32.043 K0.000 F2500.000
G3 X193.865 Y214.394 Z2.000 I87.545 J41.897 K0.000 F2500.000
G3 X206.167 Y201.743 Z2.000 I98.988 J83.952 K0.000 F2500.000
G3 X219.028 Y190.992 Z2.000 I188.956 J212.978 K0.000 F2500.000
G2 X235.597 Y178.140 Z2.000 I-1605.378 J-2086.764 K0.000 F2500.000
G2 X255.472 Y161.577 Z2.000 I-219.408 J-283.480 K0.000 F2500.000
G2 X263.572 Y153.713 Z2.000 I-92.668 J-103.554 K0.000 F2500.000
G2 X282.478 Y127.387 Z2.000 I-83.196 J-79.700 K0.000 F2500.000
G2 X291.278 Y106.316 Z2.000 I-129.057 J-66.275 K0.000 F2500.000
G2 X297.865 Y80.076 Z2.000 I-197.183 J-63.442 K0.000 F2500.000
G2 X302.001 Y46.954 Z2.000 I-316.300 J-56.318 K0.000 F2500.000
G2 X303.200 Y12.017 Z2.000 I-486.456 J-34.179 K0.000 F2500.000
G2 X288.000 Y-3.200 Z2.000 I-15.205 J-0.013 K0.000 F2500.000
G1 X0.000 Y-3.200 Z2.000 F2500.000
G2 X-3.200 Y0.000 Z2.000 I-0.000 J3.200 K0.000 F2500.000
G1 X-3.200 Y600.000 Z2.000 F2500.000
G2 X0.009 Y603.200 Z2.000 I3.200 J0.000 K0.000 F2500.000
G2 X34.661 Y602.365 Z2.000 I1.639 J-651.178 K0.000 F2500.000
G2 X68.659 Y599.399 Z2.000 I-18.928 J-413.393 K0.000 F2500.000
G2 X95.096 Y594.715 Z2.000 I-31.269 J-253.398 K0.000 F2500.000
G2 X115.589 Y588.647 Z2.000 I-35.431 J-157.303 K0.000 F2500.000
G2 X131.443 Y581.397 Z2.000 I-36.429 J-100.623 K0.000 F2500.000
G2 X145.302 Y571.607 Z2.000 I-36.220 J-65.979 K0.000 F2500.000
G2 X160.041 Y552.256 Z2.000 I-41.404 J-46.823 K0.000 F2500.000
G2 X162.152 Y547.413 Z2.000 I-69.471 J-33.155 K0.000 F2500.000
G0 X162.152 Y547.413 Z42.000
(Finish operation: RampEntryDressup)
(Begin operation: RampEntryDressup001)
(Path: RampEntryDressup001)
G0 X0.000 Y0.000 Z42.000
G0 X161.979 Y547.304 Z42.000
G1 X162.785 Y545.172 Z40.685 F2500.000
G1 X163.527 Y543.017 Z39.368 F2500.000
G1 X164.205 Y540.841 Z38.051 F2500.000
G1 X164.818 Y538.645 Z36.735 F2500.000
G1 X165.366 Y536.432 Z35.420 F2500.000
G1 X165.959 Y533.611 Z33.757 F2500.000
G1 X166.487 Y530.778 Z32.092 F2500.000
G1 X166.947 Y527.933 Z30.427 F2500.000
G1 X167.339 Y525.078 Z28.762 F2500.000
G1 X167.665 Y522.214 Z27.098 F2500.000
G1 X167.923 Y519.343 Z25.435 F2500.000
G1 X168.176 Y515.511 Z23.217 F2500.000
G1 X168.371 Y511.675 Z21.000 F2500.000
G1 X168.176 Y515.511 Z18.783 F2500.000
G1 X167.923 Y519.343 Z16.565 F2500.000
G1 X167.665 Y522.214 Z14.902 F2500.000
G1 X167.339 Y525.078 Z13.238 F2500.000
G1 X166.947 Y527.933 Z11.573 F2500.000
G1 X166.487 Y530.778 Z9.908 F2500.000
G1 X165.959 Y533.611 Z8.243 F2500.000
G1 X165.366 Y536.432 Z6.580 F2500.000
G1 X164.818 Y538.645 Z5.265 F2500.000
G1 X164.205 Y540.841 Z3.949 F2500.000
G1 X163.527 Y543.017 Z2.632 F2500.000
G1 X162.785 Y545.172 Z1.315 F2500.000
G1 X161.979 Y547.304 Z0.000 F2500.000
G2 X165.366 Y536.432 Z0.000 I-71.412 J-28.205 K0.000 F2500.000
G2 X167.923 Y519.343 Z0.000 I-119.318 J-26.592 K0.000 F2500.000
G2 X168.598 Y503.224 Z0.000 I-255.290 J-18.758 K0.000 F2500.000
G2 X168.011 Y459.943 Z0.000 I-1391.104 J-2.780 K0.000 F2500.000
G2 X166.415 Y413.713 Z0.000 I-8737.339 J278.419 K0.000 F2500.000
G3 X165.800 Y397.374 Z0.000 I3058.670 J-123.243 K0.000 F2500.000
G1 X165.731 Y395.375 Z2.000 F2500.000
G3 X165.501 Y388.419 Z2.000 I3059.354 J-104.905 K0.000 F2500.000
G1 X165.437 Y386.420 Z0.000 F2500.000
G3 X164.968 Y370.076 Z0.000 I3059.648 J-95.950 K0.000 F2500.000
G3 X164.631 Y325.617 Z0.000 I1021.898 J-29.979 K0.000 F2500.000
G3 X165.574 Y302.761 Z0.000 I426.021 J6.127 K0.000 F2500.000
G3 X168.661 Y275.206 Z0.000 I277.510 J17.136 K0.000 F2500.000
G3 X173.407 Y253.850 Z0.000 I172.211 J27.062 K0.000 F2500.000
G3 X180.728 Y234.507 Z0.000 I114.011 J32.098 K0.000 F2500.000
G3 X193.711 Y214.266 Z0.000 I87.724 J41.984 K0.000 F2500.000
G3 X206.033 Y201.594 Z0.000 I99.142 J84.079 K0.000 F2500.000
G3 X218.904 Y190.835 Z0.000 I189.089 J213.125 K0.000 F2500.000
G2 X235.474 Y177.982 Z0.000 I-1605.697 J-2087.176 K0.000 F2500.000
G2 X255.339 Y161.427 Z0.000 I-219.284 J-283.322 K0.000 F2500.000
G2 X263.428 Y153.574 Z0.000 I-92.532 J-103.401 K0.000 F2500.000
G2 X282.302 Y127.292 Z0.000 I-83.052 J-79.561 K0.000 F2500.000
G2 X291.089 Y106.252 Z0.000 I-128.885 J-66.181 K0.000 F2500.000
G2 X297.669 Y80.038 Z0.000 I-197.000 J-63.379 K0.000 F2500.000
G2 X301.802 Y46.937 Z0.000 I-316.112 J-56.281 K0.000 F2500.000
G2 X302.495 Y34.963 Z0.000 I-486.268 J-34.163 K0.000 F2500.000
G1 X302.582 Y32.965 Z2.000 F2500.000
G2 X302.821 Y26.009 Z2.000 I-487.048 J-20.191 K0.000 F2500.000
G1 X302.871 Y24.010 Z0.000 F2500.000
G2 X303.000 Y12.016 Z0.000 I-487.337 J-11.236 K0.000 F2500.000
G2 X288.000 Y-3.000 Z0.000 I-15.004 J-0.012 K0.000 F2500.000
G1 X0.000 Y-3.000 Z0.000 F2500.000
G2 X-3.000 Y0.000 Z0.000 I0.000 J3.000 K0.000 F2500.000
G1 X-3.000 Y144.520 Z0.000 F2500.000
G1 X-3.000 Y146.520 Z2.000 F2500.000
G1 X-3.000 Y153.480 Z2.000 F2500.000
G1 X-3.000 Y155.480 Z0.000 F2500.000
G1 X-3.000 Y444.520 Z0.000 F2500.000
G1 X-3.000 Y446.520 Z2.000 F2500.000
G1 X-3.000 Y453.480 Z2.000 F2500.000
G1 X-3.000 Y455.480 Z0.000 F2500.000
G1 X-3.000 Y600.000 Z0.000 F2500.000
G2 X0.008 Y603.000 Z0.000 I3.000 J-0.000 K0.000 F2500.000
G2 X34.652 Y602.165 Z0.000 I1.640 J-650.978 K0.000 F2500.000
G2 X68.635 Y599.201 Z0.000 I-18.919 J-413.188 K0.000 F2500.000
G2 X95.053 Y594.519 Z0.000 I-31.244 J-253.195 K0.000 F2500.000
G2 X115.522 Y588.459 Z0.000 I-35.386 J-157.104 K0.000 F2500.000
G2 X131.348 Y581.221 Z0.000 I-36.359 J-100.431 K0.000 F2500.000
G2 X145.171 Y571.456 Z0.000 I-36.123 J-65.802 K0.000 F2500.000
G2 X159.863 Y552.165 Z0.000 I-41.272 J-46.672 K0.000 F2500.000
G2 X161.979 Y547.304 Z0.000 I-69.296 J-33.066 K0.000 F2500.000
G0 X161.979 Y547.304 Z42.000
(Finish operation: RampEntryDressup001)
(Begin postamble)
M5
G17 G90
M2
