(Exported by FreeCAD)
(Post Processor: grbl_post)
(Output Time:2025-07-11 20:28:09.700219)
(Begin preamble)
G17 G90
G21
(Begin operation: TC: D6.0-L42 Endmill Corn Bit)
(Path: TC: D6.0-L42 Endmill Corn Bit)
(TC: D6.0-L42 Endmill Corn Bit)
(Begin toolchange)
( M6 T3 )
M3 S24000
(Finish operation: TC: D6.0-L42 Endmill Corn Bit)
(Begin operation: Fixture)
(Path: Fixture)
G54
(Finish operation: Fixture)
(Begin operation: RampEntryDressup)
(Path: RampEntryDressup)
G0 X0.000 Y0.000 Z42.000
G0 X163.379 Y555.977 Z42.000
G1 X163.915 Y554.330 Z41.000 F2500.000
G1 X164.414 Y552.672 Z40.000 F2500.000
G1 X164.875 Y551.002 Z39.000 F2500.000
G1 X164.414 Y552.672 Z38.000 F2500.000
G1 X163.915 Y554.330 Z37.000 F2500.000
G1 X163.379 Y555.977 Z36.000 F2500.000
G2 X166.058 Y545.821 Z36.000 I-73.465 J-24.813 K0.000 F2500.000
G2 X168.259 Y527.103 Z36.000 I-143.085 J-26.312 K0.000 F2500.000
G2 X168.422 Y506.030 Z36.000 I-273.132 J-12.652 K0.000 F2500.000
G2 X166.540 Y476.648 Z36.000 I-529.638 J19.181 K0.000 F2500.000
G2 X162.825 Y442.179 Z36.000 I-1349.518 J128.019 K0.000 F2500.000
G3 X157.162 Y394.093 Z36.000 I4741.784 J-582.738 K0.000 F2500.000
G3 X154.730 Y368.428 Z36.000 I806.352 J-89.360 K0.000 F2500.000
G3 X153.217 Y322.270 Z36.000 I445.855 J-37.719 K0.000 F2500.000
G3 X156.203 Y283.154 Z36.000 I322.004 J4.909 K0.000 F2500.000
G3 X161.885 Y254.567 Z36.000 I228.890 J30.633 K0.000 F2500.000
G3 X169.853 Y231.143 Z36.000 I162.854 J42.332 K0.000 F2500.000
G3 X176.507 Y217.626 Z36.000 I115.047 J48.232 K0.000 F2500.000
G3 X193.582 Y195.035 Z36.000 I94.115 J53.391 K0.000 F2500.000
G3 X207.954 Y182.321 Z36.000 I111.022 J111.010 K0.000 F2500.000
G3 X222.258 Y171.827 Z36.000 I211.007 J272.625 K0.000 F2500.000
G2 X234.620 Y163.170 Z36.000 I-456.566 J-665.094 K0.000 F2500.000
G2 X249.307 Y152.060 Z36.000 I-142.291 J-203.387 K0.000 F2500.000
G2 X269.670 Y131.639 Z36.000 I-83.768 J-103.891 K0.000 F2500.000
G2 X288.020 Y101.181 Z36.000 I-108.795 J-86.303 K0.000 F2500.000
G2 X300.037 Y59.971 Z36.000 I-159.234 J-68.793 K0.000 F2500.000
G2 X303.200 Y20.010 Z36.000 I-236.218 J-38.800 K0.000 F2500.000
G2 X280.000 Y-3.200 Z36.000 I-23.203 J-0.006 K0.000 F2500.000
G1 X0.000 Y-3.200 Z36.000 F2500.000
G2 X-3.200 Y0.000 Z36.000 I-0.000 J3.200 K0.000 F2500.000
G1 X-3.200 Y600.000 Z36.000 F2500.000
G2 X0.006 Y603.200 Z36.000 I3.200 J0.000 K0.000 F2500.000
G2 X41.234 Y602.659 Z36.000 I2.632 J-1369.896 K0.000 F2500.000
G2 X62.887 Y601.709 Z36.000 I-19.168 J-684.710 K0.000 F2500.000
G2 X91.562 Y599.130 Z36.000 I-22.502 J-410.871 K0.000 F2500.000
G2 X111.600 Y595.675 Z36.000 I-26.309 J-212.392 K0.000 F2500.000
G2 X126.193 Y591.519 Z36.000 I-25.746 J-118.096 K0.000 F2500.000
G2 X137.656 Y586.512 Z36.000 I-24.920 J-72.682 K0.000 F2500.000
G2 X146.656 Y580.628 Z36.000 I-27.870 J-52.455 K0.000 F2500.000
G2 X161.203 Y561.671 Z36.000 I-31.313 J-39.087 K0.000 F2500.000
G2 X163.379 Y555.977 Z36.000 I-71.289 J-30.506 K0.000 F2500.000
G1 X163.915 Y554.330 Z35.000 F2500.000
G1 X163.379 Y555.977 Z34.000 F2500.000
G2 X166.058 Y545.821 Z34.000 I-73.465 J-24.813 K0.000 F2500.000
G2 X168.259 Y527.103 Z34.000 I-143.085 J-26.312 K0.000 F2500.000
G2 X168.422 Y506.030 Z34.000 I-273.132 J-12.652 K0.000 F2500.000
G2 X166.540 Y476.648 Z34.000 I-529.638 J19.181 K0.000 F2500.000
G2 X162.825 Y442.179 Z34.000 I-1349.518 J128.019 K0.000 F2500.000
G3 X157.162 Y394.093 Z34.000 I4741.784 J-582.738 K0.000 F2500.000
G3 X154.730 Y368.428 Z34.000 I806.352 J-89.360 K0.000 F2500.000
G3 X153.217 Y322.270 Z34.000 I445.855 J-37.719 K0.000 F2500.000
G3 X156.203 Y283.154 Z34.000 I322.004 J4.909 K0.000 F2500.000
G3 X161.885 Y254.567 Z34.000 I228.890 J30.633 K0.000 F2500.000
G3 X169.853 Y231.143 Z34.000 I162.854 J42.332 K0.000 F2500.000
G3 X176.507 Y217.626 Z34.000 I115.047 J48.232 K0.000 F2500.000
G3 X193.582 Y195.035 Z34.000 I94.115 J53.391 K0.000 F2500.000
G3 X207.954 Y182.321 Z34.000 I111.022 J111.010 K0.000 F2500.000
G3 X222.258 Y171.827 Z34.000 I211.007 J272.625 K0.000 F2500.000
G2 X234.620 Y163.170 Z34.000 I-456.566 J-665.094 K0.000 F2500.000
G2 X249.307 Y152.060 Z34.000 I-142.291 J-203.387 K0.000 F2500.000
G2 X269.670 Y131.639 Z34.000 I-83.768 J-103.891 K0.000 F2500.000
G2 X288.020 Y101.181 Z34.000 I-108.795 J-86.303 K0.000 F2500.000
G2 X300.037 Y59.971 Z34.000 I-159.234 J-68.793 K0.000 F2500.000
G2 X303.200 Y20.010 Z34.000 I-236.218 J-38.800 K0.000 F2500.000
G2 X280.000 Y-3.200 Z34.000 I-23.203 J-0.006 K0.000 F2500.000
G1 X0.000 Y-3.200 Z34.000 F2500.000
G2 X-3.200 Y0.000 Z34.000 I-0.000 J3.200 K0.000 F2500.000
G1 X-3.200 Y600.000 Z34.000 F2500.000
G2 X0.006 Y603.200 Z34.000 I3.200 J0.000 K0.000 F2500.000
G2 X41.234 Y602.659 Z34.000 I2.632 J-1369.896 K0.000 F2500.000
G2 X62.887 Y601.709 Z34.000 I-19.168 J-684.710 K0.000 F2500.000
G2 X91.562 Y599.130 Z34.000 I-22.502 J-410.871 K0.000 F2500.000
G2 X111.600 Y595.675 Z34.000 I-26.309 J-212.392 K0.000 F2500.000
G2 X126.193 Y591.519 Z34.000 I-25.746 J-118.096 K0.000 F2500.000
G2 X137.656 Y586.512 Z34.000 I-24.920 J-72.682 K0.000 F2500.000
G2 X146.656 Y580.628 Z34.000 I-27.870 J-52.455 K0.000 F2500.000
G2 X161.203 Y561.671 Z34.000 I-31.313 J-39.087 K0.000 F2500.000
G2 X163.379 Y555.977 Z34.000 I-71.289 J-30.506 K0.000 F2500.000
G1 X163.915 Y554.330 Z33.000 F2500.000
G1 X163.379 Y555.977 Z32.000 F2500.000
G2 X166.058 Y545.821 Z32.000 I-73.465 J-24.813 K0.000 F2500.000
G2 X168.259 Y527.103 Z32.000 I-143.085 J-26.312 K0.000 F2500.000
G2 X168.422 Y506.030 Z32.000 I-273.132 J-12.652 K0.000 F2500.000
G2 X166.540 Y476.648 Z32.000 I-529.638 J19.181 K0.000 F2500.000
G2 X162.825 Y442.179 Z32.000 I-1349.518 J128.019 K0.000 F2500.000
G3 X157.162 Y394.093 Z32.000 I4741.784 J-582.738 K0.000 F2500.000
G3 X154.730 Y368.428 Z32.000 I806.352 J-89.360 K0.000 F2500.000
G3 X153.217 Y322.270 Z32.000 I445.855 J-37.719 K0.000 F2500.000
G3 X156.203 Y283.154 Z32.000 I322.004 J4.909 K0.000 F2500.000
G3 X161.885 Y254.567 Z32.000 I228.890 J30.633 K0.000 F2500.000
G3 X169.853 Y231.143 Z32.000 I162.854 J42.332 K0.000 F2500.000
G3 X176.507 Y217.626 Z32.000 I115.047 J48.232 K0.000 F2500.000
G3 X193.582 Y195.035 Z32.000 I94.115 J53.391 K0.000 F2500.000
G3 X207.954 Y182.321 Z32.000 I111.022 J111.010 K0.000 F2500.000
G3 X222.258 Y171.827 Z32.000 I211.007 J272.625 K0.000 F2500.000
G2 X234.620 Y163.170 Z32.000 I-456.566 J-665.094 K0.000 F2500.000
G2 X249.307 Y152.060 Z32.000 I-142.291 J-203.387 K0.000 F2500.000
G2 X269.670 Y131.639 Z32.000 I-83.768 J-103.891 K0.000 F2500.000
G2 X288.020 Y101.181 Z32.000 I-108.795 J-86.303 K0.000 F2500.000
G2 X300.037 Y59.971 Z32.000 I-159.234 J-68.793 K0.000 F2500.000
G2 X303.200 Y20.010 Z32.000 I-236.218 J-38.800 K0.000 F2500.000
G2 X280.000 Y-3.200 Z32.000 I-23.203 J-0.006 K0.000 F2500.000
G1 X0.000 Y-3.200 Z32.000 F2500.000
G2 X-3.200 Y0.000 Z32.000 I-0.000 J3.200 K0.000 F2500.000
G1 X-3.200 Y600.000 Z32.000 F2500.000
G2 X0.006 Y603.200 Z32.000 I3.200 J0.000 K0.000 F2500.000
G2 X41.234 Y602.659 Z32.000 I2.632 J-1369.896 K0.000 F2500.000
G2 X62.887 Y601.709 Z32.000 I-19.168 J-684.710 K0.000 F2500.000
G2 X91.562 Y599.130 Z32.000 I-22.502 J-410.871 K0.000 F2500.000
G2 X111.600 Y595.675 Z32.000 I-26.309 J-212.392 K0.000 F2500.000
G2 X126.193 Y591.519 Z32.000 I-25.746 J-118.096 K0.000 F2500.000
G2 X137.656 Y586.512 Z32.000 I-24.920 J-72.682 K0.000 F2500.000
G2 X146.656 Y580.628 Z32.000 I-27.870 J-52.455 K0.000 F2500.000
G2 X161.203 Y561.671 Z32.000 I-31.313 J-39.087 K0.000 F2500.000
G2 X163.379 Y555.977 Z32.000 I-71.289 J-30.506 K0.000 F2500.000
G1 X163.915 Y554.330 Z31.000 F2500.000
G1 X163.379 Y555.977 Z30.000 F2500.000
G2 X166.058 Y545.821 Z30.000 I-73.465 J-24.813 K0.000 F2500.000
G2 X168.259 Y527.103 Z30.000 I-143.085 J-26.312 K0.000 F2500.000
G2 X168.422 Y506.030 Z30.000 I-273.132 J-12.652 K0.000 F2500.000
G2 X166.540 Y476.648 Z30.000 I-529.638 J19.181 K0.000 F2500.000
G2 X162.825 Y442.179 Z30.000 I-1349.518 J128.019 K0.000 F2500.000
G3 X157.162 Y394.093 Z30.000 I4741.784 J-582.738 K0.000 F2500.000
G3 X154.730 Y368.428 Z30.000 I806.352 J-89.360 K0.000 F2500.000
G3 X153.217 Y322.270 Z30.000 I445.855 J-37.719 K0.000 F2500.000
G3 X156.203 Y283.154 Z30.000 I322.004 J4.909 K0.000 F2500.000
G3 X161.885 Y254.567 Z30.000 I228.890 J30.633 K0.000 F2500.000
G3 X169.853 Y231.143 Z30.000 I162.854 J42.332 K0.000 F2500.000
G3 X176.507 Y217.626 Z30.000 I115.047 J48.232 K0.000 F2500.000
G3 X193.582 Y195.035 Z30.000 I94.115 J53.391 K0.000 F2500.000
G3 X207.954 Y182.321 Z30.000 I111.022 J111.010 K0.000 F2500.000
G3 X222.258 Y171.827 Z30.000 I211.007 J272.625 K0.000 F2500.000
G2 X234.620 Y163.170 Z30.000 I-456.566 J-665.094 K0.000 F2500.000
G2 X249.307 Y152.060 Z30.000 I-142.291 J-203.387 K0.000 F2500.000
G2 X269.670 Y131.639 Z30.000 I-83.768 J-103.891 K0.000 F2500.000
G2 X288.020 Y101.181 Z30.000 I-108.795 J-86.303 K0.000 F2500.000
G2 X300.037 Y59.971 Z30.000 I-159.234 J-68.793 K0.000 F2500.000
G2 X303.200 Y20.010 Z30.000 I-236.218 J-38.800 K0.000 F2500.000
G2 X280.000 Y-3.200 Z30.000 I-23.203 J-0.006 K0.000 F2500.000
G1 X0.000 Y-3.200 Z30.000 F2500.000
G2 X-3.200 Y0.000 Z30.000 I-0.000 J3.200 K0.000 F2500.000
G1 X-3.200 Y600.000 Z30.000 F2500.000
G2 X0.006 Y603.200 Z30.000 I3.200 J0.000 K0.000 F2500.000
G2 X41.234 Y602.659 Z30.000 I2.632 J-1369.896 K0.000 F2500.000
G2 X62.887 Y601.709 Z30.000 I-19.168 J-684.710 K0.000 F2500.000
G2 X91.562 Y599.130 Z30.000 I-22.502 J-410.871 K0.000 F2500.000
G2 X111.600 Y595.675 Z30.000 I-26.309 J-212.392 K0.000 F2500.000
G2 X126.193 Y591.519 Z30.000 I-25.746 J-118.096 K0.000 F2500.000
G2 X137.656 Y586.512 Z30.000 I-24.920 J-72.682 K0.000 F2500.000
G2 X146.656 Y580.628 Z30.000 I-27.870 J-52.455 K0.000 F2500.000
G2 X161.203 Y561.671 Z30.000 I-31.313 J-39.087 K0.000 F2500.000
G2 X163.379 Y555.977 Z30.000 I-71.289 J-30.506 K0.000 F2500.000
G1 X163.915 Y554.330 Z29.000 F2500.000
G1 X163.379 Y555.977 Z28.000 F2500.000
G2 X166.058 Y545.821 Z28.000 I-73.465 J-24.813 K0.000 F2500.000
G2 X168.259 Y527.103 Z28.000 I-143.085 J-26.312 K0.000 F2500.000
G2 X168.422 Y506.030 Z28.000 I-273.132 J-12.652 K0.000 F2500.000
G2 X166.540 Y476.648 Z28.000 I-529.638 J19.181 K0.000 F2500.000
G2 X162.825 Y442.179 Z28.000 I-1349.518 J128.019 K0.000 F2500.000
G3 X157.162 Y394.093 Z28.000 I4741.784 J-582.738 K0.000 F2500.000
G3 X154.730 Y368.428 Z28.000 I806.352 J-89.360 K0.000 F2500.000
G3 X153.217 Y322.270 Z28.000 I445.855 J-37.719 K0.000 F2500.000
G3 X156.203 Y283.154 Z28.000 I322.004 J4.909 K0.000 F2500.000
G3 X161.885 Y254.567 Z28.000 I228.890 J30.633 K0.000 F2500.000
G3 X169.853 Y231.143 Z28.000 I162.854 J42.332 K0.000 F2500.000
G3 X176.507 Y217.626 Z28.000 I115.047 J48.232 K0.000 F2500.000
G3 X193.582 Y195.035 Z28.000 I94.115 J53.391 K0.000 F2500.000
G3 X207.954 Y182.321 Z28.000 I111.022 J111.010 K0.000 F2500.000
G3 X222.258 Y171.827 Z28.000 I211.007 J272.625 K0.000 F2500.000
G2 X234.620 Y163.170 Z28.000 I-456.566 J-665.094 K0.000 F2500.000
G2 X249.307 Y152.060 Z28.000 I-142.291 J-203.387 K0.000 F2500.000
G2 X269.670 Y131.639 Z28.000 I-83.768 J-103.891 K0.000 F2500.000
G2 X288.020 Y101.181 Z28.000 I-108.795 J-86.303 K0.000 F2500.000
G2 X300.037 Y59.971 Z28.000 I-159.234 J-68.793 K0.000 F2500.000
G2 X303.200 Y20.010 Z28.000 I-236.218 J-38.800 K0.000 F2500.000
G2 X280.000 Y-3.200 Z28.000 I-23.203 J-0.006 K0.000 F2500.000
G1 X0.000 Y-3.200 Z28.000 F2500.000
G2 X-3.200 Y0.000 Z28.000 I-0.000 J3.200 K0.000 F2500.000
G1 X-3.200 Y600.000 Z28.000 F2500.000
G2 X0.006 Y603.200 Z28.000 I3.200 J0.000 K0.000 F2500.000
G2 X41.234 Y602.659 Z28.000 I2.632 J-1369.896 K0.000 F2500.000
G2 X62.887 Y601.709 Z28.000 I-19.168 J-684.710 K0.000 F2500.000
G2 X91.562 Y599.130 Z28.000 I-22.502 J-410.871 K0.000 F2500.000
G2 X111.600 Y595.675 Z28.000 I-26.309 J-212.392 K0.000 F2500.000
G2 X126.193 Y591.519 Z28.000 I-25.746 J-118.096 K0.000 F2500.000
G2 X137.656 Y586.512 Z28.000 I-24.920 J-72.682 K0.000 F2500.000
G2 X146.656 Y580.628 Z28.000 I-27.870 J-52.455 K0.000 F2500.000
G2 X161.203 Y561.671 Z28.000 I-31.313 J-39.087 K0.000 F2500.000
G2 X163.379 Y555.977 Z28.000 I-71.289 J-30.506 K0.000 F2500.000
G1 X163.915 Y554.330 Z27.000 F2500.000
G1 X163.379 Y555.977 Z26.000 F2500.000
G2 X166.058 Y545.821 Z26.000 I-73.465 J-24.813 K0.000 F2500.000
G2 X168.259 Y527.103 Z26.000 I-143.085 J-26.312 K0.000 F2500.000
G2 X168.422 Y506.030 Z26.000 I-273.132 J-12.652 K0.000 F2500.000
G2 X166.540 Y476.648 Z26.000 I-529.638 J19.181 K0.000 F2500.000
G2 X162.825 Y442.179 Z26.000 I-1349.518 J128.019 K0.000 F2500.000
G3 X157.162 Y394.093 Z26.000 I4741.784 J-582.738 K0.000 F2500.000
G3 X154.730 Y368.428 Z26.000 I806.352 J-89.360 K0.000 F2500.000
G3 X153.217 Y322.270 Z26.000 I445.855 J-37.719 K0.000 F2500.000
G3 X156.203 Y283.154 Z26.000 I322.004 J4.909 K0.000 F2500.000
G3 X161.885 Y254.567 Z26.000 I228.890 J30.633 K0.000 F2500.000
G3 X169.853 Y231.143 Z26.000 I162.854 J42.332 K0.000 F2500.000
G3 X176.507 Y217.626 Z26.000 I115.047 J48.232 K0.000 F2500.000
G3 X193.582 Y195.035 Z26.000 I94.115 J53.391 K0.000 F2500.000
G3 X207.954 Y182.321 Z26.000 I111.022 J111.010 K0.000 F2500.000
G3 X222.258 Y171.827 Z26.000 I211.007 J272.625 K0.000 F2500.000
G2 X234.620 Y163.170 Z26.000 I-456.566 J-665.094 K0.000 F2500.000
G2 X249.307 Y152.060 Z26.000 I-142.291 J-203.387 K0.000 F2500.000
G2 X269.670 Y131.639 Z26.000 I-83.768 J-103.891 K0.000 F2500.000
G2 X288.020 Y101.181 Z26.000 I-108.795 J-86.303 K0.000 F2500.000
G2 X300.037 Y59.971 Z26.000 I-159.234 J-68.793 K0.000 F2500.000
G2 X303.200 Y20.010 Z26.000 I-236.218 J-38.800 K0.000 F2500.000
G2 X280.000 Y-3.200 Z26.000 I-23.203 J-0.006 K0.000 F2500.000
G1 X0.000 Y-3.200 Z26.000 F2500.000
G2 X-3.200 Y0.000 Z26.000 I-0.000 J3.200 K0.000 F2500.000
G1 X-3.200 Y600.000 Z26.000 F2500.000
G2 X0.006 Y603.200 Z26.000 I3.200 J0.000 K0.000 F2500.000
G2 X41.234 Y602.659 Z26.000 I2.632 J-1369.896 K0.000 F2500.000
G2 X62.887 Y601.709 Z26.000 I-19.168 J-684.710 K0.000 F2500.000
G2 X91.562 Y599.130 Z26.000 I-22.502 J-410.871 K0.000 F2500.000
G2 X111.600 Y595.675 Z26.000 I-26.309 J-212.392 K0.000 F2500.000
G2 X126.193 Y591.519 Z26.000 I-25.746 J-118.096 K0.000 F2500.000
G2 X137.656 Y586.512 Z26.000 I-24.920 J-72.682 K0.000 F2500.000
G2 X146.656 Y580.628 Z26.000 I-27.870 J-52.455 K0.000 F2500.000
G2 X161.203 Y561.671 Z26.000 I-31.313 J-39.087 K0.000 F2500.000
G2 X163.379 Y555.977 Z26.000 I-71.289 J-30.506 K0.000 F2500.000
G1 X163.915 Y554.330 Z25.000 F2500.000
G1 X163.379 Y555.977 Z24.000 F2500.000
G2 X166.058 Y545.821 Z24.000 I-73.465 J-24.813 K0.000 F2500.000
G2 X168.259 Y527.103 Z24.000 I-143.085 J-26.312 K0.000 F2500.000
G2 X168.422 Y506.030 Z24.000 I-273.132 J-12.652 K0.000 F2500.000
G2 X166.540 Y476.648 Z24.000 I-529.638 J19.181 K0.000 F2500.000
G2 X162.825 Y442.179 Z24.000 I-1349.518 J128.019 K0.000 F2500.000
G3 X157.162 Y394.093 Z24.000 I4741.784 J-582.738 K0.000 F2500.000
G3 X154.730 Y368.428 Z24.000 I806.352 J-89.360 K0.000 F2500.000
G3 X153.217 Y322.270 Z24.000 I445.855 J-37.719 K0.000 F2500.000
G3 X156.203 Y283.154 Z24.000 I322.004 J4.909 K0.000 F2500.000
G3 X161.885 Y254.567 Z24.000 I228.890 J30.633 K0.000 F2500.000
G3 X169.853 Y231.143 Z24.000 I162.854 J42.332 K0.000 F2500.000
G3 X176.507 Y217.626 Z24.000 I115.047 J48.232 K0.000 F2500.000
G3 X193.582 Y195.035 Z24.000 I94.115 J53.391 K0.000 F2500.000
G3 X207.954 Y182.321 Z24.000 I111.022 J111.010 K0.000 F2500.000
G3 X222.258 Y171.827 Z24.000 I211.007 J272.625 K0.000 F2500.000
G2 X234.620 Y163.170 Z24.000 I-456.566 J-665.094 K0.000 F2500.000
G2 X249.307 Y152.060 Z24.000 I-142.291 J-203.387 K0.000 F2500.000
G2 X269.670 Y131.639 Z24.000 I-83.768 J-103.891 K0.000 F2500.000
G2 X288.020 Y101.181 Z24.000 I-108.795 J-86.303 K0.000 F2500.000
G2 X300.037 Y59.971 Z24.000 I-159.234 J-68.793 K0.000 F2500.000
G2 X303.200 Y20.010 Z24.000 I-236.218 J-38.800 K0.000 F2500.000
G2 X280.000 Y-3.200 Z24.000 I-23.203 J-0.006 K0.000 F2500.000
G1 X0.000 Y-3.200 Z24.000 F2500.000
G2 X-3.200 Y0.000 Z24.000 I-0.000 J3.200 K0.000 F2500.000
G1 X-3.200 Y600.000 Z24.000 F2500.000
G2 X0.006 Y603.200 Z24.000 I3.200 J0.000 K0.000 F2500.000
G2 X41.234 Y602.659 Z24.000 I2.632 J-1369.896 K0.000 F2500.000
G2 X62.887 Y601.709 Z24.000 I-19.168 J-684.710 K0.000 F2500.000
G2 X91.562 Y599.130 Z24.000 I-22.502 J-410.871 K0.000 F2500.000
G2 X111.600 Y595.675 Z24.000 I-26.309 J-212.392 K0.000 F2500.000
G2 X126.193 Y591.519 Z24.000 I-25.746 J-118.096 K0.000 F2500.000
G2 X137.656 Y586.512 Z24.000 I-24.920 J-72.682 K0.000 F2500.000
G2 X146.656 Y580.628 Z24.000 I-27.870 J-52.455 K0.000 F2500.000
G2 X161.203 Y561.671 Z24.000 I-31.313 J-39.087 K0.000 F2500.000
G2 X163.379 Y555.977 Z24.000 I-71.289 J-30.506 K0.000 F2500.000
G1 X163.915 Y554.330 Z23.000 F2500.000
G1 X163.379 Y555.977 Z22.000 F2500.000
G2 X166.058 Y545.821 Z22.000 I-73.465 J-24.813 K0.000 F2500.000
G2 X168.259 Y527.103 Z22.000 I-143.085 J-26.312 K0.000 F2500.000
G2 X168.422 Y506.030 Z22.000 I-273.132 J-12.652 K0.000 F2500.000
G2 X166.540 Y476.648 Z22.000 I-529.638 J19.181 K0.000 F2500.000
G2 X162.825 Y442.179 Z22.000 I-1349.518 J128.019 K0.000 F2500.000
G3 X157.162 Y394.093 Z22.000 I4741.784 J-582.738 K0.000 F2500.000
G3 X154.730 Y368.428 Z22.000 I806.352 J-89.360 K0.000 F2500.000
G3 X153.217 Y322.270 Z22.000 I445.855 J-37.719 K0.000 F2500.000
G3 X156.203 Y283.154 Z22.000 I322.004 J4.909 K0.000 F2500.000
G3 X161.885 Y254.567 Z22.000 I228.890 J30.633 K0.000 F2500.000
G3 X169.853 Y231.143 Z22.000 I162.854 J42.332 K0.000 F2500.000
G3 X176.507 Y217.626 Z22.000 I115.047 J48.232 K0.000 F2500.000
G3 X193.582 Y195.035 Z22.000 I94.115 J53.391 K0.000 F2500.000
G3 X207.954 Y182.321 Z22.000 I111.022 J111.010 K0.000 F2500.000
G3 X222.258 Y171.827 Z22.000 I211.007 J272.625 K0.000 F2500.000
G2 X234.620 Y163.170 Z22.000 I-456.566 J-665.094 K0.000 F2500.000
G2 X249.307 Y152.060 Z22.000 I-142.291 J-203.387 K0.000 F2500.000
G2 X269.670 Y131.639 Z22.000 I-83.768 J-103.891 K0.000 F2500.000
G2 X288.020 Y101.181 Z22.000 I-108.795 J-86.303 K0.000 F2500.000
G2 X300.037 Y59.971 Z22.000 I-159.234 J-68.793 K0.000 F2500.000
G2 X303.200 Y20.010 Z22.000 I-236.218 J-38.800 K0.000 F2500.000
G2 X280.000 Y-3.200 Z22.000 I-23.203 J-0.006 K0.000 F2500.000
G1 X0.000 Y-3.200 Z22.000 F2500.000
G2 X-3.200 Y0.000 Z22.000 I-0.000 J3.200 K0.000 F2500.000
G1 X-3.200 Y600.000 Z22.000 F2500.000
G2 X0.006 Y603.200 Z22.000 I3.200 J0.000 K0.000 F2500.000
G2 X41.234 Y602.659 Z22.000 I2.632 J-1369.896 K0.000 F2500.000
G2 X62.887 Y601.709 Z22.000 I-19.168 J-684.710 K0.000 F2500.000
G2 X91.562 Y599.130 Z22.000 I-22.502 J-410.871 K0.000 F2500.000
G2 X111.600 Y595.675 Z22.000 I-26.309 J-212.392 K0.000 F2500.000
G2 X126.193 Y591.519 Z22.000 I-25.746 J-118.096 K0.000 F2500.000
G2 X137.656 Y586.512 Z22.000 I-24.920 J-72.682 K0.000 F2500.000
G2 X146.656 Y580.628 Z22.000 I-27.870 J-52.455 K0.000 F2500.000
G2 X161.203 Y561.671 Z22.000 I-31.313 J-39.087 K0.000 F2500.000
G2 X163.379 Y555.977 Z22.000 I-71.289 J-30.506 K0.000 F2500.000
G1 X163.915 Y554.330 Z21.000 F2500.000
G1 X163.379 Y555.977 Z20.000 F2500.000
G2 X166.058 Y545.821 Z20.000 I-73.465 J-24.813 K0.000 F2500.000
G2 X168.259 Y527.103 Z20.000 I-143.085 J-26.312 K0.000 F2500.000
G2 X168.422 Y506.030 Z20.000 I-273.132 J-12.652 K0.000 F2500.000
G2 X166.540 Y476.648 Z20.000 I-529.638 J19.181 K0.000 F2500.000
G2 X162.825 Y442.179 Z20.000 I-1349.518 J128.019 K0.000 F2500.000
G3 X157.162 Y394.093 Z20.000 I4741.784 J-582.738 K0.000 F2500.000
G3 X154.730 Y368.428 Z20.000 I806.352 J-89.360 K0.000 F2500.000
G3 X153.217 Y322.270 Z20.000 I445.855 J-37.719 K0.000 F2500.000
G3 X156.203 Y283.154 Z20.000 I322.004 J4.909 K0.000 F2500.000
G3 X161.885 Y254.567 Z20.000 I228.890 J30.633 K0.000 F2500.000
G3 X169.853 Y231.143 Z20.000 I162.854 J42.332 K0.000 F2500.000
G3 X176.507 Y217.626 Z20.000 I115.047 J48.232 K0.000 F2500.000
G3 X193.582 Y195.035 Z20.000 I94.115 J53.391 K0.000 F2500.000
G3 X207.954 Y182.321 Z20.000 I111.022 J111.010 K0.000 F2500.000
G3 X222.258 Y171.827 Z20.000 I211.007 J272.625 K0.000 F2500.000
G2 X234.620 Y163.170 Z20.000 I-456.566 J-665.094 K0.000 F2500.000
G2 X249.307 Y152.060 Z20.000 I-142.291 J-203.387 K0.000 F2500.000
G2 X269.670 Y131.639 Z20.000 I-83.768 J-103.891 K0.000 F2500.000
G2 X288.020 Y101.181 Z20.000 I-108.795 J-86.303 K0.000 F2500.000
G2 X300.037 Y59.971 Z20.000 I-159.234 J-68.793 K0.000 F2500.000
G2 X303.200 Y20.010 Z20.000 I-236.218 J-38.800 K0.000 F2500.000
G2 X280.000 Y-3.200 Z20.000 I-23.203 J-0.006 K0.000 F2500.000
G1 X0.000 Y-3.200 Z20.000 F2500.000
G2 X-3.200 Y0.000 Z20.000 I-0.000 J3.200 K0.000 F2500.000
G1 X-3.200 Y600.000 Z20.000 F2500.000
G2 X0.006 Y603.200 Z20.000 I3.200 J0.000 K0.000 F2500.000
G2 X41.234 Y602.659 Z20.000 I2.632 J-1369.896 K0.000 F2500.000
G2 X62.887 Y601.709 Z20.000 I-19.168 J-684.710 K0.000 F2500.000
G2 X91.562 Y599.130 Z20.000 I-22.502 J-410.871 K0.000 F2500.000
G2 X111.600 Y595.675 Z20.000 I-26.309 J-212.392 K0.000 F2500.000
G2 X126.193 Y591.519 Z20.000 I-25.746 J-118.096 K0.000 F2500.000
G2 X137.656 Y586.512 Z20.000 I-24.920 J-72.682 K0.000 F2500.000
G2 X146.656 Y580.628 Z20.000 I-27.870 J-52.455 K0.000 F2500.000
G2 X161.203 Y561.671 Z20.000 I-31.313 J-39.087 K0.000 F2500.000
G2 X163.379 Y555.977 Z20.000 I-71.289 J-30.506 K0.000 F2500.000
G1 X163.915 Y554.330 Z19.000 F2500.000
G1 X163.379 Y555.977 Z18.000 F2500.000
G2 X166.058 Y545.821 Z18.000 I-73.465 J-24.813 K0.000 F2500.000
G2 X168.259 Y527.103 Z18.000 I-143.085 J-26.312 K0.000 F2500.000
G2 X168.422 Y506.030 Z18.000 I-273.132 J-12.652 K0.000 F2500.000
G2 X166.540 Y476.648 Z18.000 I-529.638 J19.181 K0.000 F2500.000
G2 X162.825 Y442.179 Z18.000 I-1349.518 J128.019 K0.000 F2500.000
G3 X157.162 Y394.093 Z18.000 I4741.784 J-582.738 K0.000 F2500.000
G3 X154.730 Y368.428 Z18.000 I806.352 J-89.360 K0.000 F2500.000
G3 X153.217 Y322.270 Z18.000 I445.855 J-37.719 K0.000 F2500.000
G3 X156.203 Y283.154 Z18.000 I322.004 J4.909 K0.000 F2500.000
G3 X161.885 Y254.567 Z18.000 I228.890 J30.633 K0.000 F2500.000
G3 X169.853 Y231.143 Z18.000 I162.854 J42.332 K0.000 F2500.000
G3 X176.507 Y217.626 Z18.000 I115.047 J48.232 K0.000 F2500.000
G3 X193.582 Y195.035 Z18.000 I94.115 J53.391 K0.000 F2500.000
G3 X207.954 Y182.321 Z18.000 I111.022 J111.010 K0.000 F2500.000
G3 X222.258 Y171.827 Z18.000 I211.007 J272.625 K0.000 F2500.000
G2 X234.620 Y163.170 Z18.000 I-456.566 J-665.094 K0.000 F2500.000
G2 X249.307 Y152.060 Z18.000 I-142.291 J-203.387 K0.000 F2500.000
G2 X269.670 Y131.639 Z18.000 I-83.768 J-103.891 K0.000 F2500.000
G2 X288.020 Y101.181 Z18.000 I-108.795 J-86.303 K0.000 F2500.000
G2 X300.037 Y59.971 Z18.000 I-159.234 J-68.793 K0.000 F2500.000
G2 X303.200 Y20.010 Z18.000 I-236.218 J-38.800 K0.000 F2500.000
G2 X280.000 Y-3.200 Z18.000 I-23.203 J-0.006 K0.000 F2500.000
G1 X0.000 Y-3.200 Z18.000 F2500.000
G2 X-3.200 Y0.000 Z18.000 I-0.000 J3.200 K0.000 F2500.000
G1 X-3.200 Y600.000 Z18.000 F2500.000
G2 X0.006 Y603.200 Z18.000 I3.200 J0.000 K0.000 F2500.000
G2 X41.234 Y602.659 Z18.000 I2.632 J-1369.896 K0.000 F2500.000
G2 X62.887 Y601.709 Z18.000 I-19.168 J-684.710 K0.000 F2500.000
G2 X91.562 Y599.130 Z18.000 I-22.502 J-410.871 K0.000 F2500.000
G2 X111.600 Y595.675 Z18.000 I-26.309 J-212.392 K0.000 F2500.000
G2 X126.193 Y591.519 Z18.000 I-25.746 J-118.096 K0.000 F2500.000
G2 X137.656 Y586.512 Z18.000 I-24.920 J-72.682 K0.000 F2500.000
G2 X146.656 Y580.628 Z18.000 I-27.870 J-52.455 K0.000 F2500.000
G2 X161.203 Y561.671 Z18.000 I-31.313 J-39.087 K0.000 F2500.000
G2 X163.379 Y555.977 Z18.000 I-71.289 J-30.506 K0.000 F2500.000
G1 X163.915 Y554.330 Z17.000 F2500.000
G1 X163.379 Y555.977 Z16.000 F2500.000
G2 X166.058 Y545.821 Z16.000 I-73.465 J-24.813 K0.000 F2500.000
G2 X168.259 Y527.103 Z16.000 I-143.085 J-26.312 K0.000 F2500.000
G2 X168.422 Y506.030 Z16.000 I-273.132 J-12.652 K0.000 F2500.000
G2 X166.540 Y476.648 Z16.000 I-529.638 J19.181 K0.000 F2500.000
G2 X162.825 Y442.179 Z16.000 I-1349.518 J128.019 K0.000 F2500.000
G3 X157.162 Y394.093 Z16.000 I4741.784 J-582.738 K0.000 F2500.000
G3 X154.730 Y368.428 Z16.000 I806.352 J-89.360 K0.000 F2500.000
G3 X153.217 Y322.270 Z16.000 I445.855 J-37.719 K0.000 F2500.000
G3 X156.203 Y283.154 Z16.000 I322.004 J4.909 K0.000 F2500.000
G3 X161.885 Y254.567 Z16.000 I228.890 J30.633 K0.000 F2500.000
G3 X169.853 Y231.143 Z16.000 I162.854 J42.332 K0.000 F2500.000
G3 X176.507 Y217.626 Z16.000 I115.047 J48.232 K0.000 F2500.000
G3 X193.582 Y195.035 Z16.000 I94.115 J53.391 K0.000 F2500.000
G3 X207.954 Y182.321 Z16.000 I111.022 J111.010 K0.000 F2500.000
G3 X222.258 Y171.827 Z16.000 I211.007 J272.625 K0.000 F2500.000
G2 X234.620 Y163.170 Z16.000 I-456.566 J-665.094 K0.000 F2500.000
G2 X249.307 Y152.060 Z16.000 I-142.291 J-203.387 K0.000 F2500.000
G2 X269.670 Y131.639 Z16.000 I-83.768 J-103.891 K0.000 F2500.000
G2 X288.020 Y101.181 Z16.000 I-108.795 J-86.303 K0.000 F2500.000
G2 X300.037 Y59.971 Z16.000 I-159.234 J-68.793 K0.000 F2500.000
G2 X303.200 Y20.010 Z16.000 I-236.218 J-38.800 K0.000 F2500.000
G2 X280.000 Y-3.200 Z16.000 I-23.203 J-0.006 K0.000 F2500.000
G1 X0.000 Y-3.200 Z16.000 F2500.000
G2 X-3.200 Y0.000 Z16.000 I-0.000 J3.200 K0.000 F2500.000
G1 X-3.200 Y600.000 Z16.000 F2500.000
G2 X0.006 Y603.200 Z16.000 I3.200 J0.000 K0.000 F2500.000
G2 X41.234 Y602.659 Z16.000 I2.632 J-1369.896 K0.000 F2500.000
G2 X62.887 Y601.709 Z16.000 I-19.168 J-684.710 K0.000 F2500.000
G2 X91.562 Y599.130 Z16.000 I-22.502 J-410.871 K0.000 F2500.000
G2 X111.600 Y595.675 Z16.000 I-26.309 J-212.392 K0.000 F2500.000
G2 X126.193 Y591.519 Z16.000 I-25.746 J-118.096 K0.000 F2500.000
G2 X137.656 Y586.512 Z16.000 I-24.920 J-72.682 K0.000 F2500.000
G2 X146.656 Y580.628 Z16.000 I-27.870 J-52.455 K0.000 F2500.000
G2 X161.203 Y561.671 Z16.000 I-31.313 J-39.087 K0.000 F2500.000
G2 X163.379 Y555.977 Z16.000 I-71.289 J-30.506 K0.000 F2500.000
G1 X163.915 Y554.330 Z15.000 F2500.000
G1 X163.379 Y555.977 Z14.000 F2500.000
G2 X166.058 Y545.821 Z14.000 I-73.465 J-24.813 K0.000 F2500.000
G2 X168.259 Y527.103 Z14.000 I-143.085 J-26.312 K0.000 F2500.000
G2 X168.422 Y506.030 Z14.000 I-273.132 J-12.652 K0.000 F2500.000
G2 X166.540 Y476.648 Z14.000 I-529.638 J19.181 K0.000 F2500.000
G2 X162.825 Y442.179 Z14.000 I-1349.518 J128.019 K0.000 F2500.000
G3 X157.162 Y394.093 Z14.000 I4741.784 J-582.738 K0.000 F2500.000
G3 X154.730 Y368.428 Z14.000 I806.352 J-89.360 K0.000 F2500.000
G3 X153.217 Y322.270 Z14.000 I445.855 J-37.719 K0.000 F2500.000
G3 X156.203 Y283.154 Z14.000 I322.004 J4.909 K0.000 F2500.000
G3 X161.885 Y254.567 Z14.000 I228.890 J30.633 K0.000 F2500.000
G3 X169.853 Y231.143 Z14.000 I162.854 J42.332 K0.000 F2500.000
G3 X176.507 Y217.626 Z14.000 I115.047 J48.232 K0.000 F2500.000
G3 X193.582 Y195.035 Z14.000 I94.115 J53.391 K0.000 F2500.000
G3 X207.954 Y182.321 Z14.000 I111.022 J111.010 K0.000 F2500.000
G3 X222.258 Y171.827 Z14.000 I211.007 J272.625 K0.000 F2500.000
G2 X234.620 Y163.170 Z14.000 I-456.566 J-665.094 K0.000 F2500.000
G2 X249.307 Y152.060 Z14.000 I-142.291 J-203.387 K0.000 F2500.000
G2 X269.670 Y131.639 Z14.000 I-83.768 J-103.891 K0.000 F2500.000
G2 X288.020 Y101.181 Z14.000 I-108.795 J-86.303 K0.000 F2500.000
G2 X300.037 Y59.971 Z14.000 I-159.234 J-68.793 K0.000 F2500.000
G2 X303.200 Y20.010 Z14.000 I-236.218 J-38.800 K0.000 F2500.000
G2 X280.000 Y-3.200 Z14.000 I-23.203 J-0.006 K0.000 F2500.000
G1 X0.000 Y-3.200 Z14.000 F2500.000
G2 X-3.200 Y0.000 Z14.000 I-0.000 J3.200 K0.000 F2500.000
G1 X-3.200 Y600.000 Z14.000 F2500.000
G2 X0.006 Y603.200 Z14.000 I3.200 J0.000 K0.000 F2500.000
G2 X41.234 Y602.659 Z14.000 I2.632 J-1369.896 K0.000 F2500.000
G2 X62.887 Y601.709 Z14.000 I-19.168 J-684.710 K0.000 F2500.000
G2 X91.562 Y599.130 Z14.000 I-22.502 J-410.871 K0.000 F2500.000
G2 X111.600 Y595.675 Z14.000 I-26.309 J-212.392 K0.000 F2500.000
G2 X126.193 Y591.519 Z14.000 I-25.746 J-118.096 K0.000 F2500.000
G2 X137.656 Y586.512 Z14.000 I-24.920 J-72.682 K0.000 F2500.000
G2 X146.656 Y580.628 Z14.000 I-27.870 J-52.455 K0.000 F2500.000
G2 X161.203 Y561.671 Z14.000 I-31.313 J-39.087 K0.000 F2500.000
G2 X163.379 Y555.977 Z14.000 I-71.289 J-30.506 K0.000 F2500.000
G1 X163.915 Y554.330 Z13.000 F2500.000
G1 X163.379 Y555.977 Z12.000 F2500.000
G2 X166.058 Y545.821 Z12.000 I-73.465 J-24.813 K0.000 F2500.000
G2 X168.259 Y527.103 Z12.000 I-143.085 J-26.312 K0.000 F2500.000
G2 X168.422 Y506.030 Z12.000 I-273.132 J-12.652 K0.000 F2500.000
G2 X166.540 Y476.648 Z12.000 I-529.638 J19.181 K0.000 F2500.000
G2 X162.825 Y442.179 Z12.000 I-1349.518 J128.019 K0.000 F2500.000
G3 X157.162 Y394.093 Z12.000 I4741.784 J-582.738 K0.000 F2500.000
G3 X154.730 Y368.428 Z12.000 I806.352 J-89.360 K0.000 F2500.000
G3 X153.217 Y322.270 Z12.000 I445.855 J-37.719 K0.000 F2500.000
G3 X156.203 Y283.154 Z12.000 I322.004 J4.909 K0.000 F2500.000
G3 X161.885 Y254.567 Z12.000 I228.890 J30.633 K0.000 F2500.000
G3 X169.853 Y231.143 Z12.000 I162.854 J42.332 K0.000 F2500.000
G3 X176.507 Y217.626 Z12.000 I115.047 J48.232 K0.000 F2500.000
G3 X193.582 Y195.035 Z12.000 I94.115 J53.391 K0.000 F2500.000
G3 X207.954 Y182.321 Z12.000 I111.022 J111.010 K0.000 F2500.000
G3 X222.258 Y171.827 Z12.000 I211.007 J272.625 K0.000 F2500.000
G2 X234.620 Y163.170 Z12.000 I-456.566 J-665.094 K0.000 F2500.000
G2 X249.307 Y152.060 Z12.000 I-142.291 J-203.387 K0.000 F2500.000
G2 X269.670 Y131.639 Z12.000 I-83.768 J-103.891 K0.000 F2500.000
G2 X288.020 Y101.181 Z12.000 I-108.795 J-86.303 K0.000 F2500.000
G2 X300.037 Y59.971 Z12.000 I-159.234 J-68.793 K0.000 F2500.000
G2 X303.200 Y20.010 Z12.000 I-236.218 J-38.800 K0.000 F2500.000
G2 X280.000 Y-3.200 Z12.000 I-23.203 J-0.006 K0.000 F2500.000
G1 X0.000 Y-3.200 Z12.000 F2500.000
G2 X-3.200 Y0.000 Z12.000 I-0.000 J3.200 K0.000 F2500.000
G1 X-3.200 Y600.000 Z12.000 F2500.000
G2 X0.006 Y603.200 Z12.000 I3.200 J0.000 K0.000 F2500.000
G2 X41.234 Y602.659 Z12.000 I2.632 J-1369.896 K0.000 F2500.000
G2 X62.887 Y601.709 Z12.000 I-19.168 J-684.710 K0.000 F2500.000
G2 X91.562 Y599.130 Z12.000 I-22.502 J-410.871 K0.000 F2500.000
G2 X111.600 Y595.675 Z12.000 I-26.309 J-212.392 K0.000 F2500.000
G2 X126.193 Y591.519 Z12.000 I-25.746 J-118.096 K0.000 F2500.000
G2 X137.656 Y586.512 Z12.000 I-24.920 J-72.682 K0.000 F2500.000
G2 X146.656 Y580.628 Z12.000 I-27.870 J-52.455 K0.000 F2500.000
G2 X161.203 Y561.671 Z12.000 I-31.313 J-39.087 K0.000 F2500.000
G2 X163.379 Y555.977 Z12.000 I-71.289 J-30.506 K0.000 F2500.000
G1 X163.915 Y554.330 Z11.000 F2500.000
G1 X163.379 Y555.977 Z10.000 F2500.000
G2 X166.058 Y545.821 Z10.000 I-73.465 J-24.813 K0.000 F2500.000
G2 X168.259 Y527.103 Z10.000 I-143.085 J-26.312 K0.000 F2500.000
G2 X168.422 Y506.030 Z10.000 I-273.132 J-12.652 K0.000 F2500.000
G2 X166.540 Y476.648 Z10.000 I-529.638 J19.181 K0.000 F2500.000
G2 X162.825 Y442.179 Z10.000 I-1349.518 J128.019 K0.000 F2500.000
G3 X157.162 Y394.093 Z10.000 I4741.784 J-582.738 K0.000 F2500.000
G3 X154.730 Y368.428 Z10.000 I806.352 J-89.360 K0.000 F2500.000
G3 X153.217 Y322.270 Z10.000 I445.855 J-37.719 K0.000 F2500.000
G3 X156.203 Y283.154 Z10.000 I322.004 J4.909 K0.000 F2500.000
G3 X161.885 Y254.567 Z10.000 I228.890 J30.633 K0.000 F2500.000
G3 X169.853 Y231.143 Z10.000 I162.854 J42.332 K0.000 F2500.000
G3 X176.507 Y217.626 Z10.000 I115.047 J48.232 K0.000 F2500.000
G3 X193.582 Y195.035 Z10.000 I94.115 J53.391 K0.000 F2500.000
G3 X207.954 Y182.321 Z10.000 I111.022 J111.010 K0.000 F2500.000
G3 X222.258 Y171.827 Z10.000 I211.007 J272.625 K0.000 F2500.000
G2 X234.620 Y163.170 Z10.000 I-456.566 J-665.094 K0.000 F2500.000
G2 X249.307 Y152.060 Z10.000 I-142.291 J-203.387 K0.000 F2500.000
G2 X269.670 Y131.639 Z10.000 I-83.768 J-103.891 K0.000 F2500.000
G2 X288.020 Y101.181 Z10.000 I-108.795 J-86.303 K0.000 F2500.000
G2 X300.037 Y59.971 Z10.000 I-159.234 J-68.793 K0.000 F2500.000
G2 X303.200 Y20.010 Z10.000 I-236.218 J-38.800 K0.000 F2500.000
G2 X280.000 Y-3.200 Z10.000 I-23.203 J-0.006 K0.000 F2500.000
G1 X0.000 Y-3.200 Z10.000 F2500.000
G2 X-3.200 Y0.000 Z10.000 I-0.000 J3.200 K0.000 F2500.000
G1 X-3.200 Y600.000 Z10.000 F2500.000
G2 X0.006 Y603.200 Z10.000 I3.200 J0.000 K0.000 F2500.000
G2 X41.234 Y602.659 Z10.000 I2.632 J-1369.896 K0.000 F2500.000
G2 X62.887 Y601.709 Z10.000 I-19.168 J-684.710 K0.000 F2500.000
G2 X91.562 Y599.130 Z10.000 I-22.502 J-410.871 K0.000 F2500.000
G2 X111.600 Y595.675 Z10.000 I-26.309 J-212.392 K0.000 F2500.000
G2 X126.193 Y591.519 Z10.000 I-25.746 J-118.096 K0.000 F2500.000
G2 X137.656 Y586.512 Z10.000 I-24.920 J-72.682 K0.000 F2500.000
G2 X146.656 Y580.628 Z10.000 I-27.870 J-52.455 K0.000 F2500.000
G2 X161.203 Y561.671 Z10.000 I-31.313 J-39.087 K0.000 F2500.000
G2 X163.379 Y555.977 Z10.000 I-71.289 J-30.506 K0.000 F2500.000
G1 X163.915 Y554.330 Z9.000 F2500.000
G1 X163.379 Y555.977 Z8.000 F2500.000
G2 X166.058 Y545.821 Z8.000 I-73.465 J-24.813 K0.000 F2500.000
G2 X168.259 Y527.103 Z8.000 I-143.085 J-26.312 K0.000 F2500.000
G2 X168.422 Y506.030 Z8.000 I-273.132 J-12.652 K0.000 F2500.000
G2 X166.540 Y476.648 Z8.000 I-529.638 J19.181 K0.000 F2500.000
G2 X162.825 Y442.179 Z8.000 I-1349.518 J128.019 K0.000 F2500.000
G3 X157.162 Y394.093 Z8.000 I4741.784 J-582.738 K0.000 F2500.000
G3 X154.730 Y368.428 Z8.000 I806.352 J-89.360 K0.000 F2500.000
G3 X153.217 Y322.270 Z8.000 I445.855 J-37.719 K0.000 F2500.000
G3 X156.203 Y283.154 Z8.000 I322.004 J4.909 K0.000 F2500.000
G3 X161.885 Y254.567 Z8.000 I228.890 J30.633 K0.000 F2500.000
G3 X169.853 Y231.143 Z8.000 I162.854 J42.332 K0.000 F2500.000
G3 X176.507 Y217.626 Z8.000 I115.047 J48.232 K0.000 F2500.000
G3 X193.582 Y195.035 Z8.000 I94.115 J53.391 K0.000 F2500.000
G3 X207.954 Y182.321 Z8.000 I111.022 J111.010 K0.000 F2500.000
G3 X222.258 Y171.827 Z8.000 I211.007 J272.625 K0.000 F2500.000
G2 X234.620 Y163.170 Z8.000 I-456.566 J-665.094 K0.000 F2500.000
G2 X249.307 Y152.060 Z8.000 I-142.291 J-203.387 K0.000 F2500.000
G2 X269.670 Y131.639 Z8.000 I-83.768 J-103.891 K0.000 F2500.000
G2 X288.020 Y101.181 Z8.000 I-108.795 J-86.303 K0.000 F2500.000
G2 X300.037 Y59.971 Z8.000 I-159.234 J-68.793 K0.000 F2500.000
G2 X303.200 Y20.010 Z8.000 I-236.218 J-38.800 K0.000 F2500.000
G2 X280.000 Y-3.200 Z8.000 I-23.203 J-0.006 K0.000 F2500.000
G1 X0.000 Y-3.200 Z8.000 F2500.000
G2 X-3.200 Y0.000 Z8.000 I-0.000 J3.200 K0.000 F2500.000
G1 X-3.200 Y600.000 Z8.000 F2500.000
G2 X0.006 Y603.200 Z8.000 I3.200 J0.000 K0.000 F2500.000
G2 X41.234 Y602.659 Z8.000 I2.632 J-1369.896 K0.000 F2500.000
G2 X62.887 Y601.709 Z8.000 I-19.168 J-684.710 K0.000 F2500.000
G2 X91.562 Y599.130 Z8.000 I-22.502 J-410.871 K0.000 F2500.000
G2 X111.600 Y595.675 Z8.000 I-26.309 J-212.392 K0.000 F2500.000
G2 X126.193 Y591.519 Z8.000 I-25.746 J-118.096 K0.000 F2500.000
G2 X137.656 Y586.512 Z8.000 I-24.920 J-72.682 K0.000 F2500.000
G2 X146.656 Y580.628 Z8.000 I-27.870 J-52.455 K0.000 F2500.000
G2 X161.203 Y561.671 Z8.000 I-31.313 J-39.087 K0.000 F2500.000
G2 X163.379 Y555.977 Z8.000 I-71.289 J-30.506 K0.000 F2500.000
G1 X163.915 Y554.330 Z7.000 F2500.000
G1 X163.379 Y555.977 Z6.000 F2500.000
G2 X166.058 Y545.821 Z6.000 I-73.465 J-24.813 K0.000 F2500.000
G2 X168.259 Y527.103 Z6.000 I-143.085 J-26.312 K0.000 F2500.000
G2 X168.422 Y506.030 Z6.000 I-273.132 J-12.652 K0.000 F2500.000
G2 X166.540 Y476.648 Z6.000 I-529.638 J19.181 K0.000 F2500.000
G2 X162.825 Y442.179 Z6.000 I-1349.518 J128.019 K0.000 F2500.000
G3 X157.162 Y394.093 Z6.000 I4741.784 J-582.738 K0.000 F2500.000
G3 X154.730 Y368.428 Z6.000 I806.352 J-89.360 K0.000 F2500.000
G3 X153.217 Y322.270 Z6.000 I445.855 J-37.719 K0.000 F2500.000
G3 X156.203 Y283.154 Z6.000 I322.004 J4.909 K0.000 F2500.000
G3 X161.885 Y254.567 Z6.000 I228.890 J30.633 K0.000 F2500.000
G3 X169.853 Y231.143 Z6.000 I162.854 J42.332 K0.000 F2500.000
G3 X176.507 Y217.626 Z6.000 I115.047 J48.232 K0.000 F2500.000
G3 X193.582 Y195.035 Z6.000 I94.115 J53.391 K0.000 F2500.000
G3 X207.954 Y182.321 Z6.000 I111.022 J111.010 K0.000 F2500.000
G3 X222.258 Y171.827 Z6.000 I211.007 J272.625 K0.000 F2500.000
G2 X234.620 Y163.170 Z6.000 I-456.566 J-665.094 K0.000 F2500.000
G2 X249.307 Y152.060 Z6.000 I-142.291 J-203.387 K0.000 F2500.000
G2 X269.670 Y131.639 Z6.000 I-83.768 J-103.891 K0.000 F2500.000
G2 X288.020 Y101.181 Z6.000 I-108.795 J-86.303 K0.000 F2500.000
G2 X300.037 Y59.971 Z6.000 I-159.234 J-68.793 K0.000 F2500.000
G2 X303.200 Y20.010 Z6.000 I-236.218 J-38.800 K0.000 F2500.000
G2 X280.000 Y-3.200 Z6.000 I-23.203 J-0.006 K0.000 F2500.000
G1 X0.000 Y-3.200 Z6.000 F2500.000
G2 X-3.200 Y0.000 Z6.000 I-0.000 J3.200 K0.000 F2500.000
G1 X-3.200 Y600.000 Z6.000 F2500.000
G2 X0.006 Y603.200 Z6.000 I3.200 J0.000 K0.000 F2500.000
G2 X41.234 Y602.659 Z6.000 I2.632 J-1369.896 K0.000 F2500.000
G2 X62.887 Y601.709 Z6.000 I-19.168 J-684.710 K0.000 F2500.000
G2 X91.562 Y599.130 Z6.000 I-22.502 J-410.871 K0.000 F2500.000
G2 X111.600 Y595.675 Z6.000 I-26.309 J-212.392 K0.000 F2500.000
G2 X126.193 Y591.519 Z6.000 I-25.746 J-118.096 K0.000 F2500.000
G2 X137.656 Y586.512 Z6.000 I-24.920 J-72.682 K0.000 F2500.000
G2 X146.656 Y580.628 Z6.000 I-27.870 J-52.455 K0.000 F2500.000
G2 X161.203 Y561.671 Z6.000 I-31.313 J-39.087 K0.000 F2500.000
G2 X163.379 Y555.977 Z6.000 I-71.289 J-30.506 K0.000 F2500.000
G1 X163.915 Y554.330 Z5.000 F2500.000
G1 X163.379 Y555.977 Z4.000 F2500.000
G2 X166.058 Y545.821 Z4.000 I-73.465 J-24.813 K0.000 F2500.000
G2 X168.259 Y527.103 Z4.000 I-143.085 J-26.312 K0.000 F2500.000
G2 X168.422 Y506.030 Z4.000 I-273.132 J-12.652 K0.000 F2500.000
G2 X166.540 Y476.648 Z4.000 I-529.638 J19.181 K0.000 F2500.000
G2 X162.825 Y442.179 Z4.000 I-1349.518 J128.019 K0.000 F2500.000
G3 X157.162 Y394.093 Z4.000 I4741.784 J-582.738 K0.000 F2500.000
G3 X154.730 Y368.428 Z4.000 I806.352 J-89.360 K0.000 F2500.000
G3 X153.217 Y322.270 Z4.000 I445.855 J-37.719 K0.000 F2500.000
G3 X156.203 Y283.154 Z4.000 I322.004 J4.909 K0.000 F2500.000
G3 X161.885 Y254.567 Z4.000 I228.890 J30.633 K0.000 F2500.000
G3 X169.853 Y231.143 Z4.000 I162.854 J42.332 K0.000 F2500.000
G3 X176.507 Y217.626 Z4.000 I115.047 J48.232 K0.000 F2500.000
G3 X193.582 Y195.035 Z4.000 I94.115 J53.391 K0.000 F2500.000
G3 X207.954 Y182.321 Z4.000 I111.022 J111.010 K0.000 F2500.000
G3 X222.258 Y171.827 Z4.000 I211.007 J272.625 K0.000 F2500.000
G2 X234.620 Y163.170 Z4.000 I-456.566 J-665.094 K0.000 F2500.000
G2 X249.307 Y152.060 Z4.000 I-142.291 J-203.387 K0.000 F2500.000
G2 X269.670 Y131.639 Z4.000 I-83.768 J-103.891 K0.000 F2500.000
G2 X288.020 Y101.181 Z4.000 I-108.795 J-86.303 K0.000 F2500.000
G2 X300.037 Y59.971 Z4.000 I-159.234 J-68.793 K0.000 F2500.000
G2 X303.200 Y20.010 Z4.000 I-236.218 J-38.800 K0.000 F2500.000
G2 X280.000 Y-3.200 Z4.000 I-23.203 J-0.006 K0.000 F2500.000
G1 X0.000 Y-3.200 Z4.000 F2500.000
G2 X-3.200 Y0.000 Z4.000 I-0.000 J3.200 K0.000 F2500.000
G1 X-3.200 Y600.000 Z4.000 F2500.000
G2 X0.006 Y603.200 Z4.000 I3.200 J0.000 K0.000 F2500.000
G2 X41.234 Y602.659 Z4.000 I2.632 J-1369.896 K0.000 F2500.000
G2 X62.887 Y601.709 Z4.000 I-19.168 J-684.710 K0.000 F2500.000
G2 X91.562 Y599.130 Z4.000 I-22.502 J-410.871 K0.000 F2500.000
G2 X111.600 Y595.675 Z4.000 I-26.309 J-212.392 K0.000 F2500.000
G2 X126.193 Y591.519 Z4.000 I-25.746 J-118.096 K0.000 F2500.000
G2 X137.656 Y586.512 Z4.000 I-24.920 J-72.682 K0.000 F2500.000
G2 X146.656 Y580.628 Z4.000 I-27.870 J-52.455 K0.000 F2500.000
G2 X161.203 Y561.671 Z4.000 I-31.313 J-39.087 K0.000 F2500.000
G2 X163.379 Y555.977 Z4.000 I-71.289 J-30.506 K0.000 F2500.000
G1 X163.915 Y554.330 Z3.000 F2500.000
G1 X163.379 Y555.977 Z2.000 F2500.000
G2 X166.058 Y545.821 Z2.000 I-73.465 J-24.813 K0.000 F2500.000
G2 X168.259 Y527.103 Z2.000 I-143.085 J-26.312 K0.000 F2500.000
G2 X168.422 Y506.030 Z2.000 I-273.132 J-12.652 K0.000 F2500.000
G2 X166.540 Y476.648 Z2.000 I-529.638 J19.181 K0.000 F2500.000
G2 X162.825 Y442.179 Z2.000 I-1349.518 J128.019 K0.000 F2500.000
G3 X157.162 Y394.093 Z2.000 I4741.784 J-582.738 K0.000 F2500.000
G3 X154.730 Y368.428 Z2.000 I806.352 J-89.360 K0.000 F2500.000
G3 X153.217 Y322.270 Z2.000 I445.855 J-37.719 K0.000 F2500.000
G3 X156.203 Y283.154 Z2.000 I322.004 J4.909 K0.000 F2500.000
G3 X161.885 Y254.567 Z2.000 I228.890 J30.633 K0.000 F2500.000
G3 X169.853 Y231.143 Z2.000 I162.854 J42.332 K0.000 F2500.000
G3 X176.507 Y217.626 Z2.000 I115.047 J48.232 K0.000 F2500.000
G3 X193.582 Y195.035 Z2.000 I94.115 J53.391 K0.000 F2500.000
G3 X207.954 Y182.321 Z2.000 I111.022 J111.010 K0.000 F2500.000
G3 X222.258 Y171.827 Z2.000 I211.007 J272.625 K0.000 F2500.000
G2 X234.620 Y163.170 Z2.000 I-456.566 J-665.094 K0.000 F2500.000
G2 X249.307 Y152.060 Z2.000 I-142.291 J-203.387 K0.000 F2500.000
G2 X269.670 Y131.639 Z2.000 I-83.768 J-103.891 K0.000 F2500.000
G2 X288.020 Y101.181 Z2.000 I-108.795 J-86.303 K0.000 F2500.000
G2 X300.037 Y59.971 Z2.000 I-159.234 J-68.793 K0.000 F2500.000
G2 X303.200 Y20.010 Z2.000 I-236.218 J-38.800 K0.000 F2500.000
G2 X280.000 Y-3.200 Z2.000 I-23.203 J-0.006 K0.000 F2500.000
G1 X0.000 Y-3.200 Z2.000 F2500.000
G2 X-3.200 Y0.000 Z2.000 I-0.000 J3.200 K0.000 F2500.000
G1 X-3.200 Y600.000 Z2.000 F2500.000
G2 X0.006 Y603.200 Z2.000 I3.200 J0.000 K0.000 F2500.000
G2 X41.234 Y602.659 Z2.000 I2.632 J-1369.896 K0.000 F2500.000
G2 X62.887 Y601.709 Z2.000 I-19.168 J-684.710 K0.000 F2500.000
G2 X91.562 Y599.130 Z2.000 I-22.502 J-410.871 K0.000 F2500.000
G2 X111.600 Y595.675 Z2.000 I-26.309 J-212.392 K0.000 F2500.000
G2 X126.193 Y591.519 Z2.000 I-25.746 J-118.096 K0.000 F2500.000
G2 X137.656 Y586.512 Z2.000 I-24.920 J-72.682 K0.000 F2500.000
G2 X146.656 Y580.628 Z2.000 I-27.870 J-52.455 K0.000 F2500.000
G2 X161.203 Y561.671 Z2.000 I-31.313 J-39.087 K0.000 F2500.000
G2 X163.379 Y555.977 Z2.000 I-71.289 J-30.506 K0.000 F2500.000
G0 X163.379 Y555.977 Z42.000
(Finish operation: RampEntryDressup)
(Begin operation: RampEntryDressup001)
(Path: RampEntryDressup001)
G0 X0.000 Y0.000 Z42.000
G0 X163.203 Y555.873 Z42.000
G1 X163.844 Y553.884 Z40.795 F2500.000
G1 X164.430 Y551.879 Z39.588 F2500.000
G1 X164.962 Y549.860 Z38.382 F2500.000
G1 X165.440 Y547.826 Z37.175 F2500.000
G1 X165.862 Y545.780 Z35.970 F2500.000
G1 X166.397 Y542.687 Z34.159 F2500.000
G1 X166.864 Y539.583 Z32.346 F2500.000
G1 X167.264 Y536.471 Z30.533 F2500.000
G1 X167.596 Y533.351 Z28.721 F2500.000
G1 X167.862 Y530.223 Z26.908 F2500.000
G1 X168.059 Y527.090 Z25.097 F2500.000
G1 X168.200 Y523.545 Z23.049 F2500.000
G1 X168.296 Y519.998 Z21.000 F2500.000
G1 X168.200 Y523.545 Z18.951 F2500.000
G1 X168.059 Y527.090 Z16.903 F2500.000
G1 X167.862 Y530.223 Z15.092 F2500.000
G1 X167.596 Y533.351 Z13.279 F2500.000
G1 X167.264 Y536.471 Z11.467 F2500.000
G1 X166.864 Y539.583 Z9.654 F2500.000
G1 X166.397 Y542.687 Z7.841 F2500.000
G1 X165.862 Y545.780 Z6.030 F2500.000
G1 X165.440 Y547.826 Z4.825 F2500.000
G1 X164.962 Y549.860 Z3.618 F2500.000
G1 X164.430 Y551.879 Z2.412 F2500.000
G1 X163.844 Y553.884 Z1.205 F2500.000
G1 X163.203 Y555.873 Z0.000 F2500.000
G2 X165.862 Y545.780 Z0.000 I-73.296 J-24.710 K0.000 F2500.000
G2 X168.059 Y527.090 Z0.000 I-142.903 J-26.272 K0.000 F2500.000
G2 X168.222 Y506.034 Z0.000 I-272.954 J-12.639 K0.000 F2500.000
G2 X166.340 Y476.665 Z0.000 I-529.465 J19.179 K0.000 F2500.000
G2 X162.626 Y442.202 Z0.000 I-1349.384 J128.009 K0.000 F2500.000
G3 X160.378 Y423.608 Z0.000 I4741.764 J-582.736 K0.000 F2500.000
G2 X156.963 Y394.115 Z0.000 I-9959.245 J1138.002 K0.000 F2500.000
G3 X154.531 Y368.443 Z0.000 I806.548 J-89.381 K0.000 F2500.000
G3 X153.017 Y322.266 Z0.000 I446.052 J-37.734 K0.000 F2500.000
G3 X156.005 Y283.127 Z0.000 I322.203 J4.913 K0.000 F2500.000
G3 X161.691 Y254.516 Z0.000 I229.087 J30.660 K0.000 F2500.000
G3 X169.669 Y231.065 Z0.000 I163.046 J42.383 K0.000 F2500.000
G3 X176.333 Y217.526 Z0.000 I115.229 J48.310 K0.000 F2500.000
G3 X193.439 Y194.895 Z0.000 I94.288 J53.490 K0.000 F2500.000
G3 X207.830 Y182.163 Z0.000 I111.165 J111.149 K0.000 F2500.000
G3 X222.143 Y171.663 Z0.000 I211.134 J272.786 K0.000 F2500.000
G2 X234.504 Y163.006 Z0.000 I-456.478 J-664.967 K0.000 F2500.000
G2 X249.182 Y151.905 Z0.000 I-142.176 J-203.226 K0.000 F2500.000
G2 X269.515 Y131.513 Z0.000 I-83.642 J-103.734 K0.000 F2500.000
G2 X287.838 Y101.099 Z0.000 I-108.641 J-86.177 K0.000 F2500.000
G2 X299.840 Y59.936 Z0.000 I-159.055 J-68.711 K0.000 F2500.000
G2 X301.763 Y45.497 Z0.000 I-236.022 J-38.766 K0.000 F2500.000
G1 X301.958 Y43.506 Z2.000 F2500.000
G2 X302.507 Y36.568 Z2.000 I-238.139 J-22.336 K0.000 F2500.000
G1 X302.627 Y34.571 Z0.000 F2500.000
G2 X303.000 Y20.009 Z0.000 I-238.808 J-13.401 K-0.000 F2500.000
G2 X280.000 Y-3.000 Z0.000 I-23.003 J-0.006 K0.000 F2500.000
G1 X0.000 Y-3.000 Z0.000 F2500.000
G2 X-3.000 Y0.000 Z0.000 I0.000 J3.000 K0.000 F2500.000
G1 X-3.000 Y144.520 Z0.000 F2500.000
G1 X-3.000 Y146.520 Z2.000 F2500.000
G1 X-3.000 Y153.480 Z2.000 F2500.000
G1 X-3.000 Y155.480 Z0.000 F2500.000
G1 X-3.000 Y444.520 Z0.000 F2500.000
G1 X-3.000 Y446.520 Z2.000 F2500.000
G1 X-3.000 Y453.480 Z2.000 F2500.000
G1 X-3.000 Y455.480 Z0.000 F2500.000
G1 X-3.000 Y600.000 Z0.000 F2500.000
G2 X0.006 Y603.000 Z0.000 I3.000 J-0.000 K0.000 F2500.000
G2 X41.229 Y602.459 Z0.000 I2.632 J-1369.696 K0.000 F2500.000
G2 X62.876 Y601.510 Z0.000 I-19.163 J-684.502 K0.000 F2500.000
G2 X91.539 Y598.932 Z0.000 I-22.491 J-410.668 K0.000 F2500.000
G2 X111.559 Y595.479 Z0.000 I-26.284 J-212.190 K0.000 F2500.000
G2 X126.129 Y591.329 Z0.000 I-25.703 J-117.897 K0.000 F2500.000
G2 X137.563 Y586.335 Z0.000 I-24.854 J-72.490 K0.000 F2500.000
G2 X146.534 Y580.470 Z0.000 I-27.777 J-52.277 K0.000 F2500.000
G2 X161.021 Y561.587 Z0.000 I-31.191 J-38.929 K0.000 F2500.000
G2 X163.203 Y555.873 Z0.000 I-71.115 J-30.424 K0.000 F2500.000
G0 X163.203 Y555.873 Z42.000
(Finish operation: RampEntryDressup001)
(Begin postamble)
M5
G17 G90
M2
