(Exported by FreeCAD)
(Post Processor: grbl_post)
(Output Time:2025-07-11 20:30:08.717757)
(Begin preamble)
G17 G90
G21
(Begin operation: TC: D6.0-L42 Endmill Corn Bit)
(Path: TC: D6.0-L42 Endmill Corn Bit)
(TC: D6.0-L42 Endmill Corn Bit)
(Begin toolchange)
( M6 T3 )
M3 S24000
(Finish operation: TC: D6.0-L42 Endmill Corn Bit)
(Begin operation: Fixture)
(Path: Fixture)
G54
(Finish operation: Fixture)
(Begin operation: RampEntryDressup)
(Path: RampEntryDressup)
G0 X0.000 Y0.000 Z42.000
G0 X155.115 Y539.212 Z42.000
G1 X155.928 Y537.263 Z40.781 F2500.000
G1 X156.691 Y535.294 Z39.561 F2500.000
G1 X157.021 Y534.379 Z39.000 F2500.000
G1 X156.691 Y535.294 Z38.439 F2500.000
G1 X155.928 Y537.263 Z37.219 F2500.000
G1 X155.115 Y539.212 Z36.000 F2500.000
G2 X156.691 Y535.294 Z36.000 I-76.249 J-32.941 K0.000 F2500.000
G2 X162.100 Y513.899 Z36.000 I-100.631 J-36.824 K0.000 F2500.000
G2 X163.614 Y490.525 Z36.000 I-158.973 J-22.034 K0.000 F2500.000
G2 X162.079 Y464.404 Z36.000 I-297.713 J4.391 K0.000 F2500.000
G2 X160.618 Y450.899 Z36.000 I-2319.790 J244.034 K0.000 F2500.000
G3 X153.071 Y379.203 Z36.000 I3375.216 J-391.571 K0.000 F2500.000
G3 X148.887 Y324.765 Z36.000 I1636.777 J-153.157 K0.000 F2500.000
G3 X147.111 Y285.850 Z36.000 I1112.324 J-70.262 K0.000 F2500.000
G3 X147.302 Y251.111 Z36.000 I457.627 J-14.861 K0.000 F2500.000
G3 X149.677 Y227.193 Z36.000 I228.874 J10.653 K0.000 F2500.000
G3 X151.987 Y216.228 Z36.000 I101.785 J15.720 K0.000 F2500.000
G3 X161.389 Y195.984 Z36.000 I64.351 J17.581 K0.000 F2500.000
G3 X173.102 Y182.236 Z36.000 I80.379 J56.615 K0.000 F2500.000
G3 X183.146 Y173.216 Z36.000 I122.321 J126.106 K0.000 F2500.000
G3 X204.367 Y157.442 Z36.000 I184.003 J225.384 K0.000 F2500.000
G2 X218.848 Y147.482 Z36.000 I-645.688 J-954.231 K0.000 F2500.000
G2 X237.362 Y133.916 Z36.000 I-224.884 J-326.349 K0.000 F2500.000
G2 X256.380 Y117.507 Z36.000 I-141.590 J-183.325 K0.000 F2500.000
G2 X275.602 Y95.733 Z36.000 I-116.275 J-122.016 K0.000 F2500.000
G2 X294.254 Y61.495 Z36.000 I-110.706 J-82.511 K0.000 F2500.000
G2 X301.052 Y36.040 Z36.000 I-131.338 J-48.711 K0.000 F2500.000
G2 X303.200 Y6.865 Z36.000 I-155.720 J-26.130 K0.000 F2500.000
G2 X293.001 Y-3.200 Z36.000 I-10.206 J0.142 K0.000 F2500.000
G1 X0.000 Y-3.200 Z36.000 F2500.000
G2 X-3.200 Y0.000 Z36.000 I-0.000 J3.200 K0.000 F2500.000
G1 X-3.200 Y600.000 Z36.000 F2500.000
G2 X0.013 Y603.200 Z36.000 I3.200 J0.000 K0.000 F2500.000
G2 X28.427 Y602.345 Z36.000 I0.981 J-439.889 K0.000 F2500.000
G2 X57.812 Y599.246 Z36.000 I-18.402 J-315.321 K0.000 F2500.000
G2 X82.170 Y594.220 Z36.000 I-32.847 J-220.768 K0.000 F2500.000
G2 X98.909 Y588.881 Z36.000 I-40.769 J-156.713 K0.000 F2500.000
G2 X115.976 Y581.040 Z36.000 I-46.808 J-124.371 K0.000 F2500.000
G2 X133.968 Y568.422 Z36.000 I-49.576 J-89.830 K0.000 F2500.000
G2 X155.115 Y539.212 Z36.000 I-55.102 J-62.152 K0.000 F2500.000
G1 X155.785 Y537.615 Z35.000 F2500.000
G1 X155.115 Y539.212 Z34.000 F2500.000
G2 X156.691 Y535.294 Z34.000 I-76.249 J-32.941 K0.000 F2500.000
G2 X162.100 Y513.899 Z34.000 I-100.631 J-36.824 K0.000 F2500.000
G2 X163.614 Y490.525 Z34.000 I-158.973 J-22.034 K0.000 F2500.000
G2 X162.079 Y464.404 Z34.000 I-297.713 J4.391 K0.000 F2500.000
G2 X160.618 Y450.899 Z34.000 I-2319.790 J244.034 K0.000 F2500.000
G3 X153.071 Y379.203 Z34.000 I3375.216 J-391.571 K0.000 F2500.000
G3 X148.887 Y324.765 Z34.000 I1636.777 J-153.157 K0.000 F2500.000
G3 X147.111 Y285.850 Z34.000 I1112.324 J-70.262 K0.000 F2500.000
G3 X147.302 Y251.111 Z34.000 I457.627 J-14.861 K0.000 F2500.000
G3 X149.677 Y227.193 Z34.000 I228.874 J10.653 K0.000 F2500.000
G3 X151.987 Y216.228 Z34.000 I101.785 J15.720 K0.000 F2500.000
G3 X161.389 Y195.984 Z34.000 I64.351 J17.581 K0.000 F2500.000
G3 X173.102 Y182.236 Z34.000 I80.379 J56.615 K0.000 F2500.000
G3 X183.146 Y173.216 Z34.000 I122.321 J126.106 K0.000 F2500.000
G3 X204.367 Y157.442 Z34.000 I184.003 J225.384 K0.000 F2500.000
G2 X218.848 Y147.482 Z34.000 I-645.688 J-954.231 K0.000 F2500.000
G2 X237.362 Y133.916 Z34.000 I-224.884 J-326.349 K0.000 F2500.000
G2 X256.380 Y117.507 Z34.000 I-141.590 J-183.325 K0.000 F2500.000
G2 X275.602 Y95.733 Z34.000 I-116.275 J-122.016 K0.000 F2500.000
G2 X294.254 Y61.495 Z34.000 I-110.706 J-82.511 K0.000 F2500.000
G2 X301.052 Y36.040 Z34.000 I-131.338 J-48.711 K0.000 F2500.000
G2 X303.200 Y6.865 Z34.000 I-155.720 J-26.130 K0.000 F2500.000
G2 X293.001 Y-3.200 Z34.000 I-10.206 J0.142 K0.000 F2500.000
G1 X0.000 Y-3.200 Z34.000 F2500.000
G2 X-3.200 Y0.000 Z34.000 I-0.000 J3.200 K0.000 F2500.000
G1 X-3.200 Y600.000 Z34.000 F2500.000
G2 X0.013 Y603.200 Z34.000 I3.200 J0.000 K0.000 F2500.000
G2 X28.427 Y602.345 Z34.000 I0.981 J-439.889 K0.000 F2500.000
G2 X57.812 Y599.246 Z34.000 I-18.402 J-315.321 K0.000 F2500.000
G2 X82.170 Y594.220 Z34.000 I-32.847 J-220.768 K0.000 F2500.000
G2 X98.909 Y588.881 Z34.000 I-40.769 J-156.713 K0.000 F2500.000
G2 X115.976 Y581.040 Z34.000 I-46.808 J-124.371 K0.000 F2500.000
G2 X133.968 Y568.422 Z34.000 I-49.576 J-89.830 K0.000 F2500.000
G2 X155.115 Y539.212 Z34.000 I-55.102 J-62.152 K0.000 F2500.000
G1 X155.785 Y537.615 Z33.000 F2500.000
G1 X155.115 Y539.212 Z32.000 F2500.000
G2 X156.691 Y535.294 Z32.000 I-76.249 J-32.941 K0.000 F2500.000
G2 X162.100 Y513.899 Z32.000 I-100.631 J-36.824 K0.000 F2500.000
G2 X163.614 Y490.525 Z32.000 I-158.973 J-22.034 K0.000 F2500.000
G2 X162.079 Y464.404 Z32.000 I-297.713 J4.391 K0.000 F2500.000
G2 X160.618 Y450.899 Z32.000 I-2319.790 J244.034 K0.000 F2500.000
G3 X153.071 Y379.203 Z32.000 I3375.216 J-391.571 K0.000 F2500.000
G3 X148.887 Y324.765 Z32.000 I1636.777 J-153.157 K0.000 F2500.000
G3 X147.111 Y285.850 Z32.000 I1112.324 J-70.262 K0.000 F2500.000
G3 X147.302 Y251.111 Z32.000 I457.627 J-14.861 K0.000 F2500.000
G3 X149.677 Y227.193 Z32.000 I228.874 J10.653 K0.000 F2500.000
G3 X151.987 Y216.228 Z32.000 I101.785 J15.720 K0.000 F2500.000
G3 X161.389 Y195.984 Z32.000 I64.351 J17.581 K0.000 F2500.000
G3 X173.102 Y182.236 Z32.000 I80.379 J56.615 K0.000 F2500.000
G3 X183.146 Y173.216 Z32.000 I122.321 J126.106 K0.000 F2500.000
G3 X204.367 Y157.442 Z32.000 I184.003 J225.384 K0.000 F2500.000
G2 X218.848 Y147.482 Z32.000 I-645.688 J-954.231 K0.000 F2500.000
G2 X237.362 Y133.916 Z32.000 I-224.884 J-326.349 K0.000 F2500.000
G2 X256.380 Y117.507 Z32.000 I-141.590 J-183.325 K0.000 F2500.000
G2 X275.602 Y95.733 Z32.000 I-116.275 J-122.016 K0.000 F2500.000
G2 X294.254 Y61.495 Z32.000 I-110.706 J-82.511 K0.000 F2500.000
G2 X301.052 Y36.040 Z32.000 I-131.338 J-48.711 K0.000 F2500.000
G2 X303.200 Y6.865 Z32.000 I-155.720 J-26.130 K0.000 F2500.000
G2 X293.001 Y-3.200 Z32.000 I-10.206 J0.142 K0.000 F2500.000
G1 X0.000 Y-3.200 Z32.000 F2500.000
G2 X-3.200 Y0.000 Z32.000 I-0.000 J3.200 K0.000 F2500.000
G1 X-3.200 Y600.000 Z32.000 F2500.000
G2 X0.013 Y603.200 Z32.000 I3.200 J0.000 K0.000 F2500.000
G2 X28.427 Y602.345 Z32.000 I0.981 J-439.889 K0.000 F2500.000
G2 X57.812 Y599.246 Z32.000 I-18.402 J-315.321 K0.000 F2500.000
G2 X82.170 Y594.220 Z32.000 I-32.847 J-220.768 K0.000 F2500.000
G2 X98.909 Y588.881 Z32.000 I-40.769 J-156.713 K0.000 F2500.000
G2 X115.976 Y581.040 Z32.000 I-46.808 J-124.371 K0.000 F2500.000
G2 X133.968 Y568.422 Z32.000 I-49.576 J-89.830 K0.000 F2500.000
G2 X155.115 Y539.212 Z32.000 I-55.102 J-62.152 K0.000 F2500.000
G1 X155.785 Y537.615 Z31.000 F2500.000
G1 X155.115 Y539.212 Z30.000 F2500.000
G2 X156.691 Y535.294 Z30.000 I-76.249 J-32.941 K0.000 F2500.000
G2 X162.100 Y513.899 Z30.000 I-100.631 J-36.824 K0.000 F2500.000
G2 X163.614 Y490.525 Z30.000 I-158.973 J-22.034 K0.000 F2500.000
G2 X162.079 Y464.404 Z30.000 I-297.713 J4.391 K0.000 F2500.000
G2 X160.618 Y450.899 Z30.000 I-2319.790 J244.034 K0.000 F2500.000
G3 X153.071 Y379.203 Z30.000 I3375.216 J-391.571 K0.000 F2500.000
G3 X148.887 Y324.765 Z30.000 I1636.777 J-153.157 K0.000 F2500.000
G3 X147.111 Y285.850 Z30.000 I1112.324 J-70.262 K0.000 F2500.000
G3 X147.302 Y251.111 Z30.000 I457.627 J-14.861 K0.000 F2500.000
G3 X149.677 Y227.193 Z30.000 I228.874 J10.653 K0.000 F2500.000
G3 X151.987 Y216.228 Z30.000 I101.785 J15.720 K0.000 F2500.000
G3 X161.389 Y195.984 Z30.000 I64.351 J17.581 K0.000 F2500.000
G3 X173.102 Y182.236 Z30.000 I80.379 J56.615 K0.000 F2500.000
G3 X183.146 Y173.216 Z30.000 I122.321 J126.106 K0.000 F2500.000
G3 X204.367 Y157.442 Z30.000 I184.003 J225.384 K0.000 F2500.000
G2 X218.848 Y147.482 Z30.000 I-645.688 J-954.231 K0.000 F2500.000
G2 X237.362 Y133.916 Z30.000 I-224.884 J-326.349 K0.000 F2500.000
G2 X256.380 Y117.507 Z30.000 I-141.590 J-183.325 K0.000 F2500.000
G2 X275.602 Y95.733 Z30.000 I-116.275 J-122.016 K0.000 F2500.000
G2 X294.254 Y61.495 Z30.000 I-110.706 J-82.511 K0.000 F2500.000
G2 X301.052 Y36.040 Z30.000 I-131.338 J-48.711 K0.000 F2500.000
G2 X303.200 Y6.865 Z30.000 I-155.720 J-26.130 K0.000 F2500.000
G2 X293.001 Y-3.200 Z30.000 I-10.206 J0.142 K0.000 F2500.000
G1 X0.000 Y-3.200 Z30.000 F2500.000
G2 X-3.200 Y0.000 Z30.000 I-0.000 J3.200 K0.000 F2500.000
G1 X-3.200 Y600.000 Z30.000 F2500.000
G2 X0.013 Y603.200 Z30.000 I3.200 J0.000 K0.000 F2500.000
G2 X28.427 Y602.345 Z30.000 I0.981 J-439.889 K0.000 F2500.000
G2 X57.812 Y599.246 Z30.000 I-18.402 J-315.321 K0.000 F2500.000
G2 X82.170 Y594.220 Z30.000 I-32.847 J-220.768 K0.000 F2500.000
G2 X98.909 Y588.881 Z30.000 I-40.769 J-156.713 K0.000 F2500.000
G2 X115.976 Y581.040 Z30.000 I-46.808 J-124.371 K0.000 F2500.000
G2 X133.968 Y568.422 Z30.000 I-49.576 J-89.830 K0.000 F2500.000
G2 X155.115 Y539.212 Z30.000 I-55.102 J-62.152 K0.000 F2500.000
G1 X155.785 Y537.615 Z29.000 F2500.000
G1 X155.115 Y539.212 Z28.000 F2500.000
G2 X156.691 Y535.294 Z28.000 I-76.249 J-32.941 K0.000 F2500.000
G2 X162.100 Y513.899 Z28.000 I-100.631 J-36.824 K0.000 F2500.000
G2 X163.614 Y490.525 Z28.000 I-158.973 J-22.034 K0.000 F2500.000
G2 X162.079 Y464.404 Z28.000 I-297.713 J4.391 K0.000 F2500.000
G2 X160.618 Y450.899 Z28.000 I-2319.790 J244.034 K0.000 F2500.000
G3 X153.071 Y379.203 Z28.000 I3375.216 J-391.571 K0.000 F2500.000
G3 X148.887 Y324.765 Z28.000 I1636.777 J-153.157 K0.000 F2500.000
G3 X147.111 Y285.850 Z28.000 I1112.324 J-70.262 K0.000 F2500.000
G3 X147.302 Y251.111 Z28.000 I457.627 J-14.861 K0.000 F2500.000
G3 X149.677 Y227.193 Z28.000 I228.874 J10.653 K0.000 F2500.000
G3 X151.987 Y216.228 Z28.000 I101.785 J15.720 K0.000 F2500.000
G3 X161.389 Y195.984 Z28.000 I64.351 J17.581 K0.000 F2500.000
G3 X173.102 Y182.236 Z28.000 I80.379 J56.615 K0.000 F2500.000
G3 X183.146 Y173.216 Z28.000 I122.321 J126.106 K0.000 F2500.000
G3 X204.367 Y157.442 Z28.000 I184.003 J225.384 K0.000 F2500.000
G2 X218.848 Y147.482 Z28.000 I-645.688 J-954.231 K0.000 F2500.000
G2 X237.362 Y133.916 Z28.000 I-224.884 J-326.349 K0.000 F2500.000
G2 X256.380 Y117.507 Z28.000 I-141.590 J-183.325 K0.000 F2500.000
G2 X275.602 Y95.733 Z28.000 I-116.275 J-122.016 K0.000 F2500.000
G2 X294.254 Y61.495 Z28.000 I-110.706 J-82.511 K0.000 F2500.000
G2 X301.052 Y36.040 Z28.000 I-131.338 J-48.711 K0.000 F2500.000
G2 X303.200 Y6.865 Z28.000 I-155.720 J-26.130 K0.000 F2500.000
G2 X293.001 Y-3.200 Z28.000 I-10.206 J0.142 K0.000 F2500.000
G1 X0.000 Y-3.200 Z28.000 F2500.000
G2 X-3.200 Y0.000 Z28.000 I-0.000 J3.200 K0.000 F2500.000
G1 X-3.200 Y600.000 Z28.000 F2500.000
G2 X0.013 Y603.200 Z28.000 I3.200 J0.000 K0.000 F2500.000
G2 X28.427 Y602.345 Z28.000 I0.981 J-439.889 K0.000 F2500.000
G2 X57.812 Y599.246 Z28.000 I-18.402 J-315.321 K0.000 F2500.000
G2 X82.170 Y594.220 Z28.000 I-32.847 J-220.768 K0.000 F2500.000
G2 X98.909 Y588.881 Z28.000 I-40.769 J-156.713 K0.000 F2500.000
G2 X115.976 Y581.040 Z28.000 I-46.808 J-124.371 K0.000 F2500.000
G2 X133.968 Y568.422 Z28.000 I-49.576 J-89.830 K0.000 F2500.000
G2 X155.115 Y539.212 Z28.000 I-55.102 J-62.152 K0.000 F2500.000
G1 X155.785 Y537.615 Z27.000 F2500.000
G1 X155.115 Y539.212 Z26.000 F2500.000
G2 X156.691 Y535.294 Z26.000 I-76.249 J-32.941 K0.000 F2500.000
G2 X162.100 Y513.899 Z26.000 I-100.631 J-36.824 K0.000 F2500.000
G2 X163.614 Y490.525 Z26.000 I-158.973 J-22.034 K0.000 F2500.000
G2 X162.079 Y464.404 Z26.000 I-297.713 J4.391 K0.000 F2500.000
G2 X160.618 Y450.899 Z26.000 I-2319.790 J244.034 K0.000 F2500.000
G3 X153.071 Y379.203 Z26.000 I3375.216 J-391.571 K0.000 F2500.000
G3 X148.887 Y324.765 Z26.000 I1636.777 J-153.157 K0.000 F2500.000
G3 X147.111 Y285.850 Z26.000 I1112.324 J-70.262 K0.000 F2500.000
G3 X147.302 Y251.111 Z26.000 I457.627 J-14.861 K0.000 F2500.000
G3 X149.677 Y227.193 Z26.000 I228.874 J10.653 K0.000 F2500.000
G3 X151.987 Y216.228 Z26.000 I101.785 J15.720 K0.000 F2500.000
G3 X161.389 Y195.984 Z26.000 I64.351 J17.581 K0.000 F2500.000
G3 X173.102 Y182.236 Z26.000 I80.379 J56.615 K0.000 F2500.000
G3 X183.146 Y173.216 Z26.000 I122.321 J126.106 K0.000 F2500.000
G3 X204.367 Y157.442 Z26.000 I184.003 J225.384 K0.000 F2500.000
G2 X218.848 Y147.482 Z26.000 I-645.688 J-954.231 K0.000 F2500.000
G2 X237.362 Y133.916 Z26.000 I-224.884 J-326.349 K0.000 F2500.000
G2 X256.380 Y117.507 Z26.000 I-141.590 J-183.325 K0.000 F2500.000
G2 X275.602 Y95.733 Z26.000 I-116.275 J-122.016 K0.000 F2500.000
G2 X294.254 Y61.495 Z26.000 I-110.706 J-82.511 K0.000 F2500.000
G2 X301.052 Y36.040 Z26.000 I-131.338 J-48.711 K0.000 F2500.000
G2 X303.200 Y6.865 Z26.000 I-155.720 J-26.130 K0.000 F2500.000
G2 X293.001 Y-3.200 Z26.000 I-10.206 J0.142 K0.000 F2500.000
G1 X0.000 Y-3.200 Z26.000 F2500.000
G2 X-3.200 Y0.000 Z26.000 I-0.000 J3.200 K0.000 F2500.000
G1 X-3.200 Y600.000 Z26.000 F2500.000
G2 X0.013 Y603.200 Z26.000 I3.200 J0.000 K0.000 F2500.000
G2 X28.427 Y602.345 Z26.000 I0.981 J-439.889 K0.000 F2500.000
G2 X57.812 Y599.246 Z26.000 I-18.402 J-315.321 K0.000 F2500.000
G2 X82.170 Y594.220 Z26.000 I-32.847 J-220.768 K0.000 F2500.000
G2 X98.909 Y588.881 Z26.000 I-40.769 J-156.713 K0.000 F2500.000
G2 X115.976 Y581.040 Z26.000 I-46.808 J-124.371 K0.000 F2500.000
G2 X133.968 Y568.422 Z26.000 I-49.576 J-89.830 K0.000 F2500.000
G2 X155.115 Y539.212 Z26.000 I-55.102 J-62.152 K0.000 F2500.000
G1 X155.785 Y537.615 Z25.000 F2500.000
G1 X155.115 Y539.212 Z24.000 F2500.000
G2 X156.691 Y535.294 Z24.000 I-76.249 J-32.941 K0.000 F2500.000
G2 X162.100 Y513.899 Z24.000 I-100.631 J-36.824 K0.000 F2500.000
G2 X163.614 Y490.525 Z24.000 I-158.973 J-22.034 K0.000 F2500.000
G2 X162.079 Y464.404 Z24.000 I-297.713 J4.391 K0.000 F2500.000
G2 X160.618 Y450.899 Z24.000 I-2319.790 J244.034 K0.000 F2500.000
G3 X153.071 Y379.203 Z24.000 I3375.216 J-391.571 K0.000 F2500.000
G3 X148.887 Y324.765 Z24.000 I1636.777 J-153.157 K0.000 F2500.000
G3 X147.111 Y285.850 Z24.000 I1112.324 J-70.262 K0.000 F2500.000
G3 X147.302 Y251.111 Z24.000 I457.627 J-14.861 K0.000 F2500.000
G3 X149.677 Y227.193 Z24.000 I228.874 J10.653 K0.000 F2500.000
G3 X151.987 Y216.228 Z24.000 I101.785 J15.720 K0.000 F2500.000
G3 X161.389 Y195.984 Z24.000 I64.351 J17.581 K0.000 F2500.000
G3 X173.102 Y182.236 Z24.000 I80.379 J56.615 K0.000 F2500.000
G3 X183.146 Y173.216 Z24.000 I122.321 J126.106 K0.000 F2500.000
G3 X204.367 Y157.442 Z24.000 I184.003 J225.384 K0.000 F2500.000
G2 X218.848 Y147.482 Z24.000 I-645.688 J-954.231 K0.000 F2500.000
G2 X237.362 Y133.916 Z24.000 I-224.884 J-326.349 K0.000 F2500.000
G2 X256.380 Y117.507 Z24.000 I-141.590 J-183.325 K0.000 F2500.000
G2 X275.602 Y95.733 Z24.000 I-116.275 J-122.016 K0.000 F2500.000
G2 X294.254 Y61.495 Z24.000 I-110.706 J-82.511 K0.000 F2500.000
G2 X301.052 Y36.040 Z24.000 I-131.338 J-48.711 K0.000 F2500.000
G2 X303.200 Y6.865 Z24.000 I-155.720 J-26.130 K0.000 F2500.000
G2 X293.001 Y-3.200 Z24.000 I-10.206 J0.142 K0.000 F2500.000
G1 X0.000 Y-3.200 Z24.000 F2500.000
G2 X-3.200 Y0.000 Z24.000 I-0.000 J3.200 K0.000 F2500.000
G1 X-3.200 Y600.000 Z24.000 F2500.000
G2 X0.013 Y603.200 Z24.000 I3.200 J0.000 K0.000 F2500.000
G2 X28.427 Y602.345 Z24.000 I0.981 J-439.889 K0.000 F2500.000
G2 X57.812 Y599.246 Z24.000 I-18.402 J-315.321 K0.000 F2500.000
G2 X82.170 Y594.220 Z24.000 I-32.847 J-220.768 K0.000 F2500.000
G2 X98.909 Y588.881 Z24.000 I-40.769 J-156.713 K0.000 F2500.000
G2 X115.976 Y581.040 Z24.000 I-46.808 J-124.371 K0.000 F2500.000
G2 X133.968 Y568.422 Z24.000 I-49.576 J-89.830 K0.000 F2500.000
G2 X155.115 Y539.212 Z24.000 I-55.102 J-62.152 K0.000 F2500.000
G1 X155.785 Y537.615 Z23.000 F2500.000
G1 X155.115 Y539.212 Z22.000 F2500.000
G2 X156.691 Y535.294 Z22.000 I-76.249 J-32.941 K0.000 F2500.000
G2 X162.100 Y513.899 Z22.000 I-100.631 J-36.824 K0.000 F2500.000
G2 X163.614 Y490.525 Z22.000 I-158.973 J-22.034 K0.000 F2500.000
G2 X162.079 Y464.404 Z22.000 I-297.713 J4.391 K0.000 F2500.000
G2 X160.618 Y450.899 Z22.000 I-2319.790 J244.034 K0.000 F2500.000
G3 X153.071 Y379.203 Z22.000 I3375.216 J-391.571 K0.000 F2500.000
G3 X148.887 Y324.765 Z22.000 I1636.777 J-153.157 K0.000 F2500.000
G3 X147.111 Y285.850 Z22.000 I1112.324 J-70.262 K0.000 F2500.000
G3 X147.302 Y251.111 Z22.000 I457.627 J-14.861 K0.000 F2500.000
G3 X149.677 Y227.193 Z22.000 I228.874 J10.653 K0.000 F2500.000
G3 X151.987 Y216.228 Z22.000 I101.785 J15.720 K0.000 F2500.000
G3 X161.389 Y195.984 Z22.000 I64.351 J17.581 K0.000 F2500.000
G3 X173.102 Y182.236 Z22.000 I80.379 J56.615 K0.000 F2500.000
G3 X183.146 Y173.216 Z22.000 I122.321 J126.106 K0.000 F2500.000
G3 X204.367 Y157.442 Z22.000 I184.003 J225.384 K0.000 F2500.000
G2 X218.848 Y147.482 Z22.000 I-645.688 J-954.231 K0.000 F2500.000
G2 X237.362 Y133.916 Z22.000 I-224.884 J-326.349 K0.000 F2500.000
G2 X256.380 Y117.507 Z22.000 I-141.590 J-183.325 K0.000 F2500.000
G2 X275.602 Y95.733 Z22.000 I-116.275 J-122.016 K0.000 F2500.000
G2 X294.254 Y61.495 Z22.000 I-110.706 J-82.511 K0.000 F2500.000
G2 X301.052 Y36.040 Z22.000 I-131.338 J-48.711 K0.000 F2500.000
G2 X303.200 Y6.865 Z22.000 I-155.720 J-26.130 K0.000 F2500.000
G2 X293.001 Y-3.200 Z22.000 I-10.206 J0.142 K0.000 F2500.000
G1 X0.000 Y-3.200 Z22.000 F2500.000
G2 X-3.200 Y0.000 Z22.000 I-0.000 J3.200 K0.000 F2500.000
G1 X-3.200 Y600.000 Z22.000 F2500.000
G2 X0.013 Y603.200 Z22.000 I3.200 J0.000 K0.000 F2500.000
G2 X28.427 Y602.345 Z22.000 I0.981 J-439.889 K0.000 F2500.000
G2 X57.812 Y599.246 Z22.000 I-18.402 J-315.321 K0.000 F2500.000
G2 X82.170 Y594.220 Z22.000 I-32.847 J-220.768 K0.000 F2500.000
G2 X98.909 Y588.881 Z22.000 I-40.769 J-156.713 K0.000 F2500.000
G2 X115.976 Y581.040 Z22.000 I-46.808 J-124.371 K0.000 F2500.000
G2 X133.968 Y568.422 Z22.000 I-49.576 J-89.830 K0.000 F2500.000
G2 X155.115 Y539.212 Z22.000 I-55.102 J-62.152 K0.000 F2500.000
G1 X155.785 Y537.615 Z21.000 F2500.000
G1 X155.115 Y539.212 Z20.000 F2500.000
G2 X156.691 Y535.294 Z20.000 I-76.249 J-32.941 K0.000 F2500.000
G2 X162.100 Y513.899 Z20.000 I-100.631 J-36.824 K0.000 F2500.000
G2 X163.614 Y490.525 Z20.000 I-158.973 J-22.034 K0.000 F2500.000
G2 X162.079 Y464.404 Z20.000 I-297.713 J4.391 K0.000 F2500.000
G2 X160.618 Y450.899 Z20.000 I-2319.790 J244.034 K0.000 F2500.000
G3 X153.071 Y379.203 Z20.000 I3375.216 J-391.571 K0.000 F2500.000
G3 X148.887 Y324.765 Z20.000 I1636.777 J-153.157 K0.000 F2500.000
G3 X147.111 Y285.850 Z20.000 I1112.324 J-70.262 K0.000 F2500.000
G3 X147.302 Y251.111 Z20.000 I457.627 J-14.861 K0.000 F2500.000
G3 X149.677 Y227.193 Z20.000 I228.874 J10.653 K0.000 F2500.000
G3 X151.987 Y216.228 Z20.000 I101.785 J15.720 K0.000 F2500.000
G3 X161.389 Y195.984 Z20.000 I64.351 J17.581 K0.000 F2500.000
G3 X173.102 Y182.236 Z20.000 I80.379 J56.615 K0.000 F2500.000
G3 X183.146 Y173.216 Z20.000 I122.321 J126.106 K0.000 F2500.000
G3 X204.367 Y157.442 Z20.000 I184.003 J225.384 K0.000 F2500.000
G2 X218.848 Y147.482 Z20.000 I-645.688 J-954.231 K0.000 F2500.000
G2 X237.362 Y133.916 Z20.000 I-224.884 J-326.349 K0.000 F2500.000
G2 X256.380 Y117.507 Z20.000 I-141.590 J-183.325 K0.000 F2500.000
G2 X275.602 Y95.733 Z20.000 I-116.275 J-122.016 K0.000 F2500.000
G2 X294.254 Y61.495 Z20.000 I-110.706 J-82.511 K0.000 F2500.000
G2 X301.052 Y36.040 Z20.000 I-131.338 J-48.711 K0.000 F2500.000
G2 X303.200 Y6.865 Z20.000 I-155.720 J-26.130 K0.000 F2500.000
G2 X293.001 Y-3.200 Z20.000 I-10.206 J0.142 K0.000 F2500.000
G1 X0.000 Y-3.200 Z20.000 F2500.000
G2 X-3.200 Y0.000 Z20.000 I-0.000 J3.200 K0.000 F2500.000
G1 X-3.200 Y600.000 Z20.000 F2500.000
G2 X0.013 Y603.200 Z20.000 I3.200 J0.000 K0.000 F2500.000
G2 X28.427 Y602.345 Z20.000 I0.981 J-439.889 K0.000 F2500.000
G2 X57.812 Y599.246 Z20.000 I-18.402 J-315.321 K0.000 F2500.000
G2 X82.170 Y594.220 Z20.000 I-32.847 J-220.768 K0.000 F2500.000
G2 X98.909 Y588.881 Z20.000 I-40.769 J-156.713 K0.000 F2500.000
G2 X115.976 Y581.040 Z20.000 I-46.808 J-124.371 K0.000 F2500.000
G2 X133.968 Y568.422 Z20.000 I-49.576 J-89.830 K0.000 F2500.000
G2 X155.115 Y539.212 Z20.000 I-55.102 J-62.152 K0.000 F2500.000
G1 X155.785 Y537.615 Z19.000 F2500.000
G1 X155.115 Y539.212 Z18.000 F2500.000
G2 X156.691 Y535.294 Z18.000 I-76.249 J-32.941 K0.000 F2500.000
G2 X162.100 Y513.899 Z18.000 I-100.631 J-36.824 K0.000 F2500.000
G2 X163.614 Y490.525 Z18.000 I-158.973 J-22.034 K0.000 F2500.000
G2 X162.079 Y464.404 Z18.000 I-297.713 J4.391 K0.000 F2500.000
G2 X160.618 Y450.899 Z18.000 I-2319.790 J244.034 K0.000 F2500.000
G3 X153.071 Y379.203 Z18.000 I3375.216 J-391.571 K0.000 F2500.000
G3 X148.887 Y324.765 Z18.000 I1636.777 J-153.157 K0.000 F2500.000
G3 X147.111 Y285.850 Z18.000 I1112.324 J-70.262 K0.000 F2500.000
G3 X147.302 Y251.111 Z18.000 I457.627 J-14.861 K0.000 F2500.000
G3 X149.677 Y227.193 Z18.000 I228.874 J10.653 K0.000 F2500.000
G3 X151.987 Y216.228 Z18.000 I101.785 J15.720 K0.000 F2500.000
G3 X161.389 Y195.984 Z18.000 I64.351 J17.581 K0.000 F2500.000
G3 X173.102 Y182.236 Z18.000 I80.379 J56.615 K0.000 F2500.000
G3 X183.146 Y173.216 Z18.000 I122.321 J126.106 K0.000 F2500.000
G3 X204.367 Y157.442 Z18.000 I184.003 J225.384 K0.000 F2500.000
G2 X218.848 Y147.482 Z18.000 I-645.688 J-954.231 K0.000 F2500.000
G2 X237.362 Y133.916 Z18.000 I-224.884 J-326.349 K0.000 F2500.000
G2 X256.380 Y117.507 Z18.000 I-141.590 J-183.325 K0.000 F2500.000
G2 X275.602 Y95.733 Z18.000 I-116.275 J-122.016 K0.000 F2500.000
G2 X294.254 Y61.495 Z18.000 I-110.706 J-82.511 K0.000 F2500.000
G2 X301.052 Y36.040 Z18.000 I-131.338 J-48.711 K0.000 F2500.000
G2 X303.200 Y6.865 Z18.000 I-155.720 J-26.130 K0.000 F2500.000
G2 X293.001 Y-3.200 Z18.000 I-10.206 J0.142 K0.000 F2500.000
G1 X0.000 Y-3.200 Z18.000 F2500.000
G2 X-3.200 Y0.000 Z18.000 I-0.000 J3.200 K0.000 F2500.000
G1 X-3.200 Y600.000 Z18.000 F2500.000
G2 X0.013 Y603.200 Z18.000 I3.200 J0.000 K0.000 F2500.000
G2 X28.427 Y602.345 Z18.000 I0.981 J-439.889 K0.000 F2500.000
G2 X57.812 Y599.246 Z18.000 I-18.402 J-315.321 K0.000 F2500.000
G2 X82.170 Y594.220 Z18.000 I-32.847 J-220.768 K0.000 F2500.000
G2 X98.909 Y588.881 Z18.000 I-40.769 J-156.713 K0.000 F2500.000
G2 X115.976 Y581.040 Z18.000 I-46.808 J-124.371 K0.000 F2500.000
G2 X133.968 Y568.422 Z18.000 I-49.576 J-89.830 K0.000 F2500.000
G2 X155.115 Y539.212 Z18.000 I-55.102 J-62.152 K0.000 F2500.000
G1 X155.785 Y537.615 Z17.000 F2500.000
G1 X155.115 Y539.212 Z16.000 F2500.000
G2 X156.691 Y535.294 Z16.000 I-76.249 J-32.941 K0.000 F2500.000
G2 X162.100 Y513.899 Z16.000 I-100.631 J-36.824 K0.000 F2500.000
G2 X163.614 Y490.525 Z16.000 I-158.973 J-22.034 K0.000 F2500.000
G2 X162.079 Y464.404 Z16.000 I-297.713 J4.391 K0.000 F2500.000
G2 X160.618 Y450.899 Z16.000 I-2319.790 J244.034 K0.000 F2500.000
G3 X153.071 Y379.203 Z16.000 I3375.216 J-391.571 K0.000 F2500.000
G3 X148.887 Y324.765 Z16.000 I1636.777 J-153.157 K0.000 F2500.000
G3 X147.111 Y285.850 Z16.000 I1112.324 J-70.262 K0.000 F2500.000
G3 X147.302 Y251.111 Z16.000 I457.627 J-14.861 K0.000 F2500.000
G3 X149.677 Y227.193 Z16.000 I228.874 J10.653 K0.000 F2500.000
G3 X151.987 Y216.228 Z16.000 I101.785 J15.720 K0.000 F2500.000
G3 X161.389 Y195.984 Z16.000 I64.351 J17.581 K0.000 F2500.000
G3 X173.102 Y182.236 Z16.000 I80.379 J56.615 K0.000 F2500.000
G3 X183.146 Y173.216 Z16.000 I122.321 J126.106 K0.000 F2500.000
G3 X204.367 Y157.442 Z16.000 I184.003 J225.384 K0.000 F2500.000
G2 X218.848 Y147.482 Z16.000 I-645.688 J-954.231 K0.000 F2500.000
G2 X237.362 Y133.916 Z16.000 I-224.884 J-326.349 K0.000 F2500.000
G2 X256.380 Y117.507 Z16.000 I-141.590 J-183.325 K0.000 F2500.000
G2 X275.602 Y95.733 Z16.000 I-116.275 J-122.016 K0.000 F2500.000
G2 X294.254 Y61.495 Z16.000 I-110.706 J-82.511 K0.000 F2500.000
G2 X301.052 Y36.040 Z16.000 I-131.338 J-48.711 K0.000 F2500.000
G2 X303.200 Y6.865 Z16.000 I-155.720 J-26.130 K0.000 F2500.000
G2 X293.001 Y-3.200 Z16.000 I-10.206 J0.142 K0.000 F2500.000
G1 X0.000 Y-3.200 Z16.000 F2500.000
G2 X-3.200 Y0.000 Z16.000 I-0.000 J3.200 K0.000 F2500.000
G1 X-3.200 Y600.000 Z16.000 F2500.000
G2 X0.013 Y603.200 Z16.000 I3.200 J0.000 K0.000 F2500.000
G2 X28.427 Y602.345 Z16.000 I0.981 J-439.889 K0.000 F2500.000
G2 X57.812 Y599.246 Z16.000 I-18.402 J-315.321 K0.000 F2500.000
G2 X82.170 Y594.220 Z16.000 I-32.847 J-220.768 K0.000 F2500.000
G2 X98.909 Y588.881 Z16.000 I-40.769 J-156.713 K0.000 F2500.000
G2 X115.976 Y581.040 Z16.000 I-46.808 J-124.371 K0.000 F2500.000
G2 X133.968 Y568.422 Z16.000 I-49.576 J-89.830 K0.000 F2500.000
G2 X155.115 Y539.212 Z16.000 I-55.102 J-62.152 K0.000 F2500.000
G1 X155.785 Y537.615 Z15.000 F2500.000
G1 X155.115 Y539.212 Z14.000 F2500.000
G2 X156.691 Y535.294 Z14.000 I-76.249 J-32.941 K0.000 F2500.000
G2 X162.100 Y513.899 Z14.000 I-100.631 J-36.824 K0.000 F2500.000
G2 X163.614 Y490.525 Z14.000 I-158.973 J-22.034 K0.000 F2500.000
G2 X162.079 Y464.404 Z14.000 I-297.713 J4.391 K0.000 F2500.000
G2 X160.618 Y450.899 Z14.000 I-2319.790 J244.034 K0.000 F2500.000
G3 X153.071 Y379.203 Z14.000 I3375.216 J-391.571 K0.000 F2500.000
G3 X148.887 Y324.765 Z14.000 I1636.777 J-153.157 K0.000 F2500.000
G3 X147.111 Y285.850 Z14.000 I1112.324 J-70.262 K0.000 F2500.000
G3 X147.302 Y251.111 Z14.000 I457.627 J-14.861 K0.000 F2500.000
G3 X149.677 Y227.193 Z14.000 I228.874 J10.653 K0.000 F2500.000
G3 X151.987 Y216.228 Z14.000 I101.785 J15.720 K0.000 F2500.000
G3 X161.389 Y195.984 Z14.000 I64.351 J17.581 K0.000 F2500.000
G3 X173.102 Y182.236 Z14.000 I80.379 J56.615 K0.000 F2500.000
G3 X183.146 Y173.216 Z14.000 I122.321 J126.106 K0.000 F2500.000
G3 X204.367 Y157.442 Z14.000 I184.003 J225.384 K0.000 F2500.000
G2 X218.848 Y147.482 Z14.000 I-645.688 J-954.231 K0.000 F2500.000
G2 X237.362 Y133.916 Z14.000 I-224.884 J-326.349 K0.000 F2500.000
G2 X256.380 Y117.507 Z14.000 I-141.590 J-183.325 K0.000 F2500.000
G2 X275.602 Y95.733 Z14.000 I-116.275 J-122.016 K0.000 F2500.000
G2 X294.254 Y61.495 Z14.000 I-110.706 J-82.511 K0.000 F2500.000
G2 X301.052 Y36.040 Z14.000 I-131.338 J-48.711 K0.000 F2500.000
G2 X303.200 Y6.865 Z14.000 I-155.720 J-26.130 K0.000 F2500.000
G2 X293.001 Y-3.200 Z14.000 I-10.206 J0.142 K0.000 F2500.000
G1 X0.000 Y-3.200 Z14.000 F2500.000
G2 X-3.200 Y0.000 Z14.000 I-0.000 J3.200 K0.000 F2500.000
G1 X-3.200 Y600.000 Z14.000 F2500.000
G2 X0.013 Y603.200 Z14.000 I3.200 J0.000 K0.000 F2500.000
G2 X28.427 Y602.345 Z14.000 I0.981 J-439.889 K0.000 F2500.000
G2 X57.812 Y599.246 Z14.000 I-18.402 J-315.321 K0.000 F2500.000
G2 X82.170 Y594.220 Z14.000 I-32.847 J-220.768 K0.000 F2500.000
G2 X98.909 Y588.881 Z14.000 I-40.769 J-156.713 K0.000 F2500.000
G2 X115.976 Y581.040 Z14.000 I-46.808 J-124.371 K0.000 F2500.000
G2 X133.968 Y568.422 Z14.000 I-49.576 J-89.830 K0.000 F2500.000
G2 X155.115 Y539.212 Z14.000 I-55.102 J-62.152 K0.000 F2500.000
G1 X155.785 Y537.615 Z13.000 F2500.000
G1 X155.115 Y539.212 Z12.000 F2500.000
G2 X156.691 Y535.294 Z12.000 I-76.249 J-32.941 K0.000 F2500.000
G2 X162.100 Y513.899 Z12.000 I-100.631 J-36.824 K0.000 F2500.000
G2 X163.614 Y490.525 Z12.000 I-158.973 J-22.034 K0.000 F2500.000
G2 X162.079 Y464.404 Z12.000 I-297.713 J4.391 K0.000 F2500.000
G2 X160.618 Y450.899 Z12.000 I-2319.790 J244.034 K0.000 F2500.000
G3 X153.071 Y379.203 Z12.000 I3375.216 J-391.571 K0.000 F2500.000
G3 X148.887 Y324.765 Z12.000 I1636.777 J-153.157 K0.000 F2500.000
G3 X147.111 Y285.850 Z12.000 I1112.324 J-70.262 K0.000 F2500.000
G3 X147.302 Y251.111 Z12.000 I457.627 J-14.861 K0.000 F2500.000
G3 X149.677 Y227.193 Z12.000 I228.874 J10.653 K0.000 F2500.000
G3 X151.987 Y216.228 Z12.000 I101.785 J15.720 K0.000 F2500.000
G3 X161.389 Y195.984 Z12.000 I64.351 J17.581 K0.000 F2500.000
G3 X173.102 Y182.236 Z12.000 I80.379 J56.615 K0.000 F2500.000
G3 X183.146 Y173.216 Z12.000 I122.321 J126.106 K0.000 F2500.000
G3 X204.367 Y157.442 Z12.000 I184.003 J225.384 K0.000 F2500.000
G2 X218.848 Y147.482 Z12.000 I-645.688 J-954.231 K0.000 F2500.000
G2 X237.362 Y133.916 Z12.000 I-224.884 J-326.349 K0.000 F2500.000
G2 X256.380 Y117.507 Z12.000 I-141.590 J-183.325 K0.000 F2500.000
G2 X275.602 Y95.733 Z12.000 I-116.275 J-122.016 K0.000 F2500.000
G2 X294.254 Y61.495 Z12.000 I-110.706 J-82.511 K0.000 F2500.000
G2 X301.052 Y36.040 Z12.000 I-131.338 J-48.711 K0.000 F2500.000
G2 X303.200 Y6.865 Z12.000 I-155.720 J-26.130 K0.000 F2500.000
G2 X293.001 Y-3.200 Z12.000 I-10.206 J0.142 K0.000 F2500.000
G1 X0.000 Y-3.200 Z12.000 F2500.000
G2 X-3.200 Y0.000 Z12.000 I-0.000 J3.200 K0.000 F2500.000
G1 X-3.200 Y600.000 Z12.000 F2500.000
G2 X0.013 Y603.200 Z12.000 I3.200 J0.000 K0.000 F2500.000
G2 X28.427 Y602.345 Z12.000 I0.981 J-439.889 K0.000 F2500.000
G2 X57.812 Y599.246 Z12.000 I-18.402 J-315.321 K0.000 F2500.000
G2 X82.170 Y594.220 Z12.000 I-32.847 J-220.768 K0.000 F2500.000
G2 X98.909 Y588.881 Z12.000 I-40.769 J-156.713 K0.000 F2500.000
G2 X115.976 Y581.040 Z12.000 I-46.808 J-124.371 K0.000 F2500.000
G2 X133.968 Y568.422 Z12.000 I-49.576 J-89.830 K0.000 F2500.000
G2 X155.115 Y539.212 Z12.000 I-55.102 J-62.152 K0.000 F2500.000
G1 X155.785 Y537.615 Z11.000 F2500.000
G1 X155.115 Y539.212 Z10.000 F2500.000
G2 X156.691 Y535.294 Z10.000 I-76.249 J-32.941 K0.000 F2500.000
G2 X162.100 Y513.899 Z10.000 I-100.631 J-36.824 K0.000 F2500.000
G2 X163.614 Y490.525 Z10.000 I-158.973 J-22.034 K0.000 F2500.000
G2 X162.079 Y464.404 Z10.000 I-297.713 J4.391 K0.000 F2500.000
G2 X160.618 Y450.899 Z10.000 I-2319.790 J244.034 K0.000 F2500.000
G3 X153.071 Y379.203 Z10.000 I3375.216 J-391.571 K0.000 F2500.000
G3 X148.887 Y324.765 Z10.000 I1636.777 J-153.157 K0.000 F2500.000
G3 X147.111 Y285.850 Z10.000 I1112.324 J-70.262 K0.000 F2500.000
G3 X147.302 Y251.111 Z10.000 I457.627 J-14.861 K0.000 F2500.000
G3 X149.677 Y227.193 Z10.000 I228.874 J10.653 K0.000 F2500.000
G3 X151.987 Y216.228 Z10.000 I101.785 J15.720 K0.000 F2500.000
G3 X161.389 Y195.984 Z10.000 I64.351 J17.581 K0.000 F2500.000
G3 X173.102 Y182.236 Z10.000 I80.379 J56.615 K0.000 F2500.000
G3 X183.146 Y173.216 Z10.000 I122.321 J126.106 K0.000 F2500.000
G3 X204.367 Y157.442 Z10.000 I184.003 J225.384 K0.000 F2500.000
G2 X218.848 Y147.482 Z10.000 I-645.688 J-954.231 K0.000 F2500.000
G2 X237.362 Y133.916 Z10.000 I-224.884 J-326.349 K0.000 F2500.000
G2 X256.380 Y117.507 Z10.000 I-141.590 J-183.325 K0.000 F2500.000
G2 X275.602 Y95.733 Z10.000 I-116.275 J-122.016 K0.000 F2500.000
G2 X294.254 Y61.495 Z10.000 I-110.706 J-82.511 K0.000 F2500.000
G2 X301.052 Y36.040 Z10.000 I-131.338 J-48.711 K0.000 F2500.000
G2 X303.200 Y6.865 Z10.000 I-155.720 J-26.130 K0.000 F2500.000
G2 X293.001 Y-3.200 Z10.000 I-10.206 J0.142 K0.000 F2500.000
G1 X0.000 Y-3.200 Z10.000 F2500.000
G2 X-3.200 Y0.000 Z10.000 I-0.000 J3.200 K0.000 F2500.000
G1 X-3.200 Y600.000 Z10.000 F2500.000
G2 X0.013 Y603.200 Z10.000 I3.200 J0.000 K0.000 F2500.000
G2 X28.427 Y602.345 Z10.000 I0.981 J-439.889 K0.000 F2500.000
G2 X57.812 Y599.246 Z10.000 I-18.402 J-315.321 K0.000 F2500.000
G2 X82.170 Y594.220 Z10.000 I-32.847 J-220.768 K0.000 F2500.000
G2 X98.909 Y588.881 Z10.000 I-40.769 J-156.713 K0.000 F2500.000
G2 X115.976 Y581.040 Z10.000 I-46.808 J-124.371 K0.000 F2500.000
G2 X133.968 Y568.422 Z10.000 I-49.576 J-89.830 K0.000 F2500.000
G2 X155.115 Y539.212 Z10.000 I-55.102 J-62.152 K0.000 F2500.000
G1 X155.785 Y537.615 Z9.000 F2500.000
G1 X155.115 Y539.212 Z8.000 F2500.000
G2 X156.691 Y535.294 Z8.000 I-76.249 J-32.941 K0.000 F2500.000
G2 X162.100 Y513.899 Z8.000 I-100.631 J-36.824 K0.000 F2500.000
G2 X163.614 Y490.525 Z8.000 I-158.973 J-22.034 K0.000 F2500.000
G2 X162.079 Y464.404 Z8.000 I-297.713 J4.391 K0.000 F2500.000
G2 X160.618 Y450.899 Z8.000 I-2319.790 J244.034 K0.000 F2500.000
G3 X153.071 Y379.203 Z8.000 I3375.216 J-391.571 K0.000 F2500.000
G3 X148.887 Y324.765 Z8.000 I1636.777 J-153.157 K0.000 F2500.000
G3 X147.111 Y285.850 Z8.000 I1112.324 J-70.262 K0.000 F2500.000
G3 X147.302 Y251.111 Z8.000 I457.627 J-14.861 K0.000 F2500.000
G3 X149.677 Y227.193 Z8.000 I228.874 J10.653 K0.000 F2500.000
G3 X151.987 Y216.228 Z8.000 I101.785 J15.720 K0.000 F2500.000
G3 X161.389 Y195.984 Z8.000 I64.351 J17.581 K0.000 F2500.000
G3 X173.102 Y182.236 Z8.000 I80.379 J56.615 K0.000 F2500.000
G3 X183.146 Y173.216 Z8.000 I122.321 J126.106 K0.000 F2500.000
G3 X204.367 Y157.442 Z8.000 I184.003 J225.384 K0.000 F2500.000
G2 X218.848 Y147.482 Z8.000 I-645.688 J-954.231 K0.000 F2500.000
G2 X237.362 Y133.916 Z8.000 I-224.884 J-326.349 K0.000 F2500.000
G2 X256.380 Y117.507 Z8.000 I-141.590 J-183.325 K0.000 F2500.000
G2 X275.602 Y95.733 Z8.000 I-116.275 J-122.016 K0.000 F2500.000
G2 X294.254 Y61.495 Z8.000 I-110.706 J-82.511 K0.000 F2500.000
G2 X301.052 Y36.040 Z8.000 I-131.338 J-48.711 K0.000 F2500.000
G2 X303.200 Y6.865 Z8.000 I-155.720 J-26.130 K0.000 F2500.000
G2 X293.001 Y-3.200 Z8.000 I-10.206 J0.142 K0.000 F2500.000
G1 X0.000 Y-3.200 Z8.000 F2500.000
G2 X-3.200 Y0.000 Z8.000 I-0.000 J3.200 K0.000 F2500.000
G1 X-3.200 Y600.000 Z8.000 F2500.000
G2 X0.013 Y603.200 Z8.000 I3.200 J0.000 K0.000 F2500.000
G2 X28.427 Y602.345 Z8.000 I0.981 J-439.889 K0.000 F2500.000
G2 X57.812 Y599.246 Z8.000 I-18.402 J-315.321 K0.000 F2500.000
G2 X82.170 Y594.220 Z8.000 I-32.847 J-220.768 K0.000 F2500.000
G2 X98.909 Y588.881 Z8.000 I-40.769 J-156.713 K0.000 F2500.000
G2 X115.976 Y581.040 Z8.000 I-46.808 J-124.371 K0.000 F2500.000
G2 X133.968 Y568.422 Z8.000 I-49.576 J-89.830 K0.000 F2500.000
G2 X155.115 Y539.212 Z8.000 I-55.102 J-62.152 K0.000 F2500.000
G1 X155.785 Y537.615 Z7.000 F2500.000
G1 X155.115 Y539.212 Z6.000 F2500.000
G2 X156.691 Y535.294 Z6.000 I-76.249 J-32.941 K0.000 F2500.000
G2 X162.100 Y513.899 Z6.000 I-100.631 J-36.824 K0.000 F2500.000
G2 X163.614 Y490.525 Z6.000 I-158.973 J-22.034 K0.000 F2500.000
G2 X162.079 Y464.404 Z6.000 I-297.713 J4.391 K0.000 F2500.000
G2 X160.618 Y450.899 Z6.000 I-2319.790 J244.034 K0.000 F2500.000
G3 X153.071 Y379.203 Z6.000 I3375.216 J-391.571 K0.000 F2500.000
G3 X148.887 Y324.765 Z6.000 I1636.777 J-153.157 K0.000 F2500.000
G3 X147.111 Y285.850 Z6.000 I1112.324 J-70.262 K0.000 F2500.000
G3 X147.302 Y251.111 Z6.000 I457.627 J-14.861 K0.000 F2500.000
G3 X149.677 Y227.193 Z6.000 I228.874 J10.653 K0.000 F2500.000
G3 X151.987 Y216.228 Z6.000 I101.785 J15.720 K0.000 F2500.000
G3 X161.389 Y195.984 Z6.000 I64.351 J17.581 K0.000 F2500.000
G3 X173.102 Y182.236 Z6.000 I80.379 J56.615 K0.000 F2500.000
G3 X183.146 Y173.216 Z6.000 I122.321 J126.106 K0.000 F2500.000
G3 X204.367 Y157.442 Z6.000 I184.003 J225.384 K0.000 F2500.000
G2 X218.848 Y147.482 Z6.000 I-645.688 J-954.231 K0.000 F2500.000
G2 X237.362 Y133.916 Z6.000 I-224.884 J-326.349 K0.000 F2500.000
G2 X256.380 Y117.507 Z6.000 I-141.590 J-183.325 K0.000 F2500.000
G2 X275.602 Y95.733 Z6.000 I-116.275 J-122.016 K0.000 F2500.000
G2 X294.254 Y61.495 Z6.000 I-110.706 J-82.511 K0.000 F2500.000
G2 X301.052 Y36.040 Z6.000 I-131.338 J-48.711 K0.000 F2500.000
G2 X303.200 Y6.865 Z6.000 I-155.720 J-26.130 K0.000 F2500.000
G2 X293.001 Y-3.200 Z6.000 I-10.206 J0.142 K0.000 F2500.000
G1 X0.000 Y-3.200 Z6.000 F2500.000
G2 X-3.200 Y0.000 Z6.000 I-0.000 J3.200 K0.000 F2500.000
G1 X-3.200 Y600.000 Z6.000 F2500.000
G2 X0.013 Y603.200 Z6.000 I3.200 J0.000 K0.000 F2500.000
G2 X28.427 Y602.345 Z6.000 I0.981 J-439.889 K0.000 F2500.000
G2 X57.812 Y599.246 Z6.000 I-18.402 J-315.321 K0.000 F2500.000
G2 X82.170 Y594.220 Z6.000 I-32.847 J-220.768 K0.000 F2500.000
G2 X98.909 Y588.881 Z6.000 I-40.769 J-156.713 K0.000 F2500.000
G2 X115.976 Y581.040 Z6.000 I-46.808 J-124.371 K0.000 F2500.000
G2 X133.968 Y568.422 Z6.000 I-49.576 J-89.830 K0.000 F2500.000
G2 X155.115 Y539.212 Z6.000 I-55.102 J-62.152 K0.000 F2500.000
G1 X155.785 Y537.615 Z5.000 F2500.000
G1 X155.115 Y539.212 Z4.000 F2500.000
G2 X156.691 Y535.294 Z4.000 I-76.249 J-32.941 K0.000 F2500.000
G2 X162.100 Y513.899 Z4.000 I-100.631 J-36.824 K0.000 F2500.000
G2 X163.614 Y490.525 Z4.000 I-158.973 J-22.034 K0.000 F2500.000
G2 X162.079 Y464.404 Z4.000 I-297.713 J4.391 K0.000 F2500.000
G2 X160.618 Y450.899 Z4.000 I-2319.790 J244.034 K0.000 F2500.000
G3 X153.071 Y379.203 Z4.000 I3375.216 J-391.571 K0.000 F2500.000
G3 X148.887 Y324.765 Z4.000 I1636.777 J-153.157 K0.000 F2500.000
G3 X147.111 Y285.850 Z4.000 I1112.324 J-70.262 K0.000 F2500.000
G3 X147.302 Y251.111 Z4.000 I457.627 J-14.861 K0.000 F2500.000
G3 X149.677 Y227.193 Z4.000 I228.874 J10.653 K0.000 F2500.000
G3 X151.987 Y216.228 Z4.000 I101.785 J15.720 K0.000 F2500.000
G3 X161.389 Y195.984 Z4.000 I64.351 J17.581 K0.000 F2500.000
G3 X173.102 Y182.236 Z4.000 I80.379 J56.615 K0.000 F2500.000
G3 X183.146 Y173.216 Z4.000 I122.321 J126.106 K0.000 F2500.000
G3 X204.367 Y157.442 Z4.000 I184.003 J225.384 K0.000 F2500.000
G2 X218.848 Y147.482 Z4.000 I-645.688 J-954.231 K0.000 F2500.000
G2 X237.362 Y133.916 Z4.000 I-224.884 J-326.349 K0.000 F2500.000
G2 X256.380 Y117.507 Z4.000 I-141.590 J-183.325 K0.000 F2500.000
G2 X275.602 Y95.733 Z4.000 I-116.275 J-122.016 K0.000 F2500.000
G2 X294.254 Y61.495 Z4.000 I-110.706 J-82.511 K0.000 F2500.000
G2 X301.052 Y36.040 Z4.000 I-131.338 J-48.711 K0.000 F2500.000
G2 X303.200 Y6.865 Z4.000 I-155.720 J-26.130 K0.000 F2500.000
G2 X293.001 Y-3.200 Z4.000 I-10.206 J0.142 K0.000 F2500.000
G1 X0.000 Y-3.200 Z4.000 F2500.000
G2 X-3.200 Y0.000 Z4.000 I-0.000 J3.200 K0.000 F2500.000
G1 X-3.200 Y600.000 Z4.000 F2500.000
G2 X0.013 Y603.200 Z4.000 I3.200 J0.000 K0.000 F2500.000
G2 X28.427 Y602.345 Z4.000 I0.981 J-439.889 K0.000 F2500.000
G2 X57.812 Y599.246 Z4.000 I-18.402 J-315.321 K0.000 F2500.000
G2 X82.170 Y594.220 Z4.000 I-32.847 J-220.768 K0.000 F2500.000
G2 X98.909 Y588.881 Z4.000 I-40.769 J-156.713 K0.000 F2500.000
G2 X115.976 Y581.040 Z4.000 I-46.808 J-124.371 K0.000 F2500.000
G2 X133.968 Y568.422 Z4.000 I-49.576 J-89.830 K0.000 F2500.000
G2 X155.115 Y539.212 Z4.000 I-55.102 J-62.152 K0.000 F2500.000
G1 X155.785 Y537.615 Z3.000 F2500.000
G1 X155.115 Y539.212 Z2.000 F2500.000
G2 X156.691 Y535.294 Z2.000 I-76.249 J-32.941 K0.000 F2500.000
G2 X162.100 Y513.899 Z2.000 I-100.631 J-36.824 K0.000 F2500.000
G2 X163.614 Y490.525 Z2.000 I-158.973 J-22.034 K0.000 F2500.000
G2 X162.079 Y464.404 Z2.000 I-297.713 J4.391 K0.000 F2500.000
G2 X160.618 Y450.899 Z2.000 I-2319.790 J244.034 K0.000 F2500.000
G3 X153.071 Y379.203 Z2.000 I3375.216 J-391.571 K0.000 F2500.000
G3 X148.887 Y324.765 Z2.000 I1636.777 J-153.157 K0.000 F2500.000
G3 X147.111 Y285.850 Z2.000 I1112.324 J-70.262 K0.000 F2500.000
G3 X147.302 Y251.111 Z2.000 I457.627 J-14.861 K0.000 F2500.000
G3 X149.677 Y227.193 Z2.000 I228.874 J10.653 K0.000 F2500.000
G3 X151.987 Y216.228 Z2.000 I101.785 J15.720 K0.000 F2500.000
G3 X161.389 Y195.984 Z2.000 I64.351 J17.581 K0.000 F2500.000
G3 X173.102 Y182.236 Z2.000 I80.379 J56.615 K0.000 F2500.000
G3 X183.146 Y173.216 Z2.000 I122.321 J126.106 K0.000 F2500.000
G3 X204.367 Y157.442 Z2.000 I184.003 J225.384 K0.000 F2500.000
G2 X218.848 Y147.482 Z2.000 I-645.688 J-954.231 K0.000 F2500.000
G2 X237.362 Y133.916 Z2.000 I-224.884 J-326.349 K0.000 F2500.000
G2 X256.380 Y117.507 Z2.000 I-141.590 J-183.325 K0.000 F2500.000
G2 X275.602 Y95.733 Z2.000 I-116.275 J-122.016 K0.000 F2500.000
G2 X294.254 Y61.495 Z2.000 I-110.706 J-82.511 K0.000 F2500.000
G2 X301.052 Y36.040 Z2.000 I-131.338 J-48.711 K0.000 F2500.000
G2 X303.200 Y6.865 Z2.000 I-155.720 J-26.130 K0.000 F2500.000
G2 X293.001 Y-3.200 Z2.000 I-10.206 J0.142 K0.000 F2500.000
G1 X0.000 Y-3.200 Z2.000 F2500.000
G2 X-3.200 Y0.000 Z2.000 I-0.000 J3.200 K0.000 F2500.000
G1 X-3.200 Y600.000 Z2.000 F2500.000
G2 X0.013 Y603.200 Z2.000 I3.200 J0.000 K0.000 F2500.000
G2 X28.427 Y602.345 Z2.000 I0.981 J-439.889 K0.000 F2500.000
G2 X57.812 Y599.246 Z2.000 I-18.402 J-315.321 K0.000 F2500.000
G2 X82.170 Y594.220 Z2.000 I-32.847 J-220.768 K0.000 F2500.000
G2 X98.909 Y588.881 Z2.000 I-40.769 J-156.713 K0.000 F2500.000
G2 X115.976 Y581.040 Z2.000 I-46.808 J-124.371 K0.000 F2500.000
G2 X133.968 Y568.422 Z2.000 I-49.576 J-89.830 K0.000 F2500.000
G2 X155.115 Y539.212 Z2.000 I-55.102 J-62.152 K0.000 F2500.000
G0 X155.115 Y539.212 Z42.000
(Finish operation: RampEntryDressup)
(Begin operation: RampEntryDressup001)
(Path: RampEntryDressup001)
G0 X0.000 Y0.000 Z42.000
G0 X154.945 Y539.100 Z42.000
G1 X155.749 Y537.170 Z40.793 F2500.000
G1 X156.504 Y535.221 Z39.586 F2500.000
G1 X157.419 Y532.617 Z37.996 F2500.000
G1 X158.266 Y529.992 Z36.404 F2500.000
G1 X159.044 Y527.347 Z34.811 F2500.000
G1 X159.754 Y524.683 Z33.216 F2500.000
G1 X160.396 Y522.002 Z31.622 F2500.000
G1 X160.967 Y519.305 Z30.029 F2500.000
G1 X161.470 Y516.593 Z28.437 F2500.000
G1 X161.902 Y513.867 Z26.847 F2500.000
G1 X162.330 Y510.519 Z24.898 F2500.000
G1 X162.688 Y507.162 Z22.949 F2500.000
G1 X162.975 Y503.799 Z21.000 F2500.000
G1 X162.688 Y507.162 Z19.051 F2500.000
G1 X162.330 Y510.519 Z17.102 F2500.000
G1 X161.902 Y513.867 Z15.153 F2500.000
G1 X161.470 Y516.593 Z13.563 F2500.000
G1 X160.967 Y519.305 Z11.971 F2500.000
G1 X160.396 Y522.002 Z10.378 F2500.000
G1 X159.754 Y524.683 Z8.784 F2500.000
G1 X159.044 Y527.347 Z7.189 F2500.000
G1 X158.266 Y529.992 Z5.596 F2500.000
G1 X157.419 Y532.617 Z4.004 F2500.000
G1 X156.504 Y535.221 Z2.414 F2500.000
G1 X155.749 Y537.170 Z1.207 F2500.000
G1 X154.945 Y539.100 Z0.000 F2500.000
G2 X156.504 Y535.221 Z0.000 I-76.080 J-32.830 K0.000 F2500.000
G2 X161.902 Y513.867 Z0.000 I-100.450 J-36.752 K0.000 F2500.000
G2 X163.414 Y490.524 Z0.000 I-158.783 J-22.003 K0.000 F2500.000
G2 X161.880 Y464.423 Z0.000 I-297.529 J4.393 K0.000 F2500.000
G2 X160.420 Y450.920 Z0.000 I-2320.784 J244.146 K0.000 F2500.000
G3 X157.033 Y420.540 Z0.000 I3375.314 J-391.583 K0.000 F2500.000
G2 X152.871 Y379.221 Z0.000 I-60740.773 J6097.495 K0.000 F2500.000
G3 X148.688 Y324.777 Z0.000 I1636.974 J-153.175 K0.000 F2500.000
G3 X146.911 Y285.855 Z0.000 I1112.520 J-70.274 K0.000 F2500.000
G3 X147.102 Y251.101 Z0.000 I457.823 J-14.866 K0.000 F2500.000
G3 X149.480 Y227.161 Z0.000 I229.071 J10.663 K0.000 F2500.000
G3 X151.795 Y216.174 Z0.000 I101.981 J15.752 K0.000 F2500.000
G3 X161.224 Y195.871 Z0.000 I64.544 J17.634 K0.000 F2500.000
G3 X172.961 Y182.093 Z0.000 I80.544 J56.727 K0.000 F2500.000
G3 X183.018 Y173.062 Z0.000 I122.462 J126.250 K0.000 F2500.000
G3 X204.254 Y157.277 Z0.000 I184.127 J225.533 K0.000 F2500.000
G2 X218.733 Y147.317 Z0.000 I-645.599 J-954.100 K0.000 F2500.000
G2 X237.240 Y133.758 Z0.000 I-224.770 J-326.185 K0.000 F2500.000
G2 X256.243 Y117.362 Z0.000 I-141.465 J-183.164 K0.000 F2500.000
G2 X275.442 Y95.612 Z0.000 I-116.136 J-121.869 K0.000 F2500.000
G2 X294.068 Y61.423 Z0.000 I-110.546 J-82.390 K0.000 F2500.000
G2 X300.855 Y36.004 Z0.000 I-131.154 J-48.639 K0.000 F2500.000
G2 X302.107 Y26.943 Z0.000 I-155.526 J-26.094 K0.000 F2500.000
G1 X302.310 Y24.953 Z2.000 F2500.000
G2 X302.821 Y18.012 Z2.000 I-156.981 J-15.043 K0.000 F2500.000
G1 X302.911 Y16.014 Z0.000 F2500.000
G2 X303.000 Y6.867 Z0.000 I-157.581 J-6.104 K0.000 F2500.000
G2 X293.001 Y-3.000 Z0.000 I-10.006 J0.140 K0.000 F2500.000
G1 X0.000 Y-3.000 Z0.000 F2500.000
G2 X-3.000 Y0.000 Z0.000 I0.000 J3.000 K0.000 F2500.000
G1 X-3.000 Y144.520 Z0.000 F2500.000
G1 X-3.000 Y146.520 Z2.000 F2500.000
G1 X-3.000 Y153.480 Z2.000 F2500.000
G1 X-3.000 Y155.480 Z0.000 F2500.000
G1 X-3.000 Y444.520 Z0.000 F2500.000
G1 X-3.000 Y446.520 Z2.000 F2500.000
G1 X-3.000 Y453.480 Z2.000 F2500.000
G1 X-3.000 Y455.480 Z0.000 F2500.000
G1 X-3.000 Y600.000 Z0.000 F2500.000
G2 X0.013 Y603.000 Z0.000 I3.000 J0.000 K0.000 F2500.000
G2 X28.416 Y602.145 Z0.000 I0.982 J-439.689 K0.000 F2500.000
G2 X57.783 Y599.048 Z0.000 I-18.390 J-315.118 K0.000 F2500.000
G2 X82.120 Y594.027 Z0.000 I-32.818 J-220.567 K0.000 F2500.000
G2 X98.840 Y588.693 Z0.000 I-40.718 J-156.517 K0.000 F2500.000
G2 X115.881 Y580.864 Z0.000 I-46.735 J-124.176 K0.000 F2500.000
G2 X133.837 Y568.271 Z0.000 I-49.479 J-89.651 K0.000 F2500.000
G2 X154.945 Y539.100 Z0.000 I-54.971 J-62.001 K0.000 F2500.000
G0 X154.945 Y539.100 Z42.000
(Finish operation: RampEntryDressup001)
(Begin postamble)
M5
G17 G90
M2
