;FLAVOR:Marlin
;TIME:964
;Filament used: 1.26151m
;Layer height: 0.25
;MINX:102.876
;MINY:97.504
;MINZ:0.2
;MAXX:132.124
;MAXY:126.752
;MAXZ:14.95
;Generated with Cura_SteamEngine 5.2.1
M140 S60
M105
M190 S60
M104 S205
M105
M109 S205
M82 ;absolute extrusion mode
; Ender 3 Custom Start G-code
G92 E0 ; Reset Extruder
G28 ; Home all axes
M420 S1 ; Rappel du bed levelling
G1 Z2.0 F3000 ; Move Z Axis up little to prevent scratching of Heat Bed
G1 X0.1 Y20 Z0.3 F5000.0 ; Move to start position
G1 X0.1 Y200.0 Z0.3 F1500.0 E15 ; Draw the first line
G1 X0.4 Y200.0 Z0.3 F5000.0 ; Move to side a little
G1 X0.4 Y20 Z0.3 F1500.0 E30 ; Draw the second line
G92 E0 ; Reset Extruder
G1 Z2.0 F3000 ; Move Z Axis up little to prevent scratching of Heat Bed
G1 X5 Y20 Z0.3 F5000.0 ; Move over to prevent blob squish
G92 E0
G92 E0
G1 F2700 E-6.5
;LAYER_COUNT:60
;LAYER:0
M107
M204 S1000
M205 X20 Y20
G0 F1285.7 X125.347 Y120.946 Z0.2
;TYPE:SKIRT
G1 F2700 E0
G1 F600 X124.38 Y121.718 E0.04939
G1 X123.356 Y122.376 E0.09797
G1 X122.258 Y122.93 E0.14705
G1 X121.106 Y123.367 E0.19623
G1 X119.927 Y123.68 E0.24491
G1 X118.689 Y123.872 E0.29492
G1 X117.469 Y123.931 E0.34367
G1 X116.249 Y123.864 E0.39243
G1 X115.018 Y123.669 E0.44218
G1 X113.843 Y123.351 E0.49076
G1 X112.689 Y122.907 E0.54011
G1 X111.604 Y122.354 E0.58872
G1 X110.557 Y121.675 E0.63852
G1 X109.583 Y120.882 E0.68865
G1 X108.728 Y120.024 E0.737
G1 X107.941 Y119.052 E0.78691
G1 X107.277 Y118.027 E0.83566
G1 X106.718 Y116.932 E0.88473
G1 X106.277 Y115.782 E0.93388
G1 X106.004 Y114.772 E0.97564
G1 X105.833 Y113.789 E1.01547
G1 X105.803 Y113.208 E1.03868
G1 X105.704 Y112.218 E1.07839
G1 X105.725 Y111.456 E1.10882
G1 X105.799 Y110.634 E1.14176
G1 X105.973 Y109.587 E1.18412
G1 X106.301 Y108.397 E1.23339
G1 X106.751 Y107.252 E1.28249
G1 X107.309 Y106.174 E1.33094
G1 X107.997 Y105.127 E1.38094
G1 X108.775 Y104.177 E1.42995
G1 X109.658 Y103.308 E1.4794
G1 X110.601 Y102.55 E1.52768
G1 X111.645 Y101.879 E1.57722
G1 X112.739 Y101.327 E1.62612
G1 X113.892 Y100.889 E1.67535
G1 X115.073 Y100.577 E1.72411
G1 X116.299 Y100.387 E1.77362
G1 X117.514 Y100.324 E1.82218
G1 X118.751 Y100.391 E1.87162
G1 X119.976 Y100.586 E1.92113
G1 X121.151 Y100.904 E1.96972
G1 X122.31 Y101.349 E2.01927
G1 X123.411 Y101.911 E2.0686
G1 X124.449 Y102.588 E2.11807
G1 X125.398 Y103.357 E2.16682
G1 X126.276 Y104.236 E2.2164
G1 X127.051 Y105.194 E2.26558
G1 X127.713 Y106.21 E2.31398
G1 X128.278 Y107.314 E2.36348
G1 X128.742 Y108.546 E2.41602
G1 X129.04 Y109.646 E2.46151
G1 X129.23 Y110.832 E2.50945
G1 X129.295 Y111.831 E2.54941
G1 X129.285 Y112.638 E2.58162
G1 X129.199 Y113.737 E2.62562
G1 X128.997 Y114.747 E2.66673
G1 X128.729 Y115.784 E2.70947
G1 X128.247 Y117.006 E2.7619
G1 X127.679 Y118.102 E2.81117
G1 X127.001 Y119.13 E2.86032
G1 X126.229 Y120.073 E2.90896
G1 X125.347 Y120.946 E2.95849
G0 F1285.7 X125.033 Y120.582
G1 F600 X124.101 Y121.326 E3.00609
G1 X123.116 Y121.959 E3.05282
G1 X122.062 Y122.491 E3.09995
G1 X120.958 Y122.91 E3.14707
G1 X119.826 Y123.21 E3.19382
G1 X118.639 Y123.394 E3.24176
G1 X117.472 Y123.45 E3.28839
G1 X116.303 Y123.387 E3.33511
G1 X115.124 Y123.2 E3.38276
G1 X113.986 Y122.892 E3.42981
G1 X112.88 Y122.466 E3.47712
G1 X111.85 Y121.941 E3.52326
G1 X110.839 Y121.285 E3.57136
G1 X109.908 Y120.529 E3.61923
G1 X109.084 Y119.702 E3.66582
G1 X108.33 Y118.77 E3.71367
G1 X107.697 Y117.792 E3.76016
G1 X107.154 Y116.729 E3.80781
G1 X106.736 Y115.639 E3.8544
G1 X106.468 Y114.647 E3.89541
G1 X106.307 Y113.716 E3.93312
G1 X106.285 Y113.179 E3.95457
G1 X106.189 Y112.426 E3.98487
G1 X106.204 Y111.491 E4.02219
G1 X106.273 Y110.713 E4.05336
G1 X106.443 Y109.686 E4.09491
G1 X106.757 Y108.548 E4.14203
G1 X107.191 Y107.445 E4.18934
G1 X107.723 Y106.418 E4.2355
G1 X108.379 Y105.418 E4.28323
G1 X109.132 Y104.499 E4.33065
G1 X109.978 Y103.667 E4.37801
G1 X110.878 Y102.943 E4.42411
G1 X111.885 Y102.295 E4.47191
G1 X112.936 Y101.766 E4.51887
G1 X114.04 Y101.347 E4.566
G1 X115.172 Y101.047 E4.61274
G1 X116.339 Y100.866 E4.65987
G1 X117.523 Y100.805 E4.70719
G1 X118.698 Y100.869 E4.75416
G1 X119.877 Y101.056 E4.8018
G1 X120.999 Y101.359 E4.84819
G1 X122.107 Y101.785 E4.89557
G1 X123.178 Y102.332 E4.94357
G1 X124.16 Y102.972 E4.99035
G1 X125.079 Y103.717 E5.03757
G1 X125.92 Y104.559 E5.08506
G1 X126.657 Y105.471 E5.13186
G1 X127.301 Y106.458 E5.1789
G1 X127.839 Y107.509 E5.22603
G1 X128.281 Y108.683 E5.27609
G1 X128.571 Y109.753 E5.32034
G1 X128.753 Y110.886 E5.36614
G1 X128.815 Y111.843 E5.40442
G1 X128.805 Y112.631 E5.43587
G1 X128.723 Y113.671 E5.47751
G1 X128.533 Y114.626 E5.51637
G1 X128.272 Y115.635 E5.55797
G1 X127.812 Y116.804 E5.60811
G1 X127.266 Y117.857 E5.65545
G1 X126.612 Y118.849 E5.70287
G1 X125.872 Y119.752 E5.74947
G1 X125.033 Y120.582 E5.79657
G0 F1285.7 X124.71 Y120.226
G1 F600 X123.821 Y120.936 E5.84198
G1 X122.877 Y121.543 E5.88677
G1 X121.874 Y122.049 E5.93161
G1 X120.81 Y122.453 E5.97704
G1 X119.723 Y122.741 E6.02192
G1 X118.59 Y122.917 E6.06768
G1 X117.475 Y122.97 E6.11223
G1 X116.354 Y122.909 E6.15704
G1 X115.224 Y122.73 E6.2027
G1 X114.136 Y122.435 E6.2477
G1 X113.085 Y122.031 E6.29264
G1 X112.078 Y121.518 E6.33774
G1 X111.124 Y120.899 E6.38313
G1 X110.233 Y120.174 E6.42898
G1 X109.44 Y119.379 E6.4738
G1 X108.721 Y118.49 E6.51943
G1 X108.11 Y117.546 E6.56431
G1 X107.594 Y116.537 E6.60954
G1 X107.192 Y115.487 E6.65442
G1 X106.931 Y114.522 E6.69432
G1 X106.781 Y113.642 E6.72994
G1 X106.767 Y113.158 E6.74927
G1 X106.669 Y112.415 E6.77918
G1 X106.683 Y111.527 E6.81463
G1 X106.746 Y110.791 E6.84411
G1 X106.911 Y109.799 E6.88425
G1 X107.213 Y108.702 E6.92966
G1 X107.627 Y107.648 E6.97486
G1 X108.141 Y106.655 E7.01948
G1 X108.769 Y105.699 E7.06514
G1 X109.484 Y104.827 E7.11014
G1 X110.298 Y104.025 E7.15575
G1 X111.164 Y103.33 E7.20007
G1 X112.124 Y102.712 E7.24564
G1 X113.128 Y102.206 E7.29051
G1 X114.182 Y101.806 E7.33551
G1 X115.275 Y101.516 E7.38064
G1 X116.388 Y101.344 E7.42559
G1 X117.521 Y101.285 E7.47087
G1 X118.644 Y101.346 E7.51576
G1 X119.771 Y101.526 E7.56131
G1 X120.858 Y101.82 E7.60625
G1 X121.915 Y102.225 E7.65143
G1 X122.933 Y102.745 E7.69706
G1 X123.877 Y103.36 E7.74202
G1 X124.762 Y104.077 E7.78748
G1 X125.559 Y104.876 E7.83253
G1 X126.27 Y105.754 E7.87762
G1 X126.88 Y106.692 E7.92228
G1 X127.402 Y107.711 E7.96797
G1 X127.825 Y108.832 E8.01579
G1 X128.1 Y109.851 E8.05792
G1 X128.276 Y110.946 E8.10218
G1 X128.334 Y111.933 E8.14164
G1 X128.325 Y112.625 E8.16927
G1 X128.27 Y113.317 E8.19697
G1 X128.068 Y114.506 E8.24511
G1 X127.815 Y115.485 E8.28546
G1 X127.372 Y116.609 E8.33368
G1 X126.852 Y117.612 E8.37878
G1 X126.222 Y118.568 E8.42447
G1 X125.52 Y119.425 E8.46869
G1 X124.71 Y120.226 E8.51415
G0 F1285.7 X124.386 Y119.87
G1 F600 X123.538 Y120.548 E8.55749
G1 X122.645 Y121.122 E8.59986
G1 X121.67 Y121.614 E8.64345
G1 X120.668 Y121.994 E8.68622
G1 X119.631 Y122.269 E8.72904
G1 X118.539 Y122.438 E8.77314
G1 X117.469 Y122.489 E8.81589
G1 X116.408 Y122.432 E8.8583
G1 X115.319 Y122.259 E8.90231
G1 X114.291 Y121.98 E8.94483
G1 X113.273 Y121.589 E8.98835
G1 X112.324 Y121.105 E9.03087
G1 X111.411 Y120.513 E9.0743
G1 X110.552 Y119.814 E9.1185
G1 X109.796 Y119.056 E9.16123
G1 X109.111 Y118.21 E9.20467
G1 X108.527 Y117.308 E9.24756
G1 X108.032 Y116.337 E9.29106
G1 X107.648 Y115.336 E9.33385
G1 X107.394 Y114.397 E9.37268
G1 X107.256 Y113.569 E9.40618
G1 X107.251 Y113.138 E9.42338
G1 X107.148 Y112.404 E9.45297
G1 X107.162 Y111.562 E9.48658
G1 X107.22 Y110.87 E9.51429
G1 X107.383 Y109.889 E9.55398
G1 X107.669 Y108.853 E9.59688
G1 X108.061 Y107.854 E9.63971
G1 X108.558 Y106.895 E9.68282
G1 X109.156 Y105.984 E9.72632
G1 X109.839 Y105.149 E9.76937
G1 X110.607 Y104.394 E9.81235
G1 X111.452 Y103.715 E9.85562
G1 X112.359 Y103.131 E9.89867
G1 X113.323 Y102.645 E9.94176
G1 X114.33 Y102.263 E9.98475
G1 X115.369 Y101.988 E10.02765
G1 X116.446 Y101.821 E10.07115
G1 X117.52 Y101.765 E10.11407
G1 X118.591 Y101.824 E10.15688
G1 X119.672 Y101.996 E10.20057
G1 X120.703 Y102.274 E10.24319
G1 X121.719 Y102.665 E10.28664
G1 X122.685 Y103.158 E10.32992
G1 X123.603 Y103.756 E10.37365
G1 X124.438 Y104.433 E10.41655
G1 X125.204 Y105.2 E10.45982
G1 X125.881 Y106.038 E10.50282
G1 X126.464 Y106.932 E10.54541
G1 X126.963 Y107.907 E10.58913
G1 X127.369 Y108.981 E10.63496
G1 X127.63 Y109.948 E10.67493
G1 X127.798 Y110.998 E10.71737
G1 X127.854 Y111.927 E10.75452
G1 X127.841 Y112.911 E10.7938
G1 X127.683 Y114.079 E10.84084
G1 X127.357 Y115.335 E10.89263
G1 X126.936 Y116.406 E10.93856
G1 X126.43 Y117.382 E10.98244
G1 X125.838 Y118.28 E11.02536
G1 X125.172 Y119.093 E11.06731
G1 X124.386 Y119.87 E11.11142
G0 F1285.7 X124.068 Y119.51
G1 F600 X123.307 Y120.118 E11.1503
G1 X122.408 Y120.703 E11.19311
G1 X121.474 Y121.174 E11.23486
G1 X120.521 Y121.536 E11.27555
G1 X119.528 Y121.799 E11.31655
G1 X118.491 Y121.96 E11.35843
G1 X117.481 Y122.009 E11.39879
G1 X116.451 Y121.953 E11.43996
G1 X115.426 Y121.79 E11.48138
G1 X114.434 Y121.521 E11.52241
G1 X113.472 Y121.151 E11.56354
G1 X112.563 Y120.687 E11.60428
G1 X111.691 Y120.122 E11.64575
G1 X110.877 Y119.46 E11.68762
G1 X110.153 Y118.733 E11.72857
G1 X109.5 Y117.927 E11.76998
G1 X108.915 Y117.013 E11.81329
G1 X108.475 Y116.151 E11.85191
G1 X108.106 Y115.19 E11.893
G1 X107.839 Y114.201 E11.93389
G1 X107.73 Y113.496 E11.96236
G1 X107.74 Y113.112 E11.97769
G1 X107.628 Y112.393 E12.00673
G1 X107.645 Y111.236 E12.05292
G1 X107.85 Y110 E12.10292
G1 X108.125 Y109.004 E12.14416
G1 X108.503 Y108.044 E12.18534
G1 X108.969 Y107.143 E12.22583
G1 X109.538 Y106.276 E12.26722
G1 X110.201 Y105.468 E12.30893
G1 X110.931 Y104.748 E12.34986
G1 X111.725 Y104.11 E12.39051
G1 X112.596 Y103.55 E12.43184
G1 X113.523 Y103.083 E12.47327
G1 X114.477 Y102.721 E12.51399
G1 X115.469 Y102.458 E12.55495
G1 X116.487 Y102.3 E12.59607
G1 X117.519 Y102.247 E12.63731
G1 X118.546 Y102.303 E12.67836
G1 X119.567 Y102.465 E12.71962
G1 X120.56 Y102.733 E12.76068
G1 X121.527 Y103.105 E12.80203
G1 X122.441 Y103.571 E12.84298
G1 X123.32 Y104.145 E12.88488
G1 X124.115 Y104.789 E12.92571
G1 X124.847 Y105.522 E12.96706
G1 X125.493 Y106.321 E13.00807
G1 X126.048 Y107.173 E13.04865
G1 X126.523 Y108.1 E13.09022
G1 X126.89 Y109.073 E13.13173
G1 X127.16 Y110.052 E13.17226
G1 X127.312 Y110.998 E13.2105
G1 X127.374 Y111.921 E13.24742
G1 X127.365 Y112.613 E13.27504
G1 X127.222 Y113.946 E13.32855
G1 X126.901 Y115.185 E13.37964
G1 X126.5 Y116.204 E13.42334
G1 X126.019 Y117.132 E13.46506
G1 X125.452 Y117.992 E13.50617
G1 X124.806 Y118.78 E13.54684
G1 X124.068 Y119.51 E13.58827
G0 F1285.7 X123.721 Y119.173
G1 F600 X123.007 Y119.743 E13.62474
G1 X122.196 Y120.269 E13.66332
G1 X121.252 Y120.745 E13.70551
G1 X120.338 Y121.088 E13.74448
G1 X119.392 Y121.335 E13.7835
G1 X118.482 Y121.476 E13.82025
G1 X117.44 Y121.526 E13.86189
G1 X116.54 Y121.477 E13.89786
G1 X115.49 Y121.31 E13.9403
G1 X114.551 Y121.052 E13.97917
G1 X113.701 Y120.725 E14.01551
G1 X112.774 Y120.252 E14.05705
G1 X111.942 Y119.708 E14.09673
G1 X111.229 Y119.128 E14.13341
G1 X110.488 Y118.385 E14.17529
G1 X109.911 Y117.672 E14.2119
G1 X109.38 Y116.858 E14.25069
G1 X108.898 Y115.914 E14.29299
G1 X108.553 Y115.004 E14.33184
G1 X108.304 Y114.068 E14.37049
G1 X108.204 Y113.422 E14.39658
G1 X108.244 Y113.082 E14.41025
G1 X108.173 Y112.869 E14.41921
G1 X108.103 Y112.163 E14.44753
G1 X108.157 Y111.891 E14.45859
G1 X108.096 Y111.478 E14.47526
G1 X108.314 Y110.141 E14.52932
G1 X108.571 Y109.194 E14.56849
G1 X108.926 Y108.28 E14.60762
G1 X109.406 Y107.352 E14.64932
G1 X109.908 Y106.588 E14.68581
G1 X110.58 Y105.768 E14.72812
G1 X111.28 Y105.084 E14.76718
G1 X112.04 Y104.478 E14.80598
G1 X112.805 Y103.986 E14.84228
G1 X113.677 Y103.542 E14.88134
G1 X114.663 Y103.168 E14.92343
G1 X115.605 Y102.922 E14.96229
G1 X116.504 Y102.783 E14.99859
G1 X117.479 Y102.729 E15.03757
G1 X118.456 Y102.778 E15.07661
G1 X119.433 Y102.93 E15.11607
G1 X120.374 Y103.18 E15.15493
G1 X121.29 Y103.528 E15.19404
G1 X122.238 Y104.012 E15.23653
G1 X123.002 Y104.51 E15.27292
G1 X123.821 Y105.173 E15.31498
G1 X124.462 Y105.815 E15.35119
G1 X125.08 Y106.573 E15.39022
G1 X125.652 Y107.452 E15.43208
G1 X126.098 Y108.332 E15.47146
G1 X126.441 Y109.242 E15.51027
G1 X126.696 Y110.188 E15.54938
G1 X126.838 Y111.074 E15.58519
G1 X126.894 Y111.914 E15.61879
G1 X126.885 Y112.606 E15.64641
G1 X126.82 Y112.881 E15.65769
G1 X126.843 Y113.123 E15.66739
G1 X126.674 Y114.145 E15.70874
G1 X126.427 Y115.079 E15.7473
G1 X126.074 Y115.976 E15.78577
G1 X125.585 Y116.918 E15.82813
G1 X125.04 Y117.738 E15.86743
G1 X124.427 Y118.48 E15.90584
G1 X123.721 Y119.173 E15.94533
G0 F1285.7 X123.422 Y118.798
G1 F600 X122.708 Y119.368 E15.98179
G1 X121.937 Y119.865 E16.0184
G1 X121.081 Y120.296 E16.05665
G1 X120.215 Y120.624 E16.09361
G1 X119.344 Y120.855 E16.12958
G1 X118.384 Y121.004 E16.16835
G1 X117.466 Y121.047 E16.20503
G1 X116.566 Y120.998 E16.24101
G1 X115.615 Y120.847 E16.27944
G1 X114.747 Y120.612 E16.31533
G1 X113.851 Y120.267 E16.35365
G1 X113.057 Y119.862 E16.38922
G1 X112.265 Y119.35 E16.42687
G1 X111.513 Y118.738 E16.46556
G1 X110.861 Y118.083 E16.50245
G1 X110.284 Y117.37 E16.53906
G1 X109.77 Y116.576 E16.57681
G1 X109.356 Y115.765 E16.61315
G1 X109.016 Y114.879 E16.65103
G1 X108.784 Y114.021 E16.6865
G1 X108.664 Y113.251 E16.71761
G1 X108.875 Y113.093 E16.72813
G1 X108.668 Y112.865 E16.74042
G1 X108.683 Y112.55 E16.753
G1 X108.608 Y112.462 E16.75762
G1 X108.619 Y112.02 E16.77526
G1 X108.762 Y111.907 E16.78254
G1 X108.631 Y111.809 E16.78907
G1 X108.568 Y111.54 E16.8001
G1 X108.787 Y110.22 E16.8535
G1 X109.042 Y109.297 E16.89172
G1 X109.383 Y108.433 E16.92879
G1 X109.807 Y107.615 E16.96557
G1 X110.309 Y106.851 E17.00205
G1 X110.899 Y106.129 E17.03927
G1 X111.581 Y105.458 E17.07745
G1 X112.299 Y104.882 E17.11419
G1 X113.064 Y104.39 E17.15049
G1 X113.916 Y103.961 E17.18857
G1 X114.786 Y103.632 E17.22569
G1 X115.678 Y103.397 E17.26251
G1 X116.602 Y103.255 E17.29982
G1 X117.529 Y103.208 E17.33686
G1 X118.43 Y103.257 E17.37288
G1 X119.383 Y103.409 E17.41139
G1 X120.249 Y103.643 E17.4472
G1 X121.141 Y103.986 E17.48534
G1 X121.954 Y104.401 E17.52177
G1 X122.74 Y104.912 E17.55919
G1 X123.481 Y105.512 E17.59724
G1 X124.139 Y106.173 E17.63447
G1 X124.707 Y106.875 E17.67051
G1 X125.225 Y107.671 E17.70842
G1 X125.649 Y108.501 E17.74561
G1 X125.992 Y109.411 E17.78443
G1 X126.217 Y110.239 E17.81868
G1 X126.364 Y111.15 E17.85551
G1 X126.414 Y111.908 E17.88582
G1 X126.404 Y112.701 E17.91748
G1 X126.248 Y112.819 E17.92528
G1 X126.34 Y112.91 E17.93045
G1 X126.368 Y113.058 E17.93646
G1 X126.236 Y113.735 E17.96399
G1 X126.141 Y113.796 E17.9685
G1 X126.233 Y113.934 E17.97512
G1 X125.98 Y114.903 E18.01509
G1 X125.617 Y115.822 E18.05452
G1 X125.184 Y116.654 E18.09196
G1 X124.669 Y117.434 E18.12926
G1 X124.09 Y118.139 E18.16568
G1 X123.422 Y118.798 E18.20313
G1 F2700 E11.70313
;MESH:bouchon_pedale.stl
G0 F1285.7 X123.349 Y115.567
G0 X122.195 Y114.82
G1 F2700 E18.20313
G0 F1285.7 X121.961 Y114.367
;TYPE:WALL-OUTER
G1 F600 X121.753 Y114.402 E18.21155
G1 X121.327 Y114.29 E18.22913
G1 X121.209 Y114.163 E18.23604
G1 X121.088 Y113.648 E18.25716
G1 X120.71 Y113.747 E18.27276
G1 X120.392 Y113.61 E18.28657
G1 X120.262 Y113.483 E18.29383
G1 X119.906 Y113.682 E18.31011
G1 X119.279 Y113.739 E18.33523
G1 X118.881 Y113.619 E18.35183
G1 X118.613 Y113.425 E18.36503
G1 X118.35 Y113.686 E18.37982
G1 X117.969 Y113.741 E18.39518
G1 X117.735 Y113.628 E18.40555
G1 X117.459 Y113.742 E18.41747
G1 X117.049 Y113.724 E18.43385
G1 X116.585 Y113.463 E18.4551
G1 X116.474 Y113.336 E18.46183
G1 X116.177 Y113.594 E18.47754
G1 X115.771 Y113.735 E18.49469
G1 X115.118 Y113.687 E18.52082
G1 X114.784 Y113.518 E18.53576
G1 X114.541 Y113.718 E18.54832
G1 X114.185 Y113.729 E18.56254
G1 X113.863 Y113.498 E18.57836
G1 X113.76 Y113.315 E18.58674
G1 X113.667 Y113.507 E18.59525
G1 X113.261 Y113.743 E18.61399
G1 X113.108 Y113.739 E18.6201
G1 X112.708 Y113.512 E18.63846
G1 X112.558 Y113.621 E18.64586
G1 X112.178 Y113.738 E18.66173
G1 X111.577 Y113.692 E18.68579
G1 X111.181 Y113.505 E18.70327
G1 X111.154 Y113.953 E18.72118
G1 X111.029 Y114.207 E18.73248
G1 X110.896 Y114.319 E18.73942
