(Exported by FreeCAD)
(Post Processor: grbl_post)
(Output Time:2023-03-15 00:42:38.441160)
(Begin preamble)
G17 G90
G21
(Begin operation: 3.175 Z2 droite003)
(Path: 3.175 Z2 droite003)
(3.175 Z2 droite003)
(Begin toolchange)
( M6 T2.0 )
M3 S24000.0
(Finish operation: 3.175 Z2 droite003)
(Begin operation: Fixture)
(Path: Fixture)
G54
G0 Z5.000
(Finish operation: Fixture)
(Begin operation: Helix)
(Path: Helix)
(Helix)
(helix cut operation)
G0 Z5.000
G0 X36.415 Y207.500
G0 Z3.000
G1 Z0.000 F1000.000
G2 X29.585 Y207.500 Z-1.167 I-3.415 J0.000 F2500.000
G2 X36.415 Y207.500 Z-2.333 I3.415 J0.000 F2500.000
G2 X29.585 Y207.500 Z-3.500 I-3.415 J0.000 F2500.000
G2 X36.415 Y207.500 Z-4.667 I3.415 J0.000 F2500.000
G2 X29.585 Y207.500 Z-5.833 I-3.415 J0.000 F2500.000
G2 X36.415 Y207.500 Z-7.000 I3.415 J0.000 F2500.000
G2 X29.585 Y207.500 Z-7.000 I-3.415 J0.000 F2500.000
G2 X36.415 Y207.500 Z-7.000 I3.415 J0.000 F2500.000
G0 Z3.000
G0 X35.415 Y252.500
G0 Z3.000
G1 Z0.000 F1000.000
G2 X28.585 Y252.500 Z-1.167 I-3.415 J0.000 F2500.000
G2 X35.415 Y252.500 Z-2.333 I3.415 J0.000 F2500.000
G2 X28.585 Y252.500 Z-3.500 I-3.415 J0.000 F2500.000
G2 X35.415 Y252.500 Z-4.667 I3.415 J0.000 F2500.000
G2 X28.585 Y252.500 Z-5.833 I-3.415 J0.000 F2500.000
G2 X35.415 Y252.500 Z-7.000 I3.415 J0.000 F2500.000
G2 X28.585 Y252.500 Z-7.000 I-3.415 J0.000 F2500.000
G2 X35.415 Y252.500 Z-7.000 I3.415 J0.000 F2500.000
G0 Z3.000
G0 X91.415 Y252.500
G0 Z3.000
G1 Z0.000 F1000.000
G2 X84.585 Y252.500 Z-1.167 I-3.415 J0.000 F2500.000
G2 X91.415 Y252.500 Z-2.333 I3.415 J0.000 F2500.000
G2 X84.585 Y252.500 Z-3.500 I-3.415 J0.000 F2500.000
G2 X91.415 Y252.500 Z-4.667 I3.415 J0.000 F2500.000
G2 X84.585 Y252.500 Z-5.833 I-3.415 J0.000 F2500.000
G2 X91.415 Y252.500 Z-7.000 I3.415 J0.000 F2500.000
G2 X84.585 Y252.500 Z-7.000 I-3.415 J0.000 F2500.000
G2 X91.415 Y252.500 Z-7.000 I3.415 J0.000 F2500.000
G0 Z3.000
G0 X90.415 Y207.500
G0 Z3.000
G1 Z0.000 F1000.000
G2 X83.585 Y207.500 Z-1.167 I-3.415 J0.000 F2500.000
G2 X90.415 Y207.500 Z-2.333 I3.415 J0.000 F2500.000
G2 X83.585 Y207.500 Z-3.500 I-3.415 J0.000 F2500.000
G2 X90.415 Y207.500 Z-4.667 I3.415 J0.000 F2500.000
G2 X83.585 Y207.500 Z-5.833 I-3.415 J0.000 F2500.000
G2 X90.415 Y207.500 Z-7.000 I3.415 J0.000 F2500.000
G2 X83.585 Y207.500 Z-7.000 I-3.415 J0.000 F2500.000
G2 X90.415 Y207.500 Z-7.000 I3.415 J0.000 F2500.000
G0 Z3.000
G0 Z5.000
(Finish operation: Helix)
(Begin operation: Helix001)
(Path: Helix001)
(Helix001)
(helix cut operation)
G0 Z5.000
G0 X20.915 Y50.000
G0 Z3.000
G1 Z0.000 F1000.000
G2 X19.085 Y50.000 Z-1.500 I-0.915 J0.000 F2500.000
G2 X20.915 Y50.000 Z-3.000 I0.915 J0.000 F2500.000
G2 X19.085 Y50.000 Z-4.500 I-0.915 J0.000 F2500.000
G2 X20.915 Y50.000 Z-6.000 I0.915 J0.000 F2500.000
G2 X19.085 Y50.000 Z-7.500 I-0.915 J0.000 F2500.000
G2 X20.915 Y50.000 Z-9.000 I0.915 J0.000 F2500.000
G2 X19.085 Y50.000 Z-10.500 I-0.915 J0.000 F2500.000
G2 X20.915 Y50.000 Z-12.000 I0.915 J0.000 F2500.000
G2 X19.085 Y50.000 Z-13.500 I-0.915 J0.000 F2500.000
G2 X20.915 Y50.000 Z-15.000 I0.915 J0.000 F2500.000
G2 X19.085 Y50.000 Z-15.000 I-0.915 J0.000 F2500.000
G2 X20.915 Y50.000 Z-15.000 I0.915 J0.000 F2500.000
G0 Z3.000
G0 X60.915 Y100.000
G0 Z3.000
G1 Z0.000 F1000.000
G2 X59.085 Y100.000 Z-1.500 I-0.915 J0.000 F2500.000
G2 X60.915 Y100.000 Z-3.000 I0.915 J0.000 F2500.000
G2 X59.085 Y100.000 Z-4.500 I-0.915 J0.000 F2500.000
G2 X60.915 Y100.000 Z-6.000 I0.915 J0.000 F2500.000
G2 X59.085 Y100.000 Z-7.500 I-0.915 J0.000 F2500.000
G2 X60.915 Y100.000 Z-9.000 I0.915 J0.000 F2500.000
G2 X59.085 Y100.000 Z-10.500 I-0.915 J0.000 F2500.000
G2 X60.915 Y100.000 Z-12.000 I0.915 J0.000 F2500.000
G2 X59.085 Y100.000 Z-13.500 I-0.915 J0.000 F2500.000
G2 X60.915 Y100.000 Z-15.000 I0.915 J0.000 F2500.000
G2 X59.085 Y100.000 Z-15.000 I-0.915 J0.000 F2500.000
G2 X60.915 Y100.000 Z-15.000 I0.915 J0.000 F2500.000
G0 Z3.000
G0 X100.915 Y50.000
G0 Z3.000
G1 Z0.000 F1000.000
G2 X99.085 Y50.000 Z-1.500 I-0.915 J0.000 F2500.000
G2 X100.915 Y50.000 Z-3.000 I0.915 J0.000 F2500.000
G2 X99.085 Y50.000 Z-4.500 I-0.915 J0.000 F2500.000
G2 X100.915 Y50.000 Z-6.000 I0.915 J0.000 F2500.000
G2 X99.085 Y50.000 Z-7.500 I-0.915 J0.000 F2500.000
G2 X100.915 Y50.000 Z-9.000 I0.915 J0.000 F2500.000
G2 X99.085 Y50.000 Z-10.500 I-0.915 J0.000 F2500.000
G2 X100.915 Y50.000 Z-12.000 I0.915 J0.000 F2500.000
G2 X99.085 Y50.000 Z-13.500 I-0.915 J0.000 F2500.000
G2 X100.915 Y50.000 Z-15.000 I0.915 J0.000 F2500.000
G2 X99.085 Y50.000 Z-15.000 I-0.915 J0.000 F2500.000
G2 X100.915 Y50.000 Z-15.000 I0.915 J0.000 F2500.000
G0 Z3.000
G0 X75.915 Y186.000
G0 Z3.000
G1 Z0.000 F1000.000
G2 X74.085 Y186.000 Z-1.500 I-0.915 J0.000 F2500.000
G2 X75.915 Y186.000 Z-3.000 I0.915 J0.000 F2500.000
G2 X74.085 Y186.000 Z-4.500 I-0.915 J0.000 F2500.000
G2 X75.915 Y186.000 Z-6.000 I0.915 J0.000 F2500.000
G2 X74.085 Y186.000 Z-7.500 I-0.915 J0.000 F2500.000
G2 X75.915 Y186.000 Z-9.000 I0.915 J0.000 F2500.000
G2 X74.085 Y186.000 Z-10.500 I-0.915 J0.000 F2500.000
G2 X75.915 Y186.000 Z-12.000 I0.915 J0.000 F2500.000
G2 X74.085 Y186.000 Z-13.500 I-0.915 J0.000 F2500.000
G2 X75.915 Y186.000 Z-15.000 I0.915 J0.000 F2500.000
G2 X74.085 Y186.000 Z-15.000 I-0.915 J0.000 F2500.000
G2 X75.915 Y186.000 Z-15.000 I0.915 J0.000 F2500.000
G0 Z3.000
G0 X87.915 Y207.500
G0 Z3.000
G1 Z0.000 F1000.000
G2 X86.085 Y207.500 Z-1.500 I-0.915 J0.000 F2500.000
G2 X87.915 Y207.500 Z-3.000 I0.915 J0.000 F2500.000
G2 X86.085 Y207.500 Z-4.500 I-0.915 J0.000 F2500.000
G2 X87.915 Y207.500 Z-6.000 I0.915 J0.000 F2500.000
G2 X86.085 Y207.500 Z-7.500 I-0.915 J0.000 F2500.000
G2 X87.915 Y207.500 Z-9.000 I0.915 J0.000 F2500.000
G2 X86.085 Y207.500 Z-10.500 I-0.915 J0.000 F2500.000
G2 X87.915 Y207.500 Z-12.000 I0.915 J0.000 F2500.000
G2 X86.085 Y207.500 Z-13.500 I-0.915 J0.000 F2500.000
G2 X87.915 Y207.500 Z-15.000 I0.915 J0.000 F2500.000
G2 X86.085 Y207.500 Z-15.000 I-0.915 J0.000 F2500.000
G2 X87.915 Y207.500 Z-15.000 I0.915 J0.000 F2500.000
G0 Z3.000
G0 X86.915 Y230.000
G0 Z3.000
G1 Z0.000 F1000.000
G2 X85.085 Y230.000 Z-1.500 I-0.915 J0.000 F2500.000
G2 X86.915 Y230.000 Z-3.000 I0.915 J0.000 F2500.000
G2 X85.085 Y230.000 Z-4.500 I-0.915 J0.000 F2500.000
G2 X86.915 Y230.000 Z-6.000 I0.915 J0.000 F2500.000
G2 X85.085 Y230.000 Z-7.500 I-0.915 J0.000 F2500.000
G2 X86.915 Y230.000 Z-9.000 I0.915 J0.000 F2500.000
G2 X85.085 Y230.000 Z-10.500 I-0.915 J0.000 F2500.000
G2 X86.915 Y230.000 Z-12.000 I0.915 J0.000 F2500.000
G2 X85.085 Y230.000 Z-13.500 I-0.915 J0.000 F2500.000
G2 X86.915 Y230.000 Z-15.000 I0.915 J0.000 F2500.000
G2 X85.085 Y230.000 Z-15.000 I-0.915 J0.000 F2500.000
G2 X86.915 Y230.000 Z-15.000 I0.915 J0.000 F2500.000
G0 Z3.000
G0 X88.915 Y252.500
G0 Z3.000
G1 Z0.000 F1000.000
G2 X87.085 Y252.500 Z-1.500 I-0.915 J0.000 F2500.000
G2 X88.915 Y252.500 Z-3.000 I0.915 J0.000 F2500.000
G2 X87.085 Y252.500 Z-4.500 I-0.915 J0.000 F2500.000
G2 X88.915 Y252.500 Z-6.000 I0.915 J0.000 F2500.000
G2 X87.085 Y252.500 Z-7.500 I-0.915 J0.000 F2500.000
G2 X88.915 Y252.500 Z-9.000 I0.915 J0.000 F2500.000
G2 X87.085 Y252.500 Z-10.500 I-0.915 J0.000 F2500.000
G2 X88.915 Y252.500 Z-12.000 I0.915 J0.000 F2500.000
G2 X87.085 Y252.500 Z-13.500 I-0.915 J0.000 F2500.000
G2 X88.915 Y252.500 Z-15.000 I0.915 J0.000 F2500.000
G2 X87.085 Y252.500 Z-15.000 I-0.915 J0.000 F2500.000
G2 X88.915 Y252.500 Z-15.000 I0.915 J0.000 F2500.000
G0 Z3.000
G0 X32.915 Y252.500
G0 Z3.000
G1 Z0.000 F1000.000
G2 X31.085 Y252.500 Z-1.500 I-0.915 J0.000 F2500.000
G2 X32.915 Y252.500 Z-3.000 I0.915 J0.000 F2500.000
G2 X31.085 Y252.500 Z-4.500 I-0.915 J0.000 F2500.000
G2 X32.915 Y252.500 Z-6.000 I0.915 J0.000 F2500.000
G2 X31.085 Y252.500 Z-7.500 I-0.915 J0.000 F2500.000
G2 X32.915 Y252.500 Z-9.000 I0.915 J0.000 F2500.000
G2 X31.085 Y252.500 Z-10.500 I-0.915 J0.000 F2500.000
G2 X32.915 Y252.500 Z-12.000 I0.915 J0.000 F2500.000
G2 X31.085 Y252.500 Z-13.500 I-0.915 J0.000 F2500.000
G2 X32.915 Y252.500 Z-15.000 I0.915 J0.000 F2500.000
G2 X31.085 Y252.500 Z-15.000 I-0.915 J0.000 F2500.000
G2 X32.915 Y252.500 Z-15.000 I0.915 J0.000 F2500.000
G0 Z3.000
G0 X34.915 Y230.000
G0 Z3.000
G1 Z0.000 F1000.000
G2 X33.085 Y230.000 Z-1.500 I-0.915 J0.000 F2500.000
G2 X34.915 Y230.000 Z-3.000 I0.915 J0.000 F2500.000
G2 X33.085 Y230.000 Z-4.500 I-0.915 J0.000 F2500.000
G2 X34.915 Y230.000 Z-6.000 I0.915 J0.000 F2500.000
G2 X33.085 Y230.000 Z-7.500 I-0.915 J0.000 F2500.000
G2 X34.915 Y230.000 Z-9.000 I0.915 J0.000 F2500.000
G2 X33.085 Y230.000 Z-10.500 I-0.915 J0.000 F2500.000
G2 X34.915 Y230.000 Z-12.000 I0.915 J0.000 F2500.000
G2 X33.085 Y230.000 Z-13.500 I-0.915 J0.000 F2500.000
G2 X34.915 Y230.000 Z-15.000 I0.915 J0.000 F2500.000
G2 X33.085 Y230.000 Z-15.000 I-0.915 J0.000 F2500.000
G2 X34.915 Y230.000 Z-15.000 I0.915 J0.000 F2500.000
G0 Z3.000
G0 X33.915 Y207.500
G0 Z3.000
G1 Z0.000 F1000.000
G2 X32.085 Y207.500 Z-1.500 I-0.915 J0.000 F2500.000
G2 X33.915 Y207.500 Z-3.000 I0.915 J0.000 F2500.000
G2 X32.085 Y207.500 Z-4.500 I-0.915 J0.000 F2500.000
G2 X33.915 Y207.500 Z-6.000 I0.915 J0.000 F2500.000
G2 X32.085 Y207.500 Z-7.500 I-0.915 J0.000 F2500.000
G2 X33.915 Y207.500 Z-9.000 I0.915 J0.000 F2500.000
G2 X32.085 Y207.500 Z-10.500 I-0.915 J0.000 F2500.000
G2 X33.915 Y207.500 Z-12.000 I0.915 J0.000 F2500.000
G2 X32.085 Y207.500 Z-13.500 I-0.915 J0.000 F2500.000
G2 X33.915 Y207.500 Z-15.000 I0.915 J0.000 F2500.000
G2 X32.085 Y207.500 Z-15.000 I-0.915 J0.000 F2500.000
G2 X33.915 Y207.500 Z-15.000 I0.915 J0.000 F2500.000
G0 Z3.000
G0 X45.915 Y186.000
G0 Z3.000
G1 Z0.000 F1000.000
G2 X44.085 Y186.000 Z-1.500 I-0.915 J0.000 F2500.000
G2 X45.915 Y186.000 Z-3.000 I0.915 J0.000 F2500.000
G2 X44.085 Y186.000 Z-4.500 I-0.915 J0.000 F2500.000
G2 X45.915 Y186.000 Z-6.000 I0.915 J0.000 F2500.000
G2 X44.085 Y186.000 Z-7.500 I-0.915 J0.000 F2500.000
G2 X45.915 Y186.000 Z-9.000 I0.915 J0.000 F2500.000
G2 X44.085 Y186.000 Z-10.500 I-0.915 J0.000 F2500.000
G2 X45.915 Y186.000 Z-12.000 I0.915 J0.000 F2500.000
G2 X44.085 Y186.000 Z-13.500 I-0.915 J0.000 F2500.000
G2 X45.915 Y186.000 Z-15.000 I0.915 J0.000 F2500.000
G2 X44.085 Y186.000 Z-15.000 I-0.915 J0.000 F2500.000
G2 X45.915 Y186.000 Z-15.000 I0.915 J0.000 F2500.000
G0 Z3.000
G0 Z5.000
(Finish operation: Helix001)
(Begin operation: Profile001)
(Path: Profile001)
(Profile001)
(Compensated Tool Path. Diameter: 3.17)
G0 Z5.000
G0 X71.607 Y241.607
G0 Z3.000
G1 X71.607 Y241.607 Z-3.170 F1000.000
G2 X76.274 Y232.142 Z-3.170 I-11.607 J-11.607 K0.000 F2500.000
G2 X62.142 Y213.726 Z-3.170 I-16.274 J-2.142 K0.000 F2500.000
G2 X43.726 Y227.858 Z-3.170 I-2.142 J16.274 K0.000 F2500.000
G2 X71.607 Y241.607 Z-3.170 I16.274 J2.142 K0.000 F2500.000
G1 X71.607 Y241.607 Z-6.340 F1000.000
G2 X76.274 Y232.142 Z-6.340 I-11.607 J-11.607 K0.000 F2500.000
G2 X62.142 Y213.726 Z-6.340 I-16.274 J-2.142 K0.000 F2500.000
G2 X43.726 Y227.858 Z-6.340 I-2.142 J16.274 K0.000 F2500.000
G2 X71.607 Y241.607 Z-6.340 I16.274 J2.142 K0.000 F2500.000
G1 X71.607 Y241.607 Z-9.510 F1000.000
G2 X76.274 Y232.142 Z-9.510 I-11.607 J-11.607 K0.000 F2500.000
G2 X62.142 Y213.726 Z-9.510 I-16.274 J-2.142 K0.000 F2500.000
G2 X43.726 Y227.858 Z-9.510 I-2.142 J16.274 K0.000 F2500.000
G2 X71.607 Y241.607 Z-9.510 I16.274 J2.142 K0.000 F2500.000
G1 X71.607 Y241.607 Z-12.680 F1000.000
G2 X76.274 Y232.142 Z-12.680 I-11.607 J-11.607 K0.000 F2500.000
G2 X62.142 Y213.726 Z-12.680 I-16.274 J-2.142 K0.000 F2500.000
G2 X43.726 Y227.858 Z-12.680 I-2.142 J16.274 K0.000 F2500.000
G2 X71.607 Y241.607 Z-12.680 I16.274 J2.142 K0.000 F2500.000
G1 X71.607 Y241.607 Z-15.000 F1000.000
G2 X76.274 Y232.142 Z-15.000 I-11.607 J-11.607 K0.000 F2500.000
G2 X62.142 Y213.726 Z-15.000 I-16.274 J-2.142 K0.000 F2500.000
G2 X43.726 Y227.858 Z-15.000 I-2.142 J16.274 K0.000 F2500.000
G2 X71.607 Y241.607 Z-15.000 I16.274 J2.142 K0.000 F2500.000
G0 Z5.000
G0 Z5.000
(Finish operation: Profile001)
(Begin operation: DogboneDressup)
(Path: DogboneDressup)
(Pocket_Shape)
G0 Z5.000
G0 X66.115 Y178.630
G0 Z3.000
G1 X66.115 Y178.630 Z-3.170 F1000.000
G1 X53.885 Y178.630 Z-3.170 F2500.000
G1 X53.421 Y179.095 Z-3.170 F2500.000
G1 X53.885 Y178.630 Z-3.170 F2500.000
G1 X53.885 Y91.800 Z-3.170 F2500.000
G1 X53.885 Y91.800 Z-3.170 F2500.000
G1 X53.421 Y91.336 Z-3.170 F2500.000
G1 X53.885 Y91.800 Z-3.170 F2500.000
G1 X66.115 Y91.800 Z-3.170 F2500.000
G1 X66.115 Y91.800 Z-3.170 F2500.000
G1 X66.579 Y91.336 Z-3.170 F2500.000
G1 X66.115 Y91.800 Z-3.170 F2500.000
G1 X66.115 Y178.630 Z-3.170 F2500.000
G1 X66.115 Y178.630 Z-3.170 F2500.000
G1 X66.579 Y179.095 Z-3.170 F2500.000
G1 X66.115 Y178.630 Z-3.170 F2500.000
G0 Z5.000
G0 X63.737 Y176.253 Z5.000
G0 X63.737 Y176.253 Z3.000
G1 X63.737 Y176.253 Z-3.170 F1000.000
G1 X56.263 Y176.253 Z-3.170 F2500.000
G1 X55.798 Y176.717 Z-3.170 F2500.000
G1 X56.263 Y176.253 Z-3.170 F2500.000
G1 X56.263 Y94.178 Z-3.170 F2500.000
G1 X56.263 Y94.178 Z-3.170 F2500.000
G1 X55.798 Y93.714 Z-3.170 F2500.000
G1 X56.263 Y94.178 Z-3.170 F2500.000
G1 X63.737 Y94.178 Z-3.170 F2500.000
G1 X63.737 Y94.178 Z-3.170 F2500.000
G1 X64.202 Y93.714 Z-3.170 F2500.000
G1 X63.737 Y94.178 Z-3.170 F2500.000
G1 X63.737 Y176.253 Z-3.170 F2500.000
G1 X63.737 Y176.253 Z-3.170 F2500.000
G1 X64.202 Y176.717 Z-3.170 F2500.000
G1 X63.737 Y176.253 Z-3.170 F2500.000
G0 Z5.000
G0 X61.360 Y173.875 Z5.000
G0 X61.360 Y173.875 Z3.000
G1 X61.360 Y173.875 Z-3.170 F1000.000
G1 X58.640 Y173.875 Z-3.170 F2500.000
G1 X58.176 Y174.340 Z-3.170 F2500.000
G1 X58.640 Y173.875 Z-3.170 F2500.000
G1 X58.640 Y96.555 Z-3.170 F2500.000
G1 X58.640 Y96.555 Z-3.170 F2500.000
G1 X58.176 Y96.091 Z-3.170 F2500.000
G1 X58.640 Y96.555 Z-3.170 F2500.000
G1 X61.360 Y96.555 Z-3.170 F2500.000
G1 X61.360 Y96.555 Z-3.170 F2500.000
G1 X61.824 Y96.091 Z-3.170 F2500.000
G1 X61.360 Y96.555 Z-3.170 F2500.000
G1 X61.360 Y173.875 Z-3.170 F2500.000
G1 X61.360 Y173.875 Z-3.170 F2500.000
G1 X61.824 Y174.340 Z-3.170 F2500.000
G1 X61.360 Y173.875 Z-3.170 F2500.000
G0 Z5.000
G0 X60.568 Y173.083 Z5.000
G0 X60.568 Y173.083 Z3.000
G1 X60.568 Y173.083 Z-3.170 F1000.000
G1 X59.432 Y173.083 Z-3.170 F2500.000
G1 X58.968 Y173.547 Z-3.170 F2500.000
G1 X59.432 Y173.083 Z-3.170 F2500.000
G1 X59.432 Y97.348 Z-3.170 F2500.000
G1 X59.432 Y97.348 Z-3.170 F2500.000
G1 X58.968 Y96.884 Z-3.170 F2500.000
G1 X59.432 Y97.348 Z-3.170 F2500.000
G1 X60.568 Y97.348 Z-3.170 F2500.000
G1 X60.568 Y97.348 Z-3.170 F2500.000
G1 X61.032 Y96.884 Z-3.170 F2500.000
G1 X60.568 Y97.348 Z-3.170 F2500.000
G1 X60.568 Y173.083 Z-3.170 F2500.000
G1 X60.568 Y173.083 Z-3.170 F2500.000
G1 X61.032 Y173.547 Z-3.170 F2500.000
G1 X60.568 Y173.083 Z-3.170 F2500.000
G1 X60.568 Y173.083 Z-6.340 F1000.000
G1 X59.432 Y173.083 Z-6.340 F2500.000
G1 X58.968 Y173.547 Z-6.340 F2500.000
G1 X59.432 Y173.083 Z-6.340 F2500.000
G1 X59.432 Y97.348 Z-6.340 F2500.000
G1 X59.432 Y97.348 Z-6.340 F2500.000
G1 X58.968 Y96.884 Z-6.340 F2500.000
G1 X59.432 Y97.348 Z-6.340 F2500.000
G1 X60.568 Y97.348 Z-6.340 F2500.000
G1 X60.568 Y97.348 Z-6.340 F2500.000
G1 X61.032 Y96.884 Z-6.340 F2500.000
G1 X60.568 Y97.348 Z-6.340 F2500.000
G1 X60.568 Y173.083 Z-6.340 F2500.000
G1 X60.568 Y173.083 Z-6.340 F2500.000
G1 X61.032 Y173.547 Z-6.340 F2500.000
G1 X60.568 Y173.083 Z-6.340 F2500.000
G0 Z5.000
G0 Y173.875 Z5.000
G0 Y173.875 Z3.000
G1 X60.567 Y173.875 Z-6.340 F1000.000
G1 X58.640 Y173.875 Z-6.340 F2500.000
G1 X58.176 Y174.340 Z-6.340 F2500.000
G1 X58.640 Y173.875 Z-6.340 F2500.000
G1 X58.640 Y96.555 Z-6.340 F2500.000
G1 X58.640 Y96.555 Z-6.340 F2500.000
G1 X58.176 Y96.091 Z-6.340 F2500.000
G1 X58.640 Y96.555 Z-6.340 F2500.000
G1 X61.360 Y96.555 Z-6.340 F2500.000
G1 X61.360 Y96.555 Z-6.340 F2500.000
G1 X61.824 Y96.091 Z-6.340 F2500.000
G1 X61.360 Y96.555 Z-6.340 F2500.000
G1 X61.360 Y173.875 Z-6.340 F2500.000
G1 X61.360 Y173.875 Z-6.340 F2500.000
G1 X61.824 Y174.340 Z-6.340 F2500.000
G1 X61.360 Y173.875 Z-6.340 F2500.000
G1 X60.567 Y173.875 Z-6.340 F2500.000
G0 Z5.000
G0 Y176.253 Z5.000
G0 Y176.253 Z3.000
G1 X60.567 Y176.253 Z-6.340 F1000.000
G1 X56.263 Y176.253 Z-6.340 F2500.000
G1 X55.798 Y176.717 Z-6.340 F2500.000
G1 X56.263 Y176.253 Z-6.340 F2500.000
G1 X56.263 Y94.178 Z-6.340 F2500.000
G1 X56.263 Y94.178 Z-6.340 F2500.000
G1 X55.798 Y93.714 Z-6.340 F2500.000
G1 X56.263 Y94.178 Z-6.340 F2500.000
G1 X63.737 Y94.178 Z-6.340 F2500.000
G1 X63.737 Y94.178 Z-6.340 F2500.000
G1 X64.202 Y93.714 Z-6.340 F2500.000
G1 X63.737 Y94.178 Z-6.340 F2500.000
G1 X63.737 Y176.253 Z-6.340 F2500.000
G1 X63.737 Y176.253 Z-6.340 F2500.000
G1 X64.202 Y176.717 Z-6.340 F2500.000
G1 X63.737 Y176.253 Z-6.340 F2500.000
G1 X60.567 Y176.253 Z-6.340 F2500.000
G0 Z5.000
G0 Y178.630 Z5.000
G0 Y178.630 Z3.000
G1 X60.567 Y178.630 Z-6.340 F1000.000
G1 X53.885 Y178.630 Z-6.340 F2500.000
G1 X53.421 Y179.095 Z-6.340 F2500.000
G1 X53.885 Y178.630 Z-6.340 F2500.000
G1 X53.885 Y91.800 Z-6.340 F2500.000
G1 X53.885 Y91.800 Z-6.340 F2500.000
G1 X53.421 Y91.336 Z-6.340 F2500.000
G1 X53.885 Y91.800 Z-6.340 F2500.000
G1 X66.115 Y91.800 Z-6.340 F2500.000
G1 X66.115 Y91.800 Z-6.340 F2500.000
G1 X66.579 Y91.336 Z-6.340 F2500.000
G1 X66.115 Y91.800 Z-6.340 F2500.000
G1 X66.115 Y178.630 Z-6.340 F2500.000
G1 X66.115 Y178.630 Z-6.340 F2500.000
G1 X66.579 Y179.095 Z-6.340 F2500.000
G1 X66.115 Y178.630 Z-6.340 F2500.000
G1 X60.567 Y178.630 Z-6.340 F2500.000
G1 X60.567 Y178.630 Z-7.000 F1000.000
G1 X53.885 Y178.630 Z-7.000 F2500.000
G1 X53.421 Y179.095 Z-7.000 F2500.000
G1 X53.885 Y178.630 Z-7.000 F2500.000
G1 X53.885 Y91.800 Z-7.000 F2500.000
G1 X53.885 Y91.800 Z-7.000 F2500.000
G1 X53.421 Y91.336 Z-7.000 F2500.000
G1 X53.885 Y91.800 Z-7.000 F2500.000
G1 X66.115 Y91.800 Z-7.000 F2500.000
G1 X66.115 Y91.800 Z-7.000 F2500.000
G1 X66.579 Y91.336 Z-7.000 F2500.000
G1 X66.115 Y91.800 Z-7.000 F2500.000
G1 X66.115 Y178.630 Z-7.000 F2500.000
G1 X66.115 Y178.630 Z-7.000 F2500.000
G1 X66.579 Y179.095 Z-7.000 F2500.000
G1 X66.115 Y178.630 Z-7.000 F2500.000
G1 X60.567 Y178.630 Z-7.000 F2500.000
G0 Z5.000
G0 Y176.253 Z5.000
G0 Y176.253 Z3.000
G1 X60.567 Y176.253 Z-7.000 F1000.000
G1 X56.263 Y176.253 Z-7.000 F2500.000
G1 X55.798 Y176.717 Z-7.000 F2500.000
G1 X56.263 Y176.253 Z-7.000 F2500.000
G1 X56.263 Y94.178 Z-7.000 F2500.000
G1 X56.263 Y94.178 Z-7.000 F2500.000
G1 X55.798 Y93.714 Z-7.000 F2500.000
G1 X56.263 Y94.178 Z-7.000 F2500.000
G1 X63.737 Y94.178 Z-7.000 F2500.000
G1 X63.737 Y94.178 Z-7.000 F2500.000
G1 X64.202 Y93.714 Z-7.000 F2500.000
G1 X63.737 Y94.178 Z-7.000 F2500.000
G1 X63.737 Y176.253 Z-7.000 F2500.000
G1 X63.737 Y176.253 Z-7.000 F2500.000
G1 X64.202 Y176.717 Z-7.000 F2500.000
G1 X63.737 Y176.253 Z-7.000 F2500.000
G1 X60.567 Y176.253 Z-7.000 F2500.000
G0 Z5.000
G0 Y173.875 Z5.000
G0 Y173.875 Z3.000
G1 X60.568 Y173.875 Z-7.000 F1000.000
G1 X58.640 Y173.875 Z-7.000 F2500.000
G1 X58.176 Y174.340 Z-7.000 F2500.000
G1 X58.640 Y173.875 Z-7.000 F2500.000
G1 X58.640 Y96.555 Z-7.000 F2500.000
G1 X58.640 Y96.555 Z-7.000 F2500.000
G1 X58.176 Y96.091 Z-7.000 F2500.000
G1 X58.640 Y96.555 Z-7.000 F2500.000
G1 X61.360 Y96.555 Z-7.000 F2500.000
G1 X61.360 Y96.555 Z-7.000 F2500.000
G1 X61.824 Y96.091 Z-7.000 F2500.000
G1 X61.360 Y96.555 Z-7.000 F2500.000
G1 X61.360 Y173.875 Z-7.000 F2500.000
G1 X61.360 Y173.875 Z-7.000 F2500.000
G1 X61.824 Y174.340 Z-7.000 F2500.000
G1 X61.360 Y173.875 Z-7.000 F2500.000
G1 X60.568 Y173.875 Z-7.000 F2500.000
G0 Z5.000
G0 Y173.083 Z5.000
G0 Y173.083 Z3.000
G1 X60.568 Y173.083 Z-7.000 F1000.000
G1 X59.432 Y173.083 Z-7.000 F2500.000
G1 X58.968 Y173.547 Z-7.000 F2500.000
G1 X59.432 Y173.083 Z-7.000 F2500.000
G1 X59.432 Y97.348 Z-7.000 F2500.000
G1 X59.432 Y97.348 Z-7.000 F2500.000
G1 X58.968 Y96.884 Z-7.000 F2500.000
G1 X59.432 Y97.348 Z-7.000 F2500.000
G1 X60.568 Y97.348 Z-7.000 F2500.000
G1 X60.568 Y97.348 Z-7.000 F2500.000
G1 X61.032 Y96.884 Z-7.000 F2500.000
G1 X60.568 Y97.348 Z-7.000 F2500.000
G1 X60.568 Y173.083 Z-7.000 F2500.000
G1 X60.568 Y173.083 Z-7.000 F2500.000
G1 X61.032 Y173.547 Z-7.000 F2500.000
G1 X60.568 Y173.083 Z-7.000 F2500.000
G0 Z5.000
(Finish operation: DogboneDressup)
(Begin operation: Profile002)
(Path: Profile002)
(Profile002)
(Compensated Tool Path. Diameter: 3.17)
G0 Z5.000
G0 X61.002 Y165.996
G0 Z3.000
G1 X61.002 Y165.996 Z-10.170 F1000.000
G2 X61.415 Y164.938 Z-10.170 I-0.999 J-0.999 K0.000 F2500.000
G1 X61.415 Y135.062 Z-10.170 F2500.000
G2 X60.436 Y133.659 Z-10.170 I-1.424 J-0.049 K0.000 F2500.000
G2 X58.585 Y135.062 Z-10.170 I-0.434 J1.349 K0.000 F2500.000
G1 X58.585 Y164.938 Z-10.170 F2500.000
G1 X58.607 Y165.221 Z-10.170 F2500.000
G2 X61.002 Y165.996 Z-10.170 I1.396 J-0.224 K0.000 F2500.000
G1 X61.002 Y165.996 Z-13.340 F1000.000
G2 X61.415 Y164.938 Z-13.340 I-0.999 J-0.999 K0.000 F2500.000
G1 X61.415 Y135.062 Z-13.340 F2500.000
G2 X60.436 Y133.659 Z-13.340 I-1.424 J-0.049 K0.000 F2500.000
G2 X58.585 Y135.062 Z-13.340 I-0.434 J1.349 K0.000 F2500.000
G1 X58.585 Y164.938 Z-13.340 F2500.000
G1 X58.607 Y165.221 Z-13.340 F2500.000
G2 X61.002 Y165.996 Z-13.340 I1.396 J-0.224 K0.000 F2500.000
G1 X61.002 Y165.996 Z-15.000 F1000.000
G2 X61.415 Y164.938 Z-15.000 I-0.999 J-0.999 K0.000 F2500.000
G1 X61.415 Y135.062 Z-15.000 F2500.000
G2 X60.436 Y133.659 Z-15.000 I-1.424 J-0.049 K0.000 F2500.000
G2 X58.585 Y135.062 Z-15.000 I-0.434 J1.349 K0.000 F2500.000
G1 X58.585 Y164.938 Z-15.000 F2500.000
G1 X58.607 Y165.221 Z-15.000 F2500.000
G2 X61.002 Y165.996 Z-15.000 I1.396 J-0.224 K0.000 F2500.000
G0 Z5.000
G0 Z5.000
(Finish operation: Profile002)
(Begin operation: Profile)
(Path: Profile)
(Profile)
(Compensated Tool Path. Diameter: 3.17)
G0 Z5.000
G0 X116.727 Y281.727
G0 Z3.000
G1 X116.727 Y281.727 Z-3.170 F1000.000
G2 X121.584 Y270.057 Z-3.170 I-11.728 J-11.728 K0.000 F2500.000
G1 X121.585 Y3.000 Z-3.170 F2500.000
G2 X117.124 Y-1.580 Z-3.170 I-4.588 J0.006 K0.000 F2500.000
G1 X3.000 Y-1.585 Z-3.170 F2500.000
G2 X-1.580 Y2.876 Z-3.170 I0.006 J4.588 K0.000 F2500.000
G1 X-1.585 Y270.000 Z-3.170 F2500.000
G2 X14.943 Y286.584 Z-3.170 I16.586 J-0.002 K0.000 F2500.000
G1 X105.000 Y286.585 Z-3.170 F2500.000
G2 X116.727 Y281.727 Z-3.170 I-0.002 J-16.586 K0.000 F2500.000
G1 X116.727 Y281.727 Z-6.340 F1000.000
G2 X121.584 Y270.057 Z-6.340 I-11.728 J-11.728 K0.000 F2500.000
G1 X121.585 Y3.000 Z-6.340 F2500.000
G2 X117.124 Y-1.580 Z-6.340 I-4.588 J0.006 K0.000 F2500.000
G1 X3.000 Y-1.585 Z-6.340 F2500.000
G2 X-1.580 Y2.876 Z-6.340 I0.006 J4.588 K0.000 F2500.000
G1 X-1.585 Y270.000 Z-6.340 F2500.000
G2 X14.943 Y286.584 Z-6.340 I16.586 J-0.002 K0.000 F2500.000
G1 X105.000 Y286.585 Z-6.340 F2500.000
G2 X116.727 Y281.727 Z-6.340 I-0.002 J-16.586 K0.000 F2500.000
G1 X116.727 Y281.727 Z-9.510 F1000.000
G2 X121.584 Y270.057 Z-9.510 I-11.728 J-11.728 K0.000 F2500.000
G1 X121.585 Y3.000 Z-9.510 F2500.000
G2 X117.124 Y-1.580 Z-9.510 I-4.588 J0.006 K0.000 F2500.000
G1 X3.000 Y-1.585 Z-9.510 F2500.000
G2 X-1.580 Y2.876 Z-9.510 I0.006 J4.588 K0.000 F2500.000
G1 X-1.585 Y270.000 Z-9.510 F2500.000
G2 X14.943 Y286.584 Z-9.510 I16.586 J-0.002 K0.000 F2500.000
G1 X105.000 Y286.585 Z-9.510 F2500.000
G2 X116.727 Y281.727 Z-9.510 I-0.002 J-16.586 K0.000 F2500.000
G1 X116.727 Y281.727 Z-12.680 F1000.000
G2 X121.584 Y270.057 Z-12.680 I-11.728 J-11.728 K0.000 F2500.000
G1 X121.585 Y3.000 Z-12.680 F2500.000
G2 X117.124 Y-1.580 Z-12.680 I-4.588 J0.006 K0.000 F2500.000
G1 X3.000 Y-1.585 Z-12.680 F2500.000
G2 X-1.580 Y2.876 Z-12.680 I0.006 J4.588 K0.000 F2500.000
G1 X-1.585 Y270.000 Z-12.680 F2500.000
G2 X14.943 Y286.584 Z-12.680 I16.586 J-0.002 K0.000 F2500.000
G1 X105.000 Y286.585 Z-12.680 F2500.000
G2 X116.727 Y281.727 Z-12.680 I-0.002 J-16.586 K0.000 F2500.000
G1 X116.727 Y281.727 Z-15.000 F1000.000
G2 X121.584 Y270.057 Z-15.000 I-11.728 J-11.728 K0.000 F2500.000
G1 X121.585 Y3.000 Z-15.000 F2500.000
G2 X117.124 Y-1.580 Z-15.000 I-4.588 J0.006 K0.000 F2500.000
G1 X3.000 Y-1.585 Z-15.000 F2500.000
G2 X-1.580 Y2.876 Z-15.000 I0.006 J4.588 K0.000 F2500.000
G1 X-1.585 Y270.000 Z-15.000 F2500.000
G2 X14.943 Y286.584 Z-15.000 I16.586 J-0.002 K0.000 F2500.000
G1 X105.000 Y286.585 Z-15.000 F2500.000
G2 X116.727 Y281.727 Z-15.000 I-0.002 J-16.586 K0.000 F2500.000
G0 Z5.000
G0 Z5.000
(Finish operation: Profile)
(Begin postamble)
M5
G17 G90
M2
