;FLAVOR:Marlin
;TIME:1346
;Filament used: 1.23315m
;Layer height: 0.28
;MINX:101.024
;MINY:100.978
;MINZ:0.28
;MAXX:134.022
;MAXY:133.976
;MAXZ:12.04
;Generated with Cura_SteamEngine 5.3.0
M140 S60
M105
M190 S60
M104 S210
M105
M109 S210
M82 ;absolute extrusion mode
; Ender 3 Custom Start G-code
G92 E0 ; Reset Extruder
G28 ; Home all axes
M420 S1; autolevel recall
G1 Z2.0 F3000 ; Move Z Axis up little to prevent scratching of Heat Bed
G1 X0.1 Y20 Z0.3 F5000.0 ; Move to start position
G1 X0.1 Y200.0 Z0.3 F1500.0 E15 ; Draw the first line
G1 X0.4 Y200.0 Z0.3 F5000.0 ; Move to side a little
G1 X0.4 Y20 Z0.3 F1500.0 E30 ; Draw the second line
G92 E0 ; Reset Extruder
G1 Z2.0 F3000 ; Move Z Axis up little to prevent scratching of Heat Bed
G1 X5 Y20 Z0.3 F5000.0 ; Move over to prevent blob squish
G92 E0
G92 E0
G1 F2700 E-6.5
;LAYER_COUNT:43
;LAYER:0
M106 S255
M204 S1000
M205 X20 Y20
;MESH:rouleau-BodyPocket.stl
G0 F9000 X111.052 Y133.865 Z0.28
;TYPE:WALL-OUTER
G1 F2700 E0
G1 F1800 X111.806 Y133.771 E0.03892
G1 X112.547 Y133.615 E0.07771
G1 X113.285 Y133.396 E0.11714
G1 X113.995 Y133.118 E0.15619
G1 X114.663 Y132.791 E0.19429
G1 X115.323 Y132.398 E0.23363
G1 X115.947 Y131.953 E0.27289
G1 X116.52 Y131.467 E0.31137
G1 X117.056 Y130.93 E0.35023
G1 X117.537 Y130.363 E0.38832
G1 X117.993 Y129.725 E0.42849
G1 X118.377 Y129.081 E0.46689
G1 X118.708 Y128.405 E0.50544
G1 X118.987 Y127.69 E0.54476
G1 X119.202 Y126.97 E0.58324
G1 X119.358 Y126.226 E0.62218
G1 X119.453 Y125.469 E0.66126
G1 X119.486 Y124.696 E0.70089
G1 X119.454 Y123.943 E0.73949
G1 X119.361 Y123.203 E0.77769
G1 X119.206 Y122.458 E0.81667
G1 X118.985 Y121.714 E0.85642
G1 X118.708 Y121.005 E0.89541
G1 X118.385 Y120.346 E0.933
G1 X117.989 Y119.679 E0.97274
G1 X117.547 Y119.06 E1.01169
G1 X117.056 Y118.48 E1.05062
G1 X116.52 Y117.944 E1.08944
G1 X115.947 Y117.458 E1.12793
G1 X115.315 Y117.007 E1.1677
G1 X114.662 Y116.619 E1.2066
G1 X114.003 Y116.296 E1.24419
G1 X113.279 Y116.013 E1.28401
G1 X112.555 Y115.798 E1.32269
G1 X111.806 Y115.64 E1.3619
G1 X111.053 Y115.546 E1.40077
G1 X110.302 Y115.514 E1.43927
G1 X109.537 Y115.546 E1.47849
G1 X108.783 Y115.64 E1.51741
G1 X108.043 Y115.796 E1.55615
G1 X107.303 Y116.015 E1.59567
G1 X106.595 Y116.292 E1.63462
G1 X105.927 Y116.618 E1.67269
G1 X105.269 Y117.011 E1.71195
G1 X104.643 Y117.457 E1.75131
G1 X104.07 Y117.944 E1.78983
G1 X103.533 Y118.48 E1.8287
G1 X103.048 Y119.053 E1.86715
G1 X102.597 Y119.685 E1.90692
G1 X102.209 Y120.338 E1.94582
G1 X101.878 Y121.013 E1.98433
G1 X101.602 Y121.72 E2.0232
G1 X101.383 Y122.458 E2.06263
G1 X101.229 Y123.194 E2.10115
G1 X101.136 Y123.938 E2.13955
G1 X101.104 Y124.714 E2.17933
G1 X101.135 Y125.463 E2.21773
G1 X101.229 Y126.217 E2.25665
G1 X101.383 Y126.952 E2.29511
G1 X101.602 Y127.69 E2.33454
G1 X101.878 Y128.397 E2.37342
G1 X102.209 Y129.073 E2.41197
G1 X102.597 Y129.725 E2.45083
G1 X103.048 Y130.357 E2.4906
G1 X103.533 Y130.93 E2.52905
G1 X104.07 Y131.467 E2.56795
G1 X104.643 Y131.953 E2.60644
G1 X105.267 Y132.398 E2.64569
G1 X105.926 Y132.791 E2.68499
G1 X106.595 Y133.118 E2.72314
G1 X107.304 Y133.396 E2.76214
G1 X108.043 Y133.615 E2.80162
G1 X108.784 Y133.771 E2.84041
G1 X109.537 Y133.865 E2.87928
G1 X110.295 Y133.896 E2.91813
G1 X111.052 Y133.865 E2.95694
G0 F9000 X111.25 Y133.841
G1 F2700 E-3.54306
G0 F9000 X111.214 Y133.544
G0 X110.304 Y133.376
G0 X110.148 Y128.516
G0 X110.151 Y128.008
G1 F2700 E2.95694
G1 F1800 X109.199 Y127.827 E3.00658
G1 X108.378 Y127.402 E3.05393
G1 X107.984 Y127.074 E3.08019
G1 X107.414 Y126.333 E3.12807
G1 X107.067 Y125.433 E3.17748
G1 X106.995 Y124.503 E3.22526
G1 X107.068 Y123.974 E3.25261
G1 X107.414 Y123.078 E3.30181
G1 X107.978 Y122.343 E3.34926
G1 X108.379 Y122.008 E3.37602
G1 X109.219 Y121.577 E3.42438
G1 X109.723 Y121.448 E3.45103
G1 X110.629 Y121.415 E3.49746
G1 X111.576 Y121.656 E3.54752
G1 X112.388 Y122.144 E3.59604
G1 X112.753 Y122.49 E3.6218
G1 X113.267 Y123.257 E3.66909
G1 X113.462 Y123.745 E3.69601
G1 X113.605 Y124.681 E3.74451
G1 X113.471 Y125.63 E3.7936
G1 X113.059 Y126.524 E3.84402
G1 X112.416 Y127.243 E3.89343
G1 X112.027 Y127.524 E3.91801
G1 X111.135 Y127.905 E3.96769
G1 X110.151 Y128.008 E4.01836
G0 F9000 X109.955 Y127.971
G0 X110.152 Y128.415
;TYPE:WALL-INNER
G1 F1800 X109.066 Y128.209 E4.06726
G1 X108.14 Y127.729 E4.1134
G1 X107.701 Y127.357 E4.13885
G1 X107.069 Y126.546 E4.18434
G1 X106.667 Y125.503 E4.23378
G1 X106.595 Y124.462 E4.27994
G1 X106.688 Y123.843 E4.30763
G1 X107.07 Y122.865 E4.35408
G1 X107.689 Y122.061 E4.39896
G1 X108.175 Y121.664 E4.42672
G1 X109.069 Y121.203 E4.47122
G1 X109.673 Y121.051 E4.49877
G1 X110.667 Y121.012 E4.54277
G1 X111.716 Y121.274 E4.5906
G1 X112.673 Y121.857 E4.64017
G1 X113.059 Y122.231 E4.66395
G1 X113.635 Y123.095 E4.70988
G1 X113.856 Y123.655 E4.73652
G1 X114.007 Y124.69 E4.78278
G1 X113.857 Y125.759 E4.83054
G1 X113.4 Y126.74 E4.87841
G1 X112.661 Y127.562 E4.92731
G1 X112.232 Y127.868 E4.95062
G1 X111.26 Y128.292 E4.99753
G1 X110.152 Y128.415 E5.04684
G1 F2700 E-1.45316
G0 F9000 X110.682 Y133.361
G0 X111.019 Y133.466
G1 F2700 E5.04684
G1 F1800 X111.74 Y133.376 E5.07898
G1 X112.449 Y133.227 E5.11103
G1 X113.155 Y133.018 E5.1436
G1 X113.834 Y132.752 E5.17586
G1 X114.473 Y132.439 E5.20734
G1 X115.104 Y132.063 E5.23983
G1 X115.701 Y131.637 E5.27227
G1 X116.249 Y131.173 E5.30404
G1 X116.762 Y130.659 E5.33616
G1 X117.221 Y130.117 E5.36758
G1 X117.658 Y129.506 E5.40081
G1 X118.025 Y128.89 E5.43253
G1 X118.342 Y128.244 E5.46436
G1 X118.608 Y127.56 E5.49682
G1 X118.814 Y126.872 E5.52859
G1 X118.963 Y126.16 E5.56077
G1 X119.054 Y125.435 E5.59309
G1 X119.086 Y124.696 E5.62581
G1 X119.055 Y123.977 E5.65765
G1 X118.966 Y123.269 E5.68921
G1 X118.818 Y122.556 E5.72143
G1 X118.607 Y121.844 E5.75428
G1 X118.342 Y121.166 E5.78648
G1 X118.033 Y120.536 E5.81752
G1 X117.653 Y119.898 E5.85037
G1 X117.231 Y119.306 E5.88253
G1 X116.762 Y118.751 E5.91467
G1 X116.249 Y118.238 E5.94676
G1 X115.701 Y117.774 E5.97853
G1 X115.096 Y117.343 E6.01139
G1 X114.472 Y116.971 E6.04352
G1 X113.842 Y116.662 E6.07456
G1 X113.149 Y116.392 E6.10746
G1 X112.457 Y116.186 E6.1394
G1 X111.74 Y116.035 E6.17182
G1 X111.019 Y115.945 E6.20396
G1 X110.302 Y115.914 E6.2357
G1 X109.57 Y115.945 E6.26811
G1 X108.849 Y116.035 E6.30026
G1 X108.141 Y116.184 E6.33226
G1 X107.433 Y116.393 E6.36492
G1 X106.756 Y116.658 E6.39708
G1 X106.118 Y116.97 E6.42849
G1 X105.488 Y117.346 E6.46095
G1 X104.889 Y117.773 E6.49349
G1 X104.341 Y118.239 E6.52531
G1 X103.827 Y118.751 E6.5574
G1 X103.364 Y119.299 E6.58914
G1 X102.932 Y119.904 E6.62202
G1 X102.561 Y120.529 E6.65417
G1 X102.244 Y121.174 E6.68597
G1 X101.981 Y121.85 E6.71805
G1 X101.771 Y122.556 E6.75064
G1 X101.624 Y123.26 E6.78245
G1 X101.535 Y123.971 E6.81415
G1 X101.504 Y124.714 E6.84704
G1 X101.534 Y125.43 E6.87874
G1 X101.624 Y126.151 E6.91089
G1 X101.771 Y126.854 E6.94266
G1 X101.98 Y127.56 E6.97523
G1 X102.244 Y128.236 E7.00733
G1 X102.561 Y128.882 E7.03916
G1 X102.932 Y129.506 E7.07127
G1 X103.364 Y130.111 E7.10416
G1 X103.827 Y130.659 E7.13589
G1 X104.341 Y131.172 E7.16802
G1 X104.889 Y131.637 E7.19981
G1 X105.486 Y132.063 E7.23225
G1 X106.116 Y132.439 E7.26471
G1 X106.756 Y132.752 E7.29622
G1 X107.434 Y133.017 E7.32843
G1 X108.141 Y133.227 E7.36105
G1 X108.85 Y133.376 E7.3931
G1 X109.57 Y133.466 E7.4252
G1 X110.295 Y133.496 E7.4573
G1 X111.019 Y133.466 E7.48935
G0 F9000 X110.987 Y133.147
;TYPE:SKIN
G1 F1320 X111.689 Y133.059 E7.51752
G1 X112.37 Y132.915 E7.54523
G1 X113.053 Y132.713 E7.57359
G1 X113.708 Y132.455 E7.60161
G1 X114.316 Y132.158 E7.62855
G1 X114.931 Y131.791 E7.65706
G1 X115.507 Y131.38 E7.68524
G1 X116.028 Y130.939 E7.71241
G1 X116.527 Y130.438 E7.74056
G1 X116.965 Y129.922 E7.76751
G1 X117.39 Y129.327 E7.79662
G1 X117.744 Y128.734 E7.82412
G1 X118.049 Y128.111 E7.85173
G1 X118.306 Y127.452 E7.87989
G1 X118.504 Y126.789 E7.90744
G1 X118.645 Y126.11 E7.93505
G1 X118.734 Y125.404 E7.96338
G1 X118.765 Y124.691 E7.99179
G1 X118.736 Y124.008 E8.01901
G1 X118.649 Y123.319 E8.04666
G1 X118.506 Y122.63 E8.07467
G1 X118.302 Y121.946 E8.10309
G1 X118.045 Y121.292 E8.13106
G1 X117.751 Y120.692 E8.15767
G1 X117.382 Y120.07 E8.18646
G1 X116.975 Y119.501 E8.21431
G1 X116.527 Y118.972 E8.24191
G1 X116.028 Y118.472 E8.27003
G1 X115.507 Y118.03 E8.29723
G1 X114.918 Y117.61 E8.32603
G1 X114.315 Y117.253 E8.35393
G1 X113.716 Y116.959 E8.3805
G1 X113.041 Y116.694 E8.40937
G1 X112.378 Y116.498 E8.43689
G1 X111.689 Y116.352 E8.46493
G1 X110.988 Y116.264 E8.49306
G1 X110.301 Y116.236 E8.52043
G1 X109.602 Y116.264 E8.54829
G1 X108.9 Y116.353 E8.57646
G1 X108.219 Y116.496 E8.60416
G1 X107.534 Y116.698 E8.63259
G1 X106.881 Y116.954 E8.66052
G1 X106.274 Y117.251 E8.68742
G1 X105.661 Y117.618 E8.71587
G1 X105.083 Y118.029 E8.7441
G1 X104.562 Y118.473 E8.77135
G1 X104.061 Y118.972 E8.79951
G1 X103.621 Y119.493 E8.82666
G1 X103.2 Y120.082 E8.85548
G1 X102.843 Y120.685 E8.88338
G1 X102.537 Y121.307 E8.91098
G1 X102.283 Y121.957 E8.93876
G1 X102.081 Y122.638 E8.96704
G1 X101.941 Y123.31 E8.99437
G1 X101.855 Y124.003 E9.02217
G1 X101.826 Y124.72 E9.05074
G1 X101.853 Y125.398 E9.07775
G1 X101.942 Y126.101 E9.10596
G1 X102.081 Y126.772 E9.13325
G1 X102.283 Y127.453 E9.16153
G1 X102.537 Y128.103 E9.18931
G1 X102.843 Y128.726 E9.21694
G1 X103.2 Y129.327 E9.24477
G1 X103.621 Y129.917 E9.27363
G1 X104.062 Y130.438 E9.3008
G1 X104.562 Y130.938 E9.32896
G1 X105.084 Y131.381 E9.35621
G1 X105.659 Y131.791 E9.38433
G1 X106.273 Y132.157 E9.41279
G1 X106.883 Y132.455 E9.43982
G1 X107.54 Y132.714 E9.46793
G1 X108.219 Y132.915 E9.49612
G1 X108.9 Y133.058 E9.52383
G1 X109.601 Y133.146 E9.55195
G1 X110.296 Y133.175 E9.57965
G1 X110.987 Y133.147 E9.60718
G1 F2700 E3.10718
G0 F9000 X110.999 Y133.448
G0 X110.148 Y128.516
G0 X110.138 Y128.737
G1 F2700 E9.60718
G1 F1320 X108.949 Y128.51 E9.65537
G1 X107.983 Y128.007 E9.69873
G1 X107.463 Y127.578 E9.72557
G1 X106.779 Y126.691 E9.77017
G1 X106.359 Y125.599 E9.81675
G1 X106.277 Y124.424 E9.86364
G1 X106.363 Y123.803 E9.8886
G1 X106.781 Y122.719 E9.93485
G1 X107.445 Y121.853 E9.9783
G1 X107.968 Y121.412 E10.00553
G1 X108.956 Y120.903 E10.04978
G1 X109.636 Y120.73 E10.07772
G1 X110.686 Y120.692 E10.11955
G1 X111.833 Y120.975 E10.16658
G1 X112.85 Y121.584 E10.21378
G1 X113.303 Y122.023 E10.23889
G1 X113.904 Y122.915 E10.28171
G1 X114.166 Y123.569 E10.30976
G1 X114.328 Y124.701 E10.35529
G1 X114.169 Y125.846 E10.40131
G1 X113.657 Y126.937 E10.44929
G1 X112.905 Y127.778 E10.4942
G1 X112.379 Y128.155 E10.51997
G1 X111.33 Y128.611 E10.56551
G1 X110.138 Y128.737 E10.61323
G1 F2700 E4.11323
G0 F9000 X110.151 Y128.436
G0 X108.097 Y127.819
G0 X105.268 Y131.784
G0 X105.168 Y131.19
G1 F2700 E10.61323
G1 F1320 X103.818 Y129.839 E10.68927
G0 F9000 X103.435 Y130.162
G0 X102.418 Y128.544
G0 X102.868 Y128.324
G1 F1320 X106.674 Y132.129 E10.90353
G0 F9000 X106.454 Y132.579
G0 X107.503 Y133.016
G0 X107.646 Y132.536
G1 F1320 X102.46 Y127.35 E11.19552
G0 F9000 X102.242 Y126.567
G1 F1320 X108.429 Y132.753 E11.54384
G0 F9000 X109.124 Y132.883
G1 F1320 X102.115 Y125.874 E11.93847
G0 F9000 X102.046 Y125.239
G1 F1320 X109.757 Y132.95 E12.37262
G0 F9000 X110.344 Y132.972
G1 F1320 X102.027 Y124.655 E12.84089
G0 F9000 X102.051 Y124.112
G1 F1320 X110.887 Y132.949 E13.33842
G0 F9000 X111.396 Y132.892
G1 F1320 X102.106 Y123.602 E13.86147
G0 F9000 X102.185 Y123.115
G1 F1320 X111.881 Y132.812 E14.40742
G0 F9000 X112.347 Y132.711
G1 F1320 X107.509 Y127.874 E14.67978
G0 F9000 X107.212 Y127.576
G1 F1320 X102.285 Y122.65 E14.95716
G0 F9000 X102.415 Y122.214
G1 F1320 X106.36 Y126.159 E15.17928
G0 F9000 X106.138 Y125.371
G1 F1320 X102.56 Y121.794 E15.3807
G0 F9000 X102.719 Y121.387
G1 F1320 X106.095 Y124.763 E15.57078
G0 F9000 X106.106 Y124.208
G1 F1320 X102.905 Y121.007 E15.75101
G0 F9000 X103.101 Y120.638
G1 F1320 X106.179 Y123.715 E15.92428
G0 F9000 X106.338 Y123.309
G1 F1320 X103.312 Y120.283 E16.09466
G0 F9000 X103.541 Y119.946
G1 F1320 X106.498 Y122.903 E16.26114
G0 F9000 X106.681 Y122.52
G1 F1320 X103.777 Y119.617 E16.42462
G0 F9000 X104.036 Y119.31
G1 F1320 X106.927 Y122.2 E16.58737
G0 F9000 X107.173 Y121.881
G1 F1320 X104.304 Y119.012 E16.7489
G0 F9000 X104.587 Y118.729
G1 F1320 X107.446 Y121.589 E16.9099
G0 F9000 X107.753 Y121.33
G1 F1320 X104.884 Y118.46 E17.07146
G0 F9000 X105.189 Y118.2
G1 F1320 X108.105 Y121.116 E17.23564
G0 F9000 X108.477 Y120.923
G1 F1320 X105.519 Y117.964 E17.40221
G0 F9000 X105.855 Y117.734
G1 F1320 X108.851 Y120.73 E17.5709
G0 F9000 X109.293 Y120.606
G1 F1320 X106.209 Y117.523 E17.74451
G0 F9000 X106.577 Y117.325
G1 F1320 X109.775 Y120.523 E17.92457
G0 F9000 X110.322 Y120.504
G1 F1320 X106.956 Y117.138 E18.11408
G0 F9000 X107.362 Y116.979
G1 F1320 X110.923 Y120.54 E18.31458
G0 F9000 X111.68 Y120.731
G1 F1320 X107.782 Y116.833 E18.53405
G0 F9000 X108.219 Y116.704
G1 F1320 X112.885 Y121.37 E18.79676
G0 F9000 X113.562 Y122.048
G1 F1320 X118.297 Y126.782 E19.06333
G0 F9000 X118.167 Y127.218
G1 F1320 X114.291 Y123.342 E19.28156
G0 F9000 X114.438 Y124.054
G1 F1320 X118.019 Y127.636 E19.48321
G0 F9000 X117.859 Y128.042
G1 F1320 X114.527 Y124.709 E19.67084
G0 F9000 X114.457 Y125.205
G1 F1320 X117.673 Y128.421 E19.85191
G0 F9000 X117.477 Y128.791
G1 F1320 X114.387 Y125.7 E20.02591
G0 F9000 X114.252 Y126.131
G1 F1320 X117.265 Y129.144 E20.19556
G0 F9000 X117.034 Y129.479
G1 F1320 X114.073 Y126.518 E20.36227
G0 F9000 X113.894 Y126.905
G1 F1320 X116.798 Y129.809 E20.52577
G0 F9000 X116.538 Y130.114
G1 F1320 X113.656 Y127.233 E20.68801
G0 F9000 X113.388 Y127.53
G1 F1320 X116.27 Y130.412 E20.85028
G0 F9000 X115.987 Y130.695
G1 F1320 X113.121 Y127.829 E21.01164
G0 F9000 X112.816 Y128.089
G1 F1320 X115.689 Y130.962 E21.1734
G0 F9000 X115.382 Y131.221
G1 F1320 X112.485 Y128.324 E21.33651
G0 F9000 X112.091 Y128.496
G1 F1320 X115.051 Y131.456 E21.50317
G0 F9000 X114.714 Y131.685
G1 F1320 X111.698 Y128.668 E21.67301
G0 F9000 X111.278 Y128.815
G1 F1320 X114.36 Y131.896 E21.84651
G0 F9000 X113.99 Y132.092
G1 F1320 X110.768 Y128.87 E22.02792
G0 F9000 X110.258 Y128.926
G1 F1320 X113.61 Y132.277 E22.21662
G0 F9000 X113.204 Y132.437
G1 F1320 X109.607 Y128.841 E22.41911
G0 F9000 X108.91 Y128.709
G1 F1320 X112.784 Y132.583 E22.63723
G0 F9000 X112.926 Y133.064
G0 X114.434 Y132.368
G0 X115.651 Y131.573
G0 X116.702 Y130.604
G0 X117.59 Y129.461
G0 X118.267 Y128.212
G0 X118.887 Y126.42
G0 X118.398 Y126.318
G1 F1320 X108.683 Y116.603 E23.18422
G0 F9000 X109.166 Y116.52
G1 F1320 X118.479 Y125.833 E23.70857
G0 F9000 X118.537 Y125.325
G1 F1320 X109.672 Y116.461 E24.20767
G0 F9000 X110.216 Y116.439
G1 F1320 X118.561 Y124.783 E24.67749
G0 F9000 X118.545 Y124.201
G1 F1320 X110.8 Y116.456 E25.11356
G0 F9000 X111.429 Y116.52
G1 F1320 X118.48 Y123.571 E25.51055
G0 F9000 X118.354 Y122.88
G1 F1320 X112.122 Y116.647 E25.86146
G0 F9000 X112.9 Y116.86
G1 F1320 X118.139 Y122.099 E26.15643
G0 F9000 X118.619 Y121.957
G0 X118.2 Y120.926
G0 X117.75 Y121.145
G1 F1320 X113.855 Y117.249 E26.37576
G0 F9000 X114.074 Y116.801
G0 X115.586 Y117.718
G0 X115.295 Y118.124
G1 F1320 X116.874 Y119.703 E26.46467
G1 F2700 E19.96467
;MESH:rouleau-BodyPocket.stl(1)
G0 F9000 X117.282 Y119.412
G0 X118.193 Y120.448
G0 X119.277 Y119.916
G0 X122.193 Y120.103
G0 X123.984 Y119.407
;TYPE:WALL-OUTER
G1 F2700 E26.46467
G1 F1800 X124.752 Y119.439 E26.50404
G1 X125.508 Y119.408 E26.54279
G1 X126.253 Y119.315 E26.58125
G1 X126.995 Y119.16 E26.62007
G1 X127.741 Y118.939 E26.65993
G1 X128.451 Y118.661 E26.69898
G1 X129.111 Y118.338 E26.73662
G1 X129.779 Y117.942 E26.77639
G1 X130.396 Y117.501 E26.81524
G1 X130.976 Y117.01 E26.85416
G1 X131.512 Y116.474 E26.89299
G1 X131.999 Y115.9 E26.93155
G1 X132.449 Y115.269 E26.97124
G1 X132.837 Y114.616 E27.01015
G1 X133.164 Y113.949 E27.0482
G1 X133.443 Y113.233 E27.08756
G1 X133.66 Y112.505 E27.12647
G1 X133.816 Y111.76 E27.16545
G1 X133.91 Y111.007 E27.20432
G1 X133.942 Y110.248 E27.24323
G1 X133.91 Y109.485 E27.28235
G1 X133.816 Y108.737 E27.32096
G1 X133.66 Y107.993 E27.3599
G1 X133.441 Y107.258 E27.39918
G1 X133.164 Y106.548 E27.43822
G1 X132.837 Y105.881 E27.47627
G1 X132.445 Y105.222 E27.51554
