(Exported by FreeCAD)
(Post Processor: grbl_post)
(Output Time:2025-06-22 13:51:42.379218)
(Begin preamble)
G17 G90
G21
(Begin operation: TC: 1.5 z2 Q009)
(Path: TC: 1.5 z2 Q009)
(TC: 1.5 z2 Q009)
(Begin toolchange)
( M6 T4 )
M3 S24000
(Finish operation: TC: 1.5 z2 Q009)
(Begin operation: Fixture)
(Path: Fixture)
G54
(Finish operation: Fixture)
(Begin operation: DressupPathBoundary)
(Path: DressupPathBoundary)
(Profile)
(Compensated Tool Path. Diameter: 1.48)
G0 Z3.000
G0 Z5.000
G0 X-0.620 Y6.773
G0 Z3.000
G1 Z1.000 F100.000
G1 X-0.620 Y6.773 Z-3.296 F100.000
G2 X0.005 Y6.340 Z-3.296 I-4.056 J-6.515 K0.000 F400.000
G2 X0.511 Y5.461 Z-3.296 I-1.321 J-1.347 K0.000 F400.000
G2 X0.707 Y3.997 Z-3.296 I-9.321 J-1.988 K0.000 F400.000
G2 X0.700 Y3.279 Z-3.296 I-3.787 J-0.324 K0.000 F400.000
G1 X0.361 Y2.303 Z-3.296 F400.000
G2 X-0.557 Y1.369 Z-3.296 I-2.189 J1.234 K0.000 F400.000
G2 X-2.137 Y0.550 Z-3.296 I-45.747 J86.251 K0.000 F400.000
G2 X-3.734 Y-0.069 Z-3.296 I-2.116 J3.091 K0.000 F400.000
G3 X-4.504 Y-0.238 Z-3.296 I0.003 J-1.857 K0.000 F400.000
G2 X-5.858 Y-0.728 Z-3.296 I-2.381 J4.461 K0.000 F400.000
G2 X-7.771 Y-0.740 Z-3.296 I-1.128 J27.777 K0.000 F400.000
G2 X-8.768 Y-0.142 Z-3.296 I0.249 J1.545 K0.000 F400.000
G3 X-9.457 Y0.535 Z-3.296 I-2.682 J-2.042 K0.000 F400.000
G1 X-9.748 Y0.535 Z-3.296 F400.000
G1 X-9.764 Y0.516 Z-3.296 F400.000
G2 X-10.421 Y-0.067 Z-3.296 I-1.316 J0.822 K0.000 F400.000
G2 X-11.180 Y-0.089 Z-3.296 I-0.536 J5.422 K0.000 F400.000
G3 X-12.465 Y-0.676 Z-3.296 I7.158 J-17.369 K0.000 F400.000
G2 X-13.429 Y-0.713 Z-3.296 I-0.601 J3.024 K0.000 F400.000
G2 X-13.825 Y-0.599 Z-3.296 I-0.001 J0.740 K0.000 F400.000
G2 X-14.332 Y-0.103 Z-3.296 I3.196 J3.775 K0.000 F400.000
G3 X-14.581 Y-0.095 Z-3.296 I-0.201 J-2.245 K0.000 F400.000
G2 X-15.391 Y0.099 Z-3.296 I-0.178 J1.042 K0.000 F400.000
G3 X-16.367 Y0.551 Z-3.296 I-1.772 J-2.550 K0.000 F400.000
G3 X-16.775 Y0.533 Z-3.296 I-0.157 J-1.113 K0.000 F400.000
G2 X-17.375 Y-0.027 Z-3.296 I-2.016 J1.559 K0.000 F400.000
G2 X-18.113 Y-0.091 Z-3.296 I-0.574 J2.311 K0.000 F400.000
G3 X-18.282 Y-0.252 Z-3.296 I0.835 J-1.050 K0.000 F400.000
G2 X-19.163 Y-0.713 Z-3.296 I-0.831 J0.515 K0.000 F400.000
G1 X-20.030 Y-0.713 Z-3.296 F400.000
G0 Z3.000
G0 Z5.000
G0 X-20.030 Y8.925
G0 Z3.000
G1 Z-3.296 F100.000
G1 X-19.024 Y8.925 Z-3.296 F400.000
G1 X-18.772 Y8.881 Z-3.296 F400.000
G2 X-18.065 Y8.254 Z-3.296 I-0.997 J-1.836 K0.000 F400.000
G2 X-17.229 Y8.137 Z-3.296 I0.218 J-1.486 K0.000 F400.000
G3 X-16.682 Y7.591 Z-3.296 I8.223 J7.701 K0.000 F400.000
G3 X-16.447 Y7.594 Z-3.296 I0.106 J1.145 K0.000 F400.000
G2 X-16.182 Y7.738 Z-3.296 I0.355 J-0.334 K0.000 F400.000
G3 X-15.457 Y8.007 Z-3.296 I-0.636 J2.825 K0.000 F400.000
G2 X-14.788 Y8.254 Z-3.296 I0.729 J-0.950 K0.000 F400.000
G3 X-14.326 Y8.264 Z-3.296 I0.202 J1.240 K0.000 F400.000
G2 X-14.110 Y8.485 Z-3.296 I0.804 J-0.573 K0.000 F400.000
G1 X-14.109 Y8.484 Z-3.296 F400.000
G2 X-13.742 Y8.785 Z-3.296 I2.564 J-2.747 K0.000 F400.000
G2 X-12.339 Y8.815 Z-3.296 I0.751 J-2.298 K0.000 F400.000
G3 X-11.268 Y8.260 Z-3.296 I2.367 J3.250 K0.000 F400.000
G2 X-10.528 Y8.244 Z-3.296 I0.294 J-3.563 K0.000 F400.000
G2 X-9.845 Y7.710 Z-3.296 I-0.533 J-1.386 K0.000 F400.000
G3 X-9.387 Y7.659 Z-3.296 I0.251 J0.172 K0.000 F400.000
G3 X-8.491 Y8.552 Z-3.296 I-10.372 J11.299 K0.000 F400.000
G2 X-7.989 Y8.853 Z-3.296 I0.829 J-0.812 K0.000 F400.000
G2 X-5.696 Y8.825 Z-3.296 I1.027 J-9.866 K0.000 F400.000
G2 X-4.177 Y8.227 Z-3.296 I-40.145 J-104.189 K0.000 F400.000
G2 X-3.146 Y8.044 Z-3.296 I-0.003 J-3.000 K0.000 F400.000
G2 X-1.673 Y7.321 Z-3.296 I-2.737 J-7.441 K0.000 F400.000
G2 X-0.620 Y6.773 Z-3.296 I-3.003 J-7.063 K0.000 F400.000
G1 X-0.620 Y6.773 Z-3.592 F100.000
G2 X0.005 Y6.340 Z-3.592 I-4.056 J-6.515 K0.000 F400.000
G2 X0.511 Y5.461 Z-3.592 I-1.321 J-1.347 K0.000 F400.000
G2 X0.707 Y3.997 Z-3.592 I-9.321 J-1.988 K0.000 F400.000
G2 X0.700 Y3.279 Z-3.592 I-3.787 J-0.324 K0.000 F400.000
G1 X0.361 Y2.303 Z-3.592 F400.000
G2 X-0.557 Y1.369 Z-3.592 I-2.189 J1.234 K0.000 F400.000
G2 X-2.137 Y0.550 Z-3.592 I-45.747 J86.251 K0.000 F400.000
G2 X-3.734 Y-0.069 Z-3.592 I-2.116 J3.091 K0.000 F400.000
G3 X-4.504 Y-0.238 Z-3.592 I0.003 J-1.857 K0.000 F400.000
G2 X-5.858 Y-0.728 Z-3.592 I-2.381 J4.461 K0.000 F400.000
G2 X-7.771 Y-0.740 Z-3.592 I-1.128 J27.777 K0.000 F400.000
G2 X-8.768 Y-0.142 Z-3.592 I0.249 J1.545 K0.000 F400.000
G3 X-9.457 Y0.535 Z-3.592 I-2.682 J-2.042 K0.000 F400.000
G1 X-9.748 Y0.535 Z-3.592 F400.000
G1 X-9.764 Y0.516 Z-3.592 F400.000
G2 X-10.421 Y-0.067 Z-3.592 I-1.316 J0.822 K0.000 F400.000
G2 X-11.180 Y-0.089 Z-3.592 I-0.536 J5.422 K0.000 F400.000
G3 X-12.465 Y-0.676 Z-3.592 I7.158 J-17.369 K0.000 F400.000
G2 X-13.429 Y-0.713 Z-3.592 I-0.601 J3.024 K0.000 F400.000
G2 X-13.825 Y-0.599 Z-3.592 I-0.001 J0.740 K0.000 F400.000
G2 X-14.332 Y-0.103 Z-3.592 I3.196 J3.775 K0.000 F400.000
G3 X-14.581 Y-0.095 Z-3.592 I-0.201 J-2.245 K0.000 F400.000
G2 X-15.391 Y0.099 Z-3.592 I-0.178 J1.042 K0.000 F400.000
G3 X-16.367 Y0.551 Z-3.592 I-1.772 J-2.550 K0.000 F400.000
G3 X-16.775 Y0.533 Z-3.592 I-0.157 J-1.113 K0.000 F400.000
G2 X-17.375 Y-0.027 Z-3.592 I-2.016 J1.559 K0.000 F400.000
G2 X-18.113 Y-0.091 Z-3.592 I-0.574 J2.311 K0.000 F400.000
G3 X-18.282 Y-0.252 Z-3.592 I0.835 J-1.050 K0.000 F400.000
G2 X-19.163 Y-0.713 Z-3.592 I-0.831 J0.515 K0.000 F400.000
G1 X-20.030 Y-0.713 Z-3.592 F400.000
G0 Z3.000
G0 Z5.000
G0 X-20.030 Y8.925
G0 Z3.000
G1 Z-3.592 F100.000
G1 X-19.024 Y8.925 Z-3.592 F400.000
G1 X-18.772 Y8.881 Z-3.592 F400.000
G2 X-18.065 Y8.254 Z-3.592 I-0.997 J-1.836 K0.000 F400.000
G2 X-17.229 Y8.137 Z-3.592 I0.218 J-1.486 K0.000 F400.000
G3 X-16.682 Y7.591 Z-3.592 I8.223 J7.701 K0.000 F400.000
G3 X-16.447 Y7.594 Z-3.592 I0.106 J1.145 K0.000 F400.000
G2 X-16.182 Y7.738 Z-3.592 I0.355 J-0.334 K0.000 F400.000
G3 X-15.457 Y8.007 Z-3.592 I-0.636 J2.825 K0.000 F400.000
G2 X-14.788 Y8.254 Z-3.592 I0.729 J-0.950 K0.000 F400.000
G3 X-14.326 Y8.264 Z-3.592 I0.202 J1.240 K0.000 F400.000
G2 X-14.110 Y8.485 Z-3.592 I0.804 J-0.573 K0.000 F400.000
G1 X-14.109 Y8.484 Z-3.592 F400.000
G2 X-13.742 Y8.785 Z-3.592 I2.564 J-2.747 K0.000 F400.000
G2 X-12.339 Y8.815 Z-3.592 I0.751 J-2.298 K0.000 F400.000
G3 X-11.268 Y8.260 Z-3.592 I2.367 J3.250 K0.000 F400.000
G2 X-10.528 Y8.244 Z-3.592 I0.294 J-3.563 K0.000 F400.000
G2 X-9.845 Y7.710 Z-3.592 I-0.533 J-1.386 K0.000 F400.000
G3 X-9.387 Y7.659 Z-3.592 I0.251 J0.172 K0.000 F400.000
G3 X-8.491 Y8.552 Z-3.592 I-10.372 J11.299 K0.000 F400.000
G2 X-7.989 Y8.853 Z-3.592 I0.829 J-0.812 K0.000 F400.000
G2 X-5.696 Y8.825 Z-3.592 I1.027 J-9.866 K0.000 F400.000
G2 X-4.177 Y8.227 Z-3.592 I-40.145 J-104.189 K0.000 F400.000
G2 X-3.146 Y8.044 Z-3.592 I-0.003 J-3.000 K0.000 F400.000
G2 X-1.673 Y7.321 Z-3.592 I-2.737 J-7.441 K0.000 F400.000
G2 X-0.620 Y6.773 Z-3.592 I-3.003 J-7.063 K0.000 F400.000
G1 X-0.620 Y6.773 Z-3.888 F100.000
G2 X0.005 Y6.340 Z-3.888 I-4.056 J-6.515 K0.000 F400.000
G2 X0.511 Y5.461 Z-3.888 I-1.321 J-1.347 K0.000 F400.000
G2 X0.707 Y3.997 Z-3.888 I-9.321 J-1.988 K0.000 F400.000
G2 X0.700 Y3.279 Z-3.888 I-3.787 J-0.324 K0.000 F400.000
G1 X0.361 Y2.303 Z-3.888 F400.000
G2 X-0.557 Y1.369 Z-3.888 I-2.189 J1.234 K0.000 F400.000
G2 X-2.137 Y0.550 Z-3.888 I-45.747 J86.251 K0.000 F400.000
G2 X-3.734 Y-0.069 Z-3.888 I-2.116 J3.091 K0.000 F400.000
G3 X-4.504 Y-0.238 Z-3.888 I0.003 J-1.857 K0.000 F400.000
G2 X-5.858 Y-0.728 Z-3.888 I-2.381 J4.461 K0.000 F400.000
G2 X-7.771 Y-0.740 Z-3.888 I-1.128 J27.777 K0.000 F400.000
G2 X-8.768 Y-0.142 Z-3.888 I0.249 J1.545 K0.000 F400.000
G3 X-9.457 Y0.535 Z-3.888 I-2.682 J-2.042 K0.000 F400.000
G1 X-9.748 Y0.535 Z-3.888 F400.000
G1 X-9.764 Y0.516 Z-3.888 F400.000
G2 X-10.421 Y-0.067 Z-3.888 I-1.316 J0.822 K0.000 F400.000
G2 X-11.180 Y-0.089 Z-3.888 I-0.536 J5.422 K0.000 F400.000
G3 X-12.465 Y-0.676 Z-3.888 I7.158 J-17.369 K0.000 F400.000
G2 X-13.429 Y-0.713 Z-3.888 I-0.601 J3.024 K0.000 F400.000
G2 X-13.825 Y-0.599 Z-3.888 I-0.001 J0.740 K0.000 F400.000
G2 X-14.332 Y-0.103 Z-3.888 I3.196 J3.775 K0.000 F400.000
G3 X-14.581 Y-0.095 Z-3.888 I-0.201 J-2.245 K0.000 F400.000
G2 X-15.391 Y0.099 Z-3.888 I-0.178 J1.042 K0.000 F400.000
G3 X-16.367 Y0.551 Z-3.888 I-1.772 J-2.550 K0.000 F400.000
G3 X-16.775 Y0.533 Z-3.888 I-0.157 J-1.113 K0.000 F400.000
G2 X-17.375 Y-0.027 Z-3.888 I-2.016 J1.559 K0.000 F400.000
G2 X-18.113 Y-0.091 Z-3.888 I-0.574 J2.311 K0.000 F400.000
G3 X-18.282 Y-0.252 Z-3.888 I0.835 J-1.050 K0.000 F400.000
G2 X-19.163 Y-0.713 Z-3.888 I-0.831 J0.515 K0.000 F400.000
G1 X-20.030 Y-0.713 Z-3.888 F400.000
G0 Z3.000
G0 Z5.000
G0 X-20.030 Y8.925
G0 Z3.000
G1 Z-3.888 F100.000
G1 X-19.024 Y8.925 Z-3.888 F400.000
G1 X-18.772 Y8.881 Z-3.888 F400.000
G2 X-18.065 Y8.254 Z-3.888 I-0.997 J-1.836 K0.000 F400.000
G2 X-17.229 Y8.137 Z-3.888 I0.218 J-1.486 K0.000 F400.000
G3 X-16.682 Y7.591 Z-3.888 I8.223 J7.701 K0.000 F400.000
G3 X-16.447 Y7.594 Z-3.888 I0.106 J1.145 K0.000 F400.000
G2 X-16.182 Y7.738 Z-3.888 I0.355 J-0.334 K0.000 F400.000
G3 X-15.457 Y8.007 Z-3.888 I-0.636 J2.825 K0.000 F400.000
G2 X-14.788 Y8.254 Z-3.888 I0.729 J-0.950 K0.000 F400.000
G3 X-14.326 Y8.264 Z-3.888 I0.202 J1.240 K0.000 F400.000
G2 X-14.110 Y8.485 Z-3.888 I0.804 J-0.573 K0.000 F400.000
G1 X-14.109 Y8.484 Z-3.888 F400.000
G2 X-13.742 Y8.785 Z-3.888 I2.564 J-2.747 K0.000 F400.000
G2 X-12.339 Y8.815 Z-3.888 I0.751 J-2.298 K0.000 F400.000
G3 X-11.268 Y8.260 Z-3.888 I2.367 J3.250 K0.000 F400.000
G2 X-10.528 Y8.244 Z-3.888 I0.294 J-3.563 K0.000 F400.000
G2 X-9.845 Y7.710 Z-3.888 I-0.533 J-1.386 K0.000 F400.000
G3 X-9.387 Y7.659 Z-3.888 I0.251 J0.172 K0.000 F400.000
G3 X-8.491 Y8.552 Z-3.888 I-10.372 J11.299 K0.000 F400.000
G2 X-7.989 Y8.853 Z-3.888 I0.829 J-0.812 K0.000 F400.000
G2 X-5.696 Y8.825 Z-3.888 I1.027 J-9.866 K0.000 F400.000
G2 X-4.177 Y8.227 Z-3.888 I-40.145 J-104.189 K0.000 F400.000
G2 X-3.146 Y8.044 Z-3.888 I-0.003 J-3.000 K0.000 F400.000
G2 X-1.673 Y7.321 Z-3.888 I-2.737 J-7.441 K0.000 F400.000
G2 X-0.620 Y6.773 Z-3.888 I-3.003 J-7.063 K0.000 F400.000
G1 X-0.620 Y6.773 Z-4.184 F100.000
G2 X0.005 Y6.340 Z-4.184 I-4.056 J-6.515 K0.000 F400.000
G2 X0.511 Y5.461 Z-4.184 I-1.321 J-1.347 K0.000 F400.000
G2 X0.707 Y3.997 Z-4.184 I-9.321 J-1.988 K0.000 F400.000
G2 X0.700 Y3.279 Z-4.184 I-3.787 J-0.324 K0.000 F400.000
G1 X0.361 Y2.303 Z-4.184 F400.000
G2 X-0.557 Y1.369 Z-4.184 I-2.189 J1.234 K0.000 F400.000
G2 X-2.137 Y0.550 Z-4.184 I-45.747 J86.251 K0.000 F400.000
G2 X-3.734 Y-0.069 Z-4.184 I-2.116 J3.091 K0.000 F400.000
G3 X-4.504 Y-0.238 Z-4.184 I0.003 J-1.857 K0.000 F400.000
G2 X-5.858 Y-0.728 Z-4.184 I-2.381 J4.461 K0.000 F400.000
G2 X-7.771 Y-0.740 Z-4.184 I-1.128 J27.777 K0.000 F400.000
G2 X-8.768 Y-0.142 Z-4.184 I0.249 J1.545 K0.000 F400.000
G3 X-9.457 Y0.535 Z-4.184 I-2.682 J-2.042 K0.000 F400.000
G1 X-9.748 Y0.535 Z-4.184 F400.000
G1 X-9.764 Y0.516 Z-4.184 F400.000
G2 X-10.421 Y-0.067 Z-4.184 I-1.316 J0.822 K0.000 F400.000
G2 X-11.180 Y-0.089 Z-4.184 I-0.536 J5.422 K0.000 F400.000
G3 X-12.465 Y-0.676 Z-4.184 I7.158 J-17.369 K0.000 F400.000
G2 X-13.429 Y-0.713 Z-4.184 I-0.601 J3.024 K0.000 F400.000
G2 X-13.825 Y-0.599 Z-4.184 I-0.001 J0.740 K0.000 F400.000
G2 X-14.332 Y-0.103 Z-4.184 I3.196 J3.775 K0.000 F400.000
G3 X-14.581 Y-0.095 Z-4.184 I-0.201 J-2.245 K0.000 F400.000
G2 X-15.391 Y0.099 Z-4.184 I-0.178 J1.042 K0.000 F400.000
G3 X-16.367 Y0.551 Z-4.184 I-1.772 J-2.550 K0.000 F400.000
G3 X-16.775 Y0.533 Z-4.184 I-0.157 J-1.113 K0.000 F400.000
G2 X-17.375 Y-0.027 Z-4.184 I-2.016 J1.559 K0.000 F400.000
G2 X-18.113 Y-0.091 Z-4.184 I-0.574 J2.311 K0.000 F400.000
G3 X-18.282 Y-0.252 Z-4.184 I0.835 J-1.050 K0.000 F400.000
G2 X-19.163 Y-0.713 Z-4.184 I-0.831 J0.515 K0.000 F400.000
G1 X-20.030 Y-0.713 Z-4.184 F400.000
G0 Z3.000
G0 Z5.000
G0 X-20.030 Y8.925
G0 Z3.000
G1 Z-4.184 F100.000
G1 X-19.024 Y8.925 Z-4.184 F400.000
G1 X-18.772 Y8.881 Z-4.184 F400.000
G2 X-18.065 Y8.254 Z-4.184 I-0.997 J-1.836 K0.000 F400.000
G2 X-17.229 Y8.137 Z-4.184 I0.218 J-1.486 K0.000 F400.000
G3 X-16.682 Y7.591 Z-4.184 I8.223 J7.701 K0.000 F400.000
G3 X-16.447 Y7.594 Z-4.184 I0.106 J1.145 K0.000 F400.000
G2 X-16.182 Y7.738 Z-4.184 I0.355 J-0.334 K0.000 F400.000
G3 X-15.457 Y8.007 Z-4.184 I-0.636 J2.825 K0.000 F400.000
G2 X-14.788 Y8.254 Z-4.184 I0.729 J-0.950 K0.000 F400.000
G3 X-14.326 Y8.264 Z-4.184 I0.202 J1.240 K0.000 F400.000
G2 X-14.110 Y8.485 Z-4.184 I0.804 J-0.573 K0.000 F400.000
G1 X-14.109 Y8.484 Z-4.184 F400.000
G2 X-13.742 Y8.785 Z-4.184 I2.564 J-2.747 K0.000 F400.000
G2 X-12.339 Y8.815 Z-4.184 I0.751 J-2.298 K0.000 F400.000
G3 X-11.268 Y8.260 Z-4.184 I2.367 J3.250 K0.000 F400.000
G2 X-10.528 Y8.244 Z-4.184 I0.294 J-3.563 K0.000 F400.000
G2 X-9.845 Y7.710 Z-4.184 I-0.533 J-1.386 K0.000 F400.000
G3 X-9.387 Y7.659 Z-4.184 I0.251 J0.172 K0.000 F400.000
G3 X-8.491 Y8.552 Z-4.184 I-10.372 J11.299 K0.000 F400.000
G2 X-7.989 Y8.853 Z-4.184 I0.829 J-0.812 K0.000 F400.000
G2 X-5.696 Y8.825 Z-4.184 I1.027 J-9.866 K0.000 F400.000
G2 X-4.177 Y8.227 Z-4.184 I-40.145 J-104.189 K0.000 F400.000
G2 X-3.146 Y8.044 Z-4.184 I-0.003 J-3.000 K0.000 F400.000
G2 X-1.673 Y7.321 Z-4.184 I-2.737 J-7.441 K0.000 F400.000
G2 X-0.620 Y6.773 Z-4.184 I-3.003 J-7.063 K0.000 F400.000
G1 X-0.620 Y6.773 Z-4.480 F100.000
G2 X0.005 Y6.340 Z-4.480 I-4.056 J-6.515 K0.000 F400.000
G2 X0.511 Y5.461 Z-4.480 I-1.321 J-1.347 K0.000 F400.000
G2 X0.707 Y3.997 Z-4.480 I-9.321 J-1.988 K0.000 F400.000
G2 X0.700 Y3.279 Z-4.480 I-3.787 J-0.324 K0.000 F400.000
G1 X0.361 Y2.303 Z-4.480 F400.000
G2 X-0.557 Y1.369 Z-4.480 I-2.189 J1.234 K0.000 F400.000
G2 X-2.137 Y0.550 Z-4.480 I-45.747 J86.251 K0.000 F400.000
G2 X-3.734 Y-0.069 Z-4.480 I-2.116 J3.091 K0.000 F400.000
G3 X-4.504 Y-0.238 Z-4.480 I0.003 J-1.857 K0.000 F400.000
G2 X-5.858 Y-0.728 Z-4.480 I-2.381 J4.461 K0.000 F400.000
G2 X-7.771 Y-0.740 Z-4.480 I-1.128 J27.777 K0.000 F400.000
G2 X-8.768 Y-0.142 Z-4.480 I0.249 J1.545 K0.000 F400.000
G3 X-9.457 Y0.535 Z-4.480 I-2.682 J-2.042 K0.000 F400.000
G1 X-9.748 Y0.535 Z-4.480 F400.000
G1 X-9.764 Y0.516 Z-4.480 F400.000
G2 X-10.421 Y-0.067 Z-4.480 I-1.316 J0.822 K0.000 F400.000
G2 X-11.180 Y-0.089 Z-4.480 I-0.536 J5.422 K0.000 F400.000
G3 X-12.465 Y-0.676 Z-4.480 I7.158 J-17.369 K0.000 F400.000
G2 X-13.429 Y-0.713 Z-4.480 I-0.601 J3.024 K0.000 F400.000
G2 X-13.825 Y-0.599 Z-4.480 I-0.001 J0.740 K0.000 F400.000
G2 X-14.332 Y-0.103 Z-4.480 I3.196 J3.775 K0.000 F400.000
G3 X-14.581 Y-0.095 Z-4.480 I-0.201 J-2.245 K0.000 F400.000
G2 X-15.391 Y0.099 Z-4.480 I-0.178 J1.042 K0.000 F400.000
G3 X-16.367 Y0.551 Z-4.480 I-1.772 J-2.550 K0.000 F400.000
G3 X-16.775 Y0.533 Z-4.480 I-0.157 J-1.113 K0.000 F400.000
G2 X-17.375 Y-0.027 Z-4.480 I-2.016 J1.559 K0.000 F400.000
G2 X-18.113 Y-0.091 Z-4.480 I-0.574 J2.311 K0.000 F400.000
G3 X-18.282 Y-0.252 Z-4.480 I0.835 J-1.050 K0.000 F400.000
G2 X-19.163 Y-0.713 Z-4.480 I-0.831 J0.515 K0.000 F400.000
G1 X-20.030 Y-0.713 Z-4.480 F400.000
G0 Z3.000
G0 Z5.000
G0 X-20.030 Y8.925
G0 Z3.000
G1 Z-4.480 F100.000
G1 X-19.024 Y8.925 Z-4.480 F400.000
G1 X-18.772 Y8.881 Z-4.480 F400.000
G2 X-18.065 Y8.254 Z-4.480 I-0.997 J-1.836 K0.000 F400.000
G2 X-17.229 Y8.137 Z-4.480 I0.218 J-1.486 K0.000 F400.000
G3 X-16.682 Y7.591 Z-4.480 I8.223 J7.701 K0.000 F400.000
G3 X-16.447 Y7.594 Z-4.480 I0.106 J1.145 K0.000 F400.000
G2 X-16.182 Y7.738 Z-4.480 I0.355 J-0.334 K0.000 F400.000
G3 X-15.457 Y8.007 Z-4.480 I-0.636 J2.825 K0.000 F400.000
G2 X-14.788 Y8.254 Z-4.480 I0.729 J-0.950 K0.000 F400.000
G3 X-14.326 Y8.264 Z-4.480 I0.202 J1.240 K0.000 F400.000
G2 X-14.110 Y8.485 Z-4.480 I0.804 J-0.573 K0.000 F400.000
G1 X-14.109 Y8.484 Z-4.480 F400.000
G2 X-13.742 Y8.785 Z-4.480 I2.564 J-2.747 K0.000 F400.000
G2 X-12.339 Y8.815 Z-4.480 I0.751 J-2.298 K0.000 F400.000
G3 X-11.268 Y8.260 Z-4.480 I2.367 J3.250 K0.000 F400.000
G2 X-10.528 Y8.244 Z-4.480 I0.294 J-3.563 K0.000 F400.000
G2 X-9.845 Y7.710 Z-4.480 I-0.533 J-1.386 K0.000 F400.000
G3 X-9.387 Y7.659 Z-4.480 I0.251 J0.172 K0.000 F400.000
G3 X-8.491 Y8.552 Z-4.480 I-10.372 J11.299 K0.000 F400.000
G2 X-7.989 Y8.853 Z-4.480 I0.829 J-0.812 K0.000 F400.000
G2 X-5.696 Y8.825 Z-4.480 I1.027 J-9.866 K0.000 F400.000
G2 X-4.177 Y8.227 Z-4.480 I-40.145 J-104.189 K0.000 F400.000
G2 X-3.146 Y8.044 Z-4.480 I-0.003 J-3.000 K0.000 F400.000
G2 X-1.673 Y7.321 Z-4.480 I-2.737 J-7.441 K0.000 F400.000
G2 X-0.620 Y6.773 Z-4.480 I-3.003 J-7.063 K0.000 F400.000
G1 X-0.620 Y6.773 Z-4.500 F100.000
G2 X0.005 Y6.340 Z-4.500 I-4.056 J-6.515 K0.000 F400.000
G2 X0.511 Y5.461 Z-4.500 I-1.321 J-1.347 K0.000 F400.000
G2 X0.707 Y3.997 Z-4.500 I-9.321 J-1.988 K0.000 F400.000
G2 X0.700 Y3.279 Z-4.500 I-3.787 J-0.324 K0.000 F400.000
G1 X0.361 Y2.303 Z-4.500 F400.000
G2 X-0.557 Y1.369 Z-4.500 I-2.189 J1.234 K0.000 F400.000
G2 X-2.137 Y0.550 Z-4.500 I-45.747 J86.251 K0.000 F400.000
G2 X-3.734 Y-0.069 Z-4.500 I-2.116 J3.091 K0.000 F400.000
G3 X-4.504 Y-0.238 Z-4.500 I0.003 J-1.857 K0.000 F400.000
G2 X-5.858 Y-0.728 Z-4.500 I-2.381 J4.461 K0.000 F400.000
G2 X-7.771 Y-0.740 Z-4.500 I-1.128 J27.777 K0.000 F400.000
G2 X-8.768 Y-0.142 Z-4.500 I0.249 J1.545 K0.000 F400.000
G3 X-9.457 Y0.535 Z-4.500 I-2.682 J-2.042 K0.000 F400.000
G1 X-9.748 Y0.535 Z-4.500 F400.000
G1 X-9.764 Y0.516 Z-4.500 F400.000
G2 X-10.421 Y-0.067 Z-4.500 I-1.316 J0.822 K0.000 F400.000
G2 X-11.180 Y-0.089 Z-4.500 I-0.536 J5.422 K0.000 F400.000
G3 X-12.465 Y-0.676 Z-4.500 I7.158 J-17.369 K0.000 F400.000
G2 X-13.429 Y-0.713 Z-4.500 I-0.601 J3.024 K0.000 F400.000
G2 X-13.825 Y-0.599 Z-4.500 I-0.001 J0.740 K0.000 F400.000
G2 X-14.332 Y-0.103 Z-4.500 I3.196 J3.775 K0.000 F400.000
G3 X-14.581 Y-0.095 Z-4.500 I-0.201 J-2.245 K0.000 F400.000
G2 X-15.391 Y0.099 Z-4.500 I-0.178 J1.042 K0.000 F400.000
G3 X-16.367 Y0.551 Z-4.500 I-1.772 J-2.550 K0.000 F400.000
G3 X-16.775 Y0.533 Z-4.500 I-0.157 J-1.113 K0.000 F400.000
G2 X-17.375 Y-0.027 Z-4.500 I-2.016 J1.559 K0.000 F400.000
G2 X-18.113 Y-0.091 Z-4.500 I-0.574 J2.311 K0.000 F400.000
G3 X-18.282 Y-0.252 Z-4.500 I0.835 J-1.050 K0.000 F400.000
G2 X-19.163 Y-0.713 Z-4.500 I-0.831 J0.515 K0.000 F400.000
G1 X-20.030 Y-0.713 Z-4.500 F400.000
G0 Z3.000
G0 Z5.000
G0 X-20.030 Y8.925
G0 Z3.000
G1 Z-4.500 F100.000
G1 X-19.024 Y8.925 Z-4.500 F400.000
G1 X-18.772 Y8.881 Z-4.500 F400.000
G2 X-18.065 Y8.254 Z-4.500 I-0.997 J-1.836 K0.000 F400.000
G2 X-17.229 Y8.137 Z-4.500 I0.218 J-1.486 K0.000 F400.000
G3 X-16.682 Y7.591 Z-4.500 I8.223 J7.701 K0.000 F400.000
G3 X-16.447 Y7.594 Z-4.500 I0.106 J1.145 K0.000 F400.000
G2 X-16.182 Y7.738 Z-4.500 I0.355 J-0.334 K0.000 F400.000
G3 X-15.457 Y8.007 Z-4.500 I-0.636 J2.825 K0.000 F400.000
G2 X-14.788 Y8.254 Z-4.500 I0.729 J-0.950 K0.000 F400.000
G3 X-14.326 Y8.264 Z-4.500 I0.202 J1.240 K0.000 F400.000
G2 X-14.110 Y8.485 Z-4.500 I0.804 J-0.573 K0.000 F400.000
G1 X-14.109 Y8.484 Z-4.500 F400.000
G2 X-13.742 Y8.785 Z-4.500 I2.564 J-2.747 K0.000 F400.000
G2 X-12.339 Y8.815 Z-4.500 I0.751 J-2.298 K0.000 F400.000
G3 X-11.268 Y8.260 Z-4.500 I2.367 J3.250 K0.000 F400.000
G2 X-10.528 Y8.244 Z-4.500 I0.294 J-3.563 K0.000 F400.000
G2 X-9.845 Y7.710 Z-4.500 I-0.533 J-1.386 K0.000 F400.000
G3 X-9.387 Y7.659 Z-4.500 I0.251 J0.172 K0.000 F400.000
G3 X-8.491 Y8.552 Z-4.500 I-10.372 J11.299 K0.000 F400.000
G2 X-7.989 Y8.853 Z-4.500 I0.829 J-0.812 K0.000 F400.000
G2 X-5.696 Y8.825 Z-4.500 I1.027 J-9.866 K0.000 F400.000
G2 X-4.177 Y8.227 Z-4.500 I-40.145 J-104.189 K0.000 F400.000
G2 X-3.146 Y8.044 Z-4.500 I-0.003 J-3.000 K0.000 F400.000
G2 X-1.673 Y7.321 Z-4.500 I-2.737 J-7.441 K0.000 F400.000
G2 X-0.620 Y6.773 Z-4.500 I-3.003 J-7.063 K0.000 F400.000
G1 X-0.620 Y6.773 Z1.000 F100.000
G0 Z3.000
G0 Z5.000
(Finish operation: DressupPathBoundary)
(Begin postamble)
M5
G17 G90
M2
