(Exported by FreeCAD)
(Post Processor: grbl_post)
(Output Time:2025-06-22 13:51:47.438456)
(Begin preamble)
G17 G90
G21
(Begin operation: TC: 0.5mm_droite)
(Path: TC: 0.5mm_droite)
(TC: 0.5mm_droite)
(Begin toolchange)
( M6 T2 )
M3 S24000
(Finish operation: TC: 0.5mm_droite)
(Begin operation: Fixture)
(Path: Fixture)
G54
(Finish operation: Fixture)
(Begin operation: DressupPathBoundary001)
(Path: DressupPathBoundary001)
(Profile001)
(Compensated Tool Path. Diameter: 0.5)
G0 Z3.000
G0 Z5.000
G0 X-0.964 Y6.406
G0 Z3.000
G1 Z1.000 F60.000
G1 X-0.964 Y6.406 Z-3.100 F60.000
G2 X-0.664 Y6.220 Z-3.100 I-4.450 J-7.519 K0.000 F200.000
G2 X0.007 Y5.326 Z-3.100 I-0.444 J-1.032 K0.000 F200.000
G2 X0.088 Y5.180 Z-3.100 I-0.086 J-0.144 K0.000 F200.000
G2 X0.237 Y3.440 Z-3.100 I-16.473 J-2.285 K0.000 F200.000
G1 X-0.102 Y2.464 Z-3.100 F200.000
G2 X-0.834 Y1.774 Z-3.100 I-1.836 J1.213 K0.000 F200.000
G2 X-2.382 Y0.974 Z-3.100 I-842.025 J1628.263 K0.000 F200.000
G2 X-3.825 Y0.412 Z-3.100 I-1.877 J2.689 K0.000 F200.000
G3 X-4.682 Y0.219 Z-3.100 I0.005 J-2.020 K0.000 F200.000
G2 X-5.875 Y-0.239 Z-3.100 I-2.482 J4.689 K0.000 F200.000
G2 X-7.771 Y-0.250 Z-3.100 I-1.114 J27.384 K0.000 F200.000
G2 X-8.226 Y0.021 Z-3.100 I0.080 J0.652 K0.000 F200.000
G2 X-8.909 Y0.711 Z-3.100 I25.999 J26.426 K0.000 F200.000
G3 X-9.297 Y1.021 Z-3.100 I-1.546 J-1.535 K0.000 F200.000
G3 X-9.861 Y1.025 Z-3.100 I-0.293 J-1.699 K0.000 F200.000
G1 X-9.931 Y1.004 Z-3.100 F200.000
G3 X-10.511 Y0.423 Z-3.100 I1.830 J-2.408 K0.000 F200.000
G2 X-11.317 Y0.400 Z-3.100 I-0.540 J4.739 K0.000 F200.000
G3 X-12.346 Y-0.059 Z-3.100 I13.259 J-31.088 K0.000 F200.000
G2 X-12.694 Y-0.222 Z-3.100 I-1.689 J3.156 K0.000 F200.000
G1 X-13.430 Y-0.223 Z-3.100 F200.000
G2 X-13.665 Y-0.060 Z-3.100 I-0.000 J0.250 K0.000 F200.000
G3 X-14.140 Y0.369 Z-3.100 I-8.809 J-9.296 K0.000 F200.000
G3 X-14.904 Y0.398 Z-3.100 I-0.687 J-7.903 K0.000 F200.000
G3 X-16.203 Y1.015 Z-3.100 I-3.324 J-5.322 K0.000 F200.000
G3 X-16.922 Y1.026 Z-3.100 I-0.389 J-2.005 K0.000 F200.000
G3 X-17.222 Y0.789 Z-3.100 I0.239 J-0.610 K0.000 F200.000
G2 X-17.573 Y0.422 Z-3.100 I-1.156 J0.755 K0.000 F200.000
G2 X-18.210 Y0.396 Z-3.100 I-0.416 J2.410 K0.000 F200.000
G3 X-18.647 Y0.076 Z-3.100 I0.222 J-0.762 K0.000 F200.000
G2 X-19.147 Y-0.223 Z-3.100 I-0.474 J0.224 K0.000 F200.000
G1 X-19.530 Y-0.223 Z-3.100 F200.000
G0 Z3.000
G0 Z5.000
G0 X-19.530 Y8.435
G0 Z3.000
G1 Z-3.100 F60.000
G1 X-19.024 Y8.435 Z-3.100 F200.000
G2 X-18.749 Y8.286 Z-3.100 I-0.072 J-0.461 K0.000 F200.000
G3 X-18.268 Y7.764 Z-3.100 I2.115 J1.468 K0.000 F200.000
G1 X-17.628 Y7.764 Z-3.100 F200.000
G1 X-17.540 Y7.748 Z-3.100 F200.000
G3 X-16.997 Y7.215 Z-3.100 I13.590 J13.322 K0.000 F200.000
G3 X-16.377 Y7.107 Z-3.100 I0.429 J0.629 K0.000 F200.000
G3 X-16.052 Y7.266 Z-3.100 I-0.031 J0.475 K0.000 F200.000
G3 X-14.966 Y7.730 Z-3.100 I-0.730 J3.213 K0.000 F200.000
G2 X-14.463 Y7.752 Z-3.100 I0.291 J-0.894 K0.000 F200.000
G3 X-14.049 Y7.856 Z-3.100 I0.099 J0.480 K0.000 F200.000
G2 X-13.632 Y8.259 Z-3.100 I5.830 J-5.616 K0.000 F200.000
G2 X-13.017 Y8.415 Z-3.100 I0.471 J-0.563 K0.000 F200.000
G2 X-12.334 Y8.230 Z-3.100 I0.070 J-1.097 K0.000 F200.000
G3 X-11.387 Y7.770 Z-3.100 I3.695 J6.396 K0.000 F200.000
G1 X-10.681 Y7.770 Z-3.100 F200.000
G1 X-10.604 Y7.758 Z-3.100 F200.000
G2 X-9.920 Y7.112 Z-3.100 I-12.118 J-13.520 K0.000 F200.000
G3 X-9.095 Y7.265 Z-3.100 I0.247 J0.973 K0.000 F200.000
G3 X-8.143 Y8.208 Z-3.100 I-9.566 J10.611 K0.000 F200.000
G2 X-7.874 Y8.377 Z-3.100 I0.468 J-0.446 K0.000 F200.000
G2 X-6.359 Y8.400 Z-3.100 I0.920 J-10.609 K0.000 F200.000
G2 X-5.294 Y8.153 Z-3.100 I0.108 J-1.952 K0.000 F200.000
G3 X-4.144 Y7.722 Z-3.100 I2.368 J4.569 K0.000 F200.000
G2 X-3.266 Y7.567 Z-3.100 I0.016 J-2.468 K0.000 F200.000
G2 X-1.899 Y6.886 Z-3.100 I-4.577 J-10.901 K0.000 F200.000
G2 X-0.964 Y6.406 Z-3.100 I-3.515 J-7.999 K0.000 F200.000
G1 X-0.964 Y6.406 Z-3.200 F60.000
G2 X-0.664 Y6.220 Z-3.200 I-4.450 J-7.519 K0.000 F200.000
G2 X0.007 Y5.326 Z-3.200 I-0.444 J-1.032 K0.000 F200.000
G2 X0.088 Y5.180 Z-3.200 I-0.086 J-0.144 K0.000 F200.000
G2 X0.237 Y3.440 Z-3.200 I-16.473 J-2.285 K0.000 F200.000
G1 X-0.102 Y2.464 Z-3.200 F200.000
G2 X-0.834 Y1.774 Z-3.200 I-1.836 J1.213 K0.000 F200.000
G2 X-2.382 Y0.974 Z-3.200 I-842.025 J1628.263 K0.000 F200.000
G2 X-3.825 Y0.412 Z-3.200 I-1.877 J2.689 K0.000 F200.000
G3 X-4.682 Y0.219 Z-3.200 I0.005 J-2.020 K0.000 F200.000
G2 X-5.875 Y-0.239 Z-3.200 I-2.482 J4.689 K0.000 F200.000
G2 X-7.771 Y-0.250 Z-3.200 I-1.114 J27.384 K0.000 F200.000
G2 X-8.226 Y0.021 Z-3.200 I0.080 J0.652 K0.000 F200.000
G2 X-8.909 Y0.711 Z-3.200 I25.999 J26.426 K0.000 F200.000
G3 X-9.297 Y1.021 Z-3.200 I-1.546 J-1.535 K0.000 F200.000
G3 X-9.861 Y1.025 Z-3.200 I-0.293 J-1.699 K0.000 F200.000
G1 X-9.931 Y1.004 Z-3.200 F200.000
G3 X-10.511 Y0.423 Z-3.200 I1.830 J-2.408 K0.000 F200.000
G2 X-11.317 Y0.400 Z-3.200 I-0.540 J4.739 K0.000 F200.000
G3 X-12.346 Y-0.059 Z-3.200 I13.259 J-31.088 K0.000 F200.000
G2 X-12.694 Y-0.222 Z-3.200 I-1.689 J3.156 K0.000 F200.000
G1 X-13.430 Y-0.223 Z-3.200 F200.000
G2 X-13.665 Y-0.060 Z-3.200 I-0.000 J0.250 K0.000 F200.000
G3 X-14.140 Y0.369 Z-3.200 I-8.809 J-9.296 K0.000 F200.000
G3 X-14.904 Y0.398 Z-3.200 I-0.687 J-7.903 K0.000 F200.000
G3 X-16.203 Y1.015 Z-3.200 I-3.324 J-5.322 K0.000 F200.000
G3 X-16.922 Y1.026 Z-3.200 I-0.389 J-2.005 K0.000 F200.000
G3 X-17.222 Y0.789 Z-3.200 I0.239 J-0.610 K0.000 F200.000
G2 X-17.573 Y0.422 Z-3.200 I-1.156 J0.755 K0.000 F200.000
G2 X-18.210 Y0.396 Z-3.200 I-0.416 J2.410 K0.000 F200.000
G3 X-18.647 Y0.076 Z-3.200 I0.222 J-0.762 K0.000 F200.000
G2 X-19.147 Y-0.223 Z-3.200 I-0.474 J0.224 K0.000 F200.000
G1 X-19.530 Y-0.223 Z-3.200 F200.000
G0 Z3.000
G0 Z5.000
G0 X-19.530 Y8.435
G0 Z3.000
G1 Z-3.200 F60.000
G1 X-19.024 Y8.435 Z-3.200 F200.000
G2 X-18.749 Y8.286 Z-3.200 I-0.072 J-0.461 K0.000 F200.000
G3 X-18.268 Y7.764 Z-3.200 I2.115 J1.468 K0.000 F200.000
G1 X-17.628 Y7.764 Z-3.200 F200.000
G1 X-17.540 Y7.748 Z-3.200 F200.000
G3 X-16.997 Y7.215 Z-3.200 I13.590 J13.322 K0.000 F200.000
G3 X-16.377 Y7.107 Z-3.200 I0.429 J0.629 K0.000 F200.000
G3 X-16.052 Y7.266 Z-3.200 I-0.031 J0.475 K0.000 F200.000
G3 X-14.966 Y7.730 Z-3.200 I-0.730 J3.213 K0.000 F200.000
G2 X-14.463 Y7.752 Z-3.200 I0.291 J-0.894 K0.000 F200.000
G3 X-14.049 Y7.856 Z-3.200 I0.099 J0.480 K0.000 F200.000
G2 X-13.632 Y8.259 Z-3.200 I5.830 J-5.616 K0.000 F200.000
G2 X-13.017 Y8.415 Z-3.200 I0.471 J-0.563 K0.000 F200.000
G2 X-12.334 Y8.230 Z-3.200 I0.070 J-1.097 K0.000 F200.000
G3 X-11.387 Y7.770 Z-3.200 I3.695 J6.396 K0.000 F200.000
G1 X-10.681 Y7.770 Z-3.200 F200.000
G1 X-10.604 Y7.758 Z-3.200 F200.000
G2 X-9.920 Y7.112 Z-3.200 I-12.118 J-13.520 K0.000 F200.000
G3 X-9.095 Y7.265 Z-3.200 I0.247 J0.973 K0.000 F200.000
G3 X-8.143 Y8.208 Z-3.200 I-9.566 J10.611 K0.000 F200.000
G2 X-7.874 Y8.377 Z-3.200 I0.468 J-0.446 K0.000 F200.000
G2 X-6.359 Y8.400 Z-3.200 I0.920 J-10.609 K0.000 F200.000
G2 X-5.294 Y8.153 Z-3.200 I0.108 J-1.952 K0.000 F200.000
G3 X-4.144 Y7.722 Z-3.200 I2.368 J4.569 K0.000 F200.000
G2 X-3.266 Y7.567 Z-3.200 I0.016 J-2.468 K0.000 F200.000
G2 X-1.899 Y6.886 Z-3.200 I-4.577 J-10.901 K0.000 F200.000
G2 X-0.964 Y6.406 Z-3.200 I-3.515 J-7.999 K0.000 F200.000
G1 X-0.964 Y6.406 Z-3.300 F60.000
G2 X-0.664 Y6.220 Z-3.300 I-4.450 J-7.519 K0.000 F200.000
G2 X0.007 Y5.326 Z-3.300 I-0.444 J-1.032 K0.000 F200.000
G2 X0.088 Y5.180 Z-3.300 I-0.086 J-0.144 K0.000 F200.000
G2 X0.237 Y3.440 Z-3.300 I-16.473 J-2.285 K0.000 F200.000
G1 X-0.102 Y2.464 Z-3.300 F200.000
G2 X-0.834 Y1.774 Z-3.300 I-1.836 J1.213 K0.000 F200.000
G2 X-2.382 Y0.974 Z-3.300 I-842.025 J1628.263 K0.000 F200.000
G2 X-3.825 Y0.412 Z-3.300 I-1.877 J2.689 K0.000 F200.000
G3 X-4.682 Y0.219 Z-3.300 I0.005 J-2.020 K0.000 F200.000
G2 X-5.875 Y-0.239 Z-3.300 I-2.482 J4.689 K0.000 F200.000
G2 X-7.771 Y-0.250 Z-3.300 I-1.114 J27.384 K0.000 F200.000
G2 X-8.226 Y0.021 Z-3.300 I0.080 J0.652 K0.000 F200.000
G2 X-8.909 Y0.711 Z-3.300 I25.999 J26.426 K0.000 F200.000
G3 X-9.297 Y1.021 Z-3.300 I-1.546 J-1.535 K0.000 F200.000
G3 X-9.861 Y1.025 Z-3.300 I-0.293 J-1.699 K0.000 F200.000
G1 X-9.931 Y1.004 Z-3.300 F200.000
G3 X-10.511 Y0.423 Z-3.300 I1.830 J-2.408 K0.000 F200.000
G2 X-11.317 Y0.400 Z-3.300 I-0.540 J4.739 K0.000 F200.000
G3 X-12.346 Y-0.059 Z-3.300 I13.259 J-31.088 K0.000 F200.000
G2 X-12.694 Y-0.222 Z-3.300 I-1.689 J3.156 K0.000 F200.000
G1 X-13.430 Y-0.223 Z-3.300 F200.000
G2 X-13.665 Y-0.060 Z-3.300 I-0.000 J0.250 K0.000 F200.000
G3 X-14.140 Y0.369 Z-3.300 I-8.809 J-9.296 K0.000 F200.000
G3 X-14.904 Y0.398 Z-3.300 I-0.687 J-7.903 K0.000 F200.000
G3 X-16.203 Y1.015 Z-3.300 I-3.324 J-5.322 K0.000 F200.000
G3 X-16.922 Y1.026 Z-3.300 I-0.389 J-2.005 K0.000 F200.000
G3 X-17.222 Y0.789 Z-3.300 I0.239 J-0.610 K0.000 F200.000
G2 X-17.573 Y0.422 Z-3.300 I-1.156 J0.755 K0.000 F200.000
G2 X-18.210 Y0.396 Z-3.300 I-0.416 J2.410 K0.000 F200.000
G3 X-18.647 Y0.076 Z-3.300 I0.222 J-0.762 K0.000 F200.000
G2 X-19.147 Y-0.223 Z-3.300 I-0.474 J0.224 K0.000 F200.000
G1 X-19.530 Y-0.223 Z-3.300 F200.000
G0 Z3.000
G0 Z5.000
G0 X-19.530 Y8.435
G0 Z3.000
G1 Z-3.300 F60.000
G1 X-19.024 Y8.435 Z-3.300 F200.000
G2 X-18.749 Y8.286 Z-3.300 I-0.072 J-0.461 K0.000 F200.000
G3 X-18.268 Y7.764 Z-3.300 I2.115 J1.468 K0.000 F200.000
G1 X-17.628 Y7.764 Z-3.300 F200.000
G1 X-17.540 Y7.748 Z-3.300 F200.000
G3 X-16.997 Y7.215 Z-3.300 I13.590 J13.322 K0.000 F200.000
G3 X-16.377 Y7.107 Z-3.300 I0.429 J0.629 K0.000 F200.000
G3 X-16.052 Y7.266 Z-3.300 I-0.031 J0.475 K0.000 F200.000
G3 X-14.966 Y7.730 Z-3.300 I-0.730 J3.213 K0.000 F200.000
G2 X-14.463 Y7.752 Z-3.300 I0.291 J-0.894 K0.000 F200.000
G3 X-14.049 Y7.856 Z-3.300 I0.099 J0.480 K0.000 F200.000
G2 X-13.632 Y8.259 Z-3.300 I5.830 J-5.616 K0.000 F200.000
G2 X-13.017 Y8.415 Z-3.300 I0.471 J-0.563 K0.000 F200.000
G2 X-12.334 Y8.230 Z-3.300 I0.070 J-1.097 K0.000 F200.000
G3 X-11.387 Y7.770 Z-3.300 I3.695 J6.396 K0.000 F200.000
G1 X-10.681 Y7.770 Z-3.300 F200.000
G1 X-10.604 Y7.758 Z-3.300 F200.000
G2 X-9.920 Y7.112 Z-3.300 I-12.118 J-13.520 K0.000 F200.000
G3 X-9.095 Y7.265 Z-3.300 I0.247 J0.973 K0.000 F200.000
G3 X-8.143 Y8.208 Z-3.300 I-9.566 J10.611 K0.000 F200.000
G2 X-7.874 Y8.377 Z-3.300 I0.468 J-0.446 K0.000 F200.000
G2 X-6.359 Y8.400 Z-3.300 I0.920 J-10.609 K0.000 F200.000
G2 X-5.294 Y8.153 Z-3.300 I0.108 J-1.952 K0.000 F200.000
G3 X-4.144 Y7.722 Z-3.300 I2.368 J4.569 K0.000 F200.000
G2 X-3.266 Y7.567 Z-3.300 I0.016 J-2.468 K0.000 F200.000
G2 X-1.899 Y6.886 Z-3.300 I-4.577 J-10.901 K0.000 F200.000
G2 X-0.964 Y6.406 Z-3.300 I-3.515 J-7.999 K0.000 F200.000
G1 X-0.964 Y6.406 Z-3.400 F60.000
G2 X-0.664 Y6.220 Z-3.400 I-4.450 J-7.519 K0.000 F200.000
G2 X0.007 Y5.326 Z-3.400 I-0.444 J-1.032 K0.000 F200.000
G2 X0.088 Y5.180 Z-3.400 I-0.086 J-0.144 K0.000 F200.000
G2 X0.237 Y3.440 Z-3.400 I-16.473 J-2.285 K0.000 F200.000
G1 X-0.102 Y2.464 Z-3.400 F200.000
G2 X-0.834 Y1.774 Z-3.400 I-1.836 J1.213 K0.000 F200.000
G2 X-2.382 Y0.974 Z-3.400 I-842.025 J1628.263 K0.000 F200.000
G2 X-3.825 Y0.412 Z-3.400 I-1.877 J2.689 K0.000 F200.000
G3 X-4.682 Y0.219 Z-3.400 I0.005 J-2.020 K0.000 F200.000
G2 X-5.875 Y-0.239 Z-3.400 I-2.482 J4.689 K0.000 F200.000
G2 X-7.771 Y-0.250 Z-3.400 I-1.114 J27.384 K0.000 F200.000
G2 X-8.226 Y0.021 Z-3.400 I0.080 J0.652 K0.000 F200.000
G2 X-8.909 Y0.711 Z-3.400 I25.999 J26.426 K0.000 F200.000
G3 X-9.297 Y1.021 Z-3.400 I-1.546 J-1.535 K0.000 F200.000
G3 X-9.861 Y1.025 Z-3.400 I-0.293 J-1.699 K0.000 F200.000
G1 X-9.931 Y1.004 Z-3.400 F200.000
G3 X-10.511 Y0.423 Z-3.400 I1.830 J-2.408 K0.000 F200.000
G2 X-11.317 Y0.400 Z-3.400 I-0.540 J4.739 K0.000 F200.000
G3 X-12.346 Y-0.059 Z-3.400 I13.259 J-31.088 K0.000 F200.000
G2 X-12.694 Y-0.222 Z-3.400 I-1.689 J3.156 K0.000 F200.000
G1 X-13.430 Y-0.223 Z-3.400 F200.000
G2 X-13.665 Y-0.060 Z-3.400 I-0.000 J0.250 K0.000 F200.000
G3 X-14.140 Y0.369 Z-3.400 I-8.809 J-9.296 K0.000 F200.000
G3 X-14.904 Y0.398 Z-3.400 I-0.687 J-7.903 K0.000 F200.000
G3 X-16.203 Y1.015 Z-3.400 I-3.324 J-5.322 K0.000 F200.000
G3 X-16.922 Y1.026 Z-3.400 I-0.389 J-2.005 K0.000 F200.000
G3 X-17.222 Y0.789 Z-3.400 I0.239 J-0.610 K0.000 F200.000
G2 X-17.573 Y0.422 Z-3.400 I-1.156 J0.755 K0.000 F200.000
G2 X-18.210 Y0.396 Z-3.400 I-0.416 J2.410 K0.000 F200.000
G3 X-18.647 Y0.076 Z-3.400 I0.222 J-0.762 K0.000 F200.000
G2 X-19.147 Y-0.223 Z-3.400 I-0.474 J0.224 K0.000 F200.000
G1 X-19.530 Y-0.223 Z-3.400 F200.000
G0 Z3.000
G0 Z5.000
G0 X-19.530 Y8.435
G0 Z3.000
G1 Z-3.400 F60.000
G1 X-19.024 Y8.435 Z-3.400 F200.000
G2 X-18.749 Y8.286 Z-3.400 I-0.072 J-0.461 K0.000 F200.000
G3 X-18.268 Y7.764 Z-3.400 I2.115 J1.468 K0.000 F200.000
G1 X-17.628 Y7.764 Z-3.400 F200.000
G1 X-17.540 Y7.748 Z-3.400 F200.000
G3 X-16.997 Y7.215 Z-3.400 I13.590 J13.322 K0.000 F200.000
G3 X-16.377 Y7.107 Z-3.400 I0.429 J0.629 K0.000 F200.000
G3 X-16.052 Y7.266 Z-3.400 I-0.031 J0.475 K0.000 F200.000
G3 X-14.966 Y7.730 Z-3.400 I-0.730 J3.213 K0.000 F200.000
G2 X-14.463 Y7.752 Z-3.400 I0.291 J-0.894 K0.000 F200.000
G3 X-14.049 Y7.856 Z-3.400 I0.099 J0.480 K0.000 F200.000
G2 X-13.632 Y8.259 Z-3.400 I5.830 J-5.616 K0.000 F200.000
G2 X-13.017 Y8.415 Z-3.400 I0.471 J-0.563 K0.000 F200.000
G2 X-12.334 Y8.230 Z-3.400 I0.070 J-1.097 K0.000 F200.000
G3 X-11.387 Y7.770 Z-3.400 I3.695 J6.396 K0.000 F200.000
G1 X-10.681 Y7.770 Z-3.400 F200.000
G1 X-10.604 Y7.758 Z-3.400 F200.000
G2 X-9.920 Y7.112 Z-3.400 I-12.118 J-13.520 K0.000 F200.000
G3 X-9.095 Y7.265 Z-3.400 I0.247 J0.973 K0.000 F200.000
G3 X-8.143 Y8.208 Z-3.400 I-9.566 J10.611 K0.000 F200.000
G2 X-7.874 Y8.377 Z-3.400 I0.468 J-0.446 K0.000 F200.000
G2 X-6.359 Y8.400 Z-3.400 I0.920 J-10.609 K0.000 F200.000
G2 X-5.294 Y8.153 Z-3.400 I0.108 J-1.952 K0.000 F200.000
G3 X-4.144 Y7.722 Z-3.400 I2.368 J4.569 K0.000 F200.000
G2 X-3.266 Y7.567 Z-3.400 I0.016 J-2.468 K0.000 F200.000
G2 X-1.899 Y6.886 Z-3.400 I-4.577 J-10.901 K0.000 F200.000
G2 X-0.964 Y6.406 Z-3.400 I-3.515 J-7.999 K0.000 F200.000
G1 X-0.964 Y6.406 Z-3.500 F60.000
G2 X-0.664 Y6.220 Z-3.500 I-4.450 J-7.519 K0.000 F200.000
G2 X0.007 Y5.326 Z-3.500 I-0.444 J-1.032 K0.000 F200.000
G2 X0.088 Y5.180 Z-3.500 I-0.086 J-0.144 K0.000 F200.000
G2 X0.237 Y3.440 Z-3.500 I-16.473 J-2.285 K0.000 F200.000
G1 X-0.102 Y2.464 Z-3.500 F200.000
G2 X-0.834 Y1.774 Z-3.500 I-1.836 J1.213 K0.000 F200.000
G2 X-2.382 Y0.974 Z-3.500 I-842.025 J1628.263 K0.000 F200.000
G2 X-3.825 Y0.412 Z-3.500 I-1.877 J2.689 K0.000 F200.000
G3 X-4.682 Y0.219 Z-3.500 I0.005 J-2.020 K0.000 F200.000
G2 X-5.875 Y-0.239 Z-3.500 I-2.482 J4.689 K0.000 F200.000
G2 X-7.771 Y-0.250 Z-3.500 I-1.114 J27.384 K0.000 F200.000
G2 X-8.226 Y0.021 Z-3.500 I0.080 J0.652 K0.000 F200.000
G2 X-8.909 Y0.711 Z-3.500 I25.999 J26.426 K0.000 F200.000
G3 X-9.297 Y1.021 Z-3.500 I-1.546 J-1.535 K0.000 F200.000
G3 X-9.861 Y1.025 Z-3.500 I-0.293 J-1.699 K0.000 F200.000
G1 X-9.931 Y1.004 Z-3.500 F200.000
G3 X-10.511 Y0.423 Z-3.500 I1.830 J-2.408 K0.000 F200.000
G2 X-11.317 Y0.400 Z-3.500 I-0.540 J4.739 K0.000 F200.000
G3 X-12.346 Y-0.059 Z-3.500 I13.259 J-31.088 K0.000 F200.000
G2 X-12.694 Y-0.222 Z-3.500 I-1.689 J3.156 K0.000 F200.000
G1 X-13.430 Y-0.223 Z-3.500 F200.000
G2 X-13.665 Y-0.060 Z-3.500 I-0.000 J0.250 K0.000 F200.000
G3 X-14.140 Y0.369 Z-3.500 I-8.809 J-9.296 K0.000 F200.000
G3 X-14.904 Y0.398 Z-3.500 I-0.687 J-7.903 K0.000 F200.000
G3 X-16.203 Y1.015 Z-3.500 I-3.324 J-5.322 K0.000 F200.000
G3 X-16.922 Y1.026 Z-3.500 I-0.389 J-2.005 K0.000 F200.000
G3 X-17.222 Y0.789 Z-3.500 I0.239 J-0.610 K0.000 F200.000
G2 X-17.573 Y0.422 Z-3.500 I-1.156 J0.755 K0.000 F200.000
G2 X-18.210 Y0.396 Z-3.500 I-0.416 J2.410 K0.000 F200.000
G3 X-18.647 Y0.076 Z-3.500 I0.222 J-0.762 K0.000 F200.000
G2 X-19.147 Y-0.223 Z-3.500 I-0.474 J0.224 K0.000 F200.000
G1 X-19.530 Y-0.223 Z-3.500 F200.000
G0 Z3.000
G0 Z5.000
G0 X-19.530 Y8.435
G0 Z3.000
G1 Z-3.500 F60.000
G1 X-19.024 Y8.435 Z-3.500 F200.000
G2 X-18.749 Y8.286 Z-3.500 I-0.072 J-0.461 K0.000 F200.000
G3 X-18.268 Y7.764 Z-3.500 I2.115 J1.468 K0.000 F200.000
G1 X-17.628 Y7.764 Z-3.500 F200.000
G1 X-17.540 Y7.748 Z-3.500 F200.000
G3 X-16.997 Y7.215 Z-3.500 I13.590 J13.322 K0.000 F200.000
G3 X-16.377 Y7.107 Z-3.500 I0.429 J0.629 K0.000 F200.000
G3 X-16.052 Y7.266 Z-3.500 I-0.031 J0.475 K0.000 F200.000
G3 X-14.966 Y7.730 Z-3.500 I-0.730 J3.213 K0.000 F200.000
G2 X-14.463 Y7.752 Z-3.500 I0.291 J-0.894 K0.000 F200.000
G3 X-14.049 Y7.856 Z-3.500 I0.099 J0.480 K0.000 F200.000
G2 X-13.632 Y8.259 Z-3.500 I5.830 J-5.616 K0.000 F200.000
G2 X-13.017 Y8.415 Z-3.500 I0.471 J-0.563 K0.000 F200.000
G2 X-12.334 Y8.230 Z-3.500 I0.070 J-1.097 K0.000 F200.000
G3 X-11.387 Y7.770 Z-3.500 I3.695 J6.396 K0.000 F200.000
G1 X-10.681 Y7.770 Z-3.500 F200.000
G1 X-10.604 Y7.758 Z-3.500 F200.000
G2 X-9.920 Y7.112 Z-3.500 I-12.118 J-13.520 K0.000 F200.000
G3 X-9.095 Y7.265 Z-3.500 I0.247 J0.973 K0.000 F200.000
G3 X-8.143 Y8.208 Z-3.500 I-9.566 J10.611 K0.000 F200.000
G2 X-7.874 Y8.377 Z-3.500 I0.468 J-0.446 K0.000 F200.000
G2 X-6.359 Y8.400 Z-3.500 I0.920 J-10.609 K0.000 F200.000
G2 X-5.294 Y8.153 Z-3.500 I0.108 J-1.952 K0.000 F200.000
G3 X-4.144 Y7.722 Z-3.500 I2.368 J4.569 K0.000 F200.000
G2 X-3.266 Y7.567 Z-3.500 I0.016 J-2.468 K0.000 F200.000
G2 X-1.899 Y6.886 Z-3.500 I-4.577 J-10.901 K0.000 F200.000
G2 X-0.964 Y6.406 Z-3.500 I-3.515 J-7.999 K0.000 F200.000
G1 X-0.964 Y6.406 Z-3.600 F60.000
G2 X-0.664 Y6.220 Z-3.600 I-4.450 J-7.519 K0.000 F200.000
G2 X0.007 Y5.326 Z-3.600 I-0.444 J-1.032 K0.000 F200.000
G2 X0.088 Y5.180 Z-3.600 I-0.086 J-0.144 K0.000 F200.000
G2 X0.237 Y3.440 Z-3.600 I-16.473 J-2.285 K0.000 F200.000
G1 X-0.102 Y2.464 Z-3.600 F200.000
G2 X-0.834 Y1.774 Z-3.600 I-1.836 J1.213 K0.000 F200.000
G2 X-2.382 Y0.974 Z-3.600 I-842.025 J1628.263 K0.000 F200.000
G2 X-3.825 Y0.412 Z-3.600 I-1.877 J2.689 K0.000 F200.000
G3 X-4.682 Y0.219 Z-3.600 I0.005 J-2.020 K0.000 F200.000
G2 X-5.875 Y-0.239 Z-3.600 I-2.482 J4.689 K0.000 F200.000
G2 X-7.771 Y-0.250 Z-3.600 I-1.114 J27.384 K0.000 F200.000
G2 X-8.226 Y0.021 Z-3.600 I0.080 J0.652 K0.000 F200.000
G2 X-8.909 Y0.711 Z-3.600 I25.999 J26.426 K0.000 F200.000
G3 X-9.297 Y1.021 Z-3.600 I-1.546 J-1.535 K0.000 F200.000
G3 X-9.861 Y1.025 Z-3.600 I-0.293 J-1.699 K0.000 F200.000
G1 X-9.931 Y1.004 Z-3.600 F200.000
G3 X-10.511 Y0.423 Z-3.600 I1.830 J-2.408 K0.000 F200.000
G2 X-11.317 Y0.400 Z-3.600 I-0.540 J4.739 K0.000 F200.000
G3 X-12.346 Y-0.059 Z-3.600 I13.259 J-31.088 K0.000 F200.000
G2 X-12.694 Y-0.222 Z-3.600 I-1.689 J3.156 K0.000 F200.000
G1 X-13.430 Y-0.223 Z-3.600 F200.000
G2 X-13.665 Y-0.060 Z-3.600 I-0.000 J0.250 K0.000 F200.000
G3 X-14.140 Y0.369 Z-3.600 I-8.809 J-9.296 K0.000 F200.000
G3 X-14.904 Y0.398 Z-3.600 I-0.687 J-7.903 K0.000 F200.000
G3 X-16.203 Y1.015 Z-3.600 I-3.324 J-5.322 K0.000 F200.000
G3 X-16.922 Y1.026 Z-3.600 I-0.389 J-2.005 K0.000 F200.000
G3 X-17.222 Y0.789 Z-3.600 I0.239 J-0.610 K0.000 F200.000
G2 X-17.573 Y0.422 Z-3.600 I-1.156 J0.755 K0.000 F200.000
G2 X-18.210 Y0.396 Z-3.600 I-0.416 J2.410 K0.000 F200.000
G3 X-18.647 Y0.076 Z-3.600 I0.222 J-0.762 K0.000 F200.000
G2 X-19.147 Y-0.223 Z-3.600 I-0.474 J0.224 K0.000 F200.000
G1 X-19.530 Y-0.223 Z-3.600 F200.000
G0 Z3.000
G0 Z5.000
G0 X-19.530 Y8.435
G0 Z3.000
G1 Z-3.600 F60.000
G1 X-19.024 Y8.435 Z-3.600 F200.000
G2 X-18.749 Y8.286 Z-3.600 I-0.072 J-0.461 K0.000 F200.000
G3 X-18.268 Y7.764 Z-3.600 I2.115 J1.468 K0.000 F200.000
G1 X-17.628 Y7.764 Z-3.600 F200.000
G1 X-17.540 Y7.748 Z-3.600 F200.000
G3 X-16.997 Y7.215 Z-3.600 I13.590 J13.322 K0.000 F200.000
G3 X-16.377 Y7.107 Z-3.600 I0.429 J0.629 K0.000 F200.000
G3 X-16.052 Y7.266 Z-3.600 I-0.031 J0.475 K0.000 F200.000
G3 X-14.966 Y7.730 Z-3.600 I-0.730 J3.213 K0.000 F200.000
G2 X-14.463 Y7.752 Z-3.600 I0.291 J-0.894 K0.000 F200.000
G3 X-14.049 Y7.856 Z-3.600 I0.099 J0.480 K0.000 F200.000
G2 X-13.632 Y8.259 Z-3.600 I5.830 J-5.616 K0.000 F200.000
G2 X-13.017 Y8.415 Z-3.600 I0.471 J-0.563 K0.000 F200.000
G2 X-12.334 Y8.230 Z-3.600 I0.070 J-1.097 K0.000 F200.000
G3 X-11.387 Y7.770 Z-3.600 I3.695 J6.396 K0.000 F200.000
G1 X-10.681 Y7.770 Z-3.600 F200.000
G1 X-10.604 Y7.758 Z-3.600 F200.000
G2 X-9.920 Y7.112 Z-3.600 I-12.118 J-13.520 K0.000 F200.000
G3 X-9.095 Y7.265 Z-3.600 I0.247 J0.973 K0.000 F200.000
G3 X-8.143 Y8.208 Z-3.600 I-9.566 J10.611 K0.000 F200.000
G2 X-7.874 Y8.377 Z-3.600 I0.468 J-0.446 K0.000 F200.000
G2 X-6.359 Y8.400 Z-3.600 I0.920 J-10.609 K0.000 F200.000
G2 X-5.294 Y8.153 Z-3.600 I0.108 J-1.952 K0.000 F200.000
G3 X-4.144 Y7.722 Z-3.600 I2.368 J4.569 K0.000 F200.000
G2 X-3.266 Y7.567 Z-3.600 I0.016 J-2.468 K0.000 F200.000
G2 X-1.899 Y6.886 Z-3.600 I-4.577 J-10.901 K0.000 F200.000
G2 X-0.964 Y6.406 Z-3.600 I-3.515 J-7.999 K0.000 F200.000
G1 X-0.964 Y6.406 Z-3.700 F60.000
G2 X-0.664 Y6.220 Z-3.700 I-4.450 J-7.519 K0.000 F200.000
G2 X0.007 Y5.326 Z-3.700 I-0.444 J-1.032 K0.000 F200.000
G2 X0.088 Y5.180 Z-3.700 I-0.086 J-0.144 K0.000 F200.000
G2 X0.237 Y3.440 Z-3.700 I-16.473 J-2.285 K0.000 F200.000
G1 X-0.102 Y2.464 Z-3.700 F200.000
G2 X-0.834 Y1.774 Z-3.700 I-1.836 J1.213 K0.000 F200.000
G2 X-2.382 Y0.974 Z-3.700 I-842.025 J1628.263 K0.000 F200.000
G2 X-3.825 Y0.412 Z-3.700 I-1.877 J2.689 K0.000 F200.000
G3 X-4.682 Y0.219 Z-3.700 I0.005 J-2.020 K0.000 F200.000
G2 X-5.875 Y-0.239 Z-3.700 I-2.482 J4.689 K0.000 F200.000
G2 X-7.771 Y-0.250 Z-3.700 I-1.114 J27.384 K0.000 F200.000
G2 X-8.226 Y0.021 Z-3.700 I0.080 J0.652 K0.000 F200.000
G2 X-8.909 Y0.711 Z-3.700 I25.999 J26.426 K0.000 F200.000
G3 X-9.297 Y1.021 Z-3.700 I-1.546 J-1.535 K0.000 F200.000
G3 X-9.861 Y1.025 Z-3.700 I-0.293 J-1.699 K0.000 F200.000
G1 X-9.931 Y1.004 Z-3.700 F200.000
G3 X-10.511 Y0.423 Z-3.700 I1.830 J-2.408 K0.000 F200.000
G2 X-11.317 Y0.400 Z-3.700 I-0.540 J4.739 K0.000 F200.000
G3 X-12.346 Y-0.059 Z-3.700 I13.259 J-31.088 K0.000 F200.000
G2 X-12.694 Y-0.222 Z-3.700 I-1.689 J3.156 K0.000 F200.000
G1 X-13.430 Y-0.223 Z-3.700 F200.000
G2 X-13.665 Y-0.060 Z-3.700 I-0.000 J0.250 K0.000 F200.000
G3 X-14.140 Y0.369 Z-3.700 I-8.809 J-9.296 K0.000 F200.000
G3 X-14.904 Y0.398 Z-3.700 I-0.687 J-7.903 K0.000 F200.000
G3 X-16.203 Y1.015 Z-3.700 I-3.324 J-5.322 K0.000 F200.000
G3 X-16.922 Y1.026 Z-3.700 I-0.389 J-2.005 K0.000 F200.000
G3 X-17.222 Y0.789 Z-3.700 I0.239 J-0.610 K0.000 F200.000
G2 X-17.573 Y0.422 Z-3.700 I-1.156 J0.755 K0.000 F200.000
G2 X-18.210 Y0.396 Z-3.700 I-0.416 J2.410 K0.000 F200.000
G3 X-18.647 Y0.076 Z-3.700 I0.222 J-0.762 K0.000 F200.000
G2 X-19.147 Y-0.223 Z-3.700 I-0.474 J0.224 K0.000 F200.000
G1 X-19.530 Y-0.223 Z-3.700 F200.000
G0 Z3.000
G0 Z5.000
G0 X-19.530 Y8.435
G0 Z3.000
G1 Z-3.700 F60.000
G1 X-19.024 Y8.435 Z-3.700 F200.000
G2 X-18.749 Y8.286 Z-3.700 I-0.072 J-0.461 K0.000 F200.000
G3 X-18.268 Y7.764 Z-3.700 I2.115 J1.468 K0.000 F200.000
G1 X-17.628 Y7.764 Z-3.700 F200.000
G1 X-17.540 Y7.748 Z-3.700 F200.000
G3 X-16.997 Y7.215 Z-3.700 I13.590 J13.322 K0.000 F200.000
G3 X-16.377 Y7.107 Z-3.700 I0.429 J0.629 K0.000 F200.000
G3 X-16.052 Y7.266 Z-3.700 I-0.031 J0.475 K0.000 F200.000
G3 X-14.966 Y7.730 Z-3.700 I-0.730 J3.213 K0.000 F200.000
G2 X-14.463 Y7.752 Z-3.700 I0.291 J-0.894 K0.000 F200.000
G3 X-14.049 Y7.856 Z-3.700 I0.099 J0.480 K0.000 F200.000
G2 X-13.632 Y8.259 Z-3.700 I5.830 J-5.616 K0.000 F200.000
G2 X-13.017 Y8.415 Z-3.700 I0.471 J-0.563 K0.000 F200.000
G2 X-12.334 Y8.230 Z-3.700 I0.070 J-1.097 K0.000 F200.000
G3 X-11.387 Y7.770 Z-3.700 I3.695 J6.396 K0.000 F200.000
G1 X-10.681 Y7.770 Z-3.700 F200.000
G1 X-10.604 Y7.758 Z-3.700 F200.000
G2 X-9.920 Y7.112 Z-3.700 I-12.118 J-13.520 K0.000 F200.000
G3 X-9.095 Y7.265 Z-3.700 I0.247 J0.973 K0.000 F200.000
G3 X-8.143 Y8.208 Z-3.700 I-9.566 J10.611 K0.000 F200.000
G2 X-7.874 Y8.377 Z-3.700 I0.468 J-0.446 K0.000 F200.000
G2 X-6.359 Y8.400 Z-3.700 I0.920 J-10.609 K0.000 F200.000
G2 X-5.294 Y8.153 Z-3.700 I0.108 J-1.952 K0.000 F200.000
G3 X-4.144 Y7.722 Z-3.700 I2.368 J4.569 K0.000 F200.000
G2 X-3.266 Y7.567 Z-3.700 I0.016 J-2.468 K0.000 F200.000
G2 X-1.899 Y6.886 Z-3.700 I-4.577 J-10.901 K0.000 F200.000
G2 X-0.964 Y6.406 Z-3.700 I-3.515 J-7.999 K0.000 F200.000
G1 X-0.964 Y6.406 Z-3.800 F60.000
G2 X-0.664 Y6.220 Z-3.800 I-4.450 J-7.519 K0.000 F200.000
G2 X0.007 Y5.326 Z-3.800 I-0.444 J-1.032 K0.000 F200.000
G2 X0.088 Y5.180 Z-3.800 I-0.086 J-0.144 K0.000 F200.000
G2 X0.237 Y3.440 Z-3.800 I-16.473 J-2.285 K0.000 F200.000
G1 X-0.102 Y2.464 Z-3.800 F200.000
G2 X-0.834 Y1.774 Z-3.800 I-1.836 J1.213 K0.000 F200.000
G2 X-2.382 Y0.974 Z-3.800 I-842.025 J1628.263 K0.000 F200.000
G2 X-3.825 Y0.412 Z-3.800 I-1.877 J2.689 K0.000 F200.000
G3 X-4.682 Y0.219 Z-3.800 I0.005 J-2.020 K0.000 F200.000
G2 X-5.875 Y-0.239 Z-3.800 I-2.482 J4.689 K0.000 F200.000
G2 X-7.771 Y-0.250 Z-3.800 I-1.114 J27.384 K0.000 F200.000
G2 X-8.226 Y0.021 Z-3.800 I0.080 J0.652 K0.000 F200.000
G2 X-8.909 Y0.711 Z-3.800 I25.999 J26.426 K0.000 F200.000
G3 X-9.297 Y1.021 Z-3.800 I-1.546 J-1.535 K0.000 F200.000
G3 X-9.861 Y1.025 Z-3.800 I-0.293 J-1.699 K0.000 F200.000
G1 X-9.931 Y1.004 Z-3.800 F200.000
G3 X-10.511 Y0.423 Z-3.800 I1.830 J-2.408 K0.000 F200.000
G2 X-11.317 Y0.400 Z-3.800 I-0.540 J4.739 K0.000 F200.000
G3 X-12.346 Y-0.059 Z-3.800 I13.259 J-31.088 K0.000 F200.000
G2 X-12.694 Y-0.222 Z-3.800 I-1.689 J3.156 K0.000 F200.000
G1 X-13.430 Y-0.223 Z-3.800 F200.000
G2 X-13.665 Y-0.060 Z-3.800 I-0.000 J0.250 K0.000 F200.000
G3 X-14.140 Y0.369 Z-3.800 I-8.809 J-9.296 K0.000 F200.000
G3 X-14.904 Y0.398 Z-3.800 I-0.687 J-7.903 K0.000 F200.000
G3 X-16.203 Y1.015 Z-3.800 I-3.324 J-5.322 K0.000 F200.000
G3 X-16.922 Y1.026 Z-3.800 I-0.389 J-2.005 K0.000 F200.000
G3 X-17.222 Y0.789 Z-3.800 I0.239 J-0.610 K0.000 F200.000
G2 X-17.573 Y0.422 Z-3.800 I-1.156 J0.755 K0.000 F200.000
G2 X-18.210 Y0.396 Z-3.800 I-0.416 J2.410 K0.000 F200.000
G3 X-18.647 Y0.076 Z-3.800 I0.222 J-0.762 K0.000 F200.000
G2 X-19.147 Y-0.223 Z-3.800 I-0.474 J0.224 K0.000 F200.000
G1 X-19.530 Y-0.223 Z-3.800 F200.000
G0 Z3.000
G0 Z5.000
G0 X-19.530 Y8.435
G0 Z3.000
G1 Z-3.800 F60.000
G1 X-19.024 Y8.435 Z-3.800 F200.000
G2 X-18.749 Y8.286 Z-3.800 I-0.072 J-0.461 K0.000 F200.000
G3 X-18.268 Y7.764 Z-3.800 I2.115 J1.468 K0.000 F200.000
G1 X-17.628 Y7.764 Z-3.800 F200.000
G1 X-17.540 Y7.748 Z-3.800 F200.000
G3 X-16.997 Y7.215 Z-3.800 I13.590 J13.322 K0.000 F200.000
G3 X-16.377 Y7.107 Z-3.800 I0.429 J0.629 K0.000 F200.000
G3 X-16.052 Y7.266 Z-3.800 I-0.031 J0.475 K0.000 F200.000
G3 X-14.966 Y7.730 Z-3.800 I-0.730 J3.213 K0.000 F200.000
G2 X-14.463 Y7.752 Z-3.800 I0.291 J-0.894 K0.000 F200.000
G3 X-14.049 Y7.856 Z-3.800 I0.099 J0.480 K0.000 F200.000
G2 X-13.632 Y8.259 Z-3.800 I5.830 J-5.616 K0.000 F200.000
G2 X-13.017 Y8.415 Z-3.800 I0.471 J-0.563 K0.000 F200.000
G2 X-12.334 Y8.230 Z-3.800 I0.070 J-1.097 K0.000 F200.000
G3 X-11.387 Y7.770 Z-3.800 I3.695 J6.396 K0.000 F200.000
G1 X-10.681 Y7.770 Z-3.800 F200.000
G1 X-10.604 Y7.758 Z-3.800 F200.000
G2 X-9.920 Y7.112 Z-3.800 I-12.118 J-13.520 K0.000 F200.000
G3 X-9.095 Y7.265 Z-3.800 I0.247 J0.973 K0.000 F200.000
G3 X-8.143 Y8.208 Z-3.800 I-9.566 J10.611 K0.000 F200.000
G2 X-7.874 Y8.377 Z-3.800 I0.468 J-0.446 K0.000 F200.000
G2 X-6.359 Y8.400 Z-3.800 I0.920 J-10.609 K0.000 F200.000
G2 X-5.294 Y8.153 Z-3.800 I0.108 J-1.952 K0.000 F200.000
G3 X-4.144 Y7.722 Z-3.800 I2.368 J4.569 K0.000 F200.000
G2 X-3.266 Y7.567 Z-3.800 I0.016 J-2.468 K0.000 F200.000
G2 X-1.899 Y6.886 Z-3.800 I-4.577 J-10.901 K0.000 F200.000
G2 X-0.964 Y6.406 Z-3.800 I-3.515 J-7.999 K0.000 F200.000
G1 X-0.964 Y6.406 Z-3.900 F60.000
G2 X-0.664 Y6.220 Z-3.900 I-4.450 J-7.519 K0.000 F200.000
G2 X0.007 Y5.326 Z-3.900 I-0.444 J-1.032 K0.000 F200.000
G2 X0.088 Y5.180 Z-3.900 I-0.086 J-0.144 K0.000 F200.000
G2 X0.237 Y3.440 Z-3.900 I-16.473 J-2.285 K0.000 F200.000
G1 X-0.102 Y2.464 Z-3.900 F200.000
G2 X-0.834 Y1.774 Z-3.900 I-1.836 J1.213 K0.000 F200.000
G2 X-2.382 Y0.974 Z-3.900 I-842.025 J1628.263 K0.000 F200.000
G2 X-3.825 Y0.412 Z-3.900 I-1.877 J2.689 K0.000 F200.000
G3 X-4.682 Y0.219 Z-3.900 I0.005 J-2.020 K0.000 F200.000
G2 X-5.875 Y-0.239 Z-3.900 I-2.482 J4.689 K0.000 F200.000
G2 X-7.771 Y-0.250 Z-3.900 I-1.114 J27.384 K0.000 F200.000
G2 X-8.226 Y0.021 Z-3.900 I0.080 J0.652 K0.000 F200.000
G2 X-8.909 Y0.711 Z-3.900 I25.999 J26.426 K0.000 F200.000
G3 X-9.297 Y1.021 Z-3.900 I-1.546 J-1.535 K0.000 F200.000
G3 X-9.861 Y1.025 Z-3.900 I-0.293 J-1.699 K0.000 F200.000
G1 X-9.931 Y1.004 Z-3.900 F200.000
G3 X-10.511 Y0.423 Z-3.900 I1.830 J-2.408 K0.000 F200.000
G2 X-11.317 Y0.400 Z-3.900 I-0.540 J4.739 K0.000 F200.000
G3 X-12.346 Y-0.059 Z-3.900 I13.259 J-31.088 K0.000 F200.000
G2 X-12.694 Y-0.222 Z-3.900 I-1.689 J3.156 K0.000 F200.000
G1 X-13.430 Y-0.223 Z-3.900 F200.000
G2 X-13.665 Y-0.060 Z-3.900 I-0.000 J0.250 K0.000 F200.000
G3 X-14.140 Y0.369 Z-3.900 I-8.809 J-9.296 K0.000 F200.000
G3 X-14.904 Y0.398 Z-3.900 I-0.687 J-7.903 K0.000 F200.000
G3 X-16.203 Y1.015 Z-3.900 I-3.324 J-5.322 K0.000 F200.000
G3 X-16.922 Y1.026 Z-3.900 I-0.389 J-2.005 K0.000 F200.000
G3 X-17.222 Y0.789 Z-3.900 I0.239 J-0.610 K0.000 F200.000
G2 X-17.573 Y0.422 Z-3.900 I-1.156 J0.755 K0.000 F200.000
G2 X-18.210 Y0.396 Z-3.900 I-0.416 J2.410 K0.000 F200.000
G3 X-18.647 Y0.076 Z-3.900 I0.222 J-0.762 K0.000 F200.000
G2 X-19.147 Y-0.223 Z-3.900 I-0.474 J0.224 K0.000 F200.000
G1 X-19.530 Y-0.223 Z-3.900 F200.000
G0 Z3.000
G0 Z5.000
G0 X-19.530 Y8.435
G0 Z3.000
G1 Z-3.900 F60.000
G1 X-19.024 Y8.435 Z-3.900 F200.000
G2 X-18.749 Y8.286 Z-3.900 I-0.072 J-0.461 K0.000 F200.000
G3 X-18.268 Y7.764 Z-3.900 I2.115 J1.468 K0.000 F200.000
G1 X-17.628 Y7.764 Z-3.900 F200.000
G1 X-17.540 Y7.748 Z-3.900 F200.000
G3 X-16.997 Y7.215 Z-3.900 I13.590 J13.322 K0.000 F200.000
G3 X-16.377 Y7.107 Z-3.900 I0.429 J0.629 K0.000 F200.000
G3 X-16.052 Y7.266 Z-3.900 I-0.031 J0.475 K0.000 F200.000
G3 X-14.966 Y7.730 Z-3.900 I-0.730 J3.213 K0.000 F200.000
G2 X-14.463 Y7.752 Z-3.900 I0.291 J-0.894 K0.000 F200.000
G3 X-14.049 Y7.856 Z-3.900 I0.099 J0.480 K0.000 F200.000
G2 X-13.632 Y8.259 Z-3.900 I5.830 J-5.616 K0.000 F200.000
G2 X-13.017 Y8.415 Z-3.900 I0.471 J-0.563 K0.000 F200.000
G2 X-12.334 Y8.230 Z-3.900 I0.070 J-1.097 K0.000 F200.000
G3 X-11.387 Y7.770 Z-3.900 I3.695 J6.396 K0.000 F200.000
G1 X-10.681 Y7.770 Z-3.900 F200.000
G1 X-10.604 Y7.758 Z-3.900 F200.000
G2 X-9.920 Y7.112 Z-3.900 I-12.118 J-13.520 K0.000 F200.000
G3 X-9.095 Y7.265 Z-3.900 I0.247 J0.973 K0.000 F200.000
G3 X-8.143 Y8.208 Z-3.900 I-9.566 J10.611 K0.000 F200.000
G2 X-7.874 Y8.377 Z-3.900 I0.468 J-0.446 K0.000 F200.000
G2 X-6.359 Y8.400 Z-3.900 I0.920 J-10.609 K0.000 F200.000
G2 X-5.294 Y8.153 Z-3.900 I0.108 J-1.952 K0.000 F200.000
G3 X-4.144 Y7.722 Z-3.900 I2.368 J4.569 K0.000 F200.000
G2 X-3.266 Y7.567 Z-3.900 I0.016 J-2.468 K0.000 F200.000
G2 X-1.899 Y6.886 Z-3.900 I-4.577 J-10.901 K0.000 F200.000
G2 X-0.964 Y6.406 Z-3.900 I-3.515 J-7.999 K0.000 F200.000
G1 X-0.964 Y6.406 Z-4.000 F60.000
G2 X-0.664 Y6.220 Z-4.000 I-4.450 J-7.519 K0.000 F200.000
G2 X0.007 Y5.326 Z-4.000 I-0.444 J-1.032 K0.000 F200.000
G2 X0.088 Y5.180 Z-4.000 I-0.086 J-0.144 K0.000 F200.000
G2 X0.237 Y3.440 Z-4.000 I-16.473 J-2.285 K0.000 F200.000
G1 X-0.102 Y2.464 Z-4.000 F200.000
G2 X-0.834 Y1.774 Z-4.000 I-1.836 J1.213 K0.000 F200.000
G2 X-2.382 Y0.974 Z-4.000 I-842.025 J1628.263 K0.000 F200.000
G2 X-3.825 Y0.412 Z-4.000 I-1.877 J2.689 K0.000 F200.000
G3 X-4.682 Y0.219 Z-4.000 I0.005 J-2.020 K0.000 F200.000
G2 X-5.875 Y-0.239 Z-4.000 I-2.482 J4.689 K0.000 F200.000
G2 X-7.771 Y-0.250 Z-4.000 I-1.114 J27.384 K0.000 F200.000
G2 X-8.226 Y0.021 Z-4.000 I0.080 J0.652 K0.000 F200.000
G2 X-8.909 Y0.711 Z-4.000 I25.999 J26.426 K0.000 F200.000
G3 X-9.297 Y1.021 Z-4.000 I-1.546 J-1.535 K0.000 F200.000
G3 X-9.861 Y1.025 Z-4.000 I-0.293 J-1.699 K0.000 F200.000
G1 X-9.931 Y1.004 Z-4.000 F200.000
G3 X-10.511 Y0.423 Z-4.000 I1.830 J-2.408 K0.000 F200.000
G2 X-11.317 Y0.400 Z-4.000 I-0.540 J4.739 K0.000 F200.000
G3 X-12.346 Y-0.059 Z-4.000 I13.259 J-31.088 K0.000 F200.000
G2 X-12.694 Y-0.222 Z-4.000 I-1.689 J3.156 K0.000 F200.000
G1 X-13.430 Y-0.223 Z-4.000 F200.000
G2 X-13.665 Y-0.060 Z-4.000 I-0.000 J0.250 K0.000 F200.000
G3 X-14.140 Y0.369 Z-4.000 I-8.809 J-9.296 K0.000 F200.000
G3 X-14.904 Y0.398 Z-4.000 I-0.687 J-7.903 K0.000 F200.000
G3 X-16.203 Y1.015 Z-4.000 I-3.324 J-5.322 K0.000 F200.000
G3 X-16.922 Y1.026 Z-4.000 I-0.389 J-2.005 K0.000 F200.000
G3 X-17.222 Y0.789 Z-4.000 I0.239 J-0.610 K0.000 F200.000
G2 X-17.573 Y0.422 Z-4.000 I-1.156 J0.755 K0.000 F200.000
G2 X-18.210 Y0.396 Z-4.000 I-0.416 J2.410 K0.000 F200.000
G3 X-18.647 Y0.076 Z-4.000 I0.222 J-0.762 K0.000 F200.000
G2 X-19.147 Y-0.223 Z-4.000 I-0.474 J0.224 K0.000 F200.000
G1 X-19.530 Y-0.223 Z-4.000 F200.000
G0 Z3.000
G0 Z5.000
G0 X-19.530 Y8.435
G0 Z3.000
G1 Z-4.000 F60.000
G1 X-19.024 Y8.435 Z-4.000 F200.000
G2 X-18.749 Y8.286 Z-4.000 I-0.072 J-0.461 K0.000 F200.000
G3 X-18.268 Y7.764 Z-4.000 I2.115 J1.468 K0.000 F200.000
G1 X-17.628 Y7.764 Z-4.000 F200.000
G1 X-17.540 Y7.748 Z-4.000 F200.000
G3 X-16.997 Y7.215 Z-4.000 I13.590 J13.322 K0.000 F200.000
G3 X-16.377 Y7.107 Z-4.000 I0.429 J0.629 K0.000 F200.000
G3 X-16.052 Y7.266 Z-4.000 I-0.031 J0.475 K0.000 F200.000
G3 X-14.966 Y7.730 Z-4.000 I-0.730 J3.213 K0.000 F200.000
G2 X-14.463 Y7.752 Z-4.000 I0.291 J-0.894 K0.000 F200.000
G3 X-14.049 Y7.856 Z-4.000 I0.099 J0.480 K0.000 F200.000
G2 X-13.632 Y8.259 Z-4.000 I5.830 J-5.616 K0.000 F200.000
G2 X-13.017 Y8.415 Z-4.000 I0.471 J-0.563 K0.000 F200.000
G2 X-12.334 Y8.230 Z-4.000 I0.070 J-1.097 K0.000 F200.000
G3 X-11.387 Y7.770 Z-4.000 I3.695 J6.396 K0.000 F200.000
G1 X-10.681 Y7.770 Z-4.000 F200.000
G1 X-10.604 Y7.758 Z-4.000 F200.000
G2 X-9.920 Y7.112 Z-4.000 I-12.118 J-13.520 K0.000 F200.000
G3 X-9.095 Y7.265 Z-4.000 I0.247 J0.973 K0.000 F200.000
G3 X-8.143 Y8.208 Z-4.000 I-9.566 J10.611 K0.000 F200.000
G2 X-7.874 Y8.377 Z-4.000 I0.468 J-0.446 K0.000 F200.000
G2 X-6.359 Y8.400 Z-4.000 I0.920 J-10.609 K0.000 F200.000
G2 X-5.294 Y8.153 Z-4.000 I0.108 J-1.952 K0.000 F200.000
G3 X-4.144 Y7.722 Z-4.000 I2.368 J4.569 K0.000 F200.000
G2 X-3.266 Y7.567 Z-4.000 I0.016 J-2.468 K0.000 F200.000
G2 X-1.899 Y6.886 Z-4.000 I-4.577 J-10.901 K0.000 F200.000
G2 X-0.964 Y6.406 Z-4.000 I-3.515 J-7.999 K0.000 F200.000
G1 X-0.964 Y6.406 Z-4.100 F60.000
G2 X-0.664 Y6.220 Z-4.100 I-4.450 J-7.519 K0.000 F200.000
G2 X0.007 Y5.326 Z-4.100 I-0.444 J-1.032 K0.000 F200.000
G2 X0.088 Y5.180 Z-4.100 I-0.086 J-0.144 K0.000 F200.000
G2 X0.237 Y3.440 Z-4.100 I-16.473 J-2.285 K0.000 F200.000
G1 X-0.102 Y2.464 Z-4.100 F200.000
G2 X-0.834 Y1.774 Z-4.100 I-1.836 J1.213 K0.000 F200.000
G2 X-2.382 Y0.974 Z-4.100 I-842.025 J1628.263 K0.000 F200.000
G2 X-3.825 Y0.412 Z-4.100 I-1.877 J2.689 K0.000 F200.000
G3 X-4.682 Y0.219 Z-4.100 I0.005 J-2.020 K0.000 F200.000
G2 X-5.875 Y-0.239 Z-4.100 I-2.482 J4.689 K0.000 F200.000
G2 X-7.771 Y-0.250 Z-4.100 I-1.114 J27.384 K0.000 F200.000
G2 X-8.226 Y0.021 Z-4.100 I0.080 J0.652 K0.000 F200.000
G2 X-8.909 Y0.711 Z-4.100 I25.999 J26.426 K0.000 F200.000
G3 X-9.297 Y1.021 Z-4.100 I-1.546 J-1.535 K0.000 F200.000
G3 X-9.861 Y1.025 Z-4.100 I-0.293 J-1.699 K0.000 F200.000
G1 X-9.931 Y1.004 Z-4.100 F200.000
G3 X-10.511 Y0.423 Z-4.100 I1.830 J-2.408 K0.000 F200.000
G2 X-11.317 Y0.400 Z-4.100 I-0.540 J4.739 K0.000 F200.000
G3 X-12.346 Y-0.059 Z-4.100 I13.259 J-31.088 K0.000 F200.000
G2 X-12.694 Y-0.222 Z-4.100 I-1.689 J3.156 K0.000 F200.000
G1 X-13.430 Y-0.223 Z-4.100 F200.000
G2 X-13.665 Y-0.060 Z-4.100 I-0.000 J0.250 K0.000 F200.000
G3 X-14.140 Y0.369 Z-4.100 I-8.809 J-9.296 K0.000 F200.000
G3 X-14.904 Y0.398 Z-4.100 I-0.687 J-7.903 K0.000 F200.000
G3 X-16.203 Y1.015 Z-4.100 I-3.324 J-5.322 K0.000 F200.000
G3 X-16.922 Y1.026 Z-4.100 I-0.389 J-2.005 K0.000 F200.000
G3 X-17.222 Y0.789 Z-4.100 I0.239 J-0.610 K0.000 F200.000
G2 X-17.573 Y0.422 Z-4.100 I-1.156 J0.755 K0.000 F200.000
G2 X-18.210 Y0.396 Z-4.100 I-0.416 J2.410 K0.000 F200.000
G3 X-18.647 Y0.076 Z-4.100 I0.222 J-0.762 K0.000 F200.000
G2 X-19.147 Y-0.223 Z-4.100 I-0.474 J0.224 K0.000 F200.000
G1 X-19.530 Y-0.223 Z-4.100 F200.000
G0 Z3.000
G0 Z5.000
G0 X-19.530 Y8.435
G0 Z3.000
G1 Z-4.100 F60.000
G1 X-19.024 Y8.435 Z-4.100 F200.000
G2 X-18.749 Y8.286 Z-4.100 I-0.072 J-0.461 K0.000 F200.000
G3 X-18.268 Y7.764 Z-4.100 I2.115 J1.468 K0.000 F200.000
G1 X-17.628 Y7.764 Z-4.100 F200.000
G1 X-17.540 Y7.748 Z-4.100 F200.000
G3 X-16.997 Y7.215 Z-4.100 I13.590 J13.322 K0.000 F200.000
G3 X-16.377 Y7.107 Z-4.100 I0.429 J0.629 K0.000 F200.000
G3 X-16.052 Y7.266 Z-4.100 I-0.031 J0.475 K0.000 F200.000
G3 X-14.966 Y7.730 Z-4.100 I-0.730 J3.213 K0.000 F200.000
G2 X-14.463 Y7.752 Z-4.100 I0.291 J-0.894 K0.000 F200.000
G3 X-14.049 Y7.856 Z-4.100 I0.099 J0.480 K0.000 F200.000
G2 X-13.632 Y8.259 Z-4.100 I5.830 J-5.616 K0.000 F200.000
G2 X-13.017 Y8.415 Z-4.100 I0.471 J-0.563 K0.000 F200.000
G2 X-12.334 Y8.230 Z-4.100 I0.070 J-1.097 K0.000 F200.000
G3 X-11.387 Y7.770 Z-4.100 I3.695 J6.396 K0.000 F200.000
G1 X-10.681 Y7.770 Z-4.100 F200.000
G1 X-10.604 Y7.758 Z-4.100 F200.000
G2 X-9.920 Y7.112 Z-4.100 I-12.118 J-13.520 K0.000 F200.000
G3 X-9.095 Y7.265 Z-4.100 I0.247 J0.973 K0.000 F200.000
G3 X-8.143 Y8.208 Z-4.100 I-9.566 J10.611 K0.000 F200.000
G2 X-7.874 Y8.377 Z-4.100 I0.468 J-0.446 K0.000 F200.000
G2 X-6.359 Y8.400 Z-4.100 I0.920 J-10.609 K0.000 F200.000
G2 X-5.294 Y8.153 Z-4.100 I0.108 J-1.952 K0.000 F200.000
G3 X-4.144 Y7.722 Z-4.100 I2.368 J4.569 K0.000 F200.000
G2 X-3.266 Y7.567 Z-4.100 I0.016 J-2.468 K0.000 F200.000
G2 X-1.899 Y6.886 Z-4.100 I-4.577 J-10.901 K0.000 F200.000
G2 X-0.964 Y6.406 Z-4.100 I-3.515 J-7.999 K0.000 F200.000
G1 X-0.964 Y6.406 Z-4.200 F60.000
G2 X-0.664 Y6.220 Z-4.200 I-4.450 J-7.519 K0.000 F200.000
G2 X0.007 Y5.326 Z-4.200 I-0.444 J-1.032 K0.000 F200.000
G2 X0.088 Y5.180 Z-4.200 I-0.086 J-0.144 K0.000 F200.000
G2 X0.237 Y3.440 Z-4.200 I-16.473 J-2.285 K0.000 F200.000
G1 X-0.102 Y2.464 Z-4.200 F200.000
G2 X-0.834 Y1.774 Z-4.200 I-1.836 J1.213 K0.000 F200.000
G2 X-2.382 Y0.974 Z-4.200 I-842.025 J1628.263 K0.000 F200.000
G2 X-3.825 Y0.412 Z-4.200 I-1.877 J2.689 K0.000 F200.000
G3 X-4.682 Y0.219 Z-4.200 I0.005 J-2.020 K0.000 F200.000
G2 X-5.875 Y-0.239 Z-4.200 I-2.482 J4.689 K0.000 F200.000
G2 X-7.771 Y-0.250 Z-4.200 I-1.114 J27.384 K0.000 F200.000
G2 X-8.226 Y0.021 Z-4.200 I0.080 J0.652 K0.000 F200.000
G2 X-8.909 Y0.711 Z-4.200 I25.999 J26.426 K0.000 F200.000
G3 X-9.297 Y1.021 Z-4.200 I-1.546 J-1.535 K0.000 F200.000
G3 X-9.861 Y1.025 Z-4.200 I-0.293 J-1.699 K0.000 F200.000
G1 X-9.931 Y1.004 Z-4.200 F200.000
G3 X-10.511 Y0.423 Z-4.200 I1.830 J-2.408 K0.000 F200.000
G2 X-11.317 Y0.400 Z-4.200 I-0.540 J4.739 K0.000 F200.000
G3 X-12.346 Y-0.059 Z-4.200 I13.259 J-31.088 K0.000 F200.000
G2 X-12.694 Y-0.222 Z-4.200 I-1.689 J3.156 K0.000 F200.000
G1 X-13.430 Y-0.223 Z-4.200 F200.000
G2 X-13.665 Y-0.060 Z-4.200 I-0.000 J0.250 K0.000 F200.000
G3 X-14.140 Y0.369 Z-4.200 I-8.809 J-9.296 K0.000 F200.000
G3 X-14.904 Y0.398 Z-4.200 I-0.687 J-7.903 K0.000 F200.000
G3 X-16.203 Y1.015 Z-4.200 I-3.324 J-5.322 K0.000 F200.000
G3 X-16.922 Y1.026 Z-4.200 I-0.389 J-2.005 K0.000 F200.000
G3 X-17.222 Y0.789 Z-4.200 I0.239 J-0.610 K0.000 F200.000
G2 X-17.573 Y0.422 Z-4.200 I-1.156 J0.755 K0.000 F200.000
G2 X-18.210 Y0.396 Z-4.200 I-0.416 J2.410 K0.000 F200.000
G3 X-18.647 Y0.076 Z-4.200 I0.222 J-0.762 K0.000 F200.000
G2 X-19.147 Y-0.223 Z-4.200 I-0.474 J0.224 K0.000 F200.000
G1 X-19.530 Y-0.223 Z-4.200 F200.000
G0 Z3.000
G0 Z5.000
G0 X-19.530 Y8.435
G0 Z3.000
G1 Z-4.200 F60.000
G1 X-19.024 Y8.435 Z-4.200 F200.000
G2 X-18.749 Y8.286 Z-4.200 I-0.072 J-0.461 K0.000 F200.000
G3 X-18.268 Y7.764 Z-4.200 I2.115 J1.468 K0.000 F200.000
G1 X-17.628 Y7.764 Z-4.200 F200.000
G1 X-17.540 Y7.748 Z-4.200 F200.000
G3 X-16.997 Y7.215 Z-4.200 I13.590 J13.322 K0.000 F200.000
G3 X-16.377 Y7.107 Z-4.200 I0.429 J0.629 K0.000 F200.000
G3 X-16.052 Y7.266 Z-4.200 I-0.031 J0.475 K0.000 F200.000
G3 X-14.966 Y7.730 Z-4.200 I-0.730 J3.213 K0.000 F200.000
G2 X-14.463 Y7.752 Z-4.200 I0.291 J-0.894 K0.000 F200.000
G3 X-14.049 Y7.856 Z-4.200 I0.099 J0.480 K0.000 F200.000
G2 X-13.632 Y8.259 Z-4.200 I5.830 J-5.616 K0.000 F200.000
G2 X-13.017 Y8.415 Z-4.200 I0.471 J-0.563 K0.000 F200.000
G2 X-12.334 Y8.230 Z-4.200 I0.070 J-1.097 K0.000 F200.000
G3 X-11.387 Y7.770 Z-4.200 I3.695 J6.396 K0.000 F200.000
G1 X-10.681 Y7.770 Z-4.200 F200.000
G1 X-10.604 Y7.758 Z-4.200 F200.000
G2 X-9.920 Y7.112 Z-4.200 I-12.118 J-13.520 K0.000 F200.000
G3 X-9.095 Y7.265 Z-4.200 I0.247 J0.973 K0.000 F200.000
G3 X-8.143 Y8.208 Z-4.200 I-9.566 J10.611 K0.000 F200.000
G2 X-7.874 Y8.377 Z-4.200 I0.468 J-0.446 K0.000 F200.000
G2 X-6.359 Y8.400 Z-4.200 I0.920 J-10.609 K0.000 F200.000
G2 X-5.294 Y8.153 Z-4.200 I0.108 J-1.952 K0.000 F200.000
G3 X-4.144 Y7.722 Z-4.200 I2.368 J4.569 K0.000 F200.000
G2 X-3.266 Y7.567 Z-4.200 I0.016 J-2.468 K0.000 F200.000
G2 X-1.899 Y6.886 Z-4.200 I-4.577 J-10.901 K0.000 F200.000
G2 X-0.964 Y6.406 Z-4.200 I-3.515 J-7.999 K0.000 F200.000
G1 X-0.964 Y6.406 Z-4.300 F60.000
G2 X-0.664 Y6.220 Z-4.300 I-4.450 J-7.519 K0.000 F200.000
G2 X0.007 Y5.326 Z-4.300 I-0.444 J-1.032 K0.000 F200.000
G2 X0.088 Y5.180 Z-4.300 I-0.086 J-0.144 K0.000 F200.000
G2 X0.237 Y3.440 Z-4.300 I-16.473 J-2.285 K0.000 F200.000
G1 X-0.102 Y2.464 Z-4.300 F200.000
G2 X-0.834 Y1.774 Z-4.300 I-1.836 J1.213 K0.000 F200.000
G2 X-2.382 Y0.974 Z-4.300 I-842.025 J1628.263 K0.000 F200.000
G2 X-3.825 Y0.412 Z-4.300 I-1.877 J2.689 K0.000 F200.000
G3 X-4.682 Y0.219 Z-4.300 I0.005 J-2.020 K0.000 F200.000
G2 X-5.875 Y-0.239 Z-4.300 I-2.482 J4.689 K0.000 F200.000
G2 X-7.771 Y-0.250 Z-4.300 I-1.114 J27.384 K0.000 F200.000
G2 X-8.226 Y0.021 Z-4.300 I0.080 J0.652 K0.000 F200.000
G2 X-8.909 Y0.711 Z-4.300 I25.999 J26.426 K0.000 F200.000
G3 X-9.297 Y1.021 Z-4.300 I-1.546 J-1.535 K0.000 F200.000
G3 X-9.861 Y1.025 Z-4.300 I-0.293 J-1.699 K0.000 F200.000
G1 X-9.931 Y1.004 Z-4.300 F200.000
G3 X-10.511 Y0.423 Z-4.300 I1.830 J-2.408 K0.000 F200.000
G2 X-11.317 Y0.400 Z-4.300 I-0.540 J4.739 K0.000 F200.000
G3 X-12.346 Y-0.059 Z-4.300 I13.259 J-31.088 K0.000 F200.000
G2 X-12.694 Y-0.222 Z-4.300 I-1.689 J3.156 K0.000 F200.000
G1 X-13.430 Y-0.223 Z-4.300 F200.000
G2 X-13.665 Y-0.060 Z-4.300 I-0.000 J0.250 K0.000 F200.000
G3 X-14.140 Y0.369 Z-4.300 I-8.809 J-9.296 K0.000 F200.000
G3 X-14.904 Y0.398 Z-4.300 I-0.687 J-7.903 K0.000 F200.000
G3 X-16.203 Y1.015 Z-4.300 I-3.324 J-5.322 K0.000 F200.000
G3 X-16.922 Y1.026 Z-4.300 I-0.389 J-2.005 K0.000 F200.000
G3 X-17.222 Y0.789 Z-4.300 I0.239 J-0.610 K0.000 F200.000
G2 X-17.573 Y0.422 Z-4.300 I-1.156 J0.755 K0.000 F200.000
G2 X-18.210 Y0.396 Z-4.300 I-0.416 J2.410 K0.000 F200.000
G3 X-18.647 Y0.076 Z-4.300 I0.222 J-0.762 K0.000 F200.000
G2 X-19.147 Y-0.223 Z-4.300 I-0.474 J0.224 K0.000 F200.000
G1 X-19.530 Y-0.223 Z-4.300 F200.000
G0 Z3.000
G0 Z5.000
G0 X-19.530 Y8.435
G0 Z3.000
G1 Z-4.300 F60.000
G1 X-19.024 Y8.435 Z-4.300 F200.000
G2 X-18.749 Y8.286 Z-4.300 I-0.072 J-0.461 K0.000 F200.000
G3 X-18.268 Y7.764 Z-4.300 I2.115 J1.468 K0.000 F200.000
G1 X-17.628 Y7.764 Z-4.300 F200.000
G1 X-17.540 Y7.748 Z-4.300 F200.000
G3 X-16.997 Y7.215 Z-4.300 I13.590 J13.322 K0.000 F200.000
G3 X-16.377 Y7.107 Z-4.300 I0.429 J0.629 K0.000 F200.000
G3 X-16.052 Y7.266 Z-4.300 I-0.031 J0.475 K0.000 F200.000
G3 X-14.966 Y7.730 Z-4.300 I-0.730 J3.213 K0.000 F200.000
G2 X-14.463 Y7.752 Z-4.300 I0.291 J-0.894 K0.000 F200.000
G3 X-14.049 Y7.856 Z-4.300 I0.099 J0.480 K0.000 F200.000
G2 X-13.632 Y8.259 Z-4.300 I5.830 J-5.616 K0.000 F200.000
G2 X-13.017 Y8.415 Z-4.300 I0.471 J-0.563 K0.000 F200.000
G2 X-12.334 Y8.230 Z-4.300 I0.070 J-1.097 K0.000 F200.000
G3 X-11.387 Y7.770 Z-4.300 I3.695 J6.396 K0.000 F200.000
G1 X-10.681 Y7.770 Z-4.300 F200.000
G1 X-10.604 Y7.758 Z-4.300 F200.000
G2 X-9.920 Y7.112 Z-4.300 I-12.118 J-13.520 K0.000 F200.000
G3 X-9.095 Y7.265 Z-4.300 I0.247 J0.973 K0.000 F200.000
G3 X-8.143 Y8.208 Z-4.300 I-9.566 J10.611 K0.000 F200.000
G2 X-7.874 Y8.377 Z-4.300 I0.468 J-0.446 K0.000 F200.000
G2 X-6.359 Y8.400 Z-4.300 I0.920 J-10.609 K0.000 F200.000
G2 X-5.294 Y8.153 Z-4.300 I0.108 J-1.952 K0.000 F200.000
G3 X-4.144 Y7.722 Z-4.300 I2.368 J4.569 K0.000 F200.000
G2 X-3.266 Y7.567 Z-4.300 I0.016 J-2.468 K0.000 F200.000
G2 X-1.899 Y6.886 Z-4.300 I-4.577 J-10.901 K0.000 F200.000
G2 X-0.964 Y6.406 Z-4.300 I-3.515 J-7.999 K0.000 F200.000
G1 X-0.964 Y6.406 Z-4.400 F60.000
G2 X-0.664 Y6.220 Z-4.400 I-4.450 J-7.519 K0.000 F200.000
G2 X0.007 Y5.326 Z-4.400 I-0.444 J-1.032 K0.000 F200.000
G2 X0.088 Y5.180 Z-4.400 I-0.086 J-0.144 K0.000 F200.000
G2 X0.237 Y3.440 Z-4.400 I-16.473 J-2.285 K0.000 F200.000
G1 X-0.102 Y2.464 Z-4.400 F200.000
G2 X-0.834 Y1.774 Z-4.400 I-1.836 J1.213 K0.000 F200.000
G2 X-2.382 Y0.974 Z-4.400 I-842.025 J1628.263 K0.000 F200.000
G2 X-3.825 Y0.412 Z-4.400 I-1.877 J2.689 K0.000 F200.000
G3 X-4.682 Y0.219 Z-4.400 I0.005 J-2.020 K0.000 F200.000
G2 X-5.875 Y-0.239 Z-4.400 I-2.482 J4.689 K0.000 F200.000
G2 X-7.771 Y-0.250 Z-4.400 I-1.114 J27.384 K0.000 F200.000
G2 X-8.226 Y0.021 Z-4.400 I0.080 J0.652 K0.000 F200.000
G2 X-8.909 Y0.711 Z-4.400 I25.999 J26.426 K0.000 F200.000
G3 X-9.297 Y1.021 Z-4.400 I-1.546 J-1.535 K0.000 F200.000
G3 X-9.861 Y1.025 Z-4.400 I-0.293 J-1.699 K0.000 F200.000
G1 X-9.931 Y1.004 Z-4.400 F200.000
G3 X-10.511 Y0.423 Z-4.400 I1.830 J-2.408 K0.000 F200.000
G2 X-11.317 Y0.400 Z-4.400 I-0.540 J4.739 K0.000 F200.000
G3 X-12.346 Y-0.059 Z-4.400 I13.259 J-31.088 K0.000 F200.000
G2 X-12.694 Y-0.222 Z-4.400 I-1.689 J3.156 K0.000 F200.000
G1 X-13.430 Y-0.223 Z-4.400 F200.000
G2 X-13.665 Y-0.060 Z-4.400 I-0.000 J0.250 K0.000 F200.000
G3 X-14.140 Y0.369 Z-4.400 I-8.809 J-9.296 K0.000 F200.000
G3 X-14.904 Y0.398 Z-4.400 I-0.687 J-7.903 K0.000 F200.000
G3 X-16.203 Y1.015 Z-4.400 I-3.324 J-5.322 K0.000 F200.000
G3 X-16.922 Y1.026 Z-4.400 I-0.389 J-2.005 K0.000 F200.000
G3 X-17.222 Y0.789 Z-4.400 I0.239 J-0.610 K0.000 F200.000
G2 X-17.573 Y0.422 Z-4.400 I-1.156 J0.755 K0.000 F200.000
G2 X-18.210 Y0.396 Z-4.400 I-0.416 J2.410 K0.000 F200.000
G3 X-18.647 Y0.076 Z-4.400 I0.222 J-0.762 K0.000 F200.000
G2 X-19.147 Y-0.223 Z-4.400 I-0.474 J0.224 K0.000 F200.000
G1 X-19.530 Y-0.223 Z-4.400 F200.000
G0 Z3.000
G0 Z5.000
G0 X-19.530 Y8.435
G0 Z3.000
G1 Z-4.400 F60.000
G1 X-19.024 Y8.435 Z-4.400 F200.000
G2 X-18.749 Y8.286 Z-4.400 I-0.072 J-0.461 K0.000 F200.000
G3 X-18.268 Y7.764 Z-4.400 I2.115 J1.468 K0.000 F200.000
G1 X-17.628 Y7.764 Z-4.400 F200.000
G1 X-17.540 Y7.748 Z-4.400 F200.000
G3 X-16.997 Y7.215 Z-4.400 I13.590 J13.322 K0.000 F200.000
G3 X-16.377 Y7.107 Z-4.400 I0.429 J0.629 K0.000 F200.000
G3 X-16.052 Y7.266 Z-4.400 I-0.031 J0.475 K0.000 F200.000
G3 X-14.966 Y7.730 Z-4.400 I-0.730 J3.213 K0.000 F200.000
G2 X-14.463 Y7.752 Z-4.400 I0.291 J-0.894 K0.000 F200.000
G3 X-14.049 Y7.856 Z-4.400 I0.099 J0.480 K0.000 F200.000
G2 X-13.632 Y8.259 Z-4.400 I5.830 J-5.616 K0.000 F200.000
G2 X-13.017 Y8.415 Z-4.400 I0.471 J-0.563 K0.000 F200.000
G2 X-12.334 Y8.230 Z-4.400 I0.070 J-1.097 K0.000 F200.000
G3 X-11.387 Y7.770 Z-4.400 I3.695 J6.396 K0.000 F200.000
G1 X-10.681 Y7.770 Z-4.400 F200.000
G1 X-10.604 Y7.758 Z-4.400 F200.000
G2 X-9.920 Y7.112 Z-4.400 I-12.118 J-13.520 K0.000 F200.000
G3 X-9.095 Y7.265 Z-4.400 I0.247 J0.973 K0.000 F200.000
G3 X-8.143 Y8.208 Z-4.400 I-9.566 J10.611 K0.000 F200.000
G2 X-7.874 Y8.377 Z-4.400 I0.468 J-0.446 K0.000 F200.000
G2 X-6.359 Y8.400 Z-4.400 I0.920 J-10.609 K0.000 F200.000
G2 X-5.294 Y8.153 Z-4.400 I0.108 J-1.952 K0.000 F200.000
G3 X-4.144 Y7.722 Z-4.400 I2.368 J4.569 K0.000 F200.000
G2 X-3.266 Y7.567 Z-4.400 I0.016 J-2.468 K0.000 F200.000
G2 X-1.899 Y6.886 Z-4.400 I-4.577 J-10.901 K0.000 F200.000
G2 X-0.964 Y6.406 Z-4.400 I-3.515 J-7.999 K0.000 F200.000
G1 X-0.964 Y6.406 Z-4.500 F60.000
G2 X-0.664 Y6.220 Z-4.500 I-4.450 J-7.519 K0.000 F200.000
G2 X0.007 Y5.326 Z-4.500 I-0.444 J-1.032 K0.000 F200.000
G2 X0.088 Y5.180 Z-4.500 I-0.086 J-0.144 K0.000 F200.000
G2 X0.237 Y3.440 Z-4.500 I-16.473 J-2.285 K0.000 F200.000
G1 X-0.102 Y2.464 Z-4.500 F200.000
G2 X-0.834 Y1.774 Z-4.500 I-1.836 J1.213 K0.000 F200.000
G2 X-2.382 Y0.974 Z-4.500 I-842.025 J1628.263 K0.000 F200.000
G2 X-3.825 Y0.412 Z-4.500 I-1.877 J2.689 K0.000 F200.000
G3 X-4.682 Y0.219 Z-4.500 I0.005 J-2.020 K0.000 F200.000
G2 X-5.875 Y-0.239 Z-4.500 I-2.482 J4.689 K0.000 F200.000
G2 X-7.771 Y-0.250 Z-4.500 I-1.114 J27.384 K0.000 F200.000
G2 X-8.226 Y0.021 Z-4.500 I0.080 J0.652 K0.000 F200.000
G2 X-8.909 Y0.711 Z-4.500 I25.999 J26.426 K0.000 F200.000
G3 X-9.297 Y1.021 Z-4.500 I-1.546 J-1.535 K0.000 F200.000
G3 X-9.861 Y1.025 Z-4.500 I-0.293 J-1.699 K0.000 F200.000
G1 X-9.931 Y1.004 Z-4.500 F200.000
G3 X-10.511 Y0.423 Z-4.500 I1.830 J-2.408 K0.000 F200.000
G2 X-11.317 Y0.400 Z-4.500 I-0.540 J4.739 K0.000 F200.000
G3 X-12.346 Y-0.059 Z-4.500 I13.259 J-31.088 K0.000 F200.000
G2 X-12.694 Y-0.222 Z-4.500 I-1.689 J3.156 K0.000 F200.000
G1 X-13.430 Y-0.223 Z-4.500 F200.000
G2 X-13.665 Y-0.060 Z-4.500 I-0.000 J0.250 K0.000 F200.000
G3 X-14.140 Y0.369 Z-4.500 I-8.809 J-9.296 K0.000 F200.000
G3 X-14.904 Y0.398 Z-4.500 I-0.687 J-7.903 K0.000 F200.000
G3 X-16.203 Y1.015 Z-4.500 I-3.324 J-5.322 K0.000 F200.000
G3 X-16.922 Y1.026 Z-4.500 I-0.389 J-2.005 K0.000 F200.000
G3 X-17.222 Y0.789 Z-4.500 I0.239 J-0.610 K0.000 F200.000
G2 X-17.573 Y0.422 Z-4.500 I-1.156 J0.755 K0.000 F200.000
G2 X-18.210 Y0.396 Z-4.500 I-0.416 J2.410 K0.000 F200.000
G3 X-18.647 Y0.076 Z-4.500 I0.222 J-0.762 K0.000 F200.000
G2 X-19.147 Y-0.223 Z-4.500 I-0.474 J0.224 K0.000 F200.000
G1 X-19.530 Y-0.223 Z-4.500 F200.000
G0 Z3.000
G0 Z5.000
G0 X-19.530 Y8.435
G0 Z3.000
G1 Z-4.500 F60.000
G1 X-19.024 Y8.435 Z-4.500 F200.000
G2 X-18.749 Y8.286 Z-4.500 I-0.072 J-0.461 K0.000 F200.000
G3 X-18.268 Y7.764 Z-4.500 I2.115 J1.468 K0.000 F200.000
G1 X-17.628 Y7.764 Z-4.500 F200.000
G1 X-17.540 Y7.748 Z-4.500 F200.000
G3 X-16.997 Y7.215 Z-4.500 I13.590 J13.322 K0.000 F200.000
G3 X-16.377 Y7.107 Z-4.500 I0.429 J0.629 K0.000 F200.000
G3 X-16.052 Y7.266 Z-4.500 I-0.031 J0.475 K0.000 F200.000
G3 X-14.966 Y7.730 Z-4.500 I-0.730 J3.213 K0.000 F200.000
G2 X-14.463 Y7.752 Z-4.500 I0.291 J-0.894 K0.000 F200.000
G3 X-14.049 Y7.856 Z-4.500 I0.099 J0.480 K0.000 F200.000
G2 X-13.632 Y8.259 Z-4.500 I5.830 J-5.616 K0.000 F200.000
G2 X-13.017 Y8.415 Z-4.500 I0.471 J-0.563 K0.000 F200.000
G2 X-12.334 Y8.230 Z-4.500 I0.070 J-1.097 K0.000 F200.000
G3 X-11.387 Y7.770 Z-4.500 I3.695 J6.396 K0.000 F200.000
G1 X-10.681 Y7.770 Z-4.500 F200.000
G1 X-10.604 Y7.758 Z-4.500 F200.000
G2 X-9.920 Y7.112 Z-4.500 I-12.118 J-13.520 K0.000 F200.000
G3 X-9.095 Y7.265 Z-4.500 I0.247 J0.973 K0.000 F200.000
G3 X-8.143 Y8.208 Z-4.500 I-9.566 J10.611 K0.000 F200.000
G2 X-7.874 Y8.377 Z-4.500 I0.468 J-0.446 K0.000 F200.000
G2 X-6.359 Y8.400 Z-4.500 I0.920 J-10.609 K0.000 F200.000
G2 X-5.294 Y8.153 Z-4.500 I0.108 J-1.952 K0.000 F200.000
G3 X-4.144 Y7.722 Z-4.500 I2.368 J4.569 K0.000 F200.000
G2 X-3.266 Y7.567 Z-4.500 I0.016 J-2.468 K0.000 F200.000
G2 X-1.899 Y6.886 Z-4.500 I-4.577 J-10.901 K0.000 F200.000
G2 X-0.964 Y6.406 Z-4.500 I-3.515 J-7.999 K0.000 F200.000
G1 X-0.964 Y6.406 Z1.000 F60.000
G0 Z3.000
G0 Z5.000
(Finish operation: DressupPathBoundary001)
(Begin postamble)
M5
G17 G90
M2
