;FLAVOR:Marlin
;TIME:1724
;Filament used: 1.7245m
;Layer height: 0.28
;MINX:97.598
;MINY:92.048
;MINZ:0.28
;MAXX:136.691
;MAXY:135.15
;MAXZ:8.96
;Generated with Cura_SteamEngine 5.4.0
M140 S60
M105
M190 S60
M104 S210
M105
M109 S210
M82 ;absolute extrusion mode
; Ender 3 Custom Start G-code
G92 E0 ; Reset Extruder
G28 ; Home all axes
M420 S1; autolevel recall
G1 Z2.0 F3000 ; Move Z Axis up little to prevent scratching of Heat Bed
G1 X0.1 Y20 Z0.3 F5000.0 ; Move to start position
G1 X0.1 Y200.0 Z0.3 F1500.0 E15 ; Draw the first line
G1 X0.4 Y200.0 Z0.3 F5000.0 ; Move to side a little
G1 X0.4 Y20 Z0.3 F1500.0 E30 ; Draw the second line
G92 E0 ; Reset Extruder
G1 Z2.0 F3000 ; Move Z Axis up little to prevent scratching of Heat Bed
G1 X5 Y20 Z0.3 F5000.0 ; Move over to prevent blob squish
G92 E0
G92 E0
G1 F2700 E-6.5
;LAYER_COUNT:32
;LAYER:0
M106 S255
M204 S1000
M205 X20 Y20
G0 F9000 X126.105 Y134.793 Z0.28
;TYPE:SKIRT
G1 F2700 E0
G1 F1800 X125.712 Y135.051 E0.02189
G1 X125.28 Y135.15 E0.04253
G1 X120.004 Y135.15 E0.2882
G1 X119.755 Y135.063 E0.30048
G1 X119.445 Y134.817 E0.31891
G1 X119.241 Y134.544 E0.33478
G1 X119.15 Y134.281 E0.34774
G1 X118.855 Y134.731 E0.37279
G1 X118.428 Y135.004 E0.39639
G1 X118.204 Y135.054 E0.40708
G1 X117.607 Y135.011 E0.43495
G1 X109.872 Y131.405 E0.83234
G1 X109.701 Y131.272 E0.84243
G1 X109.41 Y130.524 E0.8798
G1 X109.707 Y129.664 E0.92217
G1 X110.372 Y129.309 E0.95727
G1 X115.788 Y129.09 E1.20967
G1 X115.791 Y123.788 E1.45655
G1 X115.967 Y123.063 E1.49129
G1 X116.544 Y122.415 E1.53169
G1 X116.718 Y122.301 E1.54138
G1 X117.476 Y122.051 E1.57854
G1 X122.338 Y122.05 E1.80494
G1 X122.459 Y121.675 E1.82329
G1 X111.366 Y121.675 E2.33982
G1 X111.117 Y121.588 E2.3521
G1 X110.698 Y121.212 E2.37832
G1 X110.698 Y124.277 E2.52104
G1 X111.028 Y124.363 E2.53692
G1 X111.34 Y124.609 E2.55542
G1 X111.599 Y125.003 E2.57737
G1 X111.698 Y125.435 E2.59801
G1 X111.698 Y127.461 E2.69235
G1 X111.611 Y127.71 E2.70463
G1 X111.365 Y128.02 E2.72306
G1 X110.972 Y128.278 E2.74495
G1 X110.54 Y128.377 E2.76559
G1 X98.514 Y128.377 E3.32557
G1 X98.265 Y128.29 E3.33785
G1 X97.955 Y128.044 E3.35628
G1 X97.697 Y127.651 E3.37817
G1 X97.598 Y127.219 E3.39881
G1 X97.598 Y121.945 E3.64438
G1 X97.684 Y121.697 E3.65661
G1 X97.93 Y121.385 E3.67511
G1 X98.204 Y121.18 E3.69104
G1 X98.468 Y121.089 E3.70404
G1 X98.018 Y120.795 E3.72907
G1 X97.744 Y120.367 E3.75274
G1 X97.694 Y120.143 E3.76343
G1 X97.737 Y119.546 E3.7913
G1 X101.344 Y111.811 E4.18871
G1 X101.479 Y111.639 E4.19889
G1 X102.225 Y111.349 E4.23616
G1 X103.085 Y111.646 E4.27852
G1 X103.44 Y112.311 E4.31362
G1 X103.658 Y117.727 E4.56602
G1 X109.165 Y117.73 E4.82245
G1 X109.867 Y118.051 E4.85839
G1 X110.337 Y118.482 E4.88809
G1 X110.45 Y118.675 E4.8985
G1 X110.45 Y115.243 E5.05831
G1 X110.536 Y114.995 E5.07053
G1 X110.782 Y114.683 E5.08903
G1 X111.056 Y114.478 E5.10497
G1 X111.32 Y114.387 E5.11797
G1 X111.182 Y114.339 E5.12477
G1 X110.748 Y113.936 E5.15235
G1 X109.608 Y116.38 E5.27792
G1 X109.473 Y116.552 E5.28811
G1 X108.727 Y116.842 E5.32538
G1 X107.867 Y116.545 E5.36774
G1 X107.512 Y115.88 E5.40284
G1 X107.294 Y110.464 E5.65524
G1 X101.903 Y110.461 E5.90627
G1 X101.155 Y110.179 E5.94349
G1 X100.681 Y109.811 E5.97143
G1 X100.254 Y108.897 E6.01841
G1 X100.254 Y103.914 E6.25044
G1 X99.921 Y103.827 E6.26646
G1 X99.611 Y103.581 E6.28489
G1 X99.353 Y103.188 E6.30678
G1 X99.254 Y102.756 E6.32742
G1 X99.254 Y100.732 E6.42166
G1 X99.34 Y100.484 E6.43389
G1 X99.586 Y100.172 E6.45239
G1 X99.98 Y99.913 E6.47434
G1 X100.412 Y99.814 E6.49498
G1 X112.436 Y99.814 E7.05487
G1 X112.684 Y99.9 E7.06709
G1 X112.93 Y100.094 E7.08168
G1 X112.928 Y96.148 E7.26542
G1 X112.595 Y96.061 E7.28145
G1 X112.285 Y95.815 E7.29987
G1 X112.027 Y95.422 E7.32176
G1 X111.928 Y94.99 E7.3424
G1 X111.928 Y92.966 E7.43665
G1 X112.014 Y92.718 E7.44887
G1 X112.26 Y92.406 E7.46737
G1 X112.654 Y92.147 E7.48933
G1 X113.086 Y92.048 E7.50996
G1 X125.11 Y92.048 E8.06985
G1 X125.358 Y92.134 E8.08207
G1 X125.67 Y92.38 E8.10057
G1 X125.929 Y92.774 E8.12253
G1 X126.028 Y93.206 E8.14317
G1 X126.028 Y98.482 E8.38884
G1 X125.941 Y98.731 E8.40112
G1 X125.695 Y99.041 E8.41955
G1 X125.422 Y99.245 E8.43542
G1 X125.158 Y99.336 E8.44842
G1 X125.608 Y99.63 E8.47345
G1 X125.882 Y100.058 E8.49711
G1 X125.932 Y100.282 E8.5078
G1 X125.889 Y100.879 E8.53567
G1 X123.199 Y106.648 E8.83207
G1 X123.633 Y106.548 E8.85281
G1 X135.657 Y106.548 E9.41269
G1 X135.905 Y106.634 E9.42492
G1 X136.217 Y106.88 E9.44342
G1 X136.476 Y107.274 E9.46537
G1 X136.575 Y107.706 E9.48601
G1 X136.575 Y112.982 E9.73168
G1 X136.488 Y113.231 E9.74396
G1 X136.242 Y113.541 E9.76239
G1 X135.969 Y113.745 E9.77826
G1 X135.705 Y113.836 E9.79126
G1 X136.155 Y114.13 E9.81629
G1 X136.429 Y114.558 E9.83996
G1 X136.479 Y114.782 E9.85064
G1 X136.436 Y115.379 E9.87852
G1 X132.829 Y123.114 E10.27593
G1 X132.694 Y123.286 E10.28611
G1 X131.948 Y123.576 E10.32338
G1 X131.088 Y123.279 E10.36574
G1 X130.733 Y122.614 E10.40084
G1 X130.515 Y117.198 E10.65324
G1 X125.251 Y117.198 E10.89835
G1 X124.524 Y117.031 E10.93309
G1 X123.96 Y116.593 E10.96634
G1 X123.737 Y116.302 E10.98341
G1 X123.549 Y115.739 E11.01105
G1 X123.55 Y117.575 E11.09654
G1 X123.88 Y117.661 E11.11242
G1 X124.192 Y117.907 E11.13092
G1 X124.451 Y118.301 E11.15288
G1 X124.55 Y118.733 E11.17351
G1 X124.55 Y120.759 E11.26785
G1 X124.43 Y121.05 E11.28251
G1 X125.52 Y121.05 E11.33326
G1 X125.768 Y121.136 E11.34549
G1 X126.08 Y121.382 E11.36399
G1 X126.339 Y121.776 E11.38594
G1 X126.438 Y122.208 E11.40658
G1 X126.438 Y134.234 E11.96656
G1 X126.351 Y134.483 E11.97884
G1 X126.105 Y134.793 E11.99727
G0 F9000 X125.638 Y134.11
G1 F1800 X125.638 Y122.208 E12.55148
G1 X125.571 Y121.999 E12.5617
G1 X125.398 Y121.85 E12.57233
G1 X123.496 Y121.85 E12.66089
G1 X123.287 Y121.917 E12.67111
G1 X123.138 Y122.09 E12.68174
G1 X123.138 Y131.85 E13.13621
G1 X122.388 Y131.85 E13.17113
G1 X122.388 Y123.208 E13.57354
G1 X122.321 Y122.999 E13.58376
G1 X122.148 Y122.85 E13.59439
G1 X117.604 Y122.851 E13.80598
G1 X117.071 Y123.027 E13.83212
G1 X116.698 Y123.446 E13.85824
G1 X116.591 Y123.838 E13.87716
G1 X116.588 Y129.86 E14.15757
G1 X110.496 Y130.105 E14.44147
G1 X110.329 Y130.213 E14.45073
G1 X110.236 Y130.526 E14.46593
G1 X110.329 Y130.734 E14.47654
G1 X117.879 Y134.254 E14.86443
G1 X118.083 Y134.284 E14.87403
G1 X118.239 Y134.221 E14.88187
G1 X118.388 Y134.048 E14.8925
G1 X118.388 Y125.176 E15.30562
G1 X118.468 Y124.968 E15.31599
G1 X118.708 Y124.852 E15.32841
G1 X119.888 Y124.85 E15.38335
G1 X119.888 Y133.992 E15.80904
G1 X119.955 Y134.201 E15.81926
G1 X120.128 Y134.35 E15.82989
G1 X125.28 Y134.35 E16.06979
G1 X125.489 Y134.283 E16.08001
G1 X125.638 Y134.11 E16.09064
G0 F9000 X125.792 Y134.544
G1 F1800 X125.611 Y134.664 E16.10076
G1 X125.28 Y134.75 E16.11668
G1 X120.004 Y134.75 E16.36235
G1 X119.694 Y134.504 E16.38078
G1 X119.574 Y134.323 E16.39089
G1 X119.488 Y133.992 E16.40682
G1 X119.488 Y125.251 E16.81383
G1 X118.788 Y125.257 E16.84643
G1 X118.788 Y134.172 E17.26155
G1 X118.542 Y134.482 E17.27998
G1 X118.233 Y134.655 E17.29647
G1 X117.71 Y134.617 E17.32089
G1 X110.041 Y131.042 E17.71488
G1 X109.836 Y130.515 E17.74121
G1 X110.033 Y129.944 E17.76934
G1 X110.48 Y129.705 E17.79294
G1 X116.188 Y129.475 E18.05894
G1 X116.191 Y123.838 E18.32143
G1 X116.333 Y123.254 E18.34941
G1 X116.843 Y122.681 E18.38513
G1 X117.54 Y122.451 E18.41931
G1 X122.272 Y122.45 E18.63965
G1 X122.582 Y122.696 E18.65808
G1 X122.738 Y122.989 E18.67353
G1 X122.738 Y121.968 E18.72108
G1 X122.984 Y121.656 E18.73958
G1 X123.165 Y121.536 E18.74969
G1 X123.496 Y121.45 E18.76561
G1 X125.52 Y121.45 E18.85986
G1 X125.832 Y121.696 E18.87836
G1 X125.952 Y121.877 E18.88847
G1 X126.038 Y122.208 E18.9044
G1 X126.038 Y134.234 E19.46438
G1 X125.792 Y134.544 E19.48281
G1 F2700 E12.98281
G0 F9000 X126.07 Y134.544
G0 X126.058 Y121.43
G0 X123.392 Y121.275
G1 F2700 E19.48281
G1 F1800 X111.366 Y121.275 E20.04279
G1 X111.056 Y121.029 E20.06121
G1 X110.936 Y120.848 E20.07133
G1 X110.85 Y120.517 E20.08725
G1 X110.85 Y115.243 E20.33283
G1 X111.096 Y114.931 E20.35133
G1 X111.277 Y114.811 E20.36144
G1 X111.608 Y114.725 E20.37737
G1 X120.35 Y114.725 E20.78443
G1 X120.343 Y114.026 E20.81698
G1 X111.43 Y114.025 E21.23201
G1 X111.118 Y113.779 E21.25051
G1 X110.945 Y113.47 E21.267
G1 X110.983 Y112.947 E21.29142
G1 X114.558 Y105.278 E21.68541
G1 X115.085 Y105.073 E21.71174
G1 X115.656 Y105.27 E21.73987
G1 X115.895 Y105.717 E21.76347
G1 X116.125 Y111.425 E22.02947
G1 X121.763 Y111.428 E22.292
G1 X122.294 Y111.546 E22.31733
G1 X122.784 Y111.901 E22.34551
G1 X122.928 Y112.098 E22.35687
G1 X123.147 Y112.753 E22.38903
G1 X123.15 Y117.509 E22.61049
G1 X122.904 Y117.819 E22.62892
G1 X122.611 Y117.975 E22.64437
G1 X123.632 Y117.975 E22.69191
G1 X123.944 Y118.221 E22.71042
G1 X124.064 Y118.402 E22.72053
G1 X124.15 Y118.733 E22.73645
G1 X124.15 Y120.759 E22.83079
G1 X123.904 Y121.069 E22.84922
G1 X123.723 Y121.189 E22.85933
G1 X123.392 Y121.275 E22.87526
G1 F2700 E16.37526
G0 F9000 X126.058 Y121.43
G0 X131.106 Y122.678
G0 X131.637 Y122.657
G1 F2700 E22.87526
G1 F1800 X131.529 Y122.49 E22.88452
G1 X131.285 Y116.398 E23.16841
G1 X125.296 Y116.398 E23.44729
G1 X124.874 Y116.29 E23.46757
G1 X124.45 Y115.961 E23.49256
G1 X124.275 Y115.376 E23.52099
G1 X124.275 Y110.838 E23.7323
G1 X124.424 Y110.665 E23.74293
G1 X124.633 Y110.598 E23.75315
G1 X133.275 Y110.598 E24.15556
G1 X133.275 Y109.848 E24.19048
G1 X123.515 Y109.848 E24.64495
G1 X123.342 Y109.699 E24.65558
G1 X123.275 Y109.49 E24.6658
G1 X123.275 Y107.588 E24.75436
G1 X123.424 Y107.415 E24.765
G1 X123.633 Y107.348 E24.77522
G1 X135.535 Y107.348 E25.32942
G1 X135.708 Y107.497 E25.34005
G1 X135.775 Y107.706 E25.35027
G1 X135.775 Y112.858 E25.59017
G1 X135.626 Y113.031 E25.6008
G1 X135.417 Y113.098 E25.61102
G1 X126.275 Y113.098 E26.03671
G1 X126.275 Y114.295 E26.09245
G1 X126.385 Y114.507 E26.10357
G1 X126.597 Y114.598 E26.11431
G1 X135.473 Y114.598 E26.52762
G1 X135.646 Y114.747 E26.53825
G1 X135.709 Y114.903 E26.54608
G1 X135.679 Y115.107 E26.55569
G1 X132.158 Y122.657 E26.9436
G1 X131.95 Y122.75 E26.95421
G1 X131.637 Y122.657 E26.96941
G0 F9000 X132.466 Y122.945
G1 F1800 X131.939 Y123.15 E26.99574
G1 X131.368 Y122.953 E27.02387
G1 X131.129 Y122.506 E27.04747
G1 X130.9 Y116.798 E27.31347
G1 X125.296 Y116.798 E27.57442
G1 X124.699 Y116.661 E27.60294
G1 X124.205 Y116.277 E27.63207
G1 X124.067 Y116.076 E27.64343
G1 X123.875 Y115.434 E27.67463
G1 X123.875 Y110.716 E27.89432
G1 X124.121 Y110.404 E27.91282
G1 X124.414 Y110.248 E27.92828
G1 X123.391 Y110.248 E27.97591
G1 X123.081 Y110.002 E27.99434
G1 X122.961 Y109.821 E28.00445
G1 X122.875 Y109.49 E28.02038
G1 X122.875 Y107.466 E28.11462
G1 X123.121 Y107.154 E28.13312
G1 X123.302 Y107.034 E28.14323
G1 X123.633 Y106.948 E28.15916
G1 X135.657 Y106.948 E28.71905
G1 X135.969 Y107.194 E28.73755
G1 X136.089 Y107.375 E28.74766
G1 X136.175 Y107.706 E28.76358
G1 X136.175 Y112.982 E29.00926
G1 X135.929 Y113.292 E29.02768
G1 X135.748 Y113.412 E29.0378
G1 X135.417 Y113.498 E29.05372
G1 X126.675 Y113.498 E29.46078
G1 X126.675 Y114.196 E29.49329
G1 X135.595 Y114.198 E29.90864
G1 X135.907 Y114.444 E29.92714
G1 X136.08 Y114.753 E29.94363
G1 X136.042 Y115.276 E29.96805
G1 X132.466 Y122.945 E30.36206
G1 F2700 E23.86206
G0 F9000 X131.358 Y123.09
G0 X124.182 Y120.635
G0 X123.75 Y120.635
G1 F2700 E30.36206
G1 F1800 X123.601 Y120.808 E30.37269
G1 X123.392 Y120.875 E30.38291
G1 X111.49 Y120.875 E30.93712
G1 X111.317 Y120.726 E30.94775
G1 X111.25 Y120.517 E30.95797
G1 X111.25 Y115.365 E31.19787
G1 X111.399 Y115.192 E31.2085
G1 X111.608 Y115.125 E31.21872
G1 X120.75 Y115.125 E31.64441
G1 X120.749 Y113.899 E31.7015
G1 X120.573 Y113.668 E31.71502
G1 X120.417 Y113.626 E31.72254
G1 X111.552 Y113.625 E32.13534
G1 X111.379 Y113.476 E32.14597
G1 X111.316 Y113.32 E32.1538
G1 X111.346 Y113.116 E32.1634
G1 X114.866 Y105.566 E32.55129
G1 X115.074 Y105.473 E32.5619
G1 X115.387 Y105.566 E32.57711
G1 X115.495 Y105.733 E32.58637
G1 X115.74 Y111.825 E32.87027
G1 X121.763 Y111.828 E33.15072
G1 X122.125 Y111.918 E33.16809
G1 X122.549 Y112.225 E33.19247
G1 X122.747 Y112.817 E33.22153
G1 X122.75 Y117.385 E33.43424
G1 X122.601 Y117.558 E33.44487
G1 X122.392 Y117.625 E33.45509
G1 X113.75 Y117.625 E33.8575
G1 X113.75 Y118.375 E33.89242
G1 X123.51 Y118.375 E34.34689
G1 X123.683 Y118.524 E34.35752
G1 X123.75 Y118.733 E34.36774
G1 X123.75 Y120.635 E34.4563
G1 F2700 E27.9563
G0 F9000 X124.182 Y120.635
G0 X124.17 Y117.955
G0 X123.178 Y112.67
G0 X121.314 Y108.7
G0 X121.403 Y108.25
G1 F2700 E34.4563
G1 F1800 X121.09 Y108.157 E34.47151
G1 X120.982 Y107.99 E34.48077
G1 X120.738 Y101.898 E34.76467
G1 X114.715 Y101.895 E35.04512
G1 X114.353 Y101.805 E35.06249
G1 X113.929 Y101.498 E35.08687
G1 X113.731 Y100.906 E35.11593
G1 X113.728 Y96.338 E35.32864
G1 X113.877 Y96.165 E35.33927
G1 X114.086 Y96.098 E35.34949
G1 X122.728 Y96.098 E35.7519
G1 X122.728 Y95.348 E35.78682
G1 X112.968 Y95.348 E36.24129
G1 X112.795 Y95.199 E36.25192
G1 X112.728 Y94.99 E36.26214
G1 X112.728 Y93.088 E36.3507
G1 X112.877 Y92.915 E36.36133
G1 X113.086 Y92.848 E36.37155
G1 X124.988 Y92.848 E36.92576
G1 X125.161 Y92.997 E36.93639
G1 X125.228 Y93.206 E36.94661
G1 X125.228 Y98.358 E37.18651
G1 X125.079 Y98.531 E37.19714
G1 X124.87 Y98.598 E37.20736
G1 X115.728 Y98.598 E37.63305
G1 X115.73 Y99.78 E37.68809
G1 X115.832 Y100.005 E37.69959
G1 X116.037 Y100.096 E37.71004
G1 X124.926 Y100.098 E38.12395
G1 X125.099 Y100.247 E38.13458
G1 X125.162 Y100.403 E38.14241
G1 X125.132 Y100.607 E38.15201
G1 X121.611 Y108.157 E38.53993
G1 X121.403 Y108.25 E38.55053
G1 F2700 E32.05053
G0 F9000 X121.314 Y108.7
G0 X116.143 Y111.405
G0 X115.896 Y105.18
G0 X114.691 Y104.938
G0 X109.245 Y116.211
G1 F2700 E38.55053
G1 F1800 X108.718 Y116.416 E38.57686
G1 X108.147 Y116.219 E38.60499
G1 X107.908 Y115.772 E38.62859
G1 X107.679 Y110.064 E38.8946
G1 X101.975 Y110.061 E39.1602
G1 X101.353 Y109.826 E39.19116
G1 X101.002 Y109.554 E39.21184
G1 X100.654 Y108.809 E39.25012
G1 X100.654 Y103.982 E39.47489
G1 X100.9 Y103.67 E39.49339
G1 X101.193 Y103.514 E39.50885
G1 X100.17 Y103.514 E39.55648
G1 X99.86 Y103.268 E39.57491
G1 X99.74 Y103.087 E39.58502
G1 X99.654 Y102.756 E39.60095
G1 X99.654 Y100.732 E39.69519
G1 X99.9 Y100.42 E39.71369
G1 X100.081 Y100.3 E39.72381
G1 X100.412 Y100.214 E39.73973
G1 X112.436 Y100.214 E40.29962
G1 X112.748 Y100.46 E40.31812
G1 X112.868 Y100.641 E40.32823
G1 X112.954 Y100.972 E40.34416
G1 X112.954 Y106.248 E40.58983
G1 X112.708 Y106.558 E40.60826
G1 X112.527 Y106.678 E40.61837
G1 X112.196 Y106.764 E40.63429
G1 X103.454 Y106.764 E41.04136
G1 X103.454 Y107.462 E41.07386
G1 X112.374 Y107.464 E41.48921
G1 X112.686 Y107.71 E41.50771
G1 X112.859 Y108.019 E41.5242
G1 X112.821 Y108.542 E41.54862
G1 X109.245 Y116.211 E41.94263
G1 F2700 E35.44263
G0 F9000 X114.691 Y104.938
G0 X115.896 Y105.18
G0 X120.57 Y108.463
G0 X120.821 Y108.453
G1 F2700 E41.94263
G1 F1800 X120.582 Y108.006 E41.96624
G1 X120.353 Y102.298 E42.23224
G1 X114.715 Y102.295 E42.49477
G1 X114.184 Y102.177 E42.5201
G1 X113.694 Y101.822 E42.54827
G1 X113.55 Y101.625 E42.55963
G1 X113.331 Y100.97 E42.59179
G1 X113.328 Y96.214 E42.81325
G1 X113.574 Y95.904 E42.83168
G1 X113.867 Y95.748 E42.84714
G1 X112.844 Y95.748 E42.89477
G1 X112.534 Y95.502 E42.9132
G1 X112.414 Y95.321 E42.92331
G1 X112.328 Y94.99 E42.93924
G1 X112.328 Y92.966 E43.03348
G1 X112.574 Y92.654 E43.05198
G1 X112.755 Y92.534 E43.06209
G1 X113.086 Y92.448 E43.07802
G1 X125.11 Y92.448 E43.63791
G1 X125.422 Y92.694 E43.65641
G1 X125.542 Y92.875 E43.66652
G1 X125.628 Y93.206 E43.68244
G1 X125.628 Y98.482 E43.92812
G1 X125.382 Y98.792 E43.94654
G1 X125.201 Y98.912 E43.95666
G1 X124.87 Y98.998 E43.97258
G1 X116.129 Y98.998 E44.3796
G1 X116.131 Y99.696 E44.4121
G1 X125.048 Y99.698 E44.82731
G1 X125.36 Y99.944 E44.84581
G1 X125.533 Y100.253 E44.8623
G1 X125.495 Y100.776 E44.88672
G1 X121.919 Y108.445 E45.28074
G1 X121.392 Y108.65 E45.30707
G1 X120.821 Y108.453 E45.33519
G1 F2700 E38.83519
G0 F9000 X120.57 Y108.463
G0 X115.896 Y105.18
G0 X114.691 Y104.938
G0 X112.934 Y108.375
G0 X112.488 Y108.169
