(Exported by FreeCAD)
(Post Processor: grbl_post)
(Output Time:2024-04-16 13:52:51.586712)
(Begin preamble)
G17 G90
G21
(Begin operation: TC: 0.5mm_droite)
(Path: TC: 0.5mm_droite)
(TC: 0.5mm_droite)
(Begin toolchange)
( M6 T2 )
M3 S21000
(Finish operation: TC: 0.5mm_droite)
(Begin operation: Fixture)
(Path: Fixture)
G54
(Finish operation: Fixture)
(Begin operation: Pocket_Shape)
(Path: Pocket_Shape)
(Pocket_Shape)
G0 Z5.000
G0 X9.336 Y4.538
G0 Z5.000
G0 X170.061 Y70.168 Z5.000
G0 X170.061 Y70.168 Z3.000
G1 X170.061 Y70.168 Z-0.100 F60.000
G3 X170.584 Y71.005 Z-0.100 I-1.058 J1.242 K0.000 F1200.000
G3 X170.544 Y71.344 Z-0.100 I-0.470 J0.117 K0.000 F1200.000
G1 X170.443 Y71.243 Z-0.100 F1200.000
G3 X170.178 Y71.671 Z-0.100 I-0.559 J-0.050 K0.000 F1200.000
G1 X170.257 Y71.750 Z-0.100 F1200.000
G3 X169.716 Y71.901 Z-0.100 I-0.435 J-0.510 K0.000 F1200.000
G1 X169.452 Y71.637 Z-0.100 F1200.000
G3 X168.016 Y70.357 Z-0.100 I2.009 J-3.697 K0.000 F1200.000
G2 X167.794 Y69.980 Z-0.100 I-0.568 J0.081 K0.000 F1200.000
G2 X168.105 Y70.811 Z-0.100 I1.028 J0.089 K0.000 F1200.000
G2 X169.458 Y71.840 Z-0.100 I2.691 J-2.134 K0.000 F1200.000
G0 Z5.000
G2 X169.716 Y71.901 Z-0.100 I0.251 J-0.481 K0.000 F1200.000
G0 X168.683 Y69.483 Z5.000
G0 X168.683 Y69.483 Z3.000
G1 X168.683 Y69.483 Z-0.100 F60.000
G1 X168.510 Y69.310 Z-0.100 F1200.000
G2 X168.045 Y69.538 Z-0.100 I0.029 J0.647 K0.000 F1200.000
G1 X168.115 Y69.608 Z-0.100 F1200.000
G2 X167.932 Y70.118 Z-0.100 I0.356 J0.415 K0.000 F1200.000
G1 X167.794 Y69.980 Z-0.100 F1200.000
G3 X168.447 Y69.310 Z-0.100 I0.847 J0.173 K0.000 F1200.000
G1 X168.447 Y69.310 Z-0.100 F60.000
G3 X169.330 Y69.578 Z-0.100 I0.061 J1.386 K0.000 F1200.000
G3 X170.444 Y70.645 Z-0.100 I-1.885 J3.085 K0.000 F1200.000
G3 X169.458 Y71.840 Z-0.100 I-0.672 J0.450 K0.000 F1200.000
G3 X167.820 Y70.316 Z-0.100 I1.196 J-2.928 K0.000 F1200.000
G3 X167.794 Y69.980 Z-0.100 I0.586 J-0.215 K0.000 F1200.000
G0 Z5.000
G0 Z5.000
G0 X167.794 Y69.980
G0 X167.470 Y71.651
G0 X167.470 Y71.651 Z3.000
G1 X167.470 Y71.651 Z-0.100 F60.000
G2 X167.410 Y72.103 Z-0.100 I0.131 J0.247 K0.000 F1200.000
G1 X168.871 Y73.329 Z-0.100 F1200.000
G1 X168.681 Y73.556 Z-0.100 F1200.000
G1 X168.439 Y73.314 Z-0.100 F1200.000
G3 X168.264 Y73.544 Z-0.100 I-0.217 J0.017 K0.000 F1200.000
G1 X168.649 Y73.594 Z-0.100 F1200.000
G1 X168.681 Y73.556 Z-0.100 F1200.000
G0 Z5.000
G0 X167.689 Y72.564 Z5.000
G0 X167.689 Y72.564 Z3.000
G1 X167.689 Y72.564 Z-0.100 F60.000
G1 X166.544 Y71.419 Z-0.100 F1200.000
G1 X166.454 Y71.527 Z-0.100 F1200.000
G3 X166.904 Y71.930 Z-0.100 I-0.786 J1.333 K0.000 F1200.000
G3 X166.764 Y72.332 Z-0.100 I-0.302 J0.120 K0.000 F1200.000
G1 X166.837 Y72.405 Z-0.100 F1200.000
G1 X166.521 Y72.782 Z-0.100 F1200.000
G1 X166.448 Y72.709 Z-0.100 F1200.000
G1 X166.140 Y73.076 Z-0.100 F1200.000
G1 X166.411 Y73.303 Z-0.100 F1200.000
G1 X166.459 Y73.309 Z-0.100 F1200.000
G3 X166.385 Y72.944 Z-0.100 I0.101 J-0.211 K0.000 F1200.000
G1 X166.521 Y72.782 Z-0.100 F1200.000
G2 X166.331 Y73.061 Z-0.100 I0.415 J0.486 K0.000 F1200.000
G2 X166.459 Y73.309 Z-0.100 I0.184 J0.062 K0.000 F1200.000
G1 X166.411 Y73.303 Z-0.100 F1200.000
G1 X166.140 Y73.076 Z-0.100 F1200.000
G1 X166.874 Y72.200 Z-0.100 F1200.000
G2 X166.844 Y71.855 Z-0.100 I-0.188 J-0.157 K0.000 F1200.000
G1 X166.454 Y71.527 Z-0.100 F1200.000
G1 X166.565 Y71.394 Z-0.100 F1200.000
G2 X167.040 Y71.768 Z-0.100 I1.177 J-1.006 K0.000 F1200.000
G2 X167.391 Y71.585 Z-0.100 I0.068 J-0.298 K0.000 F1200.000
G1 X167.470 Y71.651 Z-0.100 F1200.000
G2 X167.410 Y72.103 Z-0.100 I0.131 J0.247 K0.000 F1200.000
G1 X168.871 Y73.329 Z-0.100 F1200.000
G1 X168.649 Y73.594 Z-0.100 F1200.000
G1 X168.264 Y73.544 Z-0.100 F1200.000
G2 X168.358 Y73.125 Z-0.100 I-0.058 J-0.233 K0.000 F1200.000
G1 X167.299 Y72.236 Z-0.100 F1200.000
G2 X166.953 Y72.267 Z-0.100 I-0.157 J0.188 K0.000 F1200.000
G1 X166.521 Y72.782 Z-0.100 F1200.000
G0 Z5.000
G0 Z5.000
G0 X166.521 Y72.782
G0 X158.435 Y81.805
G0 X158.435 Y81.805 Z3.000
G1 X158.435 Y81.805 Z-0.100 F60.000
G2 X158.411 Y81.793 Z-0.100 I-0.037 J0.041 K0.000 F1200.000
G2 X158.397 Y81.880 Z-0.100 I-0.003 J0.044 K0.000 F1200.000
G2 X158.438 Y81.809 Z-0.100 I0.008 J-0.043 K0.000 F1200.000
G2 X158.376 Y81.863 Z-0.100 I-0.030 J0.028 K0.000 F1200.000
G2 X158.452 Y81.834 Z-0.100 I0.034 J-0.025 K0.000 F1200.000
G2 X158.435 Y81.805 Z-0.100 I-0.054 J0.012 K0.000 F1200.000
G0 Z5.000
G0 Z5.000
G0 X158.435 Y81.805
G0 X158.941 Y81.375
G0 X158.941 Y81.375 Z3.000
G1 X158.941 Y81.375 Z-0.100 F60.000
G3 X159.500 Y82.225 Z-0.100 I-3.156 J2.685 K0.000 F1200.000
G3 X158.654 Y83.009 Z-0.100 I-0.527 J0.280 K0.000 F1200.000
G3 X157.316 Y81.449 Z-0.100 I2.378 J-3.394 K0.000 F1200.000
G3 X157.879 Y80.579 Z-0.100 I0.520 J-0.281 K0.000 F1200.000
G3 X158.162 Y80.666 Z-0.100 I-0.007 J0.529 K0.000 F1200.000
G3 X158.941 Y81.375 Z-0.100 I-2.377 J3.394 K0.000 F1200.000
G0 Z5.000
G0 X159.104 Y81.238 Z5.000
G0 X159.104 Y81.238 Z3.000
G1 X159.104 Y81.238 Z-0.100 F60.000
G2 X158.726 Y80.850 Z-0.100 I-2.771 J2.323 K0.000 F1200.000
G2 X157.903 Y80.432 Z-0.100 I-1.004 J0.958 K0.000 F1200.000
G2 X157.110 Y81.314 Z-0.100 I0.043 J0.836 K0.000 F1200.000
G2 X158.459 Y83.099 Z-0.100 I3.034 J-0.890 K0.000 F1200.000
G2 X159.638 Y82.093 Z-0.100 I0.439 J-0.680 K0.000 F1200.000
G2 X159.104 Y81.238 Z-0.100 I-3.305 J1.468 K0.000 F1200.000
G0 Z5.000
G0 X158.726 Y80.850 Z5.000
G0 X158.726 Y80.850 Z3.000
G1 X158.726 Y80.850 Z-0.100 F60.000
G3 X159.638 Y82.093 Z-0.100 I-2.393 J2.711 K0.000 F1200.000
G3 X159.705 Y82.522 Z-0.100 I-0.551 J0.306 K0.000 F1200.000
G1 X159.531 Y82.348 Z-0.100 F1200.000
G3 X159.404 Y82.914 Z-0.100 I-0.531 J0.178 K0.000 F1200.000
G1 X159.473 Y82.983 Z-0.100 F1200.000
G3 X159.026 Y83.229 Z-0.100 I-0.576 J-0.518 K0.000 F1200.000
G3 X158.690 Y83.203 Z-0.100 I-0.135 J-0.432 K0.000 F1200.000
G3 X157.707 Y82.420 Z-0.100 I0.862 J-2.092 K0.000 F1200.000
G3 X157.110 Y81.314 Z-0.100 I1.719 J-1.641 K0.000 F1200.000
G1 X157.377 Y81.581 Z-0.100 F1200.000
G2 X157.859 Y82.280 Z-0.100 I2.224 J-1.016 K0.000 F1200.000
G2 X158.890 Y83.093 Z-0.100 I1.780 J-1.196 K0.000 F1200.000
G1 X159.026 Y83.229 Z-0.100 F1200.000
G0 Z5.000
G0 X157.110 Y81.314 Z5.000
G0 X157.110 Y81.314 Z3.000
G1 X157.110 Y81.314 Z-0.100 F60.000
G1 X157.377 Y81.581 Z-0.100 F1200.000
G3 X157.340 Y80.850 Z-0.100 I0.565 J-0.395 K0.000 F1200.000
G1 X157.264 Y80.774 Z-0.100 F1200.000
G3 X157.663 Y80.480 Z-0.100 I0.735 J0.579 K0.000 F1200.000
G1 X157.766 Y80.584 Z-0.100 F1200.000
G0 Z5.000
G0 Z5.000
G0 X157.766 Y80.584
G0 X156.458 Y82.653
G0 X156.458 Y82.653 Z3.000
G1 X156.458 Y82.653 Z-0.100 F60.000
G3 X156.659 Y83.547 Z-0.100 I-0.615 J0.607 K0.000 F1200.000
G1 X156.516 Y83.404 Z-0.100 F1200.000
G3 X156.291 Y83.872 Z-0.100 I-0.823 J-0.109 K0.000 F1200.000
G1 X156.369 Y83.950 Z-0.100 F1200.000
G3 X155.988 Y84.198 Z-0.100 I-1.248 J-1.500 K0.000 F1200.000
G1 X155.968 Y84.241 Z-0.100 F1200.000
G1 X155.910 Y84.184 Z-0.100 F1200.000
G0 Z5.000
G0 X156.844 Y85.118 Z5.000
G0 X156.844 Y85.118 Z3.000
G1 X156.844 Y85.118 Z-0.100 F60.000
G1 X156.590 Y85.331 Z-0.100 F1200.000
G1 X155.715 Y84.289 Z-0.100 F1200.000
G2 X155.910 Y84.184 Z-0.100 I-0.168 J-0.543 K0.000 F1200.000
G1 X155.968 Y84.241 Z-0.100 F1200.000
G2 X155.992 Y84.509 Z-0.100 I0.175 J0.119 K0.000 F1200.000
G1 X156.409 Y85.006 Z-0.100 F1200.000
G2 X156.759 Y85.033 Z-0.100 I0.188 J-0.158 K0.000 F1200.000
G1 X156.844 Y85.118 Z-0.100 F1200.000
G1 X157.220 Y84.801 Z-0.100 F1200.000
G1 X157.136 Y84.717 Z-0.100 F1200.000
G1 X157.512 Y84.400 Z-0.100 F1200.000
G1 X157.597 Y84.485 Z-0.100 F1200.000
G1 X157.671 Y84.424 Z-0.100 F1200.000
G1 X157.594 Y84.332 Z-0.100 F1200.000
G1 X157.512 Y84.400 Z-0.100 F1200.000
G0 Z5.000
G0 X155.589 Y82.477 Z5.000
G0 X155.589 Y82.477 Z3.000
G1 X155.589 Y82.477 Z-0.100 F60.000
G1 X155.470 Y82.358 Z-0.100 F1200.000
G2 X155.037 Y82.618 Z-0.100 I0.490 J1.307 K0.000 F1200.000
G1 X155.110 Y82.690 Z-0.100 F1200.000
G2 X154.754 Y83.027 Z-0.100 I0.563 J0.952 K0.000 F1200.000
G2 X154.637 Y83.186 Z-0.100 I0.337 J0.371 K0.000 F1200.000
G1 X154.585 Y83.123 Z-0.100 F1200.000
G1 X154.697 Y82.971 Z-0.100 F1200.000
G1 X154.754 Y83.027 Z-0.100 F1200.000
G2 X154.637 Y83.186 Z-0.100 I0.337 J0.371 K0.000 F1200.000
G1 X154.585 Y83.123 Z-0.100 F1200.000
G3 X155.528 Y82.336 Z-0.100 I1.570 J0.924 K0.000 F1200.000
G3 X156.458 Y82.653 Z-0.100 I0.241 J0.816 K0.000 F1200.000
G3 X156.076 Y84.129 Z-0.100 I-0.655 J0.618 K0.000 F1200.000
G2 X155.992 Y84.509 Z-0.100 I0.104 J0.222 K0.000 F1200.000
G1 X156.409 Y85.006 Z-0.100 F1200.000
G2 X156.754 Y85.036 Z-0.100 I0.188 J-0.157 K0.000 F1200.000
G1 X157.594 Y84.332 Z-0.100 F1200.000
G1 X157.671 Y84.424 Z-0.100 F1200.000
G1 X156.590 Y85.331 Z-0.100 F1200.000
G1 X155.715 Y84.289 Z-0.100 F1200.000
G2 X156.505 Y83.474 Z-0.100 I-0.442 J-1.218 K0.000 F1200.000
G2 X155.326 Y82.552 Z-0.100 I-0.827 J-0.158 K0.000 F1200.000
G2 X154.754 Y83.027 Z-0.100 I0.709 J1.434 K0.000 F1200.000
G0 Z5.000
G0 Z5.000
G0 X154.754 Y83.027
G0 X146.260 Y89.841
G0 X146.260 Y89.841 Z3.000
G1 X146.260 Y89.841 Z-0.100 F60.000
G3 X147.091 Y91.365 Z-0.100 I-2.664 J2.442 K0.000 F1200.000
G1 X146.785 Y91.059 Z-0.100 F1200.000
G3 X146.932 Y91.899 Z-0.100 I-1.002 J0.609 K0.000 F1200.000
G1 X147.039 Y92.006 Z-0.100 F1200.000
G3 X146.672 Y92.332 Z-0.100 I-0.715 J-0.435 K0.000 F1200.000
G2 X146.500 Y92.290 Z-0.100 I-0.097 J0.022 K0.000 F1200.000
G3 X145.720 Y91.890 Z-0.100 I-0.035 J-0.893 K0.000 F1200.000
G3 X145.019 Y90.679 Z-0.100 I4.270 J-3.278 K0.000 F1200.000
G1 X144.768 Y90.428 Z-0.100 F1200.000
G2 X145.338 Y91.691 Z-0.100 I3.056 J-0.619 K0.000 F1200.000
G1 X145.996 Y92.349 Z-0.100 F1200.000
G3 X145.338 Y91.691 Z-0.100 I0.882 J-1.540 K0.000 F1200.000
G0 Z5.000
G0 X145.502 Y91.577 Z5.000
G0 X145.502 Y91.577 Z3.000
G1 X145.502 Y91.577 Z-0.100 F60.000
G3 X144.930 Y90.377 Z-0.100 I3.406 J-2.362 K0.000 F1200.000
G3 X145.458 Y89.596 Z-0.100 I0.572 J-0.183 K0.000 F1200.000
G3 X145.899 Y89.752 Z-0.100 I0.016 J0.655 K0.000 F1200.000
G3 X146.946 Y91.521 Z-0.100 I-2.930 J2.930 K0.000 F1200.000
G3 X145.977 Y92.146 Z-0.100 I-0.568 J0.184 K0.000 F1200.000
G3 X145.502 Y91.577 Z-0.100 I2.931 J-2.930 K0.000 F1200.000
G0 Z5.000
G0 X144.768 Y90.428 Z5.000
G0 X144.768 Y90.428 Z3.000
G1 X144.768 Y90.428 Z-0.100 F60.000
G2 X145.769 Y92.201 Z-0.100 I3.314 J-0.702 K0.000 F1200.000
G2 X147.126 Y91.690 Z-0.100 I0.555 J-0.585 K0.000 F1200.000
G2 X146.260 Y89.841 Z-0.100 I-3.161 J0.352 K0.000 F1200.000
G2 X145.404 Y89.486 Z-0.100 I-0.731 J0.553 K0.000 F1200.000
G1 X145.404 Y89.486 Z-0.100 F60.000
G2 X144.768 Y90.428 Z-0.100 I0.121 J0.768 K0.000 F1200.000
G1 X145.019 Y90.679 Z-0.100 F1200.000
G3 X144.970 Y89.937 Z-0.100 I0.870 J-0.431 K0.000 F1200.000
G1 X144.873 Y89.840 Z-0.100 F1200.000
G3 X145.152 Y89.590 Z-0.100 I0.670 J0.467 K0.000 F1200.000
G3 X145.345 Y89.619 Z-0.100 I0.091 J0.049 K0.000 F1200.000
G0 Z5.000
G0 Z5.000
G0 X145.345 Y89.619
G0 X145.920 Y90.908
G0 X145.920 Y90.908 Z3.000
G1 X145.920 Y90.908 Z-0.100 F60.000
G2 X145.920 Y90.989 Z-0.100 I0.018 J0.041 K0.000 F1200.000
G2 X145.973 Y90.926 Z-0.100 I0.015 J-0.041 K0.000 F1200.000
G2 X145.915 Y90.914 Z-0.100 I-0.033 J0.015 K0.000 F1200.000
G2 X145.937 Y90.993 Z-0.100 I0.018 J0.037 K0.000 F1200.000
G2 X145.948 Y90.905 Z-0.100 I0.002 J-0.044 K0.000 F1200.000
G2 X145.920 Y90.908 Z-0.100 I-0.010 J0.043 K0.000 F1200.000
G0 Z5.000
G0 Z5.000
G0 X145.920 Y90.908
G0 X143.698 Y91.078
G0 X143.698 Y91.078 Z3.000
G1 X143.698 Y91.078 Z-0.100 F60.000
G3 X144.125 Y92.115 Z-0.100 I-0.918 J0.985 K0.000 F1200.000
G1 X144.105 Y92.179 Z-0.100 F1200.000
G1 X143.952 Y92.026 Z-0.100 F1200.000
G3 X143.729 Y92.496 Z-0.100 I-0.599 J0.004 K0.000 F1200.000
G3 X143.363 Y92.670 Z-0.100 I-0.491 J-0.560 K0.000 F1200.000
G2 X143.785 Y92.551 Z-0.100 I0.047 J-0.643 K0.000 F1200.000
G1 X143.729 Y92.496 Z-0.100 F1200.000
G0 Z5.000
G0 X142.634 Y92.786 Z5.000
G0 X142.634 Y92.786 Z3.000
G1 X142.634 Y92.786 Z-0.100 F60.000
G2 X143.523 Y93.732 Z-0.100 I1.946 J-0.939 K0.000 F1200.000
G2 X144.806 Y93.321 Z-0.100 I0.344 J-1.134 K0.000 F1200.000
G1 X144.771 Y93.261 Z-0.100 F1200.000
G3 X143.630 Y93.641 Z-0.100 I-0.858 J-0.674 K0.000 F1200.000
G3 X142.944 Y93.009 Z-0.100 I0.502 J-1.232 K0.000 F1200.000
G3 X143.056 Y92.637 Z-0.100 I0.186 J-0.147 K0.000 F1200.000
G3 X142.434 Y91.879 Z-0.100 I0.436 J-0.992 K0.000 F1200.000
G3 X143.295 Y91.000 Z-0.100 I0.640 J-0.235 K0.000 F1200.000
G3 X143.916 Y91.754 Z-0.100 I-0.425 J0.984 K0.000 F1200.000
G3 X143.363 Y92.670 Z-0.100 I-0.639 J0.240 K0.000 F1200.000
G2 X144.125 Y92.115 Z-0.100 I0.015 J-0.780 K0.000 F1200.000
G2 X143.495 Y90.931 Z-0.100 I-1.322 J-0.056 K0.000 F1200.000
G2 X142.249 Y91.640 Z-0.100 I-0.329 J0.872 K0.000 F1200.000
G2 X142.658 Y92.835 Z-0.100 I2.376 J-0.147 K0.000 F1200.000
G2 X143.601 Y93.753 Z-0.100 I1.664 J-0.765 K0.000 F1200.000
G1 X142.634 Y92.786 Z-0.100 F1200.000
G3 X142.249 Y91.708 Z-0.100 I1.997 J-1.321 K0.000 F1200.000
G1 X142.445 Y91.904 Z-0.100 F1200.000
G2 X143.056 Y92.637 Z-0.100 I1.038 J-0.244 K0.000 F1200.000
G2 X142.897 Y92.897 Z-0.100 I0.059 J0.215 K0.000 F1200.000
G2 X143.203 Y93.349 Z-0.100 I1.035 J-0.370 K0.000 F1200.000
G2 X144.104 Y93.676 Z-0.100 I0.739 J-0.630 K0.000 F1200.000
G3 X144.246 Y93.705 Z-0.100 I0.049 J0.125 K0.000 F1200.000
G2 X144.682 Y93.448 Z-0.100 I-0.401 J-1.175 K0.000 F1200.000
G1 X144.627 Y93.393 Z-0.100 F1200.000
G2 X144.771 Y93.261 Z-0.100 I-0.257 J-0.426 K0.000 F1200.000
G1 X144.806 Y93.321 Z-0.100 F1200.000
G3 X144.682 Y93.448 Z-0.100 I-0.399 J-0.264 K0.000 F1200.000
G0 Z5.000
G0 X142.249 Y91.708 Z5.000
G0 X142.249 Y91.708 Z3.000
G1 X142.249 Y91.708 Z-0.100 F60.000
G1 X142.445 Y91.904 Z-0.100 F1200.000
G3 X142.505 Y91.272 Z-0.100 I0.614 J-0.260 K0.000 F1200.000
G1 X142.441 Y91.207 Z-0.100 F1200.000
G3 X142.850 Y90.924 Z-0.100 I0.884 J0.840 K0.000 F1200.000
G1 X142.916 Y90.990 Z-0.100 F1200.000
G0 Z5.000
G0 Z5.000
G0 X142.916 Y90.990
G0 X132.663 Y96.918
G0 X132.663 Y96.918 Z3.000
G1 X132.663 Y96.918 Z-0.100 F60.000
G2 X132.553 Y96.741 Z-0.100 I-2.753 J1.592 K0.000 F1200.000
G2 X131.772 Y96.242 Z-0.100 I-0.816 J0.417 K0.000 F1200.000
G2 X131.003 Y96.841 Z-0.100 I0.022 J0.821 K0.000 F1200.000
G2 X131.659 Y98.979 Z-0.100 I3.156 J0.201 K0.000 F1200.000
G2 X133.084 Y98.712 Z-0.100 I0.648 J-0.479 K0.000 F1200.000
G2 X132.663 Y96.918 Z-0.100 I-3.174 J-0.202 K0.000 F1200.000
G0 Z5.000
G0 X132.475 Y97.019 Z5.000
G0 X132.475 Y97.019 Z3.000
G1 X132.475 Y97.019 Z-0.100 F60.000
G3 X132.937 Y98.514 Z-0.100 I-3.657 J1.948 K0.000 F1200.000
G3 X131.874 Y98.961 Z-0.100 I-0.591 J0.083 K0.000 F1200.000
G3 X131.150 Y97.038 Z-0.100 I3.395 J-2.376 K0.000 F1200.000
G3 X131.750 Y96.355 Z-0.100 I0.604 J-0.074 K0.000 F1200.000
G3 X132.213 Y96.591 Z-0.100 I-0.048 J0.666 K0.000 F1200.000
G3 X132.475 Y97.019 Z-0.100 I-3.394 J2.376 K0.000 F1200.000
G0 Z5.000
G0 X132.428 Y96.573 Z5.000
G0 X132.428 Y96.573 Z3.000
G1 X132.428 Y96.573 Z-0.100 F60.000
G3 X133.024 Y97.861 Z-0.100 I-3.158 J2.241 K0.000 F1200.000
G1 X132.711 Y97.548 Z-0.100 F1200.000
G3 X132.932 Y98.463 Z-0.100 I-2.407 J1.067 K0.000 F1200.000
G1 X133.093 Y98.623 Z-0.100 F1200.000
G3 X132.860 Y99.083 Z-0.100 I-0.569 J0.001 K0.000 F1200.000
G1 X132.779 Y99.003 Z-0.100 F1200.000
G3 X132.274 Y99.191 Z-0.100 I-0.427 J-0.375 K0.000 F1200.000
G1 X132.385 Y99.302 Z-0.100 F1200.000
G0 Z5.000
G0 X131.199 Y98.115 Z5.000
G0 X131.199 Y98.115 Z3.000
G1 X131.199 Y98.115 Z-0.100 F60.000
G2 X131.659 Y98.979 Z-0.100 I2.746 J-0.908 K0.000 F1200.000
G2 X132.385 Y99.302 Z-0.100 I0.622 J-0.422 K0.000 F1200.000
G1 X132.274 Y99.191 Z-0.100 F1200.000
G3 X131.581 Y98.497 Z-0.100 I0.308 J-1.001 K0.000 F1200.000
G1 X131.199 Y98.115 Z-0.100 F1200.000
G3 X130.984 Y97.207 Z-0.100 I2.868 J-1.159 K0.000 F1200.000
G1 X131.200 Y97.423 Z-0.100 F1200.000
G3 X131.198 Y96.728 Z-0.100 I1.186 J-0.351 K0.000 F1200.000
G1 X131.094 Y96.625 Z-0.100 F1200.000
G3 X131.477 Y96.314 Z-0.100 I0.540 J0.275 K0.000 F1200.000
G1 X131.549 Y96.387 Z-0.100 F1200.000
G0 Z5.000
G0 Z5.000
G0 X131.549 Y96.387
G0 X132.028 Y97.734
G0 X132.028 Y97.734 Z3.000
G1 X132.028 Y97.734 Z-0.100 F60.000
G2 X132.019 Y97.813 Z-0.100 I0.015 J0.042 K0.000 F1200.000
G2 X132.082 Y97.759 Z-0.100 I0.022 J-0.038 K0.000 F1200.000
G2 X132.027 Y97.737 Z-0.100 I-0.035 J0.009 K0.000 F1200.000
G2 X132.035 Y97.819 Z-0.100 I0.011 J0.040 K0.000 F1200.000
G2 X132.061 Y97.735 Z-0.100 I0.009 J-0.043 K0.000 F1200.000
G2 X132.028 Y97.734 Z-0.100 I-0.018 J0.041 K0.000 F1200.000
G0 Z5.000
G0 Z5.000
G0 X132.028 Y97.734
G0 X130.227 Y99.328
G0 X130.227 Y99.328 Z3.000
G1 X130.227 Y99.328 Z-0.100 F60.000
G1 X128.560 Y97.444 Z-0.100 F1200.000
G1 X128.392 Y97.506 Z-0.100 F1200.000
G1 X130.213 Y99.563 Z-0.100 F1200.000
G3 X130.113 Y99.955 Z-0.100 I-0.183 J0.162 K0.000 F1200.000
G1 X128.971 Y100.371 Z-0.100 F1200.000
G1 X129.012 Y100.483 Z-0.100 F1200.000
G1 X130.631 Y99.894 Z-0.100 F1200.000
G1 X130.563 Y99.707 Z-0.100 F1200.000
G1 X130.227 Y99.328 Z-0.100 F1200.000
G0 Z5.000
G0 X129.385 Y100.348 Z5.000
G0 X129.385 Y100.348 Z3.000
G1 X129.385 Y100.348 Z-0.100 F60.000
G1 X129.291 Y100.254 Z-0.100 F1200.000
G1 X128.971 Y100.371 Z-0.100 F1200.000
G1 X129.012 Y100.483 Z-0.100 F1200.000
G1 X129.385 Y100.348 Z-0.100 F1200.000
G1 X129.893 Y100.163 Z-0.100 F1200.000
G1 X129.799 Y100.069 Z-0.100 F1200.000
G1 X130.113 Y99.955 Z-0.100 F1200.000
G2 X130.246 Y99.823 Z-0.100 I-0.058 J-0.192 K0.000 F1200.000
G1 X130.401 Y99.978 Z-0.100 F1200.000
G1 X130.631 Y99.894 Z-0.100 F1200.000
G1 X130.563 Y99.707 Z-0.100 F1200.000
G1 X128.560 Y97.444 Z-0.100 F1200.000
G0 Z5.000
G0 Z5.000
G0 X128.560 Y97.444
G0 X117.637 Y100.756
G0 X117.637 Y100.756 Z3.000
G1 X117.637 Y100.756 Z-0.100 F60.000
G3 X118.092 Y101.904 Z-0.100 I-1.768 J1.365 K0.000 F1200.000
G1 X117.827 Y101.638 Z-0.100 F1200.000
G3 X117.956 Y102.460 Z-0.100 I-4.733 J1.166 K0.000 F1200.000
G1 X118.159 Y102.663 Z-0.100 F1200.000
G3 X118.036 Y103.234 Z-0.100 I-1.046 J0.074 K0.000 F1200.000
G1 X117.908 Y103.106 Z-0.100 F1200.000
G3 X117.593 Y103.483 Z-0.100 I-0.522 J-0.115 K0.000 F1200.000
G1 X117.675 Y103.565 Z-0.100 F1200.000
G0 Z5.000
G0 X117.627 Y103.472 Z5.000
G0 X117.627 Y103.472 Z3.000
G1 X117.627 Y103.472 Z-0.100 F60.000
G3 X116.827 Y103.218 Z-0.100 I-0.272 J-0.531 K0.000 F1200.000
G3 X116.447 Y101.198 Z-0.100 I3.756 J-1.751 K0.000 F1200.000
G3 X116.991 Y100.625 Z-0.100 I0.625 J0.048 K0.000 F1200.000
G3 X117.572 Y100.943 Z-0.100 I0.048 J0.603 K0.000 F1200.000
G3 X117.951 Y102.963 Z-0.100 I-3.755 J1.751 K0.000 F1200.000
G3 X117.627 Y103.472 Z-0.100 I-0.596 J-0.021 K0.000 F1200.000
G0 Z5.000
G0 X117.000 Y103.583 Z5.000
G0 X117.000 Y103.583 Z3.000
G1 X117.000 Y103.583 Z-0.100 F60.000
G3 X116.608 Y103.192 Z-0.100 I0.423 J-0.814 K0.000 F1200.000
G1 X117.000 Y103.583 Z-0.100 F1200.000
G1 X117.000 Y103.583 Z-0.100 F60.000
G2 X118.062 Y103.183 Z-0.100 I0.310 J-0.786 K0.000 F1200.000
G2 X117.787 Y100.963 Z-0.100 I-3.070 J-0.748 K0.000 F1200.000
G2 X116.925 Y100.535 Z-0.100 I-0.689 J0.306 K0.000 F1200.000
G1 X116.925 Y100.535 Z-0.100 F60.000
G2 X116.262 Y101.247 Z-0.100 I0.090 J0.748 K0.000 F1200.000
G2 X116.431 Y102.777 Z-0.100 I3.599 J0.378 K0.000 F1200.000
G2 X117.000 Y103.583 Z-0.100 I1.280 J-0.300 K0.000 F1200.000
G2 X117.675 Y103.565 Z-0.100 I0.317 J-0.789 K0.000 F1200.000
G1 X117.593 Y103.483 Z-0.100 F1200.000
G3 X117.028 Y103.435 Z-0.100 I-0.242 J-0.496 K0.000 F1200.000
G3 X116.556 Y102.446 Z-0.100 I1.227 J-1.194 K0.000 F1200.000
G1 X116.294 Y102.184 Z-0.100 F1200.000
G3 X116.246 Y101.443 Z-0.100 I2.966 J-0.565 K0.000 F1200.000
G1 X116.434 Y101.631 Z-0.100 F1200.000
G3 X116.506 Y101.010 Z-0.100 I1.440 J-0.147 K0.000 F1200.000
G1 X116.383 Y100.887 Z-0.100 F1200.000
G3 X116.766 Y100.577 Z-0.100 I0.569 J0.311 K0.000 F1200.000
G1 X116.849 Y100.660 Z-0.100 F1200.000
G0 Z5.000
G0 Z5.000
G0 X116.849 Y100.660
G0 X117.190 Y102.040
G0 X117.190 Y102.040 Z3.000
G1 X117.190 Y102.040 Z-0.100 F60.000
G1 X117.168 Y102.049 Z-0.100 F1200.000
G2 X117.231 Y102.111 Z-0.100 I0.034 J0.029 K0.000 F1200.000
G2 X117.190 Y102.040 Z-0.100 I-0.033 J-0.028 K0.000 F1200.000
G1 X117.190 Y102.040 Z-0.100 F60.000
G1 X117.168 Y102.049 Z-0.100 F1200.000
G2 X117.231 Y102.111 Z-0.100 I0.034 J0.029 K0.000 F1200.000
G2 X117.190 Y102.040 Z-0.100 I-0.033 J-0.028 K0.000 F1200.000
G0 Z5.000
G0 Z5.000
G0 X117.190 Y102.040
G0 X115.116 Y101.846
G0 X115.116 Y101.846 Z3.000
G1 X115.116 Y101.846 Z-0.100 F60.000
G2 X114.782 Y101.126 Z-0.100 I-0.786 J-0.073 K0.000 F1200.000
G2 X113.769 Y101.124 Z-0.100 I-0.508 J0.968 K0.000 F1200.000
G2 X113.334 Y101.618 Z-0.100 I0.233 J0.643 K0.000 F1200.000
G2 X113.760 Y102.502 Z-0.100 I0.689 J0.212 K0.000 F1200.000
G3 X113.906 Y101.159 Z-0.100 I0.485 J-0.627 K0.000 F1200.000
G3 X114.885 Y102.299 Z-0.100 I0.317 J0.717 K0.000 F1200.000
G2 X114.989 Y102.207 Z-0.100 I-0.148 J-0.275 K0.000 F1200.000
G2 X115.116 Y101.846 Z-0.100 I-0.659 J-0.435 K0.000 F1200.000
G0 Z5.000
G0 X115.064 Y102.084 Z5.000
G0 X115.064 Y102.084 Z3.000
G1 X115.064 Y102.084 Z-0.100 F60.000
G1 X114.986 Y102.006 Z-0.100 F1200.000
G3 X114.885 Y102.299 Z-0.100 I-0.688 J-0.074 K0.000 F1200.000
G2 X115.064 Y102.084 Z-0.100 I-0.246 J-0.388 K0.000 F1200.000
G2 X114.924 Y101.251 Z-0.100 I-0.783 J-0.297 K0.000 F1200.000
G0 Z5.000
G0 X114.084 Y101.104 Z5.000
G0 X114.084 Y101.104 Z3.000
G1 X114.084 Y101.104 Z-0.100 F60.000
G1 X114.031 Y101.051 Z-0.100 F1200.000
G2 X113.549 Y101.262 Z-0.100 I0.100 J0.880 K0.000 F1200.000
G1 X113.640 Y101.353 Z-0.100 F1200.000
G2 X113.470 Y101.876 Z-0.100 I0.488 J0.448 K0.000 F1200.000
G1 X113.326 Y101.732 Z-0.100 F1200.000
G2 X113.760 Y102.502 Z-0.100 I0.673 J0.128 K0.000 F1200.000
G3 X113.470 Y101.876 Z-0.100 I0.479 J-0.602 K0.000 F1200.000
G0 Z5.000
G0 X114.061 Y102.640 Z5.000
G0 X114.061 Y102.640 Z3.000
G1 X114.061 Y102.640 Z-0.100 F60.000
G3 X114.100 Y102.817 Z-0.100 I-0.114 J0.118 K0.000 F1200.000
G3 X114.681 Y102.711 Z-0.100 I0.414 J0.619 K0.000 F1200.000
G3 X114.659 Y102.519 Z-0.100 I0.141 J-0.113 K0.000 F1200.000
G3 X114.061 Y102.640 Z-0.100 I-0.447 J-0.670 K0.000 F1200.000
G0 Z5.000
G0 X114.239 Y102.644 Z5.000
G0 X114.239 Y102.644 Z3.000
G1 X114.239 Y102.644 Z-0.100 F60.000
G2 X114.659 Y102.519 Z-0.100 I0.032 J-0.661 K0.000 F1200.000
G2 X114.681 Y102.711 Z-0.100 I0.163 J0.079 K0.000 F1200.000
G2 X114.314 Y102.720 Z-0.100 I-0.162 J0.834 K0.000 F1200.000
G2 X114.107 Y102.645 Z-0.100 I-0.141 J0.066 K0.000 F1200.000
G3 X114.061 Y102.640 Z-0.100 I-0.002 J-0.218 K0.000 F1200.000
G3 X114.100 Y102.817 Z-0.100 I-0.118 J0.119 K0.000 F1200.000
G3 X114.314 Y102.720 Z-0.100 I0.292 J0.359 K0.000 F1200.000
G0 Z5.000
G0 X114.983 Y102.882 Z5.000
G0 X114.983 Y102.882 Z3.000
G1 X114.983 Y102.882 Z-0.100 F60.000
G1 X114.978 Y102.878 Z-0.100 F1200.000
G3 X115.301 Y103.303 Z-0.100 I-0.162 J0.457 K0.000 F1200.000
G3 X114.950 Y104.025 Z-0.100 I-0.604 J0.153 K0.000 F1200.000
G3 X114.004 Y104.054 Z-0.100 I-0.500 J-0.873 K0.000 F1200.000
G3 X113.702 Y103.494 Z-0.100 I0.361 J-0.555 K0.000 F1200.000
G1 X113.702 Y103.494 Z-0.100 F60.000
G3 X113.860 Y103.087 Z-0.100 I0.403 J-0.078 K0.000 F1200.000
G2 X113.856 Y103.647 Z-0.100 I0.782 J0.286 K0.000 F1200.000
G1 X113.702 Y103.494 Z-0.100 F1200.000
G3 X113.860 Y103.087 Z-0.100 I0.403 J-0.078 K0.000 F1200.000
G2 X114.369 Y104.065 Z-0.100 I0.622 J0.298 K0.000 F1200.000
G2 X114.983 Y102.882 Z-0.100 I0.135 J-0.681 K0.000 F1200.000
G0 Z5.000
G0 X115.166 Y103.572 Z5.000
G0 X115.166 Y103.572 Z3.000
G1 X115.166 Y103.572 Z-0.100 F60.000
G2 X114.978 Y102.878 Z-0.100 I-0.761 J-0.167 K0.000 F1200.000
G3 X115.301 Y103.303 Z-0.100 I-0.162 J0.457 K0.000 F1200.000
G3 X115.275 Y103.680 Z-0.100 I-0.643 J0.145 K0.000 F1200.000
G1 X115.166 Y103.572 Z-0.100 F1200.000
G3 X114.867 Y103.965 Z-0.100 I-0.574 J-0.127 K0.000 F1200.000
G1 X114.932 Y104.030 Z-0.100 F1200.000
G3 X114.355 Y104.146 Z-0.100 I-0.498 J-0.987 K0.000 F1200.000
G2 X114.021 Y103.901 Z-0.100 I-3.127 J3.909 K0.000 F1200.000
G2 X113.702 Y103.494 Z-0.100 I-2.183 J1.379 K0.000 F1200.000
G2 X114.355 Y104.146 Z-0.100 I0.631 J0.021 K0.000 F1200.000
G0 Z5.000
G0 Z5.000
G0 X114.355 Y104.146
G0 X102.560 Y103.863
G0 X102.560 Y103.863 Z3.000
G1 X102.560 Y103.863 Z-0.100 F60.000
G3 X102.443 Y104.747 Z-0.100 I-4.142 J-0.099 K0.000 F1200.000
G3 X101.291 Y104.803 Z-0.100 I-0.583 J-0.125 K0.000 F1200.000
G3 X101.268 Y102.748 Z-0.100 I4.003 J-1.072 K0.000 F1200.000
G3 X101.854 Y102.273 Z-0.100 I0.612 J0.156 K0.000 F1200.000
G3 X102.420 Y102.692 Z-0.100 I-0.004 J0.597 K0.000 F1200.000
G3 X102.560 Y103.863 Z-0.100 I-4.002 J1.072 K0.000 F1200.000
G0 Z5.000
G0 X102.372 Y102.347 Z5.000
G0 X102.372 Y102.347 Z3.000
G1 X102.372 Y102.347 Z-0.100 F60.000
G3 X102.747 Y103.415 Z-0.100 I-1.233 J1.033 K0.000 F1200.000
G1 X102.534 Y103.202 Z-0.100 F1200.000
G3 X102.553 Y103.914 Z-0.100 I-3.594 J0.453 K0.000 F1200.000
G1 X102.753 Y104.114 Z-0.100 F1200.000
G3 X102.643 Y104.697 Z-0.100 I-2.241 J-0.119 K0.000 F1200.000
G1 X102.495 Y104.549 Z-0.100 F1200.000
G3 X102.284 Y105.031 Z-0.100 I-1.039 J-0.170 K0.000 F1200.000
G1 X102.382 Y105.129 Z-0.100 F1200.000
G3 X101.876 Y105.316 Z-0.100 I-0.452 J-0.447 K0.000 F1200.000
G2 X101.645 Y105.183 Z-0.100 I-0.334 J0.315 K0.000 F1200.000
G3 X101.255 Y104.695 Z-0.100 I0.280 J-0.623 K0.000 F1200.000
G1 X101.005 Y104.445 Z-0.100 F1200.000
G2 X101.590 Y105.283 Z-0.100 I0.951 J-0.041 K0.000 F1200.000
G2 X101.876 Y105.316 Z-0.100 I0.217 J-0.634 K0.000 F1200.000
G0 Z5.000
G0 X101.005 Y104.445 Z5.000
G0 X101.005 Y104.445 Z3.000
G1 X101.005 Y104.445 Z-0.100 F60.000
G2 X101.083 Y104.747 Z-0.100 I1.423 J-0.208 K0.000 F1200.000
G2 X102.514 Y104.983 Z-0.100 I0.773 J-0.229 K0.000 F1200.000
G2 X102.629 Y102.749 Z-0.100 I-2.893 J-1.270 K0.000 F1200.000
G2 X101.676 Y102.193 Z-0.100 I-0.754 J0.197 K0.000 F1200.000
G1 X101.676 Y102.193 Z-0.100 F60.000
G2 X101.198 Y102.513 Z-0.100 I0.100 J0.667 K0.000 F1200.000
G2 X101.005 Y104.445 Z-0.100 I2.877 J1.263 K0.000 F1200.000
G1 X101.255 Y104.695 Z-0.100 F1200.000
G3 X101.155 Y103.902 Z-0.100 I2.338 J-0.698 K0.000 F1200.000
G1 X100.946 Y103.693 Z-0.100 F1200.000
G3 X101.001 Y103.055 Z-0.100 I3.414 J-0.027 K0.000 F1200.000
G1 X101.177 Y103.231 Z-0.100 F1200.000
G3 X101.306 Y102.667 Z-0.100 I1.569 J0.061 K0.000 F1200.000
G1 X101.183 Y102.544 Z-0.100 F1200.000
G3 X101.462 Y102.263 Z-0.100 I0.599 J0.316 K0.000 F1200.000
G3 X101.644 Y102.313 Z-0.100 I0.079 J0.071 K0.000 F1200.000
G0 Z5.000
G0 Z5.000
G0 X101.644 Y102.313
G0 X101.853 Y103.706
G0 X101.853 Y103.706 Z3.000
G1 X101.853 Y103.706 Z-0.100 F60.000
G2 X101.833 Y103.785 Z-0.100 I-0.004 J0.041 K0.000 F1200.000
G2 X101.886 Y103.715 Z-0.100 I0.023 J-0.038 K0.000 F1200.000
G2 X101.822 Y103.717 Z-0.100 I-0.031 J0.049 K0.000 F1200.000
G2 X101.882 Y103.783 Z-0.100 I0.034 J0.030 K0.000 F1200.000
G2 X101.853 Y103.706 Z-0.100 I-0.028 J-0.034 K0.000 F1200.000
G0 Z5.000
G0 Z5.000
G0 X101.853 Y103.706
G0 X99.404 Y102.363
G0 X99.404 Y102.363 Z3.000
G1 X99.404 Y102.363 Z-0.100 F60.000
G3 X99.842 Y103.494 Z-0.100 I-1.099 J1.076 K0.000 F1200.000
G1 X99.684 Y103.336 Z-0.100 F1200.000
G3 X99.386 Y103.697 Z-0.100 I-0.232 J0.112 K0.000 F1200.000
G2 X99.831 Y104.176 Z-0.100 I7.161 J-6.209 K0.000 F1200.000
G3 X99.717 Y104.754 Z-0.100 I-1.938 J-0.083 K0.000 F1200.000
G1 X99.580 Y104.618 Z-0.100 F1200.000
G3 X99.350 Y105.080 Z-0.100 I-0.698 J-0.059 K0.000 F1200.000
G1 X99.421 Y105.151 Z-0.100 F1200.000
G3 X98.864 Y105.287 Z-0.100 I-0.501 J-0.844 K0.000 F1200.000
G2 X98.651 Y105.206 Z-0.100 I-0.375 J0.664 K0.000 F1200.000
G3 X98.224 Y104.648 Z-0.100 I0.245 J-0.629 K0.000 F1200.000
G1 X98.041 Y104.465 Z-0.100 F1200.000
G2 X98.864 Y105.287 Z-0.100 I0.769 J0.053 K0.000 F1200.000
G0 Z5.000
G0 X98.041 Y104.465 Z5.000
G0 X98.041 Y104.465 Z3.000
G1 X98.041 Y104.465 Z-0.100 F60.000
G2 X98.875 Y105.287 Z-0.100 I0.773 J0.050 K0.000 F1200.000
G2 X99.690 Y104.822 Z-0.100 I0.105 J-0.763 K0.000 F1200.000
G2 X99.858 Y103.724 Z-0.100 I-2.520 J-0.947 K0.000 F1200.000
G2 X99.558 Y102.517 Z-0.100 I-1.957 J-0.154 K0.000 F1200.000
G2 X98.241 Y102.231 Z-0.100 I-0.866 J0.813 K0.000 F1200.000
G1 X98.241 Y102.299 Z-0.100 F1200.000
G3 X99.416 Y102.539 Z-0.100 I0.404 J1.019 K0.000 F1200.000
G3 X99.697 Y103.431 Z-0.100 I-1.051 J0.821 K0.000 F1200.000
G3 X99.386 Y103.697 Z-0.100 I-0.241 J0.032 K0.000 F1200.000
G3 X99.572 Y104.689 Z-0.100 I-0.812 J0.666 K0.000 F1200.000
G3 X98.389 Y105.020 Z-0.100 I-0.670 J-0.115 K0.000 F1200.000
G3 X98.227 Y104.057 Z-0.100 I0.860 J-0.639 K0.000 F1200.000
G3 X99.207 Y103.558 Z-0.100 I0.678 J0.121 K0.000 F1200.000
G2 X98.319 Y103.531 Z-0.100 I-0.461 J0.577 K0.000 F1200.000
G2 X98.041 Y104.465 Z-0.100 I0.679 J0.710 K0.000 F1200.000
G1 X98.224 Y104.648 Z-0.100 F1200.000
G3 X98.250 Y103.980 Z-0.100 I1.284 J-0.286 K0.000 F1200.000
G1 X98.102 Y103.833 Z-0.100 F1200.000
G3 X98.438 Y103.476 Z-0.100 I0.525 J0.158 K0.000 F1200.000
G1 X98.547 Y103.585 Z-0.100 F1200.000
G3 X99.207 Y103.558 Z-0.100 I0.356 J0.639 K0.000 F1200.000
G2 X98.438 Y103.476 Z-0.100 I-0.447 J0.546 K0.000 F1200.000
G0 Z5.000
G0 X98.241 Y102.299 Z5.000
G0 X98.241 Y102.299 Z3.000
G1 X98.241 Y102.299 Z-0.100 F60.000
G1 X98.241 Y102.231 Z-0.100 F1200.000
G1 X98.396 Y102.185 Z-0.100 F1200.000
G3 X98.582 Y102.234 Z-0.100 I0.073 J0.100 K0.000 F1200.000
G2 X98.241 Y102.299 Z-0.100 I-0.016 J0.839 K0.000 F1200.000
G0 Z5.000
G0 Z5.000
G0 X98.241 Y102.299
G0 X87.133 Y102.176
G0 X87.133 Y102.176 Z3.000
G1 X87.133 Y102.176 Z-0.100 F60.000
G3 X86.784 Y103.797 Z-0.100 I-4.143 J-0.046 K0.000 F1200.000
G3 X85.639 Y103.653 Z-0.100 I-0.553 J-0.224 K0.000 F1200.000
G3 X85.867 Y101.859 Z-0.100 I3.882 J-0.419 K0.000 F1200.000
G3 X86.585 Y101.255 Z-0.100 I0.728 J0.137 K0.000 F1200.000
G3 X87.118 Y101.770 Z-0.100 I-0.046 J0.581 K0.000 F1200.000
G3 X87.133 Y102.176 Z-0.100 I-4.128 J0.361 K0.000 F1200.000
G0 Z5.000
G0 X87.077 Y101.364 Z5.000
G0 X87.077 Y101.364 Z3.000
G1 X87.077 Y101.364 Z-0.100 F60.000
G3 X87.339 Y102.319 Z-0.100 I-1.038 J0.799 K0.000 F1200.000
G1 X87.151 Y102.131 Z-0.100 F1200.000
G3 X87.085 Y102.758 Z-0.100 I-3.896 J-0.093 K0.000 F1200.000
G1 X87.262 Y102.935 Z-0.100 F1200.000
G3 X87.118 Y103.484 Z-0.100 I-2.904 J-0.469 K0.000 F1200.000
G1 X86.960 Y103.326 Z-0.100 F1200.000
G3 X86.768 Y103.826 Z-0.100 I-1.740 J-0.382 K0.000 F1200.000
G1 X86.884 Y103.943 Z-0.100 F1200.000
G3 X86.492 Y104.244 Z-0.100 I-0.531 J-0.286 K0.000 F1200.000
G1 X86.394 Y104.146 Z-0.100 F1200.000
G3 X85.627 Y103.591 Z-0.100 I-0.170 J-0.573 K0.000 F1200.000
G1 X85.610 Y103.362 Z-0.100 F1200.000
G1 X85.419 Y103.171 Z-0.100 F1200.000
G2 X85.684 Y104.062 Z-0.100 I1.089 J0.161 K0.000 F1200.000
G2 X86.492 Y104.244 Z-0.100 I0.583 J-0.707 K0.000 F1200.000
G0 Z5.000
G0 X85.419 Y103.171 Z5.000
G0 X85.419 Y103.171 Z3.000
G1 X85.419 Y103.171 Z-0.100 F60.000
G2 X85.444 Y103.562 Z-0.100 I1.800 J0.079 K0.000 F1200.000
G2 X86.812 Y104.043 Z-0.100 I0.801 J-0.091 K0.000 F1200.000
G2 X87.314 Y101.862 Z-0.100 I-2.629 J-1.753 K0.000 F1200.000
G2 X86.249 Y101.181 Z-0.100 I-0.808 J0.091 K0.000 F1200.000
G1 X86.249 Y101.181 Z-0.100 F60.000
G2 X85.945 Y101.381 Z-0.100 I0.204 J0.640 K0.000 F1200.000
G2 X85.419 Y103.171 Z-0.100 I2.599 J1.736 K0.000 F1200.000
G1 X85.610 Y103.362 Z-0.100 F1200.000
G3 X85.665 Y102.723 Z-0.100 I2.221 J-0.131 K0.000 F1200.000
G1 X85.483 Y102.542 Z-0.100 F1200.000
G3 X85.623 Y101.989 Z-0.100 I3.006 J0.466 K0.000 F1200.000
G1 X85.785 Y102.151 Z-0.100 F1200.000
G3 X85.967 Y101.640 Z-0.100 I1.697 J0.318 K0.000 F1200.000
G1 X85.847 Y101.519 Z-0.100 F1200.000
G3 X86.214 Y101.194 Z-0.100 I0.643 J0.355 K0.000 F1200.000
G1 X86.318 Y101.298 Z-0.100 F1200.000
G0 Z5.000
G0 Z5.000
G0 X86.318 Y101.298
G0 X86.375 Y102.668
G0 X86.375 Y102.668 Z3.000
G1 X86.375 Y102.668 Z-0.100 F60.000
G2 X86.360 Y102.671 Z-0.100 I0.002 J0.050 K0.000 F1200.000
G2 X86.398 Y102.751 Z-0.100 I0.022 J0.039 K0.000 F1200.000
G2 X86.384 Y102.670 Z-0.100 I-0.022 J-0.038 K0.000 F1200.000
G2 X86.358 Y102.753 Z-0.100 I-0.010 J0.042 K0.000 F1200.000
G2 X86.415 Y102.685 Z-0.100 I0.019 J-0.042 K0.000 F1200.000
G2 X86.375 Y102.668 Z-0.100 I-0.038 J0.033 K0.000 F1200.000
G0 Z5.000
G0 Z5.000
G0 X86.375 Y102.668
G0 X84.501 Y101.779
G0 X84.501 Y101.779 Z3.000
G1 X84.501 Y101.779 Z-0.100 F60.000
G2 X84.434 Y100.987 Z-0.100 I-0.713 J-0.338 K0.000 F1200.000
G2 X83.483 Y100.639 Z-0.100 I-0.808 J0.735 K0.000 F1200.000
G2 X82.905 Y100.955 Z-0.100 I-0.001 J0.684 K0.000 F1200.000
G2 X83.003 Y101.931 Z-0.100 I0.575 J0.435 K0.000 F1200.000
G3 X83.600 Y100.719 Z-0.100 I0.670 J-0.423 K0.000 F1200.000
G3 X84.129 Y102.125 Z-0.100 I0.052 J0.783 K0.000 F1200.000
G2 X84.259 Y102.075 Z-0.100 I-0.045 J-0.310 K0.000 F1200.000
G2 X84.501 Y101.779 Z-0.100 I-0.470 J-0.634 K0.000 F1200.000
G0 Z5.000
G0 X84.159 Y102.099 Z5.000
G0 X84.159 Y102.099 Z3.000
G1 X84.159 Y102.099 Z-0.100 F60.000
G1 X84.129 Y102.125 Z-0.100 F1200.000
G2 X84.405 Y101.652 Z-0.100 I-0.469 J-0.592 K0.000 F1200.000
G1 X84.507 Y101.753 Z-0.100 F1200.000
G2 X84.299 Y100.854 Z-0.100 I-0.718 J-0.307 K0.000 F1200.000
G0 Z5.000
G0 X83.492 Y100.738 Z5.000
G0 X83.492 Y100.738 Z3.000
G1 X83.492 Y100.738 Z-0.100 F60.000
G1 X83.402 Y100.649 Z-0.100 F1200.000
G2 X82.955 Y100.894 Z-0.100 I0.032 J0.590 K0.000 F1200.000
G1 X83.062 Y101.001 Z-0.100 F1200.000
G2 X82.892 Y101.524 Z-0.100 I0.739 J0.530 K0.000 F1200.000
G2 X83.003 Y101.931 Z-0.100 I0.789 J0.004 K0.000 F1200.000
G3 X82.778 Y101.410 Z-0.100 I0.317 J-0.446 K0.000 F1200.000
G1 X82.892 Y101.524 Z-0.100 F1200.000
G0 Z5.000
G0 X83.238 Y102.164 Z5.000
G0 X83.238 Y102.164 Z3.000
G1 X83.238 Y102.164 Z-0.100 F60.000
G3 X83.214 Y102.344 Z-0.100 I-0.148 J0.072 K0.000 F1200.000
G3 X83.797 Y102.442 Z-0.100 I0.177 J0.723 K0.000 F1200.000
G3 X83.842 Y102.255 Z-0.100 I0.171 J-0.058 K0.000 F1200.000
G3 X83.238 Y102.164 Z-0.100 I-0.191 J-0.782 K0.000 F1200.000
G0 Z5.000
G0 X83.647 Y102.279 Z5.000
G0 X83.647 Y102.279 Z3.000
G1 X83.647 Y102.279 Z-0.100 F60.000
G2 X83.842 Y102.255 Z-0.100 I0.041 J-0.467 K0.000 F1200.000
G2 X83.795 Y102.427 Z-0.100 I0.113 J0.123 K0.000 F1200.000
G1 X83.647 Y102.279 Z-0.100 F1200.000
G3 X83.238 Y102.164 Z-0.100 I0.043 J-0.937 K0.000 F1200.000
G3 X83.214 Y102.344 Z-0.100 I-0.151 J0.072 K0.000 F1200.000
G3 X83.797 Y102.442 Z-0.100 I0.177 J0.727 K0.000 F1200.000
G1 X83.795 Y102.427 Z-0.100 F1200.000
G0 Z5.000
G0 X82.850 Y102.529 Z5.000
G0 X82.850 Y102.529 Z3.000
G1 X82.850 Y102.529 Z-0.100 F60.000
G2 X82.728 Y102.617 Z-0.100 I0.202 J0.410 K0.000 F1200.000
G2 X82.754 Y102.772 Z-0.100 I0.029 J0.075 K0.000 F1200.000
G3 X82.897 Y102.515 Z-0.100 I0.510 J0.114 K0.000 F1200.000
G2 X82.677 Y102.695 Z-0.100 I0.092 J0.337 K0.000 F1200.000
G1 X82.677 Y102.695 Z-0.100 F60.000
G2 X82.701 Y103.473 Z-0.100 I0.591 J0.371 K0.000 F1200.000
G2 X83.600 Y103.769 Z-0.100 I0.728 J-0.695 K0.000 F1200.000
G2 X84.177 Y103.211 Z-0.100 I-0.043 J-0.622 K0.000 F1200.000
G2 X84.019 Y102.701 Z-0.100 I-0.466 J-0.135 K0.000 F1200.000
G3 X83.040 Y103.608 Z-0.100 I-0.619 J0.313 K0.000 F1200.000
G3 X82.897 Y102.515 Z-0.100 I0.339 J-0.601 K0.000 F1200.000
G1 X82.850 Y102.529 Z-0.100 F1200.000
G0 Z5.000
G0 X82.615 Y103.326 Z5.000
G0 X82.615 Y103.326 Z3.000
G1 X82.615 Y103.326 Z-0.100 F60.000
G2 X82.949 Y103.660 Z-0.100 I0.570 J-0.237 K0.000 F1200.000
G1 X82.615 Y103.326 Z-0.100 F1200.000
G3 X82.677 Y102.695 Z-0.100 I0.671 J-0.253 K0.000 F1200.000
G1 X82.754 Y102.772 Z-0.100 F1200.000
G2 X83.503 Y103.695 Z-0.100 I0.617 J0.264 K0.000 F1200.000
G3 X83.720 Y103.739 Z-0.100 I0.095 J0.087 K0.000 F1200.000
G2 X84.107 Y103.432 Z-0.100 I-0.103 J-0.527 K0.000 F1200.000
G1 X84.000 Y103.325 Z-0.100 F1200.000
G2 X84.019 Y102.701 Z-0.100 I-0.649 J-0.332 K0.000 F1200.000
G3 X84.136 Y102.842 Z-0.100 I-0.196 J0.282 K0.000 F1200.000
G3 X84.107 Y103.432 Z-0.100 I-0.607 J0.266 K0.000 F1200.000
G0 Z5.000
G0 Z5.000
G0 X84.107 Y103.432
G0 X72.015 Y99.212
G0 X72.015 Y99.212 Z3.000
G1 X72.015 Y99.212 Z-0.100 F60.000
G3 X71.549 Y100.147 Z-0.100 I-3.912 J-1.365 K0.000 F1200.000
G3 X70.448 Y99.806 Z-0.100 I-0.506 J-0.317 K0.000 F1200.000
G3 X70.908 Y98.218 Z-0.100 I3.830 J0.250 K0.000 F1200.000
G3 X71.633 Y97.586 Z-0.100 I0.928 J0.333 K0.000 F1200.000
G3 X72.231 Y98.208 Z-0.100 I0.008 J0.591 K0.000 F1200.000
G3 X72.015 Y99.212 Z-0.100 I-4.128 J-0.361 K0.000 F1200.000
G0 Z5.000
G0 X72.117 Y97.658 Z5.000
G0 X72.117 Y97.658 Z3.000
G1 X72.117 Y97.658 Z-0.100 F60.000
G3 X72.382 Y98.616 Z-0.100 I-0.635 J0.692 K0.000 F1200.000
G1 X72.215 Y98.448 Z-0.100 F1200.000
G3 X72.081 Y99.007 Z-0.100 I-2.500 J-0.301 K0.000 F1200.000
G1 X72.241 Y99.167 Z-0.100 F1200.000
G3 X72.052 Y99.671 Z-0.100 I-2.580 J-0.682 K0.000 F1200.000
G1 X71.891 Y99.510 Z-0.100 F1200.000
G3 X71.666 Y99.978 Z-0.100 I-1.663 J-0.511 K0.000 F1200.000
G1 X71.797 Y100.108 Z-0.100 F1200.000
G3 X71.446 Y100.451 Z-0.100 I-0.856 J-0.524 K0.000 F1200.000
G1 X71.334 Y100.339 Z-0.100 F1200.000
G3 X70.446 Y99.742 Z-0.100 I-0.301 J-0.511 K0.000 F1200.000
G1 X70.473 Y99.478 Z-0.100 F1200.000
G1 X70.311 Y99.315 Z-0.100 F1200.000
G2 X70.333 Y100.031 Z-0.100 I1.252 J0.318 K0.000 F1200.000
G1 X70.769 Y100.467 Z-0.100 F1200.000
G3 X70.333 Y100.031 Z-0.100 I0.173 J-0.609 K0.000 F1200.000
G0 Z5.000
G0 X70.311 Y99.315 Z5.000
G0 X70.311 Y99.315 Z3.000
G1 X70.311 Y99.315 Z-0.100 F60.000
G2 X70.272 Y99.682 Z-0.100 I1.656 J0.361 K0.000 F1200.000
G2 X71.535 Y100.393 Z-0.100 I0.804 J0.049 K0.000 F1200.000
G2 X72.408 Y98.333 Z-0.100 I-2.284 J-2.183 K0.000 F1200.000
G2 X71.431 Y97.485 Z-0.100 I-0.812 J-0.051 K0.000 F1200.000
G1 X71.431 Y97.485 Z-0.100 F60.000
G2 X71.143 Y97.622 Z-0.100 I0.167 J0.724 K0.000 F1200.000
G2 X70.311 Y99.315 Z-0.100 I2.261 J2.163 K0.000 F1200.000
G1 X70.473 Y99.478 Z-0.100 F1200.000
G3 X70.621 Y98.933 Z-0.100 I2.544 J0.402 K0.000 F1200.000
G1 X70.460 Y98.772 Z-0.100 F1200.000
G3 X70.660 Y98.279 Z-0.100 I2.202 J0.608 K0.000 F1200.000
G1 X70.816 Y98.435 Z-0.100 F1200.000
G3 X71.052 Y97.978 Z-0.100 I1.732 J0.604 K0.000 F1200.000
G1 X70.922 Y97.849 Z-0.100 F1200.000
G3 X71.302 Y97.535 Z-0.100 I0.705 J0.466 K0.000 F1200.000
G1 X71.408 Y97.641 Z-0.100 F1200.000
G0 Z5.000
G0 Z5.000
G0 X71.408 Y97.641
G0 X71.336 Y98.963
G0 X71.336 Y98.963 Z3.000
G1 X71.336 Y98.963 Z-0.100 F60.000
G2 X71.305 Y99.035 Z-0.100 I-0.002 J0.041 K0.000 F1200.000
G2 X71.379 Y98.987 Z-0.100 I0.035 J-0.027 K0.000 F1200.000
G2 X71.318 Y98.966 Z-0.100 I-0.046 J0.035 K0.000 F1200.000
G2 X71.351 Y99.049 Z-0.100 I0.021 J0.040 K0.000 F1200.000
G2 X71.351 Y98.967 Z-0.100 I-0.015 J-0.041 K0.000 F1200.000
G2 X71.336 Y98.963 Z-0.100 I-0.018 J0.038 K0.000 F1200.000
G0 Z5.000
G0 Z5.000
G0 X71.336 Y98.963
G0 X68.950 Y99.026
G0 X68.950 Y99.026 Z3.000
G1 X68.950 Y99.026 Z-0.100 F60.000
G1 X68.884 Y96.514 Z-0.100 F1200.000
G1 X68.716 Y96.453 Z-0.100 F1200.000
G1 X68.789 Y99.199 Z-0.100 F1200.000
G3 X68.460 Y99.436 Z-0.100 I-0.245 J0.006 K0.000 F1200.000
G1 X67.318 Y99.020 Z-0.100 F1200.000
G1 X67.277 Y99.132 Z-0.100 F1200.000
G1 X68.896 Y99.722 Z-0.100 F1200.000
G1 X68.964 Y99.535 Z-0.100 F1200.000
G1 X68.950 Y99.026 Z-0.100 F1200.000
G0 Z5.000
G0 X67.295 Y99.083 Z5.000
G0 X67.295 Y99.083 Z3.000
G1 X67.295 Y99.083 Z-0.100 F60.000
G1 X67.277 Y99.132 Z-0.100 F1200.000
G1 X67.383 Y99.171 Z-0.100 F1200.000
G1 X67.295 Y99.083 Z-0.100 F1200.000
G1 X67.318 Y99.020 Z-0.100 F1200.000
G1 X68.273 Y99.368 Z-0.100 F1200.000
G1 X68.473 Y99.568 Z-0.100 F1200.000
G1 X68.896 Y99.722 Z-0.100 F1200.000
G2 X68.959 Y99.361 Z-0.100 I-0.426 J-0.261 K0.000 F1200.000
G1 X68.788 Y99.190 Z-0.100 F1200.000
G1 X68.770 Y98.479 Z-0.100 F1200.000
G1 X68.941 Y98.649 Z-0.100 F1200.000
G1 X68.922 Y97.938 Z-0.100 F1200.000
G1 X68.751 Y97.767 Z-0.100 F1200.000
G1 X68.732 Y97.055 Z-0.100 F1200.000
G1 X68.903 Y97.226 Z-0.100 F1200.000
G1 X68.884 Y96.514 Z-0.100 F1200.000
G0 Z5.000
G0 Z5.000
G0 X68.884 Y96.514
G0 X58.093 Y92.498
G0 X58.093 Y92.498 Z3.000
G1 X58.093 Y92.498 Z-0.100 F60.000
G3 X57.204 Y93.917 Z-0.100 I-3.883 J-1.445 K0.000 F1200.000
G3 X56.178 Y93.390 Z-0.100 I-0.443 J-0.400 K0.000 F1200.000
G3 X56.908 Y91.906 Z-0.100 I3.728 J0.912 K0.000 F1200.000
G3 X57.678 Y91.404 Z-0.100 I0.894 J0.531 K0.000 F1200.000
G3 X58.212 Y92.126 Z-0.100 I-0.046 J0.592 K0.000 F1200.000
G3 X58.093 Y92.498 Z-0.100 I-4.002 J-1.073 K0.000 F1200.000
G0 Z5.000
G0 X58.137 Y91.508 Z5.000
G0 X58.137 Y91.508 Z3.000
G1 X58.137 Y91.508 Z-0.100 F60.000
G3 X58.336 Y92.398 Z-0.100 I-0.523 J0.584 K0.000 F1200.000
G1 X58.186 Y92.248 Z-0.100 F1200.000
G3 X57.998 Y92.752 Z-0.100 I-2.195 J-0.533 K0.000 F1200.000
G1 X58.143 Y92.897 Z-0.100 F1200.000
G3 X57.900 Y93.348 Z-0.100 I-2.344 J-0.971 K0.000 F1200.000
G1 X57.750 Y93.198 Z-0.100 F1200.000
G3 X57.477 Y93.618 Z-0.100 I-5.783 J-3.462 K0.000 F1200.000
G1 X57.613 Y93.753 Z-0.100 F1200.000
G3 X57.252 Y94.085 Z-0.100 I-0.977 J-0.701 K0.000 F1200.000
G1 X57.134 Y93.967 Z-0.100 F1200.000
G3 X56.541 Y94.068 Z-0.100 I-0.377 J-0.429 K0.000 F1200.000
G1 X56.692 Y94.219 Z-0.100 F1200.000
G0 Z5.000
G0 X56.018 Y93.545 Z5.000
G0 X56.018 Y93.545 Z3.000
G1 X56.018 Y93.545 Z-0.100 F60.000
G2 X57.147 Y94.157 Z-0.100 I0.799 J-0.127 K0.000 F1200.000
G2 X58.364 Y92.280 Z-0.100 I-1.871 J-2.546 K0.000 F1200.000
G2 X57.351 Y91.313 Z-0.100 I-0.789 J-0.186 K0.000 F1200.000
G1 X57.351 Y91.313 Z-0.100 F60.000
G1 X57.243 Y91.360 Z-0.100 F1200.000
G2 X56.027 Y93.237 Z-0.100 I1.874 J2.547 K0.000 F1200.000
G2 X56.692 Y94.219 Z-0.100 I0.754 J0.205 K0.000 F1200.000
G1 X56.541 Y94.068 Z-0.100 F1200.000
G3 X56.277 Y93.874 Z-0.100 I0.151 J-0.482 K0.000 F1200.000
G2 X56.018 Y93.545 Z-0.100 I-0.987 J0.511 K0.000 F1200.000
G3 X56.108 Y92.941 Z-0.100 I1.271 J-0.120 K0.000 F1200.000
G1 X56.255 Y93.089 Z-0.100 F1200.000
G3 X56.473 Y92.613 Z-0.100 I1.985 J0.622 K0.000 F1200.000
G1 X56.325 Y92.465 Z-0.100 F1200.000
G3 X56.579 Y92.027 Z-0.100 I2.324 J1.055 K0.000 F1200.000
G1 X56.731 Y92.178 Z-0.100 F1200.000
G3 X57.016 Y91.770 Z-0.100 I2.161 J1.206 K0.000 F1200.000
G1 X56.888 Y91.643 Z-0.100 F1200.000
G3 X57.281 Y91.343 Z-0.100 I0.895 J0.767 K0.000 F1200.000
G1 X57.402 Y91.464 Z-0.100 F1200.000
G0 Z5.000
G0 Z5.000
G0 X57.402 Y91.464
G0 X57.198 Y92.714
G0 X57.198 Y92.714 Z3.000
G1 X57.198 Y92.714 Z-0.100 F60.000
G2 X57.157 Y92.779 Z-0.100 I-0.007 J0.041 K0.000 F1200.000
G2 X57.236 Y92.740 Z-0.100 I0.039 J-0.021 K0.000 F1200.000
G2 X57.182 Y92.714 Z-0.100 I-0.049 J0.033 K0.000 F1200.000
G2 X57.200 Y92.802 Z-0.100 I0.014 J0.043 K0.000 F1200.000
G2 X57.214 Y92.721 Z-0.100 I-0.007 J-0.043 K0.000 F1200.000
G2 X57.198 Y92.714 Z-0.100 I-0.023 J0.034 K0.000 F1200.000
G0 Z5.000
G0 Z5.000
G0 X57.198 Y92.714
G0 X55.696 Y91.456
G0 X55.696 Y91.456 Z3.000
G1 X55.696 Y91.456 Z-0.100 F60.000
G2 X55.940 Y90.964 Z-0.100 I-0.898 J-0.753 K0.000 F1200.000
G2 X55.831 Y90.220 Z-0.100 I-0.714 J-0.275 K0.000 F1200.000
G2 X54.565 Y90.032 Z-0.100 I-0.727 J0.545 K0.000 F1200.000
G2 X53.701 Y91.311 Z-0.100 I2.280 J2.472 K0.000 F1200.000
G2 X53.634 Y92.268 Z-0.100 I1.124 J0.560 K0.000 F1200.000
G2 X54.348 Y92.895 Z-0.100 I1.086 J-0.518 K0.000 F1200.000
G1 X54.221 Y92.768 Z-0.100 F1200.000
G2 X54.609 Y92.904 Z-0.100 I0.568 J-0.999 K0.000 F1200.000
G1 X54.575 Y92.963 Z-0.100 F1200.000
G3 X54.348 Y92.895 Z-0.100 I0.067 J-0.633 K0.000 F1200.000
G2 X54.575 Y92.963 Z-0.100 I0.293 J-0.565 K0.000 F1200.000
G1 X54.609 Y92.904 Z-0.100 F1200.000
G3 X53.710 Y92.105 Z-0.100 I0.155 J-1.080 K0.000 F1200.000
G3 X53.914 Y91.196 Z-0.100 I1.318 J-0.182 K0.000 F1200.000
G3 X54.292 Y91.106 Z-0.100 I0.220 J0.088 K0.000 F1200.000
G3 X54.638 Y90.189 Z-0.100 I1.078 J-0.118 K0.000 F1200.000
G3 X55.830 Y90.495 Z-0.100 I0.523 J0.436 K0.000 F1200.000
G3 X55.488 Y91.410 Z-0.100 I-1.064 J0.124 K0.000 F1200.000
G3 X54.417 Y91.389 Z-0.100 I-0.527 J-0.433 K0.000 F1200.000
G2 X55.279 Y91.771 Z-0.100 I0.683 J-0.377 K0.000 F1200.000
G2 X55.696 Y91.456 Z-0.100 I-0.482 J-1.069 K0.000 F1200.000
G0 Z5.000
G0 X55.295 Y91.763 Z5.000
G0 X55.295 Y91.763 Z3.000
G1 X55.295 Y91.763 Z-0.100 F60.000
G3 X54.417 Y91.389 Z-0.100 I-0.213 J-0.718 K0.000 F1200.000
G2 X55.156 Y91.624 Z-0.100 I0.539 J-0.415 K0.000 F1200.000
G1 X55.295 Y91.763 Z-0.100 F1200.000
G2 X55.676 Y91.451 Z-0.100 I-0.272 J-0.720 K0.000 F1200.000
G1 X55.551 Y91.325 Z-0.100 F1200.000
G2 X55.795 Y90.877 Z-0.100 I-0.832 J-0.744 K0.000 F1200.000
G1 X55.922 Y91.004 Z-0.100 F1200.000
G2 X55.831 Y90.220 Z-0.100 I-0.691 J-0.317 K0.000 F1200.000
G0 Z5.000
G0 X54.910 Y89.991 Z5.000
G0 X54.910 Y89.991 Z3.000
G1 X54.910 Y89.991 Z-0.100 F60.000
G1 X54.809 Y89.891 Z-0.100 F1200.000
G2 X54.410 Y90.185 Z-0.100 I0.303 J0.827 K0.000 F1200.000
G1 X54.542 Y90.317 Z-0.100 F1200.000
G2 X54.308 Y90.776 Z-0.100 I0.904 J0.750 K0.000 F1200.000
G1 X54.109 Y90.577 Z-0.100 F1200.000
G2 X53.849 Y91.010 Z-0.100 I1.580 J1.244 K0.000 F1200.000
G1 X53.966 Y91.127 Z-0.100 F1200.000
G2 X53.745 Y91.599 Z-0.100 I3.474 J1.916 K0.000 F1200.000
G1 X53.639 Y91.493 Z-0.100 F1200.000
G2 X53.602 Y92.148 Z-0.100 I1.043 J0.389 K0.000 F1200.000
G1 X53.634 Y92.268 Z-0.100 F1200.000
G2 X54.348 Y92.895 Z-0.100 I1.086 J-0.518 K0.000 F1200.000
G2 X53.929 Y92.548 Z-0.100 I-3.569 J3.882 K0.000 F1200.000
G2 X53.602 Y92.148 Z-0.100 I-1.443 J0.849 K0.000 F1200.000
G0 Z5.000
G0 Z5.000
G0 X53.602 Y92.148
G0 X45.020 Y84.730
G0 X45.020 Y84.730 Z3.000
G1 X45.020 Y84.730 Z-0.100 F60.000
G2 X45.555 Y83.859 Z-0.100 I-2.390 J-2.066 K0.000 F1200.000
G2 X44.610 Y82.758 Z-0.100 I-0.739 J-0.321 K0.000 F1200.000
G2 X43.086 Y84.396 Z-0.100 I1.404 J2.834 K0.000 F1200.000
G2 X44.030 Y85.496 Z-0.100 I0.739 J0.321 K0.000 F1200.000
G2 X45.020 Y84.730 Z-0.100 I-1.400 J-2.832 K0.000 F1200.000
G0 Z5.000
G0 X44.853 Y84.590 Z5.000
G0 X44.853 Y84.590 Z3.000
G1 X44.853 Y84.590 Z-0.100 F60.000
G3 X44.128 Y85.270 Z-0.100 I-3.176 J-2.661 K0.000 F1200.000
G3 X43.210 Y84.573 Z-0.100 I-0.367 J-0.470 K0.000 F1200.000
G3 X44.186 Y83.238 Z-0.100 I3.513 J1.545 K0.000 F1200.000
G3 X44.841 Y82.867 Z-0.100 I1.005 J1.008 K0.000 F1200.000
G3 X45.432 Y83.681 Z-0.100 I0.051 J0.585 K0.000 F1200.000
G3 X44.853 Y84.590 Z-0.100 I-3.755 J-1.751 K0.000 F1200.000
G0 Z5.000
G0 X43.773 Y85.525 Z5.000
G0 X43.773 Y85.525 Z3.000
G1 X43.773 Y85.525 Z-0.100 F60.000
G1 X43.625 Y85.378 Z-0.100 F1200.000
G2 X44.176 Y85.236 Z-0.100 I0.108 J-0.721 K0.000 F1200.000
G1 X44.306 Y85.365 Z-0.100 F1200.000
G2 X44.692 Y85.059 Z-0.100 I-1.009 J-1.670 K0.000 F1200.000
G1 X44.549 Y84.915 Z-0.100 F1200.000
G2 X44.881 Y84.555 Z-0.100 I-2.102 J-2.271 K0.000 F1200.000
G1 X45.028 Y84.701 Z-0.100 F1200.000
G1 X45.322 Y84.303 Z-0.100 F1200.000
G1 X45.180 Y84.161 Z-0.100 F1200.000
G2 X45.424 Y83.711 Z-0.100 I-1.572 J-1.143 K0.000 F1200.000
G1 X45.558 Y83.846 Z-0.100 F1200.000
G2 X45.329 Y82.924 Z-0.100 I-0.676 J-0.321 K0.000 F1200.000
G0 Z5.000
G0 X44.640 Y82.928 Z5.000
G0 X44.640 Y82.928 Z3.000
G1 X44.640 Y82.928 Z-0.100 F60.000
G1 X44.514 Y82.802 Z-0.100 F1200.000
G2 X44.088 Y83.068 Z-0.100 I0.456 J1.205 K0.000 F1200.000
G1 X44.223 Y83.204 Z-0.100 F1200.000
G2 X43.886 Y83.559 Z-0.100 I1.767 J2.013 K0.000 F1200.000
G1 X43.739 Y83.412 Z-0.100 F1200.000
G2 X43.432 Y83.798 Z-0.100 I1.781 J1.730 K0.000 F1200.000
G1 X43.572 Y83.939 Z-0.100 F1200.000
G2 X43.302 Y84.362 Z-0.100 I1.395 J1.187 K0.000 F1200.000
G1 X43.162 Y84.221 Z-0.100 F1200.000
G2 X43.025 Y84.777 Z-0.100 I0.782 J0.487 K0.000 F1200.000
G2 X43.773 Y85.525 Z-0.100 I0.803 J-0.055 K0.000 F1200.000
G1 X43.625 Y85.378 Z-0.100 F1200.000
G3 X43.189 Y84.942 Z-0.100 I0.104 J-0.539 K0.000 F1200.000
G1 X43.025 Y84.777 Z-0.100 F1200.000
G0 Z5.000
G0 Z5.000
G0 X43.025 Y84.777
G0 X44.281 Y84.146
G0 X44.281 Y84.146 Z3.000
G1 X44.281 Y84.146 Z-0.100 F60.000
G2 X44.318 Y84.171 Z-0.100 I0.040 J-0.020 K0.000 F1200.000
G2 X44.325 Y84.082 Z-0.100 I0.002 J-0.044 K0.000 F1200.000
G2 X44.292 Y84.157 Z-0.100 I-0.000 J0.045 K0.000 F1200.000
G2 X44.360 Y84.102 Z-0.100 I0.028 J-0.035 K0.000 F1200.000
G2 X44.315 Y84.081 Z-0.100 I-0.048 J0.045 K0.000 F1200.000
G2 X44.281 Y84.146 Z-0.100 I0.007 J0.045 K0.000 F1200.000
G0 Z5.000
G0 Z5.000
G0 X44.281 Y84.146
G0 X43.011 Y82.520
G0 X43.011 Y82.520 Z3.000
G1 X43.011 Y82.520 Z-0.100 F60.000
G2 X43.178 Y82.349 Z-0.100 I-0.555 J-0.710 K0.000 F1200.000
G2 X43.329 Y81.377 Z-0.100 I-0.611 J-0.592 K0.000 F1200.000
G2 X42.390 Y80.585 Z-0.100 I-1.576 J0.914 K0.000 F1200.000
G1 X42.338 Y80.647 Z-0.100 F1200.000
G3 X43.081 Y81.216 Z-0.100 I-0.572 J1.520 K0.000 F1200.000
G3 X42.378 Y82.537 Z-0.100 I-0.692 J0.480 K0.000 F1200.000
G3 X41.439 Y81.901 Z-0.100 I0.184 J-1.283 K0.000 F1200.000
G1 X40.565 Y82.943 Z-0.100 F1200.000
G1 X41.646 Y83.850 Z-0.100 F1200.000
G1 X41.684 Y83.805 Z-0.100 F1200.000
G1 X41.194 Y83.315 Z-0.100 F1200.000
G1 X41.722 Y83.758 Z-0.100 F1200.000
G1 X41.684 Y83.805 Z-0.100 F1200.000
G1 X41.722 Y83.758 Z-0.100 F1200.000
G1 X40.883 Y83.054 Z-0.100 F1200.000
G3 X40.853 Y82.709 Z-0.100 I0.157 J-0.188 K0.000 F1200.000
G1 X41.270 Y82.211 Z-0.100 F1200.000
G3 X41.658 Y82.228 Z-0.100 I0.188 J0.157 K0.000 F1200.000
G2 X43.011 Y82.520 Z-0.100 I0.798 J-0.418 K0.000 F1200.000
G0 Z5.000
G0 X43.080 Y81.044 Z5.000
G0 X43.080 Y81.044 Z3.000
G1 X43.080 Y81.044 Z-0.100 F60.000
G3 X43.360 Y82.017 Z-0.100 I-0.518 J0.676 K0.000 F1200.000
G1 X43.219 Y81.875 Z-0.100 F1200.000
G3 X42.958 Y82.307 Z-0.100 I-0.752 J-0.160 K0.000 F1200.000
G1 X43.084 Y82.434 Z-0.100 F1200.000
G3 X42.646 Y82.689 Z-0.100 I-0.532 J-0.410 K0.000 F1200.000
G1 X42.488 Y82.530 Z-0.100 F1200.000
G3 X41.752 Y82.263 Z-0.100 I-0.088 J-0.905 K0.000 F1200.000
G3 X41.439 Y81.901 Z-0.100 I0.724 J-0.943 K0.000 F1200.000
G1 X41.314 Y82.049 Z-0.100 F1200.000
G1 X41.401 Y82.137 Z-0.100 F1200.000
G2 X41.048 Y82.476 Z-0.100 I0.280 J0.646 K0.000 F1200.000
G1 X40.998 Y82.426 Z-0.100 F1200.000
G1 X40.682 Y82.803 Z-0.100 F1200.000
G2 X41.194 Y83.315 Z-0.100 I1.836 J-1.324 K0.000 F1200.000
G1 X41.684 Y83.805 Z-0.100 F1200.000
G1 X41.646 Y83.850 Z-0.100 F1200.000
G1 X40.565 Y82.943 Z-0.100 F1200.000
G1 X40.682 Y82.803 Z-0.100 F1200.000
G0 Z5.000
G0 Z5.000
G0 X40.682 Y82.803
G0 X33.611 Y74.078
G0 X33.611 Y74.078 Z3.000
G1 X33.611 Y74.078 Z-0.100 F60.000
G3 X32.837 Y74.574 Z-0.100 I-2.609 J-3.219 K0.000 F1200.000
G3 X32.053 Y73.728 Z-0.100 I-0.280 J-0.527 K0.000 F1200.000
G3 X33.246 Y72.583 Z-0.100 I3.191 J2.132 K0.000 F1200.000
G3 X33.931 Y72.329 Z-0.100 I0.833 J1.194 K0.000 F1200.000
G3 X34.396 Y73.235 Z-0.100 I-0.023 J0.585 K0.000 F1200.000
G3 X33.611 Y74.078 Z-0.100 I-3.394 J-2.377 K0.000 F1200.000
G0 Z5.000
G0 X32.583 Y74.785 Z5.000
G0 X32.583 Y74.785 Z3.000
G1 X32.583 Y74.785 Z-0.100 F60.000
G1 X32.411 Y74.614 Z-0.100 F1200.000
G2 X32.991 Y74.501 Z-0.100 I0.156 J-0.743 K0.000 F1200.000
G1 X33.128 Y74.637 Z-0.100 F1200.000
G2 X33.558 Y74.375 Z-0.100 I-0.693 J-1.622 K0.000 F1200.000
G1 X33.409 Y74.226 Z-0.100 F1200.000
G2 X33.794 Y73.918 Z-0.100 I-1.622 J-2.430 K0.000 F1200.000
G1 X33.936 Y74.060 Z-0.100 F1200.000
G2 X34.283 Y73.714 Z-0.100 I-1.264 J-1.609 K0.000 F1200.000
G1 X34.147 Y73.578 Z-0.100 F1200.000
G2 X34.424 Y73.162 Z-0.100 I-1.014 J-0.977 K0.000 F1200.000
G1 X34.551 Y73.289 Z-0.100 F1200.000
G2 X34.300 Y72.345 Z-0.100 I-0.662 J-0.329 K0.000 F1200.000
G0 Z5.000
G0 X33.747 Y72.184 Z5.000
G0 X33.747 Y72.184 Z3.000
G1 X33.747 Y72.184 Z-0.100 F60.000
G3 X34.487 Y73.432 Z-0.100 I0.067 J0.803 K0.000 F1200.000
G3 X32.701 Y74.780 Z-0.100 I-2.673 J-1.684 K0.000 F1200.000
G3 X31.822 Y74.025 Z-0.100 I-0.044 J-0.838 K0.000 F1200.000
G0 Z5.000
G0 X33.640 Y72.378 Z5.000
G0 X33.640 Y72.378 Z3.000
G1 X33.640 Y72.378 Z-0.100 F60.000
G1 X33.508 Y72.246 Z-0.100 F1200.000
G2 X33.050 Y72.481 Z-0.100 I0.574 J1.682 K0.000 F1200.000
G1 X33.192 Y72.623 Z-0.100 F1200.000
G1 X32.797 Y72.921 Z-0.100 F1200.000
G1 X32.650 Y72.774 Z-0.100 F1200.000
G2 X32.294 Y73.111 Z-0.100 I1.508 J1.953 K0.000 F1200.000
G1 X32.431 Y73.248 Z-0.100 F1200.000
G2 X32.116 Y73.626 Z-0.100 I1.328 J1.430 K0.000 F1200.000
G1 X31.986 Y73.496 Z-0.100 F1200.000
G2 X31.822 Y74.025 Z-0.100 I0.765 J0.528 K0.000 F1200.000
G1 X31.973 Y74.176 Z-0.100 F1200.000
G2 X32.411 Y74.614 Z-0.100 I0.545 J-0.107 K0.000 F1200.000
G1 X32.583 Y74.785 Z-0.100 F1200.000
G3 X31.962 Y73.532 Z-0.100 I0.049 J-0.804 K0.000 F1200.000
G3 X33.747 Y72.184 Z-0.100 I2.675 J1.686 K0.000 F1200.000
G0 Z5.000
G0 Z5.000
G0 X33.747 Y72.184
G0 X33.237 Y73.439
G0 X33.237 Y73.439 Z3.000
G1 X33.237 Y73.439 Z-0.100 F60.000
G2 X33.191 Y73.507 Z-0.100 I-0.008 J0.044 K0.000 F1200.000
G2 X33.267 Y73.464 Z-0.100 I0.034 J-0.029 K0.000 F1200.000
G2 X33.227 Y73.436 Z-0.100 I-0.055 J0.036 K0.000 F1200.000
G2 X33.214 Y73.525 Z-0.100 I-0.001 J0.045 K0.000 F1200.000
G2 X33.237 Y73.439 Z-0.100 I0.010 J-0.043 K0.000 F1200.000
G0 Z5.000
G0 Z5.000
G0 X33.237 Y73.439
G0 X32.014 Y71.237
G0 X32.014 Y71.237 Z3.000
G1 X32.014 Y71.237 Z-0.100 F60.000
G1 X32.196 Y71.418 Z-0.100 F1200.000
G2 X31.785 Y71.700 Z-0.100 I0.196 J0.727 K0.000 F1200.000
G1 X31.661 Y71.577 Z-0.100 F1200.000
G1 X31.285 Y71.893 Z-0.100 F1200.000
G1 X31.408 Y72.016 Z-0.100 F1200.000
G1 X31.031 Y72.332 Z-0.100 F1200.000
G1 X30.908 Y72.209 Z-0.100 F1200.000
G3 X30.492 Y72.061 Z-0.100 I-0.175 J-0.166 K0.000 F1200.000
G1 X30.390 Y72.385 Z-0.100 F1200.000
G1 X30.654 Y72.648 Z-0.100 F1200.000
G1 X30.598 Y72.696 Z-0.100 F1200.000
G1 X30.376 Y72.431 Z-0.100 F1200.000
G1 X30.492 Y72.061 Z-0.100 F1200.000
G2 X30.887 Y72.226 Z-0.100 I0.239 J-0.017 K0.000 F1200.000
G1 X31.947 Y71.337 Z-0.100 F1200.000
G2 X31.977 Y70.992 Z-0.100 I-0.157 J-0.188 K0.000 F1200.000
G1 X31.409 Y70.315 Z-0.100 F1200.000
G2 X31.036 Y70.324 Z-0.100 I-0.183 J0.145 K0.000 F1200.000
G1 X31.050 Y70.278 Z-0.100 F1200.000
G1 X31.322 Y70.050 Z-0.100 F1200.000
G1 X32.056 Y70.926 Z-0.100 F1200.000
G2 X32.401 Y70.956 Z-0.100 I0.188 J-0.157 K0.000 F1200.000
G1 X32.792 Y70.628 Z-0.100 F1200.000
G1 X32.903 Y70.761 Z-0.100 F1200.000
G2 X32.453 Y71.163 Z-0.100 I0.786 J1.333 K0.000 F1200.000
G2 X32.572 Y71.541 Z-0.100 I0.281 J0.119 K0.000 F1200.000
G1 X32.493 Y71.607 Z-0.100 F1200.000
G2 X32.058 Y71.470 Z-0.100 I-0.266 J0.086 K0.000 F1200.000
G1 X30.598 Y72.696 Z-0.100 F1200.000
G1 X30.376 Y72.431 Z-0.100 F1200.000
G1 X30.390 Y72.385 Z-0.100 F1200.000
G0 Z5.000
G0 X31.053 Y70.276 Z5.000
G0 X31.053 Y70.276 Z3.000
G1 X31.053 Y70.276 Z-0.100 F60.000
G2 X31.036 Y70.324 Z-0.100 I0.029 J0.038 K0.000 F1200.000
G3 X31.064 Y70.287 Z-0.100 I0.045 J0.005 K0.000 F1200.000
G1 X31.053 Y70.276 Z-0.100 F1200.000
G1 X31.322 Y70.050 Z-0.100 F1200.000
G1 X32.056 Y70.926 Z-0.100 F1200.000
G2 X32.415 Y70.944 Z-0.100 I0.188 J-0.158 K0.000 F1200.000
G1 X32.538 Y71.068 Z-0.100 F1200.000
G1 X32.903 Y70.761 Z-0.100 F1200.000
G1 X32.792 Y70.628 Z-0.100 F1200.000
G0 Z5.000
G0 Z5.000
G0 X32.792 Y70.628
G0 X24.967 Y61.177
G0 X24.967 Y61.177 Z3.000
G1 X24.967 Y61.177 Z-0.100 F60.000
G3 X23.486 Y61.963 Z-0.100 I-2.642 J-3.191 K0.000 F1200.000
G3 X22.861 Y60.994 Z-0.100 I-0.184 J-0.568 K0.000 F1200.000
G3 X24.235 Y60.074 Z-0.100 I2.773 J2.653 K0.000 F1200.000
G3 X24.903 Y59.937 Z-0.100 I0.622 J1.342 K0.000 F1200.000
G3 X25.254 Y60.916 Z-0.100 I-0.068 J0.577 K0.000 F1200.000
G3 X24.967 Y61.177 Z-0.100 I-2.930 J-2.930 K0.000 F1200.000
G0 Z5.000
G0 X25.314 Y60.022 Z5.000
G0 X25.314 Y60.022 Z3.000
G1 X25.314 Y60.022 Z-0.100 F60.000
G3 X25.469 Y60.869 Z-0.100 I-0.549 J0.538 K0.000 F1200.000
G1 X25.352 Y60.753 Z-0.100 F1200.000
G3 X25.041 Y61.135 Z-0.100 I-0.922 J-0.433 K0.000 F1200.000
G1 X25.174 Y61.268 Z-0.100 F1200.000
G3 X24.781 Y61.568 Z-0.100 I-1.388 J-1.415 K0.000 F1200.000
G1 X24.638 Y61.425 Z-0.100 F1200.000
G3 X24.196 Y61.676 Z-0.100 I-1.697 J-2.473 K0.000 F1200.000
G1 X24.350 Y61.830 Z-0.100 F1200.000
G3 X23.873 Y62.046 Z-0.100 I-1.351 J-2.356 K0.000 F1200.000
G1 X23.725 Y61.898 Z-0.100 F1200.000
G3 X23.066 Y61.932 Z-0.100 I-0.375 J-0.868 K0.000 F1200.000
G1 X23.272 Y62.137 Z-0.100 F1200.000
G0 Z5.000
G0 X22.592 Y61.458 Z5.000
G0 X22.592 Y61.458 Z3.000
G1 X22.592 Y61.458 Z-0.100 F60.000
G2 X23.317 Y62.143 Z-0.100 I0.805 J-0.126 K0.000 F1200.000
G2 X25.310 Y61.125 Z-0.100 I-0.347 J-3.140 K0.000 F1200.000
G2 X24.521 Y59.789 Z-0.100 I-0.593 J-0.551 K0.000 F1200.000
G1 X24.521 Y59.789 Z-0.100 F60.000
G2 X22.806 Y60.786 Z-0.100 I0.918 J3.554 K0.000 F1200.000
G2 X23.272 Y62.137 Z-0.100 I0.585 J0.555 K0.000 F1200.000
G1 X23.066 Y61.932 Z-0.100 F1200.000
G3 X22.809 Y61.732 Z-0.100 I0.132 J-0.434 K0.000 F1200.000
G2 X22.592 Y61.458 Z-0.100 I-1.233 J0.755 K0.000 F1200.000
G3 X22.728 Y60.901 Z-0.100 I0.643 J-0.138 K0.000 F1200.000
G1 X22.846 Y61.019 Z-0.100 F1200.000
G3 X23.197 Y60.677 Z-0.100 I0.981 J0.656 K0.000 F1200.000
G1 X23.060 Y60.540 Z-0.100 F1200.000
G3 X23.468 Y60.255 Z-0.100 I1.375 J1.532 K0.000 F1200.000
G1 X23.614 Y60.401 Z-0.100 F1200.000
G3 X24.066 Y60.160 Z-0.100 I1.651 J2.553 K0.000 F1200.000
G1 X23.909 Y60.003 Z-0.100 F1200.000
G3 X24.417 Y59.818 Z-0.100 I0.911 J1.704 K0.000 F1200.000
G1 X24.564 Y59.965 Z-0.100 F1200.000
G0 Z5.000
G0 Z5.000
G0 X24.564 Y59.965
G0 X24.068 Y60.910
G0 X24.068 Y60.910 Z3.000
G1 X24.068 Y60.910 Z-0.100 F60.000
G2 X24.040 Y60.995 Z-0.100 I-0.009 J0.044 K0.000 F1200.000
G2 X24.077 Y60.915 Z-0.100 I0.017 J-0.041 K0.000 F1200.000
G2 X24.021 Y60.974 Z-0.100 I-0.016 J0.042 K0.000 F1200.000
G2 X24.102 Y60.943 Z-0.100 I0.038 J-0.022 K0.000 F1200.000
G2 X24.068 Y60.910 Z-0.100 I-0.055 J0.023 K0.000 F1200.000
G0 Z5.000
G0 Z5.000
G0 X24.068 Y60.910
G0 X23.542 Y58.921
G0 X23.542 Y58.921 Z3.000
G1 X23.542 Y58.921 Z-0.100 F60.000
G2 X24.119 Y58.139 Z-0.100 I-0.199 J-0.751 K0.000 F1200.000
G2 X23.417 Y56.939 Z-0.100 I-2.033 J0.385 K0.000 F1200.000
G1 X23.334 Y56.988 Z-0.100 F1200.000
G3 X23.821 Y57.605 Z-0.100 I-1.727 J1.865 K0.000 F1200.000
G3 X22.982 Y58.788 Z-0.100 I-0.609 J0.457 K0.000 F1200.000
G2 X23.274 Y58.943 Z-0.100 I0.375 J-0.351 K0.000 F1200.000
G2 X23.542 Y58.921 Z-0.100 I0.069 J-0.774 K0.000 F1200.000
G0 Z5.000
G0 X23.338 Y58.939 Z5.000
G0 X23.338 Y58.939 Z3.000
G1 X23.338 Y58.939 Z-0.100 F60.000
G3 X22.982 Y58.788 Z-0.100 I-0.056 J-0.362 K0.000 F1200.000
G2 X23.214 Y58.815 Z-0.100 I0.180 J-0.521 K0.000 F1200.000
G1 X23.338 Y58.939 Z-0.100 F1200.000
G2 X23.840 Y58.748 Z-0.100 I0.033 J-0.667 K0.000 F1200.000
G1 X23.717 Y58.625 Z-0.100 F1200.000
G2 X23.958 Y58.173 Z-0.100 I-0.394 J-0.500 K0.000 F1200.000
G1 X24.114 Y58.328 Z-0.100 F1200.000
G1 X24.119 Y58.139 Z-0.100 F1200.000
G2 X23.417 Y56.939 Z-0.100 I-2.033 J0.385 K0.000 F1200.000
G0 Z5.000
G0 X22.416 Y58.238 Z5.000
G0 X22.416 Y58.238 Z3.000
G1 X22.416 Y58.238 Z-0.100 F60.000
G2 X22.681 Y58.600 Z-0.100 I1.309 J-0.681 K0.000 F1200.000
G2 X22.491 Y58.681 Z-0.100 I-0.034 J0.184 K0.000 F1200.000
G2 X22.312 Y58.297 Z-0.100 I-1.640 J0.530 K0.000 F1200.000
G1 X22.416 Y58.238 Z-0.100 F1200.000
G0 Z5.000
G0 X22.416 Z5.000
G0 X22.416 Z3.000
G1 X22.416 Y58.238 Z-0.100 F60.000
G1 X22.312 Y58.297 Z-0.100 F1200.000
G3 X22.491 Y58.681 Z-0.100 I-1.427 J0.898 K0.000 F1200.000
G3 X22.681 Y58.600 Z-0.100 I0.145 J0.075 K0.000 F1200.000
G3 X22.416 Y58.238 Z-0.100 I1.043 J-1.043 K0.000 F1200.000
G0 Z5.000
G0 X22.325 Y59.312 Z5.000
G0 X22.325 Y59.312 Z3.000
G1 X22.325 Y59.312 Z-0.100 F60.000
G2 X22.478 Y59.099 Z-0.100 I-0.193 J-0.299 K0.000 F1200.000
G3 X22.428 Y59.415 Z-0.100 I-0.367 J0.104 K0.000 F1200.000
G1 X22.325 Y59.312 Z-0.100 F1200.000
G3 X21.800 Y59.480 Z-0.100 I-0.426 J-0.426 K0.000 F1200.000
G1 X22.001 Y59.681 Z-0.100 F1200.000
G0 Z5.000
G0 X21.165 Y58.845 Z5.000
G0 X21.165 Y58.845 Z3.000
G1 X21.165 Y58.845 Z-0.100 F60.000
G3 X21.026 Y58.442 Z-0.100 I1.094 J-0.603 K0.000 F1200.000
G1 X20.938 Y58.493 Z-0.100 F1200.000
G2 X21.165 Y58.845 Z-0.100 I0.443 J-0.037 K0.000 F1200.000
G2 X21.800 Y59.480 Z-0.100 I0.839 J-0.204 K0.000 F1200.000
G1 X22.001 Y59.681 Z-0.100 F1200.000
G3 X21.445 Y59.469 Z-0.100 I-0.082 J-0.622 K0.000 F1200.000
G3 X20.938 Y58.493 Z-0.100 I1.683 J-1.494 K0.000 F1200.000
G1 X20.938 Y58.493 Z-0.100 F60.000
G1 X21.026 Y58.442 Z-0.100 F1200.000
G2 X21.627 Y59.424 Z-0.100 I1.395 J-0.177 K0.000 F1200.000
G2 X22.478 Y59.099 Z-0.100 I0.272 J-0.565 K0.000 F1200.000
G3 X21.919 Y59.693 Z-0.100 I-0.519 J0.072 K0.000 F1200.000
G3 X21.445 Y59.469 Z-0.100 I0.047 J-0.714 K0.000 F1200.000
G3 X20.991 Y58.671 Z-0.100 I1.357 J-1.298 K0.000 F1200.000
G0 Z5.000
G0 Z5.000
G0 X20.991 Y58.671
G0 X17.360 Y47.794
G0 X17.360 Y47.794 Z3.000
G1 X17.360 Y47.794 Z-0.100 F60.000
G3 X16.500 Y47.982 Z-0.100 I-1.312 J-3.930 K0.000 F1200.000
G3 X16.053 Y46.919 Z-0.100 I-0.083 J-0.591 K0.000 F1200.000
G3 X17.993 Y46.194 Z-0.100 I2.370 J3.384 K0.000 F1200.000
G3 X18.424 Y47.258 Z-0.100 I0.068 J0.592 K0.000 F1200.000
G3 X17.360 Y47.794 Z-0.100 I-2.376 J-3.394 K0.000 F1200.000
G0 Z5.000
G0 X15.771 Y47.641 Z5.000
G0 X15.771 Y47.641 Z3.000
G1 X15.771 Y47.641 Z-0.100 F60.000
G2 X16.241 Y48.111 Z-0.100 I0.667 J-0.197 K0.000 F1200.000
G1 X15.771 Y47.641 Z-0.100 F1200.000
G3 X15.804 Y46.982 Z-0.100 I0.639 J-0.298 K0.000 F1200.000
G1 X15.910 Y47.087 Z-0.100 F1200.000
G2 X15.862 Y47.615 Z-0.100 I0.473 J0.309 K0.000 F1200.000
G2 X16.777 Y47.954 Z-0.100 I0.653 J-0.360 K0.000 F1200.000
G1 X16.938 Y48.116 Z-0.100 F1200.000
G2 X17.483 Y47.967 Z-0.100 I-0.494 J-2.884 K0.000 F1200.000
G1 X17.317 Y47.802 Z-0.100 F1200.000
G2 X17.823 Y47.614 Z-0.100 I-0.854 J-3.070 K0.000 F1200.000
G1 X17.971 Y47.763 Z-0.100 F1200.000
G2 X18.404 Y47.502 Z-0.100 I-0.578 J-1.448 K0.000 F1200.000
G1 X18.272 Y47.371 Z-0.100 F1200.000
G2 X18.605 Y47.011 Z-0.100 I-0.422 J-0.724 K0.000 F1200.000
G1 X18.716 Y47.121 Z-0.100 F1200.000
G2 X18.498 Y46.211 Z-0.100 I-0.765 J-0.298 K0.000 F1200.000
G0 Z5.000
G0 X17.805 Y46.211 Z5.000
G0 X17.805 Y46.211 Z3.000
G1 X17.805 Y46.211 Z-0.100 F60.000
G1 X17.639 Y46.044 Z-0.100 F1200.000
G2 X17.083 Y46.182 Z-0.100 I0.364 J2.666 K0.000 F1200.000
G1 X17.250 Y46.348 Z-0.100 F1200.000
G2 X16.738 Y46.530 Z-0.100 I0.807 J3.080 K0.000 F1200.000
G1 X16.588 Y46.380 Z-0.100 F1200.000
G2 X16.141 Y46.626 Z-0.100 I0.539 J1.508 K0.000 F1200.000
G1 X16.275 Y46.759 Z-0.100 F1200.000
G2 X15.910 Y47.087 Z-0.100 I0.473 J0.894 K0.000 F1200.000
G1 X15.804 Y46.982 Z-0.100 F1200.000
G3 X16.419 Y46.453 Z-0.100 I1.175 J0.745 K0.000 F1200.000
G3 X17.603 Y46.048 Z-0.100 I1.899 J3.611 K0.000 F1200.000
G1 X17.603 Y46.048 Z-0.100 F60.000
G3 X18.463 Y46.181 Z-0.100 I0.284 J1.008 K0.000 F1200.000
G3 X18.442 Y47.474 Z-0.100 I-0.505 J0.638 K0.000 F1200.000
G3 X16.302 Y48.130 Z-0.100 I-1.936 J-2.497 K0.000 F1200.000
G3 X15.804 Y46.982 Z-0.100 I0.224 J-0.779 K0.000 F1200.000
G0 Z5.000
G0 Z5.000
G0 X15.804 Y46.982
G0 X17.194 Y47.085
G0 X17.194 Y47.085 Z3.000
G1 X17.194 Y47.085 Z-0.100 F60.000
G2 X17.220 Y47.130 Z-0.100 I0.045 J0.003 K0.000 F1200.000
G2 X17.256 Y47.047 Z-0.100 I0.018 J-0.042 K0.000 F1200.000
G2 X17.220 Y47.130 Z-0.100 I-0.017 J0.042 K0.000 F1200.000
G2 X17.265 Y47.053 Z-0.100 I0.018 J-0.041 K0.000 F1200.000
G1 X17.256 Y47.047 Z-0.100 F1200.000
G2 X17.194 Y47.085 Z-0.100 I-0.017 J0.042 K0.000 F1200.000
G0 Z5.000
G0 Z5.000
G0 X17.194 Y47.085
G0 X15.634 Y45.432
G0 X15.634 Y45.432 Z3.000
G1 X15.634 Y45.432 Z-0.100 F60.000
G1 X15.444 Y45.242 Z-0.100 F1200.000
G2 X15.951 Y45.057 Z-0.100 I-0.019 J-0.838 K0.000 F1200.000
G1 X16.066 Y45.171 Z-0.100 F1200.000
G2 X16.343 Y44.756 Z-0.100 I-1.114 J-1.045 K0.000 F1200.000
G1 X16.265 Y44.678 Z-0.100 F1200.000
G2 X16.518 Y44.237 Z-0.100 I-2.293 J-1.609 K0.000 F1200.000
G1 X16.569 Y44.289 Z-0.100 F1200.000
G2 X16.791 Y43.818 Z-0.100 I-64.713 J-30.775 K0.000 F1200.000
G1 X16.752 Y43.778 Z-0.100 F1200.000
G2 X16.985 Y43.318 Z-0.100 I-105.647 J-53.699 K0.000 F1200.000
G1 X17.044 Y43.378 Z-0.100 F1200.000
G0 Z5.000
G0 X17.344 Y42.984 Z5.000
G0 X17.344 Y42.984 Z3.000
G1 X17.344 Y42.984 Z-0.100 F60.000
G1 X17.740 Y44.074 Z-0.100 F1200.000
G1 X17.540 Y43.874 Z-0.100 F1200.000
G1 X17.824 Y44.653 Z-0.100 F1200.000
G1 X17.936 Y44.612 Z-0.100 F1200.000
G1 X17.740 Y44.074 Z-0.100 F1200.000
G0 Z5.000
G0 X14.702 Y44.500 Z5.000
G0 X14.702 Y44.500 Z3.000
G1 X14.702 Y44.500 Z-0.100 F60.000
G3 X14.679 Y44.034 Z-0.100 I1.333 J-0.301 K0.000 F1200.000
G1 X14.601 Y44.062 Z-0.100 F1200.000
G2 X14.642 Y44.440 Z-0.100 I1.106 J0.072 K0.000 F1200.000
G3 X14.748 Y44.678 Z-0.100 I-0.149 J0.209 K0.000 F1200.000
G2 X15.444 Y45.242 Z-0.100 I0.700 J-0.153 K0.000 F1200.000
G1 X15.634 Y45.432 Z-0.100 F1200.000
G3 X14.871 Y45.079 Z-0.100 I-0.157 J-0.662 K0.000 F1200.000
G3 X14.601 Y44.062 Z-0.100 I1.970 J-1.067 K0.000 F1200.000
G1 X14.679 Y44.034 Z-0.100 F1200.000
G2 X15.149 Y45.177 Z-0.100 I1.112 J0.211 K0.000 F1200.000
G2 X16.097 Y44.922 Z-0.100 I0.301 J-0.766 K0.000 F1200.000
G2 X17.110 Y43.069 Z-0.100 I-9.397 J-6.344 K0.000 F1200.000
G1 X17.344 Y42.984 Z-0.100 F1200.000
G1 X17.936 Y44.612 Z-0.100 F1200.000
G1 X17.824 Y44.653 Z-0.100 F1200.000
G1 X17.403 Y43.497 Z-0.100 F1200.000
G2 X16.951 Y43.477 Z-0.100 I-0.230 J0.084 K0.000 F1200.000
G3 X16.234 Y44.955 Z-0.100 I-13.696 J-5.730 K0.000 F1200.000
G3 X15.363 Y45.450 Z-0.100 I-0.790 J-0.378 K0.000 F1200.000
G3 X14.725 Y44.770 Z-0.100 I0.305 J-0.927 K0.000 F1200.000
G1 X14.642 Y44.440 Z-0.100 F1200.000
G0 Z5.000
G0 Z5.000
G0 X14.642 Y44.440
G0 X12.434 Y33.039
G0 X12.434 Y33.039 Z3.000
G1 X12.434 Y33.039 Z-0.100 F60.000
G3 X12.058 Y33.017 Z-0.100 I-0.102 J-1.484 K0.000 F1200.000
G3 X11.367 Y31.972 Z-0.100 I0.059 J-0.791 K0.000 F1200.000
G1 X11.460 Y32.065 Z-0.100 F1200.000
G2 X11.448 Y32.360 Z-0.100 I0.617 J0.172 K0.000 F1200.000
G2 X12.247 Y32.852 Z-0.100 I0.677 J-0.205 K0.000 F1200.000
G1 X12.434 Y33.039 Z-0.100 F1200.000
G2 X13.063 Y32.976 Z-0.100 I-0.002 J-3.183 K0.000 F1200.000
G1 X12.880 Y32.792 Z-0.100 F1200.000
G2 X13.461 Y32.680 Z-0.100 I-0.378 J-3.514 K0.000 F1200.000
G1 X13.619 Y32.839 Z-0.100 F1200.000
G2 X14.088 Y32.614 Z-0.100 I-0.467 J-1.576 K0.000 F1200.000
G1 X13.966 Y32.492 Z-0.100 F1200.000
G2 X14.307 Y32.140 Z-0.100 I-0.358 J-0.689 K0.000 F1200.000
G1 X14.409 Y32.242 Z-0.100 F1200.000
G2 X14.259 Y31.399 Z-0.100 I-0.861 J-0.282 K0.000 F1200.000
G0 Z5.000
G0 X14.168 Y31.493 Z5.000
G0 X14.168 Y31.493 Z3.000
G1 X14.168 Y31.493 Z-0.100 F60.000
G3 X14.033 Y32.453 Z-0.100 I-0.412 J0.431 K0.000 F1200.000
G3 X12.013 Y32.832 Z-0.100 I-1.751 J-3.755 K0.000 F1200.000
G3 X11.757 Y31.708 Z-0.100 I0.021 J-0.596 K0.000 F1200.000
G3 X13.528 Y31.308 Z-0.100 I1.724 J3.517 K0.000 F1200.000
G3 X13.777 Y31.328 Z-0.100 I-0.068 J2.365 K0.000 F1200.000
G3 X14.168 Y31.493 Z-0.100 I-0.021 J0.596 K0.000 F1200.000
G0 Z5.000
G0 X13.476 Y31.309 Z5.000
G0 X13.476 Y31.309 Z3.000
G1 X13.476 Y31.309 Z-0.100 F60.000
G1 X13.291 Y31.124 Z-0.100 F1200.000
G2 X12.672 Y31.198 Z-0.100 I-0.029 J2.381 K0.000 F1200.000
G1 X12.849 Y31.376 Z-0.100 F1200.000
G2 X12.277 Y31.496 Z-0.100 I0.424 J3.431 K0.000 F1200.000
G1 X12.121 Y31.341 Z-0.100 F1200.000
G2 X11.663 Y31.575 Z-0.100 I0.319 J1.188 K0.000 F1200.000
G1 X11.779 Y31.692 Z-0.100 F1200.000
G2 X11.460 Y32.065 Z-0.100 I0.313 J0.591 K0.000 F1200.000
G3 X11.388 Y31.889 Z-0.100 I0.015 J-0.109 K0.000 F1200.000
G3 X12.198 Y31.312 Z-0.100 I1.108 J0.697 K0.000 F1200.000
G3 X13.104 Y31.132 Z-0.100 I1.354 J4.446 K0.000 F1200.000
G1 X13.104 Y31.132 Z-0.100 F60.000
G3 X14.101 Y31.271 Z-0.100 I0.283 J1.620 K0.000 F1200.000
G3 X14.013 Y32.668 Z-0.100 I-0.453 J0.673 K0.000 F1200.000
G3 X11.792 Y32.943 Z-0.100 I-1.473 J-2.795 K0.000 F1200.000
G3 X11.367 Y31.972 Z-0.100 I0.352 J-0.733 K0.000 F1200.000
G0 Z5.000
G0 Z5.000
G0 X11.367 Y31.972
G0 X12.851 Y32.078
G0 X12.851 Y32.078 Z3.000
G1 X12.851 Y32.078 Z-0.100 F60.000
G2 X12.875 Y32.120 Z-0.100 I0.042 J0.003 K0.000 F1200.000
G2 X12.920 Y32.042 Z-0.100 I0.021 J-0.040 K0.000 F1200.000
G2 X12.863 Y32.050 Z-0.100 I-0.023 J0.044 K0.000 F1200.000
G2 X12.924 Y32.113 Z-0.100 I0.032 J0.031 K0.000 F1200.000
G2 X12.888 Y32.039 Z-0.100 I-0.025 J-0.034 K0.000 F1200.000
G2 X12.851 Y32.078 Z-0.100 I0.004 J0.042 K0.000 F1200.000
G0 Z5.000
G0 Z5.000
G0 X12.851 Y32.078
G0 X13.924 Y29.949
G0 X13.924 Y29.949 Z3.000
G1 X13.924 Y29.949 Z-0.100 F60.000
G1 X14.041 Y29.928 Z-0.100 F1200.000
G1 X13.741 Y28.225 Z-0.100 F1200.000
G1 X13.623 Y28.245 Z-0.100 F1200.000
G1 X13.715 Y28.766 Z-0.100 F1200.000
G3 X13.516 Y29.050 Z-0.100 I-0.241 J0.043 K0.000 F1200.000
G1 X11.279 Y29.444 Z-0.100 F1200.000
G3 X11.010 Y29.295 Z-0.100 I-0.043 J-0.241 K0.000 F1200.000
G3 X11.021 Y28.759 Z-0.100 I1.168 J-0.243 K0.000 F1200.000
G1 X10.906 Y28.779 Z-0.100 F1200.000
G2 X11.008 Y28.956 Z-0.100 I0.129 J0.043 K0.000 F1200.000
G1 X11.021 Y28.759 Z-0.100 F1200.000
G1 X10.906 Y28.779 Z-0.100 F1200.000
G1 X10.902 Y28.850 Z-0.100 F1200.000
G2 X10.943 Y29.689 Z-0.100 I1.772 J0.334 K0.000 F1200.000
G1 X13.548 Y29.230 Z-0.100 F1200.000
G3 X13.797 Y29.339 Z-0.100 I0.043 J0.241 K0.000 F1200.000
G3 X13.924 Y29.949 Z-0.100 I-1.469 J0.623 K0.000 F1200.000
G1 X13.924 Y29.949 Z-0.100 F60.000
G1 X14.041 Y29.928 Z-0.100 F1200.000
G1 X14.038 Y29.907 Z-0.100 F1200.000
G1 X13.890 Y29.760 Z-0.100 F1200.000
G1 X13.924 Y29.949 Z-0.100 F1200.000
G0 Z5.000
G0 X13.741 Y28.225 Z5.000
G0 X13.741 Y28.225 Z3.000
G1 X13.741 Y28.225 Z-0.100 F60.000
G1 X13.889 Y29.066 Z-0.100 F1200.000
G1 X13.704 Y28.881 Z-0.100 F1200.000
G3 X13.516 Y29.050 Z-0.100 I-0.227 J-0.064 K0.000 F1200.000
G1 X13.231 Y29.100 Z-0.100 F1200.000
G1 X13.388 Y29.258 Z-0.100 F1200.000
G1 X12.799 Y29.362 Z-0.100 F1200.000
G1 X12.641 Y29.204 Z-0.100 F1200.000
G1 X12.052 Y29.308 Z-0.100 F1200.000
G1 X12.210 Y29.466 Z-0.100 F1200.000
G1 X11.621 Y29.570 Z-0.100 F1200.000
G1 X11.463 Y29.412 Z-0.100 F1200.000
G3 X11.073 Y29.385 Z-0.100 I-0.176 J-0.301 K0.000 F1200.000
G3 X11.008 Y28.956 Z-0.100 I0.408 J-0.281 K0.000 F1200.000
G1 X10.902 Y28.850 Z-0.100 F1200.000
G2 X10.920 Y29.562 Z-0.100 I1.495 J0.317 K0.000 F1200.000
G1 X11.032 Y29.673 Z-0.100 F1200.000
G1 X10.943 Y29.689 Z-0.100 F1200.000
G1 X10.920 Y29.562 Z-0.100 F1200.000
G0 Z5.000
G0 Z5.000
G0 X10.920 Y29.562
G0 X10.557 Y15.851
G0 X10.557 Y15.851 Z3.000
G1 X10.557 Y15.851 Z-0.100 F60.000
G3 X10.266 Y15.774 Z-0.100 I0.154 J-1.184 K0.000 F1200.000
G3 X9.684 Y14.977 Z-0.100 I0.170 J-0.734 K0.000 F1200.000
G1 X9.791 Y15.084 Z-0.100 F1200.000
G2 X10.305 Y15.598 Z-0.100 I0.623 J-0.109 K0.000 F1200.000
G1 X10.557 Y15.851 Z-0.100 F1200.000
G2 X11.305 Y15.905 Z-0.100 I0.623 J-3.388 K0.000 F1200.000
G1 X11.094 Y15.695 Z-0.100 F1200.000
G2 X11.771 Y15.678 Z-0.100 I0.252 J-3.570 K0.000 F1200.000
G1 X11.942 Y15.850 Z-0.100 F1200.000
G2 X12.456 Y15.670 Z-0.100 I-0.200 J-1.399 K0.000 F1200.000
G1 X12.333 Y15.547 Z-0.100 F1200.000
G2 X12.687 Y15.208 Z-0.100 I-0.215 J-0.579 K0.000 F1200.000
G1 X12.773 Y15.294 Z-0.100 F1200.000
G2 X12.581 Y14.409 Z-0.100 I-0.815 J-0.287 K0.000 F1200.000
G0 Z5.000
G0 X12.493 Y14.522 Z5.000
G0 X12.493 Y14.522 Z3.000
G1 X12.493 Y14.522 Z-0.100 F60.000
G3 X12.308 Y15.561 Z-0.100 I-0.366 J0.471 K0.000 F1200.000
G3 X10.253 Y15.584 Z-0.100 I-1.072 J-4.002 K0.000 F1200.000
G3 X9.964 Y14.574 Z-0.100 I0.122 J-0.581 K0.000 F1200.000
G3 X11.256 Y14.291 Z-0.100 I1.064 J1.766 K0.000 F1200.000
G3 X12.252 Y14.410 Z-0.100 I0.142 J3.056 K0.000 F1200.000
G3 X12.493 Y14.522 Z-0.100 I-0.124 J0.583 K0.000 F1200.000
G0 Z5.000
G0 X11.798 Y14.320 Z5.000
G0 X11.798 Y14.320 Z3.000
G1 X11.798 Y14.320 Z-0.100 F60.000
G1 X11.576 Y14.098 Z-0.100 F1200.000
G2 X10.893 Y14.107 Z-0.100 I-0.292 J3.426 K0.000 F1200.000
G1 X11.083 Y14.297 Z-0.100 F1200.000
G2 X10.452 Y14.359 Z-0.100 I-0.110 J2.113 K0.000 F1200.000
G1 X10.302 Y14.210 Z-0.100 F1200.000
G2 X9.868 Y14.468 Z-0.100 I0.241 J0.902 K0.000 F1200.000
G1 X9.969 Y14.570 Z-0.100 F1200.000
G2 X9.791 Y15.084 Z-0.100 I0.371 J0.417 K0.000 F1200.000
G3 X9.699 Y14.808 Z-0.100 I0.070 J-0.177 K0.000 F1200.000
G3 X10.253 Y14.224 Z-0.100 I0.739 J0.147 K0.000 F1200.000
G3 X10.700 Y14.119 Z-0.100 I0.704 J1.990 K0.000 F1200.000
G1 X10.700 Y14.119 Z-0.100 F60.000
G3 X12.236 Y14.219 Z-0.100 I0.539 J3.578 K0.000 F1200.000
G3 X12.251 Y15.770 Z-0.100 I-0.223 J0.778 K0.000 F1200.000
G3 X10.016 Y15.655 Z-0.100 I-0.965 J-3.008 K0.000 F1200.000
G3 X9.684 Y14.977 Z-0.100 I0.381 J-0.607 K0.000 F1200.000
G0 Z5.000
G0 Z5.000
G0 X9.684 Y14.977
G0 X11.281 Y14.962
G0 X11.281 Y14.962 Z3.000
G1 X11.281 Y14.962 Z-0.100 F60.000
G2 X11.226 Y14.961 Z-0.100 I-0.028 J0.061 K0.000 F1200.000
G2 X11.255 Y15.039 Z-0.100 I0.023 J0.035 K0.000 F1200.000
G2 X11.253 Y14.956 Z-0.100 I-0.002 J-0.041 K0.000 F1200.000
G2 X11.226 Y15.032 Z-0.100 I-0.005 J0.041 K0.000 F1200.000
G2 X11.281 Y14.962 Z-0.100 I0.026 J-0.036 K0.000 F1200.000
G0 Z5.000
G0 Z5.000
(Finish operation: Pocket_Shape)
(Begin operation: Helix)
(Path: Helix)
(Helix)
(helix cut operation)
G0 Z5.000
G0 Z5.000
G0 X100.000 Y15.000 Z5.000
G0 X100.000 Y15.000 Z0.000
G0 X100.005 Y15.000
G1 Z0.000 F60.000
G2 X99.995 Y15.000 Z-0.200 I-0.005 J0.000 F1200.000
G2 X100.005 Y15.000 Z-0.400 I0.005 J0.000 F1200.000
G2 X99.995 Y15.000 Z-0.600 I-0.005 J0.000 F1200.000
G2 X100.005 Y15.000 Z-0.800 I0.005 J0.000 F1200.000
G2 X99.995 Y15.000 Z-1.000 I-0.005 J0.000 F1200.000
G2 X100.005 Y15.000 Z-1.200 I0.005 J0.000 F1200.000
G2 X99.995 Y15.000 Z-1.400 I-0.005 J0.000 F1200.000
G2 X100.005 Y15.000 Z-1.600 I0.005 J0.000 F1200.000
G2 X99.995 Y15.000 Z-1.800 I-0.005 J0.000 F1200.000
G2 X100.005 Y15.000 Z-2.000 I0.005 J0.000 F1200.000
G2 X99.995 Y15.000 Z-2.000 I-0.005 J0.000 F1200.000
G2 X100.005 Y15.000 Z-2.000 I0.005 J0.000 F1200.000
G0 X100.000 Y15.000 Z-2.000
G0 Z0.000
G0 Z5.000
(Finish operation: Helix)
(Begin operation: Profile001)
(Path: Profile001)
(Profile001)
(Compensated Tool Path. Diameter: 0.49)
G0 Z5.000
G0 X5.000 Y9.293
G0 X5.000 Y9.294
G0 X5.000 Y9.294 Z3.000
G1 X5.000 Y9.294 Z-0.196 F60.000
G1 X4.995 Y9.275 Z-0.196 F1200.000
G1 X4.995 Y6.332 Z-0.196 F1200.000
G3 X5.000 Y6.307 Z-0.196 I0.003 J-0.012 K0.000 F1200.000
G3 X5.005 Y6.332 Z-0.196 I-0.027 J0.018 K0.000 F1200.000
G1 X5.005 Y9.275 Z-0.196 F1200.000
G1 X5.000 Y9.294 Z-0.196 F1200.000
G1 X5.000 Y9.294 Z-0.392 F60.000
G1 X4.995 Y9.275 Z-0.392 F1200.000
G1 X4.995 Y6.332 Z-0.392 F1200.000
G3 X5.000 Y6.307 Z-0.392 I0.003 J-0.012 K0.000 F1200.000
G3 X5.005 Y6.332 Z-0.392 I-0.027 J0.018 K0.000 F1200.000
G1 X5.005 Y9.275 Z-0.392 F1200.000
G1 X5.000 Y9.294 Z-0.392 F1200.000
G1 X5.000 Y9.294 Z-0.588 F60.000
G1 X4.995 Y9.275 Z-0.588 F1200.000
G1 X4.995 Y6.332 Z-0.588 F1200.000
G3 X5.000 Y6.307 Z-0.588 I0.003 J-0.012 K0.000 F1200.000
G3 X5.005 Y6.332 Z-0.588 I-0.027 J0.018 K0.000 F1200.000
G1 X5.005 Y9.275 Z-0.588 F1200.000
G1 X5.000 Y9.294 Z-0.588 F1200.000
G1 X5.000 Y9.294 Z-0.784 F60.000
G1 X4.995 Y9.275 Z-0.784 F1200.000
G1 X4.995 Y6.332 Z-0.784 F1200.000
G3 X5.000 Y6.307 Z-0.784 I0.003 J-0.012 K0.000 F1200.000
G3 X5.005 Y6.332 Z-0.784 I-0.027 J0.018 K0.000 F1200.000
G1 X5.005 Y9.275 Z-0.784 F1200.000
G1 X5.000 Y9.294 Z-0.784 F1200.000
G1 X5.000 Y9.294 Z-0.980 F60.000
G1 X4.995 Y9.275 Z-0.980 F1200.000
G1 X4.995 Y6.332 Z-0.980 F1200.000
G3 X5.000 Y6.307 Z-0.980 I0.003 J-0.012 K0.000 F1200.000
G3 X5.005 Y6.332 Z-0.980 I-0.027 J0.018 K0.000 F1200.000
G1 X5.005 Y9.275 Z-0.980 F1200.000
G1 X5.000 Y9.294 Z-0.980 F1200.000
G1 X5.000 Y9.294 Z-1.176 F60.000
G1 X4.995 Y9.275 Z-1.176 F1200.000
G1 X4.995 Y6.332 Z-1.176 F1200.000
G3 X5.000 Y6.307 Z-1.176 I0.003 J-0.012 K0.000 F1200.000
G3 X5.005 Y6.332 Z-1.176 I-0.027 J0.018 K0.000 F1200.000
G1 X5.005 Y9.275 Z-1.176 F1200.000
G1 X5.000 Y9.294 Z-1.176 F1200.000
G1 X5.000 Y9.294 Z-1.372 F60.000
G1 X4.995 Y9.275 Z-1.372 F1200.000
G1 X4.995 Y6.332 Z-1.372 F1200.000
G3 X5.000 Y6.307 Z-1.372 I0.003 J-0.012 K0.000 F1200.000
G3 X5.005 Y6.332 Z-1.372 I-0.027 J0.018 K0.000 F1200.000
G1 X5.005 Y9.275 Z-1.372 F1200.000
G1 X5.000 Y9.294 Z-1.372 F1200.000
G1 X5.000 Y9.294 Z-1.568 F60.000
G1 X4.995 Y9.275 Z-1.568 F1200.000
G1 X4.995 Y6.332 Z-1.568 F1200.000
G3 X5.000 Y6.307 Z-1.568 I0.003 J-0.012 K0.000 F1200.000
G3 X5.005 Y6.332 Z-1.568 I-0.027 J0.018 K0.000 F1200.000
G1 X5.005 Y9.275 Z-1.568 F1200.000
G1 X5.000 Y9.294 Z-1.568 F1200.000
G1 X5.000 Y9.294 Z-1.764 F60.000
G1 X4.995 Y9.275 Z-1.764 F1200.000
G1 X4.995 Y6.332 Z-1.764 F1200.000
G3 X5.000 Y6.307 Z-1.764 I0.003 J-0.012 K0.000 F1200.000
G3 X5.005 Y6.332 Z-1.764 I-0.027 J0.018 K0.000 F1200.000
G1 X5.005 Y9.275 Z-1.764 F1200.000
G1 X5.000 Y9.294 Z-1.764 F1200.000
G1 X5.000 Y9.294 Z-1.960 F60.000
G1 X4.995 Y9.275 Z-1.960 F1200.000
G1 X4.995 Y6.332 Z-1.960 F1200.000
G3 X5.000 Y6.307 Z-1.960 I0.003 J-0.012 K0.000 F1200.000
G3 X5.005 Y6.332 Z-1.960 I-0.027 J0.018 K0.000 F1200.000
G1 X5.005 Y9.275 Z-1.960 F1200.000
G1 X5.000 Y9.294 Z-1.960 F1200.000
G1 X5.000 Y9.294 Z-2.000 F60.000
G1 X4.995 Y9.275 Z-2.000 F1200.000
G1 X4.995 Y6.332 Z-2.000 F1200.000
G3 X5.000 Y6.307 Z-2.000 I0.003 J-0.012 K0.000 F1200.000
G3 X5.005 Y6.332 Z-2.000 I-0.027 J0.018 K0.000 F1200.000
G1 X5.005 Y9.275 Z-2.000 F1200.000
G1 X5.000 Y9.294 Z-2.000 F1200.000
G0 Z5.000
G0 Z5.000
G0 X5.000 Y9.294
G0 X9.995 Y9.275
G0 X9.995 Y9.275 Z3.000
G1 X9.995 Y9.275 Z-0.196 F60.000
G1 X9.995 Y6.332 Z-0.196 F1200.000
G3 X10.000 Y6.307 Z-0.196 I0.003 J-0.012 K0.000 F1200.000
G3 X10.005 Y6.332 Z-0.196 I-0.027 J0.018 K0.000 F1200.000
G1 X10.005 Y9.275 Z-0.196 F1200.000
G1 X10.000 Y9.294 Z-0.196 F1200.000
G1 X9.995 Y9.275 Z-0.196 F1200.000
G1 X9.995 Y9.275 Z-0.392 F60.000
G1 X9.995 Y6.332 Z-0.392 F1200.000
G3 X10.000 Y6.307 Z-0.392 I0.003 J-0.012 K0.000 F1200.000
G3 X10.005 Y6.332 Z-0.392 I-0.027 J0.018 K0.000 F1200.000
G1 X10.005 Y9.275 Z-0.392 F1200.000
G1 X10.000 Y9.294 Z-0.392 F1200.000
G1 X9.995 Y9.275 Z-0.392 F1200.000
G1 X9.995 Y9.275 Z-0.588 F60.000
G1 X9.995 Y6.332 Z-0.588 F1200.000
G3 X10.000 Y6.307 Z-0.588 I0.003 J-0.012 K0.000 F1200.000
G3 X10.005 Y6.332 Z-0.588 I-0.027 J0.018 K0.000 F1200.000
G1 X10.005 Y9.275 Z-0.588 F1200.000
G1 X10.000 Y9.294 Z-0.588 F1200.000
G1 X9.995 Y9.275 Z-0.588 F1200.000
G1 X9.995 Y9.275 Z-0.784 F60.000
G1 X9.995 Y6.332 Z-0.784 F1200.000
G3 X10.000 Y6.307 Z-0.784 I0.003 J-0.012 K0.000 F1200.000
G3 X10.005 Y6.332 Z-0.784 I-0.027 J0.018 K0.000 F1200.000
G1 X10.005 Y9.275 Z-0.784 F1200.000
G1 X10.000 Y9.294 Z-0.784 F1200.000
G1 X9.995 Y9.275 Z-0.784 F1200.000
G1 X9.995 Y9.275 Z-0.980 F60.000
G1 X9.995 Y6.332 Z-0.980 F1200.000
G3 X10.000 Y6.307 Z-0.980 I0.003 J-0.012 K0.000 F1200.000
G3 X10.005 Y6.332 Z-0.980 I-0.027 J0.018 K0.000 F1200.000
G1 X10.005 Y9.275 Z-0.980 F1200.000
G1 X10.000 Y9.294 Z-0.980 F1200.000
G1 X9.995 Y9.275 Z-0.980 F1200.000
G1 X9.995 Y9.275 Z-1.176 F60.000
G1 X9.995 Y6.332 Z-1.176 F1200.000
G3 X10.000 Y6.307 Z-1.176 I0.003 J-0.012 K0.000 F1200.000
G3 X10.005 Y6.332 Z-1.176 I-0.027 J0.018 K0.000 F1200.000
G1 X10.005 Y9.275 Z-1.176 F1200.000
G1 X10.000 Y9.294 Z-1.176 F1200.000
G1 X9.995 Y9.275 Z-1.176 F1200.000
G1 X9.995 Y9.275 Z-1.372 F60.000
G1 X9.995 Y6.332 Z-1.372 F1200.000
G3 X10.000 Y6.307 Z-1.372 I0.003 J-0.012 K0.000 F1200.000
G3 X10.005 Y6.332 Z-1.372 I-0.027 J0.018 K0.000 F1200.000
G1 X10.005 Y9.275 Z-1.372 F1200.000
G1 X10.000 Y9.294 Z-1.372 F1200.000
G1 X9.995 Y9.275 Z-1.372 F1200.000
G1 X9.995 Y9.275 Z-1.568 F60.000
G1 X9.995 Y6.332 Z-1.568 F1200.000
G3 X10.000 Y6.307 Z-1.568 I0.003 J-0.012 K0.000 F1200.000
G3 X10.005 Y6.332 Z-1.568 I-0.027 J0.018 K0.000 F1200.000
G1 X10.005 Y9.275 Z-1.568 F1200.000
G1 X10.000 Y9.294 Z-1.568 F1200.000
G1 X9.995 Y9.275 Z-1.568 F1200.000
G1 X9.995 Y9.275 Z-1.764 F60.000
G1 X9.995 Y6.332 Z-1.764 F1200.000
G3 X10.000 Y6.307 Z-1.764 I0.003 J-0.012 K0.000 F1200.000
G3 X10.005 Y6.332 Z-1.764 I-0.027 J0.018 K0.000 F1200.000
G1 X10.005 Y9.275 Z-1.764 F1200.000
G1 X10.000 Y9.294 Z-1.764 F1200.000
G1 X9.995 Y9.275 Z-1.764 F1200.000
G1 X9.995 Y9.275 Z-1.960 F60.000
G1 X9.995 Y6.332 Z-1.960 F1200.000
G3 X10.000 Y6.307 Z-1.960 I0.003 J-0.012 K0.000 F1200.000
G3 X10.005 Y6.332 Z-1.960 I-0.027 J0.018 K0.000 F1200.000
G1 X10.005 Y9.275 Z-1.960 F1200.000
G1 X10.000 Y9.294 Z-1.960 F1200.000
G1 X9.995 Y9.275 Z-1.960 F1200.000
G1 X9.995 Y9.275 Z-2.000 F60.000
G1 X9.995 Y6.332 Z-2.000 F1200.000
G3 X10.000 Y6.307 Z-2.000 I0.003 J-0.012 K0.000 F1200.000
G3 X10.005 Y6.332 Z-2.000 I-0.027 J0.018 K0.000 F1200.000
G1 X10.005 Y9.275 Z-2.000 F1200.000
G1 X10.000 Y9.294 Z-2.000 F1200.000
G1 X9.995 Y9.275 Z-2.000 F1200.000
G0 Z5.000
G0 Z5.000
G0 X9.995 Y9.275
G0 X14.995
G0 X14.995 Z3.000
G1 X14.995 Y9.275 Z-0.196 F60.000
G1 X14.995 Y6.332 Z-0.196 F1200.000
G3 X15.000 Y6.307 Z-0.196 I0.003 J-0.012 K0.000 F1200.000
G3 X15.005 Y6.332 Z-0.196 I-0.027 J0.018 K0.000 F1200.000
G1 X15.005 Y9.275 Z-0.196 F1200.000
G1 X15.000 Y9.294 Z-0.196 F1200.000
G1 X14.995 Y9.275 Z-0.196 F1200.000
G1 X14.995 Y9.275 Z-0.392 F60.000
G1 X14.995 Y6.332 Z-0.392 F1200.000
G3 X15.000 Y6.307 Z-0.392 I0.003 J-0.012 K0.000 F1200.000
G3 X15.005 Y6.332 Z-0.392 I-0.027 J0.018 K0.000 F1200.000
G1 X15.005 Y9.275 Z-0.392 F1200.000
G1 X15.000 Y9.294 Z-0.392 F1200.000
G1 X14.995 Y9.275 Z-0.392 F1200.000
G1 X14.995 Y9.275 Z-0.588 F60.000
G1 X14.995 Y6.332 Z-0.588 F1200.000
G3 X15.000 Y6.307 Z-0.588 I0.003 J-0.012 K0.000 F1200.000
G3 X15.005 Y6.332 Z-0.588 I-0.027 J0.018 K0.000 F1200.000
G1 X15.005 Y9.275 Z-0.588 F1200.000
G1 X15.000 Y9.294 Z-0.588 F1200.000
G1 X14.995 Y9.275 Z-0.588 F1200.000
G1 X14.995 Y9.275 Z-0.784 F60.000
G1 X14.995 Y6.332 Z-0.784 F1200.000
G3 X15.000 Y6.307 Z-0.784 I0.003 J-0.012 K0.000 F1200.000
G3 X15.005 Y6.332 Z-0.784 I-0.027 J0.018 K0.000 F1200.000
G1 X15.005 Y9.275 Z-0.784 F1200.000
G1 X15.000 Y9.294 Z-0.784 F1200.000
G1 X14.995 Y9.275 Z-0.784 F1200.000
G1 X14.995 Y9.275 Z-0.980 F60.000
G1 X14.995 Y6.332 Z-0.980 F1200.000
G3 X15.000 Y6.307 Z-0.980 I0.003 J-0.012 K0.000 F1200.000
G3 X15.005 Y6.332 Z-0.980 I-0.027 J0.018 K0.000 F1200.000
G1 X15.005 Y9.275 Z-0.980 F1200.000
G1 X15.000 Y9.294 Z-0.980 F1200.000
G1 X14.995 Y9.275 Z-0.980 F1200.000
G1 X14.995 Y9.275 Z-1.176 F60.000
G1 X14.995 Y6.332 Z-1.176 F1200.000
G3 X15.000 Y6.307 Z-1.176 I0.003 J-0.012 K0.000 F1200.000
G3 X15.005 Y6.332 Z-1.176 I-0.027 J0.018 K0.000 F1200.000
G1 X15.005 Y9.275 Z-1.176 F1200.000
G1 X15.000 Y9.294 Z-1.176 F1200.000
G1 X14.995 Y9.275 Z-1.176 F1200.000
G1 X14.995 Y9.275 Z-1.372 F60.000
G1 X14.995 Y6.332 Z-1.372 F1200.000
G3 X15.000 Y6.307 Z-1.372 I0.003 J-0.012 K0.000 F1200.000
G3 X15.005 Y6.332 Z-1.372 I-0.027 J0.018 K0.000 F1200.000
G1 X15.005 Y9.275 Z-1.372 F1200.000
G1 X15.000 Y9.294 Z-1.372 F1200.000
G1 X14.995 Y9.275 Z-1.372 F1200.000
G1 X14.995 Y9.275 Z-1.568 F60.000
G1 X14.995 Y6.332 Z-1.568 F1200.000
G3 X15.000 Y6.307 Z-1.568 I0.003 J-0.012 K0.000 F1200.000
G3 X15.005 Y6.332 Z-1.568 I-0.027 J0.018 K0.000 F1200.000
G1 X15.005 Y9.275 Z-1.568 F1200.000
G1 X15.000 Y9.294 Z-1.568 F1200.000
G1 X14.995 Y9.275 Z-1.568 F1200.000
G1 X14.995 Y9.275 Z-1.764 F60.000
G1 X14.995 Y6.332 Z-1.764 F1200.000
G3 X15.000 Y6.307 Z-1.764 I0.003 J-0.012 K0.000 F1200.000
G3 X15.005 Y6.332 Z-1.764 I-0.027 J0.018 K0.000 F1200.000
G1 X15.005 Y9.275 Z-1.764 F1200.000
G1 X15.000 Y9.294 Z-1.764 F1200.000
G1 X14.995 Y9.275 Z-1.764 F1200.000
G1 X14.995 Y9.275 Z-1.960 F60.000
G1 X14.995 Y6.332 Z-1.960 F1200.000
G3 X15.000 Y6.307 Z-1.960 I0.003 J-0.012 K0.000 F1200.000
G3 X15.005 Y6.332 Z-1.960 I-0.027 J0.018 K0.000 F1200.000
G1 X15.005 Y9.275 Z-1.960 F1200.000
G1 X15.000 Y9.294 Z-1.960 F1200.000
G1 X14.995 Y9.275 Z-1.960 F1200.000
G1 X14.995 Y9.275 Z-2.000 F60.000
G1 X14.995 Y6.332 Z-2.000 F1200.000
G3 X15.000 Y6.307 Z-2.000 I0.003 J-0.012 K0.000 F1200.000
G3 X15.005 Y6.332 Z-2.000 I-0.027 J0.018 K0.000 F1200.000
G1 X15.005 Y9.275 Z-2.000 F1200.000
G1 X15.000 Y9.294 Z-2.000 F1200.000
G1 X14.995 Y9.275 Z-2.000 F1200.000
G0 Z5.000
G0 Z5.000
G0 X14.995 Y9.275
G0 X19.995
G0 X19.995 Z3.000
G1 X19.995 Y9.275 Z-0.196 F60.000
G1 X19.995 Y6.332 Z-0.196 F1200.000
G3 X20.000 Y6.307 Z-0.196 I0.003 J-0.012 K0.000 F1200.000
G3 X20.005 Y6.332 Z-0.196 I-0.027 J0.018 K0.000 F1200.000
G1 X20.005 Y9.275 Z-0.196 F1200.000
G1 X20.000 Y9.294 Z-0.196 F1200.000
G1 X19.995 Y9.275 Z-0.196 F1200.000
G1 X19.995 Y9.275 Z-0.392 F60.000
G1 X19.995 Y6.332 Z-0.392 F1200.000
G3 X20.000 Y6.307 Z-0.392 I0.003 J-0.012 K0.000 F1200.000
G3 X20.005 Y6.332 Z-0.392 I-0.027 J0.018 K0.000 F1200.000
G1 X20.005 Y9.275 Z-0.392 F1200.000
G1 X20.000 Y9.294 Z-0.392 F1200.000
G1 X19.995 Y9.275 Z-0.392 F1200.000
G1 X19.995 Y9.275 Z-0.588 F60.000
G1 X19.995 Y6.332 Z-0.588 F1200.000
G3 X20.000 Y6.307 Z-0.588 I0.003 J-0.012 K0.000 F1200.000
G3 X20.005 Y6.332 Z-0.588 I-0.027 J0.018 K0.000 F1200.000
G1 X20.005 Y9.275 Z-0.588 F1200.000
G1 X20.000 Y9.294 Z-0.588 F1200.000
G1 X19.995 Y9.275 Z-0.588 F1200.000
G1 X19.995 Y9.275 Z-0.784 F60.000
G1 X19.995 Y6.332 Z-0.784 F1200.000
G3 X20.000 Y6.307 Z-0.784 I0.003 J-0.012 K0.000 F1200.000
G3 X20.005 Y6.332 Z-0.784 I-0.027 J0.018 K0.000 F1200.000
G1 X20.005 Y9.275 Z-0.784 F1200.000
G1 X20.000 Y9.294 Z-0.784 F1200.000
G1 X19.995 Y9.275 Z-0.784 F1200.000
G1 X19.995 Y9.275 Z-0.980 F60.000
G1 X19.995 Y6.332 Z-0.980 F1200.000
G3 X20.000 Y6.307 Z-0.980 I0.003 J-0.012 K0.000 F1200.000
G3 X20.005 Y6.332 Z-0.980 I-0.027 J0.018 K0.000 F1200.000
G1 X20.005 Y9.275 Z-0.980 F1200.000
G1 X20.000 Y9.294 Z-0.980 F1200.000
G1 X19.995 Y9.275 Z-0.980 F1200.000
G1 X19.995 Y9.275 Z-1.176 F60.000
G1 X19.995 Y6.332 Z-1.176 F1200.000
G3 X20.000 Y6.307 Z-1.176 I0.003 J-0.012 K0.000 F1200.000
G3 X20.005 Y6.332 Z-1.176 I-0.027 J0.018 K0.000 F1200.000
G1 X20.005 Y9.275 Z-1.176 F1200.000
G1 X20.000 Y9.294 Z-1.176 F1200.000
G1 X19.995 Y9.275 Z-1.176 F1200.000
G1 X19.995 Y9.275 Z-1.372 F60.000
G1 X19.995 Y6.332 Z-1.372 F1200.000
G3 X20.000 Y6.307 Z-1.372 I0.003 J-0.012 K0.000 F1200.000
G3 X20.005 Y6.332 Z-1.372 I-0.027 J0.018 K0.000 F1200.000
G1 X20.005 Y9.275 Z-1.372 F1200.000
G1 X20.000 Y9.294 Z-1.372 F1200.000
G1 X19.995 Y9.275 Z-1.372 F1200.000
G1 X19.995 Y9.275 Z-1.568 F60.000
G1 X19.995 Y6.332 Z-1.568 F1200.000
G3 X20.000 Y6.307 Z-1.568 I0.003 J-0.012 K0.000 F1200.000
G3 X20.005 Y6.332 Z-1.568 I-0.027 J0.018 K0.000 F1200.000
G1 X20.005 Y9.275 Z-1.568 F1200.000
G1 X20.000 Y9.294 Z-1.568 F1200.000
G1 X19.995 Y9.275 Z-1.568 F1200.000
G1 X19.995 Y9.275 Z-1.764 F60.000
G1 X19.995 Y6.332 Z-1.764 F1200.000
G3 X20.000 Y6.307 Z-1.764 I0.003 J-0.012 K0.000 F1200.000
G3 X20.005 Y6.332 Z-1.764 I-0.027 J0.018 K0.000 F1200.000
G1 X20.005 Y9.275 Z-1.764 F1200.000
G1 X20.000 Y9.294 Z-1.764 F1200.000
G1 X19.995 Y9.275 Z-1.764 F1200.000
G1 X19.995 Y9.275 Z-1.960 F60.000
G1 X19.995 Y6.332 Z-1.960 F1200.000
G3 X20.000 Y6.307 Z-1.960 I0.003 J-0.012 K0.000 F1200.000
G3 X20.005 Y6.332 Z-1.960 I-0.027 J0.018 K0.000 F1200.000
G1 X20.005 Y9.275 Z-1.960 F1200.000
G1 X20.000 Y9.294 Z-1.960 F1200.000
G1 X19.995 Y9.275 Z-1.960 F1200.000
G1 X19.995 Y9.275 Z-2.000 F60.000
G1 X19.995 Y6.332 Z-2.000 F1200.000
G3 X20.000 Y6.307 Z-2.000 I0.003 J-0.012 K0.000 F1200.000
G3 X20.005 Y6.332 Z-2.000 I-0.027 J0.018 K0.000 F1200.000
G1 X20.005 Y9.275 Z-2.000 F1200.000
G1 X20.000 Y9.294 Z-2.000 F1200.000
G1 X19.995 Y9.275 Z-2.000 F1200.000
G0 Z5.000
G0 Z5.000
G0 X19.995 Y9.275
G0 X24.995
G0 X24.995 Z3.000
G1 X24.995 Y9.275 Z-0.196 F60.000
G1 X24.995 Y6.332 Z-0.196 F1200.000
G3 X25.000 Y6.307 Z-0.196 I0.003 J-0.012 K0.000 F1200.000
G3 X25.005 Y6.332 Z-0.196 I-0.027 J0.018 K0.000 F1200.000
G1 X25.005 Y9.275 Z-0.196 F1200.000
G1 X25.000 Y9.294 Z-0.196 F1200.000
G1 X24.995 Y9.275 Z-0.196 F1200.000
G1 X24.995 Y9.275 Z-0.392 F60.000
G1 X24.995 Y6.332 Z-0.392 F1200.000
G3 X25.000 Y6.307 Z-0.392 I0.003 J-0.012 K0.000 F1200.000
G3 X25.005 Y6.332 Z-0.392 I-0.027 J0.018 K0.000 F1200.000
G1 X25.005 Y9.275 Z-0.392 F1200.000
G1 X25.000 Y9.294 Z-0.392 F1200.000
G1 X24.995 Y9.275 Z-0.392 F1200.000
G1 X24.995 Y9.275 Z-0.588 F60.000
G1 X24.995 Y6.332 Z-0.588 F1200.000
G3 X25.000 Y6.307 Z-0.588 I0.003 J-0.012 K0.000 F1200.000
G3 X25.005 Y6.332 Z-0.588 I-0.027 J0.018 K0.000 F1200.000
G1 X25.005 Y9.275 Z-0.588 F1200.000
G1 X25.000 Y9.294 Z-0.588 F1200.000
G1 X24.995 Y9.275 Z-0.588 F1200.000
G1 X24.995 Y9.275 Z-0.784 F60.000
G1 X24.995 Y6.332 Z-0.784 F1200.000
G3 X25.000 Y6.307 Z-0.784 I0.003 J-0.012 K0.000 F1200.000
G3 X25.005 Y6.332 Z-0.784 I-0.027 J0.018 K0.000 F1200.000
G1 X25.005 Y9.275 Z-0.784 F1200.000
G1 X25.000 Y9.294 Z-0.784 F1200.000
G1 X24.995 Y9.275 Z-0.784 F1200.000
G1 X24.995 Y9.275 Z-0.980 F60.000
G1 X24.995 Y6.332 Z-0.980 F1200.000
G3 X25.000 Y6.307 Z-0.980 I0.003 J-0.012 K0.000 F1200.000
G3 X25.005 Y6.332 Z-0.980 I-0.027 J0.018 K0.000 F1200.000
G1 X25.005 Y9.275 Z-0.980 F1200.000
G1 X25.000 Y9.294 Z-0.980 F1200.000
G1 X24.995 Y9.275 Z-0.980 F1200.000
G1 X24.995 Y9.275 Z-1.176 F60.000
G1 X24.995 Y6.332 Z-1.176 F1200.000
G3 X25.000 Y6.307 Z-1.176 I0.003 J-0.012 K0.000 F1200.000
G3 X25.005 Y6.332 Z-1.176 I-0.027 J0.018 K0.000 F1200.000
G1 X25.005 Y9.275 Z-1.176 F1200.000
G1 X25.000 Y9.294 Z-1.176 F1200.000
G1 X24.995 Y9.275 Z-1.176 F1200.000
G1 X24.995 Y9.275 Z-1.372 F60.000
G1 X24.995 Y6.332 Z-1.372 F1200.000
G3 X25.000 Y6.307 Z-1.372 I0.003 J-0.012 K0.000 F1200.000
G3 X25.005 Y6.332 Z-1.372 I-0.027 J0.018 K0.000 F1200.000
G1 X25.005 Y9.275 Z-1.372 F1200.000
G1 X25.000 Y9.294 Z-1.372 F1200.000
G1 X24.995 Y9.275 Z-1.372 F1200.000
G1 X24.995 Y9.275 Z-1.568 F60.000
G1 X24.995 Y6.332 Z-1.568 F1200.000
G3 X25.000 Y6.307 Z-1.568 I0.003 J-0.012 K0.000 F1200.000
G3 X25.005 Y6.332 Z-1.568 I-0.027 J0.018 K0.000 F1200.000
G1 X25.005 Y9.275 Z-1.568 F1200.000
G1 X25.000 Y9.294 Z-1.568 F1200.000
G1 X24.995 Y9.275 Z-1.568 F1200.000
G1 X24.995 Y9.275 Z-1.764 F60.000
G1 X24.995 Y6.332 Z-1.764 F1200.000
G3 X25.000 Y6.307 Z-1.764 I0.003 J-0.012 K0.000 F1200.000
G3 X25.005 Y6.332 Z-1.764 I-0.027 J0.018 K0.000 F1200.000
G1 X25.005 Y9.275 Z-1.764 F1200.000
G1 X25.000 Y9.294 Z-1.764 F1200.000
G1 X24.995 Y9.275 Z-1.764 F1200.000
G1 X24.995 Y9.275 Z-1.960 F60.000
G1 X24.995 Y6.332 Z-1.960 F1200.000
G3 X25.000 Y6.307 Z-1.960 I0.003 J-0.012 K0.000 F1200.000
G3 X25.005 Y6.332 Z-1.960 I-0.027 J0.018 K0.000 F1200.000
G1 X25.005 Y9.275 Z-1.960 F1200.000
G1 X25.000 Y9.294 Z-1.960 F1200.000
G1 X24.995 Y9.275 Z-1.960 F1200.000
G1 X24.995 Y9.275 Z-2.000 F60.000
G1 X24.995 Y6.332 Z-2.000 F1200.000
G3 X25.000 Y6.307 Z-2.000 I0.003 J-0.012 K0.000 F1200.000
G3 X25.005 Y6.332 Z-2.000 I-0.027 J0.018 K0.000 F1200.000
G1 X25.005 Y9.275 Z-2.000 F1200.000
G1 X25.000 Y9.294 Z-2.000 F1200.000
G1 X24.995 Y9.275 Z-2.000 F1200.000
G0 Z5.000
G0 Z5.000
G0 X24.995 Y9.275
G0 X29.995
G0 X29.995 Z3.000
G1 X29.995 Y9.275 Z-0.196 F60.000
G1 X29.995 Y6.332 Z-0.196 F1200.000
G3 X30.000 Y6.307 Z-0.196 I0.003 J-0.012 K0.000 F1200.000
G3 X30.005 Y6.332 Z-0.196 I-0.027 J0.018 K0.000 F1200.000
G1 X30.005 Y9.275 Z-0.196 F1200.000
G1 X30.000 Y9.294 Z-0.196 F1200.000
G1 X29.995 Y9.275 Z-0.196 F1200.000
G1 X29.995 Y9.275 Z-0.392 F60.000
G1 X29.995 Y6.332 Z-0.392 F1200.000
G3 X30.000 Y6.307 Z-0.392 I0.003 J-0.012 K0.000 F1200.000
G3 X30.005 Y6.332 Z-0.392 I-0.027 J0.018 K0.000 F1200.000
G1 X30.005 Y9.275 Z-0.392 F1200.000
G1 X30.000 Y9.294 Z-0.392 F1200.000
G1 X29.995 Y9.275 Z-0.392 F1200.000
G1 X29.995 Y9.275 Z-0.588 F60.000
G1 X29.995 Y6.332 Z-0.588 F1200.000
G3 X30.000 Y6.307 Z-0.588 I0.003 J-0.012 K0.000 F1200.000
G3 X30.005 Y6.332 Z-0.588 I-0.027 J0.018 K0.000 F1200.000
G1 X30.005 Y9.275 Z-0.588 F1200.000
G1 X30.000 Y9.294 Z-0.588 F1200.000
G1 X29.995 Y9.275 Z-0.588 F1200.000
G1 X29.995 Y9.275 Z-0.784 F60.000
G1 X29.995 Y6.332 Z-0.784 F1200.000
G3 X30.000 Y6.307 Z-0.784 I0.003 J-0.012 K0.000 F1200.000
G3 X30.005 Y6.332 Z-0.784 I-0.027 J0.018 K0.000 F1200.000
G1 X30.005 Y9.275 Z-0.784 F1200.000
G1 X30.000 Y9.294 Z-0.784 F1200.000
G1 X29.995 Y9.275 Z-0.784 F1200.000
G1 X29.995 Y9.275 Z-0.980 F60.000
G1 X29.995 Y6.332 Z-0.980 F1200.000
G3 X30.000 Y6.307 Z-0.980 I0.003 J-0.012 K0.000 F1200.000
G3 X30.005 Y6.332 Z-0.980 I-0.027 J0.018 K0.000 F1200.000
G1 X30.005 Y9.275 Z-0.980 F1200.000
G1 X30.000 Y9.294 Z-0.980 F1200.000
G1 X29.995 Y9.275 Z-0.980 F1200.000
G1 X29.995 Y9.275 Z-1.176 F60.000
G1 X29.995 Y6.332 Z-1.176 F1200.000
G3 X30.000 Y6.307 Z-1.176 I0.003 J-0.012 K0.000 F1200.000
G3 X30.005 Y6.332 Z-1.176 I-0.027 J0.018 K0.000 F1200.000
G1 X30.005 Y9.275 Z-1.176 F1200.000
G1 X30.000 Y9.294 Z-1.176 F1200.000
G1 X29.995 Y9.275 Z-1.176 F1200.000
G1 X29.995 Y9.275 Z-1.372 F60.000
G1 X29.995 Y6.332 Z-1.372 F1200.000
G3 X30.000 Y6.307 Z-1.372 I0.003 J-0.012 K0.000 F1200.000
G3 X30.005 Y6.332 Z-1.372 I-0.027 J0.018 K0.000 F1200.000
G1 X30.005 Y9.275 Z-1.372 F1200.000
G1 X30.000 Y9.294 Z-1.372 F1200.000
G1 X29.995 Y9.275 Z-1.372 F1200.000
G1 X29.995 Y9.275 Z-1.568 F60.000
G1 X29.995 Y6.332 Z-1.568 F1200.000
G3 X30.000 Y6.307 Z-1.568 I0.003 J-0.012 K0.000 F1200.000
G3 X30.005 Y6.332 Z-1.568 I-0.027 J0.018 K0.000 F1200.000
G1 X30.005 Y9.275 Z-1.568 F1200.000
G1 X30.000 Y9.294 Z-1.568 F1200.000
G1 X29.995 Y9.275 Z-1.568 F1200.000
G1 X29.995 Y9.275 Z-1.764 F60.000
G1 X29.995 Y6.332 Z-1.764 F1200.000
G3 X30.000 Y6.307 Z-1.764 I0.003 J-0.012 K0.000 F1200.000
G3 X30.005 Y6.332 Z-1.764 I-0.027 J0.018 K0.000 F1200.000
G1 X30.005 Y9.275 Z-1.764 F1200.000
G1 X30.000 Y9.294 Z-1.764 F1200.000
G1 X29.995 Y9.275 Z-1.764 F1200.000
G1 X29.995 Y9.275 Z-1.960 F60.000
G1 X29.995 Y6.332 Z-1.960 F1200.000
G3 X30.000 Y6.307 Z-1.960 I0.003 J-0.012 K0.000 F1200.000
G3 X30.005 Y6.332 Z-1.960 I-0.027 J0.018 K0.000 F1200.000
G1 X30.005 Y9.275 Z-1.960 F1200.000
G1 X30.000 Y9.294 Z-1.960 F1200.000
G1 X29.995 Y9.275 Z-1.960 F1200.000
G1 X29.995 Y9.275 Z-2.000 F60.000
G1 X29.995 Y6.332 Z-2.000 F1200.000
G3 X30.000 Y6.307 Z-2.000 I0.003 J-0.012 K0.000 F1200.000
G3 X30.005 Y6.332 Z-2.000 I-0.027 J0.018 K0.000 F1200.000
G1 X30.005 Y9.275 Z-2.000 F1200.000
G1 X30.000 Y9.294 Z-2.000 F1200.000
G1 X29.995 Y9.275 Z-2.000 F1200.000
G0 Z5.000
G0 Z5.000
G0 X29.995 Y9.275
G0 X34.995
G0 X34.995 Z3.000
G1 X34.995 Y9.275 Z-0.196 F60.000
G1 X34.995 Y6.332 Z-0.196 F1200.000
G3 X35.000 Y6.307 Z-0.196 I0.003 J-0.012 K0.000 F1200.000
G3 X35.005 Y6.332 Z-0.196 I-0.027 J0.018 K0.000 F1200.000
G1 X35.005 Y9.275 Z-0.196 F1200.000
G1 X35.000 Y9.294 Z-0.196 F1200.000
G1 X34.995 Y9.275 Z-0.196 F1200.000
G1 X34.995 Y9.275 Z-0.392 F60.000
G1 X34.995 Y6.332 Z-0.392 F1200.000
G3 X35.000 Y6.307 Z-0.392 I0.003 J-0.012 K0.000 F1200.000
G3 X35.005 Y6.332 Z-0.392 I-0.027 J0.018 K0.000 F1200.000
G1 X35.005 Y9.275 Z-0.392 F1200.000
G1 X35.000 Y9.294 Z-0.392 F1200.000
G1 X34.995 Y9.275 Z-0.392 F1200.000
G1 X34.995 Y9.275 Z-0.588 F60.000
G1 X34.995 Y6.332 Z-0.588 F1200.000
G3 X35.000 Y6.307 Z-0.588 I0.003 J-0.012 K0.000 F1200.000
G3 X35.005 Y6.332 Z-0.588 I-0.027 J0.018 K0.000 F1200.000
G1 X35.005 Y9.275 Z-0.588 F1200.000
G1 X35.000 Y9.294 Z-0.588 F1200.000
G1 X34.995 Y9.275 Z-0.588 F1200.000
G1 X34.995 Y9.275 Z-0.784 F60.000
G1 X34.995 Y6.332 Z-0.784 F1200.000
G3 X35.000 Y6.307 Z-0.784 I0.003 J-0.012 K0.000 F1200.000
G3 X35.005 Y6.332 Z-0.784 I-0.027 J0.018 K0.000 F1200.000
G1 X35.005 Y9.275 Z-0.784 F1200.000
G1 X35.000 Y9.294 Z-0.784 F1200.000
G1 X34.995 Y9.275 Z-0.784 F1200.000
G1 X34.995 Y9.275 Z-0.980 F60.000
G1 X34.995 Y6.332 Z-0.980 F1200.000
G3 X35.000 Y6.307 Z-0.980 I0.003 J-0.012 K0.000 F1200.000
G3 X35.005 Y6.332 Z-0.980 I-0.027 J0.018 K0.000 F1200.000
G1 X35.005 Y9.275 Z-0.980 F1200.000
G1 X35.000 Y9.294 Z-0.980 F1200.000
G1 X34.995 Y9.275 Z-0.980 F1200.000
G1 X34.995 Y9.275 Z-1.176 F60.000
G1 X34.995 Y6.332 Z-1.176 F1200.000
G3 X35.000 Y6.307 Z-1.176 I0.003 J-0.012 K0.000 F1200.000
G3 X35.005 Y6.332 Z-1.176 I-0.027 J0.018 K0.000 F1200.000
G1 X35.005 Y9.275 Z-1.176 F1200.000
G1 X35.000 Y9.294 Z-1.176 F1200.000
G1 X34.995 Y9.275 Z-1.176 F1200.000
G1 X34.995 Y9.275 Z-1.372 F60.000
G1 X34.995 Y6.332 Z-1.372 F1200.000
G3 X35.000 Y6.307 Z-1.372 I0.003 J-0.012 K0.000 F1200.000
G3 X35.005 Y6.332 Z-1.372 I-0.027 J0.018 K0.000 F1200.000
G1 X35.005 Y9.275 Z-1.372 F1200.000
G1 X35.000 Y9.294 Z-1.372 F1200.000
G1 X34.995 Y9.275 Z-1.372 F1200.000
G1 X34.995 Y9.275 Z-1.568 F60.000
G1 X34.995 Y6.332 Z-1.568 F1200.000
G3 X35.000 Y6.307 Z-1.568 I0.003 J-0.012 K0.000 F1200.000
G3 X35.005 Y6.332 Z-1.568 I-0.027 J0.018 K0.000 F1200.000
G1 X35.005 Y9.275 Z-1.568 F1200.000
G1 X35.000 Y9.294 Z-1.568 F1200.000
G1 X34.995 Y9.275 Z-1.568 F1200.000
G1 X34.995 Y9.275 Z-1.764 F60.000
G1 X34.995 Y6.332 Z-1.764 F1200.000
G3 X35.000 Y6.307 Z-1.764 I0.003 J-0.012 K0.000 F1200.000
G3 X35.005 Y6.332 Z-1.764 I-0.027 J0.018 K0.000 F1200.000
G1 X35.005 Y9.275 Z-1.764 F1200.000
G1 X35.000 Y9.294 Z-1.764 F1200.000
G1 X34.995 Y9.275 Z-1.764 F1200.000
G1 X34.995 Y9.275 Z-1.960 F60.000
G1 X34.995 Y6.332 Z-1.960 F1200.000
G3 X35.000 Y6.307 Z-1.960 I0.003 J-0.012 K0.000 F1200.000
G3 X35.005 Y6.332 Z-1.960 I-0.027 J0.018 K0.000 F1200.000
G1 X35.005 Y9.275 Z-1.960 F1200.000
G1 X35.000 Y9.294 Z-1.960 F1200.000
G1 X34.995 Y9.275 Z-1.960 F1200.000
G1 X34.995 Y9.275 Z-2.000 F60.000
G1 X34.995 Y6.332 Z-2.000 F1200.000
G3 X35.000 Y6.307 Z-2.000 I0.003 J-0.012 K0.000 F1200.000
G3 X35.005 Y6.332 Z-2.000 I-0.027 J0.018 K0.000 F1200.000
G1 X35.005 Y9.275 Z-2.000 F1200.000
G1 X35.000 Y9.294 Z-2.000 F1200.000
G1 X34.995 Y9.275 Z-2.000 F1200.000
G0 Z5.000
G0 Z5.000
G0 X34.995 Y9.275
G0 X39.995
G0 X39.995 Z3.000
G1 X39.995 Y9.275 Z-0.196 F60.000
G1 X39.995 Y6.332 Z-0.196 F1200.000
G3 X40.000 Y6.307 Z-0.196 I0.003 J-0.012 K0.000 F1200.000
G3 X40.005 Y6.332 Z-0.196 I-0.027 J0.018 K0.000 F1200.000
G1 X40.005 Y9.275 Z-0.196 F1200.000
G1 X40.000 Y9.294 Z-0.196 F1200.000
G1 X39.995 Y9.275 Z-0.196 F1200.000
G1 X39.995 Y9.275 Z-0.392 F60.000
G1 X39.995 Y6.332 Z-0.392 F1200.000
G3 X40.000 Y6.307 Z-0.392 I0.003 J-0.012 K0.000 F1200.000
G3 X40.005 Y6.332 Z-0.392 I-0.027 J0.018 K0.000 F1200.000
G1 X40.005 Y9.275 Z-0.392 F1200.000
G1 X40.000 Y9.294 Z-0.392 F1200.000
G1 X39.995 Y9.275 Z-0.392 F1200.000
G1 X39.995 Y9.275 Z-0.588 F60.000
G1 X39.995 Y6.332 Z-0.588 F1200.000
G3 X40.000 Y6.307 Z-0.588 I0.003 J-0.012 K0.000 F1200.000
G3 X40.005 Y6.332 Z-0.588 I-0.027 J0.018 K0.000 F1200.000
G1 X40.005 Y9.275 Z-0.588 F1200.000
G1 X40.000 Y9.294 Z-0.588 F1200.000
G1 X39.995 Y9.275 Z-0.588 F1200.000
G1 X39.995 Y9.275 Z-0.784 F60.000
G1 X39.995 Y6.332 Z-0.784 F1200.000
G3 X40.000 Y6.307 Z-0.784 I0.003 J-0.012 K0.000 F1200.000
G3 X40.005 Y6.332 Z-0.784 I-0.027 J0.018 K0.000 F1200.000
G1 X40.005 Y9.275 Z-0.784 F1200.000
G1 X40.000 Y9.294 Z-0.784 F1200.000
G1 X39.995 Y9.275 Z-0.784 F1200.000
G1 X39.995 Y9.275 Z-0.980 F60.000
G1 X39.995 Y6.332 Z-0.980 F1200.000
G3 X40.000 Y6.307 Z-0.980 I0.003 J-0.012 K0.000 F1200.000
G3 X40.005 Y6.332 Z-0.980 I-0.027 J0.018 K0.000 F1200.000
G1 X40.005 Y9.275 Z-0.980 F1200.000
G1 X40.000 Y9.294 Z-0.980 F1200.000
G1 X39.995 Y9.275 Z-0.980 F1200.000
G1 X39.995 Y9.275 Z-1.176 F60.000
G1 X39.995 Y6.332 Z-1.176 F1200.000
G3 X40.000 Y6.307 Z-1.176 I0.003 J-0.012 K0.000 F1200.000
G3 X40.005 Y6.332 Z-1.176 I-0.027 J0.018 K0.000 F1200.000
G1 X40.005 Y9.275 Z-1.176 F1200.000
G1 X40.000 Y9.294 Z-1.176 F1200.000
G1 X39.995 Y9.275 Z-1.176 F1200.000
G1 X39.995 Y9.275 Z-1.372 F60.000
G1 X39.995 Y6.332 Z-1.372 F1200.000
G3 X40.000 Y6.307 Z-1.372 I0.003 J-0.012 K0.000 F1200.000
G3 X40.005 Y6.332 Z-1.372 I-0.027 J0.018 K0.000 F1200.000
G1 X40.005 Y9.275 Z-1.372 F1200.000
G1 X40.000 Y9.294 Z-1.372 F1200.000
G1 X39.995 Y9.275 Z-1.372 F1200.000
G1 X39.995 Y9.275 Z-1.568 F60.000
G1 X39.995 Y6.332 Z-1.568 F1200.000
G3 X40.000 Y6.307 Z-1.568 I0.003 J-0.012 K0.000 F1200.000
G3 X40.005 Y6.332 Z-1.568 I-0.027 J0.018 K0.000 F1200.000
G1 X40.005 Y9.275 Z-1.568 F1200.000
G1 X40.000 Y9.294 Z-1.568 F1200.000
G1 X39.995 Y9.275 Z-1.568 F1200.000
G1 X39.995 Y9.275 Z-1.764 F60.000
G1 X39.995 Y6.332 Z-1.764 F1200.000
G3 X40.000 Y6.307 Z-1.764 I0.003 J-0.012 K0.000 F1200.000
G3 X40.005 Y6.332 Z-1.764 I-0.027 J0.018 K0.000 F1200.000
G1 X40.005 Y9.275 Z-1.764 F1200.000
G1 X40.000 Y9.294 Z-1.764 F1200.000
G1 X39.995 Y9.275 Z-1.764 F1200.000
G1 X39.995 Y9.275 Z-1.960 F60.000
G1 X39.995 Y6.332 Z-1.960 F1200.000
G3 X40.000 Y6.307 Z-1.960 I0.003 J-0.012 K0.000 F1200.000
G3 X40.005 Y6.332 Z-1.960 I-0.027 J0.018 K0.000 F1200.000
G1 X40.005 Y9.275 Z-1.960 F1200.000
G1 X40.000 Y9.294 Z-1.960 F1200.000
G1 X39.995 Y9.275 Z-1.960 F1200.000
G1 X39.995 Y9.275 Z-2.000 F60.000
G1 X39.995 Y6.332 Z-2.000 F1200.000
G3 X40.000 Y6.307 Z-2.000 I0.003 J-0.012 K0.000 F1200.000
G3 X40.005 Y6.332 Z-2.000 I-0.027 J0.018 K0.000 F1200.000
G1 X40.005 Y9.275 Z-2.000 F1200.000
G1 X40.000 Y9.294 Z-2.000 F1200.000
G1 X39.995 Y9.275 Z-2.000 F1200.000
G0 Z5.000
G0 Z5.000
G0 X39.995 Y9.275
G0 X44.995
G0 X44.995 Z3.000
G1 X44.995 Y9.275 Z-0.196 F60.000
G1 X44.995 Y6.332 Z-0.196 F1200.000
G3 X45.000 Y6.307 Z-0.196 I0.003 J-0.012 K0.000 F1200.000
G3 X45.005 Y6.332 Z-0.196 I-0.027 J0.018 K0.000 F1200.000
G1 X45.005 Y9.275 Z-0.196 F1200.000
G1 X45.000 Y9.294 Z-0.196 F1200.000
G1 X44.995 Y9.275 Z-0.196 F1200.000
G1 X44.995 Y9.275 Z-0.392 F60.000
G1 X44.995 Y6.332 Z-0.392 F1200.000
G3 X45.000 Y6.307 Z-0.392 I0.003 J-0.012 K0.000 F1200.000
G3 X45.005 Y6.332 Z-0.392 I-0.027 J0.018 K0.000 F1200.000
G1 X45.005 Y9.275 Z-0.392 F1200.000
G1 X45.000 Y9.294 Z-0.392 F1200.000
G1 X44.995 Y9.275 Z-0.392 F1200.000
G1 X44.995 Y9.275 Z-0.588 F60.000
G1 X44.995 Y6.332 Z-0.588 F1200.000
G3 X45.000 Y6.307 Z-0.588 I0.003 J-0.012 K0.000 F1200.000
G3 X45.005 Y6.332 Z-0.588 I-0.027 J0.018 K0.000 F1200.000
G1 X45.005 Y9.275 Z-0.588 F1200.000
G1 X45.000 Y9.294 Z-0.588 F1200.000
G1 X44.995 Y9.275 Z-0.588 F1200.000
G1 X44.995 Y9.275 Z-0.784 F60.000
G1 X44.995 Y6.332 Z-0.784 F1200.000
G3 X45.000 Y6.307 Z-0.784 I0.003 J-0.012 K0.000 F1200.000
G3 X45.005 Y6.332 Z-0.784 I-0.027 J0.018 K0.000 F1200.000
G1 X45.005 Y9.275 Z-0.784 F1200.000
G1 X45.000 Y9.294 Z-0.784 F1200.000
G1 X44.995 Y9.275 Z-0.784 F1200.000
G1 X44.995 Y9.275 Z-0.980 F60.000
G1 X44.995 Y6.332 Z-0.980 F1200.000
