(Exported by FreeCAD)
(Post Processor: grbl_post)
(Output Time:2024-04-16 17:56:07.718832)
(Begin preamble)
G17 G90
G21
(Begin operation: TC: 0.5mm_droite)
(Path: TC: 0.5mm_droite)
(TC: 0.5mm_droite)
(Begin toolchange)
( M6 T1 )
M3 S24000
(Finish operation: TC: 0.5mm_droite)
(Begin operation: Fixture)
(Path: Fixture)
G54
(Finish operation: Fixture)
(Begin operation: Pocket_Shape)
(Path: Pocket_Shape)
(Pocket_Shape)
G0 Z5.000
G0 X6.603 Y9.055
G0 Z3.000
G1 X6.603 Y9.055 Z-0.100 F100.000
G3 X6.487 Y9.055 Z-0.100 I-0.058 J-0.058 K0.000 F500.000
G3 X6.488 Y8.939 Z-0.100 I0.059 J-0.058 K0.000 F500.000
G3 X6.604 Y8.940 Z-0.100 I0.058 J0.059 K0.000 F500.000
G3 X6.603 Y9.055 Z-0.100 I-0.060 J0.056 K0.000 F500.000
G0 Z5.000
G0 Z5.000
G0 X6.603 Y9.055
G0 X7.446 Y9.063
G0 X7.446 Y9.063 Z3.000
G1 X7.446 Y9.063 Z-0.100 F100.000
G2 X7.294 Y7.806 Z-0.100 I-4.870 J-0.050 K0.000 F500.000
G3 X7.491 Y8.991 Z-0.100 I-2.466 J1.020 K0.000 F500.000
G3 X7.385 Y9.961 Z-0.100 I-3.570 J0.099 K0.000 F500.000
G3 X7.308 Y10.164 Z-0.100 I-0.740 J-0.165 K0.000 F500.000
G2 X7.446 Y9.063 Z-0.100 I-4.732 J-1.151 K0.000 F500.000
G0 Z5.000
G0 X7.321 Y9.062 Z5.000
G0 X7.321 Y9.062 Z3.000
G1 X7.321 Y9.062 Z-0.100 F100.000
G3 X7.182 Y10.149 Z-0.100 I-4.749 J-0.055 K0.000 F500.000
G3 X5.920 Y10.179 Z-0.100 I-0.635 J-0.152 K0.000 F500.000
G3 X5.902 Y7.864 Z-0.100 I4.616 J-1.194 K0.000 F500.000
G3 X6.339 Y7.379 Z-0.100 I0.695 J0.187 K0.000 F500.000
G3 X7.169 Y7.815 Z-0.100 I0.210 J0.609 K0.000 F500.000
G3 X7.321 Y9.062 Z-0.100 I-4.597 J1.192 K0.000 F500.000
G0 Z5.000
G0 X7.616 Y9.068 Z5.000
G0 X7.616 Y9.068 Z3.000
G1 X7.616 Y9.068 Z-0.100 F100.000
G3 X7.464 Y10.127 Z-0.100 I-4.369 J-0.084 K0.000 F500.000
G3 X5.616 Y10.101 Z-0.100 I-0.921 J-0.263 K0.000 F500.000
G3 X5.624 Y7.869 Z-0.100 I4.171 J-1.100 K0.000 F500.000
G3 X6.993 Y7.267 Z-0.100 I0.927 J0.250 K0.000 F500.000
G3 X7.498 Y7.972 Z-0.100 I-0.551 J0.927 K0.000 F500.000
G3 X7.616 Y9.068 Z-0.100 I-4.251 J1.012 K0.000 F500.000
G0 Z5.000
G0 X5.628 Y9.112 Z5.000
G0 X5.628 Y9.112 Z3.000
G1 X5.628 Y9.112 Z-0.100 F100.000
G2 X5.678 Y9.678 Z-0.100 I4.302 J-0.095 K0.000 F500.000
G2 X5.797 Y10.194 Z-0.100 I2.180 J-0.232 K0.000 F500.000
G3 X5.598 Y9.000 Z-0.100 I2.167 J-0.975 K0.000 F500.000
G3 X5.704 Y8.033 Z-0.100 I3.570 J-0.099 K0.000 F500.000
G3 X5.813 Y7.763 Z-0.100 I0.981 J0.240 K0.000 F500.000
G2 X5.628 Y9.112 Z-0.100 I4.117 J1.253 K0.000 F500.000
G0 Z5.000
G0 Z5.000
G0 X5.628 Y9.112
G0 X8.693 Y8.291
G0 X8.693 Y8.291 Z3.000
G1 X8.693 Y8.291 Z-0.100 F100.000
G1 X8.693 Y8.113 Z-0.100 F500.000
G2 X9.099 Y7.988 Z-0.100 I0.126 J-0.314 K0.000 F500.000
G1 X9.133 Y7.863 Z-0.100 F500.000
G1 X9.133 Y7.250 Z-0.100 F500.000
G1 X9.391 Y7.250 Z-0.100 F500.000
G1 X9.391 Y7.863 Z-0.100 F500.000
G2 X9.641 Y8.113 Z-0.100 I0.250 J0.000 K0.000 F500.000
G1 X10.977 Y8.113 Z-0.100 F500.000
G1 X10.977 Y8.556 Z-0.100 F500.000
G1 X9.574 Y10.750 Z-0.100 F500.000
G1 X9.133 Y10.750 Z-0.100 F500.000
G1 X9.133 Y8.541 Z-0.100 F500.000
G2 X8.883 Y8.291 Z-0.100 I-0.250 J-0.000 K0.000 F500.000
G1 X8.693 Y8.291 Z-0.100 F500.000
G0 Z5.000
G0 X9.028 Y8.205 Z5.000
G0 X9.028 Y8.205 Z3.000
G1 X9.028 Y8.205 Z-0.100 F100.000
G2 X9.258 Y7.863 Z-0.100 I-0.133 J-0.338 K0.000 F500.000
G1 X9.258 Y7.375 Z-0.100 F500.000
G1 X9.266 Y7.375 Z-0.100 F500.000
G2 X9.303 Y8.025 Z-0.100 I1.443 J0.244 K0.000 F500.000
G2 X9.496 Y8.199 Z-0.100 I0.276 J-0.114 K0.000 F500.000
G2 X9.266 Y8.541 Z-0.100 I0.133 J0.338 K0.000 F500.000
G1 X9.266 Y10.121 Z-0.100 F500.000
G2 X9.593 Y10.487 Z-0.100 I0.359 J0.008 K0.000 F500.000
G1 X9.505 Y10.625 Z-0.100 F500.000
G1 X9.258 Y10.625 Z-0.100 F500.000
G1 X9.258 Y8.541 Z-0.100 F500.000
G2 X9.028 Y8.205 Z-0.100 I-0.326 J-0.024 K0.000 F500.000
G0 Z5.000
G0 X9.246 Y8.202 Z5.000
G0 X9.246 Y8.202 Z3.000
G1 X9.246 Y8.202 Z-0.100 F100.000
G3 X9.262 Y8.178 Z-0.100 I0.026 J-0.000 K0.000 F500.000
G3 X9.262 Y8.225 Z-0.100 I-0.010 J0.024 K0.000 F500.000
G3 X9.246 Y8.202 Z-0.100 I0.010 J-0.024 K0.000 F500.000
G0 Z5.000
G0 X9.451 Y8.378 Z5.000
G0 X9.451 Y8.378 Z3.000
G1 X9.451 Y8.378 Z-0.100 F100.000
G3 X9.641 Y8.291 Z-0.100 I0.190 J0.163 K0.000 F500.000
G1 X10.651 Y8.291 Z-0.100 F500.000
G3 X10.861 Y8.675 Z-0.100 I-0.000 J0.250 K0.000 F500.000
G1 X9.851 Y10.256 Z-0.100 F500.000
G3 X9.391 Y10.121 Z-0.100 I-0.211 J-0.135 K0.000 F500.000
G1 X9.391 Y8.541 Z-0.100 F500.000
G3 X9.451 Y8.378 Z-0.100 I0.250 J-0.000 K0.000 F500.000
G0 Z5.000
G0 Z5.000
G0 X9.451 Y8.378
G0 X12.013 Y7.447
G0 X12.013 Y7.447 Z3.000
G1 X12.013 Y7.447 Z-0.100 F100.000
G1 X12.013 Y7.250 Z-0.100 F500.000
G1 X14.050 Y7.250 Z-0.100 F500.000
G1 X14.050 Y7.447 Z-0.100 F500.000
G1 X13.416 Y7.447 Z-0.100 F500.000
G2 X13.166 Y7.697 Z-0.100 I-0.000 J0.250 K0.000 F500.000
G1 X13.166 Y10.293 Z-0.100 F500.000
G2 X13.476 Y10.535 Z-0.100 I0.250 J0.000 K0.000 F500.000
G1 X13.988 Y10.409 Z-0.100 F500.000
G1 X13.988 Y10.605 Z-0.100 F500.000
G3 X12.897 Y10.750 Z-0.100 I-0.849 J-2.206 K0.000 F500.000
G1 X12.897 Y7.697 Z-0.100 F500.000
G2 X12.647 Y7.447 Z-0.100 I-0.250 J-0.000 K0.000 F500.000
G1 X12.013 Y7.447 Z-0.100 F500.000
G0 Z5.000
G0 X12.822 Y7.375 Z5.000
G0 X12.822 Y7.375 Z3.000
G1 X12.822 Y7.375 Z-0.100 F100.000
G1 X13.233 Y7.375 Z-0.100 F500.000
G2 X13.041 Y7.697 Z-0.100 I0.171 J0.320 K0.000 F500.000
G1 X13.041 Y10.293 Z-0.100 F500.000
G2 X13.263 Y10.625 Z-0.100 I0.320 J0.027 K0.000 F500.000
G1 X13.022 Y10.625 Z-0.100 F500.000
G1 X13.022 Y7.697 Z-0.100 F500.000
G2 X12.822 Y7.375 Z-0.100 I-0.302 J-0.035 K0.000 F500.000
G0 Z5.000
G0 Z5.000
G0 X12.822 Y7.375
G0 X16.470 Y8.965
G0 X16.470 Y8.965 Z3.000
G1 X16.470 Y8.965 Z-0.100 F100.000
G3 X16.604 Y8.940 Z-0.100 I0.075 J0.033 K0.000 F500.000
G3 X16.487 Y9.055 Z-0.100 I-0.060 J0.056 K0.000 F500.000
G3 X16.470 Y8.965 Z-0.100 I0.059 J-0.058 K0.000 F500.000
G0 Z5.000
G0 Z5.000
G0 X16.470 Y8.965
G0 X15.627 Y8.952
G0 X15.627 Y8.952 Z3.000
G1 X15.627 Y8.952 Z-0.100 F100.000
G2 X15.678 Y9.678 Z-0.100 I4.303 J0.064 K0.000 F500.000
G2 X15.797 Y10.194 Z-0.100 I2.180 J-0.232 K0.000 F500.000
G3 X15.598 Y9.000 Z-0.100 I2.167 J-0.975 K0.000 F500.000
G3 X15.704 Y8.033 Z-0.100 I3.570 J-0.099 K0.000 F500.000
G3 X15.813 Y7.763 Z-0.100 I0.981 J0.240 K0.000 F500.000
G2 X15.627 Y8.952 Z-0.100 I4.117 J1.253 K0.000 F500.000
G0 Z5.000
G0 X15.769 Y8.953 Z5.000
G0 X15.769 Y8.953 Z3.000
G1 X15.769 Y8.953 Z-0.100 F100.000
G3 X15.902 Y7.864 Z-0.100 I4.767 J0.032 K0.000 F500.000
G3 X16.339 Y7.379 Z-0.100 I0.695 J0.187 K0.000 F500.000
G3 X17.169 Y7.815 Z-0.100 I0.210 J0.609 K0.000 F500.000
G3 X17.182 Y10.149 Z-0.100 I-4.597 J1.192 K0.000 F500.000
G3 X15.920 Y10.179 Z-0.100 I-0.635 J-0.152 K0.000 F500.000
G3 X15.769 Y8.953 Z-0.100 I4.616 J-1.194 K0.000 F500.000
G0 Z5.000
G0 X15.473 Y8.949 Z5.000
G0 X15.473 Y8.949 Z3.000
G1 X15.473 Y8.949 Z-0.100 F100.000
G3 X15.624 Y7.869 Z-0.100 I4.313 J0.051 K0.000 F500.000
G3 X16.993 Y7.267 Z-0.100 I0.927 J0.250 K0.000 F500.000
G3 X17.498 Y7.972 Z-0.100 I-0.551 J0.927 K0.000 F500.000
G3 X17.464 Y10.127 Z-0.100 I-4.251 J1.012 K0.000 F500.000
G3 X15.616 Y10.101 Z-0.100 I-0.921 J-0.263 K0.000 F500.000
G3 X15.473 Y8.949 Z-0.100 I4.171 J-1.100 K0.000 F500.000
G0 Z5.000
G0 X17.445 Y8.906 Z5.000
G0 X17.445 Y8.906 Z3.000
G1 X17.445 Y8.906 Z-0.100 F100.000
G2 X17.294 Y7.806 Z-0.100 I-4.869 J0.107 K0.000 F500.000
G3 X17.491 Y8.991 Z-0.100 I-2.466 J1.020 K0.000 F500.000
G3 X17.385 Y9.961 Z-0.100 I-3.570 J0.099 K0.000 F500.000
G3 X17.308 Y10.164 Z-0.100 I-0.740 J-0.165 K0.000 F500.000
G2 X17.445 Y8.906 Z-0.100 I-4.732 J-1.151 K0.000 F500.000
G0 Z5.000
G0 Z5.000
G0 X17.445 Y8.906
G0 X18.845 Y8.418
G0 X18.845 Y8.418 Z3.000
G1 X18.845 Y8.418 Z-0.100 F100.000
G3 X19.272 Y7.306 Z-0.100 I0.872 J-0.304 K0.000 F500.000
G3 X20.005 Y7.173 Z-0.100 I0.686 J1.699 K0.000 F500.000
G3 X20.915 Y7.313 Z-0.100 I0.050 J2.697 K0.000 F500.000
G1 X20.915 Y7.487 Z-0.100 F500.000
G2 X19.614 Y7.409 Z-0.100 I-0.773 J1.996 K0.000 F500.000
G2 X19.684 Y8.993 Z-0.100 I0.282 J0.781 K0.000 F500.000
G2 X20.203 Y9.040 Z-0.100 I0.432 J-1.909 K0.000 F500.000
G1 X20.203 Y9.237 Z-0.100 F500.000
G2 X19.630 Y9.300 Z-0.100 I-0.153 J1.252 K0.000 F500.000
G2 X19.506 Y8.918 Z-0.100 I-0.193 J-0.149 K0.000 F500.000
G3 X18.955 Y8.635 Z-0.100 I0.060 J-0.796 K0.000 F500.000
G3 X18.845 Y8.418 Z-0.100 I0.762 J-0.521 K0.000 F500.000
G0 Z5.000
G0 X18.965 Y8.384 Z5.000
G0 X18.965 Y8.384 Z3.000
G1 X18.965 Y8.384 Z-0.100 F100.000
G3 X18.955 Y8.301 Z-0.100 I0.250 J-0.071 K0.000 F500.000
G1 X18.969 Y8.399 Z-0.100 F500.000
G3 X18.965 Y8.384 Z-0.100 I0.246 J-0.086 K0.000 F500.000
G0 Z5.000
G0 X18.940 Y8.184 Z5.000
G0 X18.940 Y8.184 Z3.000
G1 X18.940 Y8.184 Z-0.100 F100.000
G3 X19.297 Y7.438 Z-0.100 I0.656 J-0.145 K0.000 F500.000
G2 X18.940 Y8.184 Z-0.100 I0.487 J0.691 K0.000 F500.000
G0 Z5.000
G0 X19.804 Y9.136 Z5.000
G0 X19.804 Y9.136 Z3.000
G1 X19.804 Y9.136 Z-0.100 F100.000
G3 X19.807 Y9.136 Z-0.100 I0.002 J-0.000 K0.000 F500.000
G1 X19.804 Y9.136 Z-0.100 F500.000
G0 Z5.000
G0 X19.389 Y9.433 Z5.000
G0 X19.389 Y9.433 Z3.000
G1 X19.389 Y9.433 Z-0.100 F100.000
G2 X19.709 Y10.612 Z-0.100 I0.459 J0.508 K0.000 F500.000
G2 X20.795 Y10.521 Z-0.100 I0.378 J-2.027 K0.000 F500.000
G1 X20.795 Y10.703 Z-0.100 F500.000
G3 X19.521 Y10.770 Z-0.100 I-0.766 J-2.400 K0.000 F500.000
G3 X19.204 Y9.493 Z-0.100 I0.079 J-0.698 K0.000 F500.000
G1 X19.389 Y9.433 Z-0.100 F500.000
G0 Z5.000
G0 X19.039 Y9.927 Z5.000
G0 X19.039 Y9.927 Z3.000
G1 X19.039 Y9.927 Z-0.100 F100.000
G2 X19.342 Y10.566 Z-0.100 I0.740 J0.040 K0.000 F500.000
G3 X19.039 Y9.927 Z-0.100 I0.218 J-0.494 K0.000 F500.000
G0 Z5.000
G0 Z5.000
G0 X19.039 Y9.927
G0 X22.897
G0 X22.897 Z3.000
G1 X22.897 Y9.927 Z-0.100 F100.000
G1 X22.897 Y7.697 Z-0.100 F500.000
G2 X22.647 Y7.447 Z-0.100 I-0.250 J-0.000 K0.000 F500.000
G1 X22.013 Y7.447 Z-0.100 F500.000
G1 X22.013 Y7.250 Z-0.100 F500.000
G1 X24.050 Y7.250 Z-0.100 F500.000
G1 X24.050 Y7.447 Z-0.100 F500.000
G1 X23.416 Y7.447 Z-0.100 F500.000
G2 X23.166 Y7.697 Z-0.100 I-0.000 J0.250 K0.000 F500.000
G1 X23.166 Y10.293 Z-0.100 F500.000
G2 X23.476 Y10.535 Z-0.100 I0.250 J0.000 K0.000 F500.000
G1 X23.988 Y10.409 Z-0.100 F500.000
G1 X23.988 Y10.605 Z-0.100 F500.000
G3 X22.897 Y10.750 Z-0.100 I-0.849 J-2.206 K0.000 F500.000
G1 X22.897 Y9.927 Z-0.100 F500.000
G0 Z5.000
G0 X23.022 Z5.000
G0 X23.022 Z3.000
G1 X23.022 Y9.927 Z-0.100 F100.000
G1 X23.022 Y7.697 Z-0.100 F500.000
G2 X22.822 Y7.375 Z-0.100 I-0.302 J-0.035 K0.000 F500.000
G1 X23.233 Y7.375 Z-0.100 F500.000
G2 X23.041 Y7.697 Z-0.100 I0.171 J0.320 K0.000 F500.000
G1 X23.041 Y10.293 Z-0.100 F500.000
G2 X23.263 Y10.625 Z-0.100 I0.320 J0.027 K0.000 F500.000
G1 X23.022 Y10.625 Z-0.100 F500.000
G1 X23.022 Y9.927 Z-0.100 F500.000
G0 Z5.000
G0 Z5.000
G0 X23.022 Y9.927
G0 X26.466 Y9.017
G0 X26.466 Y9.017 Z3.000
G1 X26.466 Y9.017 Z-0.100 F100.000
G3 X26.488 Y8.939 Z-0.100 I0.078 J-0.021 K0.000 F500.000
G3 X26.533 Y8.916 Z-0.100 I0.046 J0.035 K0.000 F500.000
G3 X26.583 Y9.068 Z-0.100 I0.007 J0.082 K0.000 F500.000
G3 X26.466 Y9.017 Z-0.100 I-0.038 J-0.072 K0.000 F500.000
G0 Z5.000
G0 Z5.000
G0 X26.466 Y9.017
G0 X25.627 Y9.018
G0 X25.627 Y9.018 Z3.000
G1 X25.627 Y9.018 Z-0.100 F100.000
G2 X25.678 Y9.678 Z-0.100 I4.303 J-0.001 K0.000 F500.000
G2 X25.797 Y10.194 Z-0.100 I2.180 J-0.232 K0.000 F500.000
G3 X25.598 Y9.000 Z-0.100 I2.167 J-0.975 K0.000 F500.000
G3 X25.704 Y8.033 Z-0.100 I3.570 J-0.099 K0.000 F500.000
G3 X25.813 Y7.763 Z-0.100 I0.981 J0.240 K0.000 F500.000
G2 X25.627 Y9.018 Z-0.100 I4.117 J1.253 K0.000 F500.000
G0 Z5.000
G0 X25.769 Y9.017 Z5.000
G0 X25.769 Y9.017 Z3.000
G1 X25.769 Y9.017 Z-0.100 F100.000
G3 X25.902 Y7.864 Z-0.100 I4.767 J-0.031 K0.000 F500.000
G3 X26.339 Y7.379 Z-0.100 I0.695 J0.187 K0.000 F500.000
G3 X27.169 Y7.815 Z-0.100 I0.210 J0.609 K0.000 F500.000
G3 X27.182 Y10.149 Z-0.100 I-4.597 J1.192 K0.000 F500.000
G3 X25.920 Y10.179 Z-0.100 I-0.635 J-0.152 K0.000 F500.000
G3 X25.769 Y9.017 Z-0.100 I4.616 J-1.194 K0.000 F500.000
G0 Z5.000
G0 X25.473 Y9.018 Z5.000
G0 X25.473 Y9.018 Z3.000
G1 X25.473 Y9.018 Z-0.100 F100.000
G3 X25.624 Y7.869 Z-0.100 I4.314 J-0.017 K0.000 F500.000
G3 X26.993 Y7.267 Z-0.100 I0.927 J0.250 K0.000 F500.000
G3 X27.498 Y7.972 Z-0.100 I-0.551 J0.927 K0.000 F500.000
G3 X27.464 Y10.127 Z-0.100 I-4.251 J1.012 K0.000 F500.000
G3 X25.616 Y10.101 Z-0.100 I-0.921 J-0.263 K0.000 F500.000
G3 X25.473 Y9.018 Z-0.100 I4.171 J-1.100 K0.000 F500.000
G0 Z5.000
G0 X27.446 Y9.021 Z5.000
G0 X27.446 Y9.021 Z3.000
G1 X27.446 Y9.021 Z-0.100 F100.000
G2 X27.294 Y7.806 Z-0.100 I-4.870 J-0.008 K0.000 F500.000
G3 X27.491 Y8.991 Z-0.100 I-2.466 J1.020 K0.000 F500.000
G3 X27.385 Y9.961 Z-0.100 I-3.570 J0.099 K0.000 F500.000
G3 X27.308 Y10.164 Z-0.100 I-0.740 J-0.165 K0.000 F500.000
G2 X27.446 Y9.021 Z-0.100 I-4.732 J-1.151 K0.000 F500.000
G0 Z5.000
G0 Z5.000
G0 X27.446 Y9.021
G0 X28.956 Y9.616
G0 X28.956 Y9.616 Z3.000
G1 X28.956 Y9.616 Z-0.100 F100.000
G3 X29.090 Y9.387 Z-0.100 I0.800 J0.315 K0.000 F500.000
G3 X29.966 Y8.424 Z-0.100 I5.443 J4.071 K0.000 F500.000
G1 X30.515 Y7.873 Z-0.100 F500.000
G2 X30.337 Y7.447 Z-0.100 I-0.177 J-0.176 K0.000 F500.000
G1 X28.902 Y7.447 Z-0.100 F500.000
G1 X28.902 Y7.250 Z-0.100 F500.000
G1 X30.942 Y7.250 Z-0.100 F500.000
G1 X30.942 Y7.576 Z-0.100 F500.000
G2 X29.632 Y8.985 Z-0.100 I50.207 J47.966 K0.000 F500.000
G1 X29.313 Y9.451 Z-0.100 F500.000
G2 X29.742 Y10.649 Z-0.100 I0.695 J0.427 K0.000 F500.000
G2 X30.856 Y10.518 Z-0.100 I0.368 J-1.667 K0.000 F500.000
G1 X30.856 Y10.669 Z-0.100 F500.000
G3 X29.550 Y10.766 Z-0.100 I-0.811 J-2.083 K0.000 F500.000
G3 X28.956 Y9.616 Z-0.100 I0.206 J-0.835 K0.000 F500.000
G0 Z5.000
G0 X29.083 Y9.671 Z5.000
G0 X29.083 Y9.671 Z3.000
G1 X29.083 Y9.671 Z-0.100 F100.000
G3 X29.130 Y9.581 Z-0.100 I0.650 J0.281 K0.000 F500.000
G2 X29.308 Y10.519 Z-0.100 I0.942 J0.307 K0.000 F500.000
G3 X29.083 Y9.671 Z-0.100 I0.425 J-0.566 K0.000 F500.000
G0 Z5.000
G0 X30.706 Y7.644 Z5.000
G0 X30.706 Y7.644 Z3.000
G1 X30.706 Y7.644 Z-0.100 F100.000
G2 X30.536 Y7.379 Z-0.100 I-0.361 J0.044 K0.000 F500.000
G1 X30.524 Y7.375 Z-0.100 F500.000
G1 X30.817 Y7.375 Z-0.100 F500.000
G3 X30.706 Y7.644 Z-0.100 I-0.198 J0.076 K0.000 F500.000
G0 Z5.000
G0 Z5.000
G0 X30.706 Y7.644
G0 X32.013 Y7.447
G0 X32.013 Y7.447 Z3.000
G1 X32.013 Y7.447 Z-0.100 F100.000
G1 X32.013 Y7.250 Z-0.100 F500.000
G1 X34.050 Y7.250 Z-0.100 F500.000
G1 X34.050 Y7.447 Z-0.100 F500.000
G1 X33.416 Y7.447 Z-0.100 F500.000
G2 X33.166 Y7.697 Z-0.100 I-0.000 J0.250 K0.000 F500.000
G1 X33.166 Y10.293 Z-0.100 F500.000
G2 X33.476 Y10.535 Z-0.100 I0.250 J0.000 K0.000 F500.000
G1 X33.988 Y10.409 Z-0.100 F500.000
G1 X33.988 Y10.605 Z-0.100 F500.000
G3 X32.897 Y10.750 Z-0.100 I-0.849 J-2.206 K0.000 F500.000
G1 X32.897 Y7.697 Z-0.100 F500.000
G2 X32.647 Y7.447 Z-0.100 I-0.250 J-0.000 K0.000 F500.000
G1 X32.013 Y7.447 Z-0.100 F500.000
G0 Z5.000
G0 X32.822 Y7.375 Z5.000
G0 X32.822 Y7.375 Z3.000
G1 X32.822 Y7.375 Z-0.100 F100.000
G1 X33.233 Y7.375 Z-0.100 F500.000
G2 X33.041 Y7.697 Z-0.100 I0.171 J0.320 K0.000 F500.000
G1 X33.041 Y10.293 Z-0.100 F500.000
G2 X33.263 Y10.625 Z-0.100 I0.320 J0.027 K0.000 F500.000
G1 X33.022 Y10.625 Z-0.100 F500.000
G1 X33.022 Y7.697 Z-0.100 F500.000
G2 X32.822 Y7.375 Z-0.100 I-0.302 J-0.035 K0.000 F500.000
G0 Z5.000
G0 Z5.000
G0 X32.822 Y7.375
G0 X36.470 Y8.965
G0 X36.470 Y8.965 Z3.000
G1 X36.470 Y8.965 Z-0.100 F100.000
G3 X36.604 Y8.940 Z-0.100 I0.075 J0.033 K0.000 F500.000
G3 X36.487 Y9.055 Z-0.100 I-0.060 J0.056 K0.000 F500.000
G3 X36.470 Y8.965 Z-0.100 I0.059 J-0.058 K0.000 F500.000
G0 Z5.000
G0 Z5.000
G0 X36.470 Y8.965
G0 X35.627 Y8.952
G0 X35.627 Y8.952 Z3.000
G1 X35.627 Y8.952 Z-0.100 F100.000
G2 X35.678 Y9.678 Z-0.100 I4.303 J0.064 K0.000 F500.000
G2 X35.797 Y10.194 Z-0.100 I2.180 J-0.232 K0.000 F500.000
G3 X35.598 Y9.000 Z-0.100 I2.167 J-0.975 K0.000 F500.000
G3 X35.704 Y8.033 Z-0.100 I3.570 J-0.099 K0.000 F500.000
G3 X35.813 Y7.763 Z-0.100 I0.981 J0.240 K0.000 F500.000
G2 X35.627 Y8.952 Z-0.100 I4.117 J1.253 K0.000 F500.000
G0 Z5.000
G0 X35.769 Y8.953 Z5.000
G0 X35.769 Y8.953 Z3.000
G1 X35.769 Y8.953 Z-0.100 F100.000
G3 X35.902 Y7.864 Z-0.100 I4.767 J0.032 K0.000 F500.000
G3 X36.339 Y7.379 Z-0.100 I0.695 J0.187 K0.000 F500.000
G3 X37.169 Y7.815 Z-0.100 I0.210 J0.609 K0.000 F500.000
G3 X37.182 Y10.149 Z-0.100 I-4.597 J1.192 K0.000 F500.000
G3 X35.920 Y10.179 Z-0.100 I-0.635 J-0.152 K0.000 F500.000
G3 X35.769 Y8.953 Z-0.100 I4.616 J-1.194 K0.000 F500.000
G0 Z5.000
G0 X35.473 Y8.949 Z5.000
G0 X35.473 Y8.949 Z3.000
G1 X35.473 Y8.949 Z-0.100 F100.000
G3 X35.624 Y7.869 Z-0.100 I4.313 J0.051 K0.000 F500.000
G3 X36.993 Y7.267 Z-0.100 I0.927 J0.250 K0.000 F500.000
G3 X37.498 Y7.972 Z-0.100 I-0.551 J0.927 K0.000 F500.000
G3 X37.464 Y10.127 Z-0.100 I-4.251 J1.012 K0.000 F500.000
G3 X35.616 Y10.101 Z-0.100 I-0.921 J-0.263 K0.000 F500.000
G3 X35.473 Y8.949 Z-0.100 I4.171 J-1.100 K0.000 F500.000
G0 Z5.000
G0 X37.445 Y8.906 Z5.000
G0 X37.445 Y8.906 Z3.000
G1 X37.445 Y8.906 Z-0.100 F100.000
G2 X37.294 Y7.806 Z-0.100 I-4.869 J0.107 K0.000 F500.000
G3 X37.491 Y8.991 Z-0.100 I-2.466 J1.020 K0.000 F500.000
G3 X37.385 Y9.961 Z-0.100 I-3.570 J0.099 K0.000 F500.000
G3 X37.308 Y10.164 Z-0.100 I-0.740 J-0.165 K0.000 F500.000
G2 X37.445 Y8.906 Z-0.100 I-4.732 J-1.151 K0.000 F500.000
G0 Z5.000
G0 Z5.000
G0 X37.445 Y8.906
G0 X38.709 Y7.447
G0 X38.709 Y7.447 Z3.000
G1 X38.709 Y7.447 Z-0.100 F100.000
G1 X38.709 Y7.250 Z-0.100 F500.000
G1 X40.746 Y7.250 Z-0.100 F500.000
G1 X40.746 Y7.447 Z-0.100 F500.000
G1 X40.112 Y7.447 Z-0.100 F500.000
G2 X39.862 Y7.697 Z-0.100 I-0.000 J0.250 K0.000 F500.000
G1 X39.862 Y10.293 Z-0.100 F500.000
G2 X40.172 Y10.535 Z-0.100 I0.250 J0.000 K0.000 F500.000
G1 X40.685 Y10.409 Z-0.100 F500.000
G1 X40.685 Y10.605 Z-0.100 F500.000
G3 X39.593 Y10.750 Z-0.100 I-0.849 J-2.206 K0.000 F500.000
G1 X39.593 Y7.697 Z-0.100 F500.000
G2 X39.343 Y7.447 Z-0.100 I-0.250 J-0.000 K0.000 F500.000
G1 X38.709 Y7.447 Z-0.100 F500.000
G0 Z5.000
G0 X39.518 Y7.375 Z5.000
G0 X39.518 Y7.375 Z3.000
G1 X39.518 Y7.375 Z-0.100 F100.000
G1 X39.929 Y7.375 Z-0.100 F500.000
G2 X39.737 Y7.697 Z-0.100 I0.171 J0.320 K0.000 F500.000
G1 X39.737 Y10.293 Z-0.100 F500.000
G2 X39.960 Y10.625 Z-0.100 I0.320 J0.027 K0.000 F500.000
G1 X39.718 Y10.625 Z-0.100 F500.000
G1 X39.718 Y7.697 Z-0.100 F500.000
G2 X39.518 Y7.375 Z-0.100 I-0.302 J-0.035 K0.000 F500.000
G0 Z5.000
G0 Z5.000
G0 X39.518 Y7.375
G0 X42.013
G0 X42.013 Z3.000
G1 X42.013 Y7.375 Z-0.100 F100.000
G1 X42.013 Y7.250 Z-0.100 F500.000
G1 X44.050 Y7.250 Z-0.100 F500.000
G1 X44.050 Y7.447 Z-0.100 F500.000
G1 X43.416 Y7.447 Z-0.100 F500.000
G2 X43.166 Y7.697 Z-0.100 I-0.000 J0.250 K0.000 F500.000
G1 X43.166 Y10.293 Z-0.100 F500.000
G2 X43.476 Y10.535 Z-0.100 I0.250 J0.000 K0.000 F500.000
G1 X43.988 Y10.409 Z-0.100 F500.000
G1 X43.988 Y10.605 Z-0.100 F500.000
G3 X42.897 Y10.750 Z-0.100 I-0.849 J-2.206 K0.000 F500.000
G1 X42.897 Y7.697 Z-0.100 F500.000
G2 X42.647 Y7.447 Z-0.100 I-0.250 J-0.000 K0.000 F500.000
G1 X42.013 Y7.447 Z-0.100 F500.000
G1 X42.013 Y7.375 Z-0.100 F500.000
G0 Z5.000
G0 X42.822 Z5.000
G0 X42.822 Z3.000
G1 X42.822 Y7.375 Z-0.100 F100.000
G1 X43.233 Y7.375 Z-0.100 F500.000
G2 X43.041 Y7.697 Z-0.100 I0.171 J0.320 K0.000 F500.000
G1 X43.041 Y10.293 Z-0.100 F500.000
G2 X43.263 Y10.625 Z-0.100 I0.320 J0.027 K0.000 F500.000
G1 X43.022 Y10.625 Z-0.100 F500.000
G1 X43.022 Y7.697 Z-0.100 F500.000
G2 X42.822 Y7.375 Z-0.100 I-0.302 J-0.035 K0.000 F500.000
G0 Z5.000
G0 Z5.000
G0 X42.822 Y7.375
G0 X46.470 Y8.965
G0 X46.470 Y8.965 Z3.000
G1 X46.470 Y8.965 Z-0.100 F100.000
G3 X46.604 Y8.940 Z-0.100 I0.075 J0.033 K0.000 F500.000
G3 X46.487 Y9.055 Z-0.100 I-0.060 J0.056 K0.000 F500.000
G3 X46.470 Y8.965 Z-0.100 I0.059 J-0.058 K0.000 F500.000
G0 Z5.000
G0 Z5.000
G0 X46.470 Y8.965
G0 X45.627 Y8.952
G0 X45.627 Y8.952 Z3.000
G1 X45.627 Y8.952 Z-0.100 F100.000
G2 X45.678 Y9.678 Z-0.100 I4.303 J0.064 K0.000 F500.000
G2 X45.797 Y10.194 Z-0.100 I2.180 J-0.232 K0.000 F500.000
G3 X45.598 Y9.000 Z-0.100 I2.167 J-0.975 K0.000 F500.000
G3 X45.704 Y8.033 Z-0.100 I3.570 J-0.099 K0.000 F500.000
G3 X45.813 Y7.763 Z-0.100 I0.981 J0.240 K0.000 F500.000
G2 X45.627 Y8.952 Z-0.100 I4.117 J1.253 K0.000 F500.000
G0 Z5.000
G0 X45.769 Y8.953 Z5.000
G0 X45.769 Y8.953 Z3.000
G1 X45.769 Y8.953 Z-0.100 F100.000
G3 X45.902 Y7.864 Z-0.100 I4.767 J0.032 K0.000 F500.000
G3 X46.339 Y7.379 Z-0.100 I0.695 J0.187 K0.000 F500.000
G3 X47.169 Y7.815 Z-0.100 I0.210 J0.609 K0.000 F500.000
G3 X47.182 Y10.149 Z-0.100 I-4.597 J1.192 K0.000 F500.000
G3 X45.920 Y10.179 Z-0.100 I-0.635 J-0.152 K0.000 F500.000
G3 X45.769 Y8.953 Z-0.100 I4.616 J-1.194 K0.000 F500.000
G0 Z5.000
G0 X45.473 Y8.949 Z5.000
G0 X45.473 Y8.949 Z3.000
G1 X45.473 Y8.949 Z-0.100 F100.000
G3 X45.624 Y7.869 Z-0.100 I4.313 J0.051 K0.000 F500.000
G3 X46.993 Y7.267 Z-0.100 I0.927 J0.250 K0.000 F500.000
G3 X47.498 Y7.972 Z-0.100 I-0.551 J0.927 K0.000 F500.000
G3 X47.464 Y10.127 Z-0.100 I-4.251 J1.012 K0.000 F500.000
G3 X45.616 Y10.101 Z-0.100 I-0.921 J-0.263 K0.000 F500.000
G3 X45.473 Y8.949 Z-0.100 I4.171 J-1.100 K0.000 F500.000
G0 Z5.000
G0 X47.445 Y8.906 Z5.000
G0 X47.445 Y8.906 Z3.000
G1 X47.445 Y8.906 Z-0.100 F100.000
G2 X47.294 Y7.806 Z-0.100 I-4.869 J0.107 K0.000 F500.000
G3 X47.491 Y8.991 Z-0.100 I-2.466 J1.020 K0.000 F500.000
G3 X47.385 Y9.961 Z-0.100 I-3.570 J0.099 K0.000 F500.000
G3 X47.308 Y10.164 Z-0.100 I-0.740 J-0.165 K0.000 F500.000
G2 X47.445 Y8.906 Z-0.100 I-4.732 J-1.151 K0.000 F500.000
G0 Z5.000
G0 Z5.000
G0 X47.445 Y8.906
G0 X49.767 Y8.994
G0 X49.767 Y8.994 Z3.000
G1 X49.767 Y8.994 Z-0.100 F100.000
G3 X49.908 Y8.940 Z-0.100 I0.082 J0.003 K0.000 F500.000
G3 X49.790 Y9.055 Z-0.100 I-0.060 J0.056 K0.000 F500.000
G3 X49.767 Y8.994 Z-0.100 I0.059 J-0.058 K0.000 F500.000
G0 Z5.000
G0 Z5.000
G0 X49.767 Y8.994
G0 X48.930 Y8.989
G0 X48.930 Y8.989 Z3.000
G1 X48.930 Y8.989 Z-0.100 F100.000
G2 X48.981 Y9.678 Z-0.100 I4.303 J0.027 K0.000 F500.000
G2 X49.101 Y10.194 Z-0.100 I2.180 J-0.232 K0.000 F500.000
G3 X48.902 Y9.000 Z-0.100 I2.167 J-0.975 K0.000 F500.000
G3 X49.008 Y8.033 Z-0.100 I3.570 J-0.099 K0.000 F500.000
G3 X49.117 Y7.763 Z-0.100 I0.981 J0.240 K0.000 F500.000
G2 X48.930 Y8.989 Z-0.100 I4.117 J1.253 K0.000 F500.000
G0 Z5.000
G0 X49.072 Y8.989 Z5.000
G0 X49.072 Y8.989 Z3.000
G1 X49.072 Y8.989 Z-0.100 F100.000
G3 X49.206 Y7.864 Z-0.100 I4.767 J-0.004 K0.000 F500.000
G3 X49.643 Y7.379 Z-0.100 I0.695 J0.187 K0.000 F500.000
G3 X50.473 Y7.815 Z-0.100 I0.210 J0.609 K0.000 F500.000
G3 X50.485 Y10.149 Z-0.100 I-4.597 J1.192 K0.000 F500.000
G3 X49.224 Y10.179 Z-0.100 I-0.635 J-0.152 K0.000 F500.000
G3 X49.072 Y8.989 Z-0.100 I4.616 J-1.194 K0.000 F500.000
G0 Z5.000
G0 X48.777 Y8.988 Z5.000
G0 X48.777 Y8.988 Z3.000
G1 X48.777 Y8.988 Z-0.100 F100.000
G3 X48.928 Y7.869 Z-0.100 I4.314 J0.013 K0.000 F500.000
G3 X50.297 Y7.267 Z-0.100 I0.927 J0.250 K0.000 F500.000
G3 X50.802 Y7.972 Z-0.100 I-0.551 J0.927 K0.000 F500.000
G3 X50.768 Y10.127 Z-0.100 I-4.251 J1.012 K0.000 F500.000
G3 X48.919 Y10.101 Z-0.100 I-0.921 J-0.263 K0.000 F500.000
G3 X48.777 Y8.988 Z-0.100 I4.171 J-1.100 K0.000 F500.000
G0 Z5.000
G0 X50.749 Y8.971 Z5.000
G0 X50.749 Y8.971 Z3.000
G1 X50.749 Y8.971 Z-0.100 F100.000
G2 X50.597 Y7.806 Z-0.100 I-4.870 J0.042 K0.000 F500.000
G3 X50.795 Y8.991 Z-0.100 I-2.466 J1.020 K0.000 F500.000
G3 X50.689 Y9.961 Z-0.100 I-3.570 J0.099 K0.000 F500.000
G3 X50.612 Y10.164 Z-0.100 I-0.740 J-0.165 K0.000 F500.000
G2 X50.749 Y8.971 Z-0.100 I-4.732 J-1.151 K0.000 F500.000
G0 Z5.000
G0 Z5.000
G0 X50.749 Y8.971
G0 X52.013 Y7.447
G0 X52.013 Y7.447 Z3.000
G1 X52.013 Y7.447 Z-0.100 F100.000
G1 X52.013 Y7.250 Z-0.100 F500.000
G1 X54.050 Y7.250 Z-0.100 F500.000
G1 X54.050 Y7.447 Z-0.100 F500.000
G1 X53.416 Y7.447 Z-0.100 F500.000
G2 X53.166 Y7.697 Z-0.100 I-0.000 J0.250 K0.000 F500.000
G1 X53.166 Y10.293 Z-0.100 F500.000
G2 X53.476 Y10.535 Z-0.100 I0.250 J0.000 K0.000 F500.000
G1 X53.988 Y10.409 Z-0.100 F500.000
G1 X53.988 Y10.605 Z-0.100 F500.000
G3 X52.897 Y10.750 Z-0.100 I-0.849 J-2.206 K0.000 F500.000
G1 X52.897 Y7.697 Z-0.100 F500.000
G2 X52.647 Y7.447 Z-0.100 I-0.250 J-0.000 K0.000 F500.000
G1 X52.013 Y7.447 Z-0.100 F500.000
G0 Z5.000
G0 X52.822 Y7.375 Z5.000
G0 X52.822 Y7.375 Z3.000
G1 X52.822 Y7.375 Z-0.100 F100.000
G1 X53.233 Y7.375 Z-0.100 F500.000
G2 X53.041 Y7.697 Z-0.100 I0.171 J0.320 K0.000 F500.000
G1 X53.041 Y10.293 Z-0.100 F500.000
G2 X53.263 Y10.625 Z-0.100 I0.320 J0.027 K0.000 F500.000
G1 X53.022 Y10.625 Z-0.100 F500.000
G1 X53.022 Y7.697 Z-0.100 F500.000
G2 X52.822 Y7.375 Z-0.100 I-0.302 J-0.035 K0.000 F500.000
G0 Z5.000
G0 Z5.000
G0 X52.822 Y7.375
G0 X58.464 Y8.975
G0 X58.464 Y8.975 Z3.000
G1 X58.464 Y8.975 Z-0.100 F100.000
G3 X58.602 Y8.940 Z-0.100 I0.079 J0.022 K0.000 F500.000
G3 X58.484 Y9.055 Z-0.100 I-0.060 J0.056 K0.000 F500.000
G3 X58.464 Y8.975 Z-0.100 I0.059 J-0.058 K0.000 F500.000
G0 Z5.000
G0 Z5.000
G0 X58.464 Y8.975
G0 X57.624 Y8.965
G0 X57.624 Y8.965 Z3.000
G1 X57.624 Y8.965 Z-0.100 F100.000
G2 X57.675 Y9.678 Z-0.100 I4.303 J0.051 K0.000 F500.000
G2 X57.794 Y10.194 Z-0.100 I2.180 J-0.232 K0.000 F500.000
G3 X57.595 Y9.000 Z-0.100 I2.167 J-0.975 K0.000 F500.000
G3 X57.701 Y8.033 Z-0.100 I3.570 J-0.099 K0.000 F500.000
G3 X57.810 Y7.763 Z-0.100 I0.981 J0.240 K0.000 F500.000
G2 X57.624 Y8.965 Z-0.100 I4.117 J1.253 K0.000 F500.000
G0 Z5.000
G0 X57.766 Y8.966 Z5.000
G0 X57.766 Y8.966 Z3.000
G1 X57.766 Y8.966 Z-0.100 F100.000
G3 X57.900 Y7.864 Z-0.100 I4.767 J0.020 K0.000 F500.000
G3 X58.337 Y7.379 Z-0.100 I0.695 J0.187 K0.000 F500.000
G3 X59.166 Y7.815 Z-0.100 I0.210 J0.609 K0.000 F500.000
G3 X59.179 Y10.149 Z-0.100 I-4.597 J1.192 K0.000 F500.000
G3 X57.918 Y10.179 Z-0.100 I-0.635 J-0.152 K0.000 F500.000
G3 X57.766 Y8.966 Z-0.100 I4.616 J-1.194 K0.000 F500.000
G0 Z5.000
G0 X57.470 Y8.963 Z5.000
G0 X57.470 Y8.963 Z3.000
G1 X57.470 Y8.963 Z-0.100 F100.000
G3 X57.622 Y7.869 Z-0.100 I4.314 J0.038 K0.000 F500.000
G3 X58.991 Y7.267 Z-0.100 I0.927 J0.250 K0.000 F500.000
G3 X59.495 Y7.972 Z-0.100 I-0.551 J0.927 K0.000 F500.000
G3 X59.462 Y10.127 Z-0.100 I-4.251 J1.012 K0.000 F500.000
G3 X57.613 Y10.101 Z-0.100 I-0.921 J-0.263 K0.000 F500.000
G3 X57.470 Y8.963 Z-0.100 I4.171 J-1.100 K0.000 F500.000
G0 Z5.000
G0 X59.442 Y8.929 Z5.000
G0 X59.442 Y8.929 Z3.000
G1 X59.442 Y8.929 Z-0.100 F100.000
G2 X59.291 Y7.806 Z-0.100 I-4.870 J0.084 K0.000 F500.000
G3 X59.489 Y8.991 Z-0.100 I-2.466 J1.020 K0.000 F500.000
G3 X59.382 Y9.961 Z-0.100 I-3.570 J0.099 K0.000 F500.000
G3 X59.305 Y10.164 Z-0.100 I-0.740 J-0.165 K0.000 F500.000
G2 X59.442 Y8.929 Z-0.100 I-4.732 J-1.151 K0.000 F500.000
G0 Z5.000
G0 Z5.000
G0 X59.442 Y8.929
G0 X60.796 Y8.952
G0 X60.796 Y8.952 Z3.000
G1 X60.796 Y8.952 Z-0.100 F100.000
G3 X60.883 Y8.144 Z-0.100 I4.480 J0.078 K0.000 F500.000
G3 X62.163 Y7.147 Z-0.100 I1.168 J0.179 K0.000 F500.000
G3 X62.704 Y7.241 Z-0.100 I0.013 J1.523 K0.000 F500.000
G1 X62.704 Y7.388 Z-0.100 F500.000
G2 X61.500 Y7.495 Z-0.100 I-0.503 J1.163 K0.000 F500.000
G2 X61.062 Y8.782 Z-0.100 I1.003 J1.059 K0.000 F500.000
G2 X61.593 Y8.712 Z-0.100 I0.247 J-0.175 K0.000 F500.000
G3 X62.891 Y9.169 Z-0.100 I0.481 J0.707 K0.000 F500.000
G3 X62.683 Y10.503 Z-0.100 I-1.473 J0.453 K0.000 F500.000
G3 X61.602 Y10.750 Z-0.100 I-0.756 J-0.818 K0.000 F500.000
G3 X60.869 Y9.843 Z-0.100 I0.271 J-0.968 K0.000 F500.000
G3 X60.796 Y8.952 Z-0.100 I4.406 J-0.813 K0.000 F500.000
G0 Z5.000
G0 X60.921 Y8.957 Z5.000
G0 X60.921 Y8.957 Z3.000
G1 X60.921 Y8.957 Z-0.100 F100.000
G3 X60.933 Y8.774 Z-0.100 I3.429 J0.137 K0.000 F500.000
G2 X61.178 Y9.031 Z-0.100 I0.342 J-0.081 K0.000 F500.000
G2 X61.050 Y10.038 Z-0.100 I1.422 J0.693 K0.000 F500.000
G3 X60.921 Y8.957 Z-0.100 I3.300 J-0.944 K0.000 F500.000
G0 Z5.000
G0 X61.259 Y9.133 Z5.000
G0 X61.259 Y9.133 Z3.000
G1 X61.259 Y9.133 Z-0.100 F100.000
G3 X61.601 Y8.799 Z-0.100 I0.676 J0.351 K0.000 F500.000
G3 X62.540 Y9.070 Z-0.100 I0.309 J0.691 K0.000 F500.000
G3 X62.649 Y10.103 Z-0.100 I-1.141 J0.643 K0.000 F500.000
G3 X61.299 Y10.351 Z-0.100 I-0.728 J-0.163 K0.000 F500.000
G3 X61.191 Y9.319 Z-0.100 I1.156 J-0.642 K0.000 F500.000
G3 X61.259 Y9.133 Z-0.100 I0.743 J0.165 K0.000 F500.000
G0 Z5.000
G0 X62.464 Y8.801 Z5.000
G0 X62.464 Y8.801 Z3.000
G1 X62.464 Y8.801 Z-0.100 F100.000
G3 X62.818 Y9.466 Z-0.100 I-0.397 J0.637 K0.000 F500.000
G3 X62.822 Y9.665 Z-0.100 I-0.891 J0.119 K0.000 F500.000
G2 X62.464 Y8.801 Z-0.100 I-1.046 J-0.073 K0.000 F500.000
G0 Z5.000
G0 X62.809 Y9.853 Z5.000
G0 X62.809 Y9.853 Z3.000
G1 X62.809 Y9.853 Z-0.100 F100.000
G3 X62.797 Y9.940 Z-0.100 I-0.261 J0.009 K0.000 F500.000
G1 X62.809 Y9.853 Z-0.100 F500.000
G0 Z5.000
G0 Z5.000
G0 Z5.000
G0 Z5.000
G0 Z5.000
G0 Z5.000
G0 Z5.000
G0 Z5.000
G0 X62.809 Y9.853
G0 X9.084 Y19.984
G0 X9.084 Y19.984 Z3.000
G1 X9.084 Y19.984 Z-0.100 F100.000
G3 X8.961 Y20.067 Z-0.100 I-0.080 J0.015 K0.000 F500.000
G3 X9.040 Y19.927 Z-0.100 I0.042 J-0.069 K0.000 F500.000
G1 X9.061 Y19.941 Z-0.100 F500.000
G3 X9.084 Y19.984 Z-0.100 I-0.057 J0.058 K0.000 F500.000
G0 Z5.000
G0 Z5.000
G0 X9.084 Y19.984
G0 X9.111 Y19.081
G0 X9.111 Y19.081 Z3.000
G1 X9.111 Y19.081 Z-0.100 F100.000
G2 X8.322 Y19.131 Z-0.100 I-0.127 J4.301 K0.000 F500.000
G2 X7.806 Y19.250 Z-0.100 I0.232 J2.180 K0.000 F500.000
G3 X9.000 Y19.051 Z-0.100 I0.975 J2.167 K0.000 F500.000
G3 X9.967 Y19.157 Z-0.100 I0.099 J3.570 K0.000 F500.000
G3 X10.237 Y19.266 Z-0.100 I-0.240 J0.981 K0.000 F500.000
G2 X9.111 Y19.081 Z-0.100 I-1.253 J4.117 K0.000 F500.000
G0 Z5.000
G0 X9.106 Y19.224 Z5.000
G0 X9.106 Y19.224 Z3.000
G1 X9.106 Y19.224 Z-0.100 F100.000
G3 X10.136 Y19.355 Z-0.100 I-0.152 J5.285 K0.000 F500.000
G3 X10.185 Y20.622 Z-0.100 I-0.134 J0.639 K0.000 F500.000
G3 X7.933 Y20.661 Z-0.100 I-1.208 J-4.724 K0.000 F500.000
G3 X7.409 Y19.725 Z-0.100 I0.096 J-0.668 K0.000 F500.000
G3 X8.154 Y19.282 Z-0.100 I0.783 J0.471 K0.000 F500.000
G3 X9.106 Y19.224 Z-0.100 I0.800 J5.226 K0.000 F500.000
G0 Z5.000
G0 X9.114 Y18.920 Z5.000
G0 X9.114 Y18.920 Z3.000
G1 X9.114 Y18.920 Z-0.100 F100.000
G3 X9.999 Y19.036 Z-0.100 I-0.102 J4.194 K0.000 F500.000
G3 X10.780 Y19.666 Z-0.100 I-0.150 J0.985 K0.000 F500.000
G3 X10.102 Y20.928 Z-0.100 I-0.883 J0.339 K0.000 F500.000
G3 X7.873 Y20.917 Z-0.100 I-1.094 J-4.159 K0.000 F500.000
G3 X7.899 Y19.069 Z-0.100 I0.263 J-0.921 K0.000 F500.000
G3 X9.114 Y18.920 Z-0.100 I1.113 J4.045 K0.000 F500.000
G0 Z5.000
G0 X9.201 Y20.894 Z5.000
G0 X9.201 Y20.894 Z3.000
G1 X9.201 Y20.894 Z-0.100 F100.000
G2 X10.194 Y20.747 Z-0.100 I-0.214 J-4.866 K0.000 F500.000
G3 X9.009 Y20.944 Z-0.100 I-1.020 J-2.466 K0.000 F500.000
G3 X8.039 Y20.838 Z-0.100 I-0.099 J-3.570 K0.000 F500.000
G3 X7.836 Y20.761 Z-0.100 I0.165 J-0.740 K0.000 F500.000
G2 X9.201 Y20.894 Z-0.100 I1.151 J-4.732 K0.000 F500.000
G0 Z5.000
G0 Z5.000
G0 Z5.000
G0 Z5.000
G0 X9.201 Y20.894
G0 X10.936 Y42.267
G0 X10.936 Y42.267 Z3.000
G1 X10.936 Y42.267 Z-0.100 F100.000
G3 X10.968 Y42.270 Z-0.100 I0.007 J0.081 K0.000 F500.000
G1 X10.991 Y42.281 Z-0.100 F500.000
G3 X10.897 Y42.415 Z-0.100 I-0.047 J0.067 K0.000 F500.000
G3 X10.936 Y42.267 Z-0.100 I0.045 J-0.067 K0.000 F500.000
G0 Z5.000
G0 Z5.000
G0 X10.936 Y42.267
G0 X10.798 Y41.585
G0 X10.798 Y41.585 Z3.000
G1 X10.798 Y41.585 Z-0.100 F100.000
G3 X11.947 Y41.518 Z-0.100 I0.793 J3.715 K0.000 F500.000
G3 X12.215 Y42.757 Z-0.100 I-0.021 J0.653 K0.000 F500.000
G3 X9.919 Y43.174 Z-0.100 I-1.972 J-4.320 K0.000 F500.000
G3 X9.671 Y41.938 Z-0.100 I0.040 J-0.651 K0.000 F500.000
G3 X10.798 Y41.585 Z-0.100 I1.458 J2.681 K0.000 F500.000
G0 Z5.000
G0 X10.773 Y41.445 Z5.000
G0 X10.773 Y41.445 Z3.000
G1 X10.773 Y41.445 Z-0.100 F100.000
G2 X10.122 Y41.611 Z-0.100 I0.739 J4.239 K0.000 F500.000
G2 X9.635 Y41.819 Z-0.100 I0.607 J2.106 K0.000 F500.000
G3 X10.776 Y41.415 Z-0.100 I1.336 J1.965 K0.000 F500.000
G3 X11.747 Y41.352 Z-0.100 I0.717 J3.499 K0.000 F500.000
G1 X11.870 Y41.367 Z-0.100 F500.000
G1 X12.031 Y41.412 Z-0.100 F500.000
G2 X10.773 Y41.445 Z-0.100 I-0.519 J4.272 K0.000 F500.000
G0 Z5.000
G0 X10.746 Y41.294 Z5.000
G0 X10.746 Y41.294 Z3.000
G1 X10.746 Y41.294 Z-0.100 F100.000
G3 X11.895 Y41.245 Z-0.100 I0.756 J4.247 K0.000 F500.000
G3 X12.187 Y43.072 Z-0.100 I-0.099 J0.953 K0.000 F500.000
G3 X9.990 Y43.449 Z-0.100 I-1.800 J-3.905 K0.000 F500.000
G3 X9.695 Y41.624 Z-0.100 I0.099 J-0.953 K0.000 F500.000
G3 X10.746 Y41.294 Z-0.100 I1.808 J3.917 K0.000 F500.000
G0 Z5.000
G0 X11.092 Y43.236 Z5.000
G0 X11.092 Y43.236 Z3.000
G1 X11.092 Y43.236 Z-0.100 F100.000
G2 X12.247 Y42.878 Z-0.100 I-0.854 J-4.795 K0.000 F500.000
G3 X11.113 Y43.278 Z-0.100 I-1.433 J-2.251 K0.000 F500.000
G3 X10.140 Y43.342 Z-0.100 I-0.718 J-3.498 K0.000 F500.000
G3 X9.926 Y43.301 Z-0.100 I0.034 J-0.757 K0.000 F500.000
G2 X11.092 Y43.236 Z-0.100 I0.312 J-4.860 K0.000 F500.000
G0 Z5.000
G0 Z5.000
G0 X11.092 Y43.236
G0 X12.846 Y44.209
G0 X12.846 Y44.209 Z3.000
G1 X12.846 Y44.209 Z-0.100 F100.000
G1 X13.040 Y44.175 Z-0.100 F500.000
G1 X13.393 Y46.182 Z-0.100 F500.000
G1 X13.200 Y46.216 Z-0.100 F500.000
G1 X13.090 Y45.591 Z-0.100 F500.000
G2 X12.800 Y45.388 Z-0.100 I-0.246 J0.043 K0.000 F500.000
G1 X10.243 Y45.839 Z-0.100 F500.000
G2 X10.058 Y46.187 Z-0.100 I0.043 J0.246 K0.000 F500.000
G1 X10.272 Y46.669 Z-0.100 F500.000
G1 X10.079 Y46.703 Z-0.100 F500.000
G3 X9.746 Y45.654 Z-0.100 I2.025 J-1.220 K0.000 F500.000
G1 X12.753 Y45.124 Z-0.100 F500.000
G2 X12.956 Y44.834 Z-0.100 I-0.043 J-0.246 K0.000 F500.000
G1 X12.846 Y44.209 Z-0.100 F500.000
G0 Z5.000
G0 X13.053 Y44.972 Z5.000
G0 X13.053 Y44.972 Z3.000
G1 X13.053 Y44.972 Z-0.100 F100.000
G1 X13.128 Y45.398 Z-0.100 F500.000
G2 X12.778 Y45.265 Z-0.100 I-0.286 J0.224 K0.000 F500.000
G1 X10.222 Y45.716 Z-0.100 F500.000
G2 X9.933 Y45.993 Z-0.100 I0.029 J0.319 K0.000 F500.000
G1 X9.891 Y45.755 Z-0.100 F500.000
G1 X12.775 Y45.247 Z-0.100 F500.000
G2 X13.053 Y44.972 Z-0.100 I0.002 J-0.276 K0.000 F500.000
G0 Z5.000
G0 Z5.000
G0 X13.053 Y44.972
G0 X8.155 Y45.011
G0 X8.155 Y45.011 Z3.000
G1 X8.155 Y45.011 Z-0.100 F100.000
G1 X2.525 Y46.004 Z-0.100 F500.000
G1 X2.525 Y46.004 Z-0.100 F500.000
G1 X8.155 Y45.011 Z-0.100 F500.000
G0 Z5.000
G0 Z5.000
G0 Z5.000
G0 X8.155 Y45.011
G0 X16.919 Y66.131
G0 X16.919 Y66.131 Z3.000
G1 X16.919 Y66.131 Z-0.100 F100.000
G3 X16.961 Y66.123 Z-0.100 I0.039 J0.094 K0.000 F500.000
G3 X16.977 Y66.276 Z-0.100 I-0.008 J0.078 K0.000 F500.000
G3 X16.886 Y66.153 Z-0.100 I-0.027 J-0.075 K0.000 F500.000
G3 X16.919 Y66.131 Z-0.100 I0.072 J0.071 K0.000 F500.000
G0 Z5.000
G0 Z5.000
G0 X16.919 Y66.131
G0 X16.634 Y65.341
G0 X16.634 Y65.341 Z3.000
G1 X16.634 Y65.341 Z-0.100 F100.000
G2 X16.013 Y65.623 Z-0.100 I1.461 J4.047 K0.000 F500.000
G2 X15.569 Y65.912 Z-0.100 I0.967 J1.967 K0.000 F500.000
G3 X16.622 Y65.315 Z-0.100 I1.660 J1.700 K0.000 F500.000
G3 X17.567 Y65.082 Z-0.100 I1.319 J3.319 K0.000 F500.000
G3 X17.857 Y65.092 Z-0.100 I0.112 J1.004 K0.000 F500.000
G2 X16.634 Y65.341 Z-0.100 I0.238 J4.297 K0.000 F500.000
G0 Z5.000
G0 X16.683 Y65.474 Z5.000
G0 X16.683 Y65.474 Z3.000
G1 X16.683 Y65.474 Z-0.100 F100.000
G3 X17.793 Y65.210 Z-0.100 I1.649 J4.473 K0.000 F500.000
G3 X18.274 Y66.383 Z-0.100 I0.094 J0.647 K0.000 F500.000
G3 X16.087 Y67.197 Z-0.100 I-2.699 J-3.908 K0.000 F500.000
G3 X15.625 Y66.023 Z-0.100 I-0.075 J-0.648 K0.000 F500.000
G3 X16.683 Y65.474 Z-0.100 I2.707 J3.924 K0.000 F500.000
G0 Z5.000
G0 X16.582 Y65.196 Z5.000
G0 X16.582 Y65.196 Z3.000
G1 X16.582 Y65.196 Z-0.100 F100.000
G3 X17.693 Y64.951 Z-0.100 I1.479 J4.052 K0.000 F500.000
G3 X18.301 Y66.699 Z-0.100 I0.070 J0.956 K0.000 F500.000
G3 X16.205 Y67.455 Z-0.100 I-2.457 J-3.529 K0.000 F500.000
G3 X15.594 Y65.710 Z-0.100 I-0.069 J-0.955 K0.000 F500.000
G3 X16.582 Y65.196 Z-0.100 I2.467 J3.539 K0.000 F500.000
G0 Z5.000
G0 X17.270 Y67.045 Z5.000
G0 X17.270 Y67.045 Z3.000
G1 X17.270 Y67.045 Z-0.100 F100.000
G2 X18.326 Y66.497 Z-0.100 I-1.700 J-4.564 K0.000 F500.000
G3 X17.281 Y67.090 Z-0.100 I-1.806 J-1.965 K0.000 F500.000
G3 X16.333 Y67.323 Z-0.100 I-1.320 J-3.318 K0.000 F500.000
G3 X16.116 Y67.321 Z-0.100 I-0.100 J-0.752 K0.000 F500.000
G2 X17.270 Y67.045 Z-0.100 I-0.545 J-4.840 K0.000 F500.000
G0 Z5.000
G0 Z5.000
G0 X17.270 Y67.045
G0 X17.209 Y68.680
G0 X17.209 Y68.680 Z3.000
G1 X17.209 Y68.680 Z-0.100 F100.000
G3 X17.458 Y68.727 Z-0.100 I-0.032 J0.859 K0.000 F500.000
G3 X18.663 Y69.219 Z-0.100 I-1.953 J6.511 K0.000 F500.000
G1 X19.370 Y69.544 Z-0.100 F500.000
G2 X19.709 Y69.232 Z-0.100 I0.105 J-0.227 K0.000 F500.000
G1 X19.216 Y67.884 Z-0.100 F500.000
G1 X19.401 Y67.816 Z-0.100 F500.000
G1 X20.102 Y69.732 Z-0.100 F500.000
G1 X19.796 Y69.844 Z-0.100 F500.000
G2 X18.022 Y69.098 Z-0.100 I-27.791 J63.634 K0.000 F500.000
G1 X17.475 Y68.958 Z-0.100 F500.000
G2 X16.497 Y69.773 Z-0.100 I-0.162 J0.800 K0.000 F500.000
G2 X17.004 Y70.774 Z-0.100 I1.692 J-0.227 K0.000 F500.000
G1 X16.861 Y70.826 Z-0.100 F500.000
G3 X16.322 Y69.633 Z-0.100 I1.677 J-1.477 K0.000 F500.000
G3 X17.209 Y68.680 Z-0.100 I0.855 J-0.094 K0.000 F500.000
G0 Z5.000
G0 X17.199 Y68.819 Z5.000
G0 X17.199 Y68.819 Z3.000
G1 X17.199 Y68.819 Z-0.100 F100.000
G3 X17.290 Y68.832 Z-0.100 I-0.050 J0.706 K0.000 F500.000
G2 X16.471 Y69.321 Z-0.100 I0.035 J0.990 K0.000 F500.000
G3 X17.199 Y68.819 Z-0.100 I0.678 J0.204 K0.000 F500.000
G0 Z5.000
G0 X19.651 Y69.646 Z5.000
G0 X19.651 Y69.646 Z3.000
G1 X19.651 Y69.646 Z-0.100 F100.000
G2 X19.841 Y69.395 Z-0.100 I-0.165 J-0.324 K0.000 F500.000
G1 X19.841 Y69.382 Z-0.100 F500.000
G1 X19.941 Y69.657 Z-0.100 F500.000
G3 X19.651 Y69.646 Z-0.100 I-0.139 J-0.160 K0.000 F500.000
G0 Z5.000
G0 Z5.000
G0 Z5.000
G0 X19.651 Y69.646
G0 X19.469 Y80.867
G0 X19.469 Y80.867 Z3.000
G1 X19.469 Y80.867 Z-0.100 F100.000
G1 X19.469 Y80.867 Z-0.100 F500.000
G1 X14.280 Y83.287 Z-0.100 F500.000
G1 X19.469 Y80.867 Z-0.100 F500.000
G0 Z5.000
G0 Z5.000
G0 X19.469 Y80.867
G0 X27.050 Y88.752
G0 X27.050 Y88.752 Z3.000
G1 X27.050 Y88.752 Z-0.100 F100.000
G3 X27.059 Y88.745 Z-0.100 I0.055 J0.057 K0.000 F500.000
G1 X27.106 Y88.728 Z-0.100 F500.000
G3 X27.149 Y88.876 Z-0.100 I0.006 J0.078 K0.000 F500.000
G3 X27.050 Y88.752 Z-0.100 I-0.043 J-0.067 K0.000 F500.000
G0 Z5.000
G0 Z5.000
G0 X27.050 Y88.752
G0 X26.628 Y88.027
G0 X26.628 Y88.027 Z3.000
G1 X26.628 Y88.027 Z-0.100 F100.000
G2 X26.085 Y88.402 Z-0.100 I2.167 J3.718 K0.000 F500.000
G2 X25.699 Y88.764 Z-0.100 I1.297 J1.767 K0.000 F500.000
G3 X26.631 Y87.992 Z-0.100 I1.932 J1.383 K0.000 F500.000
G3 X27.521 Y87.597 Z-0.100 I1.880 J3.036 K0.000 F500.000
G3 X27.808 Y87.556 Z-0.100 I0.286 J0.969 K0.000 F500.000
G2 X26.628 Y88.027 Z-0.100 I0.987 J4.188 K0.000 F500.000
G0 Z5.000
G0 X26.700 Y88.149 Z5.000
G0 X26.700 Y88.149 Z3.000
G1 X26.700 Y88.149 Z-0.100 F100.000
G3 X27.465 Y87.770 Z-0.100 I3.050 J5.190 K0.000 F500.000
G1 X27.766 Y87.684 Z-0.100 F500.000
G3 X28.445 Y88.754 Z-0.100 I0.206 J0.620 K0.000 F500.000
G3 X26.518 Y89.920 Z-0.100 I-3.419 J-3.476 K0.000 F500.000
G3 X25.595 Y89.374 Z-0.100 I-0.253 J-0.626 K0.000 F500.000
G3 X26.016 Y88.618 Z-0.100 I0.914 J0.013 K0.000 F500.000
G3 X26.700 Y88.149 Z-0.100 I3.734 J4.722 K0.000 F500.000
G0 Z5.000
G0 X26.550 Y87.894 Z5.000
G0 X26.550 Y87.894 Z3.000
G1 X26.550 Y87.894 Z-0.100 F100.000
G3 X27.622 Y87.446 Z-0.100 I2.186 J3.719 K0.000 F500.000
G3 X28.306 Y87.509 Z-0.100 I0.255 J0.960 K0.000 F500.000
G3 X28.527 Y89.060 Z-0.100 I-0.428 J0.852 K0.000 F500.000
G3 X26.595 Y90.172 Z-0.100 I-3.037 J-3.044 K0.000 F500.000
G3 X25.688 Y88.561 Z-0.100 I-0.235 J-0.928 K0.000 F500.000
G3 X26.550 Y87.894 Z-0.100 I3.048 J3.052 K0.000 F500.000
G0 Z5.000
G0 X27.538 Y89.602 Z5.000
G0 X27.538 Y89.602 Z3.000
G1 X27.538 Y89.602 Z-0.100 F100.000
G2 X28.516 Y88.857 Z-0.100 I-2.438 J-4.217 K0.000 F500.000
G3 X27.591 Y89.624 Z-0.100 I-2.122 J-1.619 K0.000 F500.000
G3 X26.699 Y90.020 Z-0.100 I-1.881 J-3.036 K0.000 F500.000
G3 X26.484 Y90.055 Z-0.100 I-0.230 J-0.723 K0.000 F500.000
G2 X27.538 Y89.602 Z-0.100 I-1.384 J-4.670 K0.000 F500.000
G0 Z5.000
G0 Z5.000
G0 X27.538 Y89.602
G0 X28.738 Y90.545
G0 X28.738 Y90.545 Z3.000
G1 X28.738 Y90.545 Z-0.100 F100.000
G3 X29.747 Y90.213 Z-0.100 I0.754 J0.592 K0.000 F500.000
G3 X30.426 Y90.883 Z-0.100 I-0.565 J1.251 K0.000 F500.000
G3 X30.762 Y91.740 Z-0.100 I-2.306 J1.399 K0.000 F500.000
G1 X30.612 Y91.828 Z-0.100 F500.000
G2 X30.025 Y90.663 Z-0.100 I-2.114 J0.336 K0.000 F500.000
G2 X28.691 Y91.520 Z-0.100 I-0.533 J0.637 K0.000 F500.000
G2 X28.912 Y91.992 Z-0.100 I1.867 J-0.586 K0.000 F500.000
G1 X28.741 Y92.091 Z-0.100 F500.000
G2 X28.399 Y91.628 Z-0.100 I-1.159 J0.497 K0.000 F500.000
G2 X28.667 Y91.329 Z-0.100 I0.032 J-0.241 K0.000 F500.000
G3 X28.634 Y90.710 Z-0.100 I0.718 J-0.348 K0.000 F500.000
G3 X28.738 Y90.545 Z-0.100 I0.858 J0.427 K0.000 F500.000
G0 Z5.000
G0 X28.846 Y90.604 Z5.000
G0 X28.846 Y90.604 Z3.000
G1 X28.846 Y90.604 Z-0.100 F100.000
G3 X28.923 Y90.543 Z-0.100 I0.198 J0.169 K0.000 F500.000
G1 X28.846 Y90.604 Z-0.100 F500.000
G0 Z5.000
G0 X29.017 Y90.470 Z5.000
G0 X29.017 Y90.470 Z3.000
G1 X29.017 Y90.470 Z-0.100 F100.000
G3 X29.703 Y90.331 Z-0.100 I0.461 J0.510 K0.000 F500.000
G1 X29.841 Y90.403 Z-0.100 F500.000
G2 X29.017 Y90.470 Z-0.100 I-0.353 J0.769 K0.000 F500.000
G0 Z5.000
G0 X28.628 Y91.696 Z5.000
G0 X28.628 Y91.696 Z3.000
G1 X28.628 Y91.696 Z-0.100 F100.000
G3 X28.630 Y91.699 Z-0.100 I0.001 J0.002 K0.000 F500.000
G1 X28.628 Y91.696 Z-0.100 F500.000
G0 Z5.000
G0 X28.163 Y91.487 Z5.000
G0 X28.163 Y91.487 Z3.000
G1 X28.163 Y91.487 Z-0.100 F100.000
G2 X27.305 Y92.356 Z-0.100 I-0.209 J0.652 K0.000 F500.000
G2 X27.929 Y93.249 Z-0.100 I1.942 J-0.693 K0.000 F500.000
G1 X27.772 Y93.340 Z-0.100 F500.000
G3 X27.073 Y92.273 Z-0.100 I1.690 J-1.869 K0.000 F500.000
G3 X27.992 Y91.341 Z-0.100 I0.650 J-0.278 K0.000 F500.000
G3 X28.163 Y91.487 Z-0.100 I-0.288 J0.510 K0.000 F500.000
G0 Z5.000
G0 X27.560 Y91.433 Z5.000
G0 X27.560 Y91.433 Z3.000
G1 X27.560 Y91.433 Z-0.100 F100.000
G2 X27.160 Y92.016 Z-0.100 I0.338 J0.660 K0.000 F500.000
G3 X27.560 Y91.433 Z-0.100 I0.537 J-0.060 K0.000 F500.000
G0 Z5.000
G0 Z5.000
G0 X27.560 Y91.433
G0 X25.264 Y92.016
G0 X25.264 Y92.016 Z3.000
G1 X25.264 Y92.016 Z-0.100 F100.000
G1 X25.264 Y92.016 Z-0.100 F500.000
G1 X20.313 Y94.875 Z-0.100 F500.000
G1 X20.313 Y94.875 Z-0.100 F500.000
G1 X25.264 Y92.016 Z-0.100 F500.000
G0 Z5.000
G0 Z5.000
G0 Z5.000
G0 X25.264 Y92.016
G0 X40.964 Y109.155
G0 X40.964 Y109.155 Z3.000
G1 X40.964 Y109.155 Z-0.100 F100.000
G3 X41.041 Y109.137 Z-0.100 I0.054 J0.059 K0.000 F500.000
G1 X41.076 Y109.165 Z-0.100 F500.000
G3 X40.957 Y109.266 Z-0.100 I-0.061 J0.049 K0.000 F500.000
G3 X40.964 Y109.155 Z-0.100 I0.061 J-0.052 K0.000 F500.000
G0 Z5.000
G0 Z5.000
G0 X40.964 Y109.155
G0 X40.424 Y108.511
G0 X40.424 Y108.511 Z3.000
G1 X40.424 Y108.511 Z-0.100 F100.000
G2 X39.935 Y108.992 Z-0.100 I2.764 J3.298 K0.000 F500.000
G2 X39.619 Y109.416 Z-0.100 I1.586 J1.513 K0.000 F500.000
G3 X40.401 Y108.493 Z-0.100 I2.144 J1.024 K0.000 F500.000
G3 X41.208 Y107.949 Z-0.100 I2.383 J2.660 K0.000 F500.000
G3 X41.484 Y107.858 Z-0.100 I0.451 J0.904 K0.000 F500.000
G2 X40.424 Y108.511 Z-0.100 I1.705 J3.951 K0.000 F500.000
G0 Z5.000
G0 X40.516 Y108.619 Z5.000
G0 X40.516 Y108.619 Z3.000
G1 X40.516 Y108.619 Z-0.100 F100.000
G3 X41.465 Y107.991 Z-0.100 I3.088 J3.632 K0.000 F500.000
G3 X42.321 Y108.926 Z-0.100 I0.311 J0.575 K0.000 F500.000
G3 X40.548 Y110.444 Z-0.100 I-3.881 J-2.738 K0.000 F500.000
G3 X39.710 Y109.501 Z-0.100 I-0.294 J-0.583 K0.000 F500.000
G3 X40.516 Y108.619 Z-0.100 I3.894 J2.750 K0.000 F500.000
G0 Z5.000
G0 X40.325 Y108.393 Z5.000
G0 X40.325 Y108.393 Z3.000
G1 X40.325 Y108.393 Z-0.100 F100.000
G3 X41.282 Y107.781 Z-0.100 I2.782 J3.296 K0.000 F500.000
G3 X42.157 Y107.812 Z-0.100 I0.409 J0.850 K0.000 F500.000
G3 X42.455 Y109.213 Z-0.100 I-0.455 J0.829 K0.000 F500.000
G3 X40.748 Y110.645 Z-0.100 I-3.523 J-2.466 K0.000 F500.000
G3 X39.572 Y109.218 Z-0.100 I-0.394 J-0.873 K0.000 F500.000
G3 X40.325 Y108.393 Z-0.100 I3.536 J2.472 K0.000 F500.000
G0 Z5.000
G0 X41.611 Y109.890 Z5.000
G0 X41.611 Y109.890 Z3.000
G1 X41.611 Y109.890 Z-0.100 F100.000
G2 X42.409 Y109.015 Z-0.100 I-3.173 J-3.695 K0.000 F500.000
G3 X41.632 Y109.932 Z-0.100 I-2.372 J-1.222 K0.000 F500.000
G3 X40.823 Y110.478 Z-0.100 I-2.383 J-2.660 K0.000 F500.000
G3 X40.618 Y110.550 Z-0.100 I-0.353 J-0.671 K0.000 F500.000
G2 X41.611 Y109.890 Z-0.100 I-2.180 J-4.355 K0.000 F500.000
G0 Z5.000
G0 Z5.000
G0 X41.611 Y109.890
G0 X42.943 Y110.396
G0 X42.943 Y110.396 Z3.000
G1 X42.943 Y110.396 Z-0.100 F100.000
G1 X43.079 Y110.281 Z-0.100 F500.000
G2 X43.437 Y110.510 Z-0.100 I0.321 J-0.107 K0.000 F500.000
G1 X43.554 Y110.455 Z-0.100 F500.000
G1 X44.021 Y110.059 Z-0.100 F500.000
G1 X44.188 Y110.256 Z-0.100 F500.000
G1 X43.720 Y110.652 Z-0.100 F500.000
G2 X43.691 Y111.004 Z-0.100 I0.162 J0.191 K0.000 F500.000
G1 X44.555 Y112.024 Z-0.100 F500.000
G1 X44.217 Y112.310 Z-0.100 F500.000
G1 X41.635 Y112.657 Z-0.100 F500.000
G1 X41.350 Y112.321 Z-0.100 F500.000
G1 X43.036 Y110.893 Z-0.100 F500.000
G2 X43.066 Y110.540 Z-0.100 I-0.162 J-0.191 K0.000 F500.000
G1 X42.943 Y110.396 Z-0.100 F500.000
G0 Z5.000
G0 X43.225 Y110.596 Z5.000
G0 X43.225 Y110.596 Z3.000
G1 X43.225 Y110.596 Z-0.100 F100.000
G2 X43.634 Y110.550 Z-0.100 I0.172 J-0.320 K0.000 F500.000
G1 X44.006 Y110.235 Z-0.100 F500.000
G1 X44.012 Y110.241 Z-0.100 F500.000
G2 X43.540 Y110.690 Z-0.100 I0.747 J1.259 K0.000 F500.000
G2 X43.549 Y110.961 Z-0.100 I0.221 J0.129 K0.000 F500.000
G2 X43.122 Y110.994 Z-0.100 I-0.191 J0.300 K0.000 F500.000
G1 X41.916 Y112.016 Z-0.100 F500.000
G2 X41.849 Y112.502 Z-0.100 I0.227 J0.279 K0.000 F500.000
G1 X41.687 Y112.524 Z-0.100 F500.000
G1 X41.527 Y112.335 Z-0.100 F500.000
G1 X43.117 Y110.988 Z-0.100 F500.000
G2 X43.225 Y110.596 Z-0.100 I-0.192 J-0.264 K0.000 F500.000
G0 Z5.000
G0 X43.368 Y110.760 Z5.000
G0 X43.368 Y110.760 Z3.000
G1 X43.368 Y110.760 Z-0.100 F100.000
G3 X43.396 Y110.757 Z-0.100 I0.017 J0.019 K0.000 F500.000
G3 X43.360 Y110.788 Z-0.100 I-0.024 J0.008 K0.000 F500.000
G3 X43.368 Y110.760 Z-0.100 I0.024 J-0.008 K0.000 F500.000
G0 Z5.000
G0 X43.366 Y111.031 Z5.000
G0 X43.366 Y111.031 Z3.000
G1 X43.366 Y111.031 Z-0.100 F100.000
G3 X43.556 Y111.119 Z-0.100 I-0.002 J0.250 K0.000 F500.000
G1 X44.208 Y111.890 Z-0.100 F500.000
G3 X44.051 Y112.299 Z-0.100 I-0.191 J0.162 K0.000 F500.000
G1 X42.192 Y112.550 Z-0.100 F500.000
G3 X41.997 Y112.111 Z-0.100 I-0.033 J-0.248 K0.000 F500.000
G1 X43.203 Y111.090 Z-0.100 F500.000
G3 X43.366 Y111.031 Z-0.100 I0.162 J0.191 K0.000 F500.000
G0 Z5.000
G0 Z5.000
G0 Z5.000
G0 Z5.000
G0 X43.366 Y111.031
G0 X58.034 Y126.658
G0 X58.034 Y126.658 Z3.000
G1 X58.034 Y126.658 Z-0.100 F100.000
G3 X58.101 Y126.637 Z-0.100 I0.055 J0.059 K0.000 F500.000
G1 X58.141 Y126.658 Z-0.100 F500.000
G3 X58.072 Y126.796 Z-0.100 I-0.047 J0.062 K0.000 F500.000
G3 X58.034 Y126.658 Z-0.100 I0.016 J-0.079 K0.000 F500.000
G0 Z5.000
G0 Z5.000
G0 X58.034 Y126.658
G0 X57.486 Y126.228
G0 X57.486 Y126.228 Z3.000
G1 X57.486 Y126.228 Z-0.100 F100.000
G3 X58.520 Y125.342 Z-0.100 I2.193 J1.512 K0.000 F500.000
G3 X59.325 Y126.209 Z-0.100 I0.220 J0.603 K0.000 F500.000
G3 X57.840 Y128.010 Z-0.100 I-4.294 J-2.029 K0.000 F500.000
G3 X56.853 Y127.225 Z-0.100 I-0.390 J-0.523 K0.000 F500.000
G3 X57.486 Y126.228 Z-0.100 I2.843 J1.107 K0.000 F500.000
G0 Z5.000
G0 X57.377 Y126.137 Z5.000
G0 X57.377 Y126.137 Z3.000
G1 X57.377 Y126.137 Z-0.100 F100.000
G2 X56.987 Y126.684 Z-0.100 I3.300 J2.762 K0.000 F500.000
G2 X56.748 Y127.157 Z-0.100 I1.823 J1.217 K0.000 F500.000
G3 X57.360 Y126.113 Z-0.100 I2.288 J0.639 K0.000 F500.000
G3 X58.061 Y125.438 Z-0.100 I2.805 J2.210 K0.000 F500.000
G3 X58.317 Y125.301 Z-0.100 I0.600 J0.812 K0.000 F500.000
G2 X57.377 Y126.137 Z-0.100 I2.360 J3.599 K0.000 F500.000
G0 Z5.000
G0 X57.259 Y126.039 Z5.000
G0 X57.259 Y126.039 Z3.000
G1 X57.259 Y126.039 Z-0.100 F100.000
G3 X58.105 Y125.261 Z-0.100 I3.318 J2.757 K0.000 F500.000
G3 X59.071 Y125.187 Z-0.100 I0.540 J0.706 K0.000 F500.000
G3 X59.600 Y126.117 Z-0.100 I-0.365 J0.823 K0.000 F500.000
G3 X58.915 Y127.400 Z-0.100 I-2.703 J-0.619 K0.000 F500.000
G3 X58.190 Y128.097 Z-0.100 I-2.890 J-2.280 K0.000 F500.000
G3 X57.201 Y128.293 Z-0.100 I-0.662 J-0.748 K0.000 F500.000
G3 X56.668 Y126.970 Z-0.100 I0.309 J-0.893 K0.000 F500.000
G3 X57.259 Y126.039 Z-0.100 I3.908 J1.826 K0.000 F500.000
G0 Z5.000
G0 X58.776 Y127.300 Z5.000
G0 X58.776 Y127.300 Z3.000
G1 X58.776 Y127.300 Z-0.100 F100.000
G2 X59.427 Y126.281 Z-0.100 I-3.746 J-3.112 K0.000 F500.000
G3 X58.820 Y127.318 Z-0.100 I-2.547 J-0.796 K0.000 F500.000
G3 X58.117 Y127.995 Z-0.100 I-2.805 J-2.210 K0.000 F500.000
G3 X57.928 Y128.102 Z-0.100 I-0.463 J-0.600 K0.000 F500.000
G2 X58.776 Y127.300 Z-0.100 I-2.898 J-3.915 K0.000 F500.000
G0 Z5.000
G0 Z5.000
G0 X58.776 Y127.300
G0 X60.107 Y127.897
G0 X60.107 Y127.897 Z3.000
G1 X60.107 Y127.897 Z-0.100 F100.000
G3 X61.376 Y127.243 Z-0.100 I1.044 J0.469 K0.000 F500.000
G1 X61.454 Y127.268 Z-0.100 F500.000
G3 X62.501 Y128.174 Z-0.100 I-0.923 J2.125 K0.000 F500.000
G1 X62.396 Y128.300 Z-0.100 F500.000
G2 X61.537 Y127.523 Z-0.100 I-1.618 J0.925 K0.000 F500.000
G2 X60.471 Y128.947 Z-0.100 I-0.324 J0.869 K0.000 F500.000
G2 X61.131 Y129.461 Z-0.100 I1.368 J-1.073 K0.000 F500.000
G1 X61.225 Y129.495 Z-0.100 F500.000
G1 X60.183 Y130.745 Z-0.100 F500.000
G1 X58.899 Y129.674 Z-0.100 F500.000
G1 X59.024 Y129.523 Z-0.100 F500.000
G1 X60.009 Y130.344 Z-0.100 F500.000
G2 X60.362 Y130.312 Z-0.100 I0.160 J-0.192 K0.000 F500.000
G1 X60.837 Y129.742 Z-0.100 F500.000
G2 X60.750 Y129.355 Z-0.100 I-0.192 J-0.160 K0.000 F500.000
G3 X60.018 Y128.200 Z-0.100 I0.371 J-1.045 K0.000 F500.000
G3 X60.107 Y127.897 Z-0.100 I1.133 J0.166 K0.000 F500.000
G0 Z5.000
G0 X60.236 Y127.953 Z5.000
G0 X60.236 Y127.953 Z3.000
G1 X60.236 Y127.953 Z-0.100 F100.000
G3 X60.990 Y127.347 Z-0.100 I0.950 J0.410 K0.000 F500.000
G2 X60.190 Y128.642 Z-0.100 I0.241 J1.044 K0.000 F500.000
G3 X60.236 Y127.953 Z-0.100 I0.996 J-0.280 K0.000 F500.000
G0 Z5.000
G0 X61.056 Y127.336 Z5.000
G0 X61.056 Y127.336 Z3.000
G1 X61.056 Y127.336 Z-0.100 F100.000
G3 X61.094 Y127.331 Z-0.100 I0.032 J0.118 K0.000 F500.000
G1 X61.056 Y127.336 Z-0.100 F500.000
G0 Z5.000
G0 X61.011 Y129.541 Z5.000
G0 X61.011 Y129.541 Z3.000
G1 X61.011 Y129.541 Z-0.100 F100.000
G2 X61.021 Y129.545 Z-0.100 I0.026 J-0.039 K0.000 F500.000
G1 X61.011 Y129.557 Z-0.100 F500.000
G1 X61.011 Y129.541 Z-0.100 F500.000
G0 Z5.000
G0 X60.209 Y130.519 Z5.000
G0 X60.209 Y130.519 Z3.000
G1 X60.209 Y130.519 Z-0.100 F100.000
G3 X60.104 Y130.516 Z-0.100 I-0.053 J-0.001 K0.000 F500.000
G1 X60.209 Y130.519 Z-0.100 F500.000
G0 Z5.000
G0 Z5.000
G0 Z5.000
G0 Z5.000
G0 X60.209 Y130.519
G0 X78.094 Y141.108
G0 X78.094 Y141.108 Z3.000
G1 X78.094 Y141.108 Z-0.100 F100.000
G3 X78.121 Y141.080 Z-0.100 I0.070 J0.041 K0.000 F500.000
G3 X78.161 Y141.068 Z-0.100 I0.038 J0.050 K0.000 F500.000
G3 X78.187 Y141.227 Z-0.100 I0.004 J0.081 K0.000 F500.000
G3 X78.094 Y141.108 Z-0.100 I-0.023 J-0.078 K0.000 F500.000
G0 Z5.000
G0 Z5.000
G0 X78.094 Y141.108
G0 X77.476 Y140.751
G0 X77.476 Y140.751 Z3.000
G1 X77.476 Y140.751 Z-0.100 F100.000
G3 X77.784 Y140.294 Z-0.100 I3.508 J2.030 K0.000 F500.000
G3 X78.454 Y139.670 Z-0.100 I1.318 J0.742 K0.000 F500.000
G3 X79.293 Y140.432 Z-0.100 I0.214 J0.607 K0.000 F500.000
G3 X78.146 Y142.465 Z-0.100 I-4.583 J-1.245 K0.000 F500.000
G3 X77.036 Y141.865 Z-0.100 I-0.475 J-0.447 K0.000 F500.000
G3 X77.476 Y140.751 Z-0.100 I3.948 J0.915 K0.000 F500.000
G0 Z5.000
G0 X77.370 Y140.689 Z5.000
G0 X77.370 Y140.689 Z3.000
G1 X77.370 Y140.689 Z-0.100 F100.000
G2 X77.074 Y141.309 Z-0.100 I3.725 J2.155 K0.000 F500.000
G2 X76.922 Y141.817 Z-0.100 I2.008 J0.879 K0.000 F500.000
G3 X77.341 Y140.682 Z-0.100 I2.365 J0.229 K0.000 F500.000
G3 X77.913 Y139.894 Z-0.100 I3.149 J1.685 K0.000 F500.000
G3 X78.141 Y139.714 Z-0.100 I0.733 J0.695 K0.000 F500.000
G2 X77.370 Y140.689 Z-0.100 I2.953 J3.130 K0.000 F500.000
G0 Z5.000
G0 X77.236 Y140.612 Z5.000
G0 X77.236 Y140.612 Z3.000
G1 X77.236 Y140.612 Z-0.100 F100.000
G3 X77.925 Y139.712 Z-0.100 I3.741 J2.147 K0.000 F500.000
G3 X78.864 Y139.470 Z-0.100 I0.655 J0.601 K0.000 F500.000
G3 X79.547 Y140.293 Z-0.100 I-0.216 J0.875 K0.000 F500.000
G3 X79.097 Y141.676 Z-0.100 I-2.770 J-0.136 K0.000 F500.000
G3 X78.506 Y142.490 Z-0.100 I-3.245 J-1.739 K0.000 F500.000
G3 X77.566 Y142.856 Z-0.100 I-0.782 J-0.619 K0.000 F500.000
G3 X76.810 Y141.646 Z-0.100 I0.148 J-0.934 K0.000 F500.000
G3 X77.236 Y140.612 Z-0.100 I4.168 J1.113 K0.000 F500.000
G0 Z5.000
G0 X78.957 Y141.578 Z5.000
G0 X78.957 Y141.578 Z3.000
G1 X78.957 Y141.578 Z-0.100 F100.000
G2 X79.406 Y140.485 Z-0.100 I-4.247 J-2.385 K0.000 F500.000
G3 X78.989 Y141.613 Z-0.100 I-2.647 J-0.337 K0.000 F500.000
G3 X78.416 Y142.402 Z-0.100 I-3.149 J-1.685 K0.000 F500.000
G3 X78.248 Y142.540 Z-0.100 I-0.561 J-0.510 K0.000 F500.000
G2 X78.957 Y141.578 Z-0.100 I-3.538 J-3.347 K0.000 F500.000
G0 Z5.000
G0 Z5.000
G0 X78.957 Y141.578
G0 X80.256 Y141.977
G0 X80.256 Y141.977 Z3.000
G1 X80.256 Y141.977 Z-0.100 F100.000
G3 X81.072 Y141.033 Z-0.100 I1.481 J0.454 K0.000 F500.000
G3 X81.607 Y141.039 Z-0.100 I0.258 J0.816 K0.000 F500.000
G3 X82.360 Y141.672 Z-0.100 I-0.330 J1.157 K0.000 F500.000
G3 X82.258 Y142.672 Z-0.100 I-1.557 J0.346 K0.000 F500.000
G3 X81.465 Y143.973 Z-0.100 I-3.697 J-1.360 K0.000 F500.000
G3 X79.856 Y144.209 Z-0.100 I-0.929 J-0.731 K0.000 F500.000
G3 X79.434 Y143.857 Z-0.100 I0.717 J-1.290 K0.000 F500.000
G1 X79.510 Y143.724 Z-0.100 F500.000
G2 X80.809 Y144.183 Z-0.100 I0.955 J-0.635 K0.000 F500.000
G2 X81.622 Y143.334 Z-0.100 I-0.618 J-1.406 K0.000 F500.000
G2 X81.127 Y143.132 Z-0.100 I-0.301 J0.031 K0.000 F500.000
G3 X80.226 Y142.091 Z-0.100 I-0.066 J-0.853 K0.000 F500.000
G3 X80.256 Y141.977 Z-0.100 I1.511 J0.340 K0.000 F500.000
G0 Z5.000
G0 X80.369 Y142.017 Z5.000
G0 X80.369 Y142.017 Z3.000
G1 X80.369 Y142.017 Z-0.100 F100.000
G3 X80.438 Y141.870 Z-0.100 I0.759 J0.265 K0.000 F500.000
G3 X80.529 Y141.700 Z-0.100 I0.805 J0.324 K0.000 F500.000
G2 X80.379 Y142.572 Z-0.100 I0.973 J0.617 K0.000 F500.000
G3 X80.369 Y142.017 Z-0.100 I0.750 J-0.291 K0.000 F500.000
G0 Z5.000
G0 X80.497 Y142.052 Z5.000
G0 X80.497 Y142.052 Z3.000
G1 X80.497 Y142.052 Z-0.100 F100.000
G3 X80.636 Y141.764 Z-0.100 I0.866 J0.238 K0.000 F500.000
G3 X81.193 Y141.222 Z-0.100 I0.976 J0.446 K0.000 F500.000
G3 X82.184 Y141.880 Z-0.100 I0.242 J0.711 K0.000 F500.000
G3 X81.766 Y142.829 Z-0.100 I-1.324 J-0.017 K0.000 F500.000
G3 X80.574 Y142.719 Z-0.100 I-0.556 J-0.489 K0.000 F500.000
G3 X80.497 Y142.052 Z-0.100 I0.789 J-0.429 K0.000 F500.000
G0 Z5.000
G0 X80.608 Y141.582 Z5.000
G0 X80.608 Y141.582 Z3.000
G1 X80.608 Y141.582 Z-0.100 F100.000
G3 X80.716 Y141.441 Z-0.100 I0.465 J0.244 K0.000 F500.000
G1 X80.608 Y141.582 Z-0.100 F500.000
G0 Z5.000
G0 X82.269 Y142.198 Z5.000
G0 X82.269 Y142.198 Z3.000
G1 X82.269 Y142.198 Z-0.100 F100.000
G3 X81.730 Y143.406 Z-0.100 I-3.096 J-0.656 K0.000 F500.000
G2 X81.652 Y143.074 Z-0.100 I-0.321 J-0.100 K0.000 F500.000
G2 X82.269 Y142.198 Z-0.100 I-0.917 J-1.301 K0.000 F500.000
G0 Z5.000
G0 Z5.000
G0 X82.269 Y142.198
G0 X77.984 Y144.736
G0 X77.984 Y144.736 Z3.000
G1 X77.984 Y144.736 Z-0.100 F100.000
G1 X75.125 Y149.687 Z-0.100 F500.000
G1 X77.984 Y144.736 Z-0.100 F500.000
G1 X77.984 Y144.736 Z-0.100 F500.000
G1 X77.984 Y144.736 Z-0.100 F500.000
G0 Z5.000
G0 Z5.000
G0 X77.984 Y144.736
G0 X89.133 Y150.531
G0 X89.133 Y150.531 Z3.000
G1 X89.133 Y150.531 Z-0.100 F100.000
G1 X89.133 Y150.531 Z-0.100 F500.000
G1 X86.713 Y155.720 Z-0.100 F500.000
G1 X89.133 Y150.531 Z-0.100 F500.000
G1 X89.133 Y150.531 Z-0.100 F500.000
G0 Z5.000
G0 Z5.000
G0 X89.133 Y150.531
G0 X100.226 Y151.776
G0 X100.226 Y151.776 Z3.000
G1 X100.226 Y151.776 Z-0.100 F100.000
G3 X100.253 Y151.725 Z-0.100 I0.080 J0.009 K0.000 F500.000
G3 X100.291 Y151.706 Z-0.100 I0.046 J0.043 K0.000 F500.000
G3 X100.343 Y151.858 Z-0.100 I0.019 J0.078 K0.000 F500.000
G3 X100.226 Y151.776 Z-0.100 I-0.036 J-0.072 K0.000 F500.000
G0 Z5.000
G0 Z5.000
G0 X100.226 Y151.776
G0 X99.552 Y151.535
G0 X99.552 Y151.535 Z3.000
G1 X99.552 Y151.535 Z-0.100 F100.000
G3 X99.784 Y151.009 Z-0.100 I3.815 J1.367 K0.000 F500.000
G3 X100.397 Y150.249 Z-0.100 I1.329 J0.444 K0.000 F500.000
G3 X101.294 Y150.883 Z-0.100 I0.257 J0.588 K0.000 F500.000
G3 X100.518 Y153.084 Z-0.100 I-4.729 J-0.431 K0.000 F500.000
G3 X99.320 Y152.686 Z-0.100 I-0.546 J-0.358 K0.000 F500.000
G3 X99.552 Y151.535 Z-0.100 I4.047 J0.216 K0.000 F500.000
G0 Z5.000
G0 X99.436 Y151.493 Z5.000
G0 X99.436 Y151.493 Z3.000
G1 X99.436 Y151.493 Z-0.100 F100.000
G2 X99.261 Y152.132 Z-0.100 I4.051 J1.452 K0.000 F500.000
G2 X99.199 Y152.658 Z-0.100 I2.130 J0.517 K0.000 F500.000
G3 X99.415 Y151.468 Z-0.100 I2.369 J-0.186 K0.000 F500.000
G3 X99.842 Y150.593 Z-0.100 I3.394 J1.113 K0.000 F500.000
G3 X100.035 Y150.376 Z-0.100 I0.842 J0.557 K0.000 F500.000
G2 X99.436 Y151.493 Z-0.100 I3.452 J2.569 K0.000 F500.000
G0 Z5.000
G0 X99.291 Y151.442 Z5.000
G0 X99.291 Y151.442 Z3.000
G1 X99.291 Y151.442 Z-0.100 F100.000
G3 X99.822 Y150.411 Z-0.100 I4.066 J1.441 K0.000 F500.000
G3 X100.924 Y150.068 Z-0.100 I0.757 J0.488 K0.000 F500.000
G3 X101.520 Y150.702 Z-0.100 I-0.228 J0.811 K0.000 F500.000
G3 X101.318 Y152.142 Z-0.100 I-2.752 J0.347 K0.000 F500.000
G3 X100.876 Y153.046 Z-0.100 I-3.497 J-1.149 K0.000 F500.000
G3 X100.014 Y153.570 Z-0.100 I-0.878 J-0.475 K0.000 F500.000
G3 X99.060 Y152.510 Z-0.100 I-0.016 J-0.945 K0.000 F500.000
G3 X99.291 Y151.442 Z-0.100 I4.298 J0.373 K0.000 F500.000
G0 Z5.000
G0 X101.147 Y152.111 Z5.000
G0 X101.147 Y152.111 Z3.000
G1 X101.147 Y152.111 Z-0.100 F100.000
G2 X101.415 Y150.916 Z-0.100 I-4.582 J-1.652 K0.000 F500.000
G3 X101.200 Y152.099 Z-0.100 I-2.666 J0.128 K0.000 F500.000
G3 X100.773 Y152.976 Z-0.100 I-3.394 J-1.112 K0.000 F500.000
G3 X100.631 Y153.141 Z-0.100 I-0.641 J-0.405 K0.000 F500.000
G2 X101.147 Y152.111 Z-0.100 I-4.066 J-2.681 K0.000 F500.000
G0 Z5.000
G0 Z5.000
G0 X101.147 Y152.111
G0 X102.540 Y153.333
G0 X102.540 Y153.333 Z3.000
G1 X102.540 Y153.333 Z-0.100 F100.000
G1 X104.277 Y151.352 Z-0.100 F500.000
G1 X104.530 Y151.443 Z-0.100 F500.000
G1 X102.431 Y153.837 Z-0.100 F500.000
G2 X102.534 Y154.237 Z-0.100 I0.188 J0.165 K0.000 F500.000
G1 X103.870 Y154.716 Z-0.100 F500.000
G1 X103.804 Y154.901 Z-0.100 F500.000
G1 X101.894 Y154.216 Z-0.100 F500.000
G1 X101.983 Y153.969 Z-0.100 F500.000
G1 X102.540 Y153.333 Z-0.100 F500.000
G0 Z5.000
G0 X102.634 Y153.415 Z5.000
G0 X102.634 Y153.415 Z3.000
G1 X102.634 Y153.415 Z-0.100 F100.000
G1 X104.315 Y151.499 Z-0.100 F500.000
G1 X104.315 Y151.499 Z-0.100 F500.000
G1 X102.337 Y153.754 Z-0.100 F500.000
G2 X102.348 Y154.246 Z-0.100 I0.257 J0.240 K0.000 F500.000
G1 X102.054 Y154.140 Z-0.100 F500.000
G1 X102.092 Y154.033 Z-0.100 F500.000
G1 X102.634 Y153.415 Z-0.100 F500.000
G0 Z5.000
G0 Z5.000
G0 Z5.000
G0 X102.634 Y153.415
G0 X112.724 Y159.117
G0 X112.724 Y159.117 Z3.000
G1 X112.724 Y159.117 Z-0.100 F100.000
G1 X112.724 Y159.117 Z-0.100 F500.000
G1 X111.242 Y164.647 Z-0.100 F500.000
G1 X111.242 Y164.647 Z-0.100 F500.000
G1 X112.724 Y159.117 Z-0.100 F500.000
G1 X112.724 Y159.117 Z-0.100 F500.000
G0 Z5.000
G0 Z5.000
G0 X112.724 Y159.117
G0 X124.989 Y161.845
G0 X124.989 Y161.845 Z3.000
G1 X124.989 Y161.845 Z-0.100 F100.000
G1 X124.989 Y161.845 Z-0.100 F500.000
G1 X123.996 Y167.475 Z-0.100 F500.000
G1 X123.996 Y167.475 Z-0.100 F500.000
G1 X124.989 Y161.845 Z-0.100 F500.000
G0 Z5.000
G0 Z5.000
G0 X124.989 Y161.845
G0 X124.187 Y160.129
G0 X124.187 Y160.129 Z3.000
G1 X124.187 Y160.129 Z-0.100 F100.000
G3 X122.827 Y159.338 Z-0.100 I-0.405 J-0.868 K0.000 F500.000
G3 X123.213 Y157.139 Z-0.100 I4.297 J-0.379 K0.000 F500.000
G3 X124.447 Y156.664 Z-0.100 I0.856 J0.383 K0.000 F500.000
G3 X125.032 Y157.481 Z-0.100 I-0.351 J0.870 K0.000 F500.000
G3 X124.645 Y159.676 Z-0.100 I-4.284 J0.376 K0.000 F500.000
G3 X124.187 Y160.129 Z-0.100 I-0.863 J-0.415 K0.000 F500.000
G0 Z5.000
G0 X124.090 Y159.955 Z5.000
G0 X124.090 Y159.955 Z3.000
G1 X124.090 Y159.955 Z-0.100 F100.000
G3 X123.391 Y159.932 Z-0.100 I-0.330 J-0.589 K0.000 F500.000
G3 X123.081 Y159.123 Z-0.100 I0.597 J-0.692 K0.000 F500.000
G3 X123.361 Y157.468 Z-0.100 I6.018 J0.166 K0.000 F500.000
G3 X123.894 Y156.806 Z-0.100 I0.925 J0.199 K0.000 F500.000
G3 X124.745 Y157.348 Z-0.100 I0.211 J0.607 K0.000 F500.000
G3 X124.403 Y159.574 Z-0.100 I-4.860 J0.392 K0.000 F500.000
G3 X124.090 Y159.955 Z-0.100 I-0.642 J-0.207 K0.000 F500.000
G0 Z5.000
G0 X124.485 Y159.686 Z5.000
G0 X124.485 Y159.686 Z3.000
G1 X124.485 Y159.686 Z-0.100 F100.000
G2 X124.870 Y157.359 Z-0.100 I-4.470 J-1.935 K0.000 F500.000
G3 X124.864 Y158.561 Z-0.100 I-2.603 J0.589 K0.000 F500.000
G3 X124.595 Y159.499 Z-0.100 I-3.535 J-0.506 K0.000 F500.000
G3 X124.485 Y159.686 Z-0.100 I-0.702 J-0.287 K0.000 F500.000
G0 Z5.000
G0 X122.990 Y159.460 Z5.000
G0 X122.990 Y159.460 Z3.000
G1 X122.990 Y159.460 Z-0.100 F100.000
G3 X122.996 Y158.250 Z-0.100 I2.301 J-0.594 K0.000 F500.000
G3 X123.264 Y157.314 Z-0.100 I3.535 J0.506 K0.000 F500.000
G3 X123.417 Y157.067 Z-0.100 I0.926 J0.402 K0.000 F500.000
G2 X122.960 Y158.931 Z-0.100 I3.846 J1.931 K0.000 F500.000
G2 X122.990 Y159.460 Z-0.100 I2.188 J0.139 K0.000 F500.000
G0 Z5.000
G0 Z5.000
G0 X122.990 Y159.460
G0 X123.875 Y158.470
G0 X123.875 Y158.470 Z3.000
G1 X123.875 Y158.470 Z-0.100 F100.000
G3 X123.913 Y158.326 Z-0.100 I0.055 J-0.062 K0.000 F500.000
G1 X123.921 Y158.325 Z-0.100 F500.000
G3 X123.943 Y158.490 Z-0.100 I0.009 J0.083 K0.000 F500.000
G3 X123.875 Y158.470 Z-0.100 I-0.013 J-0.082 K0.000 F500.000
G0 Z5.000
G0 Z5.000
G0 X123.875 Y158.470
G0 X126.278 Y158.187
G0 X126.278 Y158.187 Z3.000
G1 X126.278 Y158.187 Z-0.100 F100.000
G3 X126.294 Y157.927 Z-0.100 I0.735 J-0.086 K0.000 F500.000
G3 X127.308 Y157.145 Z-0.100 I0.855 J0.060 K0.000 F500.000
G3 X128.239 Y157.550 Z-0.100 I0.022 J1.221 K0.000 F500.000
G3 X128.042 Y158.824 Z-0.100 I-0.810 J0.527 K0.000 F500.000
G3 X127.695 Y158.940 Z-0.100 I-0.427 J-0.701 K0.000 F500.000
G2 X127.556 Y159.323 Z-0.100 I0.036 J0.230 K0.000 F500.000
G2 X126.710 Y159.185 Z-0.100 I-0.537 J0.628 K0.000 F500.000
G2 X126.716 Y158.778 Z-0.100 I-0.123 J-0.205 K0.000 F500.000
G3 X126.278 Y158.187 Z-0.100 I0.298 J-0.678 K0.000 F500.000
G0 Z5.000
G0 X126.470 Y158.180 Z5.000
G0 X126.470 Y158.180 Z3.000
G1 X126.470 Y158.180 Z-0.100 F100.000
G3 X126.987 Y157.355 Z-0.100 I0.866 J-0.031 K0.000 F500.000
G3 X127.205 Y157.298 Z-0.100 I0.265 J0.565 K0.000 F500.000
G3 X127.449 Y159.008 Z-0.100 I0.106 J0.858 K0.000 F500.000
G3 X126.470 Y158.180 Z-0.100 I-0.113 J-0.860 K0.000 F500.000
G0 Z5.000
G0 X126.611 Y159.235 Z5.000
G0 X126.611 Y159.235 Z3.000
G1 X126.611 Y159.235 Z-0.100 F100.000
G2 X127.158 Y160.633 Z-0.100 I0.416 J0.643 K0.000 F500.000
G2 X127.652 Y159.428 Z-0.100 I-0.145 J-0.763 K0.000 F500.000
G3 X127.958 Y160.112 Z-0.100 I-0.266 J0.529 K0.000 F500.000
G3 X127.079 Y160.787 Z-0.100 I-0.771 J-0.094 K0.000 F500.000
G3 X126.116 Y160.261 Z-0.100 I-0.054 J-1.045 K0.000 F500.000
G3 X126.255 Y159.406 Z-0.100 I0.737 J-0.319 K0.000 F500.000
G3 X126.611 Y159.235 Z-0.100 I0.459 J0.500 K0.000 F500.000
G0 Z5.000
G0 Z5.000
G0 X126.611 Y159.235
G0 X137.447 Y163.477
G0 X137.447 Y163.477 Z3.000
G1 X137.447 Y163.477 Z-0.100 F100.000
G1 X136.948 Y169.180 Z-0.100 F500.000
G1 X137.447 Y163.477 Z-0.100 F500.000
G0 Z5.000
G0 Z5.000
G0 Z5.000
G0 X137.447 Y163.477
G0 X147.314 Y161.624
G0 X147.314 Y161.624 Z3.000
G1 X147.314 Y161.624 Z-0.100 F100.000
G3 X147.386 Y159.714 Z-0.100 I4.240 J-0.796 K0.000 F500.000
G3 X148.752 Y159.106 Z-0.100 I0.928 J0.246 K0.000 F500.000
G3 X149.260 Y159.809 Z-0.100 I-0.547 J0.930 K0.000 F500.000
G3 X149.236 Y161.964 Z-0.100 I-4.246 J1.031 K0.000 F500.000
G3 X147.387 Y161.947 Z-0.100 I-0.922 J-0.259 K0.000 F500.000
G3 X147.314 Y161.624 Z-0.100 I4.166 J-1.120 K0.000 F500.000
G0 Z5.000
G0 X147.419 Y161.599 Z5.000
G0 X147.419 Y161.599 Z3.000
G1 X147.419 Y161.599 Z-0.100 F100.000
G3 X147.365 Y160.846 Z-0.100 I2.313 J-0.544 K0.000 F500.000
G3 X147.466 Y159.878 Z-0.100 I3.569 J-0.115 K0.000 F500.000
G3 X147.574 Y159.608 Z-0.100 I0.982 J0.235 K0.000 F500.000
G2 X147.447 Y161.524 Z-0.100 I4.122 J1.234 K0.000 F500.000
G2 X147.569 Y162.039 Z-0.100 I2.179 J-0.243 K0.000 F500.000
G3 X147.419 Y161.599 Z-0.100 I2.162 J-0.985 K0.000 F500.000
G0 Z5.000
G0 X147.596 Y161.570 Z5.000
G0 X147.596 Y161.570 Z3.000
G1 X147.596 Y161.570 Z-0.100 F100.000
G3 X147.664 Y159.709 Z-0.100 I4.706 J-0.762 K0.000 F500.000
G3 X148.099 Y159.222 Z-0.100 I0.696 J0.184 K0.000 F500.000
G3 X148.930 Y159.654 Z-0.100 I0.212 J0.608 K0.000 F500.000
G3 X148.954 Y161.988 Z-0.100 I-4.591 J1.213 K0.000 F500.000
G3 X147.693 Y162.024 Z-0.100 I-0.635 J-0.150 K0.000 F500.000
G3 X147.596 Y161.570 Z-0.100 I4.610 J-1.215 K0.000 F500.000
G0 Z5.000
G0 X149.105 Y161.893 Z5.000
G0 X149.105 Y161.893 Z3.000
G1 X149.105 Y161.893 Z-0.100 F100.000
G2 X149.055 Y159.644 Z-0.100 I-4.762 J-1.020 K0.000 F500.000
G3 X149.258 Y160.828 Z-0.100 I-2.461 J1.032 K0.000 F500.000
G3 X149.156 Y161.799 Z-0.100 I-3.569 J0.116 K0.000 F500.000
G3 X149.080 Y162.002 Z-0.100 I-0.741 J-0.161 K0.000 F500.000
G2 X149.105 Y161.893 Z-0.100 I-4.738 J-1.129 K0.000 F500.000
G0 Z5.000
G0 Z5.000
G0 X149.105 Y161.893
G0 X148.361 Y160.904
G0 X148.361 Y160.904 Z3.000
G1 X148.361 Y160.904 Z-0.100 F100.000
G3 X148.254 Y160.897 Z-0.100 I-0.049 J-0.066 K0.000 F500.000
G3 X148.254 Y160.781 Z-0.100 I0.058 J-0.058 K0.000 F500.000
G3 X148.371 Y160.781 Z-0.100 I0.058 J0.058 K0.000 F500.000
G3 X148.361 Y160.904 Z-0.100 I-0.060 J0.057 K0.000 F500.000
G0 Z5.000
G0 Z5.000
G0 X148.361 Y160.904
G0 X150.565 Y160.883
G0 X150.565 Y160.883 Z3.000
G1 X150.565 Y160.883 Z-0.100 F100.000
G3 X150.649 Y159.975 Z-0.100 I4.481 J-0.043 K0.000 F500.000
G3 X151.924 Y158.972 Z-0.100 I1.169 J0.173 K0.000 F500.000
G3 X152.465 Y159.063 Z-0.100 I0.020 J1.523 K0.000 F500.000
G1 X152.465 Y159.210 Z-0.100 F500.000
G2 X151.263 Y159.323 Z-0.100 I-0.498 J1.166 K0.000 F500.000
G2 X150.831 Y160.611 Z-0.100 I1.008 J1.055 K0.000 F500.000
G2 X151.361 Y160.540 Z-0.100 I0.246 J-0.176 K0.000 F500.000
G3 X152.662 Y160.991 Z-0.100 I0.484 J0.705 K0.000 F500.000
G3 X152.459 Y162.326 Z-0.100 I-1.471 J0.460 K0.000 F500.000
G3 X151.379 Y162.578 Z-0.100 I-0.760 J-0.815 K0.000 F500.000
G3 X150.643 Y161.674 Z-0.100 I0.266 J-0.969 K0.000 F500.000
G3 X150.565 Y160.883 Z-0.100 I4.403 J-0.834 K0.000 F500.000
G0 Z5.000
G0 X150.688 Y160.884 Z5.000
G0 X150.688 Y160.884 Z3.000
G1 X150.688 Y160.884 Z-0.100 F100.000
G3 X150.701 Y160.604 Z-0.100 I3.432 J0.025 K0.000 F500.000
G2 X150.948 Y160.860 Z-0.100 I0.342 J-0.083 K0.000 F500.000
G2 X150.824 Y161.868 Z-0.100 I1.425 J0.686 K0.000 F500.000
G3 X150.688 Y160.884 Z-0.100 I3.295 J-0.959 K0.000 F500.000
G0 Z5.000
G0 X151.003 Y161.016 Z5.000
G0 X151.003 Y161.016 Z3.000
G1 X151.003 Y161.016 Z-0.100 F100.000
G3 X151.369 Y160.627 Z-0.100 I0.702 J0.294 K0.000 F500.000
G3 X152.309 Y160.893 Z-0.100 I0.312 J0.689 K0.000 F500.000
G3 X152.424 Y161.925 Z-0.100 I-1.138 J0.649 K0.000 F500.000
G3 X151.074 Y162.179 Z-0.100 I-0.729 J-0.160 K0.000 F500.000
G3 X150.962 Y161.148 Z-0.100 I1.153 J-0.648 K0.000 F500.000
G3 X151.003 Y161.016 Z-0.100 I0.744 J0.161 K0.000 F500.000
G0 Z5.000
G0 X152.232 Y160.624 Z5.000
G0 X152.232 Y160.624 Z3.000
G1 X152.232 Y160.624 Z-0.100 F100.000
G3 X152.589 Y161.288 Z-0.100 I-0.394 J0.639 K0.000 F500.000
G3 X152.594 Y161.487 Z-0.100 I-0.890 J0.123 K0.000 F500.000
G2 X152.232 Y160.624 Z-0.100 I-1.047 J-0.068 K0.000 F500.000
G0 Z5.000
G0 X152.582 Y161.675 Z5.000
G0 X152.582 Y161.675 Z3.000
G1 X152.582 Y161.675 Z-0.100 F100.000
G3 X152.571 Y161.762 Z-0.100 I-0.261 J0.010 K0.000 F500.000
G1 X152.582 Y161.675 Z-0.100 F500.000
G0 Z5.000
G0 Z5.000
G0 Z5.000
G0 X152.582 Y161.675
G0 X175.010 Y161.837
G0 X175.010 Y161.837 Z3.000
G1 X175.010 Y161.837 Z-0.100 F100.000
G1 X176.004 Y167.475 Z-0.100 F500.000
G1 X176.004 Y167.475 Z-0.100 F500.000
G1 X175.010 Y161.837 Z-0.100 F500.000
G0 Z5.000
G0 Z5.000
G0 X175.010 Y161.837
G0 X173.672 Y160.505
G0 X173.672 Y160.505 Z3.000
G1 X173.672 Y160.505 Z-0.100 F100.000
G3 X172.123 Y160.229 Z-0.100 I-0.679 J-0.676 K0.000 F500.000
G3 X171.733 Y158.030 Z-0.100 I3.908 J-1.826 K0.000 F500.000
G3 X173.041 Y157.217 Z-0.100 I0.965 J0.094 K0.000 F500.000
G3 X173.698 Y158.037 Z-0.100 I-0.733 J1.261 K0.000 F500.000
G3 X173.946 Y159.925 Z-0.100 I-3.666 J1.442 K0.000 F500.000
G3 X173.672 Y160.505 Z-0.100 I-0.953 J-0.095 K0.000 F500.000
G0 Z5.000
G0 X173.521 Y160.379 Z5.000
G0 X173.521 Y160.379 Z3.000
G1 X173.521 Y160.379 Z-0.100 F100.000
G3 X172.436 Y160.251 Z-0.100 I-0.500 J-0.419 K0.000 F500.000
G3 X172.006 Y157.976 Z-0.100 I4.329 J-1.997 K0.000 F500.000
G3 X172.350 Y157.421 Z-0.100 I0.718 J0.061 K0.000 F500.000
G3 X173.244 Y157.703 Z-0.100 I0.315 J0.562 K0.000 F500.000
G3 X173.672 Y159.997 Z-0.100 I-4.311 J1.992 K0.000 F500.000
G3 X173.521 Y160.379 Z-0.100 I-0.652 J-0.037 K0.000 F500.000
G0 Z5.000
G0 X173.799 Y159.989 Z5.000
G0 X173.799 Y159.989 Z3.000
G1 X173.799 Y159.989 Z-0.100 F100.000
G2 X173.365 Y157.671 Z-0.100 I-4.862 J-0.289 K0.000 F500.000
G3 X173.770 Y158.802 Z-0.100 I-2.245 J1.443 K0.000 F500.000
G3 X173.839 Y159.776 Z-0.100 I-3.495 J0.734 K0.000 F500.000
G3 X173.799 Y159.989 Z-0.100 I-0.758 J-0.030 K0.000 F500.000
G0 Z5.000
G0 X172.318 Y160.288 Z5.000
G0 X172.318 Y160.288 Z3.000
G1 X172.318 Y160.288 Z-0.100 F100.000
G3 X171.909 Y159.148 Z-0.100 I1.959 J-1.345 K0.000 F500.000
G3 X171.841 Y158.178 Z-0.100 I3.495 J-0.733 K0.000 F500.000
G3 X171.900 Y157.893 Z-0.100 I1.008 J0.061 K0.000 F500.000
G2 X172.108 Y159.801 Z-0.100 I4.274 J0.499 K0.000 F500.000
G2 X172.318 Y160.288 Z-0.100 I2.104 J-0.617 K0.000 F500.000
G0 Z5.000
G0 Z5.000
G0 X172.318 Y160.288
G0 X172.809 Y159.052
G0 X172.809 Y159.052 Z3.000
G1 X172.809 Y159.052 Z-0.100 F100.000
G3 X172.793 Y159.044 Z-0.100 I0.030 J-0.076 K0.000 F500.000
G3 X172.774 Y158.929 Z-0.100 I0.047 J-0.067 K0.000 F500.000
G3 X172.889 Y158.910 Z-0.100 I0.067 J0.048 K0.000 F500.000
G3 X172.809 Y159.052 Z-0.100 I-0.049 J0.066 K0.000 F500.000
G0 Z5.000
G0 Z5.000
G0 X172.809 Y159.052
G0 X174.972 Y157.966
G0 X174.972 Y157.966 Z3.000
G1 X174.972 Y157.966 Z-0.100 F100.000
G3 X174.897 Y157.717 Z-0.100 I0.662 J-0.332 K0.000 F500.000
G3 X175.583 Y156.635 Z-0.100 I0.824 J-0.236 K0.000 F500.000
G3 X176.422 Y156.614 Z-0.100 I0.453 J1.338 K0.000 F500.000
G3 X176.847 Y157.962 Z-0.100 I-0.382 J0.861 K0.000 F500.000
G3 X176.561 Y158.190 Z-0.100 I-0.641 J-0.512 K0.000 F500.000
G2 X176.561 Y158.597 Z-0.100 I0.113 J0.203 K0.000 F500.000
G2 X175.719 Y158.757 Z-0.100 I-0.290 J0.773 K0.000 F500.000
G2 X175.585 Y158.372 Z-0.100 I-0.186 J-0.151 K0.000 F500.000
G3 X174.972 Y157.966 Z-0.100 I0.048 J-0.739 K0.000 F500.000
G0 Z5.000
G0 X175.155 Y157.892 Z5.000
G0 X175.155 Y157.892 Z3.000
G1 X175.155 Y157.892 Z-0.100 F100.000
G3 X175.538 Y156.814 Z-0.100 I0.802 J-0.322 K0.000 F500.000
G3 X176.353 Y158.338 Z-0.100 I0.393 J0.770 K0.000 F500.000
G3 X175.155 Y157.892 Z-0.100 I-0.397 J-0.768 K0.000 F500.000
G0 Z5.000
G0 X175.642 Y158.838 Z5.000
G0 X175.642 Y158.838 Z3.000
G1 X175.642 Y158.838 Z-0.100 F100.000
G2 X176.635 Y159.964 Z-0.100 I0.611 J0.462 K0.000 F500.000
G2 X176.687 Y158.662 Z-0.100 I-0.397 J-0.668 K0.000 F500.000
G3 X177.209 Y159.201 Z-0.100 I-0.069 J0.589 K0.000 F500.000
G3 X176.613 Y160.136 Z-0.100 I-0.756 J0.175 K0.000 F500.000
G3 X175.529 Y159.971 Z-0.100 I-0.409 J-0.963 K0.000 F500.000
G3 X175.367 Y159.120 Z-0.100 I0.584 J-0.552 K0.000 F500.000
G3 X175.642 Y158.838 Z-0.100 I0.602 J0.313 K0.000 F500.000
G0 Z5.000
G0 Z5.000
G0 Z5.000
G0 X175.642 Y158.838
G0 X199.259 Y155.339
G0 X199.259 Y155.339 Z3.000
G1 X199.259 Y155.339 Z-0.100 F100.000
G1 X201.218 Y160.719 Z-0.100 F500.000
G1 X201.218 Y160.719 Z-0.100 F500.000
G1 X199.259 Y155.339 Z-0.100 F500.000
G1 X199.259 Y155.339 Z-0.100 F500.000
G0 Z5.000
G0 Z5.000
G0 X199.259 Y155.339
G0 X197.725 Y154.259
G0 X197.725 Y154.259 Z3.000
G1 X197.725 Y154.259 Z-0.100 F100.000
G3 X196.153 Y154.252 Z-0.100 I-0.783 J-0.551 K0.000 F500.000
G3 X195.388 Y152.155 Z-0.100 I3.532 J-2.477 K0.000 F500.000
G3 X196.780 Y151.222 Z-0.100 I0.955 J-0.081 K0.000 F500.000
G3 X197.467 Y152.091 Z-0.100 I-1.154 J1.619 K0.000 F500.000
G3 X197.896 Y153.636 Z-0.100 I-3.384 J1.773 K0.000 F500.000
G3 X197.725 Y154.259 Z-0.100 I-0.955 J0.072 K0.000 F500.000
G0 Z5.000
G0 X197.555 Y154.160 Z5.000
G0 X197.555 Y154.160 Z3.000
G1 X197.555 Y154.160 Z-0.100 F100.000
G3 X196.466 Y154.220 Z-0.100 I-0.564 J-0.328 K0.000 F500.000
G3 X195.647 Y152.054 Z-0.100 I3.916 J-2.719 K0.000 F500.000
G3 X196.118 Y151.329 Z-0.100 I0.685 J-0.070 K0.000 F500.000
G3 X196.819 Y151.570 Z-0.100 I0.178 J0.620 K0.000 F500.000
G3 X197.639 Y153.755 Z-0.100 I-3.900 J2.710 K0.000 F500.000
G3 X197.555 Y154.160 Z-0.100 I-0.648 J0.077 K0.000 F500.000
G0 Z5.000
G0 X197.763 Y153.725 Z5.000
G0 X197.763 Y153.725 Z3.000
G1 X197.763 Y153.725 Z-0.100 F100.000
G2 X196.932 Y151.517 Z-0.100 I-4.838 J0.559 K0.000 F500.000
G3 X197.529 Y152.561 Z-0.100 I-1.960 J1.811 K0.000 F500.000
G3 X197.765 Y153.508 Z-0.100 I-3.315 J1.330 K0.000 F500.000
G3 X197.763 Y153.725 Z-0.100 I-0.751 J0.102 K0.000 F500.000
G0 Z5.000
G0 X196.356 Y154.276 Z5.000
G0 X196.356 Y154.276 Z3.000
G1 X196.356 Y154.276 Z-0.100 F100.000
G3 X195.756 Y153.225 Z-0.100 I1.695 J-1.665 K0.000 F500.000
G3 X195.520 Y152.281 Z-0.100 I3.315 J-1.329 K0.000 F500.000
G3 X195.529 Y151.991 Z-0.100 I1.003 J-0.115 K0.000 F500.000
G2 X196.065 Y153.834 Z-0.100 I4.296 J-0.251 K0.000 F500.000
G2 X196.356 Y154.276 Z-0.100 I1.964 J-0.973 K0.000 F500.000
G0 Z5.000
G0 Z5.000
G0 X196.356 Y154.276
G0 X196.624 Y152.974
G0 X196.624 Y152.974 Z3.000
G1 X196.624 Y152.974 Z-0.100 F100.000
G3 X196.581 Y152.950 Z-0.100 I0.017 J-0.082 K0.000 F500.000
G3 X196.703 Y152.837 Z-0.100 I0.064 J-0.053 K0.000 F500.000
G3 X196.624 Y152.974 Z-0.100 I-0.062 J0.055 K0.000 F500.000
G0 Z5.000
G0 Z5.000
G0 X196.624 Y152.974
G0 X199.340 Y153.033
G0 X199.340 Y153.033 Z3.000
G1 X199.340 Y153.033 Z-0.100 F100.000
G1 X199.405 Y150.012 Z-0.100 F500.000
G1 X199.658 Y149.919 Z-0.100 F500.000
G1 X199.588 Y153.102 Z-0.100 F500.000
G2 X199.925 Y153.342 Z-0.100 I0.250 J0.005 K0.000 F500.000
G1 X201.256 Y152.850 Z-0.100 F500.000
G1 X201.324 Y153.034 Z-0.100 F500.000
G1 X199.421 Y153.737 Z-0.100 F500.000
G1 X199.330 Y153.491 Z-0.100 F500.000
G1 X199.340 Y153.033 Z-0.100 F500.000
G0 Z5.000
G0 X199.465 Y153.036 Z5.000
G0 X199.465 Y153.036 Z3.000
G1 X199.465 Y153.036 Z-0.100 F100.000
G1 X199.529 Y150.100 Z-0.100 F500.000
G1 X199.529 Y150.100 Z-0.100 F500.000
G1 X199.464 Y153.099 Z-0.100 F500.000
G2 X199.788 Y153.469 Z-0.100 I0.351 J0.019 K0.000 F500.000
G1 X199.495 Y153.577 Z-0.100 F500.000
G1 X199.455 Y153.470 Z-0.100 F500.000
G1 X199.465 Y153.036 Z-0.100 F500.000
G0 Z5.000
G0 Z5.000
G0 X199.465 Y153.036
G0 X210.871 Y150.538
G0 X210.871 Y150.538 Z3.000
G1 X210.871 Y150.538 Z-0.100 F100.000
G1 X213.287 Y155.720 Z-0.100 F500.000
G1 X210.871 Y150.538 Z-0.100 F500.000
G1 X210.871 Y150.538 Z-0.100 F500.000
G0 Z5.000
G0 Z5.000
G0 Z5.000
G0 X210.871 Y150.538
G0 X218.529 Y143.965
G0 X218.529 Y143.965 Z3.000
G1 X218.529 Y143.965 Z-0.100 F100.000
G3 X217.636 Y142.275 Z-0.100 I3.273 J-2.810 K0.000 F500.000
G3 X218.950 Y141.160 Z-0.100 I0.928 J-0.237 K0.000 F500.000
G3 X219.923 Y142.242 Z-0.100 I-1.503 J2.331 K0.000 F500.000
G3 X220.332 Y143.161 Z-0.100 I-3.128 J1.941 K0.000 F500.000
G3 X220.179 Y144.157 Z-0.100 I-0.928 J0.368 K0.000 F500.000
G3 X218.754 Y144.207 Z-0.100 I-0.734 J-0.595 K0.000 F500.000
G3 X218.529 Y143.965 Z-0.100 I3.048 J-3.053 K0.000 F500.000
G0 Z5.000
G0 X218.607 Y143.891 Z5.000
G0 X218.607 Y143.891 Z3.000
G1 X218.607 Y143.891 Z-0.100 F100.000
G3 X218.184 Y143.265 Z-0.100 I1.730 J-1.628 K0.000 F500.000
G3 X217.788 Y142.376 Z-0.100 I3.034 J-1.884 K0.000 F500.000
G3 X217.746 Y142.089 Z-0.100 I0.968 J-0.287 K0.000 F500.000
G2 X218.594 Y143.811 Z-0.100 I4.187 J-0.993 K0.000 F500.000
G2 X218.957 Y144.196 Z-0.100 I1.766 J-1.299 K0.000 F500.000
G3 X218.607 Y143.891 Z-0.100 I1.380 J-1.934 K0.000 F500.000
G0 Z5.000
G0 X218.747 Y143.777 Z5.000
G0 X218.747 Y143.777 Z3.000
G1 X218.747 Y143.777 Z-0.100 F100.000
G3 X217.874 Y142.131 Z-0.100 I3.694 J-3.013 K0.000 F500.000
G3 X218.358 Y141.285 Z-0.100 I0.633 J-0.199 K0.000 F500.000
G3 X218.943 Y141.450 Z-0.100 I0.122 J0.686 K0.000 F500.000
G3 X220.131 Y143.460 Z-0.100 I-3.370 J3.346 K0.000 F500.000
G3 X219.056 Y144.121 Z-0.100 I-0.625 J0.188 K0.000 F500.000
G3 X218.747 Y143.777 Z-0.100 I3.385 J-3.357 K0.000 F500.000
G0 Z5.000
G0 X220.214 Y143.303 Z5.000
G0 X220.214 Y143.303 Z3.000
G1 X220.214 Y143.303 Z-0.100 F100.000
G2 X219.046 Y141.379 Z-0.100 I-4.635 J1.497 K0.000 F500.000
G3 X219.814 Y142.303 Z-0.100 I-1.616 J2.124 K0.000 F500.000
G3 X220.211 Y143.195 Z-0.100 I-3.033 J1.885 K0.000 F500.000
G3 X220.247 Y143.409 Z-0.100 I-0.722 J0.231 K0.000 F500.000
G2 X220.214 Y143.303 Z-0.100 I-4.668 J1.391 K0.000 F500.000
G0 Z5.000
G0 Z5.000
G0 X220.214 Y143.303
G0 X219.074 Y142.815
G0 X219.074 Y142.815 Z3.000
G1 X219.074 Y142.815 Z-0.100 F100.000
G3 X219.041 Y142.852 Z-0.100 I-0.073 J-0.031 K0.000 F500.000
G3 X218.949 Y142.721 Z-0.100 I-0.042 J-0.068 K0.000 F500.000
G1 X218.999 Y142.704 Z-0.100 F500.000
G3 X219.074 Y142.815 Z-0.100 I0.002 J0.079 K0.000 F500.000
G0 Z5.000
G0 Z5.000
G0 X219.074 Y142.815
G0 X220.734 Y141.356
G0 X220.734 Y141.356 Z3.000
G1 X220.734 Y141.356 Z-0.100 F100.000
G3 X220.353 Y140.209 Z-0.100 I1.163 J-1.023 K0.000 F500.000
G3 X221.158 Y139.450 Z-0.100 I1.061 J0.318 K0.000 F500.000
G3 X221.781 Y139.486 Z-0.100 I0.268 J0.759 K0.000 F500.000
G3 X222.366 Y140.003 Z-0.100 I-0.928 J1.641 K0.000 F500.000
G3 X223.096 Y141.339 Z-0.100 I-3.026 J2.521 K0.000 F500.000
G3 X222.496 Y142.851 Z-0.100 I-1.098 J0.439 K0.000 F500.000
G3 X221.981 Y143.041 Z-0.100 I-0.759 J-1.266 K0.000 F500.000
G1 X221.903 Y142.908 Z-0.100 F500.000
G2 X222.950 Y142.013 Z-0.100 I-0.072 J-1.145 K0.000 F500.000
G2 X222.621 Y140.884 Z-0.100 I-1.527 J-0.168 K0.000 F500.000
G2 X222.199 Y141.212 Z-0.100 I-0.124 J0.276 K0.000 F500.000
G3 X220.847 Y141.471 Z-0.100 I-0.772 J-0.369 K0.000 F500.000
G3 X220.734 Y141.356 Z-0.100 I1.050 J-1.138 K0.000 F500.000
G0 Z5.000
G0 X220.830 Y141.281 Z5.000
G0 X220.830 Y141.281 Z3.000
G1 X220.830 Y141.281 Z-0.100 F100.000
G3 X220.761 Y141.178 Z-0.100 I0.633 J-0.496 K0.000 F500.000
G3 X220.660 Y141.014 Z-0.100 I0.684 J-0.535 K0.000 F500.000
G2 X221.340 Y141.580 Z-0.100 I1.020 J-0.534 K0.000 F500.000
G3 X220.830 Y141.281 Z-0.100 I0.123 J-0.795 K0.000 F500.000
G0 Z5.000
G0 X220.933 Y141.182 Z5.000
G0 X220.933 Y141.182 Z3.000
G1 X220.933 Y141.182 Z-0.100 F100.000
G3 X220.599 Y140.566 Z-0.100 I0.942 J-0.908 K0.000 F500.000
G3 X221.060 Y139.636 Z-0.100 I0.698 J-0.233 K0.000 F500.000
G3 X221.643 Y139.670 Z-0.100 I0.254 J0.651 K0.000 F500.000
G3 X222.256 Y140.507 Z-0.100 I-0.677 J1.139 K0.000 F500.000
G3 X221.215 Y141.403 Z-0.100 I-0.709 J0.229 K0.000 F500.000
G3 X220.933 Y141.182 Z-0.100 I0.660 J-1.130 K0.000 F500.000
G0 Z5.000
G0 X220.597 Y140.887 Z5.000
G0 X220.597 Y140.887 Z3.000
G1 X220.597 Y140.887 Z-0.100 F100.000
G3 X220.529 Y140.722 Z-0.100 I0.444 J-0.281 K0.000 F500.000
G1 X220.597 Y140.887 Z-0.100 F500.000
G0 Z5.000
G0 X221.961 Y139.756 Z5.000
G0 X221.961 Y139.756 Z3.000
G1 X221.961 Y139.756 Z-0.100 F100.000
G3 X222.738 Y140.826 Z-0.100 I-2.116 J2.353 K0.000 F500.000
G2 X222.411 Y140.728 Z-0.100 I-0.247 J0.228 K0.000 F500.000
G2 X221.961 Y139.756 Z-0.100 I-1.586 J0.144 K0.000 F500.000
G0 Z5.000
G0 Z5.000
G0 Z5.000
G0 X221.961 Y139.756
G0 X238.000 Y129.311
G0 X238.000 Y129.311 Z3.000
G1 X238.000 Y129.311 Z-0.100 F100.000
G3 X237.704 Y128.778 Z-0.100 I3.615 J-2.354 K0.000 F500.000
G3 X238.807 Y127.453 Z-0.100 I0.874 J-0.394 K0.000 F500.000
G3 X239.951 Y128.351 Z-0.100 I-1.079 J2.555 K0.000 F500.000
G3 X240.512 Y129.186 Z-0.100 I-2.747 J2.450 K0.000 F500.000
G3 X240.533 Y130.194 Z-0.100 I-0.851 J0.522 K0.000 F500.000
G3 X239.138 Y130.489 Z-0.100 I-0.826 J-0.460 K0.000 F500.000
G3 X238.000 Y129.311 Z-0.100 I2.477 J-3.532 K0.000 F500.000
G0 Z5.000
G0 X238.097 Y129.247 Z5.000
G0 X238.097 Y129.247 Z3.000
G1 X238.097 Y129.247 Z-0.100 F100.000
G3 X237.871 Y128.851 Z-0.100 I2.981 J-1.967 K0.000 F500.000
G3 X237.780 Y128.575 Z-0.100 I0.904 J-0.450 K0.000 F500.000
G2 X238.912 Y130.125 Z-0.100 I3.954 J-1.699 K0.000 F500.000
G2 X239.336 Y130.443 Z-0.100 I1.515 J-1.584 K0.000 F500.000
G3 X238.414 Y129.659 Z-0.100 I1.027 J-2.143 K0.000 F500.000
G3 X238.097 Y129.247 Z-0.100 I2.664 J-2.379 K0.000 F500.000
G0 Z5.000
G0 X238.240 Y129.150 Z5.000
G0 X238.240 Y129.150 Z3.000
G1 X238.240 Y129.150 Z-0.100 F100.000
G3 X237.913 Y128.595 Z-0.100 I3.937 J-2.688 K0.000 F500.000
G3 X238.312 Y127.653 Z-0.100 I0.591 J-0.305 K0.000 F500.000
G3 X238.850 Y127.740 Z-0.100 I0.155 J0.747 K0.000 F500.000
G3 X240.365 Y129.515 Z-0.100 I-2.743 J3.877 K0.000 F500.000
G3 X239.421 Y130.352 Z-0.100 I-0.583 J0.293 K0.000 F500.000
G3 X238.240 Y129.150 Z-0.100 I2.756 J-3.890 K0.000 F500.000
G0 Z5.000
G0 X239.291 Y127.928 Z5.000
G0 X239.291 Y127.928 Z3.000
G1 X239.291 Y127.928 Z-0.100 F100.000
G2 X238.939 Y127.652 Z-0.100 I-3.178 J3.691 K0.000 F500.000
G3 X239.855 Y128.431 Z-0.100 I-1.226 J2.371 K0.000 F500.000
G3 X240.399 Y129.240 Z-0.100 I-2.663 J2.379 K0.000 F500.000
G3 X240.471 Y129.445 Z-0.100 I-0.672 J0.352 K0.000 F500.000
G2 X239.291 Y127.928 Z-0.100 I-4.358 J2.174 K0.000 F500.000
G0 Z5.000
G0 Z5.000
G0 X239.291 Y127.928
G0 X239.146 Y128.964
G0 X239.146 Y128.964 Z3.000
G1 X239.146 Y128.964 Z-0.100 F100.000
G3 X239.158 Y128.967 Z-0.100 I-0.011 J0.081 K0.000 F500.000
G1 X239.195 Y128.995 Z-0.100 F500.000
G3 X239.110 Y129.123 Z-0.100 I-0.056 J0.055 K0.000 F500.000
G3 X239.146 Y128.964 Z-0.100 I0.024 J-0.078 K0.000 F500.000
G0 Z5.000
G0 Z5.000
G0 X239.146 Y128.964
G0 X240.570 Y127.206
G0 X240.570 Y127.206 Z3.000
G1 X240.570 Y127.206 Z-0.100 F100.000
G3 X240.225 Y125.900 Z-0.100 I0.721 J-0.889 K0.000 F500.000
G3 X241.337 Y124.954 Z-0.100 I1.928 J1.138 K0.000 F500.000
G1 X241.443 Y125.079 Z-0.100 F500.000
G2 X240.528 Y125.790 Z-0.100 I0.630 J1.754 K0.000 F500.000
G2 X241.745 Y127.087 Z-0.100 I0.799 J0.469 K0.000 F500.000
G2 X242.366 Y126.527 Z-0.100 I-0.819 J-1.533 K0.000 F500.000
G1 X242.416 Y126.440 Z-0.100 F500.000
G1 X243.466 Y127.683 Z-0.100 F500.000
G1 X242.188 Y128.762 Z-0.100 F500.000
G1 X242.061 Y128.612 Z-0.100 F500.000
G1 X243.041 Y127.784 Z-0.100 F500.000
G2 X243.071 Y127.432 Z-0.100 I-0.161 J-0.191 K0.000 F500.000
G1 X242.592 Y126.865 Z-0.100 F500.000
G2 X242.196 Y126.883 Z-0.100 I-0.191 J0.161 K0.000 F500.000
G3 X240.931 Y127.403 Z-0.100 I-0.964 J-0.547 K0.000 F500.000
G3 X240.570 Y127.206 Z-0.100 I0.360 J-1.087 K0.000 F500.000
G0 Z5.000
G0 X240.656 Y127.096 Z5.000
G0 X240.656 Y127.096 Z3.000
G1 X240.656 Y127.096 Z-0.100 F100.000
G3 X240.259 Y126.298 Z-0.100 I0.638 J-0.815 K0.000 F500.000
G2 X241.395 Y127.311 Z-0.100 I1.071 J-0.057 K0.000 F500.000
G3 X240.656 Y127.096 Z-0.100 I-0.100 J-1.030 K0.000 F500.000
G0 Z5.000
G0 X240.260 Y126.232 Z5.000
G0 X240.260 Y126.232 Z3.000
G1 X240.260 Y126.232 Z-0.100 F100.000
G3 X240.262 Y126.194 Z-0.100 I0.121 J-0.011 K0.000 F500.000
G1 X240.260 Y126.232 Z-0.100 F500.000
G0 Z5.000
G0 X242.424 Y126.658 Z5.000
G0 X242.424 Y126.658 Z3.000
G1 X242.424 Y126.658 Z-0.100 F100.000
G2 X242.430 Y126.650 Z-0.100 I-0.034 J-0.033 K0.000 F500.000
G1 X242.440 Y126.661 Z-0.100 F500.000
G1 X242.424 Y126.658 Z-0.100 F500.000
G0 Z5.000
G0 X243.248 Y127.618 Z5.000
G0 X243.248 Y127.618 Z3.000
G1 X243.248 Y127.618 Z-0.100 F100.000
G3 X243.227 Y127.721 Z-0.100 I-0.010 J0.052 K0.000 F500.000
G1 X243.248 Y127.618 Z-0.100 F500.000
G0 Z5.000
G0 Z5.000
G0 X243.248 Y127.618
G0 X242.577 Y130.329
G0 X242.577 Y130.329 Z3.000
G1 X242.577 Y130.329 Z-0.100 F100.000
G1 X246.257 Y134.715 Z-0.100 F500.000
G1 X242.577 Y130.329 Z-0.100 F500.000
G1 X242.577 Y130.329 Z-0.100 F500.000
G0 Z5.000
G0 Z5.000
G0 Z5.000
G0 X242.577 Y130.329
G0 X256.214 Y112.755
G0 X256.214 Y112.755 Z3.000
G1 X256.214 Y112.755 Z-0.100 F100.000
G3 X255.327 Y111.824 Z-0.100 I2.644 J-3.408 K0.000 F500.000
G3 X256.532 Y110.419 Z-0.100 I0.791 J-0.541 K0.000 F500.000
G3 X258.240 Y111.852 Z-0.100 I-1.817 J3.898 K0.000 F500.000
G3 X257.038 Y113.257 Z-0.100 I-0.791 J0.540 K0.000 F500.000
G3 X256.214 Y112.755 Z-0.100 I1.820 J-3.911 K0.000 F500.000
G0 Z5.000
G0 X256.289 Y112.669 Z5.000
G0 X256.289 Y112.669 Z3.000
G1 X256.289 Y112.669 Z-0.100 F100.000
G3 X256.180 Y112.567 Z-0.100 I1.572 J-1.782 K0.000 F500.000
G3 X255.504 Y111.867 Z-0.100 I2.206 J-2.808 K0.000 F500.000
G3 X255.366 Y111.611 Z-0.100 I0.811 J-0.601 K0.000 F500.000
G2 X256.752 Y112.939 Z-0.100 I3.595 J-2.365 K0.000 F500.000
G2 X257.225 Y113.177 Z-0.100 I1.215 J-1.825 K0.000 F500.000
G3 X256.289 Y112.669 Z-0.100 I0.636 J-2.289 K0.000 F500.000
G0 Z5.000
G0 X256.401 Y112.525 Z5.000
G0 X256.401 Y112.525 Z3.000
G1 X256.401 Y112.525 Z-0.100 F100.000
G3 X255.501 Y111.607 Z-0.100 I2.924 J-3.765 K0.000 F500.000
G3 X255.773 Y110.591 Z-0.100 I0.520 J-0.405 K0.000 F500.000
G3 X256.273 Y110.602 Z-0.100 I0.234 J0.777 K0.000 F500.000
G3 X258.076 Y112.084 Z-0.100 I-2.022 J4.297 K0.000 F500.000
G3 X257.293 Y113.073 Z-0.100 I-0.523 J0.390 K0.000 F500.000
G3 X256.401 Y112.525 Z-0.100 I2.032 J-4.313 K0.000 F500.000
G0 Z5.000
G0 X257.521 Y111.284 Z5.000
G0 X257.521 Y111.284 Z3.000
G1 X257.521 Y111.284 Z-0.100 F100.000
G2 X256.345 Y110.499 Z-0.100 I-3.263 J3.616 K0.000 F500.000
G3 X257.384 Y111.105 Z-0.100 I-0.792 J2.549 K0.000 F500.000
G3 X258.061 Y111.807 Z-0.100 I-2.206 J2.809 K0.000 F500.000
G3 X258.168 Y111.996 Z-0.100 I-0.600 J0.464 K0.000 F500.000
G2 X257.521 Y111.284 Z-0.100 I-3.910 J2.904 K0.000 F500.000
G0 Z5.000
G0 Z5.000
G0 X257.521 Y111.284
G0 X256.845 Y111.785
G0 X256.845 Y111.785 Z3.000
G1 X256.845 Y111.785 Z-0.100 F100.000
G3 X256.749 Y111.913 Z-0.100 I-0.067 J0.050 K0.000 F500.000
G3 X256.815 Y111.760 Z-0.100 I0.034 J-0.076 K0.000 F500.000
G3 X256.845 Y111.785 Z-0.100 I-0.036 J0.075 K0.000 F500.000
G0 Z5.000
G0 Z5.000
G0 X256.845 Y111.785
G0 X257.613 Y109.733
G0 X257.613 Y109.733 Z3.000
G1 X257.613 Y109.733 Z-0.100 F100.000
G1 X257.476 Y109.620 Z-0.100 F500.000
G2 X257.639 Y109.228 Z-0.100 I-0.161 J-0.297 K0.000 F500.000
G1 X257.565 Y109.122 Z-0.100 F500.000
G1 X257.094 Y108.730 Z-0.100 F500.000
G1 X257.259 Y108.532 Z-0.100 F500.000
G1 X257.730 Y108.923 Z-0.100 F500.000
G2 X258.082 Y108.891 Z-0.100 I0.160 J-0.192 K0.000 F500.000
G1 X258.936 Y107.864 Z-0.100 F500.000
G1 X259.277 Y108.147 Z-0.100 F500.000
G1 X260.067 Y110.629 Z-0.100 F500.000
G1 X259.785 Y110.968 Z-0.100 F500.000
G1 X258.086 Y109.555 Z-0.100 F500.000
G2 X257.734 Y109.588 Z-0.100 I-0.160 J0.192 K0.000 F500.000
G1 X257.613 Y109.733 Z-0.100 F500.000
G0 Z5.000
G0 X257.761 Y109.421 Z5.000
G0 X257.761 Y109.421 Z3.000
G1 X257.761 Y109.421 Z-0.100 F100.000
G2 X257.645 Y109.026 Z-0.100 I-0.345 J-0.114 K0.000 F500.000
G1 X257.270 Y108.714 Z-0.100 F500.000
G1 X257.275 Y108.708 Z-0.100 F500.000
G2 X257.799 Y109.095 Z-0.100 I1.110 J-0.954 K0.000 F500.000
G2 X258.055 Y109.057 Z-0.100 I0.089 J-0.285 K0.000 F500.000
G2 X258.171 Y109.453 Z-0.100 I0.345 J0.114 K0.000 F500.000
G1 X259.387 Y110.463 Z-0.100 F500.000
G2 X259.877 Y110.445 Z-0.100 I0.236 J-0.272 K0.000 F500.000
G1 X259.927 Y110.601 Z-0.100 F500.000
G1 X259.769 Y110.792 Z-0.100 F500.000
G1 X258.166 Y109.459 Z-0.100 F500.000
G2 X257.761 Y109.421 Z-0.100 I-0.226 J0.235 K0.000 F500.000
G0 Z5.000
G0 X257.898 Y109.252 Z5.000
G0 X257.898 Y109.252 Z3.000
G1 X257.898 Y109.252 Z-0.100 F100.000
G3 X257.890 Y109.224 Z-0.100 I0.016 J-0.020 K0.000 F500.000
G3 X257.926 Y109.254 Z-0.100 I0.012 J0.023 K0.000 F500.000
G3 X257.898 Y109.252 Z-0.100 I-0.012 J-0.023 K0.000 F500.000
G0 Z5.000
G0 X258.164 Y109.206 Z5.000
G0 X258.164 Y109.206 Z3.000
G1 X258.164 Y109.206 Z-0.100 F100.000
G3 X258.219 Y109.005 Z-0.100 I0.246 J-0.042 K0.000 F500.000
G1 X258.864 Y108.228 Z-0.100 F500.000
G3 X259.295 Y108.312 Z-0.100 I0.192 J0.160 K0.000 F500.000
G1 X259.865 Y110.099 Z-0.100 F500.000
G3 X259.467 Y110.367 Z-0.100 I-0.238 J0.076 K0.000 F500.000
G1 X258.251 Y109.357 Z-0.100 F500.000
G3 X258.164 Y109.206 Z-0.100 I0.160 J-0.192 K0.000 F500.000
G0 Z5.000
G0 Z5.000
G0 Z5.000
G0 Z5.000
G0 X258.164 Y109.206
G0 X270.120 Y92.704
G0 X270.120 Y92.704 Z3.000
G1 X270.120 Y92.704 Z-0.100 F100.000
G3 X269.599 Y92.259 Z-0.100 I2.531 J-3.493 K0.000 F500.000
G3 X270.545 Y90.668 Z-0.100 I0.686 J-0.669 K0.000 F500.000
G1 X270.620 Y90.685 Z-0.100 F500.000
G3 X272.473 Y91.786 Z-0.100 I-1.236 J4.191 K0.000 F500.000
G3 X271.532 Y93.377 Z-0.100 I-0.686 J0.668 K0.000 F500.000
G3 X270.120 Y92.704 Z-0.100 I1.119 J-4.166 K0.000 F500.000
G0 Z5.000
G0 X270.188 Y92.609 Z5.000
G0 X270.188 Y92.609 Z3.000
G1 X270.188 Y92.609 Z-0.100 F100.000
G3 X269.781 Y92.272 Z-0.100 I2.069 J-2.911 K0.000 F500.000
G3 X269.601 Y92.043 Z-0.100 I0.696 J-0.732 K0.000 F500.000
G2 X271.195 Y93.113 Z-0.100 I3.134 J-2.949 K0.000 F500.000
G2 X271.702 Y93.266 Z-0.100 I0.882 J-2.007 K0.000 F500.000
G3 X270.568 Y92.845 Z-0.100 I0.232 J-2.365 K0.000 F500.000
G3 X270.188 Y92.609 Z-0.100 I1.689 J-3.146 K0.000 F500.000
G0 Z5.000
G0 X270.287 Y92.466 Z5.000
G0 X270.287 Y92.466 Z3.000
G1 X270.287 Y92.466 Z-0.100 F100.000
G3 X269.733 Y92.016 Z-0.100 I2.723 J-3.913 K0.000 F500.000
G3 X269.895 Y90.938 Z-0.100 I0.434 J-0.486 K0.000 F500.000
G3 X270.321 Y90.893 Z-0.100 I0.296 J0.748 K0.000 F500.000
G3 X272.352 Y92.042 Z-0.100 I-1.252 J4.581 K0.000 F500.000
G3 X271.751 Y93.151 Z-0.100 I-0.448 J0.475 K0.000 F500.000
G3 X270.287 Y92.466 Z-0.100 I1.259 J-4.598 K0.000 F500.000
G0 Z5.000
G0 X270.895 Y90.956 Z5.000
G0 X270.895 Y90.956 Z3.000
G1 X270.895 Y90.956 Z-0.100 F100.000
G2 X270.374 Y90.779 Z-0.100 I-1.819 J4.518 K0.000 F500.000
G3 X271.501 Y91.198 Z-0.100 I-0.341 J2.647 K0.000 F500.000
G3 X272.290 Y91.772 Z-0.100 I-1.689 J3.147 K0.000 F500.000
G3 X272.428 Y91.940 Z-0.100 I-0.511 J0.560 K0.000 F500.000
G2 X270.895 Y90.956 Z-0.100 I-3.352 J3.534 K0.000 F500.000
G0 Z5.000
G0 Z5.000
G0 X270.895 Y90.956
G0 X271.016 Y91.942
G0 X271.016 Y91.942 Z3.000
G1 X271.016 Y91.942 Z-0.100 F100.000
G1 X271.030 Y91.940 Z-0.100 F500.000
G3 X271.057 Y92.101 Z-0.100 I0.004 J0.082 K0.000 F500.000
G3 X270.957 Y92.042 Z-0.100 I-0.021 J-0.080 K0.000 F500.000
G3 X271.016 Y91.942 Z-0.100 I0.080 J-0.021 K0.000 F500.000
G0 Z5.000
G0 Z5.000
G0 X271.016 Y91.942
G0 X271.609 Y89.723
G0 X271.609 Y89.723 Z3.000
G1 X271.609 Y89.723 Z-0.100 F100.000
G3 X270.924 Y88.815 Z-0.100 I0.238 J-0.892 K0.000 F500.000
G3 X271.173 Y88.113 Z-0.100 I1.815 J0.250 K0.000 F500.000
G3 X271.748 Y87.393 Z-0.100 I2.365 J1.297 K0.000 F500.000
G1 X271.899 Y87.479 Z-0.100 F500.000
G2 X271.184 Y88.570 Z-0.100 I1.348 J1.663 K0.000 F500.000
G2 X272.593 Y89.296 Z-0.100 I0.818 J0.143 K0.000 F500.000
G2 X272.891 Y88.869 Z-0.100 I-1.441 J-1.324 K0.000 F500.000
G1 X273.063 Y88.968 Z-0.100 F500.000
G2 X272.832 Y89.496 Z-0.100 I1.010 J0.755 K0.000 F500.000
G2 X272.439 Y89.413 Z-0.100 I-0.225 J0.093 K0.000 F500.000
G3 X271.920 Y89.751 Z-0.100 I-0.661 J-0.447 K0.000 F500.000
G3 X271.609 Y89.723 Z-0.100 I-0.073 J-0.920 K0.000 F500.000
G0 Z5.000
G0 X271.663 Y89.602 Z5.000
G0 X271.663 Y89.602 Z3.000
G1 X271.663 Y89.602 Z-0.100 F100.000
G3 X271.630 Y89.585 Z-0.100 I0.107 J-0.237 K0.000 F500.000
G1 X271.722 Y89.621 Z-0.100 F500.000
G3 X271.663 Y89.602 Z-0.100 I0.048 J-0.256 K0.000 F500.000
G0 Z5.000
G0 X271.521 Y89.539 Z5.000
G0 X271.521 Y89.539 Z3.000
G1 X271.521 Y89.539 Z-0.100 F100.000
G3 X271.051 Y88.859 Z-0.100 I0.201 J-0.641 K0.000 F500.000
G2 X271.521 Y89.539 Z-0.100 I0.842 J-0.079 K0.000 F500.000
G0 Z5.000
G0 X272.776 Y89.263 Z5.000
G0 X272.776 Y89.263 Z3.000
G1 X272.776 Y89.263 Z-0.100 F100.000
G3 X272.778 Y89.260 Z-0.100 I0.001 J-0.002 K0.000 F500.000
G1 X272.776 Y89.263 Z-0.100 F500.000
G0 Z5.000
G0 X272.828 Y89.771 Z5.000
G0 X272.828 Y89.771 Z3.000
G1 X272.828 Y89.771 Z-0.100 F100.000
G2 X274.009 Y90.079 Z-0.100 I0.669 J-0.145 K0.000 F500.000
G2 X274.471 Y89.092 Z-0.100 I-1.571 J-1.335 K0.000 F500.000
G1 X274.628 Y89.182 Z-0.100 F500.000
G3 X274.053 Y90.321 Z-0.100 I-2.463 J-0.529 K0.000 F500.000
G3 X272.788 Y89.961 Z-0.100 I-0.566 J-0.416 K0.000 F500.000
G1 X272.828 Y89.771 Z-0.100 F500.000
G0 Z5.000
G0 X273.083 Y90.320 Z5.000
G0 X273.083 Y90.320 Z3.000
G1 X273.083 Y90.320 Z-0.100 F100.000
G2 X273.787 Y90.375 Z-0.100 I0.403 J-0.623 K0.000 F500.000
G3 X273.083 Y90.320 Z-0.100 I-0.321 J-0.435 K0.000 F500.000
G0 Z5.000
G0 Z5.000
G0 X273.083 Y90.320
G0 X274.736 Y92.016
G0 X274.736 Y92.016 Z3.000
G1 X274.736 Y92.016 Z-0.100 F100.000
G1 X279.687 Y94.875 Z-0.100 F500.000
G1 X279.687 Y94.875 Z-0.100 F500.000
G1 X274.736 Y92.016 Z-0.100 F500.000
G1 X274.736 Y92.016 Z-0.100 F500.000
G0 Z5.000
G0 Z5.000
G0 X274.736 Y92.016
G0 X280.531 Y80.867
G0 X280.531 Y80.867 Z3.000
G1 X280.531 Y80.867 Z-0.100 F100.000
G1 X280.531 Y80.867 Z-0.100 F500.000
G1 X285.720 Y83.287 Z-0.100 F500.000
G1 X280.531 Y80.867 Z-0.100 F500.000
G1 X280.531 Y80.867 Z-0.100 F500.000
G0 Z5.000
G0 Z5.000
G0 X280.531 Y80.867
G0 X282.049 Y71.342
G0 X282.049 Y71.342 Z3.000
G1 X282.049 Y71.342 Z-0.100 F100.000
G3 X280.246 Y70.611 Z-0.100 I0.679 J-4.260 K0.000 F500.000
G3 X280.904 Y68.881 Z-0.100 I0.561 J-0.777 K0.000 F500.000
G3 X282.996 Y69.650 Z-0.100 I-0.386 J4.283 K0.000 F500.000
G3 X282.343 Y71.379 Z-0.100 I-0.561 J0.776 K0.000 F500.000
G3 X282.049 Y71.342 Z-0.100 I0.385 J-4.297 K0.000 F500.000
G0 Z5.000
G0 X282.061 Y71.233 Z5.000
G0 X282.061 Y71.233 Z3.000
G1 X282.061 Y71.233 Z-0.100 F100.000
G3 X281.302 Y71.021 Z-0.100 I0.252 J-2.363 K0.000 F500.000
G3 X280.428 Y70.592 Z-0.100 I1.122 J-3.390 K0.000 F500.000
G3 X280.212 Y70.398 Z-0.100 I0.559 J-0.841 K0.000 F500.000
G2 X281.966 Y71.177 Z-0.100 I2.579 J-3.444 K0.000 F500.000
G2 X282.492 Y71.240 Z-0.100 I0.523 J-2.129 K0.000 F500.000
G3 X282.061 Y71.233 Z-0.100 I-0.179 J-2.369 K0.000 F500.000
G0 Z5.000
G0 X282.093 Y71.059 Z5.000
G0 X282.093 Y71.059 Z3.000
G1 X282.093 Y71.059 Z-0.100 F100.000
G3 X280.337 Y70.348 Z-0.100 I0.875 J-4.686 K0.000 F500.000
G3 X280.722 Y69.140 Z-0.100 I0.344 J-0.556 K0.000 F500.000
G3 X282.921 Y69.923 Z-0.100 I-0.444 J4.728 K0.000 F500.000
G3 X282.520 Y71.119 Z-0.100 I-0.359 J0.545 K0.000 F500.000
G3 X282.093 Y71.059 Z-0.100 I0.449 J-4.746 K0.000 F500.000
G0 Z5.000
G0 X282.922 Y69.772 Z5.000
G0 X282.922 Y69.772 Z3.000
G1 X282.922 Y69.772 Z-0.100 F100.000
G2 X280.755 Y69.020 Z-0.100 I-2.637 J4.095 K0.000 F500.000
G3 X281.219 Y69.039 Z-0.100 I0.175 J1.358 K0.000 F500.000
G3 X282.914 Y69.744 Z-0.100 I-0.578 J3.782 K0.000 F500.000
G1 X282.978 Y69.809 Z-0.100 F500.000
G2 X282.922 Y69.772 Z-0.100 I-2.693 J4.058 K0.000 F500.000
G0 Z5.000
G0 Z5.000
G0 X282.922 Y69.772
G0 X281.702 Y70.107
G0 X281.702 Y70.107 Z3.000
G1 X281.702 Y70.107 Z-0.100 F100.000
G3 X281.656 Y70.204 Z-0.100 I-0.079 J0.022 K0.000 F500.000
G3 X281.547 Y70.163 Z-0.100 I-0.034 J-0.075 K0.000 F500.000
G3 X281.588 Y70.054 Z-0.100 I0.075 J-0.034 K0.000 F500.000
G1 X281.602 Y70.050 Z-0.100 F500.000
G3 X281.702 Y70.107 Z-0.100 I0.021 J0.079 K0.000 F500.000
G0 Z5.000
G0 Z5.000
G0 X281.702 Y70.107
G0 X283.096 Y68.131
G0 X283.096 Y68.131 Z3.000
G1 X283.096 Y68.131 Z-0.100 F100.000
G3 X282.854 Y67.869 Z-0.100 I0.496 J-0.702 K0.000 F500.000
G3 X282.247 Y66.718 Z-0.100 I5.681 J-3.732 K0.000 F500.000
G1 X281.915 Y66.014 Z-0.100 F500.000
G2 X281.454 Y66.036 Z-0.100 I-0.226 J0.107 K0.000 F500.000
G1 X280.965 Y67.385 Z-0.100 F500.000
G1 X280.781 Y67.318 Z-0.100 F500.000
G1 X281.475 Y65.400 Z-0.100 F500.000
G1 X281.781 Y65.511 Z-0.100 F500.000
G2 X282.661 Y67.222 Z-0.100 I62.192 J-30.882 K0.000 F500.000
G1 X282.990 Y67.681 Z-0.100 F500.000
G2 X284.263 Y67.685 Z-0.100 I0.638 J-0.508 K0.000 F500.000
G2 X284.518 Y66.593 Z-0.100 I-1.442 J-0.913 K0.000 F500.000
G1 X284.661 Y66.645 Z-0.100 F500.000
G3 X284.307 Y67.906 Z-0.100 I-2.235 J0.053 K0.000 F500.000
G3 X283.096 Y68.131 Z-0.100 I-0.715 J-0.478 K0.000 F500.000
G0 Z5.000
G0 X283.178 Y68.022 Z5.000
G0 X283.178 Y68.022 Z3.000
G1 X283.178 Y68.022 Z-0.100 F100.000
G3 X283.050 Y67.897 Z-0.100 I0.426 J-0.565 K0.000 F500.000
G2 X283.992 Y68.049 Z-0.100 I0.609 J-0.781 K0.000 F500.000
G3 X283.178 Y68.022 Z-0.100 I-0.388 J-0.592 K0.000 F500.000
G0 Z5.000
G0 X281.765 Y65.756 Z5.000
G0 X281.765 Y65.756 Z3.000
G1 X281.765 Y65.756 Z-0.100 F100.000
G2 X281.458 Y65.826 Z-0.100 I-0.081 J0.354 K0.000 F500.000
G1 X281.450 Y65.836 Z-0.100 F500.000
G1 X281.550 Y65.560 Z-0.100 F500.000
G3 X281.765 Y65.756 Z-0.100 I0.004 J0.212 K0.000 F500.000
G0 Z5.000
G0 Z5.000
G0 Z5.000
G0 X281.765 Y65.756
G0 X289.117 Y57.276
G0 X289.117 Y57.276 Z3.000
G1 X289.117 Y57.276 Z-0.100 F100.000
G1 X289.117 Y57.276 Z-0.100 F500.000
G1 X294.647 Y58.758 Z-0.100 F500.000
G1 X294.647 Y58.758 Z-0.100 F500.000
G1 X289.117 Y57.276 Z-0.100 F500.000
G1 X289.117 Y57.276 Z-0.100 F500.000
G0 Z5.000
G0 Z5.000
G0 X289.117 Y57.276
G0 X288.954 Y47.682
G0 X288.954 Y47.682 Z3.000
G1 X288.954 Y47.682 Z-0.100 F100.000
G3 X287.043 Y47.271 Z-0.100 I-0.073 J-4.313 K0.000 F500.000
G3 X287.393 Y45.454 Z-0.100 I0.419 J-0.862 K0.000 F500.000
G3 X288.496 Y45.505 Z-0.100 I0.400 J3.330 K0.000 F500.000
G3 X289.461 Y45.787 Z-0.100 I-0.541 J3.641 K0.000 F500.000
G3 X290.123 Y46.548 Z-0.100 I-0.318 J0.945 K0.000 F500.000
G3 X289.240 Y47.667 Z-0.100 I-0.929 J0.176 K0.000 F500.000
G3 X288.954 Y47.682 Z-0.100 I-0.359 J-4.299 K0.000 F500.000
G0 Z5.000
G0 X288.946 Y47.572 Z5.000
G0 X288.946 Y47.572 Z3.000
G1 X288.946 Y47.572 Z-0.100 F100.000
G3 X288.153 Y47.494 Z-0.100 I-0.167 J-2.370 K0.000 F500.000
G3 X287.218 Y47.221 Z-0.100 I0.523 J-3.533 K0.000 F500.000
G3 X286.972 Y47.067 Z-0.100 I0.406 J-0.924 K0.000 F500.000
G2 X288.834 Y47.533 Z-0.100 I1.949 J-3.837 K0.000 F500.000
G2 X289.363 Y47.505 Z-0.100 I0.150 J-2.187 K0.000 F500.000
G3 X288.946 Y47.572 Z-0.100 I-0.583 J-2.303 K0.000 F500.000
G0 Z5.000
G0 X288.948 Y47.395 Z5.000
G0 X288.948 Y47.395 Z3.000
G1 X288.948 Y47.395 Z-0.100 F100.000
G3 X287.086 Y46.997 Z-0.100 I0.047 J-4.767 K0.000 F500.000
G3 X287.095 Y45.789 Z-0.100 I0.237 J-0.602 K0.000 F500.000
G1 X287.258 Y45.741 Z-0.100 F500.000
G3 X289.559 Y46.134 Z-0.100 I0.375 J4.734 K0.000 F500.000
G3 X289.369 Y47.381 Z-0.100 I-0.260 J0.598 K0.000 F500.000
G3 X288.948 Y47.395 Z-0.100 I-0.374 J-4.753 K0.000 F500.000
G0 Z5.000
G0 X289.545 Y45.990 Z5.000
G0 X289.545 Y45.990 Z3.000
G1 X289.545 Y45.990 Z-0.100 F100.000
G2 X287.270 Y45.616 Z-0.100 I-1.905 J4.483 K0.000 F500.000
G3 X288.472 Y45.628 Z-0.100 I0.577 J2.606 K0.000 F500.000
G3 X289.409 Y45.901 Z-0.100 I-0.522 J3.533 K0.000 F500.000
G3 X289.596 Y46.012 Z-0.100 I-0.291 J0.700 K0.000 F500.000
G2 X289.545 Y45.990 Z-0.100 I-1.955 J4.461 K0.000 F500.000
G0 Z5.000
G0 Z5.000
G0 X289.545 Y45.990
G0 X288.385 Y46.529
G0 X288.385 Y46.529 Z3.000
G1 X288.385 Y46.529 Z-0.100 F100.000
G3 X288.344 Y46.636 Z-0.100 I-0.072 J0.034 K0.000 F500.000
G3 X288.281 Y46.486 Z-0.100 I-0.029 J-0.076 K0.000 F500.000
G1 X288.327 Y46.484 Z-0.100 F500.000
G3 X288.385 Y46.529 Z-0.100 I-0.015 J0.079 K0.000 F500.000
G0 Z5.000
G0 Z5.000
G0 X288.385 Y46.529
G0 X287.163 Y44.160
G0 X287.163 Y44.160 Z3.000
G1 X287.163 Y44.160 Z-0.100 F100.000
G1 X286.969 Y44.126 Z-0.100 F500.000
G1 X287.323 Y42.120 Z-0.100 F500.000
G1 X287.516 Y42.154 Z-0.100 F500.000
G1 X287.406 Y42.778 Z-0.100 F500.000
G2 X287.609 Y43.068 Z-0.100 I0.246 J0.043 K0.000 F500.000
G1 X290.166 Y43.519 Z-0.100 F500.000
G2 X290.459 Y43.255 Z-0.100 I0.043 J-0.246 K0.000 F500.000
G1 X290.423 Y42.729 Z-0.100 F500.000
G1 X290.616 Y42.763 Z-0.100 F500.000
G3 X290.569 Y43.863 Z-0.100 I-2.320 J0.453 K0.000 F500.000
G1 X287.562 Y43.333 Z-0.100 F500.000
G2 X287.273 Y43.535 Z-0.100 I-0.043 J0.246 K0.000 F500.000
G1 X287.163 Y44.160 Z-0.100 F500.000
G0 Z5.000
G0 X287.229 Y43.373 Z5.000
G0 X287.229 Y43.373 Z3.000
G1 X287.229 Y43.373 Z-0.100 F100.000
G1 X287.304 Y42.946 Z-0.100 F500.000
G2 X287.587 Y43.191 Z-0.100 I0.345 J-0.113 K0.000 F500.000
G1 X290.144 Y43.642 Z-0.100 F500.000
G2 X290.510 Y43.480 Z-0.100 I0.082 J-0.310 K0.000 F500.000
G1 X290.468 Y43.718 Z-0.100 F500.000
G1 X287.584 Y43.210 Z-0.100 F500.000
G2 X287.229 Y43.373 Z-0.100 I-0.096 J0.259 K0.000 F500.000
G0 Z5.000
G0 Z5.000
G0 X287.229 Y43.373
G0 X291.845 Y45.011
G0 X291.845 Y45.011 Z3.000
G1 X291.845 Y45.011 Z-0.100 F100.000
G1 X297.475 Y46.004 Z-0.100 F500.000
G1 X297.475 Y46.004 Z-0.100 F500.000
G1 X291.845 Y45.011 Z-0.100 F500.000
G0 Z5.000
G0 Z5.000
G0 X291.845 Y45.011
G0 X293.477 Y32.553
G0 X293.477 Y32.553 Z3.000
G1 X293.477 Y32.553 Z-0.100 F100.000
G1 X299.180 Y33.052 Z-0.100 F500.000
G1 X293.477 Y32.553 Z-0.100 F500.000
G0 Z5.000
G0 Z5.000
G0 Z5.000
G0 X293.477 Y32.553
G0 X291.669 Y21.022
G0 X291.669 Y21.022 Z3.000
G1 X291.669 Y21.022 Z-0.100 F100.000
G3 X289.869 Y20.923 Z-0.100 I-0.668 J-4.262 K0.000 F500.000
G3 X289.898 Y19.072 Z-0.100 I0.263 J-0.921 K0.000 F500.000
G3 X291.993 Y19.041 Z-0.100 I1.108 J4.041 K0.000 F500.000
G3 X292.776 Y19.675 Z-0.100 I-0.149 J0.986 K0.000 F500.000
G3 X292.101 Y20.931 Z-0.100 I-0.884 J0.334 K0.000 F500.000
G3 X291.669 Y21.022 Z-0.100 I-1.100 J-4.171 K0.000 F500.000
G0 Z5.000
G0 X291.650 Y20.920 Z5.000
G0 X291.650 Y20.920 Z3.000
G1 X291.650 Y20.920 Z-0.100 F100.000
G3 X291.000 Y20.949 Z-0.100 I-0.431 J-2.337 K0.000 F500.000
G3 X290.033 Y20.843 Z-0.100 I-0.099 J-3.570 K0.000 F500.000
