(Exported by FreeCAD)
(Post Processor: grbl_post)
(Output Time:2024-04-16 13:52:53.745190)
(Begin preamble)
G17 G90
G21
(Begin operation: TC: 3.175 Z1 UP Helicoidale007)
(Path: TC: 3.175 Z1 UP Helicoidale007)
(TC: 3.175 Z1 UP Helicoidale007)
(Begin toolchange)
( M6 T1 )
M3 S17500
(Finish operation: TC: 3.175 Z1 UP Helicoidale007)
(Begin operation: Fixture)
(Path: Fixture)
G54
(Finish operation: Fixture)
(Begin operation: Profile)
(Path: Profile)
(Profile)
(Compensated Tool Path. Diameter: 3.17)
G0 Z5.000
G0 X171.831 Y86.831
G0 Z3.000
G1 X171.831 Y86.831 Z-1.057 F500.000
G2 X201.585 Y15.022 Z-1.057 I-71.831 J-71.831 K0.000 F1200.000
G1 X201.585 Y0.000 Z-1.057 F1200.000
G2 X200.000 Y-1.585 Z-1.057 I-1.585 J0.000 K0.000 F1200.000
G1 X0.000 Y-1.585 Z-1.057 F1200.000
G2 X-1.585 Y0.000 Z-1.057 I0.000 J1.585 K0.000 F1200.000
G1 X-1.585 Y15.000 Z-1.057 F1200.000
G2 X171.831 Y86.831 Z-1.057 I101.585 J-0.000 K0.000 F1200.000
G1 X171.831 Y86.831 Z-2.000 F500.000
G2 X201.585 Y15.022 Z-2.000 I-71.831 J-71.831 K0.000 F1200.000
G1 X201.585 Y0.000 Z-2.000 F1200.000
G2 X200.000 Y-1.585 Z-2.000 I-1.585 J0.000 K0.000 F1200.000
G1 X0.000 Y-1.585 Z-2.000 F1200.000
G2 X-1.585 Y0.000 Z-2.000 I0.000 J1.585 K0.000 F1200.000
G1 X-1.585 Y15.000 Z-2.000 F1200.000
G2 X171.831 Y86.831 Z-2.000 I101.585 J-0.000 K0.000 F1200.000
G0 Z5.000
G0 Z5.000
(Finish operation: Profile)
(Begin postamble)
M5
G17 G90
M2
