(Exported by FreeCAD)
(Post Processor: grbl_post)
(Output Time:2024-04-16 17:56:11.201800)
(Begin preamble)
G17 G90
G21
(Begin operation: TC: 3.175 Z1 UP Helicoidale007)
(Path: TC: 3.175 Z1 UP Helicoidale007)
(TC: 3.175 Z1 UP Helicoidale007)
(Begin toolchange)
( M6 T2 )
M3 S17500
(Finish operation: TC: 3.175 Z1 UP Helicoidale007)
(Begin operation: Fixture)
(Path: Fixture)
G54
(Finish operation: Fixture)
(Begin operation: Profile)
(Path: Profile)
(Profile)
(Compensated Tool Path. Diameter: 3.17)
G0 Z5.000
G0 X257.377 Y126.996
G0 Z3.000
G1 X257.377 Y126.996 Z-1.057 F500.000
G2 X265.948 Y117.643 Z-1.057 I-107.377 J-106.996 K0.000 F1200.000
G3 X266.294 Y117.230 Z-1.057 I1.159 J0.621 K0.000 F1200.000
G2 X274.016 Y107.166 Z-1.057 I-116.294 J-97.230 K0.000 F1200.000
G3 X274.325 Y106.725 Z-1.057 I1.209 J0.518 K0.000 F1200.000
G2 X281.142 Y96.026 Z-1.057 I-124.325 J-86.725 K0.000 F1200.000
G3 X281.411 Y95.559 Z-1.057 I1.250 J0.411 K0.000 F1200.000
G2 X287.269 Y84.306 Z-1.057 I-131.411 J-75.559 K0.000 F1200.000
G3 X287.496 Y83.818 Z-1.057 I1.281 J0.300 K0.000 F1200.000
G2 X292.351 Y72.098 Z-1.057 I-137.496 J-63.818 K0.000 F1200.000
G3 X292.535 Y71.592 Z-1.057 I1.302 J0.187 K0.000 F1200.000
G2 X296.350 Y59.493 Z-1.057 I-142.535 J-51.592 K0.000 F1200.000
G3 X296.489 Y58.973 Z-1.057 I1.313 J0.073 K0.000 F1200.000
G2 X299.235 Y46.588 Z-1.057 I-146.489 J-38.973 K0.000 F1200.000
G3 X299.329 Y46.057 Z-1.057 I1.315 J-0.042 K0.000 F1200.000
G2 X300.984 Y33.480 Z-1.057 I-149.329 J-26.057 K0.000 F1200.000
G3 X301.031 Y32.943 Z-1.057 I1.306 J-0.156 K0.000 F1200.000
G2 X301.585 Y20.269 Z-1.057 I-151.031 J-12.943 K0.000 F1200.000
G3 X301.585 Y19.750 Z-1.057 I1.170 J-0.259 K0.000 F1200.000
G1 X301.585 Y0.000 Z-1.057 F1200.000
G2 X300.000 Y-1.585 Z-1.057 I-1.585 J0.000 K0.000 F1200.000
G1 X290.250 Y-1.585 Z-1.057 F1200.000
G3 X289.750 Y-1.585 Z-1.057 I-0.250 J-1.095 K0.000 F1200.000
G1 X280.250 Y-1.585 Z-1.057 F1200.000
G3 X279.750 Y-1.585 Z-1.057 I-0.250 J-1.095 K0.000 F1200.000
G1 X270.250 Y-1.585 Z-1.057 F1200.000
G3 X269.750 Y-1.585 Z-1.057 I-0.250 J-1.095 K0.000 F1200.000
G1 X260.250 Y-1.585 Z-1.057 F1200.000
G3 X259.750 Y-1.585 Z-1.057 I-0.250 J-1.095 K0.000 F1200.000
G1 X250.250 Y-1.585 Z-1.057 F1200.000
G3 X249.750 Y-1.585 Z-1.057 I-0.250 J-1.095 K0.000 F1200.000
G1 X240.250 Y-1.585 Z-1.057 F1200.000
G3 X239.750 Y-1.585 Z-1.057 I-0.250 J-1.095 K0.000 F1200.000
G1 X230.250 Y-1.585 Z-1.057 F1200.000
G3 X229.750 Y-1.585 Z-1.057 I-0.250 J-1.095 K0.000 F1200.000
G1 X220.250 Y-1.585 Z-1.057 F1200.000
G3 X219.750 Y-1.585 Z-1.057 I-0.250 J-1.095 K0.000 F1200.000
G1 X210.250 Y-1.585 Z-1.057 F1200.000
G3 X209.750 Y-1.585 Z-1.057 I-0.250 J-1.095 K0.000 F1200.000
G1 X200.250 Y-1.585 Z-1.057 F1200.000
G3 X199.750 Y-1.585 Z-1.057 I-0.250 J-1.095 K0.000 F1200.000
G1 X190.250 Y-1.585 Z-1.057 F1200.000
G3 X189.750 Y-1.585 Z-1.057 I-0.250 J-1.095 K0.000 F1200.000
G1 X180.250 Y-1.585 Z-1.057 F1200.000
G3 X179.750 Y-1.585 Z-1.057 I-0.250 J-1.095 K0.000 F1200.000
G1 X170.250 Y-1.585 Z-1.057 F1200.000
G3 X169.750 Y-1.585 Z-1.057 I-0.250 J-1.095 K0.000 F1200.000
G1 X160.250 Y-1.585 Z-1.057 F1200.000
G3 X159.750 Y-1.585 Z-1.057 I-0.250 J-1.095 K0.000 F1200.000
G1 X150.250 Y-1.585 Z-1.057 F1200.000
G3 X149.750 Y-1.585 Z-1.057 I-0.250 J-1.095 K0.000 F1200.000
G1 X140.250 Y-1.585 Z-1.057 F1200.000
G3 X139.750 Y-1.585 Z-1.057 I-0.250 J-1.095 K0.000 F1200.000
G1 X130.250 Y-1.585 Z-1.057 F1200.000
G3 X129.750 Y-1.585 Z-1.057 I-0.250 J-1.095 K0.000 F1200.000
G1 X120.250 Y-1.585 Z-1.057 F1200.000
G3 X119.750 Y-1.585 Z-1.057 I-0.250 J-1.095 K0.000 F1200.000
G1 X110.250 Y-1.585 Z-1.057 F1200.000
G3 X109.750 Y-1.585 Z-1.057 I-0.250 J-1.095 K0.000 F1200.000
G1 X100.250 Y-1.585 Z-1.057 F1200.000
G3 X99.750 Y-1.585 Z-1.057 I-0.250 J-1.095 K0.000 F1200.000
G1 X90.250 Y-1.585 Z-1.057 F1200.000
G3 X89.750 Y-1.585 Z-1.057 I-0.250 J-1.095 K0.000 F1200.000
G1 X80.250 Y-1.585 Z-1.057 F1200.000
G3 X79.750 Y-1.585 Z-1.057 I-0.250 J-1.095 K0.000 F1200.000
G1 X70.250 Y-1.585 Z-1.057 F1200.000
G3 X69.750 Y-1.585 Z-1.057 I-0.250 J-1.095 K0.000 F1200.000
G1 X60.250 Y-1.585 Z-1.057 F1200.000
G3 X59.750 Y-1.585 Z-1.057 I-0.250 J-1.095 K0.000 F1200.000
G1 X50.250 Y-1.585 Z-1.057 F1200.000
G3 X49.750 Y-1.585 Z-1.057 I-0.250 J-1.095 K0.000 F1200.000
G1 X40.250 Y-1.585 Z-1.057 F1200.000
G3 X39.750 Y-1.585 Z-1.057 I-0.250 J-1.095 K0.000 F1200.000
G1 X30.250 Y-1.585 Z-1.057 F1200.000
G3 X29.750 Y-1.585 Z-1.057 I-0.250 J-1.095 K0.000 F1200.000
G1 X20.250 Y-1.585 Z-1.057 F1200.000
G3 X19.750 Y-1.585 Z-1.057 I-0.250 J-1.095 K0.000 F1200.000
G1 X10.250 Y-1.585 Z-1.057 F1200.000
G3 X9.750 Y-1.585 Z-1.057 I-0.250 J-1.095 K0.000 F1200.000
G1 X0.000 Y-1.585 Z-1.057 F1200.000
G2 X-1.585 Y0.000 Z-1.057 I0.000 J1.585 K0.000 F1200.000
G1 X-1.585 Y19.750 Z-1.057 F1200.000
G3 X-1.585 Y20.269 Z-1.057 I-1.205 J0.260 K0.000 F1200.000
G2 X-1.031 Y32.943 Z-1.057 I151.585 J-0.269 K0.000 F1200.000
G3 X-0.984 Y33.480 Z-1.057 I-1.259 J0.380 K0.000 F1200.000
G2 X0.671 Y46.057 Z-1.057 I150.985 J-13.480 K0.000 F1200.000
G3 X0.765 Y46.588 Z-1.057 I-1.221 J0.489 K0.000 F1200.000
G2 X3.511 Y58.973 Z-1.057 I149.235 J-26.588 K0.000 F1200.000
G3 X3.650 Y59.493 Z-1.057 I-1.174 J0.593 K0.000 F1200.000
G2 X7.465 Y71.592 Z-1.057 I146.350 J-39.493 K0.000 F1200.000
G3 X7.649 Y72.098 Z-1.057 I-1.118 J0.693 K0.000 F1200.000
G2 X12.504 Y83.818 Z-1.057 I142.351 J-52.098 K0.000 F1200.000
G3 X12.731 Y84.306 Z-1.057 I-1.053 J0.788 K0.000 F1200.000
G2 X18.589 Y95.559 Z-1.057 I137.269 J-64.307 K0.000 F1200.000
G3 X18.858 Y96.026 Z-1.057 I-0.980 J0.877 K0.000 F1200.000
G2 X25.675 Y106.725 Z-1.057 I131.142 J-76.026 K0.000 F1200.000
G3 X25.984 Y107.166 Z-1.057 I-0.900 J0.959 K0.000 F1200.000
G2 X33.706 Y117.230 Z-1.057 I124.016 J-87.166 K0.000 F1200.000
G3 X34.052 Y117.643 Z-1.057 I-0.813 J1.034 K0.000 F1200.000
G2 X42.623 Y126.996 Z-1.057 I115.948 J-97.643 K0.000 F1200.000
G3 X43.004 Y127.377 Z-1.057 I-0.720 J1.101 K0.000 F1200.000
G2 X52.357 Y135.948 Z-1.057 I106.996 J-107.377 K0.000 F1200.000
G3 X52.770 Y136.294 Z-1.057 I-0.621 J1.159 K0.000 F1200.000
G2 X62.834 Y144.016 Z-1.057 I97.231 J-116.294 K0.000 F1200.000
G3 X63.275 Y144.325 Z-1.057 I-0.518 J1.209 K0.000 F1200.000
G2 X73.974 Y151.142 Z-1.057 I86.725 J-124.325 K0.000 F1200.000
G3 X74.441 Y151.411 Z-1.057 I-0.411 J1.250 K0.000 F1200.000
G2 X85.694 Y157.269 Z-1.057 I75.559 J-131.411 K0.000 F1200.000
G3 X86.182 Y157.496 Z-1.057 I-0.300 J1.281 K0.000 F1200.000
G2 X97.902 Y162.351 Z-1.057 I63.818 J-137.496 K0.000 F1200.000
G3 X98.408 Y162.535 Z-1.057 I-0.187 J1.302 K0.000 F1200.000
G2 X110.507 Y166.350 Z-1.057 I51.592 J-142.535 K0.000 F1200.000
G3 X111.027 Y166.489 Z-1.057 I-0.073 J1.313 K0.000 F1200.000
G2 X123.412 Y169.235 Z-1.057 I38.973 J-146.489 K0.000 F1200.000
G3 X123.943 Y169.329 Z-1.057 I0.042 J1.315 K0.000 F1200.000
G2 X136.520 Y170.984 Z-1.057 I26.057 J-149.329 K0.000 F1200.000
G3 X137.057 Y171.031 Z-1.057 I0.156 J1.306 K0.000 F1200.000
G2 X149.731 Y171.585 Z-1.057 I12.943 J-151.031 K0.000 F1200.000
G3 X150.269 Y171.585 Z-1.057 I0.269 J1.288 K0.000 F1200.000
G2 X162.943 Y171.031 Z-1.057 I-0.269 J-151.585 K0.000 F1200.000
G3 X163.480 Y170.984 Z-1.057 I0.380 J1.259 K0.000 F1200.000
G2 X176.057 Y169.329 Z-1.057 I-13.480 J-150.984 K0.000 F1200.000
G3 X176.588 Y169.235 Z-1.057 I0.489 J1.221 K0.000 F1200.000
G2 X188.973 Y166.489 Z-1.057 I-26.588 J-149.235 K0.000 F1200.000
G3 X189.493 Y166.350 Z-1.057 I0.593 J1.174 K0.000 F1200.000
G2 X201.592 Y162.535 Z-1.057 I-39.493 J-146.350 K0.000 F1200.000
G3 X202.098 Y162.351 Z-1.057 I0.693 J1.118 K0.000 F1200.000
G2 X213.818 Y157.496 Z-1.057 I-52.098 J-142.351 K0.000 F1200.000
G3 X214.306 Y157.269 Z-1.057 I0.788 J1.053 K0.000 F1200.000
G2 X225.559 Y151.411 Z-1.057 I-64.306 J-137.269 K0.000 F1200.000
G3 X226.026 Y151.142 Z-1.057 I0.877 J0.980 K0.000 F1200.000
G2 X236.725 Y144.325 Z-1.057 I-76.026 J-131.142 K0.000 F1200.000
G3 X237.166 Y144.016 Z-1.057 I0.959 J0.900 K0.000 F1200.000
G2 X247.230 Y136.294 Z-1.057 I-87.166 J-124.016 K0.000 F1200.000
G3 X247.643 Y135.948 Z-1.057 I1.034 J0.813 K0.000 F1200.000
G2 X256.996 Y127.377 Z-1.057 I-97.643 J-115.947 K0.000 F1200.000
G3 X257.377 Y126.996 Z-1.057 I1.101 J0.720 K0.000 F1200.000
G1 X257.377 Y126.996 Z-2.113 F500.000
G2 X265.948 Y117.643 Z-2.113 I-107.377 J-106.996 K0.000 F1200.000
G3 X266.294 Y117.230 Z-2.113 I1.159 J0.621 K0.000 F1200.000
G2 X274.016 Y107.166 Z-2.113 I-116.294 J-97.230 K0.000 F1200.000
G3 X274.325 Y106.725 Z-2.113 I1.209 J0.518 K0.000 F1200.000
G2 X281.142 Y96.026 Z-2.113 I-124.325 J-86.725 K0.000 F1200.000
G3 X281.411 Y95.559 Z-2.113 I1.250 J0.411 K0.000 F1200.000
G2 X287.269 Y84.306 Z-2.113 I-131.411 J-75.559 K0.000 F1200.000
G3 X287.496 Y83.818 Z-2.113 I1.281 J0.300 K0.000 F1200.000
G2 X292.351 Y72.098 Z-2.113 I-137.496 J-63.818 K0.000 F1200.000
G3 X292.535 Y71.592 Z-2.113 I1.302 J0.187 K0.000 F1200.000
G2 X296.350 Y59.493 Z-2.113 I-142.535 J-51.592 K0.000 F1200.000
G3 X296.489 Y58.973 Z-2.113 I1.313 J0.073 K0.000 F1200.000
G2 X299.235 Y46.588 Z-2.113 I-146.489 J-38.973 K0.000 F1200.000
G3 X299.329 Y46.057 Z-2.113 I1.315 J-0.042 K0.000 F1200.000
G2 X300.984 Y33.480 Z-2.113 I-149.329 J-26.057 K0.000 F1200.000
G3 X301.031 Y32.943 Z-2.113 I1.306 J-0.156 K0.000 F1200.000
G2 X301.585 Y20.269 Z-2.113 I-151.031 J-12.943 K0.000 F1200.000
G3 X301.585 Y19.750 Z-2.113 I1.170 J-0.259 K0.000 F1200.000
G1 X301.585 Y0.000 Z-2.113 F1200.000
G2 X300.000 Y-1.585 Z-2.113 I-1.585 J0.000 K0.000 F1200.000
G1 X290.250 Y-1.585 Z-2.113 F1200.000
G3 X289.750 Y-1.585 Z-2.113 I-0.250 J-1.095 K0.000 F1200.000
G1 X280.250 Y-1.585 Z-2.113 F1200.000
G3 X279.750 Y-1.585 Z-2.113 I-0.250 J-1.095 K0.000 F1200.000
G1 X270.250 Y-1.585 Z-2.113 F1200.000
G3 X269.750 Y-1.585 Z-2.113 I-0.250 J-1.095 K0.000 F1200.000
G1 X260.250 Y-1.585 Z-2.113 F1200.000
G3 X259.750 Y-1.585 Z-2.113 I-0.250 J-1.095 K0.000 F1200.000
G1 X250.250 Y-1.585 Z-2.113 F1200.000
G3 X249.750 Y-1.585 Z-2.113 I-0.250 J-1.095 K0.000 F1200.000
G1 X240.250 Y-1.585 Z-2.113 F1200.000
G3 X239.750 Y-1.585 Z-2.113 I-0.250 J-1.095 K0.000 F1200.000
G1 X230.250 Y-1.585 Z-2.113 F1200.000
G3 X229.750 Y-1.585 Z-2.113 I-0.250 J-1.095 K0.000 F1200.000
G1 X220.250 Y-1.585 Z-2.113 F1200.000
G3 X219.750 Y-1.585 Z-2.113 I-0.250 J-1.095 K0.000 F1200.000
G1 X210.250 Y-1.585 Z-2.113 F1200.000
G3 X209.750 Y-1.585 Z-2.113 I-0.250 J-1.095 K0.000 F1200.000
G1 X200.250 Y-1.585 Z-2.113 F1200.000
G3 X199.750 Y-1.585 Z-2.113 I-0.250 J-1.095 K0.000 F1200.000
G1 X190.250 Y-1.585 Z-2.113 F1200.000
G3 X189.750 Y-1.585 Z-2.113 I-0.250 J-1.095 K0.000 F1200.000
G1 X180.250 Y-1.585 Z-2.113 F1200.000
G3 X179.750 Y-1.585 Z-2.113 I-0.250 J-1.095 K0.000 F1200.000
G1 X170.250 Y-1.585 Z-2.113 F1200.000
G3 X169.750 Y-1.585 Z-2.113 I-0.250 J-1.095 K0.000 F1200.000
G1 X160.250 Y-1.585 Z-2.113 F1200.000
G3 X159.750 Y-1.585 Z-2.113 I-0.250 J-1.095 K0.000 F1200.000
G1 X150.250 Y-1.585 Z-2.113 F1200.000
G3 X149.750 Y-1.585 Z-2.113 I-0.250 J-1.095 K0.000 F1200.000
G1 X140.250 Y-1.585 Z-2.113 F1200.000
G3 X139.750 Y-1.585 Z-2.113 I-0.250 J-1.095 K0.000 F1200.000
G1 X130.250 Y-1.585 Z-2.113 F1200.000
G3 X129.750 Y-1.585 Z-2.113 I-0.250 J-1.095 K0.000 F1200.000
G1 X120.250 Y-1.585 Z-2.113 F1200.000
G3 X119.750 Y-1.585 Z-2.113 I-0.250 J-1.095 K0.000 F1200.000
G1 X110.250 Y-1.585 Z-2.113 F1200.000
G3 X109.750 Y-1.585 Z-2.113 I-0.250 J-1.095 K0.000 F1200.000
G1 X100.250 Y-1.585 Z-2.113 F1200.000
G3 X99.750 Y-1.585 Z-2.113 I-0.250 J-1.095 K0.000 F1200.000
G1 X90.250 Y-1.585 Z-2.113 F1200.000
G3 X89.750 Y-1.585 Z-2.113 I-0.250 J-1.095 K0.000 F1200.000
G1 X80.250 Y-1.585 Z-2.113 F1200.000
G3 X79.750 Y-1.585 Z-2.113 I-0.250 J-1.095 K0.000 F1200.000
G1 X70.250 Y-1.585 Z-2.113 F1200.000
G3 X69.750 Y-1.585 Z-2.113 I-0.250 J-1.095 K0.000 F1200.000
G1 X60.250 Y-1.585 Z-2.113 F1200.000
G3 X59.750 Y-1.585 Z-2.113 I-0.250 J-1.095 K0.000 F1200.000
G1 X50.250 Y-1.585 Z-2.113 F1200.000
G3 X49.750 Y-1.585 Z-2.113 I-0.250 J-1.095 K0.000 F1200.000
G1 X40.250 Y-1.585 Z-2.113 F1200.000
G3 X39.750 Y-1.585 Z-2.113 I-0.250 J-1.095 K0.000 F1200.000
G1 X30.250 Y-1.585 Z-2.113 F1200.000
G3 X29.750 Y-1.585 Z-2.113 I-0.250 J-1.095 K0.000 F1200.000
G1 X20.250 Y-1.585 Z-2.113 F1200.000
G3 X19.750 Y-1.585 Z-2.113 I-0.250 J-1.095 K0.000 F1200.000
G1 X10.250 Y-1.585 Z-2.113 F1200.000
G3 X9.750 Y-1.585 Z-2.113 I-0.250 J-1.095 K0.000 F1200.000
G1 X0.000 Y-1.585 Z-2.113 F1200.000
G2 X-1.585 Y0.000 Z-2.113 I0.000 J1.585 K0.000 F1200.000
G1 X-1.585 Y19.750 Z-2.113 F1200.000
G3 X-1.585 Y20.269 Z-2.113 I-1.205 J0.260 K0.000 F1200.000
G2 X-1.031 Y32.943 Z-2.113 I151.585 J-0.269 K0.000 F1200.000
G3 X-0.984 Y33.480 Z-2.113 I-1.259 J0.380 K0.000 F1200.000
G2 X0.671 Y46.057 Z-2.113 I150.985 J-13.480 K0.000 F1200.000
G3 X0.765 Y46.588 Z-2.113 I-1.221 J0.489 K0.000 F1200.000
G2 X3.511 Y58.973 Z-2.113 I149.235 J-26.588 K0.000 F1200.000
G3 X3.650 Y59.493 Z-2.113 I-1.174 J0.593 K0.000 F1200.000
G2 X7.465 Y71.592 Z-2.113 I146.350 J-39.493 K0.000 F1200.000
G3 X7.649 Y72.098 Z-2.113 I-1.118 J0.693 K0.000 F1200.000
G2 X12.504 Y83.818 Z-2.113 I142.351 J-52.098 K0.000 F1200.000
G3 X12.731 Y84.306 Z-2.113 I-1.053 J0.788 K0.000 F1200.000
G2 X18.589 Y95.559 Z-2.113 I137.269 J-64.307 K0.000 F1200.000
G3 X18.858 Y96.026 Z-2.113 I-0.980 J0.877 K0.000 F1200.000
G2 X25.675 Y106.725 Z-2.113 I131.142 J-76.026 K0.000 F1200.000
G3 X25.984 Y107.166 Z-2.113 I-0.900 J0.959 K0.000 F1200.000
G2 X33.706 Y117.230 Z-2.113 I124.016 J-87.166 K0.000 F1200.000
G3 X34.052 Y117.643 Z-2.113 I-0.813 J1.034 K0.000 F1200.000
G2 X42.623 Y126.996 Z-2.113 I115.948 J-97.643 K0.000 F1200.000
G3 X43.004 Y127.377 Z-2.113 I-0.720 J1.101 K0.000 F1200.000
G2 X52.357 Y135.948 Z-2.113 I106.996 J-107.377 K0.000 F1200.000
G3 X52.770 Y136.294 Z-2.113 I-0.621 J1.159 K0.000 F1200.000
G2 X62.834 Y144.016 Z-2.113 I97.231 J-116.294 K0.000 F1200.000
G3 X63.275 Y144.325 Z-2.113 I-0.518 J1.209 K0.000 F1200.000
G2 X73.974 Y151.142 Z-2.113 I86.725 J-124.325 K0.000 F1200.000
G3 X74.441 Y151.411 Z-2.113 I-0.411 J1.250 K0.000 F1200.000
G2 X85.694 Y157.269 Z-2.113 I75.559 J-131.411 K0.000 F1200.000
G3 X86.182 Y157.496 Z-2.113 I-0.300 J1.281 K0.000 F1200.000
G2 X97.902 Y162.351 Z-2.113 I63.818 J-137.496 K0.000 F1200.000
G3 X98.408 Y162.535 Z-2.113 I-0.187 J1.302 K0.000 F1200.000
G2 X110.507 Y166.350 Z-2.113 I51.592 J-142.535 K0.000 F1200.000
G3 X111.027 Y166.489 Z-2.113 I-0.073 J1.313 K0.000 F1200.000
G2 X123.412 Y169.235 Z-2.113 I38.973 J-146.489 K0.000 F1200.000
G3 X123.943 Y169.329 Z-2.113 I0.042 J1.315 K0.000 F1200.000
G2 X136.520 Y170.984 Z-2.113 I26.057 J-149.329 K0.000 F1200.000
G3 X137.057 Y171.031 Z-2.113 I0.156 J1.306 K0.000 F1200.000
G2 X149.731 Y171.585 Z-2.113 I12.943 J-151.031 K0.000 F1200.000
G3 X150.269 Y171.585 Z-2.113 I0.269 J1.288 K0.000 F1200.000
G2 X162.943 Y171.031 Z-2.113 I-0.269 J-151.585 K0.000 F1200.000
G3 X163.480 Y170.984 Z-2.113 I0.380 J1.259 K0.000 F1200.000
G2 X176.057 Y169.329 Z-2.113 I-13.480 J-150.984 K0.000 F1200.000
G3 X176.588 Y169.235 Z-2.113 I0.489 J1.221 K0.000 F1200.000
G2 X188.973 Y166.489 Z-2.113 I-26.588 J-149.235 K0.000 F1200.000
G3 X189.493 Y166.350 Z-2.113 I0.593 J1.174 K0.000 F1200.000
G2 X201.592 Y162.535 Z-2.113 I-39.493 J-146.350 K0.000 F1200.000
G3 X202.098 Y162.351 Z-2.113 I0.693 J1.118 K0.000 F1200.000
G2 X213.818 Y157.496 Z-2.113 I-52.098 J-142.351 K0.000 F1200.000
G3 X214.306 Y157.269 Z-2.113 I0.788 J1.053 K0.000 F1200.000
G2 X225.559 Y151.411 Z-2.113 I-64.306 J-137.269 K0.000 F1200.000
G3 X226.026 Y151.142 Z-2.113 I0.877 J0.980 K0.000 F1200.000
G2 X236.725 Y144.325 Z-2.113 I-76.026 J-131.142 K0.000 F1200.000
G3 X237.166 Y144.016 Z-2.113 I0.959 J0.900 K0.000 F1200.000
G2 X247.230 Y136.294 Z-2.113 I-87.166 J-124.016 K0.000 F1200.000
G3 X247.643 Y135.948 Z-2.113 I1.034 J0.813 K0.000 F1200.000
G2 X256.996 Y127.377 Z-2.113 I-97.643 J-115.947 K0.000 F1200.000
G3 X257.377 Y126.996 Z-2.113 I1.101 J0.720 K0.000 F1200.000
G1 X257.377 Y126.996 Z-3.170 F500.000
G2 X265.948 Y117.643 Z-3.170 I-107.377 J-106.996 K0.000 F1200.000
G3 X266.294 Y117.230 Z-3.170 I1.159 J0.621 K0.000 F1200.000
G2 X274.016 Y107.166 Z-3.170 I-116.294 J-97.230 K0.000 F1200.000
G3 X274.325 Y106.725 Z-3.170 I1.209 J0.518 K0.000 F1200.000
G2 X281.142 Y96.026 Z-3.170 I-124.325 J-86.725 K0.000 F1200.000
G3 X281.411 Y95.559 Z-3.170 I1.250 J0.411 K0.000 F1200.000
G2 X287.269 Y84.306 Z-3.170 I-131.411 J-75.559 K0.000 F1200.000
G3 X287.496 Y83.818 Z-3.170 I1.281 J0.300 K0.000 F1200.000
G2 X292.351 Y72.098 Z-3.170 I-137.496 J-63.818 K0.000 F1200.000
G3 X292.535 Y71.592 Z-3.170 I1.302 J0.187 K0.000 F1200.000
G2 X296.350 Y59.493 Z-3.170 I-142.535 J-51.592 K0.000 F1200.000
G3 X296.489 Y58.973 Z-3.170 I1.313 J0.073 K0.000 F1200.000
G2 X299.235 Y46.588 Z-3.170 I-146.489 J-38.973 K0.000 F1200.000
G3 X299.329 Y46.057 Z-3.170 I1.315 J-0.042 K0.000 F1200.000
G2 X300.984 Y33.480 Z-3.170 I-149.329 J-26.057 K0.000 F1200.000
G3 X301.031 Y32.943 Z-3.170 I1.306 J-0.156 K0.000 F1200.000
G2 X301.585 Y20.269 Z-3.170 I-151.031 J-12.943 K0.000 F1200.000
G3 X301.585 Y19.750 Z-3.170 I1.170 J-0.259 K0.000 F1200.000
G1 X301.585 Y0.000 Z-3.170 F1200.000
G2 X300.000 Y-1.585 Z-3.170 I-1.585 J0.000 K0.000 F1200.000
G1 X290.250 Y-1.585 Z-3.170 F1200.000
G3 X289.750 Y-1.585 Z-3.170 I-0.250 J-1.095 K0.000 F1200.000
G1 X280.250 Y-1.585 Z-3.170 F1200.000
G3 X279.750 Y-1.585 Z-3.170 I-0.250 J-1.095 K0.000 F1200.000
G1 X270.250 Y-1.585 Z-3.170 F1200.000
G3 X269.750 Y-1.585 Z-3.170 I-0.250 J-1.095 K0.000 F1200.000
G1 X260.250 Y-1.585 Z-3.170 F1200.000
G3 X259.750 Y-1.585 Z-3.170 I-0.250 J-1.095 K0.000 F1200.000
G1 X250.250 Y-1.585 Z-3.170 F1200.000
G3 X249.750 Y-1.585 Z-3.170 I-0.250 J-1.095 K0.000 F1200.000
G1 X240.250 Y-1.585 Z-3.170 F1200.000
G3 X239.750 Y-1.585 Z-3.170 I-0.250 J-1.095 K0.000 F1200.000
G1 X230.250 Y-1.585 Z-3.170 F1200.000
G3 X229.750 Y-1.585 Z-3.170 I-0.250 J-1.095 K0.000 F1200.000
G1 X220.250 Y-1.585 Z-3.170 F1200.000
G3 X219.750 Y-1.585 Z-3.170 I-0.250 J-1.095 K0.000 F1200.000
G1 X210.250 Y-1.585 Z-3.170 F1200.000
G3 X209.750 Y-1.585 Z-3.170 I-0.250 J-1.095 K0.000 F1200.000
G1 X200.250 Y-1.585 Z-3.170 F1200.000
G3 X199.750 Y-1.585 Z-3.170 I-0.250 J-1.095 K0.000 F1200.000
G1 X190.250 Y-1.585 Z-3.170 F1200.000
G3 X189.750 Y-1.585 Z-3.170 I-0.250 J-1.095 K0.000 F1200.000
G1 X180.250 Y-1.585 Z-3.170 F1200.000
G3 X179.750 Y-1.585 Z-3.170 I-0.250 J-1.095 K0.000 F1200.000
G1 X170.250 Y-1.585 Z-3.170 F1200.000
G3 X169.750 Y-1.585 Z-3.170 I-0.250 J-1.095 K0.000 F1200.000
G1 X160.250 Y-1.585 Z-3.170 F1200.000
G3 X159.750 Y-1.585 Z-3.170 I-0.250 J-1.095 K0.000 F1200.000
G1 X150.250 Y-1.585 Z-3.170 F1200.000
G3 X149.750 Y-1.585 Z-3.170 I-0.250 J-1.095 K0.000 F1200.000
G1 X140.250 Y-1.585 Z-3.170 F1200.000
G3 X139.750 Y-1.585 Z-3.170 I-0.250 J-1.095 K0.000 F1200.000
G1 X130.250 Y-1.585 Z-3.170 F1200.000
G3 X129.750 Y-1.585 Z-3.170 I-0.250 J-1.095 K0.000 F1200.000
G1 X120.250 Y-1.585 Z-3.170 F1200.000
G3 X119.750 Y-1.585 Z-3.170 I-0.250 J-1.095 K0.000 F1200.000
G1 X110.250 Y-1.585 Z-3.170 F1200.000
G3 X109.750 Y-1.585 Z-3.170 I-0.250 J-1.095 K0.000 F1200.000
G1 X100.250 Y-1.585 Z-3.170 F1200.000
G3 X99.750 Y-1.585 Z-3.170 I-0.250 J-1.095 K0.000 F1200.000
G1 X90.250 Y-1.585 Z-3.170 F1200.000
G3 X89.750 Y-1.585 Z-3.170 I-0.250 J-1.095 K0.000 F1200.000
G1 X80.250 Y-1.585 Z-3.170 F1200.000
G3 X79.750 Y-1.585 Z-3.170 I-0.250 J-1.095 K0.000 F1200.000
G1 X70.250 Y-1.585 Z-3.170 F1200.000
G3 X69.750 Y-1.585 Z-3.170 I-0.250 J-1.095 K0.000 F1200.000
G1 X60.250 Y-1.585 Z-3.170 F1200.000
G3 X59.750 Y-1.585 Z-3.170 I-0.250 J-1.095 K0.000 F1200.000
G1 X50.250 Y-1.585 Z-3.170 F1200.000
G3 X49.750 Y-1.585 Z-3.170 I-0.250 J-1.095 K0.000 F1200.000
G1 X40.250 Y-1.585 Z-3.170 F1200.000
G3 X39.750 Y-1.585 Z-3.170 I-0.250 J-1.095 K0.000 F1200.000
G1 X30.250 Y-1.585 Z-3.170 F1200.000
G3 X29.750 Y-1.585 Z-3.170 I-0.250 J-1.095 K0.000 F1200.000
G1 X20.250 Y-1.585 Z-3.170 F1200.000
G3 X19.750 Y-1.585 Z-3.170 I-0.250 J-1.095 K0.000 F1200.000
G1 X10.250 Y-1.585 Z-3.170 F1200.000
G3 X9.750 Y-1.585 Z-3.170 I-0.250 J-1.095 K0.000 F1200.000
G1 X0.000 Y-1.585 Z-3.170 F1200.000
G2 X-1.585 Y0.000 Z-3.170 I0.000 J1.585 K0.000 F1200.000
G1 X-1.585 Y19.750 Z-3.170 F1200.000
G3 X-1.585 Y20.269 Z-3.170 I-1.205 J0.260 K0.000 F1200.000
G2 X-1.031 Y32.943 Z-3.170 I151.585 J-0.269 K0.000 F1200.000
G3 X-0.984 Y33.480 Z-3.170 I-1.259 J0.380 K0.000 F1200.000
G2 X0.671 Y46.057 Z-3.170 I150.985 J-13.480 K0.000 F1200.000
G3 X0.765 Y46.588 Z-3.170 I-1.221 J0.489 K0.000 F1200.000
G2 X3.511 Y58.973 Z-3.170 I149.235 J-26.588 K0.000 F1200.000
G3 X3.650 Y59.493 Z-3.170 I-1.174 J0.593 K0.000 F1200.000
G2 X7.465 Y71.592 Z-3.170 I146.350 J-39.493 K0.000 F1200.000
G3 X7.649 Y72.098 Z-3.170 I-1.118 J0.693 K0.000 F1200.000
G2 X12.504 Y83.818 Z-3.170 I142.351 J-52.098 K0.000 F1200.000
G3 X12.731 Y84.306 Z-3.170 I-1.053 J0.788 K0.000 F1200.000
G2 X18.589 Y95.559 Z-3.170 I137.269 J-64.307 K0.000 F1200.000
G3 X18.858 Y96.026 Z-3.170 I-0.980 J0.877 K0.000 F1200.000
G2 X25.675 Y106.725 Z-3.170 I131.142 J-76.026 K0.000 F1200.000
G3 X25.984 Y107.166 Z-3.170 I-0.900 J0.959 K0.000 F1200.000
G2 X33.706 Y117.230 Z-3.170 I124.016 J-87.166 K0.000 F1200.000
G3 X34.052 Y117.643 Z-3.170 I-0.813 J1.034 K0.000 F1200.000
G2 X42.623 Y126.996 Z-3.170 I115.948 J-97.643 K0.000 F1200.000
G3 X43.004 Y127.377 Z-3.170 I-0.720 J1.101 K0.000 F1200.000
G2 X52.357 Y135.948 Z-3.170 I106.996 J-107.377 K0.000 F1200.000
G3 X52.770 Y136.294 Z-3.170 I-0.621 J1.159 K0.000 F1200.000
G2 X62.834 Y144.016 Z-3.170 I97.231 J-116.294 K0.000 F1200.000
G3 X63.275 Y144.325 Z-3.170 I-0.518 J1.209 K0.000 F1200.000
G2 X73.974 Y151.142 Z-3.170 I86.725 J-124.325 K0.000 F1200.000
G3 X74.441 Y151.411 Z-3.170 I-0.411 J1.250 K0.000 F1200.000
G2 X85.694 Y157.269 Z-3.170 I75.559 J-131.411 K0.000 F1200.000
G3 X86.182 Y157.496 Z-3.170 I-0.300 J1.281 K0.000 F1200.000
G2 X97.902 Y162.351 Z-3.170 I63.818 J-137.496 K0.000 F1200.000
G3 X98.408 Y162.535 Z-3.170 I-0.187 J1.302 K0.000 F1200.000
G2 X110.507 Y166.350 Z-3.170 I51.592 J-142.535 K0.000 F1200.000
G3 X111.027 Y166.489 Z-3.170 I-0.073 J1.313 K0.000 F1200.000
G2 X123.412 Y169.235 Z-3.170 I38.973 J-146.489 K0.000 F1200.000
G3 X123.943 Y169.329 Z-3.170 I0.042 J1.315 K0.000 F1200.000
G2 X136.520 Y170.984 Z-3.170 I26.057 J-149.329 K0.000 F1200.000
G3 X137.057 Y171.031 Z-3.170 I0.156 J1.306 K0.000 F1200.000
G2 X149.731 Y171.585 Z-3.170 I12.943 J-151.031 K0.000 F1200.000
G3 X150.269 Y171.585 Z-3.170 I0.269 J1.288 K0.000 F1200.000
G2 X162.943 Y171.031 Z-3.170 I-0.269 J-151.585 K0.000 F1200.000
G3 X163.480 Y170.984 Z-3.170 I0.380 J1.259 K0.000 F1200.000
G2 X176.057 Y169.329 Z-3.170 I-13.480 J-150.984 K0.000 F1200.000
G3 X176.588 Y169.235 Z-3.170 I0.489 J1.221 K0.000 F1200.000
G2 X188.973 Y166.489 Z-3.170 I-26.588 J-149.235 K0.000 F1200.000
G3 X189.493 Y166.350 Z-3.170 I0.593 J1.174 K0.000 F1200.000
G2 X201.592 Y162.535 Z-3.170 I-39.493 J-146.350 K0.000 F1200.000
G3 X202.098 Y162.351 Z-3.170 I0.693 J1.118 K0.000 F1200.000
G2 X213.818 Y157.496 Z-3.170 I-52.098 J-142.351 K0.000 F1200.000
G3 X214.306 Y157.269 Z-3.170 I0.788 J1.053 K0.000 F1200.000
G2 X225.559 Y151.411 Z-3.170 I-64.306 J-137.269 K0.000 F1200.000
G3 X226.026 Y151.142 Z-3.170 I0.877 J0.980 K0.000 F1200.000
G2 X236.725 Y144.325 Z-3.170 I-76.026 J-131.142 K0.000 F1200.000
G3 X237.166 Y144.016 Z-3.170 I0.959 J0.900 K0.000 F1200.000
G2 X247.230 Y136.294 Z-3.170 I-87.166 J-124.016 K0.000 F1200.000
G3 X247.643 Y135.948 Z-3.170 I1.034 J0.813 K0.000 F1200.000
G2 X256.996 Y127.377 Z-3.170 I-97.643 J-115.947 K0.000 F1200.000
G3 X257.377 Y126.996 Z-3.170 I1.101 J0.720 K0.000 F1200.000
G1 X257.377 Y126.996 Z-4.227 F500.000
G2 X265.948 Y117.643 Z-4.227 I-107.377 J-106.996 K0.000 F1200.000
G3 X266.294 Y117.230 Z-4.227 I1.159 J0.621 K0.000 F1200.000
G2 X274.016 Y107.166 Z-4.227 I-116.294 J-97.230 K0.000 F1200.000
G3 X274.325 Y106.725 Z-4.227 I1.209 J0.518 K0.000 F1200.000
G2 X281.142 Y96.026 Z-4.227 I-124.325 J-86.725 K0.000 F1200.000
G3 X281.411 Y95.559 Z-4.227 I1.250 J0.411 K0.000 F1200.000
G2 X287.269 Y84.306 Z-4.227 I-131.411 J-75.559 K0.000 F1200.000
G3 X287.496 Y83.818 Z-4.227 I1.281 J0.300 K0.000 F1200.000
G2 X292.351 Y72.098 Z-4.227 I-137.496 J-63.818 K0.000 F1200.000
G3 X292.535 Y71.592 Z-4.227 I1.302 J0.187 K0.000 F1200.000
G2 X296.350 Y59.493 Z-4.227 I-142.535 J-51.592 K0.000 F1200.000
G3 X296.489 Y58.973 Z-4.227 I1.313 J0.073 K0.000 F1200.000
G2 X299.235 Y46.588 Z-4.227 I-146.489 J-38.973 K0.000 F1200.000
G3 X299.329 Y46.057 Z-4.227 I1.315 J-0.042 K0.000 F1200.000
G2 X300.984 Y33.480 Z-4.227 I-149.329 J-26.057 K0.000 F1200.000
G3 X301.031 Y32.943 Z-4.227 I1.306 J-0.156 K0.000 F1200.000
G2 X301.585 Y20.269 Z-4.227 I-151.031 J-12.943 K0.000 F1200.000
G3 X301.585 Y19.750 Z-4.227 I1.170 J-0.259 K0.000 F1200.000
G1 X301.585 Y0.000 Z-4.227 F1200.000
G2 X300.000 Y-1.585 Z-4.227 I-1.585 J0.000 K0.000 F1200.000
G1 X290.250 Y-1.585 Z-4.227 F1200.000
G3 X289.750 Y-1.585 Z-4.227 I-0.250 J-1.095 K0.000 F1200.000
G1 X280.250 Y-1.585 Z-4.227 F1200.000
G3 X279.750 Y-1.585 Z-4.227 I-0.250 J-1.095 K0.000 F1200.000
G1 X270.250 Y-1.585 Z-4.227 F1200.000
G3 X269.750 Y-1.585 Z-4.227 I-0.250 J-1.095 K0.000 F1200.000
G1 X260.250 Y-1.585 Z-4.227 F1200.000
G3 X259.750 Y-1.585 Z-4.227 I-0.250 J-1.095 K0.000 F1200.000
G1 X250.250 Y-1.585 Z-4.227 F1200.000
G3 X249.750 Y-1.585 Z-4.227 I-0.250 J-1.095 K0.000 F1200.000
G1 X240.250 Y-1.585 Z-4.227 F1200.000
G3 X239.750 Y-1.585 Z-4.227 I-0.250 J-1.095 K0.000 F1200.000
G1 X230.250 Y-1.585 Z-4.227 F1200.000
G3 X229.750 Y-1.585 Z-4.227 I-0.250 J-1.095 K0.000 F1200.000
G1 X220.250 Y-1.585 Z-4.227 F1200.000
G3 X219.750 Y-1.585 Z-4.227 I-0.250 J-1.095 K0.000 F1200.000
G1 X210.250 Y-1.585 Z-4.227 F1200.000
G3 X209.750 Y-1.585 Z-4.227 I-0.250 J-1.095 K0.000 F1200.000
G1 X200.250 Y-1.585 Z-4.227 F1200.000
G3 X199.750 Y-1.585 Z-4.227 I-0.250 J-1.095 K0.000 F1200.000
G1 X190.250 Y-1.585 Z-4.227 F1200.000
G3 X189.750 Y-1.585 Z-4.227 I-0.250 J-1.095 K0.000 F1200.000
G1 X180.250 Y-1.585 Z-4.227 F1200.000
G3 X179.750 Y-1.585 Z-4.227 I-0.250 J-1.095 K0.000 F1200.000
G1 X170.250 Y-1.585 Z-4.227 F1200.000
G3 X169.750 Y-1.585 Z-4.227 I-0.250 J-1.095 K0.000 F1200.000
G1 X160.250 Y-1.585 Z-4.227 F1200.000
G3 X159.750 Y-1.585 Z-4.227 I-0.250 J-1.095 K0.000 F1200.000
G1 X150.250 Y-1.585 Z-4.227 F1200.000
G3 X149.750 Y-1.585 Z-4.227 I-0.250 J-1.095 K0.000 F1200.000
G1 X140.250 Y-1.585 Z-4.227 F1200.000
G3 X139.750 Y-1.585 Z-4.227 I-0.250 J-1.095 K0.000 F1200.000
G1 X130.250 Y-1.585 Z-4.227 F1200.000
G3 X129.750 Y-1.585 Z-4.227 I-0.250 J-1.095 K0.000 F1200.000
G1 X120.250 Y-1.585 Z-4.227 F1200.000
G3 X119.750 Y-1.585 Z-4.227 I-0.250 J-1.095 K0.000 F1200.000
G1 X110.250 Y-1.585 Z-4.227 F1200.000
G3 X109.750 Y-1.585 Z-4.227 I-0.250 J-1.095 K0.000 F1200.000
G1 X100.250 Y-1.585 Z-4.227 F1200.000
G3 X99.750 Y-1.585 Z-4.227 I-0.250 J-1.095 K0.000 F1200.000
G1 X90.250 Y-1.585 Z-4.227 F1200.000
G3 X89.750 Y-1.585 Z-4.227 I-0.250 J-1.095 K0.000 F1200.000
G1 X80.250 Y-1.585 Z-4.227 F1200.000
G3 X79.750 Y-1.585 Z-4.227 I-0.250 J-1.095 K0.000 F1200.000
G1 X70.250 Y-1.585 Z-4.227 F1200.000
G3 X69.750 Y-1.585 Z-4.227 I-0.250 J-1.095 K0.000 F1200.000
G1 X60.250 Y-1.585 Z-4.227 F1200.000
G3 X59.750 Y-1.585 Z-4.227 I-0.250 J-1.095 K0.000 F1200.000
G1 X50.250 Y-1.585 Z-4.227 F1200.000
G3 X49.750 Y-1.585 Z-4.227 I-0.250 J-1.095 K0.000 F1200.000
G1 X40.250 Y-1.585 Z-4.227 F1200.000
G3 X39.750 Y-1.585 Z-4.227 I-0.250 J-1.095 K0.000 F1200.000
G1 X30.250 Y-1.585 Z-4.227 F1200.000
G3 X29.750 Y-1.585 Z-4.227 I-0.250 J-1.095 K0.000 F1200.000
G1 X20.250 Y-1.585 Z-4.227 F1200.000
G3 X19.750 Y-1.585 Z-4.227 I-0.250 J-1.095 K0.000 F1200.000
G1 X10.250 Y-1.585 Z-4.227 F1200.000
G3 X9.750 Y-1.585 Z-4.227 I-0.250 J-1.095 K0.000 F1200.000
G1 X0.000 Y-1.585 Z-4.227 F1200.000
G2 X-1.585 Y0.000 Z-4.227 I0.000 J1.585 K0.000 F1200.000
G1 X-1.585 Y19.750 Z-4.227 F1200.000
G3 X-1.585 Y20.269 Z-4.227 I-1.205 J0.260 K0.000 F1200.000
G2 X-1.031 Y32.943 Z-4.227 I151.585 J-0.269 K0.000 F1200.000
G3 X-0.984 Y33.480 Z-4.227 I-1.259 J0.380 K0.000 F1200.000
G2 X0.671 Y46.057 Z-4.227 I150.985 J-13.480 K0.000 F1200.000
G3 X0.765 Y46.588 Z-4.227 I-1.221 J0.489 K0.000 F1200.000
G2 X3.511 Y58.973 Z-4.227 I149.235 J-26.588 K0.000 F1200.000
G3 X3.650 Y59.493 Z-4.227 I-1.174 J0.593 K0.000 F1200.000
G2 X7.465 Y71.592 Z-4.227 I146.350 J-39.493 K0.000 F1200.000
G3 X7.649 Y72.098 Z-4.227 I-1.118 J0.693 K0.000 F1200.000
G2 X12.504 Y83.818 Z-4.227 I142.351 J-52.098 K0.000 F1200.000
G3 X12.731 Y84.306 Z-4.227 I-1.053 J0.788 K0.000 F1200.000
G2 X18.589 Y95.559 Z-4.227 I137.269 J-64.307 K0.000 F1200.000
G3 X18.858 Y96.026 Z-4.227 I-0.980 J0.877 K0.000 F1200.000
G2 X25.675 Y106.725 Z-4.227 I131.142 J-76.026 K0.000 F1200.000
G3 X25.984 Y107.166 Z-4.227 I-0.900 J0.959 K0.000 F1200.000
G2 X33.706 Y117.230 Z-4.227 I124.016 J-87.166 K0.000 F1200.000
G3 X34.052 Y117.643 Z-4.227 I-0.813 J1.034 K0.000 F1200.000
G2 X42.623 Y126.996 Z-4.227 I115.948 J-97.643 K0.000 F1200.000
G3 X43.004 Y127.377 Z-4.227 I-0.720 J1.101 K0.000 F1200.000
G2 X52.357 Y135.948 Z-4.227 I106.996 J-107.377 K0.000 F1200.000
G3 X52.770 Y136.294 Z-4.227 I-0.621 J1.159 K0.000 F1200.000
G2 X62.834 Y144.016 Z-4.227 I97.231 J-116.294 K0.000 F1200.000
G3 X63.275 Y144.325 Z-4.227 I-0.518 J1.209 K0.000 F1200.000
G2 X73.974 Y151.142 Z-4.227 I86.725 J-124.325 K0.000 F1200.000
G3 X74.441 Y151.411 Z-4.227 I-0.411 J1.250 K0.000 F1200.000
G2 X85.694 Y157.269 Z-4.227 I75.559 J-131.411 K0.000 F1200.000
G3 X86.182 Y157.496 Z-4.227 I-0.300 J1.281 K0.000 F1200.000
G2 X97.902 Y162.351 Z-4.227 I63.818 J-137.496 K0.000 F1200.000
G3 X98.408 Y162.535 Z-4.227 I-0.187 J1.302 K0.000 F1200.000
G2 X110.507 Y166.350 Z-4.227 I51.592 J-142.535 K0.000 F1200.000
G3 X111.027 Y166.489 Z-4.227 I-0.073 J1.313 K0.000 F1200.000
G2 X123.412 Y169.235 Z-4.227 I38.973 J-146.489 K0.000 F1200.000
G3 X123.943 Y169.329 Z-4.227 I0.042 J1.315 K0.000 F1200.000
G2 X136.520 Y170.984 Z-4.227 I26.057 J-149.329 K0.000 F1200.000
G3 X137.057 Y171.031 Z-4.227 I0.156 J1.306 K0.000 F1200.000
G2 X149.731 Y171.585 Z-4.227 I12.943 J-151.031 K0.000 F1200.000
G3 X150.269 Y171.585 Z-4.227 I0.269 J1.288 K0.000 F1200.000
G2 X162.943 Y171.031 Z-4.227 I-0.269 J-151.585 K0.000 F1200.000
G3 X163.480 Y170.984 Z-4.227 I0.380 J1.259 K0.000 F1200.000
G2 X176.057 Y169.329 Z-4.227 I-13.480 J-150.984 K0.000 F1200.000
G3 X176.588 Y169.235 Z-4.227 I0.489 J1.221 K0.000 F1200.000
G2 X188.973 Y166.489 Z-4.227 I-26.588 J-149.235 K0.000 F1200.000
G3 X189.493 Y166.350 Z-4.227 I0.593 J1.174 K0.000 F1200.000
G2 X201.592 Y162.535 Z-4.227 I-39.493 J-146.350 K0.000 F1200.000
G3 X202.098 Y162.351 Z-4.227 I0.693 J1.118 K0.000 F1200.000
G2 X213.818 Y157.496 Z-4.227 I-52.098 J-142.351 K0.000 F1200.000
G3 X214.306 Y157.269 Z-4.227 I0.788 J1.053 K0.000 F1200.000
G2 X225.559 Y151.411 Z-4.227 I-64.306 J-137.269 K0.000 F1200.000
G3 X226.026 Y151.142 Z-4.227 I0.877 J0.980 K0.000 F1200.000
G2 X236.725 Y144.325 Z-4.227 I-76.026 J-131.142 K0.000 F1200.000
G3 X237.166 Y144.016 Z-4.227 I0.959 J0.900 K0.000 F1200.000
G2 X247.230 Y136.294 Z-4.227 I-87.166 J-124.016 K0.000 F1200.000
G3 X247.643 Y135.948 Z-4.227 I1.034 J0.813 K0.000 F1200.000
G2 X256.996 Y127.377 Z-4.227 I-97.643 J-115.947 K0.000 F1200.000
G3 X257.377 Y126.996 Z-4.227 I1.101 J0.720 K0.000 F1200.000
G1 X257.377 Y126.996 Z-5.000 F500.000
G2 X265.948 Y117.643 Z-5.000 I-107.377 J-106.996 K0.000 F1200.000
G3 X266.294 Y117.230 Z-5.000 I1.159 J0.621 K0.000 F1200.000
G2 X274.016 Y107.166 Z-5.000 I-116.294 J-97.230 K0.000 F1200.000
G3 X274.325 Y106.725 Z-5.000 I1.209 J0.518 K0.000 F1200.000
G2 X281.142 Y96.026 Z-5.000 I-124.325 J-86.725 K0.000 F1200.000
G3 X281.411 Y95.559 Z-5.000 I1.250 J0.411 K0.000 F1200.000
G2 X287.269 Y84.306 Z-5.000 I-131.411 J-75.559 K0.000 F1200.000
G3 X287.496 Y83.818 Z-5.000 I1.281 J0.300 K0.000 F1200.000
G2 X292.351 Y72.098 Z-5.000 I-137.496 J-63.818 K0.000 F1200.000
G3 X292.535 Y71.592 Z-5.000 I1.302 J0.187 K0.000 F1200.000
G2 X296.350 Y59.493 Z-5.000 I-142.535 J-51.592 K0.000 F1200.000
G3 X296.489 Y58.973 Z-5.000 I1.313 J0.073 K0.000 F1200.000
G2 X299.235 Y46.588 Z-5.000 I-146.489 J-38.973 K0.000 F1200.000
G3 X299.329 Y46.057 Z-5.000 I1.315 J-0.042 K0.000 F1200.000
G2 X300.984 Y33.480 Z-5.000 I-149.329 J-26.057 K0.000 F1200.000
G3 X301.031 Y32.943 Z-5.000 I1.306 J-0.156 K0.000 F1200.000
G2 X301.585 Y20.269 Z-5.000 I-151.031 J-12.943 K0.000 F1200.000
G3 X301.585 Y19.750 Z-5.000 I1.170 J-0.259 K0.000 F1200.000
G1 X301.585 Y0.000 Z-5.000 F1200.000
G2 X300.000 Y-1.585 Z-5.000 I-1.585 J0.000 K0.000 F1200.000
G1 X290.250 Y-1.585 Z-5.000 F1200.000
G3 X289.750 Y-1.585 Z-5.000 I-0.250 J-1.095 K0.000 F1200.000
G1 X280.250 Y-1.585 Z-5.000 F1200.000
G3 X279.750 Y-1.585 Z-5.000 I-0.250 J-1.095 K0.000 F1200.000
G1 X270.250 Y-1.585 Z-5.000 F1200.000
G3 X269.750 Y-1.585 Z-5.000 I-0.250 J-1.095 K0.000 F1200.000
G1 X260.250 Y-1.585 Z-5.000 F1200.000
G3 X259.750 Y-1.585 Z-5.000 I-0.250 J-1.095 K0.000 F1200.000
G1 X250.250 Y-1.585 Z-5.000 F1200.000
G3 X249.750 Y-1.585 Z-5.000 I-0.250 J-1.095 K0.000 F1200.000
G1 X240.250 Y-1.585 Z-5.000 F1200.000
G3 X239.750 Y-1.585 Z-5.000 I-0.250 J-1.095 K0.000 F1200.000
G1 X230.250 Y-1.585 Z-5.000 F1200.000
G3 X229.750 Y-1.585 Z-5.000 I-0.250 J-1.095 K0.000 F1200.000
G1 X220.250 Y-1.585 Z-5.000 F1200.000
G3 X219.750 Y-1.585 Z-5.000 I-0.250 J-1.095 K0.000 F1200.000
G1 X210.250 Y-1.585 Z-5.000 F1200.000
G3 X209.750 Y-1.585 Z-5.000 I-0.250 J-1.095 K0.000 F1200.000
G1 X200.250 Y-1.585 Z-5.000 F1200.000
G3 X199.750 Y-1.585 Z-5.000 I-0.250 J-1.095 K0.000 F1200.000
G1 X190.250 Y-1.585 Z-5.000 F1200.000
G3 X189.750 Y-1.585 Z-5.000 I-0.250 J-1.095 K0.000 F1200.000
G1 X180.250 Y-1.585 Z-5.000 F1200.000
G3 X179.750 Y-1.585 Z-5.000 I-0.250 J-1.095 K0.000 F1200.000
G1 X170.250 Y-1.585 Z-5.000 F1200.000
G3 X169.750 Y-1.585 Z-5.000 I-0.250 J-1.095 K0.000 F1200.000
G1 X160.250 Y-1.585 Z-5.000 F1200.000
G3 X159.750 Y-1.585 Z-5.000 I-0.250 J-1.095 K0.000 F1200.000
G1 X150.250 Y-1.585 Z-5.000 F1200.000
G3 X149.750 Y-1.585 Z-5.000 I-0.250 J-1.095 K0.000 F1200.000
G1 X140.250 Y-1.585 Z-5.000 F1200.000
G3 X139.750 Y-1.585 Z-5.000 I-0.250 J-1.095 K0.000 F1200.000
G1 X130.250 Y-1.585 Z-5.000 F1200.000
G3 X129.750 Y-1.585 Z-5.000 I-0.250 J-1.095 K0.000 F1200.000
G1 X120.250 Y-1.585 Z-5.000 F1200.000
G3 X119.750 Y-1.585 Z-5.000 I-0.250 J-1.095 K0.000 F1200.000
G1 X110.250 Y-1.585 Z-5.000 F1200.000
G3 X109.750 Y-1.585 Z-5.000 I-0.250 J-1.095 K0.000 F1200.000
G1 X100.250 Y-1.585 Z-5.000 F1200.000
G3 X99.750 Y-1.585 Z-5.000 I-0.250 J-1.095 K0.000 F1200.000
G1 X90.250 Y-1.585 Z-5.000 F1200.000
G3 X89.750 Y-1.585 Z-5.000 I-0.250 J-1.095 K0.000 F1200.000
G1 X80.250 Y-1.585 Z-5.000 F1200.000
G3 X79.750 Y-1.585 Z-5.000 I-0.250 J-1.095 K0.000 F1200.000
G1 X70.250 Y-1.585 Z-5.000 F1200.000
G3 X69.750 Y-1.585 Z-5.000 I-0.250 J-1.095 K0.000 F1200.000
G1 X60.250 Y-1.585 Z-5.000 F1200.000
G3 X59.750 Y-1.585 Z-5.000 I-0.250 J-1.095 K0.000 F1200.000
G1 X50.250 Y-1.585 Z-5.000 F1200.000
G3 X49.750 Y-1.585 Z-5.000 I-0.250 J-1.095 K0.000 F1200.000
G1 X40.250 Y-1.585 Z-5.000 F1200.000
G3 X39.750 Y-1.585 Z-5.000 I-0.250 J-1.095 K0.000 F1200.000
G1 X30.250 Y-1.585 Z-5.000 F1200.000
G3 X29.750 Y-1.585 Z-5.000 I-0.250 J-1.095 K0.000 F1200.000
G1 X20.250 Y-1.585 Z-5.000 F1200.000
G3 X19.750 Y-1.585 Z-5.000 I-0.250 J-1.095 K0.000 F1200.000
G1 X10.250 Y-1.585 Z-5.000 F1200.000
G3 X9.750 Y-1.585 Z-5.000 I-0.250 J-1.095 K0.000 F1200.000
G1 X0.000 Y-1.585 Z-5.000 F1200.000
G2 X-1.585 Y0.000 Z-5.000 I0.000 J1.585 K0.000 F1200.000
G1 X-1.585 Y19.750 Z-5.000 F1200.000
G3 X-1.585 Y20.269 Z-5.000 I-1.205 J0.260 K0.000 F1200.000
G2 X-1.031 Y32.943 Z-5.000 I151.585 J-0.269 K0.000 F1200.000
G3 X-0.984 Y33.480 Z-5.000 I-1.259 J0.380 K0.000 F1200.000
G2 X0.671 Y46.057 Z-5.000 I150.985 J-13.480 K0.000 F1200.000
G3 X0.765 Y46.588 Z-5.000 I-1.221 J0.489 K0.000 F1200.000
G2 X3.511 Y58.973 Z-5.000 I149.235 J-26.588 K0.000 F1200.000
G3 X3.650 Y59.493 Z-5.000 I-1.174 J0.593 K0.000 F1200.000
G2 X7.465 Y71.592 Z-5.000 I146.350 J-39.493 K0.000 F1200.000
G3 X7.649 Y72.098 Z-5.000 I-1.118 J0.693 K0.000 F1200.000
G2 X12.504 Y83.818 Z-5.000 I142.351 J-52.098 K0.000 F1200.000
G3 X12.731 Y84.306 Z-5.000 I-1.053 J0.788 K0.000 F1200.000
G2 X18.589 Y95.559 Z-5.000 I137.269 J-64.307 K0.000 F1200.000
G3 X18.858 Y96.026 Z-5.000 I-0.980 J0.877 K0.000 F1200.000
G2 X25.675 Y106.725 Z-5.000 I131.142 J-76.026 K0.000 F1200.000
G3 X25.984 Y107.166 Z-5.000 I-0.900 J0.959 K0.000 F1200.000
G2 X33.706 Y117.230 Z-5.000 I124.016 J-87.166 K0.000 F1200.000
G3 X34.052 Y117.643 Z-5.000 I-0.813 J1.034 K0.000 F1200.000
G2 X42.623 Y126.996 Z-5.000 I115.948 J-97.643 K0.000 F1200.000
G3 X43.004 Y127.377 Z-5.000 I-0.720 J1.101 K0.000 F1200.000
G2 X52.357 Y135.948 Z-5.000 I106.996 J-107.377 K0.000 F1200.000
G3 X52.770 Y136.294 Z-5.000 I-0.621 J1.159 K0.000 F1200.000
G2 X62.834 Y144.016 Z-5.000 I97.231 J-116.294 K0.000 F1200.000
G3 X63.275 Y144.325 Z-5.000 I-0.518 J1.209 K0.000 F1200.000
G2 X73.974 Y151.142 Z-5.000 I86.725 J-124.325 K0.000 F1200.000
G3 X74.441 Y151.411 Z-5.000 I-0.411 J1.250 K0.000 F1200.000
G2 X85.694 Y157.269 Z-5.000 I75.559 J-131.411 K0.000 F1200.000
G3 X86.182 Y157.496 Z-5.000 I-0.300 J1.281 K0.000 F1200.000
G2 X97.902 Y162.351 Z-5.000 I63.818 J-137.496 K0.000 F1200.000
G3 X98.408 Y162.535 Z-5.000 I-0.187 J1.302 K0.000 F1200.000
G2 X110.507 Y166.350 Z-5.000 I51.592 J-142.535 K0.000 F1200.000
G3 X111.027 Y166.489 Z-5.000 I-0.073 J1.313 K0.000 F1200.000
G2 X123.412 Y169.235 Z-5.000 I38.973 J-146.489 K0.000 F1200.000
G3 X123.943 Y169.329 Z-5.000 I0.042 J1.315 K0.000 F1200.000
G2 X136.520 Y170.984 Z-5.000 I26.057 J-149.329 K0.000 F1200.000
G3 X137.057 Y171.031 Z-5.000 I0.156 J1.306 K0.000 F1200.000
G2 X149.731 Y171.585 Z-5.000 I12.943 J-151.031 K0.000 F1200.000
G3 X150.269 Y171.585 Z-5.000 I0.269 J1.288 K0.000 F1200.000
G2 X162.943 Y171.031 Z-5.000 I-0.269 J-151.585 K0.000 F1200.000
G3 X163.480 Y170.984 Z-5.000 I0.380 J1.259 K0.000 F1200.000
G2 X176.057 Y169.329 Z-5.000 I-13.480 J-150.984 K0.000 F1200.000
G3 X176.588 Y169.235 Z-5.000 I0.489 J1.221 K0.000 F1200.000
G2 X188.973 Y166.489 Z-5.000 I-26.588 J-149.235 K0.000 F1200.000
G3 X189.493 Y166.350 Z-5.000 I0.593 J1.174 K0.000 F1200.000
G2 X201.592 Y162.535 Z-5.000 I-39.493 J-146.350 K0.000 F1200.000
G3 X202.098 Y162.351 Z-5.000 I0.693 J1.118 K0.000 F1200.000
G2 X213.818 Y157.496 Z-5.000 I-52.098 J-142.351 K0.000 F1200.000
G3 X214.306 Y157.269 Z-5.000 I0.788 J1.053 K0.000 F1200.000
G2 X225.559 Y151.411 Z-5.000 I-64.306 J-137.269 K0.000 F1200.000
G3 X226.026 Y151.142 Z-5.000 I0.877 J0.980 K0.000 F1200.000
G2 X236.725 Y144.325 Z-5.000 I-76.026 J-131.142 K0.000 F1200.000
G3 X237.166 Y144.016 Z-5.000 I0.959 J0.900 K0.000 F1200.000
G2 X247.230 Y136.294 Z-5.000 I-87.166 J-124.016 K0.000 F1200.000
G3 X247.643 Y135.948 Z-5.000 I1.034 J0.813 K0.000 F1200.000
G2 X256.996 Y127.377 Z-5.000 I-97.643 J-115.947 K0.000 F1200.000
G3 X257.377 Y126.996 Z-5.000 I1.101 J0.720 K0.000 F1200.000
G0 Z5.000
G0 Z5.000
(Finish operation: Profile)
(Begin postamble)
M5
G17 G90
M2
