(Exported by FreeCAD)
(Post Processor: grbl_post)
(Output Time:2024-04-27 16:49:39.190090)
(Begin preamble)
G17 G90
G21
(Begin operation: TC: 3.175 Z1 UP Helicoidale007)
(Path: TC: 3.175 Z1 UP Helicoidale007)
(TC: 3.175 Z1 UP Helicoidale007)
(Begin toolchange)
( M6 T1 )
M3 S24000
(Finish operation: TC: 3.175 Z1 UP Helicoidale007)
(Begin operation: Fixture)
(Path: Fixture)
G54
(Finish operation: Fixture)
(Begin operation: Profile)
(Path: Profile)
(Profile)
(Compensated Tool Path. Diameter: 3.17)
G0 Z5.000
G0 X146.225 Y146.225
G0 Z3.000
G1 X146.225 Y146.225 Z-3.170 F500.000
G2 X88.959 Y-1.494 Z-3.170 I-61.225 J-61.225 K0.000 F2000.000
G2 X81.016 Y171.493 Z-3.170 I-3.959 J86.494 K0.000 F2000.000
G2 X146.225 Y146.225 Z-3.170 I3.984 J-86.493 K0.000 F2000.000
G1 X146.225 Y146.225 Z-6.340 F500.000
G2 X88.959 Y-1.494 Z-6.340 I-61.225 J-61.225 K0.000 F2000.000
G2 X81.016 Y171.493 Z-6.340 I-3.959 J86.494 K0.000 F2000.000
G2 X146.225 Y146.225 Z-6.340 I3.984 J-86.493 K0.000 F2000.000
G1 X146.225 Y146.225 Z-9.510 F500.000
G2 X88.959 Y-1.494 Z-9.510 I-61.225 J-61.225 K0.000 F2000.000
G2 X81.016 Y171.493 Z-9.510 I-3.959 J86.494 K0.000 F2000.000
G2 X146.225 Y146.225 Z-9.510 I3.984 J-86.493 K0.000 F2000.000
G1 X146.225 Y146.225 Z-12.680 F500.000
G2 X88.959 Y-1.494 Z-12.680 I-61.225 J-61.225 K0.000 F2000.000
G2 X81.016 Y171.493 Z-12.680 I-3.959 J86.494 K0.000 F2000.000
G2 X146.225 Y146.225 Z-12.680 I3.984 J-86.493 K0.000 F2000.000
G1 X146.225 Y146.225 Z-15.850 F500.000
G2 X88.959 Y-1.494 Z-15.850 I-61.225 J-61.225 K0.000 F2000.000
G2 X81.016 Y171.493 Z-15.850 I-3.959 J86.494 K0.000 F2000.000
G2 X146.225 Y146.225 Z-15.850 I3.984 J-86.493 K0.000 F2000.000
G1 X146.225 Y146.225 Z-18.600 F500.000
G2 X88.959 Y-1.494 Z-18.600 I-61.225 J-61.225 K0.000 F2000.000
G2 X81.016 Y171.493 Z-18.600 I-3.959 J86.494 K0.000 F2000.000
G2 X146.225 Y146.225 Z-18.600 I3.984 J-86.493 K0.000 F2000.000
G0 Z5.000
G0 Z5.000
(Finish operation: Profile)
(Begin operation: Helix)
(Path: Helix)
(Helix)
(helix cut operation)
G0 Z5.000
G0 Z5.000
G0 X85.000 Y85.000 Z5.000
G0 X85.000 Y85.000 Z0.000
G0 X86.585 Y85.000
G1 Z0.000 F500.000
G2 X83.415 Y85.000 Z-1.550 I-1.585 J0.000 F2000.000
G2 X86.585 Y85.000 Z-3.100 I1.585 J0.000 F2000.000
G2 X83.415 Y85.000 Z-4.650 I-1.585 J0.000 F2000.000
G2 X86.585 Y85.000 Z-6.200 I1.585 J0.000 F2000.000
G2 X83.415 Y85.000 Z-7.750 I-1.585 J0.000 F2000.000
G2 X86.585 Y85.000 Z-9.300 I1.585 J0.000 F2000.000
G2 X83.415 Y85.000 Z-10.850 I-1.585 J0.000 F2000.000
G2 X86.585 Y85.000 Z-12.400 I1.585 J0.000 F2000.000
G2 X83.415 Y85.000 Z-13.950 I-1.585 J0.000 F2000.000
G2 X86.585 Y85.000 Z-15.500 I1.585 J0.000 F2000.000
G2 X83.415 Y85.000 Z-17.050 I-1.585 J0.000 F2000.000
G2 X86.585 Y85.000 Z-18.600 I1.585 J0.000 F2000.000
G2 X83.415 Y85.000 Z-18.600 I-1.585 J0.000 F2000.000
G2 X86.585 Y85.000 Z-18.600 I1.585 J0.000 F2000.000
G0 X85.000 Y85.000 Z-18.600
G0 Z0.000
G0 X88.000 Y85.000
G1 Z0.000 F500.000
G2 X82.000 Y85.000 Z-1.550 I-3.000 J0.000 F2000.000
G2 X88.000 Y85.000 Z-3.100 I3.000 J0.000 F2000.000
G2 X82.000 Y85.000 Z-4.650 I-3.000 J0.000 F2000.000
G2 X88.000 Y85.000 Z-6.200 I3.000 J0.000 F2000.000
G2 X82.000 Y85.000 Z-7.750 I-3.000 J0.000 F2000.000
G2 X88.000 Y85.000 Z-9.300 I3.000 J0.000 F2000.000
G2 X82.000 Y85.000 Z-10.850 I-3.000 J0.000 F2000.000
G2 X88.000 Y85.000 Z-12.400 I3.000 J0.000 F2000.000
G2 X82.000 Y85.000 Z-13.950 I-3.000 J0.000 F2000.000
G2 X88.000 Y85.000 Z-15.500 I3.000 J0.000 F2000.000
G2 X82.000 Y85.000 Z-17.050 I-3.000 J0.000 F2000.000
G2 X88.000 Y85.000 Z-18.600 I3.000 J0.000 F2000.000
G2 X82.000 Y85.000 Z-18.600 I-3.000 J0.000 F2000.000
G2 X88.000 Y85.000 Z-18.600 I3.000 J0.000 F2000.000
G0 X85.000 Y85.000 Z-18.600
G0 Z0.000
G0 X89.415 Y85.000
G1 Z0.000 F500.000
G2 X80.585 Y85.000 Z-1.550 I-4.415 J0.000 F2000.000
G2 X89.415 Y85.000 Z-3.100 I4.415 J0.000 F2000.000
G2 X80.585 Y85.000 Z-4.650 I-4.415 J0.000 F2000.000
G2 X89.415 Y85.000 Z-6.200 I4.415 J0.000 F2000.000
G2 X80.585 Y85.000 Z-7.750 I-4.415 J0.000 F2000.000
G2 X89.415 Y85.000 Z-9.300 I4.415 J0.000 F2000.000
G2 X80.585 Y85.000 Z-10.850 I-4.415 J0.000 F2000.000
G2 X89.415 Y85.000 Z-12.400 I4.415 J0.000 F2000.000
G2 X80.585 Y85.000 Z-13.950 I-4.415 J0.000 F2000.000
G2 X89.415 Y85.000 Z-15.500 I4.415 J0.000 F2000.000
G2 X80.585 Y85.000 Z-17.050 I-4.415 J0.000 F2000.000
G2 X89.415 Y85.000 Z-18.600 I4.415 J0.000 F2000.000
G2 X80.585 Y85.000 Z-18.600 I-4.415 J0.000 F2000.000
G2 X89.415 Y85.000 Z-18.600 I4.415 J0.000 F2000.000
G0 X85.000 Y85.000 Z-18.600
G0 Z0.000
G0 Z5.000
(Finish operation: Helix)
(Begin postamble)
M5
G17 G90
M2
