;FLAVOR:Marlin
;TIME:8846
;Filament used: 6.11048m
;Layer height: 0.2
;MINX:57.373
;MINY:57.651
;MINZ:0.2
;MAXX:162.679
;MAXY:162.371
;MAXZ:7
;TARGET_MACHINE.NAME:Creality Ender-3
;Generated with Cura_SteamEngine 5.9.0
M140 S70
M105
M190 S70
M104 S240
M105
M109 S240
M82 ;absolute extrusion mode
; Ender 3 Custom Start G-code
G92 E0 ; Reset Extruder
G28 ; Home all axes
M420 S1 ; Rappel du Bed levelling sauvegardé
;G29 ; pour refaire un bed levelling à chaque print
G1 Z2.0 F3000 ; Move Z Axis up little to prevent scratching of Heat Bed
G1 X0.1 Y20 Z0.3 F5000.0 ; Move to start position
G1 X0.1 Y200.0 Z0.3 F1500.0 E15 ; Draw the first line
G1 X0.4 Y200.0 Z0.3 F5000.0 ; Move to side a little
G1 X0.4 Y20 Z0.3 F1500.0 E30 ; Draw the second line
G92 E0 ; Reset Extruder
G1 Z2.0 F3000 ; Move Z Axis up little to prevent scratching of Heat Bed
G1 X5 Y20 Z0.3 F5000.0 ; Move over to prevent blob squish
G92 E0
G92 E0
G1 F2700 E-5
;LAYER_COUNT:35
;LAYER:0
M107
;MESH:jauge_arrondis_16-30.stl
G0 F6000 X110 Y134.461 Z0.2
;TYPE:WALL-INNER
G1 F2700 E0
G1 F900 X109.536 Y134.461 E0.01543
G1 X108.465 Y134.415 E0.05109
G1 X107.466 Y134.33 E0.08443
G1 X106.478 Y134.205 E0.11756
G1 X105.532 Y134.045 E0.14947
G1 X104.577 Y133.844 E0.18193
G1 X103.547 Y133.58 E0.21729
G1 X102.607 Y133.292 E0.24999
G1 X101.643 Y132.958 E0.28392
G1 X100.716 Y132.588 E0.31712
G1 X99.814 Y132.187 E0.34995
G1 X98.905 Y131.735 E0.38372
G1 X98.033 Y131.255 E0.41682
G1 X97.172 Y130.734 E0.4503
G1 X96.374 Y130.203 E0.48218
G1 X95.576 Y129.624 E0.51497
G1 X94.78 Y128.994 E0.54873
G1 X93.999 Y128.319 E0.58307
G1 X93.303 Y127.663 E0.61488
G1 X92.572 Y126.923 E0.64947
G1 X91.94 Y126.223 E0.68084
G1 X91.298 Y125.45 E0.71426
G1 X90.634 Y124.574 E0.75082
G1 X90.078 Y123.772 E0.78328
G1 X89.574 Y122.98 E0.8145
G1 X89.043 Y122.062 E0.84978
G1 X88.428 Y120.877 E0.89418
G1 X88.436 Y120.865 E0.89466
G1 X88.152 Y120.266 E0.91671
G1 X87.767 Y119.344 E0.94994
G1 X87.424 Y118.417 E0.98282
G1 X87.115 Y117.462 E1.0162
G1 X86.855 Y116.534 E1.04826
G1 X86.619 Y115.514 E1.08308
G1 X86.43 Y114.552 E1.11568
G1 X86.286 Y113.578 E1.14843
G1 X86.178 Y112.53 E1.18347
G1 X86.121 Y111.59 E1.2148
G1 X86.1 Y110.554 E1.24926
G1 X86.122 Y109.544 E1.28286
G1 X86.18 Y108.573 E1.31521
G1 X86.29 Y107.533 E1.35
G1 X86.433 Y106.566 E1.38251
G1 X86.629 Y105.56 E1.4166
G1 X86.854 Y104.601 E1.44936
G1 X87.124 Y103.634 E1.48275
G1 X87.435 Y102.684 E1.516
G1 X87.78 Y101.759 E1.54884
G1 X88.157 Y100.858 E1.58132
G1 X88.595 Y99.93 E1.61545
G1 X89.06 Y99.041 E1.64882
G1 X89.566 Y98.171 E1.6823
G1 X90.074 Y97.361 E1.7141
G1 X90.644 Y96.545 E1.7472
G1 X91.265 Y95.727 E1.78136
G1 X91.922 Y94.927 E1.81579
G1 X92.56 Y94.224 E1.84737
G1 X93.259 Y93.504 E1.88074
G1 X93.983 Y92.826 E1.91373
G1 X94.739 Y92.173 E1.94696
G1 X95.521 Y91.551 E1.98019
G1 X96.329 Y90.963 E2.01343
G1 X97.158 Y90.407 E2.04663
G1 X98.061 Y89.863 E2.08169
G1 X98.937 Y89.379 E2.11498
G1 X99.701 Y89.003 E2.1433
G1 X101.042 Y88.402 E2.19218
G1 X101.051 Y88.409 E2.19256
G1 X101.655 Y88.168 E2.21419
G1 X102.608 Y87.836 E2.24775
G1 X103.539 Y87.556 E2.28009
G1 X104.531 Y87.3 E2.31416
G1 X105.55 Y87.084 E2.34881
G1 X106.523 Y86.918 E2.38164
G1 X107.511 Y86.796 E2.41475
G1 X108.496 Y86.714 E2.44762
G1 X109.484 Y86.672 E2.48051
G1 X110.507 Y86.673 E2.51454
G1 X111.526 Y86.716 E2.54846
G1 X112.477 Y86.794 E2.5802
G1 X113.489 Y86.922 E2.61413
G1 X114.488 Y87.09 E2.64782
G1 X115.435 Y87.292 E2.68002
G1 X116.449 Y87.551 E2.71483
G1 X117.394 Y87.838 E2.74768
G1 X118.352 Y88.174 E2.78145
G1 X119.294 Y88.548 E2.81516
G1 X120.276 Y88.986 E2.85092
G1 X121.091 Y89.397 E2.88128
G1 X121.949 Y89.869 E2.91385
G1 X122.778 Y90.372 E2.9461
G1 X123.666 Y90.962 E2.98156
G1 X124.429 Y91.515 E3.0129
G1 X125.239 Y92.156 E3.04726
G1 X126.013 Y92.825 E3.08129
G1 X126.707 Y93.475 E3.11291
G1 X127.398 Y94.177 E3.14567
G1 X128.094 Y94.954 E3.18037
G1 X128.737 Y95.731 E3.21391
G1 X129.353 Y96.547 E3.24792
G1 X129.909 Y97.347 E3.28032
G1 X130.422 Y98.153 E3.3121
G1 X130.953 Y99.069 E3.34731
G1 X131.569 Y100.257 E3.39182
G1 X131.561 Y100.269 E3.3923
G1 X131.833 Y100.841 E3.41337
G1 X132.214 Y101.748 E3.44609
G1 X132.562 Y102.685 E3.47933
G1 X132.864 Y103.61 E3.5117
G1 X133.146 Y104.617 E3.54648
G1 X133.374 Y105.599 E3.58001
G1 X133.561 Y106.55 E3.61225
G1 X133.713 Y107.579 E3.64684
G1 X133.817 Y108.597 E3.68088
G1 X133.88 Y109.585 E3.7138
G1 X133.9 Y110.587 E3.74714
G1 X133.878 Y111.608 E3.7811
G1 X133.816 Y112.546 E3.81237
G1 X133.718 Y113.521 E3.84496
G1 X133.569 Y114.536 E3.87908
G1 X133.368 Y115.565 E3.91395
G1 X133.145 Y116.52 E3.94657
G1 X132.872 Y117.498 E3.98034
G1 X132.572 Y118.419 E4.01256
G1 X132.229 Y119.351 E4.04559
G1 X131.834 Y120.283 E4.07926
G1 X131.404 Y121.195 E4.1128
G1 X130.959 Y122.049 E4.14482
G1 X130.431 Y122.965 E4.17999
G1 X129.895 Y123.811 E4.2133
G1 X129.347 Y124.6 E4.24525
G1 X128.747 Y125.39 E4.27825
G1 X128.119 Y126.15 E4.31104
G1 X127.446 Y126.901 E4.34458
G1 X126.704 Y127.656 E4.37979
G1 X125.986 Y128.33 E4.41254
G1 X125.242 Y128.976 E4.44531
G1 X124.449 Y129.604 E4.47896
G1 X123.623 Y130.2 E4.51283
G1 X122.828 Y130.732 E4.54465
G1 X121.93 Y131.276 E4.57957
G1 X121.088 Y131.738 E4.61151
G1 X120.182 Y132.187 E4.64515
G1 X119.253 Y132.602 E4.67899
G1 X118.348 Y132.961 E4.71137
G1 X117.368 Y133.3 E4.74586
G1 X116.405 Y133.592 E4.77933
G1 X115.429 Y133.843 E4.81285
G1 X114.457 Y134.044 E4.84586
G1 X113.464 Y134.214 E4.87937
G1 X112.53 Y134.331 E4.91068
G1 X111.487 Y134.419 E4.94549
G1 X110.506 Y134.46 E4.97815
G1 X110 Y134.461 E4.99497
G0 F6000 X110 Y134.061
G1 F900 X109.536 Y134.061 E5.01041
G1 X108.525 Y134.019 E5.04406
G1 X107.515 Y133.933 E5.07778
G1 X106.545 Y133.811 E5.11029
G1 X105.581 Y133.647 E5.14282
G1 X104.664 Y133.453 E5.17399
G1 X103.664 Y133.197 E5.20832
G1 X102.737 Y132.914 E5.24056
G1 X101.79 Y132.586 E5.27389
G1 X100.878 Y132.223 E5.30654
G1 X99.992 Y131.829 E5.33879
G1 X99.097 Y131.385 E5.37202
G1 X98.261 Y130.925 E5.40376
G1 X97.408 Y130.411 E5.43688
G1 X96.584 Y129.862 E5.46981
G1 X95.79 Y129.284 E5.50248
G1 X95.006 Y128.662 E5.53577
G1 X94.306 Y128.058 E5.56652
G1 X93.552 Y127.347 E5.60099
G1 X92.869 Y126.655 E5.63332
G1 X92.237 Y125.955 E5.66469
G1 X91.579 Y125.161 E5.69899
G1 X90.963 Y124.346 E5.73297
G1 X90.416 Y123.557 E5.7649
G1 X89.893 Y122.735 E5.79731
G1 X89.398 Y121.877 E5.83025
G1 X88.797 Y120.723 E5.87353
G1 X88.805 Y120.71 E5.87403
G1 X88.521 Y120.111 E5.89608
G1 X88.142 Y119.205 E5.92875
G1 X87.804 Y118.293 E5.9611
G1 X87.512 Y117.393 E5.99257
G1 X87.229 Y116.383 E6.02745
G1 X87.011 Y115.437 E6.05974
G1 X86.822 Y114.471 E6.09248
G1 X86.681 Y113.508 E6.12485
G1 X86.577 Y112.505 E6.15839
G1 X86.52 Y111.546 E6.19034
G1 X86.5 Y110.563 E6.22304
G1 X86.521 Y109.568 E6.25615
G1 X86.581 Y108.583 E6.28897
G1 X86.686 Y107.591 E6.32215
G1 X86.826 Y106.642 E6.35405
G1 X87.018 Y105.651 E6.38763
G1 X87.24 Y104.708 E6.41985
G1 X87.505 Y103.758 E6.45265
G1 X87.81 Y102.823 E6.48536
G1 X88.143 Y101.927 E6.51715
G1 X88.535 Y100.993 E6.55084
G1 X88.961 Y100.093 E6.58396
G1 X89.406 Y99.242 E6.6159
G1 X89.904 Y98.384 E6.6489
G1 X90.424 Y97.559 E6.68133
G1 X90.996 Y96.742 E6.71451
G1 X91.59 Y95.962 E6.74711
G1 X92.196 Y95.222 E6.77893
G1 X92.866 Y94.483 E6.8121
G1 X93.556 Y93.773 E6.84503
G1 X94.253 Y93.121 E6.87678
G1 X95.029 Y92.453 E6.91083
G1 X95.804 Y91.838 E6.94374
G1 X96.596 Y91.264 E6.97627
G1 X97.419 Y90.715 E7.00918
G1 X98.215 Y90.235 E7.04009
G1 X99.114 Y89.738 E7.07426
G1 X99.907 Y89.349 E7.10364
G1 X101.174 Y88.78 E7.14983
G1 X101.183 Y88.786 E7.15019
G1 X101.792 Y88.544 E7.17199
G1 X102.731 Y88.216 E7.20507
G1 X103.682 Y87.931 E7.23809
G1 X104.673 Y87.677 E7.27212
G1 X105.618 Y87.478 E7.30424
G1 X106.572 Y87.315 E7.33643
G1 X107.504 Y87.199 E7.36766
G1 X108.542 Y87.112 E7.40231
G1 X109.536 Y87.072 E7.4354
G1 X110.49 Y87.072 E7.46713
G1 X111.474 Y87.113 E7.49988
G1 X112.439 Y87.192 E7.53209
G1 X113.449 Y87.321 E7.56595
G1 X114.383 Y87.477 E7.59745
G1 X115.363 Y87.686 E7.63077
G1 X116.333 Y87.934 E7.66407
G1 X117.262 Y88.215 E7.69636
G1 X118.205 Y88.546 E7.7296
G1 X119.131 Y88.914 E7.76274
G1 X120.118 Y89.354 E7.79868
G1 X120.899 Y89.747 E7.82776
G1 X121.75 Y90.216 E7.86008
G1 X122.589 Y90.726 E7.89273
G1 X123.431 Y91.286 E7.92637
G1 X124.188 Y91.834 E7.95745
G1 X124.978 Y92.459 E7.99095
G1 X125.74 Y93.117 E8.02444
G1 X126.45 Y93.783 E8.05682
G1 X127.11 Y94.454 E8.08812
G1 X127.786 Y95.209 E8.12183
G1 X128.418 Y95.972 E8.15478
G1 X129.025 Y96.776 E8.18829
G1 X129.572 Y97.562 E8.22014
G1 X130.085 Y98.368 E8.25191
G1 X130.598 Y99.255 E8.28599
G1 X131.2 Y100.411 E8.32934
G1 X131.191 Y100.424 E8.32987
G1 X131.474 Y101.02 E8.35181
G1 X131.85 Y101.916 E8.38413
G1 X132.195 Y102.85 E8.41725
G1 X132.496 Y103.775 E8.4496
G1 X132.766 Y104.748 E8.48319
G1 X132.982 Y105.675 E8.51485
G1 X133.174 Y106.661 E8.54826
G1 X133.313 Y107.598 E8.57976
G1 X133.418 Y108.623 E8.61403
G1 X133.48 Y109.594 E8.64639
G1 X133.5 Y110.579 E8.67916
G1 X133.48 Y111.562 E8.71186
G1 X133.415 Y112.529 E8.7441
G1 X133.32 Y113.481 E8.77592
G1 X133.17 Y114.491 E8.80988
G1 X132.979 Y115.475 E8.84322
G1 X132.76 Y116.413 E8.87526
G1 X132.498 Y117.353 E8.90771
G1 X132.194 Y118.288 E8.94041
G1 X131.849 Y119.223 E8.97356
G1 X131.47 Y120.117 E9.00586
G1 X131.035 Y121.039 E9.03977
G1 X130.592 Y121.887 E9.07159
G1 X130.093 Y122.751 E9.10477
G1 X129.566 Y123.583 E9.13753
G1 X129.004 Y124.39 E9.17024
G1 X128.407 Y125.174 E9.20301
G1 X127.812 Y125.894 E9.23408
G1 X127.118 Y126.665 E9.26858
G1 X126.43 Y127.365 E9.30123
G1 X125.754 Y128.001 E9.3321
G1 X124.984 Y128.67 E9.36602
G1 X124.194 Y129.295 E9.39953
G1 X123.4 Y129.868 E9.43209
G1 X122.609 Y130.397 E9.46374
G1 X121.738 Y130.925 E9.49762
G1 X120.884 Y131.393 E9.53001
G1 X119.993 Y131.833 E9.56306
G1 X119.106 Y132.23 E9.59538
G1 X118.209 Y132.586 E9.62748
G1 X117.251 Y132.917 E9.66119
G1 X116.304 Y133.204 E9.6941
G1 X115.348 Y133.452 E9.72695
G1 X114.39 Y133.65 E9.75949
G1 X113.414 Y133.817 E9.79242
G1 X112.453 Y133.937 E9.82464
G1 X111.47 Y134.02 E9.85745
G1 X110.476 Y134.06 E9.89053
G1 X110 Y134.061 E9.90637
G0 F6000 X110 Y133.661
G1 F900 X109.536 Y133.661 E9.9218
G1 X108.533 Y133.618 E9.95519
G1 X107.565 Y133.536 E9.9875
G1 X106.612 Y133.416 E10.01945
G1 X105.663 Y133.256 E10.05146
G1 X104.731 Y133.058 E10.08315
G1 X103.781 Y132.814 E10.11577
G1 X102.868 Y132.536 E10.14751
G1 X101.938 Y132.214 E10.18025
G1 X101.04 Y131.857 E10.21239
G1 X100.169 Y131.47 E10.24409
G1 X99.29 Y131.034 E10.27672
G1 X98.434 Y130.562 E10.30923
G1 X97.615 Y130.068 E10.34105
G1 X96.819 Y129.538 E10.37285
G1 X96.039 Y128.971 E10.40493
G1 X95.268 Y128.359 E10.43767
G1 X94.548 Y127.737 E10.46931
G1 X93.837 Y127.066 E10.50183
G1 X93.166 Y126.387 E10.53358
G1 X92.518 Y125.668 E10.56577
G1 X91.897 Y124.919 E10.59813
G1 X91.291 Y124.117 E10.63157
G1 X90.753 Y123.343 E10.66292
G1 X90.238 Y122.532 E10.69487
G1 X89.752 Y121.691 E10.72718
G1 X89.166 Y120.568 E10.76931
G1 X89.175 Y120.555 E10.76983
G1 X88.89 Y119.957 E10.79187
G1 X88.517 Y119.065 E10.82402
G1 X88.185 Y118.17 E10.85577
G1 X87.886 Y117.246 E10.88807
G1 X87.619 Y116.292 E10.92102
G1 X87.404 Y115.36 E10.95284
G1 X87.218 Y114.412 E10.98497
G1 X87.079 Y113.467 E11.01674
G1 X86.977 Y112.481 E11.04971
G1 X86.92 Y111.537 E11.08116
G1 X86.9 Y110.571 E11.1133
G1 X86.921 Y109.592 E11.14587
G1 X86.979 Y108.625 E11.17809
G1 X87.082 Y107.649 E11.21073
G1 X87.218 Y106.718 E11.24202
G1 X87.407 Y105.743 E11.27506
G1 X87.625 Y104.815 E11.30676
G1 X87.885 Y103.882 E11.33898
G1 X88.185 Y102.963 E11.37113
G1 X88.518 Y102.068 E11.40289
G1 X88.897 Y101.163 E11.43552
G1 X89.316 Y100.278 E11.46809
G1 X89.752 Y99.443 E11.49942
G1 X90.243 Y98.597 E11.53196
G1 X90.742 Y97.801 E11.5632
G1 X91.314 Y96.984 E11.59637
G1 X91.899 Y96.215 E11.62851
G1 X92.515 Y95.464 E11.66082
G1 X93.153 Y94.762 E11.69237
G1 X93.829 Y94.065 E11.72466
G1 X94.517 Y93.421 E11.75601
G1 X95.278 Y92.766 E11.7894
G1 X96.039 Y92.162 E11.82172
G1 X96.818 Y91.597 E11.85372
G1 X97.626 Y91.058 E11.88603
G1 X98.448 Y90.563 E11.91794
G1 X99.291 Y90.097 E11.94998
G1 X100.072 Y89.713 E11.97892
G1 X101.306 Y89.157 E12.02394
G1 X101.316 Y89.164 E12.02435
G1 X101.938 Y88.917 E12.04661
G1 X102.867 Y88.593 E12.07933
G1 X103.782 Y88.318 E12.11111
G1 X104.755 Y88.068 E12.14452
G1 X105.686 Y87.872 E12.17617
G1 X106.621 Y87.712 E12.20772
G1 X107.577 Y87.594 E12.23975
G1 X108.558 Y87.512 E12.2725
G1 X109.536 Y87.472 E12.30505
G1 X110.473 Y87.472 E12.33622
G1 X111.461 Y87.513 E12.36911
G1 X112.42 Y87.592 E12.40111
G1 X113.383 Y87.716 E12.4334
G1 X114.322 Y87.873 E12.46507
G1 X115.264 Y88.074 E12.49711
G1 X116.218 Y88.317 E12.52985
G1 X117.13 Y88.593 E12.56154
G1 X118.058 Y88.918 E12.59424
G1 X118.968 Y89.279 E12.62681
G1 X119.938 Y89.711 E12.66212
G1 X120.706 Y90.098 E12.69073
G1 X121.564 Y90.571 E12.72331
G1 X122.368 Y91.059 E12.75459
G1 X123.186 Y91.602 E12.78725
G1 X123.956 Y92.161 E12.8189
G1 X124.717 Y92.761 E12.85113
G1 X125.466 Y93.409 E12.88407
G1 X126.165 Y94.063 E12.91591
G1 X126.835 Y94.747 E12.94775
G1 X127.478 Y95.464 E12.97979
G1 X128.099 Y96.214 E13.01217
G1 X128.697 Y97.005 E13.04515
G1 X129.235 Y97.777 E13.07645
G1 X129.76 Y98.603 E13.109
G1 X130.244 Y99.441 E13.14119
G1 X130.83 Y100.565 E13.18335
G1 X130.822 Y100.578 E13.18386
G1 X131.106 Y101.175 E13.20585
G1 X131.475 Y102.055 E13.23758
G1 X131.815 Y102.974 E13.27017
G1 X132.11 Y103.882 E13.30193
G1 X132.377 Y104.839 E13.33497
G1 X132.589 Y105.752 E13.36615
G1 X132.778 Y106.719 E13.39892
G1 X132.916 Y107.648 E13.43016
G1 X133.019 Y108.649 E13.46363
G1 X133.08 Y109.603 E13.49542
G1 X133.1 Y110.571 E13.52762
G1 X133.079 Y111.556 E13.56039
G1 X133.017 Y112.489 E13.59149
G1 X132.918 Y113.468 E13.62422
G1 X132.778 Y114.415 E13.65606
G1 X132.589 Y115.384 E13.6889
G1 X132.375 Y116.305 E13.72035
G1 X132.111 Y117.25 E13.75298
G1 X131.812 Y118.167 E13.78506
G1 X131.481 Y119.067 E13.81695
G1 X131.103 Y119.956 E13.84908
G1 X130.687 Y120.842 E13.88164
G1 X130.245 Y121.688 E13.91339
G1 X129.755 Y122.537 E13.94599
G1 X129.237 Y123.355 E13.97819
G1 X128.686 Y124.148 E14.01031
G1 X128.099 Y124.919 E14.04254
G1 X127.491 Y125.654 E14.07427
G1 X126.851 Y126.366 E14.10611
G1 X126.156 Y127.073 E14.13908
G1 X125.462 Y127.726 E14.17078
G1 X124.713 Y128.375 E14.20374
G1 X123.96 Y128.971 E14.23568
G1 X123.178 Y129.535 E14.26775
G1 X122.372 Y130.073 E14.29998
G1 X121.545 Y130.574 E14.33214
G1 X120.707 Y131.034 E14.36393
G1 X119.83 Y131.468 E14.39648
G1 X118.958 Y131.858 E14.42825
G1 X118.052 Y132.216 E14.46065
G1 X117.135 Y132.535 E14.49294
G1 X116.203 Y132.817 E14.52533
G1 X115.267 Y133.06 E14.55749
G1 X114.322 Y133.256 E14.58959
G1 X113.364 Y133.42 E14.62192
G1 X112.438 Y133.537 E14.65296
G1 X111.454 Y133.62 E14.68581
G1 X110.476 Y133.66 E14.71836
G1 X110 Y133.661 E14.7342
G1 F2700 E9.7342
G0 F6000 X110 Y133.973
G0 X109.982 Y134.66
G0 X110.138 Y152.722
G0 X110 Y152.922
G1 F2700 E14.7342
G1 F900 X110.303 Y152.92 E14.74427
G1 X110.955 Y152.966 E14.76601
G1 X111.651 Y153.062 E14.78938
G1 X112.24 Y153.188 E14.80941
G1 X112.895 Y153.373 E14.83205
G1 X113.498 Y153.591 E14.85338
G1 X114.071 Y153.843 E14.8742
G1 X114.567 Y154.099 E14.89276
G1 X115.196 Y154.483 E14.91727
G1 X115.737 Y154.873 E14.93946
G1 X116.218 Y155.27 E14.9602
G1 X116.614 Y155.638 E14.97818
G1 X120.378 Y159.399 E15.15516
G1 X122.108 Y154.897 E15.31557
G1 X122.381 Y154.265 E15.33847
G1 X122.703 Y153.64 E15.36185
G1 X123.032 Y153.099 E15.38291
G1 X123.364 Y152.619 E15.40232
G1 X123.836 Y152.029 E15.42745
G1 X124.31 Y151.513 E15.45076
G1 X124.728 Y151.112 E15.47002
G1 X125.279 Y150.656 E15.49381
G1 X125.84 Y150.254 E15.51677
G1 X126.361 Y149.931 E15.53715
G1 X127.01 Y149.585 E15.56162
G1 X127.593 Y149.325 E15.58285
G1 X128.247 Y149.081 E15.60606
G1 X128.896 Y148.895 E15.62852
G1 X129.578 Y148.745 E15.65174
G1 X130.244 Y148.65 E15.67412
G1 X130.903 Y148.597 E15.69611
G1 X131.565 Y148.592 E15.71813
G1 X132.234 Y148.628 E15.74041
G1 X132.886 Y148.712 E15.76228
G1 X133.643 Y148.862 E15.78794
G1 X134.269 Y149.032 E15.80952
G1 X134.883 Y149.245 E15.83113
G1 X139.345 Y150.959 E15.99011
G1 X139.12 Y146.638 E16.13403
G1 X139.109 Y145.966 E16.15638
