;FLAVOR:Marlin
;TIME:4637
;Filament used: 3.05435m
;Layer height: 0.2
;MINX:74.773
;MINY:74.945
;MINZ:0.2
;MAXX:145.249
;MAXY:145.061
;MAXZ:7
;TARGET_MACHINE.NAME:Creality Ender-3
;Generated with Cura_SteamEngine 5.9.0
M140 S70
M105
M190 S70
M104 S240
M105
M109 S240
M82 ;absolute extrusion mode
; Ender 3 Custom Start G-code
G92 E0 ; Reset Extruder
G28 ; Home all axes
M420 S1 ; Rappel du Bed levelling sauvegardé
;G29 ; pour refaire un bed levelling à chaque print
G1 Z2.0 F3000 ; Move Z Axis up little to prevent scratching of Heat Bed
G1 X0.1 Y20 Z0.3 F5000.0 ; Move to start position
G1 X0.1 Y200.0 Z0.3 F1500.0 E15 ; Draw the first line
G1 X0.4 Y200.0 Z0.3 F5000.0 ; Move to side a little
G1 X0.4 Y20 Z0.3 F1500.0 E30 ; Draw the second line
G92 E0 ; Reset Extruder
G1 Z2.0 F3000 ; Move Z Axis up little to prevent scratching of Heat Bed
G1 X5 Y20 Z0.3 F5000.0 ; Move over to prevent blob squish
G92 E0
G92 E0
G1 F2700 E-5
;LAYER_COUNT:35
;LAYER:0
M107
;MESH:jauge_arrondis.stl
G0 F6000 X110 Y124.275 Z0.2
;TYPE:WALL-INNER
G1 F2700 E0
G1 F900 X109.968 Y124.276 E0.00106
G1 X109.242 Y124.256 E0.02522
G1 X108.415 Y124.183 E0.05283
G1 X107.682 Y124.081 E0.07745
G1 X106.906 Y123.926 E0.10377
G1 X106.148 Y123.734 E0.12978
G1 X105.449 Y123.509 E0.1542
G1 X104.627 Y123.197 E0.18344
G1 X103.93 Y122.879 E0.20892
G1 X103.256 Y122.528 E0.2342
G1 X102.569 Y122.124 E0.26071
G1 X101.96 Y121.716 E0.28509
G1 X101.369 Y121.271 E0.30969
G1 X100.707 Y120.715 E0.33845
G1 X100.151 Y120.187 E0.36395
G1 X99.638 Y119.64 E0.38889
G1 X99.101 Y119.003 E0.4166
G1 X98.685 Y118.451 E0.43959
G1 X98.215 Y117.747 E0.46775
G1 X97.839 Y117.111 E0.49232
G1 X97.473 Y116.407 E0.51871
G1 X97.154 Y115.683 E0.54502
G1 X96.884 Y114.984 E0.56995
G1 X96.639 Y114.218 E0.5967
G1 X96.442 Y113.45 E0.62307
G1 X96.293 Y112.694 E0.64869
G1 X96.18 Y111.888 E0.67576
G1 X96.12 Y111.117 E0.70149
G1 X96.1 Y110.351 E0.72697
G1 X96.117 Y109.618 E0.75136
G1 X96.184 Y108.84 E0.77733
G1 X96.29 Y108.07 E0.80318
G1 X96.452 Y107.261 E0.83062
G1 X96.645 Y106.518 E0.85616
G1 X96.877 Y105.788 E0.88163
G1 X97.17 Y105.018 E0.90903
G1 X97.468 Y104.355 E0.93321
G1 X97.825 Y103.661 E0.95917
G1 X98.236 Y102.962 E0.98614
G1 X98.628 Y102.377 E1.00956
G1 X99.158 Y101.676 E1.03879
G1 X99.629 Y101.118 E1.06308
G1 X100.158 Y100.553 E1.08882
G1 X100.752 Y99.998 E1.11586
G1 X101.295 Y99.538 E1.13953
G1 X101.928 Y99.058 E1.16595
G1 X102.606 Y98.603 E1.19311
G1 X103.233 Y98.233 E1.21732
G1 X103.956 Y97.854 E1.24447
G1 X104.694 Y97.524 E1.27136
G1 X105.363 Y97.268 E1.29518
G1 X106.159 Y97.013 E1.32298
G1 X106.889 Y96.827 E1.34804
G1 X107.711 Y96.665 E1.37591
G1 X108.462 Y96.559 E1.40113
G1 X109.256 Y96.496 E1.42762
G1 X110.008 Y96.475 E1.45265
G1 X110.81 Y96.5 E1.47933
G1 X111.544 Y96.56 E1.50383
G1 X112.345 Y96.675 E1.53074
G1 X113.046 Y96.814 E1.55451
G1 X113.825 Y97.011 E1.58124
G1 X114.563 Y97.244 E1.60698
G1 X115.32 Y97.535 E1.63395
G1 X116.029 Y97.849 E1.65974
G1 X116.759 Y98.231 E1.68714
G1 X117.421 Y98.621 E1.7127
G1 X118.025 Y99.027 E1.73691
G1 X118.631 Y99.48 E1.76207
G1 X119.267 Y100.013 E1.78967
G1 X119.853 Y100.569 E1.81654
G1 X120.395 Y101.149 E1.84294
G1 X120.893 Y101.742 E1.8687
G1 X121.305 Y102.286 E1.89139
G1 X121.797 Y103.025 E1.92092
G1 X122.175 Y103.675 E1.94593
G1 X122.538 Y104.378 E1.97224
G1 X122.828 Y105.024 E1.9958
G1 X123.118 Y105.774 E2.02254
G1 X123.368 Y106.574 E2.05042
G1 X123.545 Y107.261 E2.07401
G1 X123.711 Y108.094 E2.10226
G1 X123.816 Y108.849 E2.12762
G1 X123.88 Y109.643 E2.15411
G1 X123.9 Y110.413 E2.17973
G1 X123.88 Y111.105 E2.20276
G1 X123.812 Y111.913 E2.22973
G1 X123.705 Y112.68 E2.25548
G1 X123.546 Y113.482 E2.28268
G1 X123.359 Y114.212 E2.30774
G1 X123.128 Y114.946 E2.33333
G1 X122.832 Y115.71 E2.36059
G1 X122.522 Y116.402 E2.38581
G1 X122.171 Y117.087 E2.41141
G1 X121.77 Y117.769 E2.43772
G1 X121.323 Y118.435 E2.4644
G1 X120.851 Y119.058 E2.49039
G1 X120.35 Y119.655 E2.51632
G1 X119.862 Y120.171 E2.53994
G1 X119.286 Y120.714 E2.56627
G1 X118.666 Y121.242 E2.59335
G1 X118.011 Y121.735 E2.62062
G1 X117.402 Y122.139 E2.64493
G1 X116.702 Y122.551 E2.67194
G1 X116.078 Y122.875 E2.69533
G1 X115.292 Y123.229 E2.724
G1 X114.601 Y123.492 E2.74859
G1 X113.856 Y123.73 E2.7746
G1 X113.112 Y123.921 E2.80015
G1 X112.297 Y124.083 E2.82779
G1 X111.556 Y124.187 E2.85267
G1 X110.749 Y124.256 E2.87961
G1 X110 Y124.275 E2.90453
G0 F6000 X110 Y123.875
G1 F900 X109.979 Y123.876 E2.90523
G1 X109.258 Y123.856 E2.92922
G1 X108.521 Y123.793 E2.95382
G1 X107.719 Y123.681 E2.98076
G1 X106.97 Y123.53 E3.00617
G1 X106.29 Y123.358 E3.0295
G1 X105.527 Y123.112 E3.05616
G1 X104.792 Y122.832 E3.08232
G1 X104.115 Y122.524 E3.10706
G1 X103.448 Y122.177 E3.13207
G1 X102.791 Y121.792 E3.1574
G1 X102.194 Y121.392 E3.1813
G1 X101.565 Y120.916 E3.20753
G1 X100.981 Y120.424 E3.23293
G1 X100.485 Y119.956 E3.25561
G1 X99.935 Y119.373 E3.28227
G1 X99.421 Y118.762 E3.30883
G1 X98.971 Y118.163 E3.33375
G1 X98.559 Y117.543 E3.3585
G1 X98.176 Y116.893 E3.3836
G1 X97.834 Y116.233 E3.40832
G1 X97.527 Y115.538 E3.43359
G1 X97.261 Y114.851 E3.45809
G1 X97.023 Y114.107 E3.48408
G1 X96.835 Y113.372 E3.50931
G1 X96.688 Y112.631 E3.53443
G1 X96.582 Y111.891 E3.5593
G1 X96.521 Y111.131 E3.58466
G1 X96.5 Y110.36 E3.61031
G1 X96.517 Y109.639 E3.6343
G1 X96.585 Y108.859 E3.66034
G1 X96.69 Y108.106 E3.68563
G1 X96.839 Y107.361 E3.7109
G1 X97.034 Y106.613 E3.73661
G1 X97.264 Y105.894 E3.76171
G1 X97.535 Y105.182 E3.78705
G1 X97.828 Y104.53 E3.81083
G1 X98.175 Y103.854 E3.8361
G1 X98.58 Y103.168 E3.8626
G1 X98.96 Y102.599 E3.88535
G1 X99.463 Y101.934 E3.91309
G1 X99.953 Y101.356 E3.93829
G1 X100.468 Y100.81 E3.96325
G1 X101.01 Y100.304 E3.98791
G1 X101.597 Y99.81 E4.01343
G1 X102.215 Y99.344 E4.03917
G1 X102.783 Y98.964 E4.0619
G1 X103.481 Y98.553 E4.08885
G1 X104.162 Y98.199 E4.11437
G1 X104.817 Y97.906 E4.13824
G1 X105.548 Y97.626 E4.16427
G1 X106.281 Y97.394 E4.18985
G1 X106.979 Y97.217 E4.2138
G1 X107.767 Y97.061 E4.24051
G1 X108.505 Y96.957 E4.2653
G1 X109.241 Y96.897 E4.28986
G1 X110.006 Y96.875 E4.31532
G1 X110.751 Y96.897 E4.34011
G1 X111.499 Y96.958 E4.36507
G1 X112.272 Y97.068 E4.39104
G1 X113.002 Y97.214 E4.4158
G1 X113.74 Y97.403 E4.44114
G1 X114.437 Y97.623 E4.46545
G1 X115.164 Y97.903 E4.49136
G1 X115.854 Y98.208 E4.51645
G1 X116.516 Y98.553 E4.54128
G1 X117.146 Y98.92 E4.56553
G1 X117.796 Y99.355 E4.59154
G1 X118.389 Y99.799 E4.61618
G1 X119.001 Y100.312 E4.64274
G1 X119.519 Y100.8 E4.66641
G1 X120.054 Y101.367 E4.69234
G1 X120.552 Y101.956 E4.71799
G1 X121.021 Y102.577 E4.74388
G1 X121.452 Y103.227 E4.76982
G1 X121.82 Y103.859 E4.79414
G1 X122.173 Y104.542 E4.81971
G1 X122.461 Y105.184 E4.84312
G1 X122.751 Y105.936 E4.86992
G1 X122.981 Y106.674 E4.89563
G1 X123.161 Y107.377 E4.91977
G1 X123.315 Y108.149 E4.94595
G1 X123.421 Y108.921 E4.97187
G1 X123.48 Y109.654 E4.99633
G1 X123.5 Y110.401 E5.02118
G1 X123.477 Y111.151 E5.04614
G1 X123.411 Y111.894 E5.07095
G1 X123.311 Y112.614 E5.09513
G1 X123.166 Y113.35 E5.12008
G1 X122.966 Y114.13 E5.14686
G1 X122.729 Y114.875 E5.17286
G1 X122.466 Y115.547 E5.19686
G1 X122.162 Y116.229 E5.2217
G1 X121.821 Y116.895 E5.24658
G1 X121.416 Y117.581 E5.27308
G1 X121.033 Y118.153 E5.29598
G1 X120.544 Y118.801 E5.32298
G1 X120.059 Y119.38 E5.3481
G1 X119.529 Y119.938 E5.37369
G1 X118.976 Y120.455 E5.39887
G1 X118.4 Y120.942 E5.42396
G1 X117.816 Y121.384 E5.44832
G1 X117.191 Y121.799 E5.47327
G1 X116.542 Y122.183 E5.49835
G1 X115.843 Y122.544 E5.52452
G1 X115.176 Y122.844 E5.54885
G1 X114.467 Y123.115 E5.57409
G1 X113.718 Y123.353 E5.60023
G1 X112.997 Y123.537 E5.62498
G1 X112.241 Y123.687 E5.65061
G1 X111.483 Y123.793 E5.67607
G1 X110.753 Y123.856 E5.70044
G1 X110 Y123.875 E5.72549
G0 F6000 X110 Y123.476
G1 F900 X109.991 Y123.476 E5.72579
G1 X109.248 Y123.454 E5.75052
G1 X108.525 Y123.391 E5.77465
G1 X107.798 Y123.289 E5.79907
G1 X107.068 Y123.142 E5.82384
G1 X106.369 Y122.965 E5.84782
G1 X105.668 Y122.738 E5.87233
G1 X105.018 Y122.493 E5.89543
G1 X104.299 Y122.169 E5.92166
G1 X103.649 Y121.831 E5.94603
G1 X103.045 Y121.479 E5.96928
G1 X102.418 Y121.06 E5.99436
G1 X101.85 Y120.632 E6.01802
G1 X101.256 Y120.133 E6.04382
G1 X100.734 Y119.639 E6.06772
G1 X100.221 Y119.092 E6.09267
G1 X99.74 Y118.522 E6.11747
G1 X99.324 Y117.97 E6.14046
G1 X98.903 Y117.339 E6.16569
G1 X98.531 Y116.709 E6.19003
G1 X98.187 Y116.043 E6.21496
G1 X97.9 Y115.393 E6.23859
G1 X97.632 Y114.699 E6.26333
G1 X97.407 Y113.996 E6.28789
G1 X97.227 Y113.294 E6.31199
G1 X97.082 Y112.558 E6.33694
G1 X96.977 Y111.824 E6.3616
G1 X96.92 Y111.109 E6.38546
G1 X96.9 Y110.37 E6.41005
G1 X96.916 Y109.66 E6.43367
G1 X96.981 Y108.914 E6.45857
G1 X97.083 Y108.183 E6.48312
G1 X97.224 Y107.47 E6.50729
G1 X97.412 Y106.745 E6.53221
G1 X97.638 Y106.035 E6.55699
G1 X97.9 Y105.346 E6.5815
G1 X98.194 Y104.694 E6.60529
G1 X98.534 Y104.031 E6.63008
G1 X98.913 Y103.39 E6.65484
G1 X99.313 Y102.793 E6.67874
G1 X99.749 Y102.217 E6.70277
G1 X100.245 Y101.629 E6.72836
G1 X100.713 Y101.129 E6.75114
G1 X101.268 Y100.609 E6.77643
G1 X101.838 Y100.129 E6.80122
G1 X102.438 Y99.677 E6.8262
G1 X103.035 Y99.279 E6.85007
G1 X103.662 Y98.909 E6.87428
G1 X104.326 Y98.564 E6.89917
G1 X104.981 Y98.271 E6.92303
G1 X105.681 Y98.004 E6.94795
G1 X106.38 Y97.782 E6.97234
G1 X107.086 Y97.603 E6.99657
G1 X107.823 Y97.457 E7.02156
G1 X108.548 Y97.355 E7.04591
G1 X109.263 Y97.296 E7.06977
G1 X110.004 Y97.275 E7.09443
G1 X110.745 Y97.297 E7.11908
G1 X111.455 Y97.355 E7.14278
G1 X112.205 Y97.463 E7.16798
G1 X112.921 Y97.606 E7.19226
G1 X113.641 Y97.791 E7.21699
G1 X114.31 Y98.002 E7.24032
G1 X115.015 Y98.275 E7.26547
G1 X115.679 Y98.568 E7.2896
G1 X116.355 Y98.922 E7.31499
G1 X116.975 Y99.285 E7.33888
G1 X117.568 Y99.683 E7.36263
G1 X118.187 Y100.149 E7.3884
G1 X118.748 Y100.623 E7.41283
G1 X119.27 Y101.117 E7.43674
G1 X119.783 Y101.665 E7.4617
G1 X120.255 Y102.225 E7.48606
G1 X120.667 Y102.769 E7.50876
G1 X121.104 Y103.424 E7.53495
G1 X121.465 Y104.043 E7.55878
G1 X121.797 Y104.682 E7.58273
G1 X122.104 Y105.367 E7.6077
G1 X122.369 Y106.056 E7.63225
G1 X122.594 Y106.774 E7.65728
G1 X122.769 Y107.457 E7.68073
G1 X122.919 Y108.205 E7.7061
G1 X123.021 Y108.937 E7.73068
G1 X123.08 Y109.653 E7.75458
G1 X123.1 Y110.39 E7.7791
G1 X123.078 Y111.116 E7.80326
G1 X123.015 Y111.839 E7.8274
G1 X122.913 Y112.565 E7.85178
G1 X122.775 Y113.264 E7.87548
G1 X122.585 Y114.009 E7.90105
G1 X122.356 Y114.73 E7.92621
G1 X122.101 Y115.385 E7.94959
G1 X121.794 Y116.07 E7.97456
G1 X121.462 Y116.717 E7.99874
G1 X121.083 Y117.358 E8.02351
G1 X120.702 Y117.929 E8.04634
G1 X120.256 Y118.522 E8.07102
G1 X119.768 Y119.105 E8.09631
G1 X119.268 Y119.634 E8.12052
G1 X118.717 Y120.15 E8.14563
G1 X118.159 Y120.623 E8.16995
G1 X117.584 Y121.058 E8.19394
G1 X116.97 Y121.465 E8.21844
G1 X116.333 Y121.841 E8.24304
G1 X115.679 Y122.18 E8.26754
G1 X115.023 Y122.475 E8.29146
G1 X114.299 Y122.749 E8.31721
G1 X113.618 Y122.966 E8.34098
G1 X112.95 Y123.138 E8.36392
G1 X112.185 Y123.291 E8.38987
G1 X111.465 Y123.393 E8.41406
G1 X110.726 Y123.456 E8.43873
G1 X110 Y123.476 E8.46288
G1 F2700 E3.46288
G0 F6000 X109.992 Y123.785
G0 X109.962 Y124.456
G0 X110.022 Y135.949
G0 X110 Y136.152
G1 F2700 E8.46288
G1 F900 X110.139 Y136.135 E8.46754
G1 X110.559 Y136.221 E8.4818
G1 X111.046 Y136.469 E8.49998
G1 X111.271 Y136.623 E8.50905
G1 X116.741 Y142.092 E8.76631
G1 X119.396 Y135.198 E9.01203
G1 X119.757 Y134.683 E9.03294
G1 X119.93 Y134.511 E9.04106
G1 X120.39 Y134.179 E9.05993
G1 X120.841 Y133.999 E9.07608
G1 X121.092 Y133.933 E9.08471
G1 X121.77 Y133.896 E9.10729
G1 X122.282 Y134.012 E9.12475
G1 X129.06 Y136.609 E9.36617
G1 X128.713 Y129.982 E9.58689
G1 X128.725 Y129.476 E9.60372
G1 X128.837 Y128.963 E9.62119
G1 X129.025 Y128.513 E9.63741
G1 X129.285 Y128.094 E9.65381
G1 X129.688 Y127.642 E9.67395
G1 X130.191 Y127.302 E9.69414
G1 X130.411 Y127.181 E9.7025
G1 X130.977 Y126.998 E9.72228
G1 X131.391 Y126.942 E9.73618
G1 X138.082 Y126.588 E9.95903
G1 X135.194 Y120.913 E10.17082
G1 X135.007 Y120.306 E10.19194
G1 X134.924 Y119.691 E10.21258
G1 X134.966 Y118.954 E10.23713
G1 X135.179 Y118.279 E10.26068
G1 X135.466 Y117.735 E10.28113
G1 X135.83 Y117.263 E10.30096
G1 X136.421 Y116.736 E10.3273
G1 X142.253 Y113.765 E10.54499
G1 X137.875 Y110.225 E10.73225
G1 X137.376 Y109.739 E10.75541
G1 X136.971 Y109.188 E10.77816
G1 X136.68 Y108.586 E10.8004
G1 X136.443 Y107.746 E10.82943
G1 X136.431 Y106.906 E10.85737
G1 X136.572 Y106.046 E10.88635
G1 X136.909 Y105.304 E10.91346
G1 X137.147 Y104.916 E10.9286
G1 X140.839 Y100.355 E11.12377
G1 X135.82 Y99.007 E11.29662
G1 X135.461 Y98.888 E11.3092
G1 X135.18 Y98.773 E11.3193
G1 X134.88 Y98.62 E11.3305
G1 X134.538 Y98.409 E11.34386
G1 X134.189 Y98.147 E11.35838
G1 X133.909 Y97.886 E11.37111
G1 X133.632 Y97.582 E11.38479
G1 X133.372 Y97.239 E11.3991
G1 X133.211 Y96.98 E11.40925
G1 X133.029 Y96.633 E11.42228
G1 X132.886 Y96.282 E11.43488
G1 X132.771 Y95.924 E11.44739
G1 X132.644 Y95.37 E11.4663
G1 X132.62 Y94.791 E11.48557
G1 X132.635 Y94.411 E11.49822
G1 X132.683 Y94.023 E11.51122
G1 X132.767 Y93.65 E11.52394
G1 X134.097 Y88.677 E11.69515
G1 X129.445 Y89.413 E11.8518
G1 X129.027 Y89.452 E11.86577
G1 X128.594 Y89.457 E11.88017
G1 X128.261 Y89.435 E11.89127
G1 X127.848 Y89.376 E11.90515
G1 X127.451 Y89.286 E11.91869
G1 X126.991 Y89.133 E11.93481
G1 X126.608 Y88.964 E11.94873
G1 X126.254 Y88.774 E11.9621
G1 X125.931 Y88.566 E11.97487
G1 X125.514 Y88.241 E11.99246
G1 X125.177 Y87.913 E12.0081
G1 X124.915 Y87.607 E12.0215
G1 X124.661 Y87.255 E12.03593
G1 X124.439 Y86.883 E12.05034
G1 X124.288 Y86.58 E12.0616
G1 X124.126 Y86.169 E12.0763
G1 X124.018 Y85.819 E12.08848
G1 X123.917 Y85.337 E12.10486
G1 X123.187 Y80.748 E12.25941
G1 X119.658 Y83.042 E12.3994
G1 X119.266 Y83.265 E12.4144
G1 X118.938 Y83.421 E12.42648
G1 X118.483 Y83.598 E12.44272
G1 X118.02 Y83.73 E12.45873
G1 X117.526 Y83.821 E12.47544
G1 X117.119 Y83.859 E12.48904
G1 X116.632 Y83.868 E12.50524
G1 X116.146 Y83.837 E12.52143
G1 X115.721 Y83.77 E12.53575
G1 X115.261 Y83.655 E12.55152
G1 X114.786 Y83.491 E12.56823
G1 X114.321 Y83.281 E12.5852
G1 X113.89 Y83.036 E12.60169
G1 X113.557 Y82.806 E12.61515
G1 X113.204 Y82.518 E12.6303
G1 X112.85 Y82.174 E12.64672
G1 X112.542 Y81.82 E12.66233
G1 X112.261 Y81.431 E12.67829
G1 X109.998 Y77.946 E12.81649
G1 X108.015 Y80.999 E12.93758
G1 X107.731 Y81.401 E12.95395
G1 X107.4 Y81.791 E12.97096
G1 X107.051 Y82.137 E12.9873
G1 X106.649 Y82.471 E13.00469
G1 X106.233 Y82.761 E13.02155
G1 X105.726 Y83.051 E13.04098
G1 X105.29 Y83.247 E13.05688
G1 X104.789 Y83.425 E13.07456
G1 X104.29 Y83.554 E13.09171
G1 X103.741 Y83.643 E13.1102
G1 X103.33 Y83.673 E13.12391
G1 X102.713 Y83.672 E13.14443
G1 X102.197 Y83.615 E13.1617
G1 X101.704 Y83.522 E13.17839
G1 X101.195 Y83.374 E13.19602
G1 X100.802 Y83.229 E13.20995
G1 X100.335 Y83.01 E13.2271
G1 X99.862 Y82.732 E13.24535
G1 X96.811 Y80.755 E13.36627
G1 X96.306 Y83.905 E13.47238
G1 X96.216 Y84.355 E13.48764
G1 X96.061 Y84.886 E13.50604
G1 X95.858 Y85.411 E13.52476
G1 X95.563 Y86.001 E13.5467
G1 X95.288 Y86.449 E13.56418
G1 X94.995 Y86.846 E13.5806
G1 X94.6 Y87.296 E13.60051
G1 X94.194 Y87.678 E13.61905
G1 X93.759 Y88.022 E13.6375
G1 X93.278 Y88.342 E13.65671
G1 X92.8 Y88.598 E13.67475
G1 X92.247 Y88.837 E13.69478
G1 X91.791 Y88.988 E13.71076
G1 X91.225 Y89.125 E13.73013
G1 X90.675 Y89.208 E13.74863
G1 X90.125 Y89.244 E13.76696
G1 X89.569 Y89.23 E13.78546
G1 X89.023 Y89.173 E13.80372
G1 X85.902 Y88.68 E13.90881
G1 X86.596 Y91.275 E13.99816
G1 X86.699 Y91.742 E14.01406
G1 X86.783 Y92.318 E14.03342
G1 X86.816 Y92.888 E14.05241
G1 X86.804 Y93.424 E14.07024
G1 X86.737 Y94.047 E14.09108
G1 X86.628 Y94.608 E14.11009
G1 X86.493 Y95.094 E14.12687
G1 X86.276 Y95.682 E14.14771
G1 X86.007 Y96.242 E14.16838
G1 X85.739 Y96.711 E14.18634
G1 X85.43 Y97.156 E14.20436
G1 X85.067 Y97.598 E14.22339
G1 X84.678 Y98.003 E14.24206
G1 X84.254 Y98.375 E14.26082
G1 X83.798 Y98.714 E14.27972
G1 X83.295 Y99.023 E14.29936
G1 X82.781 Y99.283 E14.31852
G1 X82.281 Y99.49 E14.33651
G1 X81.699 Y99.673 E14.35681
G1 X79.158 Y100.354 E14.4443
G1 X80.53 Y102.049 E14.51683
