(Exported by FreeCAD)
(Post Processor: grbl_post)
(Output Time:2024-04-17 16:00:46.066113)
(Begin preamble)
G17 G90
G21
(Begin operation: TC: 0.5mm_droite)
(Path: TC: 0.5mm_droite)
(TC: 0.5mm_droite)
(Begin toolchange)
( M6 T1 )
M3 S5500
(Finish operation: TC: 0.5mm_droite)
(Begin operation: Fixture)
(Path: Fixture)
G54
(Finish operation: Fixture)
(Begin operation: Pocket_Shape)
(Path: Pocket_Shape)
(Pocket_Shape)
G0 Z5.000
G0 X10.000 Y5.976
G0 X10.000 Y5.977
G0 X10.000 Y5.977 Z3.000
G1 X10.000 Y5.977 Z-0.100 F300.000
G1 X9.998 Y5.967 Z-0.100 F1200.000
G1 X9.998 Y0.248 Z-0.100 F1200.000
G1 X10.002 Y0.248 Z-0.100 F1200.000
G1 X10.002 Y5.967 Z-0.100 F1200.000
G1 X10.000 Y5.977 Z-0.100 F1200.000
G0 Z5.000
G0 Z5.000
G0 X10.000 Y5.977
G0 X19.997 Y5.967
G0 X19.997 Y5.967 Z3.000
G1 X19.997 Y5.967 Z-0.100 F300.000
G1 X19.997 Y0.248 Z-0.100 F1200.000
G1 X20.002 Y0.248 Z-0.100 F1200.000
G1 X20.002 Y5.967 Z-0.100 F1200.000
G1 X20.000 Y5.977 Z-0.100 F1200.000
G1 X19.997 Y5.967 Z-0.100 F1200.000
G0 Z5.000
G0 Z5.000
G0 X19.997 Y5.967
G0 X29.997 Y5.976
G0 X29.997 Y5.976 Z3.000
G1 X29.997 Y5.976 Z-0.100 F300.000
G1 X29.997 Y0.248 Z-0.100 F1200.000
G1 X30.003 Y0.248 Z-0.100 F1200.000
G1 X30.003 Y5.976 Z-0.100 F1200.000
G1 X30.000 Y5.988 Z-0.100 F1200.000
G1 X29.997 Y5.976 Z-0.100 F1200.000
G0 Z5.000
G0 Z5.000
G0 X29.997 Y5.976
G0 X39.998 Y5.976
G0 X39.998 Y5.976 Z3.000
G1 X39.998 Y5.976 Z-0.100 F300.000
G1 X39.998 Y0.248 Z-0.100 F1200.000
G1 X40.002 Y0.248 Z-0.100 F1200.000
G1 X40.002 Y5.976 Z-0.100 F1200.000
G1 X40.000 Y5.988 Z-0.100 F1200.000
G1 X39.998 Y5.976 Z-0.100 F1200.000
G0 Z5.000
G0 Z5.000
G0 X39.998 Y5.976
G0 X49.998
G0 X49.998 Z3.000
G1 X49.998 Y5.976 Z-0.100 F300.000
G1 X49.998 Y0.248 Z-0.100 F1200.000
G1 X50.002 Y0.248 Z-0.100 F1200.000
G1 X50.002 Y5.976 Z-0.100 F1200.000
G1 X50.000 Y5.988 Z-0.100 F1200.000
G1 X49.998 Y5.976 Z-0.100 F1200.000
G0 Z5.000
G0 Z5.000
G0 X49.998 Y5.976
G0 X59.998
G0 X59.998 Z3.000
G1 X59.998 Y5.976 Z-0.100 F300.000
G1 X59.998 Y0.248 Z-0.100 F1200.000
G1 X60.002 Y0.248 Z-0.100 F1200.000
G1 X60.002 Y5.976 Z-0.100 F1200.000
G1 X60.000 Y5.988 Z-0.100 F1200.000
G1 X59.998 Y5.976 Z-0.100 F1200.000
G0 Z5.000
G0 Z5.000
G0 X59.998 Y5.976
G0 X69.998 Y5.976
G0 X69.998 Y5.976 Z3.000
G1 X69.998 Y5.976 Z-0.100 F300.000
G1 X69.998 Y0.248 Z-0.100 F1200.000
G1 X70.003 Y0.248 Z-0.100 F1200.000
G1 X70.002 Y5.976 Z-0.100 F1200.000
G1 X70.000 Y5.988 Z-0.100 F1200.000
G1 X69.998 Y5.976 Z-0.100 F1200.000
G0 Z5.000
G0 Z5.000
G0 X69.998 Y5.976
G0 X79.998 Y5.976
G0 X79.998 Y5.976 Z3.000
G1 X79.998 Y5.976 Z-0.100 F300.000
G1 X79.998 Y0.248 Z-0.100 F1200.000
G1 X80.003 Y0.248 Z-0.100 F1200.000
G1 X80.003 Y5.976 Z-0.100 F1200.000
G1 X80.000 Y5.988 Z-0.100 F1200.000
G1 X79.998 Y5.976 Z-0.100 F1200.000
G0 Z5.000
G0 Z5.000
G0 X79.998 Y5.976
G0 X89.998
G0 X89.998 Z3.000
G1 X89.998 Y5.976 Z-0.100 F300.000
G1 X89.998 Y0.248 Z-0.100 F1200.000
G1 X90.002 Y0.248 Z-0.100 F1200.000
G1 X90.002 Y5.976 Z-0.100 F1200.000
G1 X90.000 Y5.988 Z-0.100 F1200.000
G1 X89.998 Y5.976 Z-0.100 F1200.000
G0 Z5.000
G0 Z5.000
G0 X89.998 Y5.976
G0 X99.998
G0 X99.998 Z3.000
G1 X99.998 Y5.976 Z-0.100 F300.000
G1 X99.998 Y0.248 Z-0.100 F1200.000
G1 X100.002 Y0.248 Z-0.100 F1200.000
G1 X100.002 Y5.976 Z-0.100 F1200.000
G1 X100.000 Y5.988 Z-0.100 F1200.000
G1 X99.998 Y5.976 Z-0.100 F1200.000
G0 Z5.000
G0 Z5.000
G0 X99.998 Y5.976
G0 X109.998
G0 X109.998 Z3.000
G1 X109.998 Y5.976 Z-0.100 F300.000
G1 X109.998 Y0.248 Z-0.100 F1200.000
G1 X110.002 Y0.248 Z-0.100 F1200.000
G1 X110.002 Y5.976 Z-0.100 F1200.000
G1 X110.000 Y5.988 Z-0.100 F1200.000
G1 X109.998 Y5.976 Z-0.100 F1200.000
G0 Z5.000
G0 Z5.000
G0 X109.998 Y5.976
G0 X119.998 Y5.967
G0 X119.998 Y5.967 Z3.000
G1 X119.998 Y5.967 Z-0.100 F300.000
G1 X119.998 Y0.248 Z-0.100 F1200.000
G1 X120.002 Y0.248 Z-0.100 F1200.000
G1 X120.002 Y5.967 Z-0.100 F1200.000
G1 X120.000 Y5.977 Z-0.100 F1200.000
G1 X119.998 Y5.967 Z-0.100 F1200.000
G0 Z5.000
G0 Z5.000
G0 X119.998 Y5.967
G0 X129.998
G0 X129.998 Z3.000
G1 X129.998 Y5.967 Z-0.100 F300.000
G1 X129.998 Y0.248 Z-0.100 F1200.000
G1 X130.002 Y0.248 Z-0.100 F1200.000
G1 X130.002 Y5.967 Z-0.100 F1200.000
G1 X130.000 Y5.977 Z-0.100 F1200.000
G1 X129.998 Y5.967 Z-0.100 F1200.000
G0 Z5.000
G0 Z5.000
G0 X129.998 Y5.967
G0 X139.998
G0 X139.998 Z3.000
G1 X139.998 Y5.967 Z-0.100 F300.000
G1 X139.998 Y0.248 Z-0.100 F1200.000
G1 X140.002 Y0.248 Z-0.100 F1200.000
G1 X140.002 Y5.967 Z-0.100 F1200.000
G1 X140.000 Y5.977 Z-0.100 F1200.000
G1 X139.998 Y5.967 Z-0.100 F1200.000
G0 Z5.000
G0 Z5.000
G0 X139.998 Y5.967
G0 X149.998 Y5.976
G0 X149.998 Y5.976 Z3.000
G1 X149.998 Y5.976 Z-0.100 F300.000
G1 X149.997 Y0.248 Z-0.100 F1200.000
G1 X150.002 Y0.248 Z-0.100 F1200.000
G1 X150.002 Y5.976 Z-0.100 F1200.000
G1 X150.000 Y5.988 Z-0.100 F1200.000
G1 X149.998 Y5.976 Z-0.100 F1200.000
G0 Z5.000
G0 Z5.000
G0 X149.998 Y5.976
G0 X159.998 Y5.967
G0 X159.998 Y5.967 Z3.000
G1 X159.998 Y5.967 Z-0.100 F300.000
G1 X159.998 Y0.248 Z-0.100 F1200.000
G1 X160.002 Y0.248 Z-0.100 F1200.000
G1 X160.002 Y5.967 Z-0.100 F1200.000
G1 X160.000 Y5.977 Z-0.100 F1200.000
G1 X159.998 Y5.967 Z-0.100 F1200.000
G0 Z5.000
G0 Z5.000
G0 X159.998 Y5.967
G0 X169.998
G0 X169.998 Z3.000
G1 X169.998 Y5.967 Z-0.100 F300.000
G1 X169.998 Y0.248 Z-0.100 F1200.000
G1 X170.002 Y0.248 Z-0.100 F1200.000
G1 X170.002 Y5.967 Z-0.100 F1200.000
G1 X170.000 Y5.977 Z-0.100 F1200.000
G1 X169.998 Y5.967 Z-0.100 F1200.000
G0 Z5.000
G0 Z5.000
G0 X169.998 Y5.967
G0 X179.998
G0 X179.998 Z3.000
G1 X179.998 Y5.967 Z-0.100 F300.000
G1 X179.998 Y0.248 Z-0.100 F1200.000
G1 X180.002 Y0.248 Z-0.100 F1200.000
G1 X180.002 Y5.967 Z-0.100 F1200.000
G1 X180.000 Y5.977 Z-0.100 F1200.000
G1 X179.998 Y5.967 Z-0.100 F1200.000
G0 Z5.000
G0 Z5.000
G0 X179.998 Y5.967
G0 X189.998 Y5.976
G0 X189.998 Y5.976 Z3.000
G1 X189.998 Y5.976 Z-0.100 F300.000
G1 X189.998 Y0.248 Z-0.100 F1200.000
G1 X190.002 Y0.248 Z-0.100 F1200.000
G1 X190.002 Y5.976 Z-0.100 F1200.000
G1 X190.000 Y5.988 Z-0.100 F1200.000
G1 X189.998 Y5.976 Z-0.100 F1200.000
G0 Z5.000
G0 Z5.000
G0 X189.998 Y5.976
G0 X199.998 Y5.976
G0 X199.998 Y5.976 Z3.000
G1 X199.998 Y5.976 Z-0.100 F300.000
G1 X199.998 Y0.248 Z-0.100 F1200.000
G1 X200.002 Y0.248 Z-0.100 F1200.000
G1 X200.002 Y5.976 Z-0.100 F1200.000
G1 X200.000 Y5.988 Z-0.100 F1200.000
G1 X199.998 Y5.976 Z-0.100 F1200.000
G0 Z5.000
G0 Z5.000
G0 X199.998 Y5.976
G0 X209.998
G0 X209.998 Z3.000
G1 X209.998 Y5.976 Z-0.100 F300.000
G1 X209.998 Y0.248 Z-0.100 F1200.000
G1 X210.002 Y0.248 Z-0.100 F1200.000
G1 X210.002 Y5.976 Z-0.100 F1200.000
G1 X210.000 Y5.988 Z-0.100 F1200.000
G1 X209.998 Y5.976 Z-0.100 F1200.000
G0 Z5.000
G0 Z5.000
G0 X209.998 Y5.976
G0 X219.998
G0 X219.998 Z3.000
G1 X219.998 Y5.976 Z-0.100 F300.000
G1 X219.998 Y0.248 Z-0.100 F1200.000
G1 X220.002 Y0.248 Z-0.100 F1200.000
G1 X220.002 Y5.976 Z-0.100 F1200.000
G1 X220.000 Y5.988 Z-0.100 F1200.000
G1 X219.998 Y5.976 Z-0.100 F1200.000
G0 Z5.000
G0 Z5.000
G0 X219.998 Y5.976
G0 X229.998
G0 X229.998 Z3.000
G1 X229.998 Y5.976 Z-0.100 F300.000
G1 X229.998 Y0.248 Z-0.100 F1200.000
G1 X230.002 Y0.248 Z-0.100 F1200.000
G1 X230.002 Y5.976 Z-0.100 F1200.000
G1 X230.000 Y5.988 Z-0.100 F1200.000
G1 X229.998 Y5.976 Z-0.100 F1200.000
G0 Z5.000
G0 Z5.000
G0 X229.998 Y5.976
G0 X239.998 Y5.976
G0 X239.998 Y5.976 Z3.000
G1 X239.998 Y5.976 Z-0.100 F300.000
G1 X239.998 Y0.248 Z-0.100 F1200.000
G1 X240.002 Y0.248 Z-0.100 F1200.000
G1 X240.002 Y5.976 Z-0.100 F1200.000
G1 X240.000 Y5.988 Z-0.100 F1200.000
G1 X239.998 Y5.976 Z-0.100 F1200.000
G0 Z5.000
G0 Z5.000
G0 X239.998 Y5.976
G0 X249.998 Y5.976
G0 X249.998 Y5.976 Z3.000
G1 X249.998 Y5.976 Z-0.100 F300.000
G1 X249.998 Y0.248 Z-0.100 F1200.000
G1 X250.002 Y0.248 Z-0.100 F1200.000
G1 X250.002 Y5.976 Z-0.100 F1200.000
G1 X250.000 Y5.988 Z-0.100 F1200.000
G1 X249.998 Y5.976 Z-0.100 F1200.000
G0 Z5.000
G0 Z5.000
G0 X249.998 Y5.976
G0 X259.998
G0 X259.998 Z3.000
G1 X259.998 Y5.976 Z-0.100 F300.000
G1 X259.998 Y0.248 Z-0.100 F1200.000
G1 X260.002 Y0.248 Z-0.100 F1200.000
G1 X260.002 Y5.976 Z-0.100 F1200.000
G1 X260.000 Y5.988 Z-0.100 F1200.000
G1 X259.998 Y5.976 Z-0.100 F1200.000
G0 Z5.000
G0 Z5.000
G0 X259.998 Y5.976
G0 X269.998 Y5.976
G0 X269.998 Y5.976 Z3.000
G1 X269.998 Y5.976 Z-0.100 F300.000
G1 X269.998 Y0.248 Z-0.100 F1200.000
G1 X270.002 Y0.248 Z-0.100 F1200.000
G1 X270.002 Y5.976 Z-0.100 F1200.000
G1 X270.000 Y5.988 Z-0.100 F1200.000
G1 X269.998 Y5.976 Z-0.100 F1200.000
G0 Z5.000
G0 Z5.000
G0 X269.998 Y5.976
G0 X279.998 Y5.967
G0 X279.998 Y5.967 Z3.000
G1 X279.998 Y5.967 Z-0.100 F300.000
G1 X279.998 Y0.248 Z-0.100 F1200.000
G1 X280.002 Y0.248 Z-0.100 F1200.000
G1 X280.002 Y5.967 Z-0.100 F1200.000
G1 X280.000 Y5.977 Z-0.100 F1200.000
G1 X279.998 Y5.967 Z-0.100 F1200.000
G0 Z5.000
G0 Z5.000
G0 X279.998 Y5.967
G0 X289.998
G0 X289.998 Z3.000
G1 X289.998 Y5.967 Z-0.100 F300.000
G1 X289.998 Y0.248 Z-0.100 F1200.000
G1 X290.002 Y0.248 Z-0.100 F1200.000
G1 X290.002 Y5.967 Z-0.100 F1200.000
G1 X290.000 Y5.977 Z-0.100 F1200.000
G1 X289.998 Y5.967 Z-0.100 F1200.000
G0 Z5.000
G0 Z5.000
G0 X289.998 Y5.967
G0 X294.023 Y20.000
G0 X294.023 Y20.000 Z3.000
G1 X294.023 Y20.000 Z-0.100 F300.000
G1 X294.033 Y19.998 Z-0.100 F1200.000
G1 X299.752 Y19.998 Z-0.100 F1200.000
G3 X299.752 Y20.002 Z-0.100 I-12.759 J0.001 K0.000 F1200.000
G1 X294.033 Y20.002 Z-0.100 F1200.000
G1 X294.023 Y20.000 Z-0.100 F1200.000
G0 Z5.000
G0 Z5.000
G0 X294.023 Y20.000
G0 X267.977 Y102.608
G0 X267.977 Y102.608 Z3.000
G1 X267.977 Y102.608 Z-0.100 F300.000
G1 X267.986 Y102.612 Z-0.100 F1200.000
G1 X272.671 Y105.892 Z-0.100 F1200.000
G3 X272.669 Y105.897 Z-0.100 I-2.461 J-1.720 K0.000 F1200.000
G1 X267.983 Y102.616 Z-0.100 F1200.000
G1 X267.977 Y102.608 Z-0.100 F1200.000
G0 Z5.000
G0 Z5.000
G0 X267.977 Y102.608
G0 X260.331 Y112.575
G0 X260.331 Y112.575 Z3.000
G1 X260.331 Y112.575 Z-0.100 F300.000
G1 X264.719 Y116.257 Z-0.100 F1200.000
G3 X264.715 Y116.261 Z-0.100 I-2.338 J-1.959 K0.000 F1200.000
G1 X260.327 Y112.579 Z-0.100 F1200.000
G1 X260.319 Y112.569 Z-0.100 F1200.000
G1 X260.331 Y112.575 Z-0.100 F1200.000
G0 Z5.000
G0 Z5.000
G0 X260.331 Y112.575
G0 X251.842 Y121.839
G0 X251.842 Y121.839 Z3.000
G1 X251.842 Y121.839 Z-0.100 F300.000
G1 X255.893 Y125.889 Z-0.100 F1200.000
G3 X255.889 Y125.893 Z-0.100 I-2.157 J-2.153 K0.000 F1200.000
G1 X251.839 Y121.842 Z-0.100 F1200.000
G1 X251.832 Y121.832 Z-0.100 F1200.000
G1 X251.842 Y121.839 Z-0.100 F1200.000
G0 Z5.000
G0 Z5.000
G0 X251.842 Y121.839
G0 X232.616 Y137.983
G0 X232.616 Y137.983 Z3.000
G1 X232.616 Y137.983 Z-0.100 F300.000
G1 X235.897 Y142.669 Z-0.100 F1200.000
G3 X235.892 Y142.671 Z-0.100 I-1.724 J-2.458 K0.000 F1200.000
G1 X232.612 Y137.986 Z-0.100 F1200.000
G1 X232.608 Y137.977 Z-0.100 F1200.000
G1 X232.616 Y137.983 Z-0.100 F1200.000
G0 Z5.000
G0 Z5.000
G0 X232.616 Y137.983
G0 X222.018 Y144.735
G0 X222.018 Y144.735 Z3.000
G1 X222.018 Y144.735 Z-0.100 F300.000
G1 X224.878 Y149.688 Z-0.100 F1200.000
G3 X224.874 Y149.691 Z-0.100 I-1.462 J-2.527 K0.000 F1200.000
G1 X222.014 Y144.737 Z-0.100 F1200.000
G1 X222.012 Y144.728 Z-0.100 F1200.000
G1 X222.018 Y144.735 Z-0.100 F1200.000
G0 Z5.000
G0 Z5.000
G0 X222.018 Y144.735
G0 X187.279 Y159.116
G0 X187.279 Y159.116 Z3.000
G1 X187.279 Y159.116 Z-0.100 F300.000
G1 X188.761 Y164.649 Z-0.100 F1200.000
G3 X188.756 Y164.650 Z-0.100 I-0.806 J-2.998 K0.000 F1200.000
G1 X187.274 Y159.118 Z-0.100 F1200.000
G1 X187.273 Y159.105 Z-0.100 F1200.000
G1 X187.279 Y159.116 Z-0.100 F1200.000
G0 Z5.000
G0 Z5.000
G0 X187.279 Y159.116
G0 X162.555 Y163.476
G0 X162.555 Y163.476 Z3.000
G1 X162.555 Y163.476 Z-0.100 F300.000
G1 X163.054 Y169.182 Z-0.100 F1200.000
G3 X163.049 Y169.183 Z-0.100 I-0.270 J-3.052 K0.000 F1200.000
G1 X162.550 Y163.477 Z-0.100 F1200.000
G1 X162.551 Y163.464 Z-0.100 F1200.000
G1 X162.555 Y163.476 Z-0.100 F1200.000
G0 Z5.000
G0 Z5.000
G0 X162.555 Y163.476
G0 X150.002 Y164.033
G0 X150.002 Y164.033 Z3.000
G1 X150.002 Y164.033 Z-0.100 F300.000
G1 X150.002 Y169.752 Z-0.100 F1200.000
G3 X149.998 Y169.752 Z-0.100 I-0.002 J-2.841 K0.000 F1200.000
G1 X149.998 Y164.033 Z-0.100 F1200.000
G1 X150.000 Y164.023 Z-0.100 F1200.000
G1 X150.002 Y164.033 Z-0.100 F1200.000
G0 Z5.000
G0 Z5.000
G0 X150.002 Y164.033
G0 X100.743 Y155.339
G0 X100.743 Y155.339 Z3.000
G1 X100.743 Y155.339 Z-0.100 F300.000
G1 X98.784 Y160.722 Z-0.100 F1200.000
G3 X98.779 Y160.720 Z-0.100 I1.058 J-2.914 K0.000 F1200.000
G1 X100.738 Y155.338 Z-0.100 F1200.000
G1 X100.745 Y155.327 Z-0.100 F1200.000
G1 X100.743 Y155.339 Z-0.100 F1200.000
G0 Z5.000
G0 Z5.000
G0 X100.743 Y155.339
G0 X67.388 Y137.986
G0 X67.388 Y137.986 Z3.000
G1 X67.388 Y137.986 Z-0.100 F300.000
G1 X64.108 Y142.671 Z-0.100 F1200.000
G3 X64.103 Y142.669 Z-0.100 I1.768 J-2.529 K0.000 F1200.000
G1 X67.384 Y137.983 Z-0.100 F1200.000
G1 X67.392 Y137.977 Z-0.100 F1200.000
G1 X67.388 Y137.986 Z-0.100 F1200.000
G0 Z5.000
G0 Z5.000
G0 X67.388 Y137.986
G0 X57.420 Y130.337
G0 X57.420 Y130.337 Z3.000
G1 X57.420 Y130.337 Z-0.100 F300.000
G1 X53.743 Y134.719 Z-0.100 F1200.000
G3 X53.739 Y134.715 Z-0.100 I1.959 J-2.338 K0.000 F1200.000
G1 X57.416 Y130.334 Z-0.100 F1200.000
G1 X57.424 Y130.328 Z-0.100 F1200.000
G1 X57.420 Y130.337 Z-0.100 F1200.000
G0 Z5.000
G0 Z5.000
G0 X57.420 Y130.337
G0 X48.155 Y121.848
G0 X48.155 Y121.848 Z3.000
G1 X48.155 Y121.848 Z-0.100 F300.000
G1 X44.111 Y125.893 Z-0.100 F1200.000
G3 X44.107 Y125.889 Z-0.100 I2.078 J-2.082 K0.000 F1200.000
G1 X48.152 Y121.845 Z-0.100 F1200.000
G1 X48.160 Y121.840 Z-0.100 F1200.000
G1 X48.155 Y121.848 Z-0.100 F1200.000
G0 Z5.000
G0 Z5.000
G0 X48.155 Y121.848
G0 X39.673 Y112.579
G0 X39.673 Y112.579 Z3.000
G1 X39.673 Y112.579 Z-0.100 F300.000
G1 X35.285 Y116.261 Z-0.100 F1200.000
G3 X35.281 Y116.257 Z-0.100 I2.335 J-1.962 K0.000 F1200.000
G1 X39.669 Y112.575 Z-0.100 F1200.000
G1 X39.681 Y112.569 Z-0.100 F1200.000
G1 X39.673 Y112.579 Z-0.100 F1200.000
G0 Z5.000
G0 Z5.000
G0 X39.673 Y112.579
G0 X32.024 Y102.611
G0 X32.024 Y102.611 Z3.000
G1 X32.024 Y102.611 Z-0.100 F300.000
G1 X27.331 Y105.897 Z-0.100 F1200.000
G3 X27.329 Y105.892 Z-0.100 I2.526 J-1.772 K0.000 F1200.000
G1 X32.021 Y102.607 Z-0.100 F1200.000
G1 X32.032 Y102.602 Z-0.100 F1200.000
G1 X32.024 Y102.611 Z-0.100 F1200.000
G0 Z5.000
G0 Z5.000
G0 X32.024 Y102.611
G0 X14.662 Y69.262
G0 X14.662 Y69.262 Z3.000
G1 X14.662 Y69.262 Z-0.100 F300.000
G1 X9.280 Y71.221 Z-0.100 F1200.000
G3 X9.278 Y71.216 Z-0.100 I2.655 J-0.969 K0.000 F1200.000
G1 X14.661 Y69.257 Z-0.100 F1200.000
G1 X14.673 Y69.255 Z-0.100 F1200.000
G1 X14.662 Y69.262 Z-0.100 F1200.000
G0 Z5.000
G0 Z5.000
G0 X14.662 Y69.262
G0 X10.884 Y57.279
G0 X10.884 Y57.279 Z3.000
G1 X10.884 Y57.279 Z-0.100 F300.000
G1 X5.351 Y58.761 Z-0.100 F1200.000
G3 X5.350 Y58.756 Z-0.100 I2.880 J-0.774 K0.000 F1200.000
G1 X10.882 Y57.274 Z-0.100 F1200.000
G1 X10.895 Y57.273 Z-0.100 F1200.000
G1 X10.884 Y57.279 Z-0.100 F1200.000
G0 Z5.000
G0 Z5.000
G0 X10.884 Y57.279
G0 X6.524 Y32.555
G0 X6.524 Y32.555 Z3.000
G1 X6.524 Y32.555 Z-0.100 F300.000
G1 X0.818 Y33.054 Z-0.100 F1200.000
G3 X0.817 Y33.049 Z-0.100 I3.182 J-0.281 K0.000 F1200.000
G1 X6.523 Y32.550 Z-0.100 F1200.000
G1 X6.536 Y32.551 Z-0.100 F1200.000
G1 X6.524 Y32.555 Z-0.100 F1200.000
G0 Z5.000
G0 Z5.000
G0 X6.524 Y32.555
G0 X5.976 Y20.002
G0 X5.976 Y20.002 Z3.000
G1 X5.976 Y20.002 Z-0.100 F300.000
G1 X0.248 Y20.002 Z-0.100 F1200.000
G3 X0.248 Y19.998 Z-0.100 I12.499 J-0.004 K0.000 F1200.000
G1 X5.976 Y19.998 Z-0.100 F1200.000
G1 X5.988 Y20.000 Z-0.100 F1200.000
G1 X5.976 Y20.002 Z-0.100 F1200.000
G0 Z5.000
G0 Z5.000
(Finish operation: Pocket_Shape)
(Begin postamble)
M5
G17 G90
M2
